zhuoxili-jackie/tripod-support-walk/examples/pcbB样数据/trajectory_trotting_acc_02.csv
root_pos_x,root_pos_y,root_pos_z,root_rot_x,root_rot_y,root_rot_z,root_rot_w,FL_hip_joint,FL_thigh_joint,FL_calf_joint,FR_hip_joint,FR_thigh_joint,FR_calf_joint,RL_hip_joint,RL_thigh_joint,RL_calf_joint,RR_hip_joint,RR_thigh_joint,RR_calf_joint,FL_foot_joint,FR_foot_joint,RL_foot_joint,RR_foot_joint
0.0,0.0,0.72963,-0.009919430704566214,-0.5230949929384007,0.0038044909978256812,0.8522081665329894,0.0,-0.81,0.872,0.0,-0.81,0.872,0.0,0.65,1.0,0.0,0.65,1.0,0.0,0.0,0.0,0.0
0.0015270693136881135,-0.0002940228897854234,0.730035044344999,-0.009821001502390785,-0.5235404258823527,0.0037517424226674997,0.8519359687354495,0.0008469026213336833,-0.8132864985482777,0.8832004817258773,0.0008469026213336833,-0.815181221303529,0.8858707662441364,0.0010402284876215092,0.6577498035470776,0.9950038583742906,0.0010402284876215176,0.6574546334942469,0.9968906199917683,0.0,0.0,0.0,0.0
0.004285277635631199,-0.0010333184920834767,0.7309997995138516,-0.009728447293867105,-0.5242920865987671,0.0036425451322075184,0.8514751300584892,0.003015118317338356,-0.8182190916519753,0.9023950352425285,0.0030172915209883103,-0.8242506995254792,0.9111035378068941,0.004884835777918094,0.6725949410102975,0.9828222981165724,0.00489607504205891,0.6721965762358717,0.9896279590853917,0.0,0.0,0.0,0.0
0.007226879814009468,-0.0015634611573306124,0.7317327056556215,-0.00942033644193516,-0.5244912443744113,0.003412459989339293,0.8513568857727782,0.004825648820658086,-0.8276909138603643,0.9265390975314964,0.007017638898227865,-0.8271176089061455,0.9065329263099903,0.0125676622317076,0.6648094768557716,0.9994143708647634,0.005307969211262863,0.6844400467824976,0.9818041313480774,0.0,0.0,0.0,0.0
0.010576945910502723,-0.0019374498736248959,0.7322275452892573,-0.009134623870272494,-0.5246298367902988,0.0031866452149602494,0.8512754773211825,0.006246265732848651,-0.8402264569470801,0.9550863538780247,0.012049391859100672,-0.8324575697424746,0.9030625148347862,0.021005979924054542,0.659872045279298,1.0130840089882294,0.004704892586233097,0.6966992968998822,0.9747309632300849,0.0,0.0,0.0,0.0
0.013810064073844643,-0.0022699067720715286,0.7325791764779847,-0.008882496776518785,-0.5248274763140433,0.0029983977727146885,0.8511569954876974,0.007491584947721671,-0.8519050529538058,0.9816048912238838,0.01720082726318962,-0.8392767196975562,0.9021127522921468,0.029624356892859915,0.6567170433188833,1.024982726079974,0.004190246975417807,0.7083260339096348,0.9687773532894602,0.0,0.0,0.0,0.0
0.01667322994495481,-0.0025683893594397587,0.7328684898070484,-0.008655999545426297,-0.5250562064352664,0.002834253795861166,0.8510188134002075,0.008608715469749029,-0.8615747462313814,1.0040846400459202,0.02195523182656916,-0.8468130303414254,0.9026872026496905,0.038110773115568784,0.654210801772466,1.0357583354787636,0.0037150604414259124,0.7187892697224909,0.9635355494959748,0.0,0.0,0.0,0.0
0.019050322116591856,-0.002810814236245334,0.7331431941068475,-0.008450485764825977,-0.5252849826020826,0.002685877532614984,0.8508801692394459,0.009554362712040246,-0.8689753286506389,1.0220321335533022,0.026244485260353882,-0.8546795936801211,0.9038253309022231,0.046376757063064974,0.6517222168905467,1.0457104200286884,0.003042638797601794,0.7277751136284811,0.9586835619760219,0.0,0.0,0.0,0.0
0.020914351925682327,-0.0029640112887436287,0.7334281293704377,-0.00826713629473478,-0.5254959629294756,0.002553903572080691,0.8507520937258115,0.01023512042364731,-0.8742511834846028,1.0356812579775805,0.03015755372675178,-0.8626892843507927,0.9048719082041337,0.05439902927003145,0.6489448660261047,1.0550310995047676,0.0019288773677295858,0.735191732785922,0.9539883662281714,0.0,0.0,0.0,0.0
0.022289402070098552,-0.0029930872352072462,0.7337296300481813,-0.008110218513211044,-0.5256808701772403,0.0024434965873266737,0.8506396865946211,0.010543286277217791,-0.8777343448522379,1.04559178466629,0.03379100235002574,-0.8707326414113462,0.9054250655778234,0.06215746238973684,0.6457644654751986,1.0638474348492162,0.00016012351291811713,0.7410746272637158,0.9493050314017526,0.0,0.0,0.0,0.0
0.02322348155610671,-0.0028656944494774876,0.7340384545248079,-0.007984854222898524,-0.5258370873492132,0.0023609367712333963,0.8505445465398607,0.010376931271573499,-0.8798285716682754,1.0524269670550068,0.03720096753732604,-0.8786934977606655,0.905271509692991,0.06961998876145033,0.642180364993919,1.0722172514226005,-0.002439100050565296,0.7455025049103976,0.9445856498037091,0.0,0.0,0.0,0.0
0.023769737273942812,-0.0025529788010769236,0.7343317697132706,-0.007895843329196248,-0.525964659972283,0.002311819461373421,0.8504666293330617,0.00964687979533507,-0.8809463401690847,1.056827274827226,0.0404040660090161,-0.8863646344540452,0.9043525016073327,0.07673122246122865,0.6382626280660446,1.0800919944977292,-0.006011791170291558,0.7485311067549442,0.9398910167276561,0.0,0.0,0.0,0.0
0.023973453846994515,-0.0020290799748424616,0.7345743352092238,-0.007847404205505948,-0.526064270591691,0.0023003831765654862,0.8504054972137165,0.008276697307899039,-0.8814722110452454,1.0593327543154525,0.04339090046689219,-0.8933506644512065,0.9027702818483678,0.0833849012511633,0.6341355093678103,1.087237657029939,-0.010676009781805544,0.7501435581309887,0.9354033116337935,0.0,0.0,0.0,0.0
0.023863440090298043,-0.0012710573475774069,0.7347201134950546,-0.007843662851845047,-0.5261363571532989,0.002329624873862495,0.850360854862493,0.006201808167521141,-0.8817342806151911,1.0603280861556579,0.0461336344935515,-0.8989866659331959,0.9008253568091213,0.08936963914760283,0.6300007555746014,1.093098089966282,-0.01651965477933162,0.7502237487771752,0.931431374916607,0.0,0.0,0.0,0.0
0.02344909903129484,-0.0002604807240753663,0.7347179787914556,-0.007889573226055161,-0.5261816096784243,0.0024019928879156576,0.8503322284264542,0.0033719144010302764,-0.8819724602294637,1.0600103508851835,0.048586334809499115,-0.9023637497437278,0.8990377561350101,0.09430110325515219,0.6262471888292432,1.0965878240169613,-0.023574406171807383,0.7485780318404309,0.9283731792676392,0.0,0.0,0.0,0.0
0.022729074138469717,0.001014692320657565,0.7345289329698454,-0.007990277242416596,-0.5262031923860043,0.0025184813098681545,0.8503175953984834,-0.00024167665441342245,-0.8823005129709556,1.0584191327226624,0.050696802969178195,-0.9026389867978477,0.8980317287758077,0.09764878476735238,0.6236792165057158,1.0959015081831815,-0.03181231205442921,0.745052026856747,0.9265460507539551,0.0,0.0,0.0,0.0
0.021707012759142347,0.002567404243231675,0.7341420783487144,-0.008144808838851221,-0.526203785470077,0.002676411024476068,0.850315279805066,-0.004662655002936567,-0.8827395548618591,1.0555731805123247,0.052434809010063796,-0.8998591133471912,0.8978479662302442,0.09938133958493527,0.6223431727352193,1.0910657718709318,-0.041265499373559916,0.7396332803134482,0.9259649191893744,0.0,0.0,0.0,0.0
0.02039447629708442,0.004409689813360728,0.7335755069735118,-0.008345512622095421,-0.5261854711289171,0.0028692438540995424,0.8503240381358272,-0.009904271878646499,-0.8832234079094217,1.0514868637248156,0.05381032313746634,-0.8949652530998338,0.8979636113676619,0.09999214612947042,0.6215168285001696,1.0839228447533689,-0.05201100228732646,0.732469920846537,0.9263307553233342,0.0,0.0,0.0,0.0
0.018800314172970792,0.006540186443262384,0.7328626896452894,-0.008583536729122489,-0.5261533399616036,0.0030884296770620663,0.8503407830667649,-0.01593714650281375,-0.8835637229584158,1.0460520484782292,0.054872494060803856,-0.8889736354177171,0.8979987823767919,0.09989473420072624,0.620872873577703,1.0755681110650248,-0.06401953555247832,0.7238020883525969,0.9272397329271085,0.0,0.0,0.0,0.0
0.016927455272431453,0.008939579314441748,0.7320380446180237,-0.008848779596947683,-0.5261145171739251,0.0033239499722796805,0.8503611969481405,-0.022678046005134823,-0.8834827954388148,1.039025320443125,0.0557205872710337,-0.8826810673363333,0.8978636597985631,0.09944287319860154,0.6202509486625685,1.0665319112338567,-0.07713068491932255,0.7138749433335771,0.9283515295007658,0.0,0.0,0.0,0.0
0.014781811900169611,0.011565870658093301,0.7311348264630553,-0.009127444299762174,-0.5260790846465594,0.0035622614312196496,0.8503792076194528,-0.029972902846041934,-0.8826424154642875,1.0300876101075427,0.0565229977883117,-0.876656594192129,0.8977893335501894,0.09908604256185413,0.6195398715259762,1.0569792286618005,-0.09107469635865983,0.702941283124227,0.9294221052848284,0.0,0.0,0.0,0.0
0.012387176805651209,0.014348634903987342,0.7301870779846062,-0.009398336099316378,-0.5260626846335978,0.0037824811432980825,0.8503854513989857,-0.03757448227779841,-0.8806760265753266,1.0189422641763408,0.05750853815561739,-0.8713357162162132,0.8983677375981497,0.09959048315636741,0.6186270546557733,1.0468438017467074,-0.10551893315967203,0.6912949315765049,0.9302980989228162,0.0,0.0,0.0,0.0
0.009804553106378386,0.017183058906526383,0.729227378777294,-0.009626748552466096,-0.5260909010491108,0.003948181518839343,0.8503646873008877,-0.04511182074889065,-0.8772454455759955,1.0054555251440558,0.05890344255631775,-0.8671334280650338,0.9006551032279858,0.10234979452891228,0.6173625243939085,1.0359225412564326,-0.12016752663595705,0.6792761772565816,0.9309524538054887,0.0,0.0,0.0,0.0
0.007154230207611217,0.019924894498465965,0.7282637582082901,-0.00974627386864674,-0.5262002489250487,0.003959631056297734,0.8502956130069073,-0.05196671243960841,-0.8721503413358337,0.9898515415562041,0.06092277518084205,-0.8646532263050607,0.9063577991259976,0.10953529875071391,0.615586283211081,1.0240233930881755,-0.1351800744337925,0.6670416823983844,0.9316612181170822,0.0,0.0,0.0,0.0
0.004735168766440835,0.022470579596173035,0.7272341965871403,-0.009688170469360347,-0.5264376377426729,0.003772229430159711,0.8501501768546527,-0.057822647681064536,-0.8664326105677946,0.9742982834134492,0.0643849340584768,-0.8647397342356202,0.9174833215229661,0.12544729383008937,0.6134907614545028,1.0107196062211248,-0.15088607539068738,0.654974074400202,0.9331253344286013,0.0,0.0,0.0,0.0
0.0030383919252037943,0.024595925490132446,0.7260593924073249,-0.009368912762206633,-0.5269136666130951,0.003252047708973337,0.849860950741765,-0.061856496227843186,-0.8615490853521227,0.9622433904061423,0.0693060863149467,-0.8697100377030759,0.9376604352319237,0.15390053932638809,0.6112262367502252,0.9961325822792931,-0.16785076525188308,0.6436678761681494,0.9366191388243299,0.0,0.0,0.0,0.0
0.002352059191231303,0.025825767162272202,0.7247351531695739,-0.00883336505355694,-0.5277955737967538,0.002406668392135526,0.849322089604195,-0.0628849308937319,-0.8573947784807264,0.9545742721992351,0.0762913837436971,-0.8839848453075736,0.9719502500482486,0.19151641609092523,0.610243970880454,0.9810536375483658,-0.18375025574113754,0.6340502763403519,0.9444503565473389,0.0,0.0,0.0,0.0
0.0023139466665953543,0.026010100055173232,0.7246496381194132,-0.00900469670684172,-0.5278653154174218,0.0023818503057356157,0.8492770166474569,-0.06315392168752124,-0.8574660267941918,0.9544759165422285,0.07630860588251526,-0.8840010249545014,0.9719621993476432,0.19153395433731804,0.6102539085034653,0.9810534082548446,-0.1838014232386057,0.633958219135826,0.9443979523734797,0.0,0.0,0.0,0.0
0.0023139466665953543,0.026010100055173232,0.7246496381194132,-0.00900469670684172,-0.5278653154174218,0.0023818503057356157,0.8492770166474569,-0.06315392168752124,-0.8574660267941918,0.9544759165422285,0.07630860588251526,-0.8840010249545014,0.9719621993476432,0.19153395433731804,0.6102539085034653,0.9810534082548446,-0.1838014232386057,0.633958219135826,0.9443979523734797,0.0,0.0,0.0,0.0
0.003199320148019502,0.02760142991069916,0.7249789060903183,-0.009125800736056693,-0.5276205605142436,0.0024252416384274523,0.8494276791384635,-0.06744013551928814,-0.8654478932371009,0.968654701295219,0.07227335678111499,-0.8856533828884198,0.9765815883333052,0.183415150980634,0.6138130144405397,0.983002586053741,-0.19237982654361654,0.637942809530386,0.9328923800726074,0.0,0.0,0.0,0.0
0.0054279831647857015,0.03074159575471876,0.7270122436146348,-0.010068542203921792,-0.5283831028930002,0.0033900317786312484,0.8489395907363451,-0.07763782847705614,-0.8734965741900609,0.9936129000786502,0.06207887719511707,-0.877569873776495,0.9803660119571984,0.17781560521470446,0.6286431833975183,0.974635951932071,-0.20253140649778134,0.6600345158756253,0.9006067126283488,0.0,0.0,0.0,0.0
0.006807344430075237,0.03394032961526952,0.7294164626634737,-0.009305542605794472,-0.5263136170205603,0.002805647437968935,0.8502349744382435,-0.07070320200486128,-0.856584037608199,0.9531686983340807,0.055287470569474036,-0.884418826510888,0.9932746683477089,0.14760996099473297,0.6439831467835869,0.9607313921353539,-0.16001731131040775,0.6428931005857715,0.9412860179902339,0.0,0.0,0.0,0.0
0.009036599506638005,0.03726528674608723,0.7310033483298305,-0.009246717295605557,-0.5255085012873855,0.0028218756930465058,0.8507334190635243,-0.06277376629285089,-0.8485408483174356,0.9287496116328451,0.04679460736479686,-0.8881989004772037,1.0060123327725667,0.1268164145606212,0.6576213401003868,0.9544390892151462,-0.12324703654567497,0.6385740845411036,0.9722912834297704,0.0,0.0,0.0,0.0
0.011625909663360268,0.04051254097551879,0.7321371318656361,-0.00962819149138042,-0.5254524519539772,0.0032296633648722043,0.8507623569121452,-0.05487853977373379,-0.8468456443907212,0.9162438194381886,0.03757607806094116,-0.8893528269795787,1.0173665028381231,0.11197784225471669,0.6702353852093397,0.9521492718989528,-0.09905659979635745,0.6394019215484712,0.995950323529183,0.0,0.0,0.0,0.0
0.0142643650032451,0.04357594268571189,0.7330900751644379,-0.010125208248097302,-0.5256228349333617,0.003738469095595294,0.8506492458136725,-0.04765445075114258,-0.8487273550653739,0.9100167087076291,0.0285704819710422,-0.8896531689359438,1.027943650476109,0.0992693708431013,0.6824745982270923,0.9507698231195922,-0.08390005431644745,0.641706169889642,1.0146861087211185,0.0,0.0,0.0,0.0
0.016732787115337495,0.046449536565408366,0.7339584176594378,-0.010587279372392414,-0.5257919711810133,0.004219332262489091,0.8505368362348182,-0.04135043236885641,-0.8526700026703451,0.9069207693229031,0.02007322614073758,-0.8895648394214901,1.0372787119850042,0.08675686176021871,0.6941983326614929,0.9494099954403585,-0.0737708083361703,0.6440338110016013,1.030192247846657,0.0,0.0,0.0,0.0
0.0189163226392373,0.049141536376208855,0.7347729785863055,-0.010964439251116223,-0.5258840872509817,0.0046272336334421274,0.8504729840253669,-0.03579485647832215,-0.857820957599352,0.9052230912153407,0.012162899069749914,-0.8891198006583988,1.0449331586172583,0.07372420196919607,0.7051667129126957,0.947943118692903,-0.06609043242781407,0.6458679180034933,1.0435936723156967,0.0,0.0,0.0,0.0
0.020778362027421123,0.05165456962680621,0.7355403316342748,-0.011250138733269629,-0.5258853437038028,0.004953888573687839,0.8504666358206033,-0.0306336608724672,-0.8636711570118358,0.9039338667097901,0.004859429956300914,-0.888328461308846,1.0507984646237158,0.06009881588208512,0.7152155404839299,0.9464328280475166,-0.05947417419210708,0.6470925876759258,1.0556221274613267,0.0,0.0,0.0,0.0
0.022339813332564303,0.05398047179205939,0.7362543214256543,-0.011471616397445785,-0.5258385708793373,0.005218810742243108,0.8504910131255019,-0.025549388428784264,-0.869828121500718,0.9026031760217594,-0.0018424084992155684,-0.8870955611407988,1.0549354755770546,0.04638929428001076,0.7242958895646403,0.9450045441457514,-0.053285773330766256,0.6479541761964372,1.0667839232775227,0.0,0.0,0.0,0.0
0.02363851405694502,0.05611212215369246,0.7369011680968061,-0.011654493964426861,-0.5257812462619811,0.005441416795272335,0.8505225716187027,-0.020323436531693984,-0.875906207602328,0.901026951723459,-0.0079511186658013,-0.8854335404415875,1.0575559821713199,0.03310707325742241,0.7323797564489734,0.9438122841262736,-0.04719843304419189,0.6487279002241009,1.0773011837601132,0.0,0.0,0.0,0.0
0.024705068650106094,0.05805009400718721,0.7374616693630918,-0.011817358633809165,-0.5257365812752197,0.0056366016140797,0.8505466629563649,-0.014862709081814453,-0.881390230303291,0.8991938187942204,-0.013490093459231729,-0.8834017692366805,1.0588507625461197,0.02061242452421775,0.7394015498713298,0.9430689225863413,-0.04097542418827,0.6496496165513213,1.0870607016549048,0.0,0.0,0.0,0.0
0.02554786702605205,0.059806340626810804,0.7379129487860462,-0.01196995826122739,-0.5257116234299091,0.005813130571970919,0.8505587672835235,-0.009172615066947597,-0.8855380520692914,0.8972923895204546,-0.01850443239834553,-0.8810481162396009,1.0588677203998995,0.009046255584701783,0.7452214085494582,0.943065710128958,-0.034354485921148314,0.6509217101914723,1.0955124283651403,0.0,0.0,0.0,0.0
0.02614630579935394,0.0614069209105757,0.7382336796678681,-0.01211059950061728,-0.525694389751269,0.005971838978714353,0.8505663284559228,-0.0033107697057279282,-0.88740277121399,0.8956888941102749,-0.023063952933969203,-0.8783832327937342,1.0574628184748978,-0.0017253170245263,0.749628038061049,0.944138701932135,-0.026960708884294582,0.6528053887936242,1.101493861278043,0.0,0.0,0.0,0.0
0.02646011861957427,0.06289192278061938,0.7384190815382958,-0.012230733808215141,-0.5256622017044179,0.006109465888479178,0.8505835251615999,0.0026403804396421928,-0.8861147844302072,0.8947911016975939,-0.02726784754248614,-0.8753147507209497,1.0543085928586728,-0.012038779088410724,0.7524408284284727,0.9465164827067223,-0.018324013775020867,0.6558886748202044,1.1030920691962551,0.0,0.0,0.0,0.0
0.02644934182386348,0.06430761455025061,0.7384945745253003,-0.012328973188399525,-0.5255999228922797,0.006224950019041873,0.8506197549275527,0.008559985339485477,-0.8816756905454128,0.8945571278826805,-0.03122831460503206,-0.8715724516413584,1.0489499928416113,-0.022207285044660626,0.7536382806858529,0.9501497710769672,-0.008538238549731271,0.6600287849846449,1.1002155232238282,0.0,0.0,0.0,0.0
0.02607552874452324,0.06570809195788695,0.7385150186502291,-0.012406682731411753,-0.5254935239516701,0.0063165701896569166,0.8506836847204116,0.014311726856062443,-0.8749799934824231,0.8944982401582916,-0.035069097299473426,-0.8667541387255077,1.0408411781990121,-0.03257850372907519,0.7533550226442028,0.9547130138423094,0.0018082989773046086,0.6643366919725116,1.0946013139987962,0.0,0.0,0.0,0.0
0.02528657764119066,0.06716148585064978,0.7385483824490533,-0.012447236646815784,-0.525305079801998,0.006370320060294249,0.8507990705545017,0.01981409504222965,-0.8670299389291855,0.8941414350824114,-0.038926652976896056,-0.8604817454620761,1.0293706065441455,-0.04381467201116793,0.7517519556130395,0.9597759545676894,0.01235992951569515,0.6681878020043798,1.0872659128319848,0.0,0.0,0.0,0.0
0.0240188479513427,0.06874037429756716,0.7386538640746769,-0.01240965118598728,-0.5249686045208106,0.006353620168204139,0.8510074008700941,0.025082356213493535,-0.858630308460869,0.8931454741152878,-0.04291542681049558,-0.8525401920142238,1.013964904153533,-0.05687915919249176,0.7489125379213178,0.9649692069183508,0.023045657836772128,0.6709696334658967,1.0786923634120533,0.0,0.0,0.0,0.0
0.022225117094928047,0.07049956449209081,0.7388626208593172,-0.012240156080133565,-0.524414733078564,0.006222964442956806,0.8513522426251159,0.030255429187620905,-0.8503053529942268,0.8913482521928229,-0.04708535471500798,-0.8429408920421928,0.9942753092508033,-0.07266335897647985,0.7448326233298467,0.9700686815989205,0.034015917971126686,0.6721472766288292,1.0691226563612215,0.0,0.0,0.0,0.0
0.01991775136783363,0.07244476959657793,0.7391541449837593,-0.011902134806501265,-0.5236231696036155,0.005946039659620968,0.8518460894162028,0.035589112484037067,-0.8422558326364907,0.888819262492174,-0.05138220253643925,-0.8318900910318453,0.970373097257208,-0.09134075787469703,0.7394523267382855,0.9751131540784858,0.04560039777803186,0.6716230456983558,1.0588765797639845,0.0,0.0,0.0,0.0
0.017208432178700613,0.07450181412652267,0.7394333174290932,-0.01141039277359943,-0.5226693666073973,0.005527053629679939,0.8524411931770712,0.04136574345722376,-0.8342908951989423,0.8858505797635023,-0.055617438021962465,-0.819780341732482,0.9429762959541635,-0.11184143015394091,0.7326980826301546,0.9805652320065846,0.05846909297579172,0.6701941935526551,1.0486213766218861,0.0,0.0,0.0,0.0
0.014331980472155548,0.07649376521442597,0.7395154510763365,-0.01084678442580483,-0.5217158585097487,0.00500895813928673,0.8530356502429514,0.047733993535599144,-0.8256815592675478,0.8825554336507748,-0.05941820885248536,-0.8074852927515475,0.9139138021523288,-0.13191808018490184,0.7245141689068583,0.9874547879153245,0.07426112769794395,0.6699818434764614,1.039397570890965,0.0,0.0,0.0,0.0
0.011720667802995188,0.07815044392404823,0.7391740785206309,-0.010328406056640363,-0.5208863693064079,0.004483638565446873,0.853551762510237,0.05539972154952461,-0.8150508840888532,0.8777082895860647,-0.06233884189784933,-0.7974222846581999,0.88768675196973,-0.14865558557806027,0.7150702324053816,0.9967771688863805,0.09773017479660898,0.6745994741165022,1.032250172544691,0.0,0.0,0.0,0.0
0.009542232823493644,0.07939983526722028,0.7384658834186821,-0.009936038627061139,-0.5203093779551633,0.004011017927539139,0.8539106148090078,0.06334981459894341,-0.8033639125409123,0.8709247734487666,-0.0643222204110833,-0.7896321769138237,0.8655817535570519,-0.16139741045778835,0.7054383629542601,1.008001305859773,0.13193626706766148,0.6843421389299944,1.0281423173899724,0.0,0.0,0.0,0.0
0.008108112686253591,0.08013094213063483,0.7377056023695778,-0.009734964985277081,-0.5200948795417408,0.00358352811085972,0.8540454935525836,0.06978070437542458,-0.791999579225313,0.8606299581815307,-0.06503120535577643,-0.7845052016159537,0.8504129775489812,-0.16978329677813067,0.6984454913310929,1.017997442342992,0.17364103587622767,0.6972412268863174,1.0271971428938866,0.0,0.0,0.0,0.0
0.008124967264356377,0.08013848905785663,0.7376808746791181,-0.009709486375539771,-0.5200763705524868,0.0035660265817770444,0.8540571281370432,0.06981699232839864,-0.7920063371853313,0.860636991435875,-0.06501236624079426,-0.7845522882449617,0.8502810836249071,-0.16980326892549868,0.6983832912617137,1.0179366251317485,0.1736461134843743,0.6972719044433621,1.0272090600768489,0.0,0.0,0.0,0.0
0.008124967264354339,0.0801384890578566,0.7376808746791176,-0.0097094863755288,-0.5200763705524905,0.0035660265817834876,0.854057128137041,0.06981699232840831,-0.7920063371853567,0.8606369914359766,-0.0650123662408176,-0.7845522882449406,0.8502810836248815,-0.16980326892552033,0.6983832912617137,1.01793662513176,0.17364611348434647,0.6972719044433687,1.0272090600768582,0.0,0.0,0.0,0.0
0.008124967264354339,0.0801384890578566,0.7376808746791176,-0.0097094863755288,-0.5200763705524905,0.0035660265817834876,0.854057128137041,0.06981699232840831,-0.7920063371853567,0.8606369914359766,-0.0650123662408176,-0.7845522882449406,0.8502810836248815,-0.16980326892552033,0.6983832912617137,1.01793662513176,0.17364611348434647,0.6972719044433687,1.0272090600768582,0.0,0.0,0.0,0.0
0.009468635014295512,0.08049438929431736,0.737930635598362,-0.009742148170949148,-0.5205428567000095,0.0036279945085157246,0.8537722544938169,0.06890675667316343,-0.7965835851622136,0.8728725162524698,-0.06613102323731106,-0.7867240836999762,0.8589331388335666,-0.17420820457890687,0.7057625543252102,1.0161108722052201,0.17398471825485987,0.7045059340993894,1.0235269421166733,0.0,0.0,0.0,0.0
0.011765386325642873,0.08123352663546289,0.738267597586459,-0.00987629809187676,-0.5212803586093928,0.003917833516903425,0.8533193406015107,0.06658217125517503,-0.8056407658925785,0.8948280503347156,-0.06885149741497666,-0.7902568630446206,0.8732832237886552,-0.18123502620945833,0.7174717117800113,1.0139196154297607,0.17548617616255507,0.7168759679910499,1.0175130666204222,0.0,0.0,0.0,0.0
0.014635556627467749,0.08245244322767817,0.7389343211414545,-0.009102214612842588,-0.521951573107107,0.002935357125821963,0.8529215020731403,0.06591794576803821,-0.8140975228658924,0.9205843503901303,-0.05951285090204851,-0.8011539156363926,0.8833272899699159,-0.13510141723578234,0.7031979287075519,1.0220667485224442,0.15635021923197448,0.7270508253935403,1.0049401252837489,0.0,0.0,0.0,0.0
0.017656825245739378,0.08387841551018112,0.7392588355628451,-0.008444184445692879,-0.522584547554115,0.0021931839773664365,0.8525428296283709,0.06415413413555757,-0.8251963653458673,0.9489107889588221,-0.0488107818357562,-0.8123407676002204,0.8888188177680578,-0.09350101846633616,0.691532552891809,1.029679856058919,0.13738473818610758,0.7365167870619279,0.9941846748223143,0.0,0.0,0.0,0.0
0.02049192431720282,0.08533540630353807,0.7393582131821892,-0.008045771027748417,-0.5231568694157823,0.001813472014355594,0.8521964954580019,0.06146031276204661,-0.8370655515923332,0.9761863134667735,-0.039242819642433126,-0.8230903150627222,0.8928894787540872,-0.06387928182253298,0.6841611203742928,1.03780758841073,0.1219212874560907,0.7453875507580687,0.9853295143438284,0.0,0.0,0.0,0.0
0.02291516341110478,0.08671742657023748,0.7393475712834434,-0.007813834650980114,-0.5236708470107403,0.0016356994868804559,0.8518832739679126,0.05844578024402529,-0.8477483869897203,0.9996709637693043,-0.03128459694489813,-0.8332590786205889,0.8962832587887108,-0.04265573277874159,0.6791801867438733,1.0465166410400246,0.10899427055267719,0.7529953632787708,0.9780204040848599,0.0,0.0,0.0,0.0
0.02483632480484989,0.08800316671714899,0.7393147091060175,-0.007674388918510247,-0.5241239613623665,0.0015594699500098416,0.8516059798604182,0.05538334311710312,-0.8564416497374677,1.018514390982173,-0.024603477111804134,-0.842906721027156,0.8990379141579816,-0.026245670812180398,0.6751140946954713,1.0554530687203023,0.0976105632844283,0.7590703928766451,0.971726461961648,0.0,0.0,0.0,0.0
0.026250340231446536,0.0892160299012291,0.739313198483727,-0.007586522096173056,-0.5245173703054749,0.0015351300299832969,0.8513645613402667,0.05233029572882282,-0.8630139108908638,1.032860752834083,-0.01867695820139488,-0.8521687990212413,0.9010512714410468,-0.012410868291234105,0.6711338217668843,1.064337703858467,0.08705168935183592,0.7636271976575313,0.9659661255041867,0.0,0.0,0.0,0.0
0.027196262062334768,0.09040012122028449,0.7393637289641332,-0.007531787525618874,-0.5248549161032556,0.0015428704679739619,0.8511569824477929,0.04922832410376851,-0.8676854300667355,1.0432943442155795,-0.013085818558748687,-0.8611541135924612,0.9022233982077258,6.821438403069313e-05,0.6668573048436659,1.07299521169945,0.07681487418732857,0.7667932768710949,0.9604051273399985,0.0,0.0,0.0,0.0
0.027729447626475296,0.09160713151685627,0.739460276594446,-0.007504230094332081,-0.5251416994263496,0.001577498123433417,0.8509802545029863,0.045966950636866205,-0.8708349272972087,1.0505342471671089,-0.0075873454802841064,-0.8698834715488653,0.902503870718514,0.011799995501694714,0.6621602774959998,1.0812986624095786,0.06652597684277875,0.768695895225445,0.9548785468336879,0.0,0.0,0.0,0.0
0.027903688494261076,0.09288995952239325,0.7395765779750019,-0.007504109284729163,-0.5253826464030975,0.0016399123534041131,0.8508314015654298,0.042417527242930804,-0.8728896550180786,1.0552720323097091,-0.0020860513044644972,-0.8782294749110946,0.9019185050426007,0.023043478343410365,0.6570560393702473,1.089088776994893,0.055879937016804236,0.769395664914422,0.9493841175587148,0.0,0.0,0.0,0.0
0.027759903625258663,0.09429996234964211,0.7396709398589039,-0.007534551122535095,-0.5255814068422314,0.0017328698335005012,0.8507081829177752,0.0384494720902194,-0.8742631144122471,1.058082592373726,0.0034210749344375504,-0.8858397436935338,0.9006082777950704,0.03383753301566837,0.6516362205012807,1.096064187867315,0.04461023574815576,0.7688483742568998,0.9440717721314178,0.0,0.0,0.0,0.0
0.02731952775866944,0.09588515096337348,0.7396901049933502,-0.007600155419595477,-0.5257400131968699,0.0018591837384112765,0.8506093225430696,0.033939087581677865,-0.8753145165087236,1.0593698513600835,0.008886509564354744,-0.8920700664471177,0.8988845907504106,0.04403554762945716,0.6460743573771792,1.101624489200182,0.03248876714652461,0.76689229612559,0.9392306984477109,0.0,0.0,0.0,0.0
0.02658370626412202,0.09768730565912194,0.7395759912042803,-0.007706791261203902,-0.5258597847767394,0.0020213867233730867,0.850533953536678,0.028778336179387742,-0.8763129442451645,1.0593404269435938,0.014233350954056749,-0.8960200768724764,0.897262211803628,0.053287417234740245,0.6407312914135954,1.1046510604912738,0.019358248105685715,0.7632831138019797,0.9352416873621552,0.0,0.0,0.0,0.0
0.025544074236106253,0.09973850680860981,0.7392831507613372,-0.007860553283258466,-0.5259442036651119,0.0022205228457220284,0.8504798502089534,0.022887794494824264,-0.8773971975696973,1.0580388636006677,0.019373924739375874,-0.8968519878891492,0.8963566041767713,0.06108172210043211,0.6363957007648782,1.1033156688465515,0.005153150898914945,0.7578238213803007,0.9324069736137901,0.0,0.0,0.0,0.0
0.02419972977331096,0.1020656476150319,0.738795561447931,-0.008061543346762057,-0.5259968245133269,0.002454193877004167,0.850444783071293,0.01620799248681156,-0.8786000591813196,1.055478896294002,0.02423398627142013,-0.8946162086125834,0.896209603967651,0.06736181190175879,0.6331423042423967,1.097655364667094,-0.010198761640120424,0.7504801694825647,0.9307316630686638,0.0,0.0,0.0,0.0
0.022560466746049532,0.10468868462255858,0.7381277865810426,-0.00830281164132705,-0.5260209003958423,0.0027159760402811614,0.8504267747077021,0.008705979973823056,-0.8798546409127382,1.0516632015176965,0.028782065169471096,-0.8902578410168261,0.8963086393647471,0.07257318243670893,0.6303087025634971,1.0895478657640734,-0.02676819899100359,0.741400210786181,0.9299071195097339,0.0,0.0,0.0,0.0
0.020635850139387103,0.1076095272676418,0.7373114642486921,-0.008575296922736324,-0.5260223115406908,0.0029969480926891343,0.8504222541456714,0.0004043555907942468,-0.8809647117608295,1.0464711299350231,0.033049482859264394,-0.8847997295695212,0.8962859528666713,0.07711023234666085,0.6276231866717769,1.0801160984729161,-0.04448856549359708,0.730842642146234,0.9295114174467011,0.0,0.0,0.0,0.0
0.01843129668077648,0.1108066274520665,0.7363818686304033,-0.00886765505855169,-0.5260085026539552,0.0032864670903755425,0.8504267275689131,-0.008605360514497683,-0.8816319059116005,1.039639105272762,0.03714838037066072,-0.8790470526668146,0.8960651979627363,0.08134810200236592,0.6249675292057882,1.0699022423769298,-0.06313273385262197,0.7190910123702562,0.9291746278261531,0.0,0.0,0.0,0.0
0.015956375391624728,0.11422879669182123,0.735376673603749,-0.009163736336459363,-0.5259894047803934,0.0035701429345231205,0.8504342573500614,-0.01814148093787725,-0.8814781752717147,1.0308124344596257,0.041285984090264294,-0.8735793187642051,0.8958954539602891,0.08580442748849917,0.6222527079231263,1.0590660746837346,-0.08233594280147974,0.7064552888276922,0.9286141295820376,0.0,0.0,0.0,0.0
0.013238697368523619,0.11778788107828729,0.7343378804907548,-0.009438495507668917,-0.5259797352048612,0.003825381570151033,0.8504361230640538,-0.027903888933746422,-0.8800741313526921,1.0196351302419595,0.04573743214420176,-0.8688422859408148,0.896392577144325,0.09137032312912588,0.6193541037293337,1.047516006068374,-0.10165064423121543,0.6932936296101703,0.9276420024753587,0.0,0.0,0.0,0.0
0.010340663858223586,0.12135093015951562,0.7333056525850172,-0.009649983324343036,-0.526001104889324,0.0040068347592317165,0.8504196968275503,-0.037422911220091545,-0.8769999541976905,1.005877995723972,0.05076174147413038,-0.8652683630484712,0.898637024951942,0.09957821071760264,0.616059243099997,1.0350004237856025,-0.12069445769057746,0.6799587891196263,0.9262446549542744,0.0,0.0,0.0,0.0
0.007369624302545453,0.12473165200678465,0.7322882364003855,-0.0097256126837565,-0.526104038096648,0.004018715864171102,0.8503551043411978,-0.04597759269676472,-0.8718269595409236,0.9894367574649322,0.056757039565170475,-0.863564209731658,0.9045308375697716,0.11296246008777425,0.6120422577435316,1.021275286579428,-0.1394123972919362,0.6665978299037273,0.924928374229589,0.0,0.0,0.0,0.0
0.004782905283118425,0.12783990451314092,0.7311352199636771,-0.009591805827659628,-0.5262889940696122,0.00380004112728305,0.8502431720805472,-0.05327300939014823,-0.8669319404669196,0.9743508356139484,0.06399466461226952,-0.8641682313980704,0.915432925704506,0.13573690279160333,0.6079613078519663,1.0058393241112864,-0.15853257750115518,0.6533707910490629,0.9249195048029892,0.0,0.0,0.0,0.0
0.0029090996499579694,0.1302929249505993,0.7296743554934167,-0.00917236432526025,-0.5267127590652487,0.003237761826909445,0.8499876787747632,-0.058123247853146986,-0.8628017704760343,0.9620754330656845,0.07273967776548759,-0.8702226514745192,0.935451467572655,0.1713360848914568,0.6036702056925709,0.9883490997322818,-0.17759628979607472,0.6399855732475025,0.9294451974672797,0.0,0.0,0.0,0.0
0.0020769847829165654,0.1316180630994921,0.7279658481189368,-0.00853829171129763,-0.5275314668822324,0.002356235969146406,0.8494893155159696,-0.05938770288305317,-0.8594604771408024,0.9539200176330057,0.08262734069251361,-0.886145224951932,0.9698482306109784,0.21490677601645475,0.6012247689457313,0.96962693588159,-0.19430909673300772,0.6277399583989115,0.9402399923994702,0.0,0.0,0.0,0.0
0.002036596413580495,0.13182994734743336,0.7278594447877328,-0.00872506255735871,-0.5276132100790426,0.0023252400960670277,0.8494367351910052,-0.05969546231655955,-0.8595469128199129,0.953809173461649,0.08265150444637519,-0.8861629583235919,0.969859858480131,0.21492774447880308,0.6012341269512529,0.9696258457913407,-0.19436567884315337,0.627634433095787,0.9401743178305273,0.0,0.0,0.0,0.0
0.002036596413580495,0.13182994734743336,0.7278594447877328,-0.00872506255735871,-0.5276132100790426,0.0023252400960670277,0.8494367351910052,-0.05969546231655955,-0.8595469128199129,0.953809173461649,0.08265150444637519,-0.8861629583235919,0.969859858480131,0.21492774447880308,0.6012341269512529,0.9696258457913407,-0.19436567884315337,0.627634433095787,0.9401743178305273,0.0,0.0,0.0,0.0
0.0029626130586826835,0.13353761880848994,0.7282426502825832,-0.008889096447285649,-0.5273841519732857,0.0023759073711684116,0.8495771273262556,-0.0642664643865362,-0.8677837379028155,0.9686638374063671,0.07833216777256868,-0.8875689503691743,0.9744648775565784,0.20684448405559586,0.6049404186172677,0.9717465334186987,-0.2031396254593895,0.632256743280615,0.9275356424214843,0.0,0.0,0.0,0.0
0.005252011272267333,0.13690209437239717,0.7303971238474789,-0.00972148366878656,-0.5279859579252087,0.0032688574687648997,0.8491911654980439,-0.07495434817344938,-0.8769992174263681,0.9955106085037414,0.06771167944037591,-0.8803896237732458,0.9794100600641467,0.19923269336080215,0.6202684121467292,0.9632990710064244,-0.21513101944222543,0.6547148058740602,0.8923749081136119,0.0,0.0,0.0,0.0
0.006801447982772055,0.1402841637387408,0.7329277295607779,-0.009238158805269172,-0.5264055097891772,0.0028028841651350548,0.8501788279684703,-0.06860643608469269,-0.8587936480315599,0.9555106811425106,0.06026390993740159,-0.8840408537540373,0.9903323786974643,0.17188669322844013,0.6368631965222455,0.9497243078482001,-0.1727511320257717,0.6393977471269247,0.9355027412141094,0.0,0.0,0.0,0.0
0.009114695576795815,0.14387068241902765,0.7346122897394661,-0.009218896060863272,-0.5256992600065034,0.002818631733491702,0.8506158682385279,-0.06118370850402503,-0.850396683380587,0.9310482876262409,0.051141378573403395,-0.8869108614383251,1.002581156542314,0.15057248816410063,0.6511978360285169,0.9440343507759925,-0.1352042815697969,0.6354981502613165,0.9678725127218112,0.0,0.0,0.0,0.0
0.01173132209375081,0.14743366586812018,0.735811387079513,-0.009538983888532481,-0.5255637021061268,0.0031677395737367614,0.8506948737596046,-0.05381785454209851,-0.8486942168750957,0.9182381087686222,0.04125753568548646,-0.8880978691865631,1.0138660412230696,0.1336306155460509,0.6640664039180506,0.9426082690266596,-0.11044093187012874,0.6358418757840169,0.991960285867091,0.0,0.0,0.0,0.0
0.014383838789642063,0.15081683615446928,0.736826163194065,-0.009969998024100857,-0.5256336471227732,0.003615357322985454,0.8506449302401317,-0.04715510170266296,-0.8506393497517002,0.9118339206350256,0.03156716842292821,-0.8884608091669904,1.0242962655909187,0.11860185441320167,0.6764965816489545,0.9420365930719702,-0.09519781624508986,0.6374548961235708,1.0106958555217413,0.0,0.0,0.0,0.0
0.01688004628712486,0.15398006510887494,0.737752442566997,-0.010393021357841578,-0.525735774162991,0.004053864180289588,0.8505747745245585,-0.041372413220490734,-0.8546265770716652,0.9087412500394354,0.022417618064795926,-0.8882777843742327,1.0334206237617234,0.1041537916332279,0.6884591086808055,0.941356018028448,-0.08535744162018807,0.639262188759376,1.0260792425706373,0.0,0.0,0.0,0.0
0.01911685848508364,0.1569142168376182,0.7386148979866193,-0.010760576691136456,-0.5258058110724276,0.004440421905305399,0.850524980047643,-0.03624334831813469,-0.8597870823815729,0.9071911085126567,0.013934384703636294,-0.8876235985298927,1.0409127882349423,0.08976714783829459,0.6997283465961261,0.9404466914442847,-0.0781642945151904,0.640885358528958,1.0393875997098956,0.0,0.0,0.0,0.0
0.021058499664376583,0.15961724021495052,0.7394166129701325,-0.01106322529716924,-0.5258324619387325,0.004765945395885406,0.8505028587735369,-0.03140970697125257,-0.8656132622454634,0.9061753486321656,0.006154157177112719,-0.8865313350298325,1.0466936801527686,0.0754192683545303,0.7101290429931327,0.939402497802464,-0.07210576883512791,0.6422386253902733,1.0514214380615086,0.0,0.0,0.0,0.0
0.022710291141792103,0.16208960322969435,0.7401532937722173,-0.011309550114332871,-0.5258282680123356,0.005036911910838403,0.8505006502959073,-0.026561920682571342,-0.8717421557330234,0.9051417034656453,-0.0009252468085712267,-0.8850361610680821,1.0508597560913453,0.06134025964355621,0.7195649444059766,0.9383581806800922,-0.06642536498211818,0.6433886396022553,1.0626471706984264,0.0,0.0,0.0,0.0
0.024094308894316824,0.1643354055235305,0.7408154900344845,-0.011513099634899044,-0.5258102798257457,0.005264317294835164,0.8505076631811068,-0.02150801107801687,-0.8778046324707182,0.9038295466087704,-0.00732677308483553,-0.8831949108344292,1.0535824982217112,0.047813141299834265,0.7279720821808032,0.9374758529341549,-0.06074229849307178,0.6444648222221585,1.0732437600215297,0.0,0.0,0.0,0.0
0.02523039719421113,0.16636413444570677,0.7413879423252532,-0.01168636983215658,-0.5257913454466421,0.005458546224303201,0.850515781209657,-0.01617450570083535,-0.8832924798312386,0.9022079602379582,-0.013089322044301906,-0.8810677552879614,1.0549998650011345,0.03505993190357731,0.7352634546448982,0.9369754081591103,-0.05481908909364839,0.6456176280711027,1.083075687787648,0.0,0.0,0.0,0.0
0.026122037455966748,0.168192826361934,0.7418498811253437,-0.011836839480823057,-0.5257749700972455,0.0056263088489290364,0.8505227302659714,-0.01057415966279187,-0.8874642403539332,0.9004635205529197,-0.018267420138238663,-0.8786944382485612,1.055128288723772,0.023161447690210737,0.7412883591581492,0.9371570668284215,-0.04840969676938896,0.6470177674637814,1.0915897002435107,0.0,0.0,0.0,0.0
0.026749198459719497,0.16984857805324852,0.7421797829048332,-0.011963827679519541,-0.5257519471489972,0.005768532792713399,0.8505342326595162,-0.004765524859250679,-0.8893670991958342,0.8989718313559416,-0.022933086012417354,-0.8760729873413025,1.053815321228765,0.011996349063717883,0.7458341801542456,0.9383725595033797,-0.041150449273652454,0.6489425936336197,1.0976358552868963,0.0,0.0,0.0,0.0
0.027075796395431038,0.17136931897425178,0.7423707067942324,-0.01206107292311807,-0.5257052958286508,0.005882926511691401,0.8505609111835036,0.001168761804640376,-0.8881227641101328,0.8981517873147288,-0.027180773835818076,-0.8731070025097311,1.050750358583947,0.00128035952610275,0.7487243877382155,0.9408712576510794,-0.032567202589916674,0.6520172037722749,1.099319250702737,0.0,0.0,0.0,0.0
0.027067476944281972,0.17279682261068843,0.7424444047549691,-0.012126914063423309,-0.5256214508033046,0.005967870207715338,0.8506111996299551,0.007111879773501706,-0.8837340072742842,0.8979605119970371,-0.031110102556674575,-0.8695673097593921,1.0455423950663072,-0.009262288755016201,0.7499372551659947,0.9446217886731461,-0.022750267399726614,0.6561055897993187,1.0965553752237438,0.0,0.0,0.0,0.0
0.02669453027303068,0.17417746835916167,0.7424503093184724,-0.012164373628807413,-0.5254914713437644,0.006022525961751017,0.85069058460772,0.012934986502995807,-0.8770933852734134,0.8979104632945075,-0.03482700535970409,-0.8650949912944749,1.0377291957114925,-0.019892932518650163,0.7496101638714125,0.949321029733309,-0.012303741989715998,0.6603403898375453,1.0910904800018024,0.0,0.0,0.0,0.0
0.025917189145443956,0.17556867549947602,0.7424491930713846,-0.012164494582347354,-0.5252911823242667,0.0060388337135214,0.85081415792834,0.018564042152049078,-0.8691913513557504,0.8975441360693984,-0.03845214665220574,-0.85931948963258,1.0267728287901752,-0.031085210679936984,0.7479095713292938,0.954573140909902,-0.0016038905478781718,0.6641814560825502,1.0839700327466888,0.0,0.0,0.0,0.0
0.02468585727320121,0.17703169585891587,0.742492694460817,-0.012102701130033018,-0.5249795318746061,0.00599759971002815,0.851007664205085,0.024016260176680727,-0.8608120778960265,0.8965673664604338,-0.042096219526642074,-0.8519579122800397,1.0121200063292497,-0.04350408068237031,0.7449294503526328,0.9600584926288437,0.009243732039138822,0.6671758915432587,1.0757261052398188,0.0,0.0,0.0,0.0
0.0229612256206004,0.1786169200408735,0.7426080310644102,-0.011944432737757945,-0.52451228957388,0.0058716039916322646,0.8512988387629251,0.029422443578531417,-0.8524628425326711,0.8948753599723469,-0.045828417595570985,-0.8428907090691014,0.9933560632519991,-0.05779392604755618,0.7406809137310865,0.9656090921820953,0.020355804656860724,0.668942285601688,1.0666370735503037,0.0,0.0,0.0,0.0
0.020746624280401103,0.1803427425433547,0.7427809325917419,-0.011659129695532918,-0.523868026103423,0.005635282719882254,0.8517010035863015,0.0350329938163505,-0.8443630044160472,0.8925542949479554,-0.049641455912216303,-0.832226432520855,0.970424275555225,-0.07423002250362709,0.735117358889101,0.97128216116413,0.03205116083423108,0.6693523638245579,1.0569790168023665,0.0,0.0,0.0,0.0
0.018126332922238714,0.18216914794366046,0.7429351732562309,-0.011245495331719613,-0.5230837140808133,0.005284267574896232,0.8521907318284816,0.04115374475552729,-0.836407837284401,0.8898772180016015,-0.05342380510186695,-0.8203478194545333,0.943884377977157,-0.09226952049198059,0.728163944084077,0.977480399141928,0.04496695269363411,0.6688851936885303,1.0472790819563411,0.0,0.0,0.0,0.0
0.015302421797140977,0.1839707000316452,0.7429133067109059,-0.010758901028659921,-0.5222797451387525,0.004854800987885712,0.8526925265145833,0.04796206737145108,-0.828078620245322,0.8871521886147277,-0.05693280078243093,-0.808042002310793,0.915282021837228,-0.1102576672270327,0.7197599812109714,0.9851060036558269,0.060550763867085855,0.6691307715406869,1.0385099742371244,0.0,0.0,0.0,0.0
0.012687486475783672,0.18547881832054863,0.7424751831951429,-0.010272901433328017,-0.5215207463672674,0.004380911648449612,0.8531655092757782,0.05589500216135261,-0.8179179089473992,0.8829958756757886,-0.05960471007484108,-0.7981596029139477,0.8893611297949926,-0.12581877182894868,0.7099355467645084,0.9951906840277825,0.08279780446541005,0.6735469418623385,1.0314294514971354,0.0,0.0,0.0,0.0
0.010492650062377961,0.18662968156268997,0.7416782278811066,-0.009874151399215209,-0.5209567520364803,0.003932974289382079,0.8535168981074632,0.06403874836188454,-0.8068906115875367,0.877340348761595,-0.0614273704586878,-0.7907628210691552,0.8676240796812492,-0.13807800738038745,0.6998827925738723,1.0071264419241688,0.11447559519796499,0.6825912326861486,1.027062891810181,0.0,0.0,0.0,0.0
0.009043711624281213,0.18732076201455483,0.7408496854489783,-0.009637180546730226,-0.5207115080524725,0.003514074154243006,0.8536710733155177,0.07051947227265877,-0.7965337660778404,0.8689095439949339,-0.06210311632108688,-0.7861342802473429,0.8528590827925296,-0.1464842737863031,0.692501840181836,1.017662488105016,0.1523450028453577,0.6944680931107744,1.025568695139031,0.0,0.0,0.0,0.0
0.009055742718959687,0.18731979835818077,0.7408237748302011,-0.009605938566737767,-0.5206953905559824,0.0034983432953423453,0.853681320981192,0.07055299101860893,-0.7965412074726685,0.868917250136753,-0.06207178633088942,-0.7861833005606218,0.8527262049161697,-0.1465019082499988,0.6924387298267461,1.0176025401726227,0.15234858266487022,0.6944996368302553,1.0255807412464317,0.0,0.0,0.0,0.0
0.00905574271895983,0.18731979835818105,0.7408237748302013,-0.009605938566735528,-0.5206953905559842,0.0034983432953406674,0.8536813209811909,0.07055299101861447,-0.796541207472659,0.8689172501367509,-0.062071786330885205,-0.7861833005606194,0.852726204916168,-0.14650190824997272,0.6924387298267451,1.0176025401726354,0.1523485826648568,0.6944996368302631,1.025580741246435,0.0,0.0,0.0,0.0
0.00905574271895983,0.18731979835818105,0.7408237748302013,-0.009605938566735528,-0.5206953905559842,0.0034983432953406674,0.8536813209811909,0.07055299101861447,-0.796541207472659,0.8689172501367509,-0.062071786330885205,-0.7861833005606194,0.852726204916168,-0.14650190824997272,0.6924387298267451,1.0176025401726354,0.1523485826648568,0.6944996368302631,1.025580741246435,0.0,0.0,0.0,0.0
0.010404200607356286,0.18762462030869376,0.7410946908180154,-0.009626768559182677,-0.5211618046580216,0.0035467925977758145,0.8533962262366587,0.0697993276887653,-0.8008415320014626,0.880805206488786,-0.06303015550007554,-0.7885152255214998,0.8616761452963322,-0.15030556863831399,0.6998146664842595,1.0154817388944228,0.15259050212709196,0.7017429128912257,1.0218095940133312,0.0,0.0,0.0,0.0
0.012725607840603956,0.18827665579311675,0.7415091713617211,-0.009764264142300621,-0.5218923849551265,0.0038417518170113817,0.8529467970598084,0.0676841460803513,-0.8095124449676812,0.9023916717006579,-0.0655337875045214,-0.7922267416192096,0.8765992758017379,-0.15585003828697663,0.711598228945645,1.0123499176496582,0.1542948213341818,0.7144671382458976,1.0152618302281502,0.0,0.0,0.0,0.0
0.015551977146494745,0.1893772277800664,0.7421043488800798,-0.00905160342944136,-0.5224705676927724,0.0029390609664640406,0.8526042084641523,0.0671580236005574,-0.8183464556021913,0.9278598441752139,-0.05635474699854728,-0.8027864831069068,0.8854497217795324,-0.11402601512615824,0.6980120185219673,1.0210207852618223,0.1366393867668859,0.7241341657401209,1.003473194791866,0.0,0.0,0.0,0.0
0.0185235666908459,0.19068084088715115,0.7424228290389407,-0.008456762007565137,-0.5230041316342733,0.002284489059173625,0.8522851298594653,0.06552556876077184,-0.8296419816400491,0.9557877868264563,-0.045533155367192824,-0.8137261552713668,0.8902010364387708,-0.07630071322680199,0.6870274573999218,1.0288749753692161,0.11932725781918443,0.7334091382610226,0.9929796040994519,0.0,0.0,0.0,0.0
0.021300781571351894,0.19200657715701006,0.7425539220991579,-0.008090514660400524,-0.5235057272605296,0.001948511856354744,0.8519815141184106,0.06307878472424457,-0.8412645651031079,0.9822851856405976,-0.03575921822993758,-0.824328166168817,0.8938714058640996,-0.04893541091885811,0.6798948115336678,1.0371006910381388,0.10514764131162073,0.7422052190724673,0.9841525668979118,0.0,0.0,0.0,0.0
0.02366723274594875,0.19326721434339622,0.742588809807976,-0.00787065611994793,-0.5239668152491613,0.0017892393846160102,0.8517004331995595,0.06033982477730161,-0.8515495063654651,1.0049401753922769,-0.02759079863259714,-0.8344010819884563,0.8970199930190272,-0.028847257055226207,0.6748874700659548,1.0457518723180468,0.09319028161857926,0.7497820639553067,0.9767582888029687,0.0,0.0,0.0,0.0
0.025536368070823868,0.19445108353768742,0.7426032489702759,-0.007732260160333759,-0.5243786648206286,0.0017174096908317582,0.8514483416729999,0.0575335094814721,-0.8598332917493808,1.023038986443963,-0.020715317682991122,-0.8439829185607377,0.8996050993775365,-0.012948133216286718,0.670661970203173,1.0545327923258552,0.08251889684956346,0.7558372756224729,0.9703220812705002,0.0,0.0,0.0,0.0
0.02690314084094428,0.19558503865565674,0.7426449746597862,-0.00764017516112705,-0.5247384933398138,0.001690359903075425,0.8512275160110648,0.0546921296703823,-0.8660437002022067,1.0367638630455427,-0.014616571122694178,-0.8531944666860809,0.9014820229291289,0.0006949570258603828,0.666460144813236,1.0632080062348273,0.07246743727280103,0.7603686322926527,0.9643919583515762,0.0,0.0,0.0,0.0
0.027805054321081317,0.19671314882262325,0.7427321795021155,-0.007579273274127556,-0.5250477012060009,0.0016923195440027665,0.8510373682333174,0.051747443518458294,-0.8704196946365955,1.0466943987624309,-0.008878801727626316,-0.8621354350762914,0.902528272814107,0.013135179908129698,0.6619331400996841,1.0716288109220136,0.0625774961033019,0.7634945863268949,0.9586499963335877,0.0,0.0,0.0,0.0
0.028295572057363126,0.19788533497333574,0.742858163848994,-0.007545352294976745,-0.5253098230537029,0.001720231897227539,0.8508758418619321,0.0485881222564553,-0.8733399242713089,1.053529990387425,-0.0032620057015783216,-0.8708217362203293,0.9026817755591083,0.024895307562894653,0.6569714313034589,1.0796836872276825,0.05251177206694093,0.7653380853745337,0.9529395033670733,0.0,0.0,0.0,0.0
0.028426878810467782,0.19915204467089254,0.7429969117372242,-0.007539442767336648,-0.5255287032043701,0.001775909979781527,0.8507406097365018,0.045089670225381594,-0.875224089446816,1.0579403180837477,0.002327588533791839,-0.8791238343925918,0.9019625966506563,0.03619141533713029,0.6515960792755993,1.0872226195907941,0.04199495222556785,0.7659584281233389,0.9472610673830626,0.0,0.0,0.0,0.0
0.028238862861671862,0.20056205112010722,0.7431073465478258,-0.007564859329615656,-0.5257072290484123,0.001862286830980286,0.8506298925604028,0.04112801037946625,-0.8764763139393479,1.06048156465597,0.007892296205540463,-0.8866889589904006,0.9005093600928972,0.04704010757716183,0.6459059197953974,1.09395108898364,0.03078494605880691,0.7653124366622864,0.9417643293322668,0.0,0.0,0.0,0.0
0.027752578404331766,0.20216083204865742,0.7431368737141261,-0.007626118520319722,-0.5258469874102598,0.0019820221963541516,0.8505426854284747,0.0365867027141365,-0.8774469397328123,1.0615435085346288,0.013384490927291366,-0.8928737633026584,0.8986335468598673,0.05727993612696529,0.6400849722527968,1.099276008044792,0.01867616954081358,0.7632419563290636,0.9367372403657723,0.0,0.0,0.0,0.0
0.026969319558229232,0.20398765166413066,0.7430279928304847,-0.007728946785875056,-0.5259491836988007,0.0021374389812292127,0.850478189551471,0.03136503932046976,-0.8783968592751857,1.0613220091445,0.01872774711528848,-0.8967798159246669,0.8968521660243415,0.06654440833059609,0.6345096321692688,1.1020885186227176,0.0055343363042518,0.759508639333069,0.9325600766905594,0.0,0.0,0.0,0.0
0.02588107336332445,0.2060720057402316,0.7427358440972864,-0.0078793376489544,-0.5260174226326516,0.002329495392820083,0.8504341012543717,0.02539073612416069,-0.8794562603389565,1.0598514654920748,0.023836222664246363,-0.8975711542639414,0.8957841267618543,0.0743034216681626,0.6299863037736583,1.1005713750435504,-0.008682392287684663,0.753923095496887,0.9295352597565487,0.0,0.0,0.0,0.0
0.024487212580675554,0.20843842759499703,0.7422449305413816,-0.008077072060411847,-0.5260551027141953,0.002555549064229618,0.8504082895787579,0.01861117117921114,-0.8806505383037604,1.057136621276239,0.028640137895398984,-0.8952995251984067,0.8954725276726327,0.0804975656340068,0.626594558500771,1.0947636343873013,-0.024028649140844384,0.7464563175310751,0.9276670662437007,0.0,0.0,0.0,0.0
0.022797582774539152,0.21110465854019864,0.7415703215995522,-0.008314711336713382,-0.5260649962255899,0.0028089033707192836,0.8503990800697112,0.010999858520874813,-0.8819063599204091,1.053171286448702,0.03311466016590914,-0.890910087197334,0.8954034970126329,0.08558670494165238,0.6236628672586051,1.0865336933885903,-0.04056131725669862,0.737259677756513,0.9266450266458719,0.0,0.0,0.0,0.0
0.020821596143429995,0.21407013093471827,0.7407442986661698,-0.008582840949120442,-0.5260525313428576,0.0030807147495915915,0.8504031857334764,0.0025856842706465303,-0.88301982646345,1.0478237332550584,0.03729822171649554,-0.8854240645821203,0.8952079917557778,0.08998075245783531,0.6209095654441714,1.076992778150938,-0.05819788879716171,0.7265961333980198,0.9260462702954699,0.0,0.0,0.0,0.0
0.018564481444120522,0.21731062638936618,0.7398029167941311,-0.008869920295018452,-0.5260246573548296,0.003360785787208387,0.8504164212240887,-0.0065338755969705335,-0.8836849694165665,1.040819112758542,0.04130940939584674,-0.8796438753981073,0.8948081489768455,0.09407212460222159,0.618207972639327,1.0666700208283972,-0.07669556888438883,0.7147538052527046,0.9255011048550141,0.0,0.0,0.0,0.0
0.016035680936447826,0.22077236060353128,0.7387848505159235,-0.009159653660132406,-0.5259905209406761,0.003635457035754682,0.8504333342934788,-0.016172009425334533,-0.8835179537406337,1.0317937767474372,0.0453609898399059,-0.8741444033965887,0.8944491421707138,0.09840461058819952,0.6154595569707382,1.055708507796336,-0.09567883470548369,0.7020461651730214,0.9247267267095313,0.0,0.0,0.0,0.0
0.013262821982127065,0.2243650195298613,0.7377332724257648,-0.009426690037132358,-0.5259634735568373,0.003882987321000376,0.8504460502632927,-0.026024957133718295,-0.8820877900716287,1.0203880017289553,0.04973303007554412,-0.8693639457134062,0.8947364814625572,0.10391498834036099,0.6125236287674284,1.0439927365093196,-0.11469888355414992,0.688831613084898,0.9235336193217202,0.0,0.0,0.0,0.0
0.01030844346696436,0.22795429682000193,0.7366889820412665,-0.009628002801836512,-0.5259624939459786,0.004057643113447623,0.8504435854638085,-0.035618571899324415,-0.8789814038057748,1.0063775050355084,0.054693777605911376,-0.8657278349601599,0.8967261464612979,0.11220489258024974,0.6091589483570691,1.03123590227505,-0.13339198504417513,0.6754500831819944,0.9219078752980878,0.0,0.0,0.0,0.0
0.00727865938719135,0.2313533737099347,0.7356601604080862,-0.009690915904439787,-0.5260391621845916,0.004069960073808642,0.8503953912281415,-0.044246906562158975,-0.8737622295969548,0.9896397102863372,0.06069858663636217,-0.8639504094649412,0.9023092989395387,0.12598801283331076,0.6049823868158555,1.0171389361155436,-0.15168294588566456,0.6620505645315372,0.9203802600519276,0.0,0.0,0.0,0.0
0.004665055606494195,0.2344818175037512,0.7344775597489537,-0.009539145227337733,-0.5261789315515362,0.0038530526821637465,0.8503116432724205,-0.05163083650909743,-0.8691256876862631,0.9746510167999276,0.06787719831660766,-0.8643748811911555,0.9126213639887536,0.1495655838403696,0.6006914780500622,1.0011441666394076,-0.17045570801184878,0.6487136157734391,0.9202542718921698,0.0,0.0,0.0,0.0
0.002762209559864182,0.23693549330922256,0.732961723422708,-0.009098946733625435,-0.5265464999208188,0.003304677682252479,0.8500912137499658,-0.05655346807275601,-0.865350485560753,0.9624726483995167,0.07658641179831899,-0.8703032485194155,0.9317851855441953,0.1864129389284838,0.5960181810553986,0.9827416797352869,-0.1890784609830838,0.6350168060064255,0.9250278919158732,0.0,0.0,0.0,0.0
0.001907943534489503,0.23825546908545278,0.7312009320147653,-0.008447638488226876,-0.527299535990595,0.0024575807503402092,0.8496339194293805,-0.057924489120384205,-0.8624457755147047,0.9545000371467119,0.08634177925665185,-0.8861106450323439,0.9650861204985497,0.23127431680421529,0.593169228149389,0.9627507878638994,-0.20532813530836586,0.6224210607961451,0.93616072032789,0.0,0.0,0.0,0.0
0.001867131941349783,0.23846839901696518,0.731091945798778,-0.00863458987284493,-0.5273814519772553,0.002425880952084205,0.8495812869112032,-0.05823411428852799,-0.8625367412222857,0.9543872606483683,0.08636637909259823,-0.8861282210438863,0.9650976272086996,0.23129642415331134,0.5931786418074279,0.9627498071611663,-0.20538687151237756,0.6223137586240252,0.9360929076134099,0.0,0.0,0.0,0.0
0.001867131941349783,0.23846839901696518,0.731091945798778,-0.00863458987284493,-0.5273814519772553,0.002425880952084205,0.8495812869112032,-0.05823411428852799,-0.8625367412222857,0.9543872606483683,0.08636637909259823,-0.8861282210438863,0.9650976272086996,0.23129642415331134,0.5931786418074279,0.9627498071611663,-0.20538687151237756,0.6223137586240252,0.9360929076134099,0.0,0.0,0.0,0.0
0.002822744660138937,0.24021272229529628,0.7314751780857691,-0.008818116751211766,-0.5271668226238875,0.0024670624568467327,0.8497124781621315,-0.06286586151955449,-0.8709475304333822,0.9696025231677947,0.08200330109392438,-0.8875863789107665,0.969891754647682,0.22341141043719018,0.5968267788347031,0.9652044917266985,-0.21420279859561986,0.627150532902289,0.9231829564293674,0.0,0.0,0.0,0.0
0.005166530132726005,0.24368454862533878,0.7336651286113602,-0.00957693978422763,-0.5276948651214498,0.0032993806903803585,0.849373607805119,-0.07374404857391102,-0.8808641251318354,0.9975828969441498,0.07125444718921954,-0.8811424932647973,0.9757809149958099,0.2148222161492852,0.6123280057495144,0.957100956382724,-0.22728607247473337,0.6497282048062787,0.8866924827116569,0.0,0.0,0.0,0.0
0.006825529295055225,0.2471538378975154,0.7362670073889982,-0.00922073618052284,-0.5263773116986032,0.0028611923026608875,0.8501962816502128,-0.0675398815594392,-0.8615118420350485,0.9572733447387712,0.0635728356906017,-0.8833112054053953,0.98598284940129,0.1889789445678624,0.6296745640134803,0.9437997829789793,-0.18446719153025468,0.6354494776242132,0.9312542647709463,0.0,0.0,0.0,0.0
0.009218258668681107,0.2508783276287982,0.7380130261122483,-0.009205035755817334,-0.5257479995605205,0.0028470403519514366,0.8505857996910596,-0.06026988058060387,-0.8525956789844875,0.9325931339617674,0.05419985511046102,-0.8858185759452083,0.998291152658302,0.167447825965652,0.64454671663102,0.9385349088829499,-0.14597784033642053,0.6319892460377305,0.964528943598913,0.0,0.0,0.0,0.0
0.011894130236937877,0.25461336323070854,0.7392275111755646,-0.009484598824415541,-0.5256004900590189,0.0031438596933055308,0.8506728415678309,-0.05316822258457096,-0.850695944524169,0.9195299711540832,0.04401589661246709,-0.8872081189641893,1.009908294255873,0.14951262284926609,0.6575849975208095,0.9379475342760284,-0.12061924615146605,0.6323234389924195,0.9890029907126379,0.0,0.0,0.0,0.0
0.014602974382861327,0.2581762841368702,0.7402529593265799,-0.009875138729828987,-0.5256410729579993,0.00354458244689446,0.8506417459717733,-0.04678733919406177,-0.8525588288206787,0.9129988655019056,0.03398127611305159,-0.8878234562575842,1.0206648425520473,0.13335632067436962,0.6701356591127186,0.9381877751799783,-0.10519999310167769,0.6337590784988628,1.0078753652300645,0.0,0.0,0.0,0.0
0.017160063602453736,0.2615091125454229,0.7411940955070953,-0.01027278739336528,-0.5257246811131774,0.0039494405969851855,0.8505835828574341,-0.04127471552572062,-0.8565071073791486,0.9099163591750007,0.024477483627290988,-0.8877878363184663,1.0300454425887238,0.1179288777965466,0.6822663316836798,0.9381752347016712,-0.09549987121102947,0.6354092955653117,1.0232982296519122,0.0,0.0,0.0,0.0
0.019463982619022935,0.26459332551433584,0.7420739584308504,-0.01063077405894347,-0.5257932222505324,0.004315736541707361,0.8505350366072009,-0.036382757585294814,-0.861644834141031,0.9084737781401805,0.01565827606374772,-0.8871740034757449,1.0377426285229208,0.10280243391612431,0.6937557459104281,0.9377875647995172,-0.08861168602923153,0.6369792898569735,1.0366258277875335,0.0,0.0,0.0,0.0
0.021476241436128616,0.2674236010635614,0.7428927324851892,-0.010934952576786176,-0.5258318129361159,0.004631030718633908,0.8505056642203767,-0.03174519094773087,-0.8674563127711374,0.9076190567261815,0.007578171285656486,-0.8860559026463911,1.043703823697626,0.08794086318478148,0.7044056795579994,0.9371450098144837,-0.08290646172099161,0.6383868230137776,1.048688911334585,0.0,0.0,0.0,0.0
0.023196959814223317,0.27000106520863326,0.7436446351963121,-0.01118819715349553,-0.5258460941421709,0.004897712135443025,0.8504920469561817,-0.027054287219461993,-0.8735769250614197,0.9067627853112536,0.00024248606429446914,-0.8845081544803212,1.0480359240862214,0.07351403624232658,0.7140928263067736,0.9364087143581772,-0.0775573838703306,0.6396612677545889,1.0599578903687192,0.0,0.0,0.0,0.0
0.024642610367387657,0.2723323989214191,0.7443200762696444,-0.011398989704955257,-0.5258462861007734,0.005122987483288014,0.8504878020447888,-0.02212348367489155,-0.8796382942751741,0.9056184471059909,-0.006370656600540564,-0.8826150403559136,1.0509075026714079,0.05973317512522537,0.7227308173551188,0.9357611318535837,-0.07215114289131508,0.6408841915987099,1.0706059258927003,0.0,0.0,0.0,0.0
0.02582866105935152,0.2744300392434679,0.7449041948875234,-0.011575903750213126,-0.5258404274786265,0.0053138681650242445,0.8504878635739525,-0.016883171452967246,-0.8851323535597707,0.9041405483501108,-0.012300943404058948,-0.8804526719300103,1.052448820187405,0.046755703187112835,0.7302191115663197,0.9354384837136436,-0.0664432171444638,0.6421672012869488,1.080491340244707,0.0,0.0,0.0,0.0
0.026756395065356986,0.2763130288540422,0.7453763954234718,-0.01172398845011326,-0.52582971848112,0.005474659688239483,0.8504914363814522,-0.011346848295987276,-0.8893166422502989,0.9025098757320635,-0.01760308335789914,-0.8780703949879597,1.0526735807085685,0.034621687806759435,0.7364006013699024,0.9357543482070666,-0.06019061085993059,0.6436599904968706,1.0890599000078833,0.0,0.0,0.0,0.0
0.02740605067938883,0.2780085176467354,0.7457145746484198,-0.011842285441596873,-0.5258047012515101,0.005606129660365245,0.8505044078237108,-0.005573445232344417,-0.8912384967668393,0.9011018136049596,-0.02234896524345665,-0.8754742063924317,1.0514383339473727,0.023214781838769273,0.7410556235906343,0.9370700068242266,-0.05302386031336353,0.645639625958959,1.0951682782563945,0.0,0.0,0.0,0.0
0.02774429118043166,0.27955292064696585,0.7459104037901191,-0.011925181570163928,-0.5257518028967012,0.005705754401966529,0.8505352880169589,0.0003575400976742558,-0.8900143830166873,0.9003430848039643,-0.02662793514415543,-0.8725701213880231,1.0484483101257918,0.012274543210849484,0.744012981306122,0.9396488976752086,-0.04446842088036278,0.6487509488881308,1.096933779818322,0.0,0.0,0.0,0.0
0.027740807423903925,0.280984325114258,0.7459835210491119,-0.011973107059776873,-0.525660346209274,0.0057739065105357045,0.8505906813115747,0.006329243952322274,-0.8856463756569912,0.9001940004691467,-0.030534190911494802,-0.8691411178236523,1.043345834717098,0.0015904019271154035,0.7452466531663229,0.9434670288139405,-0.0346098925156476,0.6528749536008197,1.094278430214637,0.0,0.0,0.0,0.0
0.027370510127115753,0.28234510599677254,0.7459807527274164,-0.011988916765716957,-0.5255234886817363,0.005809022351276581,0.8506747815574904,0.012219190038020994,-0.8790267105047698,0.9001676054027102,-0.03416202995424887,-0.8648575150298448,1.0357190356701687,-0.009069966607435856,0.7448999355075224,0.9482335068392628,-0.02406963836078841,0.6571459512254231,1.088947507504989,0.0,0.0,0.0,0.0
0.02660000627493538,0.2836871327698266,0.74595970060282,-0.011967334613852219,-0.5253234249857306,0.005805970970857012,0.8507986675851033,0.017954527457675534,-0.8711422729003365,0.8998153947319648,-0.03762392366091293,-0.8593561855476127,1.025072662721195,-0.02008720667190017,0.7431435215679383,0.9535663227584147,-0.013237805688282412,0.6610586029073479,1.081995311266539,0.0,0.0,0.0,0.0
0.025387136153121784,0.28506615858520395,0.7459688268144922,-0.011891357561326903,-0.5250312372597119,0.0057514281141073246,0.8509804443061738,0.023550593274934684,-0.8627673092624759,0.8988669214466718,-0.04102760314361371,-0.8523244782419777,1.010870131537389,-0.031992446944436634,0.7400839840530068,0.9591677559742272,-0.0022459087712881944,0.6642327823516565,1.0739733349165128,0.0,0.0,0.0,0.0
0.02369774979529679,0.28653038636487194,0.7460341551414671,-0.011735670348782992,-0.5246154895062437,0.0056256189485878695,0.8512398102902814,0.029130644001454268,-0.8543999249727317,0.8972484434209872,-0.04445070535429956,-0.8435812151155201,0.9926745483633662,-0.04531755749517766,0.7357513725731171,0.9648919286827089,0.008988385863517988,0.6663624911391246,1.0651745100731942,0.0,0.0,0.0,0.0
0.02153370368517224,0.288103265801559,0.7461451471624426,-0.01147666233778313,-0.524058215712423,0.005410195909077601,0.8515879300143477,0.03493029074189908,-0.8462673116722319,0.8950686913005576,-0.047913968705567314,-0.8331669072825577,0.9703673901142738,-0.060321489019047686,0.7301113157905293,0.9707952331987869,0.02076005787931831,0.6673334098729026,1.0558587095255838,0.0,0.0,0.0,0.0
0.018969204500393837,0.28976098717445337,0.7462365662180191,-0.011110212405391204,-0.5233819588806307,0.005101316290091231,0.8520104840145392,0.041254229953741645,-0.8383036374146031,0.8926108347030884,-0.05135137810671878,-0.8214317266494596,0.9444279176630351,-0.07665068807421078,0.723100958635209,0.9772346138758451,0.033668049737883995,0.6675066215351689,1.046485365108509,0.0,0.0,0.0,0.0
0.016191876440691973,0.2914059428626195,0.7461688884061465,-0.010674097746230593,-0.5226776561581858,0.0047252789065407134,0.8524504696048589,0.04832794525506633,-0.8300712030579854,0.8902321790302529,-0.054577148793749516,-0.809179790971202,0.9163289125239102,-0.09305225768962741,0.7146903501141978,0.9850092170273679,0.049014166604513965,0.6681982643871802,1.037932810801631,0.0,0.0,0.0,0.0
0.0135780642766658,0.2928032344747984,0.7457142059252324,-0.010218045522605012,-0.5219801148917349,0.004297764214178883,0.8528856197791522,0.056496259937684534,-0.8202577254311115,0.8867130417272295,-0.05707522599892453,-0.7991925059200456,0.8905187000327298,-0.10758813925884947,0.7048452880583183,0.9951126543165014,0.07022140373192838,0.6724778528123498,1.0308422170444067,0.0,0.0,0.0,0.0
0.011383815600396814,0.2938708027350018,0.7449199884175158,-0.009822400223297903,-0.5214340382535819,0.0038754070902870495,0.8532262568769786,0.06483723238147365,-0.8096850898011496,0.8819859622690216,-0.05875988225659361,-0.7918814417712919,0.8690450745170024,-0.11927233322054068,0.6948259908751574,1.0068843087243324,0.09975924940014752,0.6810164911287176,1.0261742041942605,0.0,0.0,0.0,0.0
0.009938646703294059,0.2945156746861675,0.7441065912956104,-0.009568535126190743,-0.521165829038546,0.0034754085171857228,0.8533947171817639,0.07138936362502354,-0.8000243586526278,0.8749848110289465,-0.05939088162075923,-0.7874988597906319,0.8546706245584745,-0.12738027613980513,0.6874445591251,1.0171415503884813,0.134477891856262,0.6921158403578509,1.0241212994646982,0.0,0.0,0.0,0.0
0.009946743201390176,0.2945086772809562,0.7440810242211249,-0.00953301869070698,-0.5211512062160851,0.0034608317262229257,0.8534041038440845,0.07142130043534657,-0.8000327585187945,0.8749929133628349,-0.05935054370856473,-0.7875485558023656,0.8545367572480608,-0.1273962689778005,0.6873802553682338,1.017081419444876,0.13448012145785881,0.6921480755860169,1.0241335025690548,0.0,0.0,0.0,0.0
0.009946743201390445,0.294508677280955,0.744081024221125,-0.009533018690710363,-0.5211512062160918,0.0034608317262222656,0.8534041038440804,0.07142130043536135,-0.8000327585187641,0.8749929133628084,-0.05935054370855417,-0.7875485558023376,0.8545367572480409,-0.12739626897776016,0.687380255368239,1.0170814194449047,0.13448012145785773,0.692148075586037,1.024133502569062,0.0,0.0,0.0,0.0
0.009946743201390445,0.294508677280955,0.744081024221125,-0.009533018690710363,-0.5211512062160918,0.0034608317262222656,0.8534041038440804,0.07142130043536135,-0.8000327585187641,0.8749929133628084,-0.05935054370855417,-0.7875485558023376,0.8545367572480409,-0.12739626897776016,0.687380255368239,1.0170814194449047,0.13448012145785773,0.692148075586037,1.024133502569062,0.0,0.0,0.0,0.0
0.011298271456007128,0.29476792477722963,0.7443716353447005,-0.009543129091760793,-0.5216161916489358,0.0034951153490837723,0.8531197228205987,0.07081398814095193,-0.8040918582586423,0.8865827808125989,-0.060159626729698504,-0.7900282463896938,0.8637526886783782,-0.1307133952622288,0.6947630890620804,1.0146893838592783,0.13463525873009796,0.6993941603463624,1.020276513304335,0.0,0.0,0.0,0.0
0.013638658144090706,0.2953448054376886,0.7448515018111754,-0.009683252898241453,-0.5223415693576917,0.0037932469491259663,0.8526729330826888,0.0688839578622274,-0.8124304662794055,0.9078524448735729,-0.06247167782526174,-0.7938870431913962,0.8791508410044993,-0.13505725548773143,0.706619948998218,1.0107582308238299,0.13651986547803407,0.7124155432441034,1.0132918285953225,0.0,0.0,0.0,0.0
0.016428323101451425,0.2963455923652781,0.7453926317491805,-0.009019123885657586,-0.522850683691768,0.002954856520415151,0.8523714488357348,0.0684812131390532,-0.8215117089392157,0.9330323530518408,-0.05340990603631261,-0.8041485160882405,0.8870492656248917,-0.09674115349981639,0.6935898677303866,1.0198960943784963,0.12011160043467416,0.7217180640601187,1.002138021727547,0.0,0.0,0.0,0.0
0.019362242386246446,0.2975483871861899,0.7457076170438097,-0.008474551595782856,-0.5233112389760864,0.0023699498728615674,0.8520961873369484,0.0669643692189347,-0.8329351797385248,0.9606304058396758,-0.042507723348641,-0.8148735518130242,0.8912242324510933,-0.062170099757890604,0.6831705908880011,1.02798908720111,0.10416471818090017,0.7308874931670132,0.9918666650587045,0.0,0.0,0.0,0.0
0.022096618216456067,0.298768849509119,0.7458629045093864,-0.008134033460330859,-0.5237604810782832,0.002069126868332108,0.8518242275694641,0.06471823234880274,-0.8443671979908939,0.9865368116370342,-0.0325812188187878,-0.8253496159689543,0.8945802401170715,-0.036636839176774974,0.6762453742488331,1.036320943278362,0.09102648304282701,0.7396509876171539,0.983079674223547,0.0,0.0,0.0,0.0
0.024421189449240845,0.29993335182608366,0.7459321383322003,-0.007923833911137181,-0.5241819467303516,0.0019247984796577143,0.8515672579009483,0.06219952042083084,-0.8543523548842178,1.008569181412602,-0.024250345067209897,-0.8353424692605993,0.8975332251600445,-0.01746352554438045,0.6712246584652225,1.0449412699025864,0.07984208263408164,0.7472173634104708,0.9756330918578201,0.0,0.0,0.0,0.0
0.02625170041908228,0.3010370833401487,0.745982220535683,-0.007786250618921929,-0.5245624342549803,0.001856602167826684,0.8513343525890279,0.05959640972728351,-0.8623286344564985,1.0261097819292986,-0.017220533906739204,-0.8448699838317604,0.8999807148203279,-0.0019692566131506526,0.6668731378576682,1.0536042947392843,0.06973169457296595,0.7532635353527984,0.9690956785944957,0.0,0.0,0.0,0.0
0.02758292479238987,0.30210923153485303,0.7460565256805759,-0.007690749190968042,-0.52489639199098,0.001827485987987002,0.8511294204447974,0.056922134147967415,-0.8682673390249197,1.0393674865203024,-0.010983097804411899,-0.8540398983632882,0.9017455508674472,0.011528810292285826,0.6624920525522777,1.0621124241321414,0.060077863297125965,0.7577772789715485,0.963039581685572,0.0,0.0,0.0,0.0
0.028451161055175922,0.303193663681063,0.7461713417684843,-0.007624854925754929,-0.5251835240173329,0.0018249074760883772,0.8509528761340432,0.05410102725921022,-0.8724214441097787,1.048918212105152,-0.005126671895101464,-0.8629442324561546,0.9026878966800378,0.02394778851595211,0.6577611029840349,1.0703404226654327,0.050460794796122865,0.7608718860464472,0.9571606266962096,0.0,0.0,0.0,0.0
0.028908495048066342,0.30433885159011087,0.7463194198449158,-0.007585740696995302,-0.525426255424611,0.0018474678682391416,0.850803322461205,0.05102140569548189,-0.875169857588034,1.0554471495627415,0.0005859350242107403,-0.8715949826142535,0.90273657045433,0.03574027456132255,0.6525838331933,1.0781906566041228,0.04057306788613897,0.7626678488869958,0.9513091101659422,0.0,0.0,0.0,0.0
0.02900600498706932,0.30559329736444957,0.7464748919816471,-0.00757503985855001,-0.5256276675312072,0.0018976854049801712,0.8506788892919278,0.04756223477251568,-0.8769269641393318,1.0596083144714672,0.006246981415989869,-0.8798609625088835,0.9019071561173544,0.04708703897338317,0.6469884001853058,1.0855216908129386,0.030162921431084344,0.7632241303228103,0.9454881857032531,0.0,0.0,0.0,0.0
0.028782940148487982,0.30700372726314173,0.7465971102834724,-0.007596223430907949,-0.5257901247478649,0.0019786423653032625,0.8505781134508474,0.04360466989628417,-0.8780901675326929,1.0619446389157232,0.011858243565183668,-0.8873891526338427,0.9003365534483166,0.057986175894703285,0.6410801301596206,1.0920454793286813,0.01900760832965257,0.7624990254559513,0.9398475441458949,0.0,0.0,0.0,0.0
0.028260216761331655,0.3086136080263494,0.7466339435082566,-0.007653738892355597,-0.5259149071181042,0.002092861168409699,0.8505001767689724,0.03903815045335484,-0.8790034479527876,1.06283605517634,0.017372104246010774,-0.8935371030587025,0.8983364477948975,0.06826337904540425,0.6350521068446587,1.0971757757696592,0.006918827524088679,0.7603374964162898,0.9346743920906956,0.0,0.0,0.0,0.0
0.027439385636126263,0.31046017164649004,0.7465283114951861,-0.007753226766519518,-0.5260031931314215,0.0022425353449799018,0.8504442952513008,0.033767842101869616,-0.8799215946671496,1.0624707860790823,0.022712440624322594,-0.8974080398229641,0.8964258993606041,0.0775382057526272,0.629293883818449,1.0998126163615898,-0.006219355514506551,0.7565064131631763,0.9303489515245935,0.0,0.0,0.0,0.0
0.026312804371705325,0.31257080829679146,0.7462358002496643,-0.007900615549272395,-0.5260587199770503,0.002428573007754935,0.8504080817132419,0.02772724669682591,-0.88096813301858,1.0608756357210707,0.027794816307589912,-0.8981675225323639,0.8952267416886114,0.08526503007432494,0.6246264495076939,1.0981486282761639,-0.020430264923242375,0.7508225834851954,0.9271741348641884,0.0,0.0,0.0,0.0
0.02488012253475616,0.31496812211856623,0.7457412986169281,-0.008095436842984112,-0.5260847679266586,0.002648153736797958,0.8503894802616394,0.020869289435205905,-0.8821628266226339,1.058048561420326,0.032553087984929584,-0.895868370220543,0.8947831263321286,0.09138266597867968,0.621133000802871,1.0922246501647637,-0.03575482347846953,0.7432610530794586,0.9251540434480039,0.0,0.0,0.0,0.0
0.02315125430312769,0.3176680390719769,0.7450602240911898,-0.00832987091210678,-0.5260837165441636,0.0028943966366112572,0.8503870641688863,0.013172671866677192,-0.8834275499307356,1.053976596818492,0.03696792076476411,-0.8914556799352915,0.8945800845947145,0.09636376665802698,0.6181339521635593,1.0839008045520944,-0.05223894478105981,0.7339755315205007,0.9239775365282422,0.0,0.0,0.0,0.0
0.021135470854262317,0.32066796028899763,0.7442253073014362,-0.008594239183419432,-0.5260606140821316,0.00315856815426356,0.850397785046271,0.004671281699587044,-0.8845525346265126,1.0485191259500763,0.04108362359937551,-0.8859490815811162,0.8942474008200133,0.10063203493604263,0.6153388679375524,1.0742780232058926,-0.06978742571762482,0.7232318373553643,0.9232221067617938,0.0,0.0,0.0,0.0
0.0188377939457972,0.3239414854892719,0.7432731405391688,-0.008876879139896845,-0.5260219862729764,0.0034308947101901284,0.850417720849969,-0.004532745615528973,-0.8852259706085668,1.0413919996281498,0.04502410429730915,-0.8801483503685507,0.8937057763531687,0.10459464335967503,0.6126137956077501,1.0638740290703181,-0.08814487202993873,0.711320962037957,0.9225197981677161,0.0,0.0,0.0,0.0
0.016267477663765097,0.3274327230773369,0.7422430674375097,-0.009161433491008952,-0.5259763135487205,0.0036983943561899853,0.8504418308157672,-0.014248715784893307,-0.8850597287617786,1.0322239820139683,0.04900680984214386,-0.8746241958590718,0.8931968471005964,0.10881663320095186,0.6098524930009013,1.052817387332882,-0.10692687950637213,0.6985581210283139,0.921589746591688,0.0,0.0,0.0,0.0
0.013452055696186817,0.3310496229879845,0.7411790116293696,-0.009422391234545437,-0.5259358068636135,0.003940145504188267,0.8504629450220326,-0.02417033469711772,-0.8836220372481478,1.020651878075252,0.05331628469762414,-0.8698086735244436,0.8933170877885138,0.11427099956839407,0.6069017563042572,1.0409718047050087,-0.12568292066526823,0.6853006660768631,0.9202437734547833,0.0,0.0,0.0,0.0
0.01045407746349649,0.33465681888366877,0.7401220978241762,-0.009616000849521134,-0.5259173150672556,0.004110360878228664,0.850471407616718,-0.033820587702184816,-0.8805056565629298,1.0064547682118883,0.05822910715723444,-0.8661217048221878,0.8951017302868081,0.1226141112965366,0.6034981934423944,1.0280198178125555,-0.1440621949625566,0.6718776142876242,0.9184702123721973,0.0,0.0,0.0,0.0
0.007378742289246728,0.33806724442916547,0.7390805015374703,-0.009669776163504715,-0.5259729513841702,0.0041248990741439145,0.8504363203960664,-0.04250664212918743,-0.875270169068741,0.9894980102122608,0.06424526409311848,-0.8642839942410804,0.9004294162832813,0.13669707866391811,0.5992154321479934,1.0136133267925498,-0.16197357341417598,0.6584394027018027,0.9168184384105573,0.0,0.0,0.0,0.0
0.004743104985942588,0.3412078811215464,0.7378711635116904,-0.009505459667929983,-0.5260768520022009,0.003912715129491004,0.8503749071346538,-0.049961181996994265,-0.8708483306657022,0.9745832388498765,0.07138924055339588,-0.8645713606498596,0.9102650424142766,0.1608970032573436,0.594773909501242,0.9971454763400108,-0.1804176736605896,0.6450075490479237,0.9166458311850814,0.0,0.0,0.0,0.0
0.0028176818969012107,0.3436601310777406,0.7363120501935462,-0.009051797505736717,-0.526399349251548,0.003380730823576038,0.8501825455327582,-0.05495053775768631,-0.8673659667992609,0.9624914706804953,0.08007656105707531,-0.8703980517989911,0.9287376909877855,0.19871409835075524,0.589820310943625,0.9779704821236477,-0.19863923505968423,0.6310808015110344,0.9216223442469353,0.0,0.0,0.0,0.0
0.001946311261699609,0.3449745696751085,0.7345111747108825,-0.008391409487326473,-0.5270996632118412,0.002568586103068157,0.8497581606870337,-0.05642128032371299,-0.8648193822505356,0.9546736545355882,0.08972308767689922,-0.8861033948647629,0.9611481481932744,0.244552601373033,0.5866961988105388,0.9568886303612232,-0.21446022840382795,0.6182369654764371,0.933021041678297,0.0,0.0,0.0,0.0
0.0019050722631388615,0.34518809292279257,0.7344002584789908,-0.008578599874322414,-0.527181545936845,0.0025364975405265918,0.849705591030247,-0.05673235182873663,-0.8649142611667013,0.9545590954556625,0.08974807493006813,-0.8861207865500325,0.9611595564468991,0.24457562687273623,0.5867056519700207,0.9568877150267746,-0.21452072184982826,0.6181282588210115,0.9329515840879912,0.0,0.0,0.0,0.0
0.0019050722631388615,0.34518809292279257,0.7344002584789908,-0.008578599874322414,-0.527181545936845,0.0025364975405265918,0.849705591030247,-0.05673235182873663,-0.8649142611667013,0.9545590954556625,0.08974807493006813,-0.8861207865500325,0.9611595564468991,0.24457562687273623,0.5867056519700207,0.9568877150267746,-0.21452072184982826,0.6181282588210115,0.9329515840879912,0.0,0.0,0.0,0.0
0.002883694372067456,0.34696254836878015,0.7347830607336524,-0.008780181943560993,-0.5269815037899374,0.002572116130327334,0.8498275044307205,-0.06141759618816722,-0.873457770372613,0.970056951985274,0.08534437910798746,-0.8876016289953803,0.9660888460927166,0.23688090480431903,0.5902902011587826,0.9596332475277207,-0.22336130312609634,0.6231457678499898,0.9198298715825975,0.0,0.0,0.0,0.0
0.005273035545093398,0.35052430654530914,0.7370050732755287,-0.009491496716511155,-0.5274733139767644,0.0033582067383704614,0.8495119404575503,-0.07245195465403877,-0.8838387535927474,0.9988851129219675,0.07448248683163136,-0.8816025438652821,0.9726269582726654,0.2276462915112861,0.6059559856883254,0.9518511565820156,-0.23727909186388277,0.6459238588107241,0.8822524759168164,0.0,0.0,0.0,0.0
0.00700751550604705,0.35407326062926275,0.7396698876510538,-0.009208776327410408,-0.5263192933463817,0.0029250533201353613,0.8502321118100583,-0.06637423744328441,-0.8636797885669001,0.9583378577804104,0.06662410801877304,-0.8828378061391347,0.9824265666833735,0.20262899853376365,0.6238670593267486,0.9387413618077783,-0.19413183095263686,0.6321975375317551,0.9278895740879977,0.0,0.0,0.0,0.0
0.009461045501018837,0.3579152896317597,0.7414745960603578,-0.009189625434950745,-0.5257473497245319,0.0028799796478202605,0.8505862570952015,-0.059230851693528624,-0.8543533315866975,0.9335517328547346,0.057049923786395146,-0.8850560162813351,0.994784778412806,0.18086031211951864,0.6391946421880541,0.9337876903651238,-0.1549242722398736,0.6290510739634014,0.9618535249788028,0.0,0.0,0.0,0.0
0.012184989670387818,0.36179227450101215,0.7427022642984425,-0.009440296746919803,-0.5256040279332964,0.0031329584679978106,0.8506711886439217,-0.052380422074516236,-0.8523044220197121,0.9203707377319419,0.04662438684814072,-0.886533768707542,1.0066099408919518,0.1621964645651155,0.6523706712944995,0.933938492655492,-0.12915598099477554,0.6294376463905302,0.9866312245686216,0.0,0.0,0.0,0.0
0.014942052317657594,0.36550150463165265,0.7437343447292076,-0.00980306829642248,-0.5256343190146257,0.003497050542550439,0.8506469497761743,-0.046239139361760405,-0.854103514007753,0.9137939951673117,0.03631136126205427,-0.8872999982157859,1.0176011873872195,0.14522854626521067,0.6650099178211624,0.9349037313485358,-0.11364112932507334,0.6308027573444888,1.0056211654383505,0.0,0.0,0.0,0.0
0.017550595494906493,0.36897250822940136,0.7446857258496214,-0.010182807516845018,-0.5257110367869973,0.0038752084603695842,0.8505934393062317,-0.04094438123438263,-0.8580217217516244,0.9107503135517521,0.026521873582746228,-0.8873616611038366,1.0271849420033803,0.12907512818822706,0.6772673875643455,0.935484637316697,-0.10408515733236673,0.6323700212028958,1.021078927188438,0.0,0.0,0.0,0.0
0.019909073892033325,0.37218030957194226,0.7455790370874498,-0.010533032986650093,-0.5257806413672043,0.00422438408686059,0.8505444885240749,-0.03624329043232853,-0.8631444421579293,0.9094061161407123,0.017429925589401932,-0.8867804759435134,1.0350530164912934,0.11336863742710743,0.6889248879211066,0.9355547087469086,-0.09746315732756741,0.633903895988053,1.0344153909388982,0.0,0.0,0.0,0.0
0.021976980081489298,0.3751169687014192,0.7464121526225573,-0.010837135484671044,-0.5258279311016283,0.004529985977663766,0.8505098603748873,-0.03176781459702829,-0.8689473515241205,0.9086830073470895,0.009103417019463914,-0.8856464171083029,1.0411600130110883,0.09807696913547888,0.6997671925870144,0.9352600040587977,-0.09205819343529507,0.6353389642827274,1.046487581576067,0.0,0.0,0.0,0.0
0.023750907616867652,0.37778365847519696,0.7471776685875628,-0.01109389453026644,-0.5258543984268885,0.004791303613083543,0.8504887539344267,-0.02721056921451752,-0.8750646264285241,0.9079671939208149,0.0015548640599605638,-0.884062387365081,1.0456213905640483,0.08333210359609439,0.7096500146856992,0.93478727178481,-0.08699056520358672,0.6366847067580154,1.0577734250733284,0.0,0.0,0.0,0.0
0.025243819045081307,0.3801883208444295,0.7478654011651463,-0.011308426324787058,-0.5258663255038821,0.005012911379167229,0.8504772765421817,-0.02238700583837437,-0.881127135020017,0.9069548856709075,-0.005235148304772817,-0.8821323229259069,1.048606507944722,0.06930364689421625,0.7184701293225475,0.9343382897524136,-0.08182155966098562,0.6379958161552329,1.0684456392190775,0.0,0.0,0.0,0.0
0.026468548017959757,0.38234483333019664,0.7484604223251319,-0.011486838531018348,-0.5258686157587147,0.005199875776373746,0.8504723468711289,-0.017228788550807388,-0.8866264994837654,0.9055893397012911,-0.0113060325430434,-0.8799463245894261,1.0502457428873466,0.056115813928824254,0.7261146030211971,0.9341623114961238,-0.0762975545850614,0.6393602641240036,1.078361082028732,0.0,0.0,0.0,0.0
0.027425229419607865,0.38427301689389315,0.7489418938967405,-0.01163315453125351,-0.5258606705378555,0.005355929271639956,0.8504743023270992,-0.011750563476534807,-0.8908218306973065,0.9040461671716735,-0.016713529576833846,-0.8775636376485222,1.0505567345004938,0.043800014004671206,0.7324150170012631,0.9345824143887059,-0.07016866851952014,0.6409164842234323,1.086967588054708,0.0,0.0,0.0,0.0
0.028094992922549224,0.3860003448208685,0.7492869876698537,-0.011745869597270956,-0.5258354984669323,0.005480220309800403,0.8504875250612397,-0.006007046572115209,-0.8927552750236848,0.9027073553873105,-0.021526128928193347,-0.8749878329271338,1.049397141807375,0.03223218664302542,0.7371581826077785,0.9359773110769865,-0.06307640748882906,0.642950397730202,1.0931298805080472,0.0,0.0,0.0,0.0
0.02844622313222964,0.3875620631716977,0.7494863214364718,-0.011820612298103913,-0.5257813464108186,0.005571401848948066,0.8505193756598154,-7.876041239604677e-05,-0.891543059764809,0.9020034718351326,-0.025832425248301386,-0.8721265048880152,1.0464830748536746,0.021184852587150443,0.7401687678229107,0.9386188997429774,-0.05453535533227084,0.6461214104725724,1.0949743012508262,0.0,0.0,0.0,0.0
0.028450725658769556,0.38899472161496873,0.7495582889747863,-0.011857576548131597,-0.5256889887467433,0.005629126458508942,0.8505755686146563,0.005921075281977207,-0.887186080751447,0.9018968654501914,-0.029720930228690684,-0.8687742925300284,1.0414779328155572,0.010456833982077326,0.7414249834544466,0.9424928595237122,-0.04463748890400943,0.6503124581181072,1.0924237771470973,0.0,0.0,0.0,0.0
0.02808583593924324,0.39033797177719465,0.7495482491061936,-0.01185980594419278,-0.5255515212414659,0.005652294460411125,0.8506603288569886,0.011872321668086803,-0.8805797066092511,0.9018973378959301,-0.03328054911189795,-0.8646238686094007,1.034004091714399,-0.00015585268917565377,0.7410661092851369,0.9473113363095862,-0.03401056382380599,0.6546504983243346,1.0872186378902602,0.0,0.0,0.0,0.0
0.02732208851754714,0.39164024966804517,0.7495119765028415,-0.011824090661693697,-0.5253555859436856,0.0056370191292732805,0.8507819481001738,0.017704258592718267,-0.8727066176528632,0.9015632785672182,-0.036617334282269265,-0.8593149124740008,1.023591220501335,-0.010982235209703147,0.7392693936339864,0.9527017556540199,-0.023061656183678496,0.6586490257552224,1.0804153384490451,0.0,0.0,0.0,0.0
0.02612192765452312,0.3929534822131719,0.7494959884830714,-0.011738282806663272,-0.5250790284867417,0.005574099506374641,0.8509542619758499,0.02342882412655185,-0.8643364037963192,0.90063732570691,-0.039837553587113904,-0.8525205771196209,1.0097180117787192,-0.022462644563714915,0.7361450347962527,0.9583770323224868,-0.011937683769325429,0.6619683390811492,1.0725744957020273,0.0,0.0,0.0,0.0
0.024454850537093575,0.39432382203293,0.7495253052668912,-0.0115831815542377,-0.5246978150658013,0.0054490784569157635,0.8511923051310004,0.029159438189597393,-0.8559628251653442,0.89906414778682,-0.04302431932451282,-0.844027409113527,0.9919426244425523,-0.03504498219341895,0.7317298033187023,0.9642034063979037,-0.0005800418689654654,0.6643481467088436,1.0639970082699557,0.0,0.0,0.0,0.0
0.02232322412524948,0.39577725777011485,0.7495909268168498,-0.011339874361175386,-0.5241981677058771,0.005247749562183565,0.8515046384769764,0.035114713374345144,-0.8478145964735684,0.896973858359516,-0.046213328237114104,-0.8338331887058086,0.97011476656929,-0.04897403042478014,0.7260034568130392,0.9702446256084811,0.011270981917390909,0.665695455470987,1.0549360174904738,0.0,0.0,0.0,0.0
0.0197971848852402,0.3972993156131357,0.7496335560114618,-0.011003483223091215,-0.5235975124139935,0.004966186450244219,0.8518802177201783,0.04158423440179497,-0.8398410011764849,0.8946669259479734,-0.04936323302847598,-0.822261260676827,0.9446688810980677,-0.0640088134274381,0.7189243553658146,0.9768408746656937,0.02415875636375269,0.6663266592678483,1.0458127269754796,0.0,0.0,0.0,0.0
0.017056879337261247,0.39880824186132313,0.7495249387107655,-0.01060096428647737,-0.522964693755966,0.004623055343032534,0.8522758802173278,0.04881606543206757,-0.8316359841471553,0.8924915266302936,-0.05231671084145002,-0.8101630974264323,0.9170782855953215,-0.0791482905265973,0.7104795560125508,0.9847172948340378,0.03926804452498188,0.6674081367305105,1.0374099475600285,0.0,0.0,0.0,0.0
0.014440255242579424,0.4001089678101598,0.7490550955808586,-0.010168655455489072,-0.5223167094316993,0.004228781589009933,0.8526804623661444,0.05711721696897178,-0.8220746120199547,0.8894395555416217,-0.05464721082893324,-0.8001029400290348,0.8913562371336038,-0.09281118908751179,0.7005933822360879,0.9948222847466525,0.059565219908305704,0.671607221375387,1.0302893026982989,0.0,0.0,0.0,0.0
0.01224842587446855,0.4011084442812995,0.7482636354074726,-0.009781193651084878,-0.5217885394321826,0.003834417327502524,0.8530101673554356,0.06567629170912295,-0.8118495471442259,0.8854164936278093,-0.05623516705602349,-0.7928254657933613,0.8700743711864679,-0.10392430160362255,0.6905870898457701,1.006441196546119,0.08733688689329623,0.6797408247482037,1.0253704346419672,0.0,0.0,0.0,0.0
0.01080853463632603,0.40171582398151,0.7474623250635519,-0.009520742880224536,-0.5215035872098516,0.0034580736605943543,0.8531889624865193,0.07235204875283455,-0.8027181803459691,0.8794731041896298,-0.05684786127781671,-0.7886139445446038,0.8560014732589432,-0.11169014647089069,0.6831861903784772,1.0164642433200932,0.11944365821416128,0.6901947240507339,1.0228385465136869,0.0,0.0,0.0,0.0
0.010813673169946544,0.40170434705795216,0.7474370262296677,-0.009482178889896605,-0.5214900085703615,0.003444478945273151,0.8531977466036698,0.07238303729043032,-0.8027273538200297,0.8794814830252272,-0.056801189076735904,-0.7886640132670606,0.8558668081636114,-0.1117048888715702,0.6831210124837043,1.0164039137177727,0.1194447775739331,0.6902274114398349,1.0228508428177032,0.0,0.0,0.0,0.0
0.010813673169951242,0.4017043470579668,0.7474370262296705,-0.009482178889811012,-0.5214900085703907,0.0034444789452014062,0.8531977466036531,0.07238303729054676,-0.8027273538197055,0.8794814830249903,-0.05680118907661111,-0.7886640132672587,0.8558668081637991,-0.11170488887011107,0.6831210124832274,1.0164039137182799,0.11944477757328455,0.6902274114396192,1.0228508428180159,0.0,0.0,0.0,0.0
0.010813673169951242,0.4017043470579668,0.7474370262296705,-0.009482178889811012,-0.5214900085703907,0.0034444789452014062,0.8531977466036531,0.07238303729054676,-0.8027273538197055,0.8794814830249903,-0.05680118907661111,-0.7886640132672587,0.8558668081637991,-0.11170488887011107,0.6831210124832274,1.0164039137182799,0.11944477757328455,0.6902274114396192,1.0228508428180159,0.0,0.0,0.0,0.0
0.012167476289212942,0.4019276356956668,0.7477433919069104,-0.009484155963739426,-0.5219516672234689,0.003469620373791738,0.8529152769195534,0.0718869778975197,-0.8066146167303633,0.8908554675122571,-0.057497229216301675,-0.7912685617526806,0.8653022715264016,-0.1146163055542706,0.6904959977365716,1.0137885455549207,0.1195363169830759,0.6974728609923933,1.018920280271307,0.0,0.0,0.0,0.0
0.01452340387732666,0.40244155721009084,0.7482762381424869,-0.009626167778955821,-0.5226743054573527,0.0037675506965816974,0.852469772408567,0.07012063309214922,-0.8146717642644684,0.9118605694470542,-0.059640062631065895,-0.7952521042401867,0.8810951898559354,-0.11801681256979277,0.7024276346865387,1.0092048505288687,0.12155221620763795,0.7107339102549377,1.0115889317011684,0.0,0.0,0.0,0.0
0.017283217834956816,0.403359183203106,0.7487742667518419,-0.009000493290214887,-0.5231318157209368,0.0029803673709741926,0.8521990447726298,0.06982698974286543,-0.8239216313085219,0.9367779224543402,-0.05066755597351295,-0.8052603482853861,0.8882389215753806,-0.0825508125903755,0.6898431736493835,1.0187656809290404,0.1061691076468837,0.7197618255908528,1.000961944267999,0.0,0.0,0.0,0.0
0.020188457676780763,0.40447891772333655,0.7490864318406655,-0.00849630768025642,-0.5235381978674871,0.002451316168125423,0.8519563129518497,0.06841040328800871,-0.8354306344526269,0.9641042498047777,-0.03970798428180615,-0.8158049171152655,0.8919666842538835,-0.050544619513799065,0.6798900730125034,1.027088625785353,0.09134060803332195,0.7288732833620142,0.9908835335263997,0.0,0.0,0.0,0.0
0.0228905513374288,0.4056136618596797,0.7492602024236842,-0.00817652346620583,-0.5239483683653452,0.002178775505183582,0.8517079926175386,0.06633041935441439,-0.8467091364062683,0.989548426357668,-0.029665120629310843,-0.8261783994250398,0.8950788710825944,-0.02649933438663965,0.673138782390454,1.0355288520364334,0.07904813971933135,0.7376267959801235,0.9821429220825468,0.0,0.0,0.0,0.0
0.025183498291826055,0.40670024573619495,0.7493558078052269,-0.00797403523497236,-0.5243398116994339,0.0020463852018005133,0.8514693117997145,0.06399254483727965,-0.8564591579796704,1.0110974828151997,-0.02120591515617489,-0.8361078272032787,0.8978777962595683,-0.00806437500580428,0.6681087507230943,1.0441361839379018,0.06848596905645989,0.7451932950942691,0.974665908592088,0.0,0.0,0.0,0.0
0.026984614893776605,0.407739079077517,0.74943337255509,-0.007836986807326987,-0.5246961551450239,0.001981012130857619,0.8512511979461457,0.06155579725352875,-0.8641951366631858,1.0282046162400018,-0.014051063657891934,-0.8455925759339039,0.9002148900049579,0.007108520093417994,0.6636540556442003,1.052708627885839,0.05882555954467807,0.7512365168298116,0.9680560651531777,0.0,0.0,0.0,0.0
0.02828846930747132,0.40876110684434913,0.7495328724003514,-0.007738585172025745,-0.5250099090097351,0.0019501373306731078,0.8510586975676333,0.05901827439839509,-0.8699215879124378,1.0410985982234506,-0.007699420751886786,-0.8547292129191835,0.9018885034976071,0.020497255979156703,0.6591255901795586,1.0610817585548011,0.04949138646186888,0.7557381090168184,0.9619055274153592,0.0,0.0,0.0,0.0
0.02913043453218821,0.4098100045393444,0.7496690724120001,-0.007668498187852633,-0.5252795939231762,0.0019438018089373784,0.8508929215700255,0.05629848075640448,-0.8739024222978363,1.050352744330789,-0.001744326771647738,-0.8636036004435197,0.9027455731074764,0.03290738004050254,0.6542271223148033,1.0691510754062012,0.040095610535648314,0.758808225845872,0.9559216958300456,0.0,0.0,0.0,0.0
0.02956157803049559,0.41093307968928694,0.7498342545275978,-0.007625012345460451,-0.5255068665564177,0.00196193522768375,0.8507529272350165,0.05328452957623973,-0.876516944808135,1.0566417245708,0.004048462230781465,-0.8722247980125637,0.9027079363409445,0.04473389866801192,0.6488733405241719,1.0768313766014062,0.03035505336220484,0.7605660704576985,0.9499608490347503,0.0,0.0,0.0,0.0
0.029632191741592453,0.4121772802876995,0.7500026270731845,-0.007610246289759357,-0.5256942731046718,0.0020076103783058684,0.8506371640581717,0.04985825198435482,-0.878175647238005,1.0606079624629,0.00976969936427785,-0.8804605486976039,0.9017877462864967,0.05612843179086854,0.6430984956629187,1.08398904104568,0.020036598158052178,0.7610707287588879,0.9440284342258155,0.0,0.0,0.0,0.0
0.02938111435472515,0.413587692584825,0.7501338401346664,-0.007627793490543482,-0.5258438075858243,0.0020840136836920613,0.8505443925375528,0.045905105428168155,-0.8792709450995941,1.0627846631011204,0.015420642234931356,-0.8879578833280356,0.9001206336330124,0.06707353355115259,0.6370134622322217,1.0903419840845443,0.00893256182786253,0.7602818964573582,0.9382743551108557,0.0,0.0,0.0,0.0
0.02882924733225939,0.4152061537201118,0.7501760956585906,-0.007682056203071962,-0.5259565520095546,0.0021935663082258217,0.8504739147543356,0.04131932572835099,-0.8801420221947364,1.0635445614589292,0.020953600190470347,-0.8940752544474219,0.8980186076205449,0.0773839851688558,0.6308190235309481,1.095310205747339,-0.003131592384800222,0.7580473313113878,0.9329854313968751,0.0,0.0,0.0,0.0
0.02797842452737666,0.4170682352898244,0.7500726250257164,-0.007778612285979623,-0.5260336942064805,0.0023383594453892293,0.8504249395599187,0.03601090297833102,-0.8810389628780779,1.0630702250623507,0.02629261400357781,-0.8979173905963808,0.8960025210944648,0.08666744838660242,0.6249157656726095,1.09780170460173,-0.01625731828467558,0.7541382390276932,0.9285420387281212,0.0,0.0,0.0,0.0
0.026821351253553626,0.4191995918093958,0.7497793630585287,-0.00792334508001753,-0.5260790989741176,0.002519268600232607,0.850394999697813,0.029918095692122615,-0.8820799844025408,1.0613825468131235,0.03135429077956656,-0.8986511191377097,0.8946966545210037,0.09436546871333973,0.6201366770506151,1.0960178583715066,-0.030453235795839514,0.7483764914249913,0.9252477012679744,0.0,0.0,0.0,0.0
0.02535793642708123,0.42162123314399136,0.7492814881274887,-0.008115587351972018,-0.5260959557131526,0.0027333397057323016,0.8503820973411012,0.022998377398460768,-0.8832804521794512,1.058474220437572,0.03607547842609198,-0.8963301104992216,0.8941460329882539,0.1004158028174968,0.6165676931867187,1.0900010582605124,-0.04574934378443262,0.7407403258921788,0.9231067315144136,0.0,0.0,0.0,0.0
0.023598173524536276,0.424347584230638,0.7485946564011442,-0.008347215788941147,-0.5260863205452307,0.0029735637859994494,0.8503850100055645,0.01523466616659649,-0.8845586355475985,1.0543270461435368,0.04044148103409175,-0.8918993226447993,0.8938347674719452,0.10530234301733342,0.6135222235174123,1.0816041398354526,-0.062182672236520395,0.7313851242229634,0.9218080418961686,0.0,0.0,0.0,0.0
0.021551215805136578,0.42737436753129665,0.7477519098995908,-0.008608348119563217,-0.5260549212477846,0.0032313263375367586,0.8504008905826357,0.006664878067885513,-0.8857002454834508,1.0487932608091617,0.04450155611885267,-0.8863768400444446,0.8933915731461554,0.10946089105710542,0.6107022348194097,1.0719190442940223,-0.07964767773221818,0.720578642773061,0.9209302687674733,0.0,0.0,0.0,0.0
0.019221889527842876,0.43067338395342125,0.7467902030641165,-0.008887244358879295,-0.5260079217609012,0.00349724062966609,0.8504260417228894,-0.002605155310624818,-0.8863889718501237,1.0415810632514333,0.04838409241580361,-0.8805599160374737,0.8927357816540324,0.11331118155858816,0.6079676267832282,1.061453587397661,-0.09787860188317038,0.7086136402679054,0.920108064624891,0.0,0.0,0.0,0.0
0.016619247370230593,0.43418700886982736,0.7457493098103073,-0.009167533919960105,-0.5259532372901664,0.0037589370927741113,0.8504557712766448,-0.012381743840681459,-0.8862335086440825,1.0323128310945149,0.052310573827241295,-0.8750154428807638,0.8921057758275415,0.11743562203241387,0.6052059796114954,1.050323765871042,-0.11648349043044302,0.695805967783925,0.9190638137494813,0.0,0.0,0.0,0.0
0.01377068005666391,0.437821765667522,0.7446736024475368,-0.009423635603187102,-0.5259021239355564,0.003996255649828606,0.8504834984130323,-0.022356783343172648,-0.8848018464725022,1.020622205489879,0.05656965837269317,-0.870170115232882,0.892089998951318,0.12283616359004575,0.6022543801874798,1.0383752533617718,-0.1350097061819042,0.6825111641085826,0.9176126058794467,0.0,0.0,0.0,0.0
0.010738672766685914,0.4414414170976797,0.7436043037051006,-0.009611309911837543,-0.5258696914261282,0.004163550393931179,0.8505006497406599,-0.03205137724374136,-0.88169175510293,1.0062904300873856,0.06144549208949589,-0.8664395481785837,0.8937057457454332,0.1312128141849285,0.5988323087337323,1.0252638420207303,-0.15311533256697998,0.669048760056639,0.9157468232957827,0.0,0.0,0.0,0.0
0.007627716140479031,0.44485877423874165,0.7425495717932847,-0.009658396971717456,-0.5259082420769345,0.004181149339953641,0.8504761926554336,-0.04078390894260544,-0.8764613947047359,0.9891746289793184,0.06747341272059788,-0.8645495899236966,0.8988179700253054,0.14552348169066673,0.5944802917198266,1.010597810945094,-0.17069639250477975,0.6555699495639052,0.914030687262142,0.0,0.0,0.0,0.0
0.004973791277596553,0.4480064741821315,0.741316195376166,-0.009485198658470822,-0.525983326191713,0.0039750998936572786,0.8504326958410917,-0.04829575793045389,-0.8722205613870626,0.9743186865788089,0.07459942207728129,-0.8647283815748421,0.9082598349055889,0.17021069379747789,0.5899304358546195,0.9937267217847583,-0.18884171040714395,0.6420521648682554,0.9138586189701932,0.0,0.0,0.0,0.0
0.003030441112467223,0.4504562918797111,0.7397224425353393,-0.00902279234470159,-0.5262692132175669,0.0034600115309572463,0.8502630961989783,-0.0533456832042852,-0.8689826311369131,0.962304625308261,0.08327494329567683,-0.8704680514239025,0.9261591710353358,0.20879041725340325,0.5847695430826652,0.9738928700748712,-0.2067083495770325,0.6279499907064607,0.9190044064901954,0.0,0.0,0.0,0.0
