zhuoxili-jackie/tripod-support-walk/examples/pcbB样数据/trajectory_trotting_acc_f02.csv
root_pos_x,root_pos_y,root_pos_z,root_rot_x,root_rot_y,root_rot_z,root_rot_w,FL_hip_joint,FL_thigh_joint,FL_calf_joint,FR_hip_joint,FR_thigh_joint,FR_calf_joint,RL_hip_joint,RL_thigh_joint,RL_calf_joint,RR_hip_joint,RR_thigh_joint,RR_calf_joint,FL_foot_joint,FR_foot_joint,RL_foot_joint,RR_foot_joint
0.0,0.0,0.72963,-0.009919430704566214,-0.5230949929384007,0.0038044909978256812,0.8522081665329894,0.0,-0.81,0.872,0.0,-0.81,0.872,0.0,0.65,1.0,0.0,0.65,1.0,0.0,0.0,0.0,0.0
0.0015811149331253177,-0.0006509400406176485,0.7300698597249168,-0.009878018475518661,-0.523543587755358,0.003852844183501311,0.8519329152362543,0.0015138848193067475,-0.8128474714893906,0.882532645747344,0.0015138848193067475,-0.815989621148596,0.8875505462456829,0.004464293574675097,0.6575572373206013,0.9933682536450952,0.004464293574675097,0.6582606908664956,0.9979494474873114,0.0,0.0,0.0,0.0
0.004545807868925698,-0.002028390579464059,0.7314515025324467,-0.009548938308177836,-0.5243382257281008,0.003382408031745721,0.8514498236146394,0.006159150763445306,-0.81494716091421,0.8999266905006179,0.006166414080934844,-0.8270199006155733,0.9171380492005656,0.00900816341719922,0.6760094859870671,0.9755152785856773,0.009075382770821577,0.6747932140430234,0.988683533738865,0.0,0.0,0.0,0.0
0.007618032862414531,-0.0033940548757673454,0.7323636229148621,-0.009362083001901998,-0.5243633239157681,0.003308329525519028,0.8514367333452458,0.009767784774837517,-0.8239921008727673,0.9232976412540382,0.0028227342207520403,-0.8266931775097712,0.9081909934466451,0.003725996228021995,0.6699505728378478,0.9964447666360694,0.017391635499834936,0.6889040224670022,0.9818718749896269,0.0,0.0,0.0,0.0
0.011186035349226747,-0.004753702967624363,0.7329549633933864,-0.009105957112369724,-0.5244002534413751,0.003064810781036424,0.8514176781524834,0.01381953066624174,-0.8356222887877279,0.950773441160734,-0.0018077596687611618,-0.829422274564827,0.9018391778387015,-0.002511925500883391,0.6680089986469575,1.0139324119804838,0.02451391580157656,0.7027398596951828,0.9769424185264571,0.0,0.0,0.0,0.0
0.014708727315624035,-0.006173761127472756,0.7333911768757699,-0.008808686319512092,-0.5244975098143678,0.0027366945684222654,0.8513620145077478,0.01828524546645284,-0.8462006548563585,0.9762609343639882,-0.006362911455077538,-0.8341134050460369,0.8988636762543262,-0.007457779430089398,0.6680661809424127,1.0288976173575444,0.03161289352089864,0.7159099293048821,0.973355183044125,0.0,0.0,0.0,0.0
0.017918949742649206,-0.007639622751934633,0.7337944003134461,-0.00850754664139278,-0.5246158325654867,0.002392797031313607,0.8512932070644829,0.022957307151872462,-0.8546418911018429,0.99778510292238,-0.010463526429467983,-0.8399001615445024,0.897960647474145,-0.01110783404317181,0.6687034851646109,1.0422011566175993,0.03928471613723589,0.7282764800095878,0.9703060637063766,0.0,0.0,0.0,0.0
0.020687757418282653,-0.009119371660402706,0.7342133765138399,-0.008224942847991697,-0.524718113185253,0.002066167635785054,0.8512338004107662,0.027660349685118806,-0.8607718616470319,1.0148587773411637,-0.014105353450045426,-0.8462779674474784,0.8979663114155804,-0.013902412552684942,0.6693251629393474,1.054302307276941,0.04764935520601394,0.7396047688586797,0.9674689073536107,0.0,0.0,0.0,0.0
0.02298164661713188,-0.010575275003162916,0.734663963901997,-0.007971019515047102,-0.5247899596301001,0.0017712659901932754,0.8511925890984486,0.03224466866503548,-0.864768405454734,1.0277004120902353,-0.01742218442875446,-0.8529616122578181,0.8981367484573918,-0.016195109264226203,0.6697069490063559,1.0655186762976199,0.05653336712573129,0.7497687996258475,0.9647125059989519,0.0,0.0,0.0,0.0
0.024824430058712144,-0.01197196299369893,0.735144849931736,-0.007749232245545079,-0.524829943426018,0.0015129960834750242,0.8511704827623541,0.036591020457363115,-0.8669667469517185,1.0368644187702731,-0.02056982775743899,-0.8597752090296222,0.8980380618439131,-0.018223106260072744,0.6697958738474763,1.076066776889282,0.06562975870052369,0.7587438468382168,0.9619866309594166,0.0,0.0,0.0,0.0
0.026268404562294317,-0.01328140878496625,0.7356434778032316,-0.007559752289307486,-0.5248420395642659,0.0012917470269534718,0.8511650927058535,0.04061431068702368,-0.8677589618693884,1.0430222113871481,-0.023669594100360833,-0.8665662536212182,0.8974468376552209,-0.02014929381656842,0.6696246368389903,1.0860600347887042,0.07461621403076002,0.7665591720062737,0.9593060556547546,0.0,0.0,0.0,0.0
0.027373336246988223,-0.014484766003422798,0.7361381229298787,-0.00740132864713046,-0.5248310121763148,0.0011060553570169745,0.8511735461313334,0.04426267964576561,-0.867536014989301,1.0468254362562883,-0.026786603601384438,-0.8731127594721592,0.8962999964157392,-0.022104215020065984,0.669270599540616,1.095474016962281,0.0832254290098161,0.7732448270018738,0.9567675606317446,0.0,0.0,0.0,0.0
0.028191180924509205,-0.01557230357984002,0.7365986075766788,-0.007272580296059002,-0.5247998154311673,0.0009542135212297387,0.85119407468321,0.04751274040479291,-0.8666505850738919,1.0488143492810151,-0.02992758344743387,-0.8790158181913353,0.8946943309799487,-0.024227544271527568,0.6688364248340591,1.1040672912817477,0.09127978526303708,0.778783835351796,0.9545724381980598,0.0,0.0,0.0,0.0
0.02875551798363695,-0.01654287198758851,0.7369876275452477,-0.007173169562819104,-0.5247482969205273,0.0008353500876133336,0.8512268045049218,0.05036423860403634,-0.8653883693059211,1.0493535473262452,-0.033050869782486295,-0.8836088860482939,0.8929190557534923,-0.026717070126301125,0.6684633995619078,1.1112418089588085,0.09870611600450076,0.7830802305311674,0.9530356411908865,0.0,0.0,0.0,0.0
0.029077602131788245,-0.01740397171872009,0.7372661624250063,-0.0071045729545470586,-0.524673046835263,0.0007497269157345833,0.8512738436468533,0.05283815204862359,-0.8639411378939157,1.0486013222599617,-0.03608537246265849,-0.8859770662367205,0.8914708178883258,-0.02987487859747172,0.668429630857084,1.1158344012086425,0.105539414666156,0.7859685465992705,0.9525454719875612,0.0,0.0,0.0,0.0
0.02915575739625338,-0.018172263933008265,0.7374095375657742,-0.00706854355380466,-0.524570425400926,0.0006962973624036996,0.8513374299634091,0.054982511043145804,-0.8623712955621642,1.0465457245607919,-0.03894920672146472,-0.8852670281951697,0.8909394350518242,-0.03408382180535021,0.669394573712155,1.115947733639298,0.11189205496937764,0.7873187204184147,0.9533994252158431,0.0,0.0,0.0,0.0
0.02899193912622304,-0.018870289910658658,0.7374235434829699,-0.007062854770142262,-0.5244375020928124,0.0006729247364320323,0.8514193852934324,0.056860402126638905,-0.8606240560159462,1.0431188720704019,-0.04158094203335309,-0.8814995474829741,0.8913425687376323,-0.03932727145643064,0.6713454696473052,1.1115814880747494,0.11789313242850115,0.787160810747388,0.9556089601118888,0.0,0.0,0.0,0.0
0.0285934142574176,-0.01952687864796977,0.7373440448784874,-0.007081828672696018,-0.5242714438878289,0.000676899466772396,0.8515214868889296,0.05854970889546823,-0.8585388406677322,1.0382120099767527,-0.04395065409170382,-0.875575512066345,0.8921452969165544,-0.04521497406121634,0.6736093706312948,1.1046387080549727,0.12369588397377486,0.7856883054397975,0.9588998542068817,0.0,0.0,0.0,0.0
0.02795873750008322,-0.02017929373300093,0.7372196698123302,-0.00712152856778045,-0.5240682032459357,0.0007054565300379135,0.8516462320168622,0.060149718169646205,-0.8558579816801658,1.0315887024353012,-0.046056346409097046,-0.8684585210175751,0.8929254665005287,-0.051492400298138306,0.675906859271082,1.0963172346934955,0.12953064525228783,0.7831330725014625,0.9629098398965465,0.0,0.0,0.0,0.0
0.02707078182390351,-0.020869806607674228,0.7370933873100262,-0.007182367708554787,-0.523819673791609,0.0007590487473434764,0.851798559982318,0.06176486337663783,-0.8522898338624209,1.0228841892488245,-0.04793623799104606,-0.8608616005566613,0.8934911957470635,-0.05811038398785909,0.678111871634555,1.087303516222513,0.13571162908561055,0.7796527110136174,0.9673635348044857,0.0,0.0,0.0,0.0
0.025903773176129553,-0.021641347472666283,0.7369930275950393,-0.007270193313917907,-0.5235136985571505,0.0008428334003796526,0.8519858222670437,0.06349089616064141,-0.8475811512046845,1.0116918406464719,-0.04968587200144813,-0.8532267132961313,0.8938798885488386,-0.06527459794994923,0.6801750750999169,1.0780186749343825,0.14261673041792192,0.775311178612005,0.97213400952367,0.0,0.0,0.0,0.0
0.024438129720065718,-0.022531557312551482,0.7369239722965424,-0.007398332932837767,-0.5231345780600458,0.0009691310879063207,0.8522174245418168,0.06539600869136641,-0.84162007458834,0.9977197966176956,-0.05148568376829696,-0.8458140267751867,0.894340269713416,-0.07357737909342625,0.6821599285021942,1.0688206679332783,0.15067709280223157,0.7701034979547589,0.9772649335605,0.0,0.0,0.0,0.0
0.02268214626315529,-0.02356283163436127,0.7368608688136667,-0.007591809551691246,-0.5226636668762228,0.001162462585411959,0.8525043720919965,0.06748784331810767,-0.8345946876140549,0.9810408209155803,-0.05361920631104748,-0.8388186023514635,0.8953391114727706,-0.0842872861342768,0.6843614034114468,1.0601864233206857,0.16038282191837655,0.7640082906075405,0.98298287117803,0.0,0.0,0.0,0.0
0.020703402326066885,-0.02472497673768995,0.7367385997349162,-0.007894720979875557,-0.5220794333986072,0.0014690370131931808,0.8528590625262144,0.06965484193158449,-0.827247479541597,0.9625028051738985,-0.05644283693297679,-0.8325049644960256,0.8975888215579363,-0.09987921515330912,0.687524937527597,1.0529039985214386,0.17230978479048037,0.7570805709491912,0.9896899154137447,0.0,0.0,0.0,0.0
0.018674868810000734,-0.025944184536023693,0.7364470889003053,-0.008381235658588221,-0.5213474970965976,0.001973248420026584,0.8533010303817881,0.07156190908189043,-0.8213277499671917,0.9444524872985136,-0.060285102736567384,-0.8273671123826813,0.9019633266626372,-0.12481249896791669,0.6931910792903712,1.0481830957090608,0.18713688508150644,0.7495926654080282,0.9978609094934554,0.0,0.0,0.0,0.0
0.01700017497374204,-0.0270057698106724,0.7358757263960676,-0.009161440734830379,-0.5203692964503531,0.0028167104990470173,0.8538875391158903,0.07243350078192383,-0.8206577588790371,0.9326144494730501,-0.06560044070569604,-0.824277348574127,0.9088683960346658,-0.16550559840842874,0.7037592733657478,1.0472296120811282,0.20526538362351804,0.7424874711146903,1.0071841353254989,0.0,0.0,0.0,0.0
0.0159510973484116,-0.02780672332296639,0.7352021119180872,-0.010153481588884856,-0.5193240811046221,0.003972883041537562,0.8545078243040272,0.07202889229502606,-0.8251837800080505,0.9288516460412208,-0.07092949533135096,-0.8266796858633474,0.9205708661151984,-0.2162379954815502,0.7158190115934187,1.0514059546226449,0.22565626691250687,0.7378012058364292,1.015705990128119,0.0,0.0,0.0,0.0
0.015972501591297313,-0.027838779553678916,0.73518593182581,-0.010158146259781776,-0.5193200624740836,0.00399199276079017,0.8545101220993678,0.07204774911611812,-0.8252085735598041,0.9288192160363464,-0.07094638001404253,-0.826678619437196,0.9205821219850902,-0.216248816943739,0.7158384471292778,1.0514151178249243,0.22568231641444594,0.7377553454802479,1.0156834829808905,0.0,0.0,0.0,0.0
0.015972501591297313,-0.027838779553678916,0.73518593182581,-0.010158146259781776,-0.5193200624740836,0.00399199276079017,0.8545101220993678,0.07204774911611812,-0.8252085735598041,0.9288192160363464,-0.07094638001404253,-0.826678619437196,0.9205821219850902,-0.216248816943739,0.7158384471292778,1.0514151178249243,0.22568231641444594,0.7377553454802479,1.0156834829808905,0.0,0.0,0.0,0.0
0.017340380873908497,-0.027638395316264507,0.7354818633906107,-0.009473618066094324,-0.5219011288784209,0.002257621762807847,0.8529503885808035,0.0756333610698621,-0.8124791542305895,0.9249730777357971,-0.06687340929894339,-0.8213687635331104,0.9215408561585305,-0.24853231999746545,0.7386629425088662,1.0538709183459032,0.21300536331323291,0.7471939479778854,1.0144774011468387,0.0,0.0,0.0,0.0
0.019470821073674836,-0.027637179587974913,0.7355080023449161,-0.008604028830065658,-0.5251520210661668,-5.7870457990082606e-05,0.8509649358869152,0.08110536598814151,-0.7985635132530463,0.9230913084408311,-0.06095304960858371,-0.8185213576628688,0.9281342741918318,-0.2976464104627772,0.7706284080648681,1.0584428339531913,0.19727247330227562,0.7585601604049212,1.0158152434914807,0.0,0.0,0.0,0.0
0.020859961163993492,-0.030206768935598257,0.7363170280980671,-0.011265421985203434,-0.5210659369318068,0.005449640845739848,0.8534246780188197,0.06375156587918712,-0.8131203779810283,0.9077926282118413,-0.0683513219349271,-0.8389479052150062,0.962305440364016,-0.17177797724215024,0.7315204777178848,1.0322071427753796,0.1633649805381764,0.7200063461412927,1.0191726603263194,0.0,0.0,0.0,0.0
0.022964102498697576,-0.031944504930414556,0.736455885159585,-0.01290173999234894,-0.5206991993608138,0.007917829089228796,0.8536059962726896,0.05104374763789582,-0.8204364760102275,0.9010610866119989,-0.0699370681317372,-0.8474244604819584,0.9841275627497119,-0.1395294858431409,0.730243867659104,1.0190659836294036,0.1242811960254786,0.7029731885126206,1.027261755679666,0.0,0.0,0.0,0.0
0.025683482869774607,-0.03307833341847374,0.7360991515422838,-0.01338190915272517,-0.5218201985974243,0.00818986916995218,0.8529112092628117,0.04132884183380103,-0.8296371991540006,0.9031936279515915,-0.06771275542502836,-0.8560242718380523,1.006060485640911,-0.13751133663184253,0.741688065848658,1.0163090610767413,0.08735238069984472,0.6962727376611962,1.0389305646040827,0.0,0.0,0.0,0.0
0.02880722354902839,-0.0332064102519672,0.735905196412242,-0.012302928500701152,-0.5251459165355786,0.005435532785294019,0.8509059050680361,0.03704584009753188,-0.8353701818583906,0.9151257624012876,-0.06050192330671469,-0.8589035570710023,1.021764151471267,-0.1847432116008553,0.7760266184246433,1.0209640457724,0.046062648032796034,0.6993723220538681,1.0519191480872732,0.0,0.0,0.0,0.0
0.03130747090677033,-0.03302696699718485,0.735561738166274,-0.011211105614578212,-0.5287869784130015,0.0024921527038807177,0.848676871221696,0.034081751846676056,-0.8380944466184853,0.9249193382220546,-0.05351900510957963,-0.8570645777815751,1.0293900099931066,-0.25201586105115414,0.815571385820639,1.0283949465149278,0.01013690132971528,0.7041136713247079,1.0622951981399675,0.0,0.0,0.0,0.0
0.031604367568108235,-0.035267894937649105,0.7352616400962596,-0.013136157604278895,-0.5233598613240702,0.007660156252938853,0.8519760671077716,0.015526923166758414,-0.8632995061167794,0.9090384313736307,-0.06134742152359482,-0.8827045768574652,1.0593681043583578,-0.12519630897700063,0.7613108004564435,1.0117628959665865,0.03420289115047409,0.6839731300348559,1.064124429073114,0.0,0.0,0.0,0.0
0.03327653575013688,-0.035170851599288205,0.7359266865283558,-0.011247778725976786,-0.5279870794940158,0.0030484930376898514,0.8491724430593061,0.017739274930476532,-0.8612160688121222,0.9236020804250268,-0.04972072014736459,-0.8731227979669198,1.0571082115696464,-0.22308550309415695,0.815365627181233,1.0129642494737268,-0.007727769118563238,0.6905859070963952,1.0749803669190383,0.0,0.0,0.0,0.0
0.03421872927460156,-0.03562006530055243,0.7364858934071319,-0.009899395732270822,-0.5323263296288286,-0.0007474644664064539,0.8464810228498374,0.019503588332237864,-0.8601203628770874,0.9372914886487558,-0.038725037612420694,-0.8609201802915886,1.0502642546609573,-0.33316538983458094,0.8712915560677098,1.0130461580368477,-0.04251163657696131,0.6975309066803053,1.0839282244262813,0.0,0.0,0.0,0.0
0.03286756266367806,-0.038971570877591455,0.7373731195811197,-0.010909350100449086,-0.5282162919061729,0.0028667617423147706,0.8490349325689676,0.008761917983798212,-0.8724695135051743,0.9210774746856976,-0.039478162730787324,-0.8752193304528353,1.0650880758570738,-0.20621462011989508,0.8215800583646611,0.9889442030324259,-0.03502643772815134,0.676582346972278,1.0873042124833248,0.0,0.0,0.0,0.0
0.030698270912134902,-0.043137646654945516,0.7383604297672947,-0.013487048327722424,-0.5230294715684422,0.008442930026958562,0.852166056781659,-0.006217965447144752,-0.8882028578085177,0.9011808653393999,-0.042351228927421915,-0.8878052265689127,1.0764960185695251,-0.08034211077338566,0.7696597420891965,0.9573361122735811,0.003606157543674625,0.6616406122978893,1.0859353639814568,0.0,0.0,0.0,0.0
0.02969120453837814,-0.045731025217359327,0.7392746570232962,-0.012714995711699843,-0.525264448692101,0.006444570876107055,0.8508196373676723,-0.00310812686750756,-0.8842657507041283,0.9036583347107664,-0.030129623821530012,-0.8793524743307564,1.06879151137328,-0.1197811364486848,0.794701325014422,0.9444343655206422,-0.023674831789045322,0.6594757594775591,1.095534990865405,0.0,0.0,0.0,0.0
0.028293008747249992,-0.048738151706003575,0.7391414750372863,-0.012449788108226336,-0.5261061339363587,0.005789209855185754,0.8503080757348193,-0.004910171547203833,-0.886843840169272,0.9034242920872071,-0.020548253544135656,-0.8776343835023112,1.0646572700089443,-0.12114395465089087,0.7972960830448452,0.9388236184308026,-0.03531920508105621,0.6563528615500795,1.1017972762130697,0.0,0.0,0.0,0.0
0.026296448382039893,-0.05209165733934059,0.7384252684241126,-0.012549723284851134,-0.5257687574774648,0.0061571212524345826,0.8505126736057255,-0.009338313204279334,-0.8888810447949373,0.8983806802689122,-0.012736462395790512,-0.8801299878535334,1.0614514412318574,-0.09366029460493716,0.7829149723959085,0.936843766171179,-0.03635244349493663,0.6513947457681284,1.1013007371070873,0.0,0.0,0.0,0.0
0.023991104710791723,-0.05545471323680841,0.7375795007719975,-0.012396858766689943,-0.5256007402731941,0.006136211205268503,0.850618907989373,-0.013015520905610665,-0.8866219446327711,0.8945381220539909,-0.003988042758126259,-0.8816454620762958,1.0554537084206295,-0.06966031647195162,0.7685001463747323,0.9373006534198078,-0.037849592056579937,0.6471171305219088,1.0959678274494467,0.0,0.0,0.0,0.0
0.02141864404024722,-0.05883288554398293,0.7366871074612166,-0.012054453661950045,-0.5255925280005872,0.00580110198169529,0.8506312549352167,-0.016197750194109628,-0.8817106249488377,0.8920207631120849,0.005520639863934392,-0.8817659834821978,1.046607823621348,-0.049057755550769494,0.7546152852185642,0.9389789832566019,-0.04003345736169993,0.6432473206738609,1.0880854831446076,0.0,0.0,0.0,0.0
0.01855835037084077,-0.06229082053977396,0.7358013341072588,-0.011670472862376475,-0.5255630704026822,0.005411900477622378,0.8506573754604695,-0.019366397860437083,-0.8756078097697363,0.88961939177367,0.015310840086843264,-0.880626965094577,1.035171015297702,-0.02837614090915785,0.7399988974788224,0.9404658781261551,-0.04214801569375373,0.6393099851197986,1.0786833449665165,0.0,0.0,0.0,0.0
0.015392415094522036,-0.06583132272008398,0.7349553371078122,-0.011311357209466775,-0.5254630624650974,0.005068448764279179,0.850726121621997,-0.02268689841457395,-0.8691078457259306,0.8868212445283178,0.02513476806676422,-0.8779910297631778,1.0208886081078117,-0.0070842063246318344,0.7245197593303276,0.9410946614302041,-0.04425655457986467,0.6351324016775696,1.0682743412378588,0.0,0.0,0.0,0.0
0.01191810007210695,-0.06940045349916314,0.7341553623850956,-0.011001909624583488,-0.525302578267362,0.004791183604900009,0.8508308902537205,-0.026257817023426406,-0.8626567080960953,0.8836507114140525,0.03478598354101152,-0.8735029178901559,1.0033054762856164,0.014112564120847913,0.7084360902560571,0.9408308891151353,-0.04671934828500548,0.6306656365374446,1.0570951296340034,0.0,0.0,0.0,0.0
0.008167108503717359,-0.07290304930464915,0.733387022296556,-0.01075757873410572,-0.5251002262016469,0.004584450595412279,0.8509600517976722,-0.030169661825317575,-0.8564318945484852,0.8803968664662805,0.04399168346837502,-0.8669256827936322,0.9821287958367527,0.03434502335028053,0.6920133617298444,0.9400094932700882,-0.05006137777069118,0.6258754171410402,1.0452435311602142,0.0,0.0,0.0,0.0
0.004230202386740288,-0.07621950588097906,0.7326006010137613,-0.010608888099072993,-0.5248403602286329,0.004508072764701146,0.8511226263285028,-0.03453652705028305,-0.850425607892471,0.8774082339397697,0.05228825141251559,-0.8584791458207857,0.9576985232582491,0.05333686592022665,0.6751568331591329,0.9392556847405672,-0.054592591317240945,0.6208598148452172,1.0328027141953038,0.0,0.0,0.0,0.0
0.0002544945252353449,-0.07924314327598266,0.7317039392303099,-0.01053055107639094,-0.5245593957198416,0.0044502007493868465,0.8512970947732362,-0.04039169942280803,-0.8443077179637444,0.8748985621147363,0.05971085143378016,-0.848873189404424,0.9309815100237978,0.06967396432062246,0.6582493801146064,0.9398655943255227,-0.06273649199814209,0.6159479903420148,1.019460197634385,0.0,0.0,0.0,0.0
-0.0032760613965429385,-0.0818467514940174,0.7305932030085291,-0.01049985664517442,-0.5242263180645967,0.004425764275875698,0.8515027498895358,-0.0469256010762266,-0.8377338709278782,0.8725874136421176,0.06596360262079486,-0.8408435354651608,0.9066093801914693,0.08308694706239753,0.6418961386228546,0.9428769583346863,-0.07626783446517409,0.611458859463787,1.0053020030123638,0.0,0.0,0.0,0.0
-0.006104201059219193,-0.08375503159119177,0.7293037062867437,-0.010488093937659614,-0.5239348128653962,0.004387400834995878,0.851682489233617,-0.053595842710991465,-0.8319100453619601,0.8710421705212263,0.07053371331839922,-0.8348835681534663,0.8862643730004071,0.09215452818299597,0.627104001967133,0.9492559027443135,-0.09792895429458565,0.6064941218889385,0.990263790751152,0.0,0.0,0.0,0.0
-0.007834116210920988,-0.08475632823656952,0.7280698424009204,-0.010465180438609657,-0.5237444277893225,0.004334708216814474,0.8518001318752525,-0.058533242990649686,-0.8285406655815154,0.8700335739247392,0.07296103087377995,-0.8320132121110903,0.8733449820220576,0.09623200620119696,0.616036405267409,0.9576890278018126,-0.1243014564828485,0.6014895589442668,0.9759964579547941,0.0,0.0,0.0,0.0
-0.007848419902741046,-0.08488267102257449,0.727998599198344,-0.010379181414534243,-0.5237544364402557,0.004353733889531781,0.8517949330111875,-0.058543371510961645,-0.8285672094855331,0.8700403934975728,0.07314383945054839,-0.8320907685657157,0.873162102630009,0.09625135463302442,0.6159490400566039,0.9576062890404274,-0.12432057394617682,0.6015201621768187,0.9760034657709263,0.0,0.0,0.0,0.0
-0.00784841990518238,-0.0848826710225085,0.7279985991994384,-0.010379181399046578,-0.52375443643143,0.004353733899513635,0.8517949330167519,-0.05854337154967906,-0.8285672095101597,0.8700403935004305,0.07314383941386847,-0.8320907686136105,0.8731621026713242,0.09625135461587132,0.6159490400348078,0.9576062890129794,-0.12432057393338965,0.6015201621697209,0.976003465736608,0.0,0.0,0.0,0.0
-0.00784841990518238,-0.0848826710225085,0.7279985991994384,-0.010379181399046578,-0.52375443643143,0.004353733899513635,0.8517949330167519,-0.05854337154967906,-0.8285672095101597,0.8700403935004305,0.07314383941386847,-0.8320907686136105,0.8731621026713242,0.09625135461587132,0.6159490400348078,0.9576062890129794,-0.12432057393338965,0.6015201621697209,0.976003465736608,0.0,0.0,0.0,0.0
-0.006141111707772338,-0.08622190368702548,0.7284268983144728,-0.010296868034597962,-0.5242946324348404,0.004445266371261565,0.8514630658552267,-0.055532490286190395,-0.8307032573360699,0.8798937577586738,0.07642260723299492,-0.8394765303175108,0.8913213572998515,0.10514652708866584,0.623708862551542,0.9484261066073505,-0.11811417879061578,0.6093123155215003,0.9777006510273502,0.0,0.0,0.0,0.0
-0.002790352695377094,-0.08888854697158849,0.7304062252305507,-0.009840516863777576,-0.5252784743341119,0.003814827217995673,0.850864933889262,-0.047318616946845346,-0.8301392202452833,0.8967274098491003,0.0850668112302638,-0.8521175955078353,0.926565068511737,0.11719861156369163,0.6467771286328563,0.9201247609334833,-0.11056630883554845,0.6283459819360083,0.9692430205545539,0.0,0.0,0.0,0.0
0.0005404368192493607,-0.09154465127383869,0.7322597487513802,-0.009942222247907636,-0.5251230805680935,0.004167930087094686,0.8509580076773694,-0.04165216672953217,-0.8379710676355976,0.9203746357675057,0.07660703945847885,-0.8455357303488943,0.9115917297676877,0.09094190472705294,0.6412071714618647,0.9552696717393729,-0.092756428320604,0.6478759098288641,0.9601035684412214,0.0,0.0,0.0,0.0
0.004416806281474686,-0.09446280423529022,0.733369708389193,-0.0098877586845391,-0.5251036309193775,0.004162566404724751,0.8509706705077494,-0.03444844705221271,-0.8483344189157385,0.9473084753112572,0.06652007956185321,-0.8446803074864075,0.9024705110161545,0.0651273963864903,0.6418108709333583,0.982704487801583,-0.07586079819857863,0.6648928887204743,0.9574607030782862,0.0,0.0,0.0,0.0
0.008390414222704859,-0.09745134326204696,0.7341004104305995,-0.009673751944537512,-0.5251632682148534,0.003925353990945523,0.8509374547152425,-0.026439267810868063,-0.8584674911625191,0.9733476608087172,0.05714983549062798,-0.8468666982126615,0.8980260622987515,0.04660811157446885,0.644650160619097,1.0038581249867262,-0.059936799534898395,0.6802821727136171,0.9577275186315892,0.0,0.0,0.0,0.0
0.012156319851074458,-0.10042591706882012,0.7347394645655085,-0.009370401572140799,-0.5252749766280438,0.0035809278155005827,0.8508734168245974,-0.018093132075089356,-0.8666093485150973,0.9959639652290677,0.04927809084423914,-0.8509426821899495,0.8966839245562357,0.03401947541413033,0.6477421992453585,1.0211037209968021,-0.044235737067139014,0.6949546539102077,0.9583977333877394,0.0,0.0,0.0,0.0
0.015527847741494894,-0.10332185590732901,0.7353796957104559,-0.00903914450993768,-0.5253809882218335,0.003209500171130266,0.8508130289259971,-0.009774169375713834,-0.872428938447915,1.0143283373637686,0.042772902336315366,-0.8561813294274133,0.8968044184237328,0.025006630685895974,0.650514362233965,1.0357703408873171,-0.028297881020142968,0.7088700918978627,0.9586796390690496,0.0,0.0,0.0,0.0
0.018426339611057926,-0.10608927337044632,0.7360375079931967,-0.008715633419657953,-0.5254535677509865,0.0028487842148227386,0.8507728664575235,-0.0017273839036063068,-0.8760819000731725,1.028448655804595,0.03712661552873442,-0.8621075460852499,0.8973387813794398,0.017846870576515954,0.6528627855381673,1.0487190444647825,-0.012108465963832443,0.7217916885261517,0.9584779810379569,0.0,0.0,0.0,0.0
0.020844660996746343,-0.10869180074142669,0.7367054599267254,-0.00841771121869199,-0.5254853034004988,0.002515422052344311,0.8507573159837198,0.005882768628772151,-0.877901540874719,1.038744339527444,0.03183963306789094,-0.8683925763093465,0.8976807721169133,0.011535559357123935,0.6548090266705278,1.0604953382254778,0.004105471652147842,0.7335411949097375,0.9578894856892856,0.0,0.0,0.0,0.0
0.022816094441887775,-0.11110757218889988,0.7373689460651384,-0.008152848809229877,-0.5254781289578422,0.00221552336612143,0.8507651606051305,0.012958221420030837,-0.8782692838657353,1.045799022336468,0.026567521415652644,-0.8747710162373694,0.8975096955716555,0.005528695550073298,0.6564140353498472,1.0714058448373018,0.020040604658045497,0.7440302049962161,0.9570540523656703,0.0,0.0,0.0,0.0
0.024390351533312822,-0.11332892345673438,0.73800916595474,-0.007922975824451096,-0.5254363588020856,0.0019502871534033046,0.8507937797627052,0.01945635045071279,-0.877554029578084,1.0502057137802794,0.021138364426967874,-0.8809435726052638,0.8967069852027552,-0.0004756420494702058,0.6577592040374942,1.081535623185553,0.03542776767219434,0.7532196425242037,0.956146584425614,0.0,0.0,0.0,0.0
0.025615429642109007,-0.11536083344415493,0.7386021128592222,-0.007727527214405269,-0.5253627304688618,0.0017189282773279037,0.8508415434398053,0.025379184276161506,-0.8760781936794722,1.0524621324532057,0.015517813539676802,-0.8864613700097976,0.8953390069538879,-0.006684081351502698,0.6589433059899533,1.09070278866194,0.05009210062830315,0.7610632294754103,0.9554077987812937,0.0,0.0,0.0,0.0
0.0265245347978717,-0.11721923651085074,0.7391182514745349,-0.0075656561234081566,-0.5252564243474306,0.0015203582737773663,0.8509090069096069,0.030763765861315125,-0.8740913346119907,1.052896006706713,0.009760854407359004,-0.8906275237855142,0.8936813873536483,-0.013313569656620367,0.6601035765898682,1.0983411686165343,0.06398090434468125,0.7674630870604019,0.9551665425304016,0.0,0.0,0.0,0.0
0.027130006358081084,-0.11893006805754595,0.739527032406085,-0.007437692444839156,-0.5251126845387291,0.0013538858136851188,0.8509991282374082,0.03567624953559534,-0.8717433371202995,1.051625690249038,0.003966245471116239,-0.8925111856596355,0.8922288154776921,-0.020666912550213065,0.6615143031310046,1.1033066019630882,0.07717025786010474,0.7722683906438549,0.9558086826405313,0.0,0.0,0.0,0.0
0.027430912840483906,-0.12052861628879148,0.7398127131278868,-0.007344054042968205,-0.524926019593701,0.001217276860288012,0.8511153018603136,0.04021275214550197,-0.8690472968246291,1.0485887006833885,-0.0017529598770932974,-0.8912540008266835,0.8915758347174303,-0.0291191391667268,0.6638243495294324,1.1037133770418885,0.08982810123293988,0.7753714530771884,0.9576175023627288,0.0,0.0,0.0,0.0
0.02742816846790889,-0.12205475240869297,0.7399903079585295,-0.007281568770382087,-0.5246909696469557,0.001107770783202546,0.8512609106326164,0.044480446266511486,-0.8658936127380757,1.0436526916471949,-0.007295303425873401,-0.8868798087888176,0.8917389461562876,-0.038637013621486964,0.666991695086939,1.0995455357012112,0.10214492819295512,0.7768237575055682,0.9605805599708533,0.0,0.0,0.0,0.0
0.02712595742060008,-0.12355323549996733,0.7401048470606083,-0.007244544840853764,-0.5244014186148779,0.00102305278339111,0.8514397348537094,0.048595328630708805,-0.8620635310339004,1.0366298099566769,-0.012597245393248017,-0.8803039859746542,0.8921761158912147,-0.04882442024223933,0.6703010657166526,1.0926688261134685,0.11434050834642406,0.7768346299058051,0.9643950475231793,0.0,0.0,0.0,0.0
0.026518761424820847,-0.12507550654444632,0.740213084026891,-0.007230294040461707,-0.5240495104042012,0.000961809127187063,0.8516565671774088,0.05268744696226546,-0.8572442688954407,1.0271975794818002,-0.017660102078969925,-0.8725205629588568,0.8924592932624913,-0.05944740163992947,0.6734254345571683,1.084249937347016,0.12671012785305558,0.7756438360135531,0.9686702433097936,0.0,0.0,0.0,0.0
0.025585918573438404,-0.12667374570983403,0.7403635271444032,-0.007242371839006649,-0.5236227251214117,0.000927775535802559,0.851918968575725,0.05687575285767447,-0.8511102940547438,1.0149200954182658,-0.022568549981817787,-0.8642842202969019,0.8923887961533347,-0.07051107983570727,0.6761880603084421,1.0749529137560847,0.13961321780298672,0.7734058972390467,0.9731029258119029,0.0,0.0,0.0,0.0
0.02430102732799082,-0.12839197349251766,0.7405845457930161,-0.007292345181851402,-0.5231038313748482,0.0009325728753174214,0.8522372519495586,0.061239365194348416,-0.8434272520745825,0.999375235522394,-0.027487500221999212,-0.8560741261775019,0.89198663407195,-0.08232454235096522,0.6784980419502145,1.0651848031980948,0.15342247072407245,0.7701660646614278,0.977541187334884,0.0,0.0,0.0,0.0
0.02265080691959978,-0.13025279425287875,0.7408729256998586,-0.007402642029027639,-0.5224709575648154,0.0010000576117855315,0.8526243600068368,0.0657769712056236,-0.8342124689390652,0.9803893450221752,-0.03263661056333354,-0.8481522402616516,0.8914684469347338,-0.09567204818109441,0.6804259220087404,1.0553045176664335,0.16847192685150159,0.765877231132221,0.9820163818327998,0.0,0.0,0.0,0.0
0.02066346909581631,-0.13223614776118445,0.7411782251221228,-0.007612026259647842,-0.5216965258375911,0.001174126308743382,0.8530963681862802,0.07034302846994103,-0.8240019356703451,0.9584373864945995,-0.03821724873618436,-0.8406291241572591,0.8912267144922342,-0.11220427791784798,0.6824222419374203,1.0458241545247071,0.18501558023614317,0.7604375345599411,0.9867842487327948,0.0,0.0,0.0,0.0
0.01845084584880567,-0.13424474473234793,0.7413803997722063,-0.007986981856806396,-0.5207393526761243,0.0015348986960987113,0.8536769756654228,0.07453984449249362,-0.8143354491510727,0.9353608268953146,-0.04428610113463473,-0.8335110140394654,0.8917483972065618,-0.13524788411713792,0.6857755584315228,1.0375797023551279,0.20323275520083445,0.7537484192287596,0.9923823470788953,0.0,0.0,0.0,0.0
0.016268792044497184,-0.13604291724490677,0.741260149499337,-0.008658030514183755,-0.5194459303021388,0.0022813016098267554,0.8544564117982415,0.07740128201398877,-0.8091653064537261,0.9161224147603861,-0.05098447854230381,-0.8265199335899057,0.892518204451666,-0.17106124282362084,0.6934205184991177,1.031003948260874,0.22362316303406587,0.7456921967438063,0.9995567795713913,0.0,0.0,0.0,0.0
0.014391057096140525,-0.13754204997038882,0.7407044670546559,-0.009690541694866826,-0.5177778844851347,0.00346564241038933,0.8554531811048702,0.07867877661636664,-0.8110001151695712,0.9045928489934036,-0.05940024303389882,-0.8214338547376111,0.8943664562651359,-0.22548156285194795,0.7062228053763671,1.027137081275664,0.24645338980413162,0.7366785226825953,1.0086438619826041,0.0,0.0,0.0,0.0
0.013040674465690018,-0.13861627731507647,0.7395677336854646,-0.010813615953214164,-0.5159575920815418,0.0048492104272755444,0.8565321441963901,0.07850275317168635,-0.8197769553068348,0.9020495752697345,-0.06849866799780249,-0.8213748425992342,0.8974836473564788,-0.284313851687797,0.7187184693509335,1.0266849017539383,0.2675792665445957,0.7263947215031382,1.0206025913159837,0.0,0.0,0.0,0.0
0.013090714788941037,-0.13871582604610866,0.7395492271198059,-0.010787406533259273,-0.5159341574118165,0.004891987089245723,0.8565463475716675,0.07860090220407398,-0.8198103237088219,0.9019833451977016,-0.06852995955743528,-0.8213764076645467,0.8974927705692675,-0.28433233402796465,0.718736702028513,1.0266922006281582,0.26762926239728807,0.726318171513387,1.0205417390292868,0.0,0.0,0.0,0.0
0.013090714788941037,-0.13871582604610866,0.7395492271198059,-0.010787406533259273,-0.5159341574118165,0.004891987089245723,0.8565463475716675,0.07860090220407398,-0.8198103237088219,0.9019833451977016,-0.06852995955743528,-0.8213764076645467,0.8974927705692675,-0.28433233402796465,0.718736702028513,1.0266922006281582,0.26762926239728807,0.726318171513387,1.0205417390292868,0.0,0.0,0.0,0.0
0.01410160833464482,-0.13933182324634313,0.7396290747522591,-0.010358766827273762,-0.5177125923964678,0.004052924941158921,0.8554822858618221,0.08205435056037211,-0.8103671654627819,0.8972984667148656,-0.0647666456024156,-0.8199006523348393,0.9018571760794354,-0.29806606281322956,0.7319948268861004,1.027737062655643,0.27028604685330515,0.7347064294928425,1.0233820312405677,0.0,0.0,0.0,0.0
0.015706447677948557,-0.140611453746209,0.739554428231236,-0.00978511550970622,-0.5197317773666214,0.0028027987641211886,0.8542688543010813,0.08824004250768691,-0.800161794433606,0.8935247242274142,-0.05839168306829528,-0.8232205510372667,0.9143850019746768,-0.31508463145984644,0.7491481053586834,1.028543050813476,0.2768479000814644,0.7451867436883989,1.0289506866217235,0.0,0.0,0.0,0.0
0.017396587186880256,-0.1431359496313995,0.740529892466737,-0.011265422522816829,-0.5194891573555298,0.005336779194918081,0.8543861096911914,0.07676529374405222,-0.8068408069813933,0.8909718223315504,-0.05802792589047891,-0.8298207272416542,0.9357611358195979,-0.2596719493254229,0.7459673043898425,1.009867308192841,0.21596144045732368,0.7207563727028774,1.0316668074558895,0.0,0.0,0.0,0.0
0.019291332522987658,-0.14561433214053676,0.7409694646557553,-0.012252451205339174,-0.5200657794789607,0.006800963910613405,0.8540112466146382,0.06560574371438799,-0.8141243766947074,0.8894518842737673,-0.05507869660181159,-0.836564774766899,0.9565304694955847,-0.22396709626225642,0.7487609522195944,0.9972697046739853,0.15984923549152746,0.7029836272929978,1.0359435558616266,0.0,0.0,0.0,0.0
0.021270611731940378,-0.14792846448712582,0.7409836772206894,-0.012593395935904791,-0.521062309134085,0.007150828964309715,0.8533957710369673,0.056778362110350165,-0.8219081141352685,0.8902478136364957,-0.049909545675368254,-0.844951913940926,0.9775698138978229,-0.20503361701262995,0.7556149918185607,0.9900670188681973,0.12071188810109287,0.6937799881516332,1.0424014967270165,0.0,0.0,0.0,0.0
0.023056518792862895,-0.15006103205650437,0.7407921227943821,-0.012661016769362682,-0.5220273664551132,0.0071093335901309136,0.8528051270379471,0.0498045469940473,-0.8302890249407854,0.8917997800455671,-0.044299611998742834,-0.8536465021342035,0.9969555801737293,-0.19170575179420443,0.7622370133220925,0.9854939920812542,0.09423794233919566,0.6885981116943197,1.0504949292538865,0.0,0.0,0.0,0.0
0.024519560385734725,-0.15202603296039396,0.7405606604055492,-0.012652083227050132,-0.522816327476133,0.006999188874618074,0.8523227228400532,0.044056719325822315,-0.8388653666272032,0.8931828544160885,-0.03894844110330096,-0.8615942863023449,1.013593671383928,-0.17934456906240032,0.7672307822169064,0.9817203922947142,0.07528195979271773,0.6848028216608275,1.0593791273076683,0.0,0.0,0.0,0.0
0.025624206740501965,-0.15384893796347945,0.7403754395840412,-0.012643307071293422,-0.5234140567361756,0.0069310514589796925,0.8519564733734661,0.03892088099589238,-0.8474479329281512,0.8940381843748638,-0.0340387547755369,-0.8683016321881762,1.027172066553895,-0.1663255959768795,0.770352276813803,0.9778863083365028,0.0605022852118825,0.6811526877824154,1.0685095314321567,0.0,0.0,0.0,0.0
0.026392799928237693,-0.1555411937042988,0.7402656148706566,-0.012619525332691315,-0.5239101625518108,0.006851669582860747,0.8516524782910222,0.03404991614736706,-0.8558684317365078,0.8944630185104615,-0.029406432081323635,-0.8734929536220718,1.0376549930321743,-0.1536883340499733,0.7723764500468712,0.9739196413321821,0.0476786748029865,0.6773667556159375,1.0776041968015058,0.0,0.0,0.0,0.0
0.026850177878945797,-0.15714793990171508,0.7402226069829606,-0.012582573463746657,-0.5243282181513796,0.006758103122219644,0.8513964567329477,0.029155123481898505,-0.8641067675838378,0.8943358080807715,-0.024936970803890908,-0.8773294442506285,1.0454044947265493,-0.14134093741166984,0.7734415730785669,0.9698210999330059,0.035868289614357514,0.6732779798435776,1.0864431030956174,0.0,0.0,0.0,0.0
0.027016722343566717,-0.15872481704537533,0.7402185155461093,-0.012531480746238883,-0.5246775838280145,0.006649868276926965,0.8511828089609205,0.024091791934744384,-0.8720378241120184,0.8935780265435481,-0.02049642422558278,-0.8800931892699263,1.0508313585771143,-0.12900969023904538,0.773504221861743,0.9657023006035289,0.0246841045102934,0.6688371555120874,1.0947914509591186,0.0,0.0,0.0,0.0
0.026904634605166386,-0.16031925038299327,0.7402140937693106,-0.01244245154615669,-0.524994858233683,0.006485226291766282,0.8509897332328171,0.0188995528825361,-0.8792432895189946,0.8923716678450834,-0.01586988648054326,-0.8819794430771761,1.054165599993221,-0.11708099730223195,0.7727169986778449,0.9618880846938174,0.013844209092394403,0.6641631147054876,1.1023025033380733,0.0,0.0,0.0,0.0
0.02650032878275315,-0.1619934079603592,0.7401648706470036,-0.012310936899909478,-0.5252767591920825,0.006264683779146039,0.8508193232540365,0.01363300635397217,-0.8850657875490071,0.8909276273489758,-0.010908262829506314,-0.8832299499622114,1.0555791260470477,-0.10511294841407634,0.7707721922647798,0.9586334717776657,0.0034988408854569625,0.6593473817814638,1.108310422868696,0.0,0.0,0.0,0.0
0.025765889612520784,-0.16381783580533665,0.7400280330407722,-0.012150774654506435,-0.5254875362448763,0.006027448557764082,0.8506931748817953,0.0083394168060305,-0.8886331173654186,0.889507178418232,-0.00553475996402727,-0.8840730456210771,1.0551395925742122,-0.09205006811089225,0.767015667346762,0.9560815471033064,-0.005787329462272199,0.6545976141383844,1.1116179141045195,0.0,0.0,0.0,0.0
0.024661873151605247,-0.16583812940998216,0.7397736425814933,-0.011955069123375572,-0.5256286023555838,0.005771582033984658,0.8506105675035996,0.003160571676435813,-0.8890591354139542,0.888570819784968,0.00036404848997844113,-0.8845076289069673,1.0526598386986146,-0.07775110730441136,0.761212420055864,0.9544076769600767,-0.013497304097798224,0.6506680649033323,1.1103633217024165,0.0,0.0,0.0,0.0
0.02315991824453434,-0.1680847682116025,0.7393976637548896,-0.011718952084237807,-0.5257096307825952,0.005489635458349938,0.8505656436554495,-0.0017953595995495583,-0.8863479841698767,0.8881442377600995,0.006877406557255754,-0.8844017871460254,1.047892788791726,-0.06229152820926926,0.7533702287416448,0.9535638092820149,-0.01963967452223521,0.6476170973017291,1.1045504379438387,0.0,0.0,0.0,0.0
0.02124261719034148,-0.17058266719598233,0.7389253324818512,-0.01146012221008807,-0.5257183508374597,0.005207665055836138,0.850565553861863,-0.006542477332568477,-0.8814400796889786,0.8876880345876214,0.013999465677449429,-0.8835814928553617,1.0406430732417664,-0.045345830442918914,0.7434901145994748,0.9531234735345293,-0.02460143672987461,0.6447010217946245,1.096009082448885,0.0,0.0,0.0,0.0
0.018900282810152054,-0.17332845341091518,0.7383946976179103,-0.011194473709651586,-0.5256549418999621,0.004943624385944687,0.8506098555697801,-0.011120414297869478,-0.8753317864429643,0.8867744396338942,0.02166722318887618,-0.8817313111147475,1.0305887189987792,-0.02701632692541961,0.7318026246355842,0.9526139022723302,-0.028769516316618816,0.6415992044683899,1.0858648214876188,0.0,0.0,0.0,0.0
0.016128620771581583,-0.17628597018735304,0.7378387298723132,-0.010938117621635154,-0.5255263552958238,0.004711045005150224,0.8506939599687671,-0.01561768103313333,-0.8688023250211183,0.8852238912038849,0.02973803295540916,-0.8784565286565673,1.0172925892349212,-0.007740458252027398,0.7186192321338348,0.9517054289250751,-0.0324865091752462,0.6381710948566174,1.0747123658162745,0.0,0.0,0.0,0.0
0.012939912198254806,-0.17938322273790352,0.7372795457240463,-0.010708762140714015,-0.5253435622845906,0.004521313135791973,0.8508108025331356,-0.020184394242153198,-0.8623619134959857,0.8831154026306874,0.03797837017856798,-0.8733597418060199,1.000310658257785,0.01180916667898426,0.7042905345323127,0.9502712404765878,-0.03614206602700715,0.6343297873701973,1.062827008079385,0.0,0.0,0.0,0.0
0.00938300835976376,-0.1825109202995715,0.7367230296045129,-0.010523775995460845,-0.5251215885758017,0.004381825746583143,0.8509508604811152,-0.024995214208304146,-0.8562486715418685,0.8807726314310544,0.04607065016509591,-0.8661628151143059,0.979388927912477,0.030790697309286734,0.6892065761265467,0.9484471977804131,-0.040303299004861015,0.6300248114422426,1.0503315418097787,0.0,0.0,0.0,0.0
0.005568546066568188,-0.185531305485892,0.7361404486631189,-0.010406399199627525,-0.524860214934561,0.004325867258539036,0.8511138281728279,-0.030213383227938644,-0.8504606358090095,0.8786623800132594,0.053570744837292315,-0.8569927169651624,0.954855567653048,0.04858819954530083,0.673584324237426,0.9467205898630613,-0.04555839196593677,0.6253451633650043,1.0373277305856576,0.0,0.0,0.0,0.0
0.001669984902288926,-0.18830580397978397,0.7354474593280621,-0.010352884025226286,-0.5245742745311882,0.004308898751880221,0.8512908326089174,-0.03649087585389685,-0.8447085887202354,0.8771548875577345,0.060258221043700315,-0.8465661772236432,0.9277931817166782,0.06414125257214645,0.6577010926349973,0.9462491176446232,-0.05366565919370827,0.620644320748193,1.0236762803385946,0.0,0.0,0.0,0.0
-0.0018076017565054844,-0.19072891338472328,0.7345323397564236,-0.010333790940316069,-0.5242335519005247,0.004306364063838045,0.8515009401375382,-0.04328488543204325,-0.8384204302988215,0.8758507478353038,0.0659996322638885,-0.8378412794770758,0.9031354101817073,0.07696710807391433,0.6423217822240666,0.9480582963777289,-0.0665098143375407,0.6165409606407029,1.0094325235738455,0.0,0.0,0.0,0.0
-0.004597267165964912,-0.19252314711393417,0.7334394855594009,-0.010324585560588824,-0.5239387294563045,0.0042798977916677005,0.8516826246810536,-0.05015806387972129,-0.832906426016326,0.8755956027627173,0.07025022262732512,-0.8312584501014015,0.8825825588505796,0.08566671064135906,0.6285400772063118,0.9530093112117397,-0.08659477686858297,0.6121460951164064,0.9946822465118662,0.0,0.0,0.0,0.0
-0.0062991628379182,-0.19347371680208883,0.7323767716414034,-0.010301155346047893,-0.5237470725925278,0.004234057939693894,0.8518010113299099,-0.0552786764927383,-0.829956023221531,0.87620730072258,0.07253064249726755,-0.8279299716038293,0.8696004777627967,0.0896012905342774,0.6183767441240869,0.9600317583732438,-0.11084809285559467,0.6077830387024494,0.9810075701575401,0.0,0.0,0.0,0.0
-0.006315424649212339,-0.19359603262934313,0.7323107076673708,-0.010216537173213648,-0.5237550975116937,0.004252084888547549,0.8517970063182925,-0.05528690492021588,-0.8299833585110479,0.876214274906817,0.0727076328663407,-0.8280055334890762,0.8694173155671603,0.08961843407506877,0.6182913828636029,0.9599494265929415,-0.11086641582224592,0.6078144217454527,0.9810153267021812,0.0,0.0,0.0,0.0
-0.006315424649212393,-0.1935960326293432,0.7323107076673708,-0.010216537173213573,-0.5237550975116932,0.004252084888547819,0.8517970063182927,-0.055286904920216554,-0.8299833585110489,0.8762142749068175,0.07270763286634008,-0.8280055334890769,0.8694173155671607,0.08961843407507411,0.6182913828636009,0.9599494265929411,-0.11086641582224249,0.607814421745454,0.9810153267021786,0.0,0.0,0.0,0.0
-0.006315424649212393,-0.1935960326293432,0.7323107076673708,-0.010216537173213573,-0.5237550975116932,0.004252084888547819,0.8517970063182927,-0.055286904920216554,-0.8299833585110489,0.8762142749068175,0.07270763286634008,-0.8280055334890769,0.8694173155671607,0.08961843407507411,0.6182913828636009,0.9599494265929411,-0.11086641582224249,0.607814421745454,0.9810153267021786,0.0,0.0,0.0,0.0
-0.004634528367546978,-0.19487382515179683,0.7327391715750475,-0.010141780137882812,-0.5242906039775529,0.004344486424570149,0.8514679279422064,-0.05241849051539332,-0.8320485374100588,0.8858871175408737,0.07582235337129381,-0.8351663685963057,0.8871909546131389,0.09819205728331568,0.6259651981363719,0.9510401750832316,-0.10463354955816276,0.6157220364492604,0.9823106573911067,0.0,0.0,0.0,0.0
-0.0013426138890049433,-0.1974185267137779,0.7346705269828855,-0.009683454379899937,-0.5252684142377803,0.0037067583244355566,0.8508734239933248,-0.04448580175537056,-0.8313985947654868,0.9023153398834368,0.08414504833313854,-0.8474826299112472,0.9216670449711682,0.10940853361310869,0.6486359637430495,0.9237632635401121,-0.09739644046648374,0.6345789551911177,0.9735581737128228,0.0,0.0,0.0,0.0
0.0019428020956812927,-0.19995858276960854,0.7364352027500859,-0.009784277636701514,-0.5251101776002988,0.00403732040810866,0.8509684302814252,-0.039038674183243346,-0.8393353181127873,0.9257528493025522,0.07572339930150782,-0.8419225140816831,0.9081286074109443,0.08374171248731523,0.643152844566271,0.9580844251556612,-0.07989057056254076,0.6536968948356137,0.964518259770447,0.0,0.0,0.0,0.0
0.005771501455909045,-0.20271986365046035,0.7375151876061896,-0.009725231937112071,-0.5250828273747896,0.004014639121334426,0.850986090916057,-0.03216900342533872,-0.8497225679097071,0.9525393223730072,0.06550807206439563,-0.8415987058584696,0.899795265951148,0.0585402822647659,0.6436809865898891,0.9849863515213626,-0.06351718069085081,0.670622221432044,0.9612734488617732,0.0,0.0,0.0,0.0
0.009678444105533375,-0.2055573766455484,0.7382393672620957,-0.00950808343942726,-0.5251371813357439,0.0037605354685894205,0.8509561654404111,-0.024480905432756352,-0.8597098050560581,0.9782276974075327,0.05593169225459392,-0.8441243090448681,0.8957876724476728,0.04028412212642746,0.6463595438035885,1.005833673427226,-0.04812296414592995,0.6859754934365111,0.960799013551477,0.0,0.0,0.0,0.0
0.013363230444225235,-0.2083930123901585,0.7388749709770902,-0.009205532175724888,-0.5252403822477895,0.003405721393686262,0.8508972911552524,-0.01644777595174091,-0.8676755469861975,1.0004117474652268,0.04786443524583438,-0.8484114578618702,0.8946104918985004,0.027709277058680815,0.6492763820082228,1.0228761209662514,-0.032881413675708564,0.7005563270885498,0.9608109520041898,0.0,0.0,0.0,0.0
0.016647610625853442,-0.21116476690809993,0.7395098529126373,-0.00887802821502105,-0.525334657111378,0.0030276870026816074,0.8508439996639208,-0.008420104154554622,-0.8733379126274672,1.0183376572086804,0.04117920387409353,-0.8537656881280463,0.8947308805652499,0.01856142914101286,0.6518798420490018,1.0374035472412633,-0.01734170828759066,0.7143090855539612,0.9605659465410047,0.0,0.0,0.0,0.0
0.019459237421875764,-0.21382362607082145,0.740161412146043,-0.00856001212226459,-0.5253935786575813,0.0026631240906648253,0.8508120952759923,-0.0006366511375959175,-0.8768600380870317,1.0320446219188164,0.03537204556255821,-0.8597377269677412,0.8951768071452767,0.011208884076291918,0.6540651766002719,1.0502509955451407,-0.0014956622553681624,0.7270232636966869,0.9599516961893578,0.0,0.0,0.0,0.0
0.02179522727778701,-0.21633343504227526,0.7408240603043533,-0.008268202896087241,-0.5254108852558501,0.002327721431264246,0.8508052774803829,0.006742670342678005,-0.8785697449345753,1.041963064574168,0.02994792108720138,-0.8660216170479959,0.8953894062873796,0.004700108112971673,0.6558515188853266,1.0619462045355912,0.014423727014145245,0.7385491921157006,0.9590351300043073,0.0,0.0,0.0,0.0
0.023691501204143345,-0.21867220201627294,0.7414844970464389,-0.008009164848820322,-0.5253893052785605,0.0020267092684498047,0.8508218518743376,0.01362299619142393,-0.8788405414526944,1.0486783216650515,0.024565956221655805,-0.8723707793037272,0.8950760115505156,-0.0014839724123735121,0.6572994385002114,1.0727839558789554,0.030109706862060357,0.7488201807900015,0.9579306214013175,0.0,0.0,0.0,0.0
0.025199193879549102,-0.22083192010870584,0.7421245758546062,-0.007784132357942016,-0.5253335698454291,0.0017604954015119241,0.8508589473777853,0.019963760057445233,-0.8780343726456541,1.052780870639169,0.019056375628496016,-0.8785001711491267,0.8941340515884374,-0.007636426384131391,0.6584913543164432,1.0828415311586674,0.04529214450391941,0.7578112233739098,0.9567946712702912,0.0,0.0,0.0,0.0
0.02636682165143107,-0.22281714838501282,0.7427205594985804,-0.007592032131372803,-0.5252464881267968,0.0015276149962007515,0.8509148924252098,0.025768253518748105,-0.876468114156324,1.054763703482322,0.013386012030990303,-0.8839709216743498,0.8926381610784508,-0.013962951794351832,0.6595273395449307,1.0919317967582347,0.059797255141652274,0.7654840557286363,0.9558553076870522,0.0,0.0,0.0,0.0
0.027227456690683847,-0.22464348160633568,0.743243074527758,-0.00743167405614153,-0.5251270086521,0.001326427136875151,0.8509903851371478,0.031074445677092756,-0.8743867681510245,1.0549483965789854,0.007610670644078093,-0.888092790322213,0.890866825241082,-0.02068263785544995,0.6605453757068719,1.0994846434000298,0.07357510531729712,0.7717445691902186,0.9554323230503132,0.0,0.0,0.0,0.0
0.027792886209670974,-0.22633673543019003,0.74366179743557,-0.007303179503066431,-0.5249699095187275,0.0011558248939911235,0.8510886685521429,0.03594949420891151,-0.8719360864936868,1.0534460864399506,0.0018296427437286007,-0.8899392488700825,0.889314019241418,-0.028099661891857593,0.661819430115256,1.1043524210941997,0.08670604306288285,0.7764430447196685,0.9559045847320391,0.0,0.0,0.0,0.0
0.028061422496607303,-0.22793241678395698,0.7439612971717097,-0.0072067750561574965,-0.5247691088772615,0.0010131619504127392,0.8512134974636604,0.04049123436496651,-0.8691245771392823,1.050185780508273,-0.003844096394309206,-0.8886547495262135,0.8885715776943709,-0.03658780997248444,0.663997073681567,1.1046464796870248,0.09936221183494279,0.7794708845749487,0.9575497627767733,0.0,0.0,0.0,0.0
0.028033118752667847,-0.2294712270655784,0.7441570864003615,-0.007139175658003378,-0.5245185109493304,0.0008953636999802759,0.8513686405818962,0.04480976262992543,-0.8658363803921328,1.04502402933527,-0.009310704295002775,-0.8842643023663476,0.8886543402635865,-0.046117308219802436,0.6670360792405747,1.1003510209148375,0.11174175503074951,0.7808785887745361,0.9603506023818184,0.0,0.0,0.0,0.0
0.02771121353885786,-0.23099925464914883,0.7442948443056853,-0.007094683530239672,-0.5242112316850887,0.0007999264644998202,0.8515583421929818,0.04902483515473573,-0.8618455700713912,1.0377598962650532,-0.014510692502181777,-0.8776828412672397,0.8890193320556201,-0.056300398069670125,0.6702206829147375,1.0933343477467028,0.1240751768712159,0.7808743706532889,0.9639994688910969,0.0,0.0,0.0,0.0
0.0270891847855378,-0.23256924247598976,0.7444319045295147,-0.00707070233699916,-0.5238384615523284,0.0007254759381937839,0.851787969539142,0.05326968391472284,-0.8568335048386367,1.0280582458754337,-0.019452439136515804,-0.8699022775221492,0.8892347908554714,-0.06690918624606391,0.6732201097952868,1.0847654738248254,0.13666625650739633,0.7796950032045556,0.9681006538411026,0.0,0.0,0.0,0.0
0.026145345205325594,-0.23423410171678472,0.7446171035334737,-0.007071092716056229,-0.52338652574268,0.0006760034536762703,0.8520657764152592,0.057664012929004464,-0.8504725369254114,1.015473562196673,-0.024230203498889935,-0.8616722846417528,0.8890922242583291,-0.07795544218822364,0.6758515592231236,1.0753110942510322,0.14987711251240193,0.7774891992342671,0.9723457249818916,0.0,0.0,0.0,0.0
0.024852381623612693,-0.2360371624818973,0.7448785410287502,-0.007107984699503252,-0.5228368503824831,0.0006638267463497036,0.8524028764438136,0.062282811689443364,-0.8425337492089877,0.999581917184072,-0.029017984290286698,-0.8534616405973414,0.8885966705035265,-0.08975989411328575,0.6780185549297496,1.065383360607645,0.16407067844370213,0.7742918892523537,0.9765776616049199,0.0,0.0,0.0,0.0
0.023196457272198913,-0.23799759666349626,0.7452115982685361,-0.0072046561247774915,-0.5221659268384051,0.0007140730734117781,0.8528131846299979,0.06711233720947293,-0.8330546733637317,0.9802251333652706,-0.03403675693171633,-0.8455122875099488,0.8879328811529245,-0.10313066761745715,0.679792033881374,1.0553523109576761,0.17954937951532568,0.7700384388732041,0.9808234943193614,0.0,0.0,0.0,0.0
0.021205956865118104,-0.24008722396880655,0.7455624801326258,-0.007401186816062097,-0.5213436313653941,0.0008728260121500675,0.8533142906591981,0.07198142072025646,-0.8226213194759618,0.9579303694893453,-0.03946975295677126,-0.8378985213291861,0.8874347262910558,-0.1197751655175553,0.6816412168707371,1.0457502455869216,0.1965042199889838,0.7645980633686558,0.9853369639662714,0.0,0.0,0.0,0.0
0.018994160737397275,-0.24219303149779386,0.7458046020043657,-0.0077674108888198925,-0.5203204288829333,0.0012272414280565652,0.853934899447049,0.07643889698165149,-0.8129084794223347,0.9346884209777043,-0.0453421300146468,-0.8305538555600984,0.8874388364706248,-0.14315692888591613,0.6849172919483847,1.0374077935760857,0.2150394981231864,0.7578242111872698,0.9906548535974102,0.0,0.0,0.0,0.0
0.01681038326233802,-0.24407072834566348,0.7457152869657572,-0.008436226241322219,-0.5189340196176432,0.0019806460054975147,0.8547703729140836,0.07949291519124961,-0.8079457832687368,0.9155259545157273,-0.0518316451848968,-0.8231659083818718,0.8872487457791718,-0.1797457717948156,0.6925288137474518,1.0307584595671382,0.2355980922440722,0.7495296181732266,0.9975276793648147,0.0,0.0,0.0,0.0
0.014917876134649366,-0.2456295224327857,0.7451711102143725,-0.009467785341184299,-0.5171407508676683,0.0031764080068186745,0.8558421088407204,0.0809135740659244,-0.8102483025470639,0.9042729562538173,-0.06020476975920028,-0.8174931020960597,0.8874450563716227,-0.23540147455244914,0.7051685488569007,1.026868599476802,0.2582759837604659,0.7399809105613857,1.0063764479006219,0.0,0.0,0.0,0.0
0.013525070957877467,-0.2467320030241402,0.7439849857295967,-0.010569832257986427,-0.5151716945314494,0.004556243423622482,0.8570097108233358,0.0808365206599828,-0.8197261475214759,0.9020729378554287,-0.06957015625303067,-0.8165142824814592,0.8877918160651607,-0.2950140874116824,0.7170655097331825,1.0264886981943167,0.27855380706521704,0.7285837208344045,1.0185415049656763,0.0,0.0,0.0,0.0
0.01358064272690748,-0.24684423774961833,0.7439658814601283,-0.010535289015453373,-0.5151441459855198,0.004602760001276139,0.8570264471663526,0.0809521565542738,-0.8197623684957661,0.9020046733683783,-0.0696029372329956,-0.8165150059126681,0.8878004817395977,-0.29503380427004106,0.7170832053489786,1.0264959938756277,0.2786056795756797,0.7285067218109464,1.0184777156604912,0.0,0.0,0.0,0.0
0.01358064272690748,-0.24684423774961833,0.7439658814601283,-0.010535289015453373,-0.5151441459855198,0.004602760001276139,0.8570264471663526,0.0809521565542738,-0.8197623684957661,0.9020046733683783,-0.0696029372329956,-0.8165150059126681,0.8878004817395977,-0.29503380427004106,0.7170832053489786,1.0264959938756277,0.2786056795756797,0.7285067218109464,1.0184777156604912,0.0,0.0,0.0,0.0
0.014579139793140754,-0.2475643247999219,0.7440581243823575,-0.01018602927829588,-0.5168177974845939,0.00392309407068507,0.8560258280820897,0.08429352073354147,-0.8109317384772123,0.8976021143523689,-0.06598049227310519,-0.8154484668013116,0.8927896553782986,-0.30578806493744765,0.7292970446738449,1.026957937365693,0.2839864833013147,0.7372587118579763,1.021388290646723,0.0,0.0,0.0,0.0
0.016157692815577374,-0.2489608322603968,0.7439334797196021,-0.009707004581364352,-0.518704960797435,0.0028787242528403975,0.8548933563040859,0.09029889536912122,-0.8016878231737384,0.8942394755318631,-0.05984142765307669,-0.819430229512071,0.9060945309733752,-0.3187132266455195,0.744645193049889,1.027714461684905,0.29426724048164704,0.747978650573851,1.0276348376626638,0.0,0.0,0.0,0.0
0.017997048332809275,-0.25140190115074923,0.7448868113070903,-0.011053915007734762,-0.5190319627243261,0.005057408156004754,0.8546683890587502,0.07942882048392516,-0.8068321467274303,0.8924608340837163,-0.058743068718889555,-0.8242465485253746,0.9262377288573642,-0.27220653771338854,0.7460427677437925,1.0107476514019518,0.22877823109145096,0.7248456172328838,1.0311232173740024,0.0,0.0,0.0,0.0
0.01999280906589104,-0.2539056048815402,0.7452879712348378,-0.01205061122328289,-0.5198001651892283,0.006504808257592607,0.8541781187246184,0.06834926525508726,-0.8138066434296312,0.8909812540405422,-0.05567048587528513,-0.8306854989144553,0.9472777280378514,-0.23675663964942112,0.7497057630777573,0.9989603086041297,0.16961272202528743,0.7068117324586576,1.0356879610494099,0.0,0.0,0.0,0.0
0.022045257039404624,-0.2563227323630746,0.7452848748096922,-0.012466949302365972,-0.520793858778017,0.006987994715484708,0.8535628270748742,0.059429519527434055,-0.8215434183459693,0.8912944631216236,-0.05057337574116405,-0.8394908696703156,0.9693540961328317,-0.21498180605555495,0.7560278733390633,0.9916158567661475,0.12923497895126207,0.6970208510125075,1.0421769499401972,0.0,0.0,0.0,0.0
0.023894187540195812,-0.25856265815843144,0.745086526759073,-0.012595055290759329,-0.5217404546365538,0.007058886408001327,0.8529820834581133,0.052428635859357475,-0.8298478430506164,0.8924818114372323,-0.04497467340258997,-0.8486469505030997,0.9897482933962298,-0.19915154221680378,0.7621685690425457,0.9867013826875937,0.1022324912139964,0.6914899114967894,1.050315593370009,0.0,0.0,0.0,0.0
0.025415186790600817,-0.26061013164638425,0.7448451020211906,-0.01261426614323996,-0.5225377847370758,0.007002251642622932,0.8524940541045845,0.04673862111909912,-0.8383472922653645,0.8937423662574431,-0.03955293345919464,-0.8569515293126495,1.0071727149545822,-0.18539279138565185,0.7670140838508445,0.9827400995402387,0.08302069946124999,0.687646538850804,1.059302620600715,0.0,0.0,0.0,0.0
0.026575825707252122,-0.26248232011622363,0.7446447879384889,-0.012601195477333826,-0.5231820598841469,0.0069246240408731615,0.8520996371726814,0.0417395620179739,-0.8468450535653949,0.8947042937505277,-0.0345016760242183,-0.8638636879039614,1.0212811742356573,-0.17223371765234713,0.7704043931220022,0.9789573162397418,0.06799856992912041,0.6842009386012456,1.068586008064303,0.0,0.0,0.0,0.0
0.027389951956261954,-0.2642125596449648,0.7445165251315468,-0.012576778875891426,-0.5237058642086205,0.006844697035375807,0.8517788108124683,0.0369705759729272,-0.8552605459225886,0.8951991875142143,-0.029779521399283478,-0.8692668438152286,1.032219312852691,-0.1593829788822756,0.7725590937194223,0.9750679276228293,0.055125755413647004,0.6806242417360501,1.0778345595066436,0.0,0.0,0.0,0.0
0.0278866021215152,-0.2658449212976354,0.7444558461153519,-0.012538581220825159,-0.5241456729028552,0.006749354637431669,0.8515095676327777,0.03216197120112803,-0.8635211635792279,0.8951478376864215,-0.02524865263503304,-0.8732830862974044,1.0403380089468346,-0.1469170786927211,0.7737328186593901,0.9710688865303865,0.043322815081325426,0.6767537305375926,1.086827700190508,0.0,0.0,0.0,0.0
0.028090116094794802,-0.2674332265648335,0.7444369572338887,-0.012479677117408876,-0.5245242227755619,0.006625472955073695,0.8512782744137546,0.027192288184522007,-0.8714614127392059,0.8945224963646651,-0.020748671684702333,-0.876159795175631,1.0460343577887548,-0.13477186646797595,0.7740054173624162,0.9670901608133291,0.03210139105248119,0.6725614985123227,1.0953359042691264,0.0,0.0,0.0,0.0
0.028009833911276767,-0.2690368153481132,0.744422088547339,-0.012392194687624295,-0.5248531547893163,0.006463402240650124,0.8510780362869209,0.022049834292202045,-0.8787002349428112,0.8933950340736093,-0.016113257239241122,-0.8781671697071376,1.0496282332646094,-0.12273218951143786,0.7732840485490091,0.9633431931298952,0.02131957786025687,0.6680813644033626,1.1029938942262052,0.0,0.0,0.0,0.0
0.027634104359743044,-0.2707176697601574,0.744366764321787,-0.01227027384908009,-0.5251331429694346,0.006260867596524201,0.8509085873768407,0.016791073082823894,-0.8845685551327969,0.8919808701277382,-0.01118673572167568,-0.879542255348739,1.051296010092607,-0.11042305712057685,0.7712984770129175,0.960088884382218,0.011104408624422506,0.6634103449517164,1.1091361586860216,0.0,0.0,0.0,0.0
0.026930283351648984,-0.2725362135755387,0.7442254425881842,-0.012112714282746462,-0.5253535344915159,0.006026915786634716,0.8507764819481536,0.01150615838406998,-0.8881602169132062,0.8906447767640102,-0.005844940922424967,-0.880454470861734,1.0510469593882903,-0.09732910330876289,0.7676263315135593,0.9575906117995729,0.0018673071365394485,0.6588210014440852,1.1125798076577973,0.0,0.0,0.0,0.0
0.02585897133018112,-0.2745397351207384,0.743966666523661,-0.0119152966718106,-0.5255107841139175,0.005765317720866834,0.8506839616430862,0.006321157562690279,-0.8886081730014671,0.8898274397336182,1.527402528654284e-05,-0.8809260211393699,1.0487184417687037,-0.08318325913106135,0.7619735853841562,0.956024216491452,-0.005849717120567257,0.6550454499508072,1.1114566335174296,0.0,0.0,0.0,0.0
0.02439028027118631,-0.2767646580278166,0.7435875499787369,-0.011680217296260502,-0.5256026176739635,0.005483328086737332,0.8506323494502679,0.0013223673855121687,-0.885929935633274,0.88949793822354,0.0064627059450995785,-0.8808625082934161,1.0441066484164312,-0.06778888480678696,0.7542357221895393,0.9552837933696041,-0.011989192747602736,0.6521048032876923,1.1057595836690879,0.0,0.0,0.0,0.0
0.022507729572797203,-0.27923479058788087,0.7431133444877467,-0.011420576417606484,-0.5256232785701705,0.005198509158933252,0.8506248967447162,-0.0034827017055623225,-0.8810509452321876,0.8891483048813316,0.013509662515708027,-0.880076724413938,1.0370041863895383,-0.050948850005136645,0.7444734037749677,0.9549665512942027,-0.016985104019278642,0.6492750270466825,1.0973250314426792,0.0,0.0,0.0,0.0
0.020201247441982442,-0.28194804920747296,0.7425816354715941,-0.011151155161914571,-0.5255731401478859,0.0049276878289231186,0.8506610629306517,-0.008127420581721544,-0.8749718809889062,0.888358318711174,0.021099407969001012,-0.8782587850673038,1.0270930083477723,-0.03276082768153371,0.7329128652865141,0.9546065493605378,-0.02121875443440957,0.6462450953315995,1.087282689375281,0.0,0.0,0.0,0.0
0.017465448763276933,-0.2848712814511893,0.7420258491839824,-0.01088837356215794,-0.5254568822009339,0.004686157308744443,0.8507376494540032,-0.012696415281520448,-0.8684779723084817,0.8869446420276118,0.029093242404827142,-0.8750243566702534,1.013945589359182,-0.013612984821888444,0.7198448470446714,0.9538596537382785,-0.025014638227250686,0.642876898446644,1.0762292754125324,0.0,0.0,0.0,0.0
0.014311106302768646,-0.2879356933342339,0.7414689553385813,-0.010650110316715616,-0.5252836537775509,0.004486634418608803,0.8508487106036781,-0.017334446232235214,-0.8620872466635553,0.8849871880261971,0.03726328959598116,-0.8699817820532288,0.9971218665052831,0.005852007912393934,0.7056084967603351,0.9525790935585371,-0.028742140696425136,0.6390871460896248,1.064443599876052,0.0,0.0,0.0,0.0
0.010784953095840728,-0.29103447272272953,0.7409176516630206,-0.010453736071475202,-0.5250676971974153,0.004337053067585518,0.8509852071173977,-0.022213157529310502,-0.8560525491163795,0.8828204565570029,0.045297544997257064,-0.8628492795836692,0.976358949764201,0.024795220047793724,0.6905925866331818,0.9508831360778703,-0.03293527829398767,0.6348322490140472,1.0520556091353457,0.0,0.0,0.0,0.0
0.006994971736802913,-0.294030219853214,0.7403444565488466,-0.010321038604008223,-0.5248118804777646,0.004266496484786821,0.8511449719520596,-0.027489296136330436,-0.850385716908512,0.8809450236099133,0.05276340790638654,-0.8537263605508737,0.951947838404694,0.04254425244450752,0.6750432699718255,0.9492538197405563,-0.03815465394629601,0.630207846708965,1.0391822814960356,0.0,0.0,0.0,0.0
0.003114032496985715,-0.29678181855098434,0.7396655009573967,-0.010250966217296752,-0.5245314513444518,0.004238645256333338,0.8513188052242743,-0.03376272546085549,-0.8448213209533953,0.8797988613171115,0.05941186555731982,-0.8433004882872809,0.9249425039630897,0.058070604121827935,0.6592276697956829,0.9488369691717988,-0.045965610393513504,0.6255858381311834,1.0257434802305152,0.0,0.0,0.0,0.0
-0.0003518968185283948,-0.29919049434454514,0.7387641909839229,-0.010215502522078772,-0.52419759005814,0.0042246580942784375,0.8515249158711953,-0.0405363110020621,-0.838725983241436,0.878968197241294,0.06513785108088702,-0.8345596534124016,0.9003125535847578,0.07088802236282452,0.6439144679537511,0.9506744148342822,-0.058071225927328135,0.6217056262165069,1.0118288342425812,0.0,0.0,0.0,0.0
-0.0031355454336256896,-0.30097825821261537,0.7376877017330201,-0.010194147098693453,-0.5239133162347673,0.004190474820501055,0.8517002737803937,-0.04741108744456204,-0.8334453727681987,0.8794136777470416,0.06938504102800917,-0.8279079241524512,0.8797295696347845,0.07961362222658891,0.6302182343430298,0.955586446767317,-0.07680812230274536,0.6177092137322591,0.997600980781456,0.0,0.0,0.0,0.0
-0.004834227733260761,-0.3019278912021196,0.7366440288414857,-0.010169019886969754,-0.5237345180482741,0.004144009862526534,0.8518107611562206,-0.0525939405634361,-0.8308185898168238,0.8809984889901143,0.07166227528065433,-0.8244621002357695,0.866676846423266,0.08362497733411649,0.6201597912478441,0.9624900874977853,-0.09939224852423581,0.6138131036798588,0.9846088205945643,0.0,0.0,0.0,0.0
-0.004850870491609125,-0.30205067229462834,0.7365786304447968,-0.01008363054781572,-0.523742576465271,0.004161804810377848,0.851806734754554,-0.05260186205697496,-0.8308461109754534,0.8810057997854179,0.07184007536308977,-0.8245372495085852,0.8664941892444329,0.08364176015648384,0.6200746736331041,0.9624084244719888,-0.09940953996470897,0.6138450094671457,0.9846168401734939,0.0,0.0,0.0,0.0
-0.004850870491609057,-0.30205067229462834,0.7365786304447968,-0.01008363054781566,-0.5237425764652712,0.004161804810377864,0.8518067347545539,-0.05260186205697504,-0.8308461109754525,0.8810057997854172,0.07184007536308967,-0.8245372495085843,0.8664941892444321,0.08364176015648479,0.6200746736331044,0.9624084244719894,-0.0994095399647088,0.6138450094671466,0.9846168401734934,0.0,0.0,0.0,0.0
-0.004850870491609057,-0.30205067229462834,0.7365786304447968,-0.01008363054781566,-0.5237425764652712,0.004161804810377864,0.8518067347545539,-0.05260186205697504,-0.8308461109754525,0.8810057997854172,0.07184007536308967,-0.8245372495085843,0.8664941892444321,0.08364176015648479,0.6200746736331044,0.9624084244719894,-0.0994095399647088,0.6138450094671466,0.9846168401734934,0.0,0.0,0.0,0.0
-0.003192067806137449,-0.30327985327450757,0.7370025663618748,-0.010014592606986561,-0.5242735463083081,0.00425352079629589,0.8514803956269703,-0.04984353504084072,-0.8328681969230807,0.8905368122049628,0.07482734927037908,-0.8315264815233542,0.8839513712019311,0.09194012609031543,0.6276600228392892,0.953750225573245,-0.09314704250272675,0.6218198343360802,0.985627397573107,0.0,0.0,0.0,0.0
4.9125801274308746e-05,-0.3057232142104686,0.7388855274039667,-0.009554278685547389,-0.5252462865319328,0.003609837967525269,0.8508889606247467,-0.04214763042873329,-0.832173411646751,0.9066364562201161,0.08288132494789978,-0.8435856095844262,0.9177740062199927,0.10244211308982441,0.649954295447674,0.9274091865425769,-0.086177971223025,0.6404822962194926,0.97670404331159,0.0,0.0,0.0,0.0
0.0032945331373802327,-0.3081662331990177,0.7405651655258395,-0.009652022405262922,-0.5250857532687851,0.003918384179425694,0.8509855677055065,-0.03687857823404091,-0.8402236424622794,0.9299044515533161,0.07450559975988569,-0.8388898361199821,0.9053904446948837,0.07736113969068815,0.6446036935079256,0.9608687475369362,-0.06895832259567825,0.6591899257967824,0.967840795287244,0.0,0.0,0.0,0.0
0.0070813766468182885,-0.3107953562263945,0.7416111053621312,-0.009587476625104655,-0.5250520796496634,0.003879542300006452,0.8510072520837111,-0.03028958898801016,-0.8506559790131554,0.9565774773792213,0.06419514684787918,-0.8390115946389994,0.8976752545151863,0.052751403606098535,0.645104668848639,0.9872189980248244,-0.053060167026039176,0.6759792046063928,0.9641756367055343,0.0,0.0,0.0,0.0
0.010929971598234512,-0.313505457651765,0.7423240284409721,-0.009366760243611105,-0.5251025646065435,0.003610267686891879,0.8509797450077167,-0.022872932244220497,-0.8605340884401786,0.9819727043867008,0.054452923248048485,-0.8418212319113608,0.8940074211091794,0.03475861391824547,0.6476650211558328,1.0077536114679828,-0.038143229078813644,0.6912593279068491,0.9631368531369573,0.0,0.0,0.0,0.0
0.014543627863012621,-0.31622358500577885,0.742953150995749,-0.009064603387008409,-0.5251988134008684,0.0032464708206935556,0.8509250847136699,-0.015106433228289636,-0.868359226531765,1.003789109887724,0.04622565414368789,-0.8462849097555293,0.8929492054991345,0.022218892514079422,0.6504375369325495,1.024594940908514,-0.02331143587555894,0.7057319455998847,0.9626324039761462,0.0,0.0,0.0,0.0
0.01775146989254145,-0.3188901401680311,0.7435814040468466,-0.00874034824414126,-0.5252830962118407,0.0028629674854692777,0.8508778282243875,-0.007327799844231038,-0.8738927376068458,1.0213378902985917,0.03939058946216813,-0.8517350815898671,0.8930544025888733,0.012969592381622406,0.6528945132436671,1.0389881850424725,-0.008123736323860183,0.7193242458151937,0.9619672219638656,0.0,0.0,0.0,0.0
0.020486748649776114,-0.3214569454865066,0.7442265258089017,-0.008427202052368516,-0.5253302156580952,0.0024953771316629262,0.850853054219798,0.00023013576766192298,-0.8773053374286356,1.0346863528765233,0.03344787430774784,-0.8577440307029546,0.8934139033481364,0.005460644303057963,0.6549345257647645,1.0517404179776075,0.007420714990019608,0.7318454567111916,0.9610198940935606,0.0,0.0,0.0,0.0
0.022750392297618247,-0.3238880809026338,0.744884153986709,-0.008140815969140049,-0.5253349881081796,0.002158475309246352,0.8508538172736106,0.007411619132895524,-0.8789212678775852,1.0442757826918503,0.027907257498096798,-0.8640249552080657,0.8935078107133982,-0.0012120092325590822,0.6565772371162618,1.0633612763496485,0.023082563503422776,0.7431686942603601,0.9598355221394393,0.0,0.0,0.0,0.0
0.024580705307811365,-0.32616147625391667,0.7455418657140209,-0.007886921848035707,-0.5253008773345239,0.0018566899866697196,0.8508779803459693,0.014124656435685987,-0.8791082214376847,1.050694234650167,0.02243154394855898,-0.8703471930217089,0.8930665728518775,-0.007545029001608224,0.6578843533074462,1.0741339148512006,0.038551206558966614,0.753244836393096,0.9585089265672222,0.0,0.0,0.0,0.0
0.02603011557057757,-0.32826885072902184,0.74618192604829,-0.0076661233986235235,-0.5252329837489977,0.0015897096568867172,0.8509224501430015,0.020330551312078754,-0.878222947525219,1.0545309991069014,0.01685320820645919,-0.8764378092201998,0.8920007269556703,-0.013823435945117403,0.6589398563752962,1.0841281454507452,0.053554836839508214,0.7620601809219293,0.9571821946634934,0.0,0.0,0.0,0.0
0.027147623815292482,-0.33021442624202985,0.746780748385087,-0.007476895779876886,-0.5251341711668143,0.0013554615473309124,0.8509855233941607,0.02603377027530748,-0.8765780999418511,1.0562756945829286,0.01114034189873146,-0.8818664648747153,0.8903916104406798,-0.02025190471612457,0.6598451841310962,1.093151846211784,0.06792002671354298,0.7695828466010385,0.9560732574564541,0.0,0.0,0.0,0.0
0.02796621292832711,-0.33201353736139544,0.7473090690538996,-0.0073177620951267565,-0.5250031886762458,0.0011518416271831095,0.8510680204887029,0.03127311393102437,-0.874415068537194,1.05624503980489,0.005349546417862455,-0.885948628598289,0.8885200973679892,-0.027051055484554616,0.6607390147561968,1.1006311701970297,0.08159927889340327,0.7757218634275547,0.9554945907413425,0.0,0.0,0.0,0.0
0.028497212269918193,-0.3336919167724224,0.7477367488048801,-0.007188654050715188,-0.524834374251714,0.0009773516956857625,0.851173453322185,0.03611672465557266,-0.8718763449791742,1.0545443611271896,-0.00041927755679984496,-0.8877616984910514,0.8868794588429808,-0.03452645542720923,0.6618949677806522,1.105415161545528,0.09467611881210229,0.7803281220983367,0.955819234286824,0.0,0.0,0.0,0.0
0.02873832661097524,-0.33528530851686694,0.748048620092684,-0.007089688181048749,-0.524621202606721,0.0008290845583043149,0.8513058455782907,0.040663811098710596,-0.8689664901321072,1.0510954612238186,-0.006053465502462091,-0.8864525158194345,0.8860595034559116,-0.04305022160081765,0.6639596024940255,1.1056124102962488,0.10732795940023428,0.7832929451728866,0.9573205499812424,0.0,0.0,0.0,0.0
0.028688935122468565,-0.3368351138642422,0.7482605988390764,-0.007017466902841596,-0.5243569893778927,0.0007036488892907665,0.8514693228338063,0.04502705614917774,-0.865564829191991,1.0457461706083695,-0.011454921598633427,-0.8820474198751103,0.8860735815314461,-0.05259583207580156,0.6668900468589287,1.1012072898392244,0.11975890174392162,0.7846657326349296,0.9599772044448934,0.0,0.0,0.0,0.0
0.02835157835489173,-0.3383885172872288,0.7484188730092829,-0.006966287492463998,-0.5240341733723944,0.0005983607703653652,0.8516685376018489,0.04932937328033257,-0.8614401214688809,1.0382856005828507,-0.016568418680084546,-0.8754611594984407,0.8863778593454444,-0.06278273497630814,0.6699693884145912,1.0940706866138519,0.1322082368066711,0.784653723727189,0.9634775321585848,0.0,0.0,0.0,0.0
0.027719019436930937,-0.3399992824300556,0.7485812034151068,-0.006933643392724447,-0.5236431400463386,0.000511797794620411,0.8519093405607961,0.05370647780099797,-0.8562697344703569,1.0283693851108933,-0.021409122723000842,-0.8676838347162069,0.8865374377448744,-0.0733882128791698,0.6728630718442297,1.0853741628770817,0.1449865053091957,0.7834912445610337,0.9674217467494544,0.0,0.0,0.0,0.0
0.026768869942934908,-0.34172075635339244,0.7487966117790931,-0.006923665907278676,-0.5231692591966689,0.0004481782489644712,0.8522005563353442,0.058278228406356755,-0.8497255692572794,1.01554597926042,-0.026079658288202284,-0.8594605382969538,0.8863363986310066,-0.08442968332839185,0.6753829410311047,1.0757876031817,0.1584568088760625,0.7813220806513388,0.9714971625023671,0.0,0.0,0.0,0.0
0.025473247802711433,-0.3435953545990123,0.7490928349562743,-0.006948982976107032,-0.5225928989758095,0.00042045867643296717,0.8525539260305817,0.06311518555978946,-0.841585150981889,0.9993929305398518,-0.030760650155163043,-0.8512502853178652,0.8857655690979456,-0.0962374720346603,0.6774285610513661,1.0657293048996819,0.17297162476788686,0.7781724494801252,0.9755427260236845,0.0,0.0,0.0,0.0
0.023818075322717746,-0.3456387950580883,0.7494638656225798,-0.0070336211601705065,-0.521889287731326,0.00045492549224973193,0.8529841103839279,0.06819156111017727,-0.8319059126330577,0.9797697093473223,-0.03567059950497654,-0.8432762765422309,0.8849837294235994,-0.10964024399132229,0.6790739998696386,1.0555822761737432,0.18880283085953828,0.7739626787346306,0.9795823355945688,0.0,0.0,0.0,0.0
0.02183213324699095,-0.34781516171491644,0.7498527909289426,-0.007218917367350735,-0.521026150892034,0.0005997645218666229,0.8535099751035093,0.07331193508936253,-0.8213218483942475,0.9572558590391967,-0.04097070443509626,-0.835578848072689,0.8842735453654257,-0.12639890804561937,0.680811849649514,1.0459007654008419,0.20608374906959853,0.7685369809639087,0.9838686545057439,0.0,0.0,0.0,0.0
0.019630188363632603,-0.34999670516367426,0.7501272033850885,-0.007578648935531003,-0.5199442690620331,0.0009508300139575043,0.8541660360094778,0.07797047959211845,-0.8116509182449652,0.9339995644279855,-0.04666272449362146,-0.8280173525434964,0.8838153843385035,-0.1501085932109101,0.6840620887739167,1.0374938931965598,0.22486901717799967,0.7617066235396693,0.98893427105493,0.0,0.0,0.0,0.0
0.017448980464685022,-0.35194286244785944,0.7500673440854838,-0.008244940240022782,-0.5184800268781579,0.0017072171237554334,0.855048284074388,0.08119910346316718,-0.8068565423422298,0.9149187288475226,-0.0529924707036799,-0.8203087940782314,0.8828390719309234,-0.18739246740339896,0.6916119339774648,1.0308472306827314,0.2455562203509269,0.7532298446820561,0.9955277787447506,0.0,0.0,0.0,0.0
0.015547408050123052,-0.3535522837692049,0.7495350180638954,-0.009275957366125843,-0.516580238106264,0.002911588772330934,0.8561835882939115,0.08274609707180983,-0.8095645217058807,0.9039301038878457,-0.061353474771046045,-0.8141456645271734,0.8816449945774396,-0.2441408101378461,0.7040771002096985,1.0270295396907394,0.26809268027654737,0.7432394688979986,1.0041592974292388,0.0,0.0,0.0,0.0
0.014119788926565773,-0.3546784239308223,0.7483046614216705,-0.010360709095635617,-0.5144854987209074,0.004287647361079654,0.8574257655290294,0.08275612783507581,-0.8196477256360187,0.9020366047154279,-0.07096683495942309,-0.8123789347673621,0.8796353762624066,-0.304422314162029,0.7154103374657054,1.0268561261785742,0.28763614483462846,0.730886758356982,1.0165323012950735,0.0,0.0,0.0,0.0
0.014180173739025213,-0.35480150729470333,0.7482848460802023,-0.010318530222908878,-0.5144543285073008,0.004337081993376038,0.8574447279760509,0.08288735619453853,-0.8196864758459315,0.9019668219280043,-0.07100095471973339,-0.8123789077654142,0.8796436554507526,-0.30444318961490163,0.7154274983233753,1.0268634473962877,0.2876896999239896,0.7308096411771446,1.0164660598317135,0.0,0.0,0.0,0.0
0.014180173739025213,-0.35480150729470333,0.7482848460802023,-0.010318530222908878,-0.5144543285073008,0.004337081993376038,0.8574447279760509,0.08288735619453853,-0.8196864758459315,0.9019668219280043,-0.07100095471973339,-0.8123789077654142,0.8796436554507526,-0.30444318961490163,0.7154274983233753,1.0268634473962877,0.2876896999239896,0.7308096411771446,1.0164660598317135,0.0,0.0,0.0,0.0
0.015176179864470136,-0.3555970587892042,0.7483889186780396,-0.010017799359396541,-0.516087507219322,0.0037511448796931305,0.8564690639481572,0.08619621503637451,-0.8110631658518261,0.8975874602296593,-0.06742131814284179,-0.8114938319491338,0.8850092870975506,-0.3134845738079205,0.7271489017970895,1.0269728349302232,0.29495313743173757,0.739930493724378,1.0194354108308654,0.0,0.0,0.0,0.0
0.01674157258682222,-0.3570877399019631,0.7482340134538419,-0.009600018795167763,-0.5179128714635933,0.002837115406659108,0.855374799715094,0.09213472169351006,-0.8022540169478243,0.894297284102665,-0.061379790360420676,-0.815860645995131,0.8988488389548427,-0.3238955309405304,0.7414854865506038,1.027705377430135,0.3079638923980938,0.7509600364858817,1.0261674101400875,0.0,0.0,0.0,0.0
0.018678625983590436,-0.3595224441509085,0.7492000749977272,-0.010901868899447966,-0.5185598243804058,0.0048711388186073795,0.8549579696100106,0.08152222257270882,-0.8065616500164743,0.8930093306288963,-0.059895845910422296,-0.8196518136452092,0.9184992683883584,-0.2813584615263808,0.7453660942776811,1.0113996014310136,0.23944922260977536,0.7282738991627383,1.0302454222631685,0.0,0.0,0.0,0.0
0.020755911572453937,-0.36206061541902623,0.7495839889726041,-0.011911075626638377,-0.5195008082121635,0.006308956074360989,0.8543636424951481,0.0705411385273731,-0.8132918128394542,0.8917577281334516,-0.05669179383073542,-0.8257159752504696,0.9396838169593884,-0.2464551476042709,0.7499607162729828,1.0001072457274536,0.17788568229397844,0.7100988843844772,1.0351579186477218,0.0,0.0,0.0,0.0
0.02287432239668313,-0.36455872806657613,0.7495617045079788,-0.012371704569911839,-0.5205379169169928,0.0068635572131613394,0.8537213301541284,0.061633730991642335,-0.8209834861549582,0.8919220253023434,-0.051566924267687476,-0.8347397110356911,0.9625008475919882,-0.2232394557723652,0.7562373488470961,0.992802126201472,0.136384874969637,0.7000106652693753,1.0417918148936267,0.0,0.0,0.0,0.0
0.024779070229973058,-0.36688486868423237,0.749347871370294,-0.012537416814872774,-0.5214974845811199,0.0070018077388710135,0.8531319718798274,0.054665197782747706,-0.8292523553218867,0.8929530430320323,-0.045922522227054376,-0.8442307315417142,0.9836825319101687,-0.2058974804212346,0.7621972140560879,0.9877746846714037,0.10888929099078762,0.6943059035938176,1.0500419209605896,0.0,0.0,0.0,0.0
0.026348425377047846,-0.36900418658083084,0.7490912543865305,-0.012576592473942117,-0.5223106983975866,0.006982709338316422,0.8526339222852128,0.049047216401535816,-0.8377151555410094,0.894159968100482,-0.040418763202421874,-0.852835539151738,1.0017642955989547,-0.19113694773839013,0.7669722114839436,0.9837386161459142,0.08945885250665914,0.6904547787334291,1.0591492917575693,0.0,0.0,0.0,0.0
0.027551115372784814,-0.37092926460350084,0.7488747100404454,-0.012569024948546823,-0.5229781984755765,0.006916404826713617,0.8522253146177696,0.04414478649773828,-0.846187029574978,0.8951544702224961,-0.03526877878543969,-0.8599831943853973,1.0163784673991543,-0.17749588299175734,0.7704174497667946,0.979966155355203,0.07433355407875777,0.6871230883546365,1.0685641400682426,0.0,0.0,0.0,0.0
0.0284013112244715,-0.3726966934931326,0.7487300378141847,-0.012543674611330392,-0.523525519623121,0.0068359067248004715,0.8518902258564985,0.03947271328450523,-0.8545979981909265,0.8957182503041496,-0.03045814944200744,-0.8655737706530338,1.0277077620066324,-0.16444406572482614,0.7726722164164805,0.9761412748073591,0.061422835884161614,0.6837151095349757,1.0779475874726665,0.0,0.0,0.0,0.0
0.028929147516289527,-0.3743544141232315,0.748654570516181,-0.01250300402638502,-0.5239853127215991,0.00673696434625278,0.8516088775099526,0.03474920598306323,-0.8628698091589863,0.8957441938564035,-0.025861072400618173,-0.8697418965749135,1.0361372386702017,-0.15189099771659562,0.7739460095607286,0.9722236325398991,0.049620420680709966,0.6800280617705945,1.0870736818922766,0.0,0.0,0.0,0.0
0.02916030589063384,-0.3759593257160391,0.7486237601852542,-0.012442725046450394,-0.5243788390399723,0.0066112303976147225,0.8513684886071007,0.029847008862136936,-0.8708300229188307,0.8951923483084515,-0.021321126060200795,-0.8727438590212584,1.0420902521930135,-0.1396759195905271,0.7742983632993838,0.9683173617335317,0.03842717979892403,0.6760137367770837,1.0957107009179605,0.0,0.0,0.0,0.0
0.029105516470782855,-0.3775725568170936,0.7486001061307367,-0.012356067631792473,-0.5247178653872732,0.006450985008512355,0.8511620727737591,0.024751111798901923,-0.8780940046619645,0.8941311332484884,-0.01667229492429629,-0.8748560581649809,1.045904829057479,-0.12754425462985483,0.7736324185977931,0.9646242785690513,0.02769714278701424,0.6716978886437843,1.1034932061735878,0.0,0.0,0.0,0.0
0.028754656259893513,-0.3792562159665303,0.7485385950190441,-0.012236464957713609,-0.5250054070423951,0.006252438890249418,0.8509879543856724,0.019518002926287848,-0.8839896273187307,0.89278192930043,-0.011755090005857515,-0.8763164418240396,1.047765529119339,-0.11514783567009083,0.7716955554822944,0.9614141479564678,0.01754461723354593,0.6671783598857058,1.1097566459128105,0.0,0.0,0.0,0.0
0.02807648845017571,-0.3810699854181283,0.7483928619354642,-0.012080946790707486,-0.5252340674254867,0.006021198755109648,0.8508507332698673,0.014240488262620376,-0.8876063384016213,0.891518612303595,-0.006439096529268448,-0.8772928764295569,1.0476841895945548,-0.10202771156462012,0.768092059631683,0.9589684190792349,0.008356563156122557,0.6627288001902333,1.113318048644467,0.0,0.0,0.0,0.0
0.02703223835091298,-0.3830614827807918,0.7481306859595234,-0.01188512013969712,-0.5254003675837708,0.005760886167195823,0.8507526137795124,0.009042179182962767,-0.8880792036300118,0.8907800940563271,-0.0006201466782889339,-0.8778147427925942,1.0455075743001223,-0.0879090506492698,0.7625241342630236,0.9574706527242458,0.0006660712423416926,0.6590726052969671,1.1123061317565344,0.0,0.0,0.0,0.0
0.025592294094237345,-0.3852676304373513,0.7477487378647412,-0.01165080048523438,-0.5255021017328357,0.005478421075481407,0.8506948846824843,0.004010127468279372,-0.8854264459823994,0.890535463913438,0.005772630922181148,-0.8777932972438389,1.041038750956913,-0.07258769021656769,0.7548837214625536,0.9568204159473099,-0.0054739152822173235,0.6562282885911775,1.1067126216940806,0.0,0.0,0.0,0.0
0.023740138235716992,-0.3877129076332713,0.747272091696956,-0.011390259303445092,-0.5255339427339738,0.005190424813233528,0.8506805490416146,-0.0008433609813744457,-0.8805729194906439,0.8902803415807437,0.012755694887689078,-0.8770446104122505,1.034073897585922,-0.05586446127038859,0.7452307820565214,0.9566197609958579,-0.010498396277829359,0.6534771598234725,1.0983760864966323,0.0,0.0,0.0,0.0
0.02146519670019797,-0.3903968130464289,0.7467384692788642,-0.011117880669127085,-0.5254955799927252,0.004913824890580108,0.8507094935772617,-0.005546897889474327,-0.8745205212459124,0.889595224407805,0.020276447178082448,-0.875264739330753,1.0243006677497517,-0.03781419511675583,0.7337820979725178,0.9563997456466953,-0.014783154854476729,0.6505122776125428,1.0884282745790015,0.0,0.0,0.0,0.0
0.018761148605857963,-0.39328849347000455,0.7461817788777493,-0.010849918869604932,-0.5253903821764233,0.00466457023498469,0.8507793294160112,-0.010180135231532432,-0.8680570069007457,0.8882963062692576,0.02820099198347386,-0.8720758965726816,1.011297247886382,-0.018795977474489058,0.7208166082069178,0.9558058463950881,-0.01864294655281214,0.6471986350710949,1.077467418602948,0.0,0.0,0.0,0.0
0.015637392464033294,-0.39632170941502404,0.7456256143116167,-0.010604171830951532,-0.5252261395427527,0.004456136757875346,0.8508849491711505,-0.014883043280282154,-0.861705888965231,0.8864645977875927,0.03630672329026865,-0.8670906690555845,0.9946255280545822,0.0005690780832306799,0.7066642618408745,0.9546771807756117,-0.022430785557085074,0.6434569700874965,1.0657746787407962,0.0,0.0,0.0,0.0
0.012138739328604438,-0.3993918230515376,0.7450772545728397,-0.01039799238569324,-0.5250162518449496,0.004296982885747031,0.8510178335329449,-0.019824707696761274,-0.8557314405179619,0.884441496633718,0.04428635834343128,-0.8600249108615844,0.9740151271066178,0.01944749816957274,0.6917101843412465,0.9531182645457952,-0.026651179247682736,0.6392501572813506,1.0534847792385413,0.0,0.0,0.0,0.0
0.008370803411756668,-0.4023620270498121,0.7445101156263592,-0.01025210111914676,-0.5247657844296606,0.004213074590584747,0.8511744920502845,-0.02515645648683781,-0.8501571535405695,0.882752509965833,0.0517166424592604,-0.850956652649695,0.9497267474012683,0.03712476653007345,0.6762212589581523,0.9516063362023797,-0.03183780243161295,0.6346809203413641,1.0407256081890799,0.0,0.0,0.0,0.0
0.004505914136651768,-0.4050893809712737,0.7438404982736957,-0.010167680544750868,-0.5244903505488203,0.004174924956557566,0.8513454413192817,-0.031432317488591724,-0.8447375093962071,0.8818892216468533,0.05832547909364357,-0.8405494859295144,0.9227904805871984,0.052599581771314734,0.6604553694627305,0.9512782288679007,-0.03939235209681241,0.6301391663016229,1.027465173644268,0.0,0.0,0.0,0.0
0.0010506354928865856,-0.4074814224870409,0.7429475816107051,-0.010118152083114479,-0.524161977799755,0.004150574404548257,0.8515483643103218,-0.038192183121794065,-0.8387884988204042,0.8814204939078641,0.06403157863816754,-0.8318173305369955,0.8982064326165844,0.06538852292302705,0.6451819023424634,0.9531867582896651,-0.05085284382126257,0.6264736361807306,1.0138156378939374,0.0,0.0,0.0,0.0
-0.0017275894761329636,-0.40926027725134895,0.7418813600757943,-0.010086516056967894,-0.5238855714916675,0.004109813533715311,0.8517190144697954,-0.045067975428741754,-0.8336830835331888,0.8823950068896818,0.06826953320568371,-0.8251313201729322,0.877619639382698,0.0741240894928767,0.6315358793412236,0.9581096393787668,-0.06840198222823968,0.6228596543341335,0.9999951918375243,0.0,0.0,0.0,0.0
-0.003423756077571091,-0.410207258419998,0.740851534852489,-0.01006000718036571,-0.5237160914023016,0.004063199081113679,0.8518237741898581,-0.050298438583829465,-0.8312952929367408,0.8847083299015479,0.07053975181153345,-0.8216046988397515,0.8645224454842234,0.0781965304978008,0.6215486307011215,0.9649360170822594,-0.08949327797719042,0.6194289413418649,0.9875078652169024,0.0,0.0,0.0,0.0
-0.003440760948875644,-0.4103302487234058,0.740786769460376,-0.009974056727926537,-0.5237241842008798,0.0040807368465311826,0.8518197254479967,-0.05030610437642729,-0.8313228887451182,0.8847159108574255,0.07071807304731022,-0.8216794340687412,0.8643404397496812,0.07821293461312945,0.6214636975282783,0.9648549978629719,-0.0895096618240831,0.6194613079394252,0.9875161018026662,0.0,0.0,0.0,0.0
-0.0034407609488755564,-0.41033024872340584,0.740786769460376,-0.009974056727926386,-0.5237241842008798,0.004080736846531209,0.8518197254479966,-0.05030610437642749,-0.8313228887451163,0.884715910857424,0.07071807304730998,-0.8216794340687392,0.8643404397496797,0.07821293461313154,0.621463697528279,0.964854997862973,-0.08950966182408282,0.6194613079394273,0.9875161018026648,0.0,0.0,0.0,0.0
-0.0034407609488755564,-0.41033024872340584,0.740786769460376,-0.009974056727926386,-0.5237241842008798,0.004080736846531209,0.8518197254479966,-0.05030610437642749,-0.8313228887451163,0.884715910857424,0.07071807304730998,-0.8216794340687392,0.8643404397496797,0.07821293461313154,0.621463697528279,0.964854997862973,-0.08950966182408282,0.6194613079394273,0.9875161018026648,0.0,0.0,0.0,0.0
-0.0018013508489244721,-0.41151725722582855,0.7412066155171645,-0.009909805554985218,-0.5242503505363658,0.004171315982575869,0.851496309938765,-0.04764267049174671,-0.8333168710340126,0.8941355417171726,0.07359617987560087,-0.8285228635929226,0.8815214114804709,0.08626365999270691,0.6289709100467386,0.9564168312590229,-0.08322505020244672,0.6274887079458878,0.9882805047486417,0.0,0.0,0.0,0.0
0.0013952710014688207,-0.41387226765381746,0.7430458623789016,-0.009447853288113348,-0.5252182851760138,0.0035230509960701593,0.8509077970595244,-0.04015639255933349,-0.8326006814458187,0.9099681957320875,0.08141463455233516,-0.8403592218776057,0.9147660100636522,0.09613460481238496,0.6509275257343278,0.930908473769784,-0.07649937200350082,0.6459692176189351,0.9792255202124499,0.0,0.0,0.0,0.0
0.004604470682784191,-0.41623038630101505,0.7446486996205369,-0.009541324039926918,-0.5250551995633673,0.003810821277044783,0.8510061563750476,-0.03504124492840292,-0.8407622983944176,0.9330982764728423,0.07307805373878946,-0.8363706136145873,0.9032804862393474,0.0716201049167968,0.6457245539559481,0.9635120135450128,-0.05955647015668701,0.6642949108798395,0.970541218041534,0.0,0.0,0.0,0.0
0.00835378239323993,-0.41874489070294396,0.7456612901904249,-0.00947083114822558,-0.5250160542123768,0.0037570552021307588,0.8510313335670059,-0.02869569157304477,-0.8512478293611646,0.9596824754219014,0.06269049104209043,-0.8368496958352349,0.8960301319614385,0.047571607099397714,0.6462223996072682,0.989316090503805,-0.04409991786522662,0.6809350553423594,0.9665521072815852,0.0,0.0,0.0,0.0
0.01215057302155004,-0.4213447069584327,0.7463615866575383,-0.009246351124299992,-0.5250634530297146,0.0034742048918236495,0.8510057609580375,-0.021515069772933278,-0.8610416838146124,0.9848303566353995,0.05281052929527383,-0.8398868105566097,0.8926131545990524,0.029834613584583575,0.6486910099762874,1.0095424616638355,-0.029621782099772603,0.6961269368382857,0.9650574498340646,0.0,0.0,0.0,0.0
0.01570125059138167,-0.4239611646362838,0.746983174768081,-0.008944308773735327,-0.5251537782026544,0.0031025631147946395,0.8509546889712496,-0.013980927449183393,-0.8687528864400367,1.0063323944886282,0.04444819020978529,-0.8444911745140136,0.891630415545171,0.017340881791629122,0.6513412992037119,1.0261890308495367,-0.015163527437719714,0.7104870781831277,0.9641293899430244,0.0,0.0,0.0,0.0
0.01884136341933137,-0.42653673175295165,0.7476045413901452,-0.008622911704019822,-0.5252293719527443,0.0027144795340630617,0.8509126769726313,-0.006419564436753734,-0.874179965114596,1.0235556623016204,0.03748456006143621,-0.850016306803455,0.8917045805075781,0.008012407179478601,0.6536694446934006,1.0404543796056664,-0.000293502758990892,0.7239267657636305,0.9631164619429218,0.0,0.0,0.0,0.0
0.021509092724139325,-0.42902391173761434,0.7482435038402185,-0.00831411719823792,-0.5252661221685467,0.0023444471667131666,0.8508941649375167,0.0009416195278946667,-0.8775006830473466,1.0365925589157052,0.031424262532378136,-0.8560517922361542,0.8919770891512707,0.0003724016032031225,0.6555791919108966,1.0531172409836362,0.014980499528754703,0.7362707323791309,0.9618911684421562,0.0,0.0,0.0,0.0
0.02370876590568205,-0.43138695923601333,0.7488965742045043,-0.008032585232638272,-0.5252598579765854,0.0020064129568339683,0.8509016003510302,0.007950426737970343,-0.8790367717741125,1.0458947073755875,0.025781794235976055,-0.8623263172286111,0.8919596566167477,-0.006440221836336983,0.6570923172463266,1.064669467604599,0.030412610787058203,0.7474110936755916,0.9604814104190438,0.0,0.0,0.0,0.0
0.025480822505655965,-0.43360368563382523,0.7495519488310877,-0.007783262011536577,-0.5252146863327344,0.0017040328865104695,0.8509324593437418,0.014517354140822492,-0.8791516634935747,1.0520536097818463,0.020223620455558675,-0.868622343601913,0.891401300215175,-0.012902169248555122,0.6582724123410861,1.0753830400798479,0.045687134469284685,0.7573130250195405,0.9589659978165159,0.0,0.0,0.0,0.0
0.026878849061369885,-0.43566552600696073,0.7501921388914586,-0.007566140626626729,-0.5251359754848166,0.001436266873517849,0.850983488620723,0.020605422869682265,-0.878198425215757,1.0556585469608575,0.01458456999599502,-0.8746771991285519,0.8902228731368336,-0.019291721596467155,0.6592051655219445,1.0853206921540763,0.06052854403176555,0.7659714399358999,0.957475097141199,0.0,0.0,0.0,0.0
0.027952315209033424,-0.4375764694378964,0.750793602815972,-0.0073794045471492365,-0.5250267948184232,0.0012007204752918527,0.8510528581595641,0.0262197614463446,-0.8764861203384601,1.057196342157398,0.008833576686449674,-0.8800673782746716,0.8885116195034827,-0.025811121194963108,0.6599937764078525,1.0942857030302449,0.07476634465999016,0.7733609976646922,0.9562193242384496,0.0,0.0,0.0,0.0
0.028734130605803928,-0.4393516104629315,0.7513271239132036,-0.007221284267698294,-0.5248856566437388,0.0009948045411083733,0.85114153398076,0.03140003616700262,-0.874253502440601,1.0569800583009221,0.003028276280439956,-0.8841134796018034,0.8865500839251317,-0.032682929282169405,0.6607775786266099,1.1017007472953264,0.0883538550577052,0.7793926742623272,0.9555050238438917,0.0,0.0,0.0,0.0
0.029235258615231366,-0.44101666454042926,0.7517627352150633,-0.007091653995061631,-0.5247066631198374,0.000816888250082609,0.8512531696357122,0.03621488139195242,-0.8716399463316667,1.0551097841889396,-0.002731202974120891,-0.8858957056153057,0.8848313264051134,-0.04021241367965291,0.6618302916881993,1.1064118535487457,0.10138069722446322,0.7839194554677724,0.9557007578865648,0.0,0.0,0.0,0.0
0.02945283977482738,-0.4426074642049266,0.7520855283370756,-0.006990345286508397,-0.5244825801451743,0.0006634441422322395,0.8513922233840912,0.04076533066455572,-0.8686475274074694,1.0515021560196882,-0.008331548869830795,-0.8845636255124566,0.8839422597104328,-0.048772583460863765,0.6637968836063806,1.1065248662139355,0.11402238684431104,0.7868297489811689,0.9570746689138829,0.0,0.0,0.0,0.0
0.029385721283772936,-0.44416608587197326,0.7523117828423328,-0.006913968334336403,-0.5242063510503717,0.000531012525670932,0.851563043224648,0.045165989575578165,-0.865151148015992,1.0459973030434095,-0.013676590979591209,-0.8801442190390217,0.883895463159317,-0.05833817228682706,0.6666341928835571,1.1020243376431385,0.12649162043276466,0.7881735913297275,0.9596024758694901,0.0,0.0,0.0,0.0
0.029035888583848844,-0.4457406911704379,0.7524881192034336,-0.006856824192795589,-0.5238698152684428,0.0004167694599386117,0.851770642201182,0.049542537315508325,-0.860915263321602,1.0383761408580094,-0.018714964116790883,-0.8735520638430906,0.8841463925990531,-0.06853458949422032,0.6696241255315151,1.0947835356768,0.1390360066487525,0.7881575821794703,0.9629691877387191,0.0,0.0,0.0,0.0
0.028395520340585217,-0.44738592009744593,0.7526726759810372,-0.006816437781617465,-0.5234625523692449,0.00031914958303327375,0.8520213557104004,0.05403306895243581,-0.8556142742799331,1.028286945782458,-0.02346771276096767,-0.8657758324718935,0.8842570773509596,-0.07914396503523187,0.6724283615414834,1.0859763486607033,0.15197052526908333,0.7870132419323664,0.9667711607775149,0.0,0.0,0.0,0.0
0.027441664381905432,-0.4491555446466522,0.7529146604021604,-0.006797216960541669,-0.522969149992565,0.00024264588148006794,0.8523244729095966,0.05875752193468195,-0.8489195774200422,1.015272946341704,-0.02804511117102691,-0.857556444033909,0.8840053801572347,-0.09018797140557162,0.6748540117222113,1.0762757027368102,0.16566086834408325,0.7848808642511321,0.9706921909609058,0.0,0.0,0.0,0.0
0.026145938301339204,-0.4510912060669595,0.7532415446607498,-0.006812209860183701,-0.5223690128216381,0.00020072624025076045,0.8526923055531489,0.06378278951903424,-0.8406141679061054,0.9989128909611857,-0.03263386828132998,-0.8493446114234547,0.8833697024649383,-0.10200554051117305,0.676796718428978,1.0661055677050775,0.18044985086951812,0.7817788701988441,0.9745674131497636,0.0,0.0,0.0,0.0
0.024493982636690375,-0.45320567657390615,0.753646207908392,-0.006886112342803398,-0.5216362764722411,0.00022068709260325735,0.853140157197037,0.06907279193920533,-0.8307720476744317,0.979080724783353,-0.03745105352148278,-0.8413475019662127,0.8824863207691143,-0.11544363348060789,0.6783326003498528,1.0558607720987203,0.19658277864018409,0.7776145647684645,0.9784176700650405,0.0,0.0,0.0,0.0
0.02251473143775584,-0.4554564176159928,0.7540691720962079,-0.0070614032787272366,-0.520736818789747,0.0003525676909996432,0.8536879862317922,0.07441129769069331,-0.8200675439339723,0.9563996645836271,-0.042639730084805046,-0.8335765327558806,0.8815936583032095,-0.1323113155942131,0.6799733889872048,1.0461156560500835,0.21414284600816721,0.7722103747108041,0.9824942543527463,0.0,0.0,0.0,0.0
0.020323911882374476,-0.4577030193095342,0.7543731450762501,-0.00741536575389402,-0.5196031097898974,0.000699765673612764,0.8543752869643444,0.07924558232954751,-0.8104406752247688,0.93315155796183,-0.04818172577813769,-0.8258283767563849,0.8807385242430517,-0.15632186232773568,0.6831966202243582,1.0376640450676138,0.23314056823072404,0.7653403376972094,0.9873257470352172,0.0,0.0,0.0,0.0
0.01814720650429876,-0.4597077118521436,0.7543405672986311,-0.008079482248316717,-0.518070508652196,0.0014580028296720148,0.8552985117835776,0.08262619517726773,-0.8057994447848875,0.9141617209213869,-0.05437844415346183,-0.8178440120920614,0.8790853320524241,-0.19422189715410357,0.6906821726280883,1.031041482225935,0.2539308057772357,0.756714051136737,0.9936608812276959,0.0,0.0,0.0,0.0
