zhuoxili-jackie/tripod-support-walk/examples/pcbB样数据/trajectory_trotting_acc_03.csv
root_pos_x,root_pos_y,root_pos_z,root_rot_x,root_rot_y,root_rot_z,root_rot_w,FL_hip_joint,FL_thigh_joint,FL_calf_joint,FR_hip_joint,FR_thigh_joint,FR_calf_joint,RL_hip_joint,RL_thigh_joint,RL_calf_joint,RR_hip_joint,RR_thigh_joint,RR_calf_joint,FL_foot_joint,FR_foot_joint,RL_foot_joint,RR_foot_joint
0.0,0.0,0.72963,-0.009919430704566214,-0.5230949929384007,0.0038044909978256812,0.8522081665329894,0.0,-0.81,0.872,0.0,-0.81,0.872,0.0,0.65,1.0,0.0,0.65,1.0,0.0,0.0,0.0,0.0
0.00151549240535596,-0.0002195049129895533,0.7300335263215856,-0.009821982365426812,-0.5235493467165196,0.0037484761349446814,0.8519304896185983,0.0006679090916503966,-0.8133444030783668,0.8833073070682972,0.0006679090916503974,-0.8148878845717259,0.885414939903533,0.0005197940327228495,0.6577795404786593,0.9952926604890777,0.0005197940327228537,0.6574016979086921,0.9966590781102148,0.0,0.0,0.0,0.0
0.004222769589687757,-0.0008086447173207383,0.7309029948998265,-0.009793316258221614,-0.5243202944050108,0.0037493128319952634,0.8514565534923065,0.0021913941999123325,-0.8187908749640175,0.9027587342527544,0.0021926602716733044,-0.82324578728874,0.9093857587371421,0.00442103841868795,0.671786120633107,0.984450261654318,0.00442691758238493,0.6718878535561942,0.989928944954422,0.0,0.0,0.0,0.0
0.007116003382476416,-0.0011152358170721226,0.7315911372742555,-0.009460181596623892,-0.5245413368213022,0.0034832620510704205,0.8513252949462758,0.0035091787670134423,-0.8284605819379479,0.9271241860486362,0.008134711334229185,-0.8270249899907554,0.905916910803004,0.015283736623431323,0.6634216005356256,0.9999310333397884,0.0028472080397591772,0.6835831530978398,0.9817628012963255,0.0,0.0,0.0,0.0
0.01039004142186941,-0.0012128728607158834,0.7320572287516969,-0.009160288330304493,-0.5246857879712101,0.0032500598077606713,0.8512404772624372,0.004221823854543161,-0.8412777983326838,0.9559222311879141,0.015622032198809617,-0.8330103046556613,0.9030338790603667,0.02721587168064167,0.6576491921473429,1.0125745879434533,2.635971921069718e-05,0.6952685390609069,0.974039651256457,0.0,0.0,0.0,0.0
0.013516549424811827,-0.0012422077801497885,0.7323874346138735,-0.008911629449877084,-0.5248954089355677,0.0030840163923383105,0.8511144936974125,0.004609908061795664,-0.8531658678926528,0.9825117315851684,0.02316357234174276,-0.8403098661338472,0.9024501998984723,0.03908802740513917,0.653546884856065,1.0235980123253734,-0.0026896498484680286,0.7063265121165576,0.9673570087886388,0.0,0.0,0.0,0.0
0.01624653445794705,-0.001213630094076198,0.7326510726673084,-0.0086977959282737,-0.5251358174323135,0.0029540136238463406,0.8509688568914823,0.00477119054800429,-0.8630347843285303,1.0049556942147502,0.030067491392236773,-0.848213100118488,0.9032131307136632,0.05050648073573068,0.6500442286106235,1.033574221880723,-0.005484013518270823,0.7161115830902643,0.9613924278301784,0.0,0.0,0.0,0.0
0.018467420909517324,-0.0011053242803792103,0.7328938108873361,-0.008508179290210213,-0.525374495872752,0.002841353852680956,0.850823822350962,0.0046905050141199086,-0.8706328058500576,1.0227883819846937,0.03627234009437501,-0.8563736370409145,0.9044056389833832,0.06145777757220747,0.6465018512712154,1.0427689216325469,-0.008676589676981542,0.7242789325877342,0.9558261853012336,0.0,0.0,0.0,0.0
0.020154761345520612,-0.0008831583549492761,0.7331409277667211,-0.008341562146241613,-0.5255929179529027,0.002743080250599151,0.8506908830177107,0.004283684140445674,-0.8761070377020842,1.0362600151939783,0.04192572531268787,-0.8646302644248147,0.9053967852822881,0.07199323582276584,0.6426003317587282,1.0513511868296288,-0.012526422369495315,0.7307448966567646,0.9504044415905347,0.0,0.0,0.0,0.0
0.021334179431355384,-0.0005101008384976755,0.7333988354798158,-0.008201881655478105,-0.5257825352234345,0.0026641394677135166,0.8505753095124639,0.003440903283045619,-0.8797938334679681,1.0459410161505507,0.04717962785465894,-0.8728890303210575,0.9057984745097093,0.0821403669271756,0.6382210424976902,1.0594349659622142,-0.017225785445787442,0.735565330316578,0.9449620505732389,0.0,0.0,0.0,0.0
0.022054466933116575,4.980221723955669e-05,0.7336572702164517,-0.008094770146701465,-0.5259405955637745,0.0026116224341618272,0.8504787734344436,0.0020512768841713562,-0.8821049926958433,1.052503869107014,0.05212364348338736,-0.8810427740354402,0.9054058249026887,0.09188996216045227,0.6333669490517919,1.0670744082812673,-0.022922813855207374,0.7388371976263598,0.9394354328821553,0.0,0.0,0.0,0.0
0.022369236687190874,0.000830643702679069,0.7338913362308432,-0.008025685637568522,-0.5260669900052808,0.0025917485936032465,0.8504013130493497,1.226314139449354e-05,-0.8834654042728793,1.0566006293214372,0.05678444215251256,-0.8888898942012015,0.9041657148830677,0.10118965668352924,0.6281185060489873,1.0742264900583756,-0.02974542891196279,0.7406271292568073,0.9338716322201889,0.0,0.0,0.0,0.0
0.022324488680162926,0.0018650063511950177,0.7340629337127506,-0.007999362815429784,-0.5261622558182019,0.0026087515510873245,0.8503425692990989,-0.0027688123668979173,-0.8842762279276439,1.0587879769015442,0.06114364982402931,-0.8960397979237625,0.9021850533126522,0.10991845294422659,0.6226188014292207,1.0806727741657813,-0.03781369176871689,0.7409225708965009,0.9284379759520923,0.0,0.0,0.0,0.0
0.021950549447929853,0.0031834847393345748,0.7341225958507573,-0.00802032363241195,-0.5262269573854584,0.0026651174326497934,0.8503021585758468,-0.0063743031174352364,-0.884884797958594,1.0594726016529905,0.06515040506913164,-0.9018335423821305,0.8997705324461192,0.11783092273931865,0.6171012482592969,1.0858845560392296,-0.04722768510057527,0.739609945203517,0.9234265532838936,0.0,0.0,0.0,0.0
0.021259428549828253,0.004812205940419867,0.7340154431025016,-0.008094024832804232,-0.5262625939550255,0.002762779413696774,0.8502790930133736,-0.01087241717523608,-0.8855493028095067,1.0588755968054906,0.0687269356428532,-0.9053702816394114,0.8974532776483451,0.124487250606818,0.6120027730715563,1.0888168025244056,-0.05802847014681094,0.7365025016804493,0.9192180905959447,0.0,0.0,0.0,0.0
0.020253127562800923,0.0067702494648862865,0.7336987615476003,-0.008226181405172239,-0.5262737274405481,0.002902421269698718,0.8502704685546206,-0.016308268402495142,-0.8863971051045169,1.0570570633289855,0.07178929512041746,-0.9058160874506253,0.8958739971694046,0.12929134015438204,0.608184411678622,1.087711151560186,-0.07018914974761616,0.7314589216541828,0.9161114474846686,0.0,0.0,0.0,0.0
0.01893887348552741,0.009077690652030245,0.7331579584842226,-0.008415577623086078,-0.5262636665181294,0.0030803913938023055,0.8502742160885662,-0.02272067424649688,-0.8874631049591614,1.0540558692901902,0.07429188919751366,-0.9032285731967457,0.8950868057276391,0.13218248150682013,0.6057227785414803,1.0826147280891643,-0.08374674610856783,0.7244794809428122,0.9140939552595677,0.0,0.0,0.0,0.0
0.017332056362669684,0.011753043497636454,0.7324082037347363,-0.00865344100294846,-0.5262343925596422,0.003288831042193718,0.8502891658939145,-0.030135468738454844,-0.8886922325339444,1.0499038578727913,0.07625306104108509,-0.8985595500869639,0.8945783712816849,0.13367664271565785,0.603892001117419,1.0753545240297946,-0.098776127703208,0.7157324763628311,0.9128240283020879,0.0,0.0,0.0,0.0
0.015446228761547807,0.01479788423771742,0.7314828345512324,-0.00892950536459612,-0.5261914424811467,0.0035184148777109873,0.8503119724843947,-0.038527030631621134,-0.8898908720102849,1.044498283063138,0.07775242361490481,-0.8928360821916251,0.8939869133200871,0.13424227685052417,0.6023539966329489,1.06699932968278,-0.11521816235741232,0.705502843647205,0.9118371168032035,0.0,0.0,0.0,0.0
0.013290466772491145,0.018190541247176402,0.7304213849681545,-0.009231569233864251,-0.5261428946650306,0.0037584613480965835,0.8503377602407632,-0.047800928334751754,-0.8907523338970686,1.0375885372909395,0.0789448760004533,-0.8868712394179082,0.8932555900039367,0.13433746569271154,0.6009315302932728,1.0580434632803357,-0.1328593590065548,0.6941132869395004,0.9107008917920948,0.0,0.0,0.0,0.0
0.010878049647260723,0.021880047119788377,0.7292705654036353,-0.009541898290841773,-0.526099710521017,0.003993469651254698,0.8503599819881306,-0.057769773320072465,-0.8908778817427755,1.028834652184648,0.08008092602973715,-0.8812579836505374,0.892668292481818,0.13461319930057597,0.5994670233413953,1.0486020228812005,-0.15137132338578352,0.6819295308464324,0.9090287516768739,0.0,0.0,0.0,0.0
0.008240086857508877,0.025778607099931506,0.7280882453124213,-0.009831646947042005,-0.526077767177526,0.00419686871119499,0.8503692773688607,-0.0681202817110862,-0.8898010672379146,1.01789901210587,0.08148821985889726,-0.8764629072895048,0.892899049323208,0.1362045294257282,0.5977258865845153,1.03854041264289,-0.17037839489484966,0.6693836840495009,0.9064696051454122,0.0,0.0,0.0,0.0
0.0054412731928575485,0.029750947859912592,0.7269365253958602,-0.010051796290145866,-0.5261015884561648,0.004317387720823894,0.8503513627780634,-0.07835816378786717,-0.8870429775856112,1.0045631091130616,0.08348837742719463,-0.8729469412644044,0.8951317006320816,0.14108972039107276,0.5952998000557197,1.0275685440801774,-0.18957687482793892,0.656917504502807,0.9028158107498389,0.0,0.0,0.0,0.0
0.0025906626384602396,0.03359385724857966,0.7258338073143641,-0.010112115094736137,-0.5262190126901071,0.004227064464349009,0.8502784412989511,-0.087635942159979,-0.8821551228764105,0.9887560989398404,0.08647584866049055,-0.8714593814610551,0.9013837216669428,0.15223668599231271,0.5916044145468144,1.0154352180353388,-0.20909092889232936,0.6445910305310095,0.8985297155397589,0.0,0.0,0.0,0.0
0.00013865541017019263,0.0371526810614696,0.7245905209480771,-0.009925748595216643,-0.5264424358117548,0.0038516633405529643,0.850144108949137,-0.09551039807492463,-0.8775028426284781,0.9743728293329291,0.09112369859868756,-0.8726632371785629,0.9131531185409768,0.17450103708597575,0.5869724831603269,1.0016409094000576,-0.22951185436345561,0.6321983983670123,0.8955737909688141,0.0,0.0,0.0,0.0
-0.0016571936165907053,0.03986785127145094,0.7227884177994272,-0.009420518366047953,-0.5269486064684824,0.003070422834586896,0.8498393921666942,-0.10035638975756078,-0.8737415605458206,0.9621601399800028,0.0986178274457638,-0.8805174570907555,0.9347858166654527,0.210946425624851,0.5814011027453424,0.9854830053914299,-0.2498120889510343,0.6176123711729962,0.9006961376910277,0.0,0.0,0.0,0.0
-0.0023899357478804934,0.04134282903376915,0.7207583044447552,-0.008692356620472096,-0.5279034600832412,0.0019143804333196517,0.849257743512581,-0.10122616262217539,-0.8706624968547428,0.9542169662980114,0.10892026244734694,-0.8994595491559828,0.9727613189562649,0.2567560589817506,0.5770745341460715,0.9685300750321637,-0.2683745470056693,0.6036190754947587,0.9128719087685152,0.0,0.0,0.0,0.0
-0.0024258773766927155,0.04159296902533664,0.720619713192512,-0.008918454146347232,-0.5280056087968384,0.001877170312636669,0.8491919774034237,-0.10158717214717426,-0.8707692824778135,0.9540992771978463,0.10895032420345135,-0.8994770350764515,0.9727733192296222,0.25677923716052603,0.5770783074076832,0.9685279950797806,-0.26845755431856716,0.6034938128269024,0.9127919412572137,0.0,0.0,0.0,0.0
-0.0024258773766927155,0.04159296902533664,0.720619713192512,-0.008918454146347232,-0.5280056087968384,0.001877170312636669,0.8491919774034237,-0.10158717214717426,-0.8707692824778135,0.9540992771978463,0.10895032420345135,-0.8994770350764515,0.9727733192296222,0.25677923716052603,0.5770783074076832,0.9685279950797806,-0.26845755431856716,0.6034938128269024,0.9127919412572137,0.0,0.0,0.0,0.0
-0.0011693765183696141,0.04371162933202826,0.7213666532469097,-0.009448420029378655,-0.528725980598683,0.0021518976615923107,0.8487372585997174,-0.1074894068358888,-0.8748356844473055,0.9674661781117638,0.10298928987415994,-0.8946964802837222,0.9738637039288589,0.2521812145761582,0.5838116551900964,0.9706351244297637,-0.27784085813158166,0.6141375128238596,0.8961866075886561,0.0,0.0,0.0,0.0
0.001548026632045653,0.04763042274562053,0.7236376997761532,-0.011561431442783578,-0.5316722107722781,0.0035305442447286896,0.8468639376268469,-0.11966033245816093,-0.8737023807712163,0.98721926930312,0.08986610263981117,-0.8728410964983317,0.9677232706111782,0.25690585814589184,0.6015002494175702,0.9670981163986073,-0.2892344313977646,0.6458544408119042,0.8615544185112294,0.0,0.0,0.0,0.0
0.0019578588616964076,0.051871408213588266,0.7269723520269092,-0.008336631923620436,-0.5250563072102961,0.0019263989165631851,0.8510244789746483,-0.10990318217897067,-0.8614927341426577,0.9382970677341314,0.08261364828336884,-0.9022594154214573,0.9970823980093417,0.19220757261642277,0.6171059310011215,0.9456242284817047,-0.22544659498998126,0.6073076351918522,0.9073460092100073,0.0,0.0,0.0,0.0
0.003994695194056102,0.05609035937427517,0.7294558316875138,-0.0073338955790565,-0.5228914315742847,0.0013508016735483842,0.8523666699822731,-0.09623333505205281,-0.8517187494860484,0.9126594108228238,0.0731688925284532,-0.9112087979418134,1.01393974866532,0.15871736302032138,0.6337152715876045,0.9328473821979497,-0.18042258117042492,0.5967933671010452,0.9433664417549048,0.0,0.0,0.0,0.0
0.007232702385352425,0.060122845912019794,0.7311310876860354,-0.007856614172173136,-0.5233573433579028,0.0017972635826763032,0.8520751930497227,-0.08313918268806261,-0.8494492072734574,0.9045459686675118,0.061866528833961404,-0.9096577422642611,1.0261914641647454,0.14390478280573776,0.6503831058199738,0.9290318977242744,-0.1453481580005796,0.6043267349620308,0.9737895732616024,0.0,0.0,0.0,0.0
0.011190054365936387,0.06370722971960989,0.7322368481533309,-0.009018091254580491,-0.524863695963492,0.0027211023189751813,0.8511341670335157,-0.06991149474128981,-0.8513039726601668,0.9035545616516988,0.050738331507902266,-0.9060322608419871,1.0395229403595416,0.13869776501051495,0.6668784930399184,0.9292886504525532,-0.12097662422251988,0.6189559365098212,1.0009331287773136,0.0,0.0,0.0,0.0
0.015572227784918145,0.06678417245924848,0.7329919423079947,-0.010972997645180331,-0.5277383242482155,0.004103862059582657,0.8493262110394099,-0.05745107901967898,-0.8530810121389756,0.9082579509918417,0.04009660100198739,-0.8962755501937865,1.0492832361531361,0.14571818406618678,0.6839357949263923,0.93172189904939,-0.10575923496058798,0.6420171223666552,1.0263872087795303,0.0,0.0,0.0,0.0
0.01957006611643963,0.06983788836862663,0.7333531150206505,-0.013743048213863227,-0.5319151272077871,0.005878438858282452,0.84666573689379,-0.048654601535480985,-0.8530543113105994,0.9163611632191966,0.02896825814982354,-0.8763332030704839,1.0473258472386031,0.1631864818784582,0.6987930669604993,0.9387618081370904,-0.09812176605945559,0.6708309874965848,1.0472799822335246,0.0,0.0,0.0,0.0
0.02121249931567735,0.07380849542258962,0.734492445248265,-0.013490786857806192,-0.5311496491505698,0.005853149426221894,0.8471503936840129,-0.041576710916019013,-0.8584907288663387,0.9141359668581607,0.018723530506328537,-0.87594760136,1.051112233756554,0.13528336265778443,0.710871008593179,0.9382930680511704,-0.08861359970354528,0.6683976897764026,1.0573229469626364,0.0,0.0,0.0,0.0
0.020549621266908978,0.07843241081920341,0.7361482324683797,-0.010329790087250225,-0.5244562535325162,0.0044043009041817875,0.8513633394156316,-0.034961164427898386,-0.8712515606664591,0.8970800490242469,0.0085405740506243,-0.9018122727391235,1.0671933340462032,0.061175252446923456,0.7151467986940915,0.9314207245323974,-0.07360783700666787,0.6303140218635795,1.0593190842739408,0.0,0.0,0.0,0.0
0.020822579463378527,0.08249681929390112,0.7372517535457858,-0.009171167261311522,-0.5220076237727909,0.003649777149785868,0.8528837022366569,-0.0293049447239971,-0.8787610106979465,0.8898360194715424,-0.0009281729348936292,-0.9066939203005884,1.0684993011114094,0.020618375640525627,0.7210339817269118,0.9294735052547958,-0.06495267184342995,0.6172457905584274,1.064485122467698,0.0,0.0,0.0,0.0
0.022650035917606993,0.08535365250901933,0.7384282145788265,-0.010618249828722583,-0.5240855430969268,0.004606589200818691,0.8515869747849065,-0.023388747289812092,-0.8823810913216216,0.8954618174709866,-0.010162081015077868,-0.8890677377487148,1.0594218174104801,0.018746700478875257,0.7343707429583987,0.9269409552352703,-0.052643032338852584,0.6330852508017879,1.0788526204384925,0.0,0.0,0.0,0.0
0.024621954311928058,0.08772454191571,0.7390132106715791,-0.012502429009422318,-0.5268423799221695,0.005948956130190896,0.8498502255737594,-0.016271563311059056,-0.884190127529156,0.9014804596903757,-0.01866191265973657,-0.869773072181941,1.0491104194557586,0.02528302031859099,0.745512673062045,0.9293294777685982,-0.03923163165607827,0.654344081334757,1.0926766095489995,0.0,0.0,0.0,0.0
0.025438315473148967,0.09030484314738238,0.739226520569366,-0.012140696726814927,-0.5260581325784962,0.005763159998785508,0.8503424196274353,-0.007018680224562939,-0.886808841151145,0.8983275994344018,-0.02515734241752594,-0.871518661017812,1.0507707543662024,0.001878821847679353,0.7504026276210001,0.9330992582617318,-0.028677410250985726,0.6527612842088304,1.0981813624480434,0.0,0.0,0.0,0.0
0.025502459903900907,0.09284441696450427,0.7388790538093678,-0.010562558307196906,-0.5231484319313157,0.004795800502360223,0.8521626316774012,0.004353514820648285,-0.8872990125178613,0.8887700776648011,-0.03055301679513128,-0.8868027539170878,1.0601317450573975,-0.03707298040590388,0.7487459474238032,0.940505986572906,-0.02497268382757843,0.636031908697669,1.0959034414735498,0.0,0.0,0.0,0.0
0.026318351200014498,0.09473095179232618,0.738081125990673,-0.010336844255178654,-0.5225980560057228,0.0047491848381673715,0.8525032942770698,0.017032910527109757,-0.8830498340644225,0.8861027092803211,-0.03575073939653821,-0.8916136267834884,1.0639918175675016,-0.0538154876464908,0.7479923302111783,0.951734870058216,-0.01806995818651839,0.6368091436334687,1.0941417404597318,0.0,0.0,0.0,0.0
0.028545709633499464,0.09548775923601945,0.7373057419464979,-0.013199545730296433,-0.5267427474309957,0.007033302927195892,0.8498931595625973,0.027302834730772087,-0.8727959310709348,0.8952905905446985,-0.041898672215936204,-0.8705790415286581,1.0537989727372832,-0.02477746583344933,0.7532904594157779,0.9633813832679559,0.003066331962042323,0.6740119368887335,1.0989240326589969,0.0,0.0,0.0,0.0
0.03059715390636158,0.09632726871000011,0.7360655093893649,-0.017887232562104893,-0.5332302675567656,0.01074292590404375,0.8457127870711365,0.032582055356163916,-0.8597059369737836,0.9076376194175335,-0.05031814517633182,-0.8315581231924238,1.0258833864359012,0.033332939583694904,0.753944169754596,0.9808739498540229,0.02884513805987394,0.7274657566054985,1.101384457021108,0.0,0.0,0.0,0.0
0.029434160356010965,0.09923310189078617,0.7369249245253787,-0.017073062784446036,-0.5316598179322244,0.010208911027160974,0.8467243510488356,0.042218802679298575,-0.8521506310906304,0.9051216293758652,-0.0566811182723464,-0.827059566519949,1.0126877293516214,0.00094964985046702,0.7559947839718012,0.9807716878812953,0.04115148208781815,0.7230821171067969,1.092719740881669,0.0,0.0,0.0,0.0
0.0255354096776803,0.10359111209322808,0.7393457839638268,-0.013300490096224771,-0.5242761191440878,0.007848286438695682,0.8514082758925888,0.05074740926577243,-0.8481871301297965,0.889235230137984,-0.06461375299045762,-0.8419900104596713,1.0043558210243642,-0.08457816000906712,0.7531126027777986,0.9689755198961507,0.05668022074034967,0.6813237020387489,1.0748962004331253,0.0,0.0,0.0,0.0
0.021953786151733164,0.10811395617928059,0.7410053886925032,-0.011487157281001989,-0.5210889667913311,0.006224446429074827,0.8534023612415167,0.05538335554095492,-0.8399477509401998,0.8830829448642478,-0.0729006722283636,-0.8322842962124735,0.9732383515109099,-0.13511731600731877,0.7491222515229884,0.9646115014443125,0.06888545371757607,0.6645816885753031,1.057499587532156,0.0,0.0,0.0,0.0
0.018757613739312028,0.11214043284666372,0.7419187520506506,-0.010584052011593246,-0.5194582201968706,0.005225336876212056,0.8544143205538198,0.060770765416533735,-0.8308678672626549,0.8798725012454519,-0.08071070482732376,-0.8159456370364058,0.9369067661478089,-0.1697178554526459,0.7433749799046575,0.9665633017904436,0.08735529360571559,0.662619871238936,1.044687482206327,0.0,0.0,0.0,0.0
0.015971410292205925,0.11552417636442965,0.74221157180811,-0.010104236216033785,-0.518489202997983,0.004620266529462472,0.8550119905137025,0.06929640995510483,-0.8202460907277068,0.8760979257491066,-0.08755449286622394,-0.7992204372159696,0.9015807954788316,-0.19509968034345115,0.7360810098509988,0.9730219764155903,0.11119226902461146,0.6677836120625819,1.0361332442540638,0.0,0.0,0.0,0.0
0.013502413074317167,0.11826036713333962,0.741841239948829,-0.009764461885846855,-0.5177807536113358,0.004157349545704668,0.8554475220131927,0.08042604358586691,-0.8078766354688118,0.869669138023311,-0.09306948325237463,-0.7852478379012269,0.8698869062218015,-0.21525269926347282,0.726741735908042,0.9841824098985441,0.143854188372883,0.677363661844468,1.0307188441802573,0.0,0.0,0.0,0.0
0.011430771845223918,0.12028868273736475,0.7408908337532458,-0.009550344283094665,-0.5173645670838248,0.0037486051714298923,0.8557035956506841,0.09213037630283324,-0.7940451871500184,0.8590195582962623,-0.09692822132774763,-0.7746263612072942,0.8433189796711651,-0.2307770200613058,0.7164131796131475,0.9990991359862779,0.19161646686677788,0.6920530063378133,1.0286555087990563,0.0,0.0,0.0,0.0
0.010073177932746317,0.12149482549048163,0.7398043763133917,-0.009459642534500788,-0.5175108922801444,0.0032085297408101583,0.8556183126087418,0.10153337814803245,-0.7794208244026338,0.8429254904301152,-0.0983200962043186,-0.7670234242889761,0.824259647543423,-0.24331252915563523,0.7096581072216024,1.0136691554369417,0.25015081242956416,0.7102976605449706,1.0304909483444222,0.0,0.0,0.0,0.0
0.010133989944449098,0.12155256240230777,0.7397661927538957,-0.009469748978477558,-0.5174779470887061,0.00318538745199423,0.855638212936942,0.10159785025657739,-0.7794222983289453,0.8429311660257436,-0.0983864285856743,-0.7670739067774066,0.8241140692399571,-0.24334427052039106,0.709612251123341,1.013604221903937,0.2501637258761279,0.7103213266571767,1.0305009634707765,0.0,0.0,0.0,0.0
0.010133989976805155,0.12155256240938102,0.7397661927536467,-0.009469748932479812,-0.5174779472799013,0.003185387513860286,0.8556382128215885,0.10159785002538466,-0.7794222971705292,0.8429311649817833,-0.09838642876831104,-0.7670739059708266,0.8241140687662685,-0.24334427104671275,0.7096122515653814,1.0136042227348954,0.25016372532585857,0.7103213275657885,1.0305009634735014,0.0,0.0,0.0,0.0
0.010133989976805155,0.12155256240938102,0.7397661927536467,-0.009469748932479812,-0.5174779472799013,0.003185387513860286,0.8556382128215885,0.10159785002538466,-0.7794222971705292,0.8429311649817833,-0.09838642876831104,-0.7670739059708266,0.8241140687662685,-0.24334427104671275,0.7096122515653814,1.0136042227348954,0.25016372532585857,0.7103213275657885,1.0305009634735014,0.0,0.0,0.0,0.0
0.011414519513942945,0.12235472941919288,0.7398950606255166,-0.009585158635784425,-0.5180306014859006,0.0033588216328997653,0.8553017823992425,0.09936635241978822,-0.7853467905955807,0.8568762785666174,-0.10086610172058139,-0.7668913484723331,0.829066561243423,-0.25114800085787437,0.7168287721012423,1.0140886615606377,0.24973592255628368,0.717504739152399,1.0270657792093616,0.0,0.0,0.0,0.0
0.013478348326297487,0.12387653933603474,0.739869096267777,-0.009848515593144817,-0.5188432368549951,0.00397285033194786,0.8548034386750459,0.09436400540574981,-0.7972664006604356,0.8813784754226595,-0.10635734401541412,-0.7663961091155201,0.8363050641523365,-0.263298129052227,0.7267055147889054,1.017333339209001,0.2504340615530485,0.7287013069588513,1.0228911322976704,0.0,0.0,0.0,0.0
0.016360767002368305,0.1259039737483142,0.7407975431932278,-0.008915832843864968,-0.5199266916829581,0.0026518129014975636,0.8541602373610293,0.09247197043464761,-0.8039622309969703,0.9076628159903828,-0.0920355825112585,-0.7845831352538783,0.860805839189427,-0.19984042714672623,0.7100645668734917,1.0228777892174243,0.22277034362405962,0.7401895596689777,1.0067068584668228,0.0,0.0,0.0,0.0
0.01921005144788306,0.1281850029882185,0.7411601798644684,-0.008058225059701456,-0.5210572240215565,0.0015915846787360078,0.8534822207650532,0.0892449212832936,-0.8127474322877374,0.9348299309337439,-0.07606993517294586,-0.8011212690868506,0.875430146563769,-0.13915274662901625,0.6947186368886058,1.029008734765841,0.1942390525154143,0.7493696743156919,0.9943258338124309,0.0,0.0,0.0,0.0
0.021921591549748473,0.13070505362599483,0.7410910587787054,-0.00760619475067585,-0.5219833735369194,0.0011596157350936144,0.8529209569730237,0.0839912921318995,-0.825405340610272,0.9641175105322279,-0.061790240638311324,-0.8151814365415222,0.884598499540325,-0.09610756799026114,0.6856135783519138,1.0358782251143326,0.1700470751588436,0.7572275607656849,0.9847368364356865,0.0,0.0,0.0,0.0
0.024221915242825805,0.13321364648760406,0.7408241280667219,-0.007401484647664987,-0.5227803638080325,0.0010437075765880653,0.8524346426068371,0.07798117251642785,-0.837991015000386,0.9904777809990662,-0.049818157583550696,-0.8274972293195094,0.8910865752890432,-0.06555423096122076,0.6797303123547863,1.043928656484177,0.14884095907501155,0.7633958530270806,0.9770969819501847,0.0,0.0,0.0,0.0
0.025991348079748268,0.1356129235622551,0.7405125915980745,-0.007327605256005715,-0.5234635548933435,0.001076149336909184,0.8520158770834264,0.07181032632722004,-0.8488362873566883,1.012087134396494,-0.03978021634471766,-0.8386150206093379,0.8957766843884926,-0.04223829331895649,0.6749108255068497,1.0525256505561087,0.12947947248947084,0.7677224981559898,0.970582011895734,0.0,0.0,0.0,0.0
0.027212459560740823,0.1378949948085635,0.7402432233789271,-0.007319532585317823,-0.5240452747066323,0.0011734478753037082,0.851658145925034,0.06569369399146084,-0.8574328258679668,1.0287329748468614,-0.030955803634420367,-0.848969563689658,0.8990167218456475,-0.022846376755706787,0.6700155319714655,1.0611759941375936,0.11120000805337771,0.770315127896552,0.9645520188785287,0.0,0.0,0.0,0.0
0.02792105584235944,0.14009986030911464,0.7400505610720066,-0.007346611394437129,-0.5245369246291958,0.0013008395821448877,0.8513550081005844,0.05962829927804411,-0.8638710480100714,1.0409257580939246,-0.0227158305244671,-0.8588394015836291,0.9009537860804303,-0.005529259459660891,0.6645597999174911,1.0695784625564755,0.09349003174501949,0.7713747900556963,0.9585870275571636,0.0,0.0,0.0,0.0
0.028172777483191597,0.14229038786514406,0.7399308881094624,-0.007397529667426255,-0.5249485855879801,0.0014475392182734443,0.851100560259603,0.05349942696235402,-0.8685189782319559,1.0494253293661742,-0.014663989214651651,-0.8683312429091806,0.9016722380300799,0.010669069580107122,0.658411328490753,1.077537543571332,0.0759510137327467,0.7710743052601474,0.9524758914905125,0.0,0.0,0.0,0.0
0.028022588227089806,0.1445385640328107,0.739853668454667,-0.00747073920477284,-0.5252884057595718,0.0016127030251632986,0.8508899329638672,0.04714269063526934,-0.8718465428606761,1.0550027586083828,-0.006621878526971407,-0.8773560221849676,0.9012704143003798,0.026184358251073916,0.6516087288364678,1.0848607724988453,0.05822205678422192,0.7694917982506994,0.9461898118191577,0.0,0.0,0.0,0.0
0.027512865698382672,0.14691822763016704,0.7397694639930265,-0.0075691475485597445,-0.5255622435150334,0.0017984102665100344,0.8507195788962107,0.0403778169269419,-0.8743302716085671,1.0583204740392052,0.0014369054785143883,-0.8855773309106552,0.8999280758333983,0.04112864507753948,0.6442789436503238,1.0912380902115755,0.039957373779304986,0.7665814824346061,0.9398594763119228,0.0,0.0,0.0,0.0
0.026667284227498343,0.14950023548417798,0.7396156355764902,-0.007697753153475723,-0.5257741365864537,0.0020068742744532896,0.8505870175054424,0.033028123547082344,-0.8763957897522484,1.0598664196049028,0.009447321214293038,-0.892360277978195,0.8979795888251109,0.05536305113771725,0.6366392093940808,1.0960813156992297,0.02084987401359094,0.7621753073538013,0.9337560218078155,0.0,0.0,0.0,0.0
0.025490797805430128,0.15234711470711465,0.7393242164280264,-0.007863196418984135,-0.5259281047581298,0.0022402917432563082,0.8504897294268187,0.024936017232508892,-0.8783712892681198,1.059921331981934,0.017292226429085934,-0.8968161020048274,0.8959602525154428,0.0685005038802931,0.6291093427127995,1.098304360500053,0.0006931533962354214,0.7560334002059861,0.9282424469358328,0.0,0.0,0.0,0.0
0.023980721089393777,0.15550753947422283,0.738840461991966,-0.008072625642349108,-0.5260313632297432,0.0024999868554430125,0.8504231815276551,0.0159812597929112,-0.8804389104042601,1.0585872178580888,0.024838521654640806,-0.8981249168406347,0.8945122639657062,0.07996826631103791,0.6225522451382642,1.0961263740344802,-0.020581108140523014,0.7479832934560595,0.9236019636881729,0.0,0.0,0.0,0.0
0.02214330220375425,0.15902018541940904,0.7381408733512752,-0.00832646457929269,-0.5260907754507336,0.002783595964856171,0.8503831004710524,0.006076503946969972,-0.8826580003099089,1.0559181951284367,0.03197950072210809,-0.8963618885854429,0.8937055420232644,0.08967004622556984,0.6171029167391405,1.0896201404404144,-0.04301727157885121,0.738031333989842,0.919807891268688,0.0,0.0,0.0,0.0
0.019996997641075875,0.16291142056184815,0.7372357638068509,-0.008616986198883732,-0.5261120897403085,0.0030844851457227916,0.8503659815216738,-0.004824472253722758,-0.884970081101275,1.051941931913644,0.038679575652923036,-0.8925013059440007,0.8930546813916574,0.0980651691663702,0.6121284760267255,1.0806728307445428,-0.06662953391926082,0.7263887933503742,0.9164949486042382,0.0,0.0,0.0,0.0
0.017562277515337604,0.16718235037330212,0.7361578475635617,-0.008933638917402386,-0.5261038586834387,0.0033940145137034664,0.8503666271906315,-0.016693944676795545,-0.887161555406824,1.0465466992217296,0.04500193155414216,-0.8875985104988909,0.892229733708799,0.10561788384853639,0.6073701830392183,1.0704044934941745,-0.09125957799164637,0.7134157538811221,0.9131517970241796,0.0,0.0,0.0,0.0
0.014858297830054216,0.1718021543106468,0.734951278158471,-0.009262359261780206,-0.5260759683718608,0.0037017665034705253,0.8503790808382273,-0.029411588700138547,-0.8888894972063586,1.0394693819618517,0.05112197845159459,-0.8824903075508548,0.8912105092510788,0.1128612632921734,0.6026999322068253,1.0593439104020264,-0.11657262298023008,0.6995391077755687,0.9092739863075348,0.0,0.0,0.0,0.0
0.011911168759280721,0.17670101607179503,0.7336716601032347,-0.009581872129319147,-0.5260396565209934,0.0039918895033089615,0.8503966911459416,-0.04273677388090147,-0.8897094919628343,1.0303590374340266,0.05731593306564858,-0.8777714731665329,0.8903298612491982,0.12061711280502431,0.597970013594103,1.0476270265210053,-0.1421096527555184,0.6852432770422345,0.9044000814892588,0.0,0.0,0.0,0.0
0.00876610473165937,0.18176043779538104,0.7323821029489667,-0.009857610682840188,-0.5260084969932062,0.004235124791768361,0.8504116369856258,-0.05626672291845376,-0.889126684978016,1.0188756798964953,0.06387682492479907,-0.8738584386156554,0.8903124390737757,0.1302768713870227,0.5929130470199081,1.0351288456655965,-0.16736998684845036,0.6710312881909699,0.8981968833423586,0.0,0.0,0.0,0.0
0.00549448996563031,0.18679683091982796,0.731115409506205,-0.01002395251301682,-0.5259878850239558,0.004341502002931687,0.8504219050238542,-0.06928526417680003,-0.8867426108144646,1.004811603980575,0.07104299950194998,-0.8711390182691366,0.8922561362516838,0.14377445715184864,0.5871271451979293,1.021539918451245,-0.19212390233151264,0.6570421964411183,0.8908418784809143,0.0,0.0,0.0,0.0
0.002133210201060511,0.19152653243308218,0.7297967007400351,-0.010011661510534495,-0.5260519803195425,0.004274685632660602,0.8503827418865156,-0.08097207771682666,-0.8819185961138895,0.9872989388398299,0.0801248272994749,-0.8706011476375679,0.8981679825259095,0.16470175847837365,0.5799750710020323,1.0061241968809407,-0.21553752845039115,0.6428718968742372,0.8843688503951133,0.0,0.0,0.0,0.0
-0.0008203411233289291,0.19555449741005304,0.7277958812321897,-0.009732124111309607,-0.5261888538833769,0.003908965308712962,0.8503030611490209,-0.09018902031058525,-0.8783292288884098,0.9706961834279955,0.09135163262008657,-0.8734157906033032,0.9087568319273341,0.1964539024762859,0.5724381023188294,0.9875157689313583,-0.23770775108609737,0.6255453297977189,0.886178472293703,0.0,0.0,0.0,0.0
-0.003029932526533231,0.19851070571686716,0.7252381592232038,-0.009115236740024154,-0.5265863935150441,0.0031475004229786427,0.8500669243448304,-0.09583033066407187,-0.8756249302476695,0.9563373856306543,0.10502657578605833,-0.8831974961081976,0.9291926916607246,0.24351942884845895,0.5637421537027919,0.965142626006291,-0.25866923643416323,0.6060026728423125,0.8970382843924134,0.0,0.0,0.0,0.0
-0.003997147978968904,0.20008054645840953,0.722664166423471,-0.008301881884767466,-0.5274007773920114,0.002048263490942213,0.8495736009199821,-0.09719984908535273,-0.8737744891921125,0.9474132603369574,0.11954999734652458,-0.9041546277867422,0.9663339614279942,0.2984463096791921,0.5573442620154886,0.9406240510737325,-0.27698604938104154,0.5885460630030084,0.9134696824099529,0.0,0.0,0.0,0.0
-0.0040315203742713555,0.20036688377524922,0.722488382211202,-0.008551777492804176,-0.527516649440025,0.0020040173601464637,0.849499285214357,-0.09761510346571227,-0.8739131098623214,0.9472596515967812,0.11959088552967481,-0.9041764500632152,0.9663444659567135,0.298477898300212,0.5573462288162631,0.9406200929248264,-0.2770803992111429,0.5884025884689629,0.9133601225568976,0.0,0.0,0.0,0.0
-0.0040315203742713555,0.20036688377524922,0.722488382211202,-0.008551777492804176,-0.527516649440025,0.0020040173601464637,0.849499285214357,-0.09761510346571227,-0.8739131098623214,0.9472596515967812,0.11959088552967481,-0.9041764500632152,0.9663444659567135,0.298477898300212,0.5573462288162631,0.9406200929248264,-0.2770803992111429,0.5884025884689629,0.9133601225568976,0.0,0.0,0.0,0.0
-0.002853742933585727,0.20263377421346238,0.7232956202538435,-0.008841832697573512,-0.5276299330080391,0.0021164514571168557,0.8494256862267058,-0.10372946376900782,-0.8809780082633774,0.9633635952070012,0.11369754040897638,-0.9029256728522215,0.9702885484318038,0.2906462375803405,0.5631971936444456,0.9427650224879958,-0.28739989100726576,0.5977881565893577,0.8937908091964964,0.0,0.0,0.0,0.0
-0.00019407441215288628,0.20698005387683835,0.7260237684683476,-0.010057765223875057,-0.5290454529430585,0.00310746217591525,0.8485281926711691,-0.11688513749189618,-0.8869183692424102,0.9907095802406508,0.10024920142244506,-0.8899593536627541,0.9725251968653557,0.28425894197098805,0.5814551455283833,0.9362313288947495,-0.3030374899907752,0.6279513969245786,0.8484086146040701,0.0,0.0,0.0,0.0
0.0012703663645707258,0.21133683324953523,0.7296393144340088,-0.008847968252246012,-0.5262744015602165,0.0023180251458644937,0.8502656023147509,-0.10697533220834776,-0.8671066493595151,0.9479647494287639,0.09110825869525753,-0.8973842351510333,0.987679458326775,0.2460076433955141,0.6025490033748804,0.9170640559482583,-0.2482428676519506,0.6070030861257824,0.9014032947771897,0.0,0.0,0.0,0.0
0.0037142727065299004,0.21595969581766208,0.7324027713070388,-0.008501484459501022,-0.5251815647544179,0.002148276713195619,0.8509450239065092,-0.09446451849616663,-0.8562542836411429,0.9235345870097175,0.07975820735121426,-0.8994801305882678,1.0009414053390226,0.21835993280038146,0.6217794166572976,0.9064211871830149,-0.19954218859588924,0.6030934762331324,0.941688982823725,0.0,0.0,0.0,0.0
0.006741653399609773,0.2207165361774243,0.7341810782296608,-0.00881641102373651,-0.5251706914370615,0.0024691565348252576,0.8509476593881588,-0.08284491276473098,-0.8532367125144856,0.9121361452952957,0.06691544080582909,-0.8987088710023579,1.0124472486872835,0.19778403059793595,0.6374819856862499,0.9057573038565025,-0.16197816686762467,0.6082845663761681,0.9717200167135748,0.0,0.0,0.0,0.0
0.009915735132362189,0.2253023147372719,0.7354481360521066,-0.00942996521216236,-0.5255702351605478,0.003029223671951226,0.8506925575513925,-0.07231519011537663,-0.8543566837568112,0.9072068980958072,0.05394140087719465,-0.8967456516601191,1.0226454301353802,0.18083952443766904,0.6513071522445456,0.9089619080357471,-0.13813812620795232,0.614725007904702,0.9950596971863909,0.0,0.0,0.0,0.0
0.012972545614127053,0.2296320262661417,0.7365281671346834,-0.010038675543592146,-0.5259548762220421,0.0035928194228166763,0.8504456389565308,-0.06307537745492166,-0.8576901835836825,0.9052742001083401,0.04157135219937586,-0.8947682530460876,1.0319403126508886,0.16430091156509946,0.6644942870453103,0.9123619720857499,-0.12262225743297701,0.6203982396351314,1.013758347859326,0.0,0.0,0.0,0.0
0.015743553965345033,0.23371089232462078,0.7375442038072733,-0.010523740917608838,-0.5261716059668765,0.004070032170774524,0.8503035497923468,-0.05496505808579663,-0.8623606823298545,0.9045810966968751,0.02996781786174096,-0.8929079696716721,1.039888562924624,0.14667401502848365,0.6772013561571135,0.9149156144581627,-0.11090705169005588,0.6248439565136855,1.0293983260938644,0.0,0.0,0.0,0.0
0.018164171041354215,0.23754802226532865,0.7385123372281045,-0.010877212004225898,-0.5262164155418801,0.004450283992345139,0.8502694662550561,-0.04753178256070755,-0.8678575079336664,0.9041719998110704,0.019130938342888672,-0.8909996165817209,1.0461232030425873,0.12780900289906477,0.6892036445731763,0.9167290091465051,-0.1006942498737629,0.6281802797136719,1.0430780084832132,0.0,0.0,0.0,0.0
0.02024393115314203,0.24114050647120305,0.7394178175047228,-0.011131617735426822,-0.5261456166356993,0.004751696686482498,0.8503083549867259,-0.040289661881595475,-0.8737766456289185,0.9035760616343091,0.009047203552439263,-0.8888788860713224,1.0505925095545392,0.10822551388656454,0.7003243914107277,0.9181306566059881,-0.09096580006960056,0.6308011955094789,1.0555224254354658,0.0,0.0,0.0,0.0
0.022028984126608392,0.24447955838571483,0.7402368364730009,-0.01132965946349349,-0.526031341938585,0.005000647202324494,0.8503750111817083,-0.03288072346549483,-0.8796781644033002,0.9026263612168226,-0.00029257077257202786,-0.8864436806129988,1.0534544877758205,0.088679186430175,0.7104723245891853,0.9194626771346482,-0.08128816783720702,0.6331932156667475,1.067131486529626,0.0,0.0,0.0,0.0
0.023568502988480705,0.24755966655488323,0.7409441757570521,-0.011510808476021981,-0.5259337485945674,0.005224833423076082,0.8504315930709511,-0.025119985638479666,-0.8849756403609295,0.9013650691618389,-0.008911283288034316,-0.8836467757273171,1.0549125108177213,0.06988684062733638,0.7195720717990802,0.9210482581709372,-0.07141324304190938,0.6358083882987373,1.0779353065580934,0.0,0.0,0.0,0.0
0.02488827825485094,0.25038648699706306,0.7415173054462691,-0.011705277982786292,-0.5258785272162321,0.005453773197310626,0.8504616495987016,-0.01698146065785612,-0.8888727223538024,0.8999852605327053,-0.016874440812484272,-0.8804868235683235,1.055083845175891,0.05238890717819798,0.727458015763911,0.9231795976436252,-0.061033517422494674,0.638988758217528,1.0874726647375286,0.0,0.0,0.0,0.0
0.02597650688107499,0.2529850199243457,0.7419386278105172,-0.011929737365011447,-0.5258457036030892,0.005717419146636031,0.850477094627995,-0.008558976789985007,-0.8904249761473196,0.8987836681018279,-0.0243119253374939,-0.8769938537609804,1.0539147452763764,0.03646355173173775,0.7338082900304019,0.9261283516593539,-0.049642119820486316,0.6430251569680823,1.0946130427974319,0.0,0.0,0.0,0.0
0.026794024185028204,0.2554113252673719,0.7422014173116785,-0.012184653418162062,-0.525808107431987,0.006026221086397306,0.8504945931863936,6.198089659188721e-07,-0.8888125428782333,0.8981352559874523,-0.03139286052334715,-0.8730499412725551,1.0510498261582784,0.021925353006642233,0.7383515229587146,0.9302072808080672,-0.03671106080969465,0.6485238166318921,1.0974482409975002,0.0,0.0,0.0,0.0
0.027299349909617014,0.2577603539727721,0.7423216468656783,-0.012448276462537856,-0.5258084388786309,0.00632418467019174,0.8504884071551985,0.008596401743429653,-0.8840197557935767,0.8982211952455745,-0.03821161058287344,-0.8681013094226075,1.0456680748583291,0.007645367517456758,0.7413721019261987,0.9358256320116694,-0.022731105138832954,0.6555003623690959,1.0958828041534872,0.0,0.0,0.0,0.0
0.027439740048333036,0.26015776055548384,0.7423648795303708,-0.012661414109124913,-0.525917749051849,0.006486806201061486,0.8504164457313274,0.017239638214994427,-0.87678713534688,0.8989461634094622,-0.04476499099530064,-0.8613143301246159,1.0366229189058331,-0.008674708475827693,0.7437865483587374,0.9431098962243682,-0.009050894037544024,0.6631626803211466,1.0915878692278154,0.0,0.0,0.0,0.0
0.02711083311694268,0.26270041577034603,0.7424781169361552,-0.012751640882421388,-0.5260088052002659,0.006456546666829555,0.8503590097786543,0.025934739174647673,-0.8680131366991842,0.8996951883551237,-0.051167903299452186,-0.8524240760288075,1.023208183500611,-0.02886164354830645,0.7460589827838541,0.9508849954333005,0.0038647589432499914,0.6701841571471056,1.0853128475681513,0.0,0.0,0.0,0.0
0.026163333574899774,0.26536071262582644,0.7428606054110193,-0.012744725278554627,-0.5255809661371832,0.006472789439769448,0.8506234907459044,0.03432314724073659,-0.8589627846079428,0.8988184895500718,-0.057990911456371724,-0.84247208309658,1.0060654182496702,-0.050310404965477645,0.7463896396546854,0.9561294900977283,0.01784749436081562,0.6741016717041043,1.0771691862597228,0.0,0.0,0.0,0.0
0.024539001717879795,0.2680260641143234,0.7436400095123781,-0.012828285735570795,-0.5242343953953417,0.006961110750217216,0.8514489278322513,0.041631942892664926,-0.8511235717588715,0.8953479081991002,-0.0659898268469383,-0.8321478364877257,0.9860310055254843,-0.06591224144020691,0.7419243598435765,0.9561077616223908,0.036581144983164754,0.6737874965806078,1.0674616084580537,0.0,0.0,0.0,0.0
0.022224847315065684,0.27114543045974204,0.7441609094553263,-0.012409163300284253,-0.5227218893642531,0.006802394081333148,0.8523858084696241,0.05002867900549955,-0.8432263334815131,0.8910225834842803,-0.0736774112181226,-0.8209189935689077,0.9602284035529378,-0.09246461957835453,0.7363454254129452,0.960828181479968,0.05338414406222908,0.6711186302655925,1.0563215433196544,0.0,0.0,0.0,0.0
0.01970160115109048,0.2744402528154936,0.7448155135425478,-0.011437395070762179,-0.5215571234387942,0.005775331502701988,0.8531201548025223,0.059964799342415095,-0.8343837581056618,0.8889628212766348,-0.0796727523815701,-0.8078971267686766,0.930862164386035,-0.1296641481552036,0.7347970669293061,0.9658234057783983,0.0690862930469462,0.6691189186420754,1.0464455923334288,0.0,0.0,0.0,0.0
0.016958883128118284,0.27737532217842265,0.744685631508051,-0.010725968052408542,-0.5203924845397007,0.0050447679394341255,0.8538449308629602,0.06957267356048313,-0.8244141230848612,0.8840050935228543,-0.08536230978855792,-0.7958098309445182,0.900282578982559,-0.1585382963713577,0.7266587194431567,0.976423391424445,0.08965103330734416,0.6705566603563271,1.0372384978178824,0.0,0.0,0.0,0.0
0.01445843024607318,0.27973675179592705,0.7442515542724546,-0.010148666578037261,-0.519343767215536,0.004473086752548422,0.854493444981275,0.08047021184493677,-0.8127181180160125,0.8774679946895177,-0.08993862766679471,-0.7856997092697425,0.8728526826214008,-0.180032089679867,0.7168436790106554,0.987454740575842,0.12087932970291214,0.6767569278252762,1.031026312192874,0.0,0.0,0.0,0.0
0.012394735656874878,0.2815140641658768,0.743387374184508,-0.009707958867100503,-0.5187330868931899,0.0039007858462101496,0.8548722266904446,0.09189125972035696,-0.7996224387186079,0.8684788132741508,-0.0929685224750567,-0.777631928151189,0.8495512106292328,-0.19709046738205688,0.7071946988199825,1.001007305223132,0.16554375338010063,0.6891457160187634,1.0285167775248112,0.0,0.0,0.0,0.0
0.011067495298987907,0.28261556649944053,0.7424068756192017,-0.009407865331996538,-0.5187638073004568,0.0031951132345819206,0.8548598689589118,0.10125646753900623,-0.786283055888621,0.8557256731325193,-0.09385082288914005,-0.7717362229019092,0.8328126388116037,-0.21104143369702094,0.7012112900711653,1.0144111834792873,0.2183052233381976,0.7055808312977231,1.0298306622604991,0.0,0.0,0.0,0.0
0.01110870443171584,0.2826539806437341,0.7423756401892394,-0.00940968018300434,-0.5187380522197442,0.003178152810800872,0.8548755409080497,0.10131386350648734,-0.7862852236079338,0.8557320185905725,-0.09389376174549074,-0.7717728868646315,0.8326850009863961,-0.211076479880136,0.7011539782812312,1.01434789761199,0.2183156732217587,0.7056050845567334,1.0298408899865832,0.0,0.0,0.0,0.0
0.011108704213203167,0.28265398113651297,0.7423756402801214,-0.00940967757354804,-0.5187380511936591,0.003178152105632395,0.8548755415620217,0.10131386255537181,-0.786285227447134,0.8557320269545329,-0.09389376323267724,-0.771772898650035,0.8326850112620644,-0.21107643162451548,0.7011539505998274,1.0143479108773812,0.21831563331976267,0.7056050619473894,1.029840905858895,0.0,0.0,0.0,0.0
0.011108704213203167,0.28265398113651297,0.7423756402801214,-0.00940967757354804,-0.5187380511936591,0.003178152105632395,0.8548755415620217,0.10131386255537181,-0.786285227447134,0.8557320269545329,-0.09389376323267724,-0.771772898650035,0.8326850112620644,-0.21107643162451548,0.7011539505998274,1.0143479108773812,0.21831563331976267,0.7056050619473894,1.029840905858895,0.0,0.0,0.0,0.0
0.01239223835169007,0.28335812123411513,0.7425466598101691,-0.009509764620973542,-0.5192967857784868,0.003333860868070113,0.8545345505178233,0.09935485312667865,-0.791614032401001,0.86890504809808,-0.0960923684323025,-0.7718573762378557,0.8381921127399029,-0.21778180134811304,0.708370958287234,1.0143441894994247,0.2179150721395287,0.7128761865781779,1.0262230571098252,0.0,0.0,0.0,0.0
0.014486458764251295,0.2847126126778425,0.742633731022935,-0.009777111592119305,-0.5200895584702799,0.003958290325555149,0.8540465977900755,0.0947390741674893,-0.8028400229324847,0.8925945106535423,-0.10119114209152513,-0.7718359858380913,0.8465686285305231,-0.22731679491487503,0.7182168982775659,1.0162030747954234,0.21917330558590192,0.7245647943732172,1.0213087561346588,0.0,0.0,0.0,0.0
0.01731632244859362,0.28655226971133113,0.7434701399895581,-0.008925787365609804,-0.5209805215571532,0.0027512528049756474,0.853517461500316,0.09310214729209196,-0.8103667680941653,0.9187715770685918,-0.0872553124006081,-0.7889209988199276,0.8677850752997783,-0.16999949881102927,0.702554703997442,1.0220242623623106,0.19339499079911499,0.7350804186120166,1.005965080486333,0.0,0.0,0.0,0.0
0.020109243858769634,0.28863338034413893,0.7438325134808529,-0.008149757885534967,-0.5219046355955466,0.001810930766968033,0.852962984730313,0.09014577879192372,-0.8197438664599337,0.9456972820906849,-0.07117555826076516,-0.8047000823096306,0.8803011370721142,-0.11484523150298726,0.6880636676648639,1.0280895252895446,0.16708743320133462,0.7437455733464667,0.9937072666439376,0.0,0.0,0.0,0.0
0.022736354008110433,0.29093112274187427,0.7438245294803175,-0.007734654651746476,-0.5226805473051939,0.001434551392204037,0.8524923240994398,0.08533923285163038,-0.8321094772941463,0.9738459601396453,-0.05654948797588344,-0.8182640259864232,0.8882583142202914,-0.0749450198814608,0.679143488924996,1.0347789216439964,0.14479354505259615,0.7513553381617215,0.9839356725366976,0.0,0.0,0.0,0.0
0.02494242671660422,0.29323250330021305,0.7436411436476663,-0.007539494817747815,-0.5233630065606384,0.0013379848310569589,0.8520754245829968,0.07980910670069256,-0.8440831132439489,0.9988547572579988,-0.044189796757763106,-0.8302497977429579,0.8940062976044411,-0.04597544748297298,0.6730697756079211,1.0424884772470553,0.1251250603333997,0.757384974758198,0.9759791515049487,0.0,0.0,0.0,0.0
0.02661648594553623,0.2954596689886355,0.7434155371855896,-0.007460234141782664,-0.5239552997928079,0.0013690089928259166,0.8517119903699584,0.07407367327043854,-0.8542653074445804,1.0191958357389685,-0.033787011640041824,-0.8411472256996793,0.89819827580965,-0.02338076238710813,0.6678710216625898,1.0506431176047408,0.10694484404407581,0.7616050201716626,0.969085537105411,0.0,0.0,0.0,0.0
0.027743614152768235,0.29761214788181883,0.7432246108018326,-0.007439846022075524,-0.5244622663432288,0.0014542895202942145,0.8513999441597838,0.06830707470602204,-0.8622615260553637,1.0347495123781774,-0.02464334571735117,-0.8513485802433018,0.901055625173365,-0.004264619246334211,0.6625062381147425,1.0587958897014045,0.08953088851381583,0.764086541897087,0.9626486751059383,0.0,0.0,0.0,0.0
0.0283593087764311,0.2997300785788663,0.7430983390799853,-0.00745238043289163,-0.5248907123488226,0.0015652215577087302,0.8511355662861847,0.062490606998787654,-0.8682011497858071,1.0460325030017728,-0.01613835487061671,-0.8611027443871603,0.9026585604941424,0.012993682482434533,0.6565391464416951,1.066674419639129,0.07242739401251655,0.7650146971839237,0.956267750762079,0.0,0.0,0.0,0.0
0.028518119490204476,0.30187277052433475,0.7430313019930394,-0.007488948634581768,-0.5252477513068341,0.001694282366702076,0.8509147106512641,0.05650994737271237,-0.872457492398866,1.0537807258116179,-0.007879030350790078,-0.870497759765187,0.9030575801019691,0.02922962974998374,0.6498618191413837,1.0741011177077207,0.055295134112078294,0.7645572593046202,0.9497428416965311,0.0,0.0,0.0,0.0
0.02827419259559967,0.30410707126538317,0.7429927670223695,-0.0075489462919330315,-0.5255395115248032,0.0018419543461220822,0.8507337083014517,0.05021039565541842,-0.8754920000048523,1.0587354804853168,0.0003126376860292327,-0.8794341935543303,0.902335173083504,0.04481575249470338,0.6425288878138352,1.0808963087173533,0.03782887277471557,0.7627937819486027,0.9430508205938786,0.0,0.0,0.0,0.0
0.02766982140030515,0.3065011892923286,0.7429337821871778,-0.007635376247011432,-0.5257705076561681,0.0020105187418342357,0.8505898142600407,0.0434258923340295,-0.8777683674204217,1.0615329721040856,0.008464545735582328,-0.8875712558385156,0.9006654632951251,0.0598284711351651,0.6346837299165835,1.0867620867764944,0.01973414531878473,0.7596846336654146,0.9363247267300948,0.0,0.0,0.0,0.0
0.026729412679845597,0.3091202665240126,0.7427923903351036,-0.007752995783885254,-0.5259440624913753,0.002201949505795176,0.8504809730998203,0.035995540101675855,-0.879698861962291,1.062640585199397,0.016514164104559907,-0.8942742188956443,0.8983836940832488,0.07410238708661879,0.6265654903356379,1.091125517860709,0.0007529573879723334,0.7550719263608742,0.9298374475523453,0.0,0.0,0.0,0.0
0.025459232211423405,0.3120210535711184,0.7425013328720329,-0.007908247228374672,-0.5260641026697477,0.0024182641665160157,0.8504047104211435,0.027777602180695166,-0.8815980778369207,1.0623220176049077,0.0243476710462932,-0.8986578969483336,0.8960308593631359,0.0872212613855995,0.6186229245588655,1.0929214277250774,-0.019273369907991687,0.74872884786018,0.9239553553528659,0.0,0.0,0.0,0.0
0.02385787978438183,0.31524639252417547,0.7420067255089945,-0.008108160837204724,-0.5261380836545527,0.0026607439108461174,0.850356334190552,0.01866742606032938,-0.8836327323874091,1.060661301604886,0.03183753464259909,-0.899907204761177,0.8942569184844849,0.09858196060726425,0.6117480039404815,1.0903928866061068,-0.040371998581457194,0.7404954356651253,0.9189662163769903,0.0,0.0,0.0,0.0
0.021932265056398864,0.318829557097583,0.7412859530857455,-0.008352746305463257,-0.5261725982511164,0.002926799770710634,0.8503317366310209,0.008592406686764293,-0.8858474918824061,1.0576937276707228,0.03888663424665786,-0.8981016583820607,0.8931350865227855,0.10808424008616395,0.6060815152656367,1.0836184044975081,-0.06255969714710308,0.7303843609914534,0.9148468880800906,0.0,0.0,0.0,0.0
0.019700672875928183,0.32279190041223643,0.7403501343795741,-0.008633719571311751,-0.52617258710634,0.0032096997759592477,0.8503279163308313,-0.002480385557027287,-0.8881704069689873,1.0534264367936865,0.045471846674440694,-0.8942174191640633,0.8921780565973201,0.11621059807023079,0.6009720742056398,1.0744674628495428,-0.08583091779109342,0.7186080808857208,0.9112360618118147,0.0,0.0,0.0,0.0
0.017182803882211103,0.32712949714892886,0.7392327253386964,-0.008940270752323608,-0.5261458050771524,0.0035012684586128834,0.8503401698601396,-0.01451123499212948,-0.8903740290206208,1.0477244879519554,0.05166859947957912,-0.8893083833462088,0.891053583345512,0.12345015711290218,0.5961389025992638,1.0640373378772763,-0.11001039604969293,0.7055256080547163,0.907630883693944,0.0,0.0,0.0,0.0
0.01439691194915234,0.3318068013379111,0.7379783797468309,-0.009258463428570094,-0.5261012303318975,0.0037921617873422297,0.8503630964518535,-0.027369988950923768,-0.8921051260988022,1.0403046897516672,0.05766182954003637,-0.8842062727907058,0.8897386580167476,0.13035845232323676,0.5914357453010757,1.052831168019852,-0.13475202382133275,0.6915595290953125,0.9035413009397673,0.0,0.0,0.0,0.0
0.011368566176314668,0.3367502909348945,0.7366428501915802,-0.009567425615096513,-0.5260487632416718,0.0040681230173950445,0.8503908592136457,-0.04081012891284964,-0.8929177973180543,1.0308069156253254,0.0637331643067596,-0.8794945872854466,0.8885597264556427,0.13778421935052593,0.5867020903607009,1.040953494312253,-0.15959628698042688,0.6771853042413567,0.8985246989447666,0.0,0.0,0.0,0.0
0.008143587122788508,0.3418398062865628,0.7352888476069328,-0.00983300667159875,-0.5259998300110087,0.0043017683614150325,0.8504169480890835,-0.05442937394401015,-0.8923319091732989,1.0189040350135758,0.07017592979422788,-0.8755692145574769,0.8882244022245237,0.1471634070468632,0.5816631834683227,1.028238494009701,-0.1840588152589762,0.6628908823131867,0.8922682217407087,0.0,0.0,0.0,0.0
0.004796224353351933,0.34689358755588967,0.7339478071867159,-0.0099885171229303,-0.5259554226594936,0.004401838638706456,0.8504420889851096,-0.06751375616919432,-0.889990509793529,1.0044399287390748,0.07723403667374007,-0.8727906729876916,0.8897810908020676,0.16049236680899195,0.5759204422840293,1.0143248802400242,-0.2079614658732569,0.6487835278687316,0.8849594834742998,0.0,0.0,0.0,0.0
0.0013668863607254238,0.3516378643787521,0.7325497111512771,-0.009967549260417685,-0.5259837385230055,0.004344950346763063,0.8504251149734395,-0.07930450317326004,-0.8853238359951877,0.9866390219961468,0.086305348629492,-0.8721202703467379,0.8951243564915582,0.1815485907237628,0.5688374552965325,0.99835419534757,-0.23048729065797588,0.6344833347071785,0.878577862492335,0.0,0.0,0.0,0.0
-0.0016409810512721399,0.3556740660580748,0.7304859561172329,-0.009679216313448858,-0.5260730319269954,0.004000880996275543,0.8503749001481344,-0.08863640624923161,-0.8819398841253899,0.9698482151453006,0.09755452011994374,-0.8747776901495361,0.9049412774824303,0.21386704296636017,0.5612495972276078,0.978884876675384,-0.251799075184923,0.6170572160398013,0.8803965740988718,0.0,0.0,0.0,0.0
-0.003893314926282547,0.35862481087069537,0.7278650094961526,-0.009059626345219694,-0.5264070980313937,0.003284997300185554,0.8501780396513364,-0.09441564957651243,-0.8795707185680228,0.9554288011492735,0.11124157627633145,-0.8843912826397744,0.9242232551414689,0.261695418679594,0.5525051861959838,0.9550941021099055,-0.27182659895833483,0.5973296487652516,0.891458874616506,0.0,0.0,0.0,0.0
-0.004888283425812663,0.3601851410656264,0.7252495786542545,-0.008255741698126044,-0.5271478099240223,0.0022633696700638155,0.849730490437443,-0.09598534690470047,-0.8781520863736036,0.9466128944665883,0.12561865775964104,-0.9050507633590124,0.9598185095967415,0.31700828999380415,0.546357174792418,0.9284625150954515,-0.2891710268896395,0.5797397582340381,0.9081150094377644,0.0,0.0,0.0,0.0
-0.004922595038710708,0.36047111644834784,0.7250704686257806,-0.008506692485191517,-0.5272624413298215,0.002218448910643543,0.8496570088160927,-0.09640044851951554,-0.8782986457302583,0.9464537943513709,0.12565970394827472,-0.9050723610262317,0.9598289068203044,0.3170410808119071,0.5463594026605775,0.9284585957181022,-0.2892702588907572,0.5795947331729674,0.9080040700978621,0.0,0.0,0.0,0.0
-0.004922595038710708,0.36047111644834784,0.7250704686257806,-0.008506692485191517,-0.5272624413298215,0.002218448910643543,0.8496570088160927,-0.09640044851951554,-0.8782986457302583,0.9464537943513709,0.12565970394827472,-0.9050723610262317,0.9598289068203044,0.3170410808119071,0.5463594026605775,0.9284585957181022,-0.2892702588907572,0.5795947331729674,0.9080040700978621,0.0,0.0,0.0,0.0
-0.0037150767428464986,0.36278240862231453,0.7259153322639279,-0.008771218996576145,-0.527279438705819,0.00229846619536572,0.8496435583752397,-0.10259048938756436,-0.8860648282392309,0.9634971860244279,0.11977248712456941,-0.9045899977944704,0.9647194768271649,0.308961734422709,0.5521099843726259,0.9306831008880718,-0.2996414828017736,0.589212622629422,0.8873991763902216,0.0,0.0,0.0,0.0
-0.0010102850555368439,0.3672722524398553,0.7287054607152964,-0.00973233356255467,-0.5283498833139394,0.003154842764793808,0.8489650931885853,-0.1160290431152525,-0.894067614022727,0.9932926551087282,0.10627294325975487,-0.8942886492306442,0.969705794547898,0.29993235475952684,0.5702895819126934,0.9245135102891888,-0.3167767629162474,0.6191053033601989,0.8392211258887305,0.0,0.0,0.0,0.0
0.0007161143000928554,0.37170380135183795,0.7324007645810696,-0.00892942873689678,-0.5263475843432666,0.0024884343324064646,0.8502189679447371,-0.10604350421289907,-0.8717991215233921,0.95065359543791,0.09672905616928575,-0.8976603010486144,0.9827164090802826,0.266970035381468,0.5925190177056334,0.9062960537321524,-0.26283445266234523,0.6013786509872818,0.8948343717851698,0.0,0.0,0.0,0.0
0.0033671783853111825,0.376450647887662,0.7352706555210027,-0.00870868660812207,-0.5255610511067912,0.002344997796815895,0.8507080823187348,-0.09372528762844044,-0.8600315695171898,0.9262414386301484,0.08506773216650494,-0.8984846292407593,0.9960615405682401,0.24106727242927992,0.6127171551637685,0.8963079862156178,-0.21377662989643362,0.5986380656948012,0.9368584544106484,0.0,0.0,0.0,0.0
0.006444379254839039,0.3814367480927582,0.7370722781612564,-0.008927409686252151,-0.5254539240132572,0.0025803805626645024,0.8507713069512368,-0.08244620348602814,-0.8566764719913005,0.913952603652326,0.07187501797135702,-0.8984778033653251,1.0083889695284458,0.21910099181706086,0.6282683676256852,0.8970958616057638,-0.17600346737852832,0.6029738376511196,0.9672325224060665,0.0,0.0,0.0,0.0
0.009618031275823165,0.386304356170656,0.7383511165863925,-0.00940754614628956,-0.5256694966133899,0.003040531649322771,0.8506314322742959,-0.07237448836039213,-0.8576682229738799,0.9082606674836801,0.05840965037249357,-0.8975118723366794,1.019254832566853,0.19991169945408224,0.6416608745174464,0.9018575760265941,-0.15222290320559934,0.6080387982074877,0.9903466121471457,0.0,0.0,0.0,0.0
0.012683635382733642,0.39091233966441147,0.7394906598020138,-0.009905749594721638,-0.5258998663475265,0.0035168008346328017,0.8504815334929442,-0.0636210177368156,-0.8609510956180666,0.9060000987281147,0.04550719486784648,-0.8961653096891936,1.0289838781893628,0.18122769552986168,0.654759959282752,0.9062317955863611,-0.13677037613102214,0.6126271393074024,1.0087473574512442,0.0,0.0,0.0,0.0
0.015506665089220958,0.39523276060804746,0.740570309301875,-0.010342162898957131,-0.5260544732974008,0.003944347773265254,0.8503788408180257,-0.055935094385363066,-0.8655631886194527,0.9053326889057842,0.03338396339110746,-0.8944800216066698,1.0371934274493837,0.16227215554378743,0.6675945519474937,0.9095204522045585,-0.1254441683740036,0.6165659510336614,1.024248505541733,0.0,0.0,0.0,0.0
0.018027600950021982,0.3992616222564904,0.7415893611901268,-0.010698961469090372,-0.5261209982808077,0.004307843065706063,0.8503315058726276,-0.048811120971875566,-0.8709694233233851,0.9051805490119301,0.02209481330466417,-0.8924648930508067,1.0436889630877262,0.14294591069343468,0.679871819075489,0.9119385892626639,-0.11582908855742059,0.619970126957166,1.0379794296650866,0.0,0.0,0.0,0.0
0.020241303570911407,0.40299888059504774,0.7425305612926532,-0.01098817089048305,-0.5261249763710889,0.004614955166660574,0.850323745127591,-0.041772335795572095,-0.87677429911697,0.9049603611044261,0.011640544839082766,-0.8901177027293855,1.048490196262368,0.12354613292967306,0.6913517418211605,0.913845892514533,-0.1067293275413974,0.6230658823645393,1.0506238748816414,0.0,0.0,0.0,0.0
0.022168867743613107,0.40644843473150505,0.7433752065622411,-0.01123128980335541,-0.526100605823928,0.004880891405855852,0.850334162303346,-0.034499933299471174,-0.8825668578332642,0.9044032293754559,0.00199685903904908,-0.8874512846450974,1.0517352627474021,0.10449285486269516,0.7018748098171891,0.915584024732332,-0.0975897358765451,0.6261028105535016,1.06250531513275,0.0,0.0,0.0,0.0
0.023833639951511807,0.40962176448255544,0.7441047383698568,-0.011449607836224132,-0.5260766842249724,0.005121353007532736,0.8503446363320154,-0.026852297908448248,-0.8877961347944848,0.9034816755544781,-0.006883754324870301,-0.8844750072718189,1.0535471811430819,0.08615450907782216,0.7113081114526283,0.917487009902506,-0.08812104501843554,0.6293209127331768,1.0735792799222628,0.0,0.0,0.0,0.0
0.025242165817367018,0.4125422003542005,0.7447008625927338,-0.011657213482547715,-0.5260662727856946,0.005347703021535531,0.8503468633937464,-0.01882617600671538,-0.8916860061672616,0.9023834941877575,-0.015075113215597048,-0.8811799197562246,1.0539264823829257,0.0687088018183224,0.7194881974408648,0.9199097048945643,-0.07806682184592294,0.6329399077919811,1.0833363016250226,0.0,0.0,0.0,0.0
0.026373382805620054,0.41524850638009886,0.7451494479348718,-0.01185488508211611,-0.5260581406702208,0.00556279471237146,0.8503477815866094,-0.01049645864688584,-0.893265565034249,0.901468699545204,-0.022678962530770466,-0.8775387491626347,1.0527023638900892,0.05203230498326508,0.7262032744700035,0.9232070697387471,-0.06705628889441761,0.6372220092561117,1.0906269498538097,0.0,0.0,0.0,0.0
0.027186998802355464,0.4177939363043989,0.7454538521079697,-0.012036591880722586,-0.5260296626512214,0.005765894239272133,0.8503614930901802,-0.001978528799022836,-0.8916490184995387,0.901146998574143,-0.02982904933805617,-0.8734148446053297,1.049513546957247,0.03579796869592501,0.7312847669965759,0.9276033482576188,-0.054628158994159876,0.6427445682747033,1.0935367109388885,0.0,0.0,0.0,0.0
0.027640863988053557,0.4202377808431775,0.7456477835066525,-0.012200264939926465,-0.5259598436523928,0.005955785781048448,0.8504010377558793,0.00658402181387434,-0.8868367796646527,0.9013660586962294,-0.03666639271693491,-0.8685199105532805,1.0438795615172267,0.019653252814908345,0.7347201802076915,0.9330269345762006,-0.04092587254181547,0.6492808238933202,1.0919311942173398,0.0,0.0,0.0,0.0
0.027693016228691403,0.4226461252898666,0.7457938529534391,-0.012344776694145587,-0.5258266005057426,0.006129363334855786,0.8504801135794153,0.015054694759313671,-0.8797371404554784,0.901628096320559,-0.04333759009451243,-0.862442849308937,1.0352262278797477,0.0031995830601083478,0.7366464638937106,0.9391223258191519,-0.026602771226169598,0.6558156313857619,1.0874831696869929,0.0,0.0,0.0,0.0
0.027286441000181443,0.42509769675020487,0.7459663306981137,-0.012444587290523793,-0.5255758670507952,0.006266982864885597,0.8506326264297324,0.023391596323074488,-0.8713865072917092,0.9014364187427658,-0.04999076393797873,-0.8548539733052347,1.0229509887730006,-0.014324238187867613,0.7372100600473545,0.9454227908460762,-0.012006235804497242,0.6615638151348504,1.081149246889879,0.0,0.0,0.0,0.0
0.026356598309767464,0.42766844269254034,0.7462258210111989,-0.012447339458050714,-0.5251271459822786,0.00632839639820573,0.8509092170683955,0.031696554452961635,-0.8626296822236026,0.9004420123441692,-0.05673051563942886,-0.845630840630831,1.006545350831847,-0.03392746993094224,0.7364637337225426,0.951533900995123,0.00284377677898332,0.6657772440332608,1.0733886134030397,0.0,0.0,0.0,0.0
0.024865150011553417,0.43040177359752657,0.7465943632149887,-0.01229319946877872,-0.5244143491098262,0.0062645677449875165,0.8513514097512886,0.04022022704044896,-0.8539998204305538,0.898514469723608,-0.06356327746544076,-0.8348798990200055,0.9857789012559899,-0.056353226713539595,0.7343573826090314,0.9572638913034867,0.018137778286153212,0.6679094362894034,1.0644959781156165,0.0,0.0,0.0,0.0
0.022843742128113496,0.43327083921220316,0.7470277181584724,-0.011949711756063845,-0.5234459099995742,0.0060421775458047895,0.8519536817129025,0.04927579950306416,-0.8456442825126625,0.895800908104438,-0.07034558678165864,-0.8228909504703323,0.9608984143460246,-0.08137503381472938,0.7307644277421126,0.9627866020646989,0.034226727617591955,0.6680548562679067,1.054935958116821,0.0,0.0,0.0,0.0
0.020428686545986705,0.43614249257907195,0.7473909773573096,-0.011446795084891983,-0.5223485932578761,0.005668400389695479,0.8526363745705577,0.05898750160892188,-0.8372181301431952,0.8926568899026747,-0.07674028937539812,-0.8101525990464626,0.9328731872920124,-0.10733208185891749,0.7255211566681673,0.9688429484944396,0.051910096181913154,0.6675034428924288,1.0455829442133922,0.0,0.0,0.0,0.0
0.017871281215095503,0.43874741738332895,0.7474495563300076,-0.010843886561555884,-0.5212618492512907,0.005126350225790314,0.8533124956150163,0.06920266796581402,-0.8275614211871886,0.8885147257262919,-0.08202518507694695,-0.7983570189402581,0.9044825294222043,-0.13198077720773657,0.7184275268992736,0.9767408537374165,0.07320248059394158,0.6690549563640258,1.0372340292968487,0.0,0.0,0.0,0.0
0.015400251758528119,0.44095369933442224,0.7470402585176812,-0.010235953580196614,-0.520328717302806,0.0045132550699898116,0.8538927811692718,0.080389591022025,-0.8162882037413249,0.8830906956234333,-0.08611763616378025,-0.7883545220941135,0.8777091977415212,-0.15357524087115576,0.7094886838912702,0.9876527316134154,0.10238131768021903,0.6749161101810797,1.0310585778467973,0.0,0.0,0.0,0.0
0.013332923171115186,0.4426301218162966,0.7461773509783755,-0.009739516321613345,-0.5197272645826815,0.003911326531507793,0.8542677646944126,0.09200399796924309,-0.8038852389810037,0.8756106920405416,-0.0888682388982959,-0.7807734964807518,0.8551350848976784,-0.1708465973090365,0.7001038743770309,1.001183877659788,0.14367929999991513,0.6864150682376376,1.0281958860169267,0.0,0.0,0.0,0.0
0.011992209969038858,0.44366229481873776,0.7452207350385325,-0.009380942326569643,-0.5196782900742319,0.003211782947449409,0.8543044874029905,0.10144842463194842,-0.7915893439809043,0.8650174005472252,-0.08966263714275251,-0.7755715559200242,0.839261990036978,-0.18482386225101968,0.6941109784346708,1.0141036315741707,0.19176596569934135,0.7014885531146329,1.0288742029796876,0.0,0.0,0.0,0.0
0.012025474925098534,0.443691458782035,0.7451914921322299,-0.009376436885841362,-0.5196553768952414,0.0031970604675423298,0.854318529881892,0.10150311173245667,-0.791592883505923,0.8650243611021164,-0.08969187693350057,-0.7756071054387013,0.8391355690816885,-0.18485741389980392,0.694051318961239,1.0140408220551527,0.19177421838890266,0.7015136257975583,1.0288846742018363,0.0,0.0,0.0,0.0
0.012025474925097812,0.44369145878204225,0.7451914921322356,-0.009376436885802267,-0.5196553768952544,0.0031970604674846194,0.8543185298818847,0.10150311173261868,-0.7915928835057784,0.8650243611020424,-0.0896918769333634,-0.7756071054388386,0.8391355690817902,-0.18485741389891996,0.6940513189610057,1.014040822055376,0.1917742183887037,0.7015136257976892,1.0288846742017972,0.0,0.0,0.0,0.0
0.012025474925097812,0.44369145878204225,0.7451914921322356,-0.009376436885802267,-0.5196553768952544,0.0031970604674846194,0.8543185298818847,0.10150311173261868,-0.7915928835057784,0.8650243611020424,-0.0896918769333634,-0.7756071054388386,0.8391355690817902,-0.18485741389891996,0.6940513189610057,1.014040822055376,0.1917742183887037,0.7015136257976892,1.0288846742017972,0.0,0.0,0.0,0.0
0.013314999648532128,0.44432250154759567,0.7453930200665709,-0.00946544661360877,-0.5202127916814759,0.0033401608376811753,0.853977692927016,0.09974949545409817,-0.7965469739656474,0.8777156716203816,-0.0916800630944308,-0.7759279905564094,0.8450926190154043,-0.19066713688164752,0.7012391601681415,1.013648477336797,0.1913560138124502,0.708829046530792,1.0251269328932002,0.0,0.0,0.0,0.0
0.015437190304738845,0.4455487358117202,0.7455701298252222,-0.009737287736102135,-0.5209894370183819,0.003972626142945357,0.8534983362516545,0.09543397103435203,-0.8072787759590903,0.9008597072719422,-0.09647373038891328,-0.7762776784615926,0.8543677349851585,-0.19819480582887936,0.7110796798903222,1.0143923694020962,0.19301508148784025,0.7209179621613143,1.0196229521704143,0.0,0.0,0.0,0.0
0.018223853009697553,0.44723916051363943,0.7463322081169809,-0.00894992089182438,-0.5217406460804739,0.002855176561425805,0.8530524281135146,0.09400261220775787,-0.8153935987816152,0.9268781509042398,-0.08281654503101796,-0.792445173182572,0.8730151432698643,-0.14590191032030247,0.6961774390979754,1.0206158743436748,0.16886767512099607,0.7307400442894358,1.0050063005694527,0.0,0.0,0.0,0.0
0.020972764692847097,0.4491626144911373,0.7466932950845755,-0.008238116657445449,-0.5225154915095005,0.0020092676440415153,0.8525876244762518,0.09126113792079635,-0.8251786848592034,0.9535660470404131,-0.06664242258957295,-0.8075898755039166,0.883896983958687,-0.09523363124865371,0.6823885845853956,1.026755714602604,0.14443547074625668,0.7390845294377185,0.9928996554864848,0.0,0.0,0.0,0.0
0.0235341632993325,0.451284924527234,0.7467318940954206,-0.007851294025174607,-0.5231825744523844,0.0016751450514449165,0.8521828118781569,0.08681389528422984,-0.837283854625044,0.9808076748756611,-0.05175436810622665,-0.8207525452630113,0.8909151507349636,-0.05786515618403916,0.673618683352211,1.0333796318449564,0.12368878226958167,0.7465462334178441,0.983026934875931,0.0,0.0,0.0,0.0
0.02566663489713573,0.4534226034890788,0.7466126984572906,-0.007662518888132096,-0.5237807918235748,0.0015920163550794488,0.8518171361300987,0.08167038638172776,-0.8487607693747411,1.0047555962973669,-0.039100306296038494,-0.8324766567954949,0.8960803873390407,-0.03015300626979405,0.6673875938490633,1.0408559623629003,0.10525210034296496,0.7524912764716398,0.9748505078809235,0.0,0.0,0.0,0.0
0.027265962923325164,0.4555134400535902,0.7464531786345271,-0.007577826965433367,-0.5243051677005206,0.0016203156302006362,0.8514951803963833,0.0762861392103113,-0.8584129555408199,1.0241028748535213,-0.028414893672030123,-0.843200197735551,0.8998732555774429,-0.008114972417857084,0.66188030524691,1.0486718948812397,0.08801670003792929,0.7566411051967645,0.9676791515496113,0.0,0.0,0.0,0.0
0.02831935604206743,0.45756281481227223,0.7463223634605823,-0.007546596056296666,-0.5247555521709634,0.0016948241225032525,0.8512178257795734,0.07080254901190351,-0.865932942400935,1.0388013181334383,-0.019018634248097264,-0.8532793763916061,0.9024201911408786,0.010804244627957479,0.6561381683914302,1.056427662426249,0.0713042326578213,0.7590447646584255,0.9609373719597077,0.0,0.0,0.0,0.0
0.028862289957877436,0.4596110186179984,0.746246529918192,-0.0075466088182120535,-0.5251357405000501,0.0017917613009772223,0.8509831328153628,0.06518849770843681,-0.8714803327562237,1.0493740562646603,-0.010300241863779614,-0.8629394889935486,0.9037510113689639,0.028038607923291166,0.6497650062079456,1.0638805651463965,0.05470750537780839,0.7598785160758141,0.9542421635539426,0.0,0.0,0.0,0.0
0.02894866775902308,0.46171458479949246,0.7462188399637204,-0.007570886473578585,-0.5254509130873434,0.0019061111482669177,0.8507880972098586,0.05933020340763609,-0.8754325851336162,1.0565399294110223,-0.001871509955744033,-0.8722545962140146,0.9038906135238605,0.04432465790663338,0.6426728776962178,1.0708717117504731,0.03793408316295256,0.7593079405568037,0.9474040352347965,0.0,0.0,0.0,0.0
0.028632165830264077,0.46393631548706715,0.7462083569206684,-0.007619567205008784,-0.5257058730817394,0.00203934369561273,0.8506298362274072,0.053080898035567994,-0.8782444533507202,1.0610181203081492,0.006443827049152756,-0.8811180154324083,0.9029095395982103,0.05998242267938447,0.6349293322112972,1.0772346964193755,0.020720925216920285,0.757414413211447,0.9404052223793334,0.0,0.0,0.0,0.0
0.027955140202396016,0.46633996749727286,0.7461664875701732,-0.007695741741629916,-0.5259042526713645,0.0021938736641586606,0.8505061313709417,0.04628597248501619,-0.8803694419657402,1.0634250175801852,0.01467406942589004,-0.8891862875095966,0.9009777998069275,0.0750582490292118,0.6266908757842014,1.0826836570006666,0.0028117472812183193,0.7541632538468142,0.9333811375730823,0.0,0.0,0.0,0.0
0.026942655289512365,0.46898615905308116,0.7460318197892178,-0.007804003719651887,-0.526048917116087,0.0023714833032236556,0.8504151988257727,0.03879713535541922,-0.8822091473346617,1.064212241902015,0.022758283916716027,-0.8958253792586349,0.8984315527616584,0.08936414609715551,0.6182141093079332,1.0866598592313683,-0.016015469346770905,0.7494042514321111,0.9266062858611819,0.0,0.0,0.0,0.0
0.025602035156958976,0.4719270819943744,0.7457377051506452,-0.007950663318461214,-0.5261437581302763,0.0025740396368931838,0.8503545772519211,0.03048523452949247,-0.8840672134245045,1.063630151328165,0.03058504010620866,-0.9001532057499069,0.8958163924919054,0.10245961011014214,0.6099706336140118,1.0881167645577972,-0.03588518748866547,0.7429201467076028,0.9204495837999533,0.0,0.0,0.0,0.0
0.02393285651906662,0.47520100842260754,0.7452310201328293,-0.008142654538598151,-0.5261963981841461,0.00280275040713166,0.8503194648514474,0.021257907604175313,-0.886097917503635,1.0617484372156383,0.03803104805512146,-0.9013583389507845,0.8937883227610898,0.1137177041502249,0.602874585241485,1.0853183363132826,-0.05679594543823319,0.7345597652312285,0.9152019849899761,0.0,0.0,0.0,0.0
0.021942490777667616,0.4788370280918362,0.7444898780899746,-0.008379649906382739,-0.5262131611113735,0.003054828927402206,0.8503059205726174,0.011053963428494682,-0.8883344968859898,1.058587651035571,0.045006817473539865,-0.8995231807201723,0.8924228083314215,0.12303702217732107,0.5970698363255119,1.078347389889052,-0.07874547837066823,0.7243397116251479,0.9108430412240262,0.0,0.0,0.0,0.0
0.019649017519300788,0.4828526548924469,0.7435259761181777,-0.008652932831830294,-0.5261982917053956,0.0033234935745713417,0.8503113776436201,-0.0001495093634335306,-0.8906950203872239,1.0541391742427844,0.0514993050088602,-0.8956244270679465,0.8912304381995817,0.13092120118892456,0.591888822285042,1.0690569835272834,-0.10171409722258923,0.7124723316658723,0.9070152533453154,0.0,0.0,0.0,0.0
0.01707143131846129,0.4872401416359963,0.7423732422794258,-0.008951500572356686,-0.5261588541583595,0.003600961805532272,0.8503315611585521,-0.012303923432122586,-0.8929418434600375,1.0482500540075537,0.057593786366682824,-0.8907136008767883,0.8898763857589308,0.13788153960608568,0.5870321342046947,1.0585239899801828,-0.12551430288842616,0.6993144453754367,0.9032237884665548,0.0,0.0,0.0,0.0
0.014227139818147381,0.4919603719344747,0.7410765614247524,-0.009261541546311678,-0.5261030576258066,0.0038787647005445467,0.8503615418099298,-0.025272012419305795,-0.8947142063666121,1.0406211551131999,0.06348286917267937,-0.8856171382485877,0.8883343957144281,0.1444924207416685,0.5823389747153047,1.0472290554925645,-0.14979159250323515,0.6852836377455661,0.8989919875085388,0.0,0.0,0.0,0.0
0.011141078180667372,0.4969370213741765,0.7396915934167629,-0.009562542541228307,-0.5260397138869402,0.004143940911931583,0.8503961458917906,-0.03880315667334288,-0.8955651229090242,1.0308840024166461,0.0694530101790714,-0.8809088852712326,0.8869242643553304,0.15162316784633817,0.5776395478836845,1.0352493783520864,-0.17408547702345142,0.6708464486121796,0.8938949495486763,0.0,0.0,0.0,0.0
0.007859187938909815,0.5020486220894247,0.7382805566955175,-0.009820746370523574,-0.525978565026778,0.0043706616884573325,0.8504298909313468,-0.0524956873699961,-0.8950246982908662,1.0187182659424687,0.07579967248951036,-0.8769693972248225,0.8863377874890667,0.16074235894273167,0.572654613990772,1.0223830875533422,-0.19792197170386985,0.656477197325227,0.8876391898638425,0.0,0.0,0.0,0.0
0.004457399187473309,0.5071146059030307,0.7368740260222083,-0.009968816869950537,-0.5259174567107923,0.00446718074593508,0.850465458271674,-0.06563769295290439,-0.8927628257228669,1.003999976529772,0.08277501145534899,-0.8741413378280167,0.8875836710721998,0.17389513954622982,0.5669884161765415,1.0082222527716527,-0.22115520181551424,0.6422601842180047,0.8804218394967172,0.0,0.0,0.0,0.0
0.000978862784806309,0.5118686348558074,0.7354069762953418,-0.009942642505038185,-0.5259202983496936,0.004419812189558602,0.8504642549243298,-0.07751612790033229,-0.8882556509760008,0.9860197320398183,0.0918396380657303,-0.8733687574972376,0.8924720210735327,0.19499200960461943,0.5600061363469556,0.9918117098166952,-0.2429822660578645,0.6278411049583865,0.8741702483523673,0.0,0.0,0.0,0.0
-0.0020669397635903787,0.5159121720919815,0.7332912207608264,-0.009649904692201405,-0.5259749347637588,0.004095645570099936,0.8504354608240741,-0.0869523793504735,-0.8850614395969747,0.9691311565679164,0.10310792052699626,-0.8758958608049224,0.9016654928204362,0.2276729933160932,0.5524445133557486,0.9716451118251029,-0.2636248215340887,0.6103483074769652,0.8760044992185132,0.0,0.0,0.0,0.0
-0.004348810942450424,0.5188597495259191,0.7306196803732167,-0.009032056280355496,-0.5262626033383416,0.0034200107699484832,0.8502672508177845,-0.09285626456478888,-0.8829696226510438,0.9546967444438359,0.11681115215090775,-0.8853619103462438,0.920010798690672,0.27597745099354415,0.5437632623318727,0.9466830669932318,-0.2829219194477921,0.5904981857927888,0.8872238610973476,0.0,0.0,0.0,0.0
-0.005362967474973581,0.5204137105316771,0.7279736904459865,-0.008240273374716493,-0.5269493503265653,0.002464616337929998,0.8498531671714987,-0.09459911755401687,-0.8818834971629679,0.9459737183210317,0.13107484549085724,-0.9057446854809628,0.9543339977639809,0.3314616178945654,0.5379486132203753,0.9182702480364969,-0.2995075359002338,0.5728402709540918,0.9040329121844688,0.0,0.0,0.0,0.0
-0.005397373711339802,0.5206994114418236,0.7277919582244207,-0.00849249022869503,-0.5270630695693154,0.0024192772804481825,0.8497802924305358,-0.09501464810190517,-0.8820366624629911,0.945810149308883,0.13111613061460078,-0.9057659261811424,0.9543442979599602,0.331495281563616,0.5379510367351065,0.9182663218422449,-0.2996107330925734,0.572693549541804,0.9039209004920217,0.0,0.0,0.0,0.0
-0.005397373711339802,0.5206994114418236,0.7277919582244207,-0.00849249022869503,-0.5270630695693154,0.0024192772804481825,0.8497802924305358,-0.09501464810190517,-0.8820366624629911,0.945810149308883,0.13111613061460078,-0.9057659261811424,0.9543442979599602,0.331495281563616,0.5379510367351065,0.9182663218422449,-0.2996107330925734,0.572693549541804,0.9039209004920217,0.0,0.0,0.0,0.0
-0.004163690518011616,0.523046554423859,0.7286720140821645,-0.008763518923890443,-0.5270437823628613,0.002493346003620624,0.8497892888442555,-0.10129512521880284,-0.8901778395081478,0.9634519456393165,0.12518351645777484,-0.9056146819318098,0.9597745664531553,0.32350985838546786,0.5436406143959992,0.9205583703752458,-0.30989215711855855,0.5826775856418084,0.8825545650578288,0.0,0.0,0.0,0.0
-0.0014219638981039476,0.5276492500459342,0.7315016980373077,-0.009586186365178506,-0.5279543333523052,0.003262083528302597,0.8492123914172175,-0.11493766716943118,-0.8992817233683189,0.9946990896550667,0.11161277114283054,-0.896711484186882,0.966309570075553,0.3131178693314354,0.5617400427857501,0.9149775823397439,-0.3280123277110645,0.6126409504450792,0.8325074152875754,0.0,0.0,0.0,0.0
0.0004348759284281984,0.5321622657096493,0.7352582757245845,-0.008976714945980728,-0.5263206736371265,0.0026351564637252956,0.8502346870372623,-0.10496509981649048,-0.875571507943031,0.9518411380090075,0.10181592007355011,-0.8981508012119805,0.9783863348861997,0.2826330575787096,0.5845328190082865,0.897457843629649,-0.2744378662098813,0.5962508420831516,0.8897407837245744,0.0,0.0,0.0,0.0
0.0032005425623256594,0.5370247692069754,0.7382061258333087,-0.008804390362877076,-0.5256902460294921,0.0024805600709342005,0.850626883399252,-0.0928676074976906,-0.8632604808537927,0.9274267825941404,0.08993186590640567,-0.8983656734433354,0.991894553165415,0.25748565924648226,0.6052406651477846,0.8880713222183818,-0.22529739500077556,0.5939283540835577,0.932818179351713,0.0,0.0,0.0,0.0
0.006352006709781038,0.5421685399200248,0.7400534735774594,-0.0089781521498936,-0.5255678333066552,0.002660233655727928,0.8507001637088228,-0.08176723977786196,-0.8594990886641237,0.9147423089111257,0.07650720080899547,-0.8987297098744113,1.0049331158332908,0.23500160342795573,0.6208765426216053,0.8897508843295,-0.1877016516376941,0.5979666406990704,0.9635503203424702,0.0,0.0,0.0,0.0
0.009570011381832902,0.5472387698478098,0.7413637112384264,-0.009387987679383251,-0.5257150044749426,0.0030575994094273174,0.8506034627504724,-0.07201533578130279,-0.860349377927919,0.9088039138717191,0.06268494832830852,-0.8982633136330351,1.0163728138294084,0.21468557637537244,0.6341603098695306,0.895589222394456,-0.16385844368582927,0.6025767135973903,0.9866508029627603,0.0,0.0,0.0,0.0
0.01267871354002904,0.5520525531008346,0.7425412175529689,-0.009834516028612461,-0.5258912673347977,0.003484430024835995,0.8504878106021774,-0.06360821629926687,-0.8635645489779249,0.9064740567184857,0.04937275628729404,-0.8972120148392049,1.026465538956065,0.19493057614647308,0.6472232647072506,0.9008786178022083,-0.14856298972237694,0.6067605899188762,1.0049473106248856,0.0,0.0,0.0,0.0
0.015556649486944766,0.5565618415105291,0.7436627747963701,-0.010245588779767936,-0.5260236773504257,0.0038798734618367267,0.8503993563962824,-0.056236705656868224,-0.8681282927439335,0.9058868398260683,0.03684040688443,-0.8956088574240845,1.0349073148220231,0.1751941414432873,0.6601325673311044,0.9048886445999024,-0.13763165840008207,0.6104735321885943,1.02036352826175,0.0,0.0,0.0,0.0
0.01814634087711506,0.5607544452420639,0.7447223877580891,-0.010598779039613485,-0.5260986283627225,0.004226152887967558,0.8503470107841262,-0.0493749646170653,-0.8734867718416471,0.9059195622330382,0.025174867020592594,-0.8935271540107832,1.0415764594301915,0.15541414702064468,0.6725740246803626,0.9078693217605355,-0.12853535750753461,0.6138614534349762,1.0340708785348662,0.0,0.0,0.0,0.0
0.02043633954315361,0.5646301301388637,0.7457002910803644,-0.010896410731701644,-0.5261291985039245,0.004525206764601839,0.850322795894901,-0.04254723952716741,-0.8792434042028469,0.9059339623035165,0.014390924387005243,-0.891044327700364,1.0465336418520814,0.1357970425207862,0.6842705719582647,0.910214161246786,-0.11996343511681976,0.6170942664582039,1.0467478750087011,0.0,0.0,0.0,0.0
0.0224380877632728,0.5681967510512269,0.746578003405497,-0.011150284213489391,-0.526135120525913,0.00478628949323819,0.8503144109939736,-0.03544571730693421,-0.8849937083686324,0.9056163761671213,0.00446536331818443,-0.8882332885985539,1.0499237396499452,0.11662969814720126,0.695026749697227,0.91228800303793,-0.11128984183148781,0.6203328917383792,1.0586943188479618,0.0,0.0,0.0,0.0
0.02416589388058584,0.5714707037077643,0.7473383286071253,-0.01137359558013121,-0.5261325346799125,0.0050197007157823225,0.8503117074812002,-0.02793798473566949,-0.8901951209921907,0.9049066568765829,-0.0046526690993573955,-0.8851469636331336,1.0518648411629117,0.09815267255090288,0.7046800600685753,0.9144397550261741,-0.10219399477016541,0.6237327175425484,1.069841589938943,0.0,0.0,0.0,0.0
0.025621218606090887,0.5744784748704854,0.747963636920623,-0.011575678894378855,-0.5261277274897549,0.005233164684618883,0.850310667939656,-0.020023075551888342,-0.8940770738789319,0.9039781088413421,-0.013038953221650386,-0.8818020159954478,1.0523560300931543,0.08046811035424219,0.713047110724497,0.9170394230248232,-0.09241445678394405,0.6274656553711603,1.079671320210886,0.0,0.0,0.0,0.0
0.02678355862480817,0.5772586340765772,0.7484387032902452,-0.011757818324287213,-0.5261124544710882,0.005429336013864484,0.8503163889218581,-0.011775799412084485,-0.8956666120344564,0.9032023557076332,-0.02079418665642817,-0.878165897563069,1.0512259362970513,0.06346895954237798,0.7199088104197773,0.9204651729596617,-0.08158673976048336,0.6318069297270312,1.0870479040986636,0.0,0.0,0.0,0.0
0.02761569908687986,0.5798619958258244,0.7487646667844451,-0.011914533286254013,-0.5260673598203216,0.005607220229057409,0.850340952741634,-0.0033080834935986653,-0.894075327282405,0.9029953539454724,-0.028044939759046403,-0.8741140021303542,1.0481407866922934,0.04686160771162279,0.725093824701884,0.9249625589622347,-0.06924126387964366,0.6373533335561109,1.0900714355733625,0.0,0.0,0.0,0.0
0.02808059310716876,0.5823428784576011,0.7489718359182431,-0.01204429035011374,-0.5259746319412211,0.005765594362664067,0.8503954254027384,0.005240647685105279,-0.8893022643336801,0.9033055110259138,-0.034919612734138954,-0.8693885001695858,1.0426756113107334,0.030346206576200636,0.7285874559970353,0.930478934458231,-0.05551955590414637,0.6438881755208209,1.0886126351995395,0.0,0.0,0.0,0.0
0.02814366529837771,0.5847595658389161,0.749117905842186,-0.012147207154833861,-0.5258160172070593,0.005901896197006789,0.8504911104932977,0.013744822870854058,-0.8822524694327071,0.9036256206151534,-0.04154668548510948,-0.8636253798128382,1.034340408365612,0.01360654770700739,0.7305231716083573,0.9366791777832255,-0.041087501058682564,0.6504064459942717,1.0843464808753887,0.0,0.0,0.0,0.0
0.027760852192695064,0.5871789644498163,0.7492700901537704,-0.01220849912263095,-0.5255573070325235,0.006004139183198454,0.850649410677844,0.022172739637669997,-0.8739409956903458,0.9034852674341085,-0.04805789042336206,-0.8564691709991925,1.0225844355068292,-0.003886190488355739,0.7310579253331715,0.9431378634982597,-0.02633519364521527,0.6562318781797224,1.0782657993923266,0.0,0.0,0.0,0.0
0.026881665764693183,0.5896649000699533,0.7494820282513022,-0.012195159003995088,-0.5251493035439294,0.006046931933894106,0.8509012408607594,0.030628530134086836,-0.8651800090089778,0.9025896611846219,-0.05455250227566706,-0.8476901629722352,1.0068884922282506,-0.02281181691862077,0.7302654521986879,0.9495172981313132,-0.011335042073437857,0.6608027117900173,1.0708851894868492,0.0,0.0,0.0,0.0
0.025472447136152602,0.5922569190586525,0.7497747961450318,-0.01206481883794496,-0.5245479686672039,0.005996270061449309,0.8512742880287574,0.03935011170842588,-0.8564854131170105,0.9008550050817923,-0.0610532688404046,-0.8372619471064631,0.9869431576378844,-0.04370674930603599,0.728117788670237,0.9556636475821456,0.004077596031913416,0.6637048547884711,1.0625208471741354,0.0,0.0,0.0,0.0
0.02355118924294266,0.5949413779977872,0.750115177697813,-0.011785692141928863,-0.5237500372398327,0.005822655679295711,0.851770563375402,0.048633651864377535,-0.8480335588297698,0.898421067263905,-0.06745893796754722,-0.8254102948598145,0.9628793746859199,-0.06651602272034161,0.7245027751843109,0.9617220076900131,0.020266692948948152,0.6649446905696736,1.0535715711359195,0.0,0.0,0.0,0.0
0.02122481873284425,0.5976176140531457,0.7503918420667244,-0.011363776383970979,-0.5228313698948966,0.005518963884708967,0.8523425158219905,0.05862107348349167,-0.8395754224783739,0.8955950235380187,-0.07349484097096644,-0.8126815193722952,0.935563142127159,-0.09016414069808901,0.7192599530235889,0.9683041055643106,0.03797903604819258,0.665426647242215,1.044761216463546,0.0,0.0,0.0,0.0
0.01871710179874015,0.6000613101634631,0.7503988979047851,-0.010832637451860874,-0.5218923465924719,0.0050584058374113575,0.8529275731645822,0.06918296398026369,-0.8301437141101996,0.8919987525753206,-0.07854136551513362,-0.8006952843153955,0.9075293096813271,-0.11292930768978782,0.7122109730014085,0.9765405698759646,0.058921705244503145,0.667441789201692,1.0368288755559305,0.0,0.0,0.0,0.0
0.016266253874725002,0.6021298855804664,0.7499671907815941,-0.010261388564879898,-0.5210434610116972,0.004497918509034,0.8534566095419021,0.0806002252855643,-0.819221147990844,0.8872573533501145,-0.08240539619619668,-0.7906774380302823,0.8811326573759245,-0.13328627930262438,0.7033464917378264,0.9875376769368402,0.08680015927625197,0.673209482324518,1.0307602118086079,0.0,0.0,0.0,0.0
0.01421005226147319,0.6037046473767451,0.7491132737328231,-0.009757161712558696,-0.5204584019537375,0.003918591952297906,0.8538222849446998,0.09242423863160204,-0.8072877277723118,0.8808327094756288,-0.08497662072489909,-0.7833554479319929,0.8591305290171241,-0.14993260394800023,0.6940803888845742,1.000836339697089,0.12539728764173835,0.6840461413591974,1.0276998631560361,0.0,0.0,0.0,0.0
0.012875181649868412,0.6046755546235438,0.7481916809628424,-0.009368610324660704,-0.5203527989788616,0.0032437153643150164,0.8538938294929204,0.10195302183719468,-0.7957533347091386,0.871826143350217,-0.08572364005409318,-0.7786384752189766,0.8439942675574214,-0.16333921760069006,0.6880450387285942,1.0132108041379875,0.16954685240706224,0.6979938605023235,1.027860699059443,0.0,0.0,0.0,0.0
0.012902962519689972,0.6046980197721225,0.7481640299622222,-0.009359182209758779,-0.5203318869344594,0.0032303307675698154,0.8539067268213324,0.10200550176120479,-0.7957579359852477,0.8718335328063533,-0.08574241445585104,-0.7786735849272033,0.8438686621163056,-0.16337076014668656,0.6879846787937087,1.013148938985097,0.16955335862612436,0.698019526615336,1.0278713053723683,0.0,0.0,0.0,0.0
0.012902962519689774,0.6046980197721226,0.7481640299622222,-0.009359182209757379,-0.5203318869344594,0.0032303307675676358,0.8539067268213324,0.10200550176121234,-0.7957579359852418,0.871833532806347,-0.08574241445584455,-0.7786735849272133,0.8438686621163143,-0.1633707601466086,0.6879846787936831,1.0131489389851107,0.16955335862611057,0.6980195266153226,1.0278713053723822,0.0,0.0,0.0,0.0
0.012902962519689774,0.6046980197721226,0.7481640299622222,-0.009359182209757379,-0.5203318869344594,0.0032303307675676358,0.8539067268213324,0.10200550176121234,-0.7957579359852418,0.871833532806347,-0.08574241445584455,-0.7786735849272133,0.8438686621163143,-0.1633707601466086,0.6879846787936831,1.0131489389851107,0.16955335862611057,0.6980195266153226,1.0278713053723822,0.0,0.0,0.0,0.0
0.014196890362899107,0.6052720678673904,0.748390022204776,-0.009439260247888024,-0.5208843444965249,0.003363005430904817,0.8535684449526411,0.10041532354989012,-0.8004456719381386,0.8841807370930888,-0.08756437440432067,-0.7792001923433237,0.8501970639174121,-0.1684700501050286,0.6951335334779658,1.0124400533440532,0.16908886420647065,0.7053508254002938,1.02399226473842,0.0,0.0,0.0,0.0
0.016341860908456813,0.6063974404097374,0.7486408303754514,-0.00971545968574745,-0.5216481400996383,0.004001995578341404,0.8530960155838694,0.09633770584286871,-0.8107993989919603,0.9069239251294654,-0.09211548936296898,-0.7798394755061132,0.8601862706994142,-0.17443639711727893,0.7049818103803794,1.0122763189980604,0.1710425331953881,0.7177674221713064,1.0180059548615252,0.0,0.0,0.0,0.0
0.019094930692901864,0.6079674595979591,0.7493434531027158,-0.00897936943322485,-0.5222966875902534,0.0029558733753034766,0.8527114423234978,0.09507563933159549,-0.8193422536786353,0.9327828021801232,-0.07867062422606763,-0.7952679577391365,0.8768581759461584,-0.12626381557023936,0.6906908443126158,1.018944357228472,0.1482833362036947,0.7270950313741605,1.0040021262749703,0.0,0.0,0.0,0.0
0.021811346135414682,0.6097643487141918,0.7497030360266103,-0.008319230618056025,-0.5229623956025206,0.002185648095216052,0.8523123524448066,0.09250846712055882,-0.8294195204709435,0.9592664060921885,-0.06242430641068554,-0.8099009304344998,0.88649525249545,-0.07924351978820424,0.6774874458901016,1.0252314817671104,0.12542465894670635,0.7352499871098512,0.992048967505592,0.0,0.0,0.0,0.0
0.024323471401324688,0.6117463653369375,0.749777306633225,-0.007954816205238377,-0.5235494261424961,0.001884697057839529,0.851956082906862,0.08835279750097677,-0.8413092314835166,0.9858011131101934,-0.04733559684864935,-0.8227478991897773,0.8927972854914701,-0.043925312674512884,0.6688474279373692,1.0318549833205735,0.10594348504791727,0.7426318048230848,0.9821239718909334,0.0,0.0,0.0,0.0
0.02640021039772389,0.6137531732195702,0.7497075512564423,-0.007770600438296675,-0.5240846830031354,0.0018113959454833207,0.851628781603264,0.08352336078210966,-0.8523930047422934,1.008927573454516,-0.0344523125630314,-0.8342686587314563,0.8975112172274949,-0.017220544924092165,0.6624914256172589,1.039169591116195,0.08849999633836733,0.748530825227441,0.9737934317725091,0.0,0.0,0.0,0.0
0.02794251648302819,0.6157347491030838,0.7495989618613553,-0.007680908031149881,-0.5245575642530375,0.0018366559536974946,0.8513383534950397,0.07842481564190672,-0.8616286909918714,1.0275051019731363,-0.0235423271917096,-0.8448567472083699,0.9009894939580901,0.004382142284858687,0.6567357537603064,1.0467225589428948,0.07202550551306143,0.7526379330479788,0.9664168160876585,0.0,0.0,0.0,0.0
0.028939311006712466,0.6177010544701729,0.7495143291597914,-0.007640347630467622,-0.5249645803928712,0.0019018645721858264,0.8510876554927649,0.07317216245664651,-0.8687759543157422,1.0415408226865805,-0.013941868286685108,-0.8548391493304505,0.903288225908331,0.02315806262385377,0.6506910016072819,1.0541588509178192,0.05588445385807664,0.7549892762100815,0.9594454191739875,0.0,0.0,0.0,0.0
0.02942616855543187,0.6196925146273976,0.7494769649593318,-0.0076297266955990895,-0.5253075272047211,0.0019871002591732075,0.850875925482189,0.06772437717125918,-0.8740181383774167,1.0515640260906713,-0.005048684229035722,-0.8644229620236773,0.9043997126696595,0.04038786292081095,0.6439946211171517,1.0612640127053115,0.03971080982307438,0.7557564077793018,0.9525119285004781,0.0,0.0,0.0,0.0
0.02945661800813553,0.6217634976784023,0.7494788727872844,-0.007643602955467919,-0.525590293628834,0.002089310459168592,0.850700918865626,0.06196820541522152,-0.8777362138412055,1.058281495516404,0.003520273281081761,-0.8736719936539471,0.904329740665427,0.05672656696522688,0.6365752646452786,1.067897084462976,0.023248975316438256,0.7551042501239686,0.9454359140092341,0.0,0.0,0.0,0.0
0.02908409578969393,0.6239736325052917,0.7494889244628535,-0.007682712896053679,-0.5258167875658185,0.0022107179748453356,0.8505602827328321,0.05576329431629079,-0.8803799168809545,1.0623961725311064,0.01193907449647763,-0.8824745824165837,0.9031400006006054,0.07245066378359188,0.6285110102419192,1.0739043648334905,0.0062679551885505315,0.7531160552778874,0.9382042145007002,0.0,0.0,0.0,0.0
0.028351121167312605,0.6263831750764093,0.7494587864299697,-0.0077502217085123086,-0.5259900357890175,0.0023538127768217647,0.8504521596654033,0.04896423366940587,-0.882394948502409,1.06450975475872,0.020235918628904087,-0.8904857805665993,0.9009975806136475,0.0875812608412637,0.6199689280163052,1.0790112681125978,-0.011460201900538754,0.7497610734118183,0.9309542465295152,0.0,0.0,0.0,0.0
0.02728336749296819,0.6290491756643506,0.7493274666592781,-0.00785060445288878,-0.5261125984041802,0.002520210000728525,0.8503749469214614,0.04143280083632922,-0.884174646966091,1.0650620809584104,0.02835086798092545,-0.8970725659493085,0.8982395882211184,0.10191133170816036,0.6112196562852743,1.0826719138020848,-0.03013097872355717,0.7448949924169388,0.923961821289409,0.0,0.0,0.0,0.0
0.0258890508027655,0.6320202247429136,0.7490288126847129,-0.00799007904088291,-0.5261883673523203,0.0027116478013355636,0.850326177220378,0.03304985072492652,-0.8860140434961352,1.064293322009411,0.03617412188499442,-0.9013555627759927,0.8954154079225777,0.11498036185484728,0.6027530670644807,1.0838561937598057,-0.04984373592264354,0.7383078095458325,0.9175977862499085,0.0,0.0,0.0,0.0
0.024168533291471523,0.635330994616317,0.7485103326508716,-0.008175488805237562,-0.5262250828790865,0.0029292339759493945,0.8503009720798913,0.023732791485087102,-0.8880575389189655,1.0622619387658898,0.04358555136605069,-0.9025262400657192,0.8931858079032342,0.12614266174863736,0.5955005031574077,1.0808462702828747,-0.07057656088802307,0.7298547455029604,0.9121554033084694,0.0,0.0,0.0,0.0
0.02212955092933485,0.6390072963058512,0.7477507037061657,-0.008406225613959482,-0.5262288273363012,0.003170011377174404,0.8502955413731493,0.013429371616174987,-0.8903295643139353,1.0589770757365196,0.05050174113919869,-0.900668968096902,0.8916278189371528,0.13529732661797317,0.5896073526381284,1.0737282914601674,-0.0923133721794995,0.7195549903733477,0.9076165137595226,0.0,0.0,0.0,0.0
0.019790012010592505,0.6430636504904081,0.7467620005462854,-0.008673230583361146,-0.5262032613890917,0.0034271818388412097,0.8503076838411932,0.002124368797117379,-0.8927408668016361,1.0544180804878434,0.05691790143193506,-0.8967602377324323,0.8902499304530636,0.142966776579319,0.5843921353557002,1.064340453809656,-0.11502367748694785,0.7076201839173675,0.903627462326862,0.0,0.0,0.0,0.0
0.017168315626062504,0.647489333273903,0.7455784034419775,-0.00896535301865227,-0.5261548660940668,0.0036933007739209187,0.8503334868509994,-0.010126902088443076,-0.8950463184810917,1.0484179769964366,0.06292736009542534,-0.891848775635376,0.8887146657215649,0.14968165608724782,0.5795398233260781,1.0537416404482773,-0.13851045859600322,0.6944045061057411,0.8997011900924688,0.0,0.0,0.0,0.0
0.014281130421428045,0.6522424411545431,0.7442448152418225,-0.009268897296722015,-0.5260912070928366,0.003960626140174655,0.8503684159251698,-0.023181848598009452,-0.8968796899673075,1.040664881587592,0.06872902891471218,-0.8867557811183271,0.8869923062450684,0.15603204852503608,0.5748779875257259,1.042392963065733,-0.16241236934404457,0.6803203695398611,0.8953737642058515,0.0,0.0,0.0,0.0
0.011152763789554461,0.6572444325963527,0.7428166107522461,-0.009563666435672627,-0.52602020463988,0.0042172705614120535,0.850407840523556,-0.036786831354446915,-0.897793319526517,1.0307828699007966,0.07461373686152634,-0.8820466358987077,0.8853958773001007,0.16290314935250752,0.5702301210491759,1.030347923730866,-0.18626730270045988,0.665825674753225,0.8902372732272494,0.0,0.0,0.0,0.0
0.00782902055813699,0.6623727202828458,0.7413554121674395,-0.009816267176352261,-0.5259502549798346,0.004438721867441952,0.8504470988448093,-0.050540687298714096,-0.8973247021706499,1.018454669363668,0.08088021980562468,-0.8780899211041786,0.8846021974644577,0.17178783459447217,0.5653144262620706,1.0173729343726787,-0.2096075643126445,0.6513822307625545,0.8840170995912608,0.0,0.0,0.0,0.0
0.004386781798210373,0.6674474472606565,0.7398911853929215,-0.009958988194099693,-0.5258768917150897,0.004533230392493302,0.8504903074911755,-0.0637332435424461,-0.8951612809027186,1.0035760556599191,0.08779031771224709,-0.8752161414620919,0.8855865550969362,0.18477001923378228,0.5597375367340902,1.0030181957830808,-0.23230754720950297,0.6370568339192774,0.8769200624255293,0.0,0.0,0.0,0.0
0.0008713670120488507,0.6722079563818874,0.7383636684218368,-0.009929592035195962,-0.5258608480709731,0.004494558569412243,0.8505007763731657,-0.0756862104975479,-0.8908103497676231,0.9854861227722588,0.09685106147177125,-0.8743573183131927,0.8900920385825111,0.20585960333912784,0.5528659280082412,0.9862498302308751,-0.25357603451660365,0.6225200166474241,0.8708258783052621,0.0,0.0,0.0,0.0
-0.002202020122678107,0.676257939360059,0.7362039111588307,-0.009634810671119778,-0.525889166090578,0.004188204802316235,0.8504882211720641,-0.0852161445657384,-0.8877914986056444,0.968555191935358,0.10813639653636532,-0.876766050311945,0.8987538943644592,0.23878060180677108,0.5453664782882828,0.9655061707487926,-0.27368819143586925,0.604972503396909,0.8726876773982051,0.0,0.0,0.0,0.0
-0.00450540012328962,0.679203665451248,0.733490505032663,-0.009020640336039283,-0.5261414285677737,0.003547716416795358,0.8503418364991905,-0.09123121966182954,-0.8859349825098269,0.9541308725345211,0.12185818324984805,-0.8860887618064542,0.9162941456195255,0.2873944641469127,0.5367973705672555,0.9395590473593248,-0.2924043509811633,0.585030696928016,0.8840393955418571,0.0,0.0,0.0,0.0
