zhuoxili-jackie/tripod-support-walk/examples/pcbB样数据/trajectory_trotting_acc_005.csv
root_pos_x,root_pos_y,root_pos_z,root_rot_x,root_rot_y,root_rot_z,root_rot_w,FL_hip_joint,FL_thigh_joint,FL_calf_joint,FR_hip_joint,FR_thigh_joint,FR_calf_joint,RL_hip_joint,RL_thigh_joint,RL_calf_joint,RR_hip_joint,RR_thigh_joint,RR_calf_joint,FL_foot_joint,FR_foot_joint,RL_foot_joint,RR_foot_joint
0.0,0.0,0.72963,-0.009919430704566214,-0.5230949929384007,0.0038044909978256812,0.8522081665329894,0.0,-0.81,0.872,0.0,-0.81,0.872,0.0,0.65,1.0,0.0,0.65,1.0,0.0,0.0,0.0,0.0
0.001551175385007787,-0.0004530207243328566,0.730050173798438,-0.009839763983957544,-0.5235355184200233,0.0037889988185670674,0.851938603119597,0.0011607230348680603,-0.8131096971895269,0.8829239748580503,0.0011607230348680624,-0.8156031425170559,0.8866754227545512,0.0024747946248373583,0.6576744430097208,0.9942744466338234,0.0024747946248373583,0.6577664082307791,0.9973429997391586,0.0,0.0,0.0,0.0
0.004405765184921071,-0.0014863906148260071,0.7312112326408753,-0.009635066829222282,-0.5242794056023672,0.0034990062159159572,0.8514846019182766,0.004506905126745075,-0.8168726336872372,0.9014401859743232,0.004511171098152462,-0.8257634452558624,0.9141025612247842,0.006527100760705491,0.6741720563064254,0.9794017399198851,0.00655711797901635,0.6732400342585431,0.9890485668559433,0.0,0.0,0.0,0.0
0.007421358195471364,-0.0024311290398489854,0.7320290198595036,-0.009379031670883721,-0.5244146828965841,0.0033395698563099666,0.8514047929161349,0.007223443162969098,-0.8260397213517617,0.9251547587107091,0.004861978885822521,-0.8270036821937073,0.9074314151059315,0.007908357637712124,0.6673705025856618,0.9981376971744356,0.010764124491063126,0.6864353443460396,0.9818028287189109,0.0,0.0,0.0,0.0
0.010891452173380809,-0.0033103904874638955,0.7325699969195772,-0.00911121095743362,-0.5245156019654543,0.003106661315791861,0.8513464146780529,0.009988675588262379,-0.8380941810953143,0.9531761537841148,0.00512510785926315,-0.8311031415864713,0.9026770970079984,0.00926080963324677,0.6639650445511762,1.013734464187687,0.014095920874786394,0.699540981809566,0.9758992401335259,0.0,0.0,0.0,0.0
0.01429028494839665,-0.004197796914118852,0.7329601187434184,-0.00884311349719259,-0.5246719047488694,0.002857542689437799,0.8512537965616641,0.012852768733433153,-0.8492977291621858,0.9793330342779498,0.005573240495476694,-0.8369517077359445,0.9008609721040439,0.01135463656997612,0.6624846420524975,1.0272184930382111,0.017515355416550187,0.7120297294386222,0.9712298139779888,0.0,0.0,0.0,0.0
0.017358036721368764,-0.0050915664610156975,0.7332998278367127,-0.008584742942625841,-0.5248579760428366,0.0026123693666691263,0.8511425160918226,0.015757391780646463,-0.8584650991108438,1.001566455951601,0.006069560936457044,-0.8437129834862883,0.9008638280417512,0.013989429467847704,0.6616817891276394,1.0393657298200356,0.02122529734019386,0.7235586801337277,0.9672105677276888,0.0,0.0,0.0,0.0
0.019972787599545443,-0.005966404747365369,0.7336380927476042,-0.00834348804003076,-0.5250426247444655,0.0023821454191650443,0.851031699639896,0.01860031750112393,-0.8653547065517092,1.0193656389367016,0.006548448850460128,-0.8509327196943242,0.9016369958941138,0.01690806680904149,0.6609483324514352,1.0505513361301428,0.025151339794914414,0.733860718001901,0.9635194350032755,0.0,0.0,0.0,0.0
0.022104304079588747,-0.006788758401779564,0.7339962895367502,-0.008125048791989555,-0.5252095334825168,0.0021741583620543373,0.8509313735881534,0.02126556466182491,-0.8701215978939983,1.0329514328503364,0.006982884624168729,-0.858377035109015,0.9024842125132215,0.019930832772073487,0.6600138346134659,1.0610233749118037,0.029086368123940866,0.7428293225849776,0.9599719671957607,0.0,0.0,0.0,0.0
0.02377600956104699,-0.007525585808563087,0.7343779995524685,-0.007933857692979319,-0.5253523514284166,0.0019936097847999363,0.8508454538109532,0.023644905475169262,-0.8730996484353192,1.0428787431633753,0.0073518552587338686,-0.8659081843527463,0.9029856377768807,0.022935622919413107,0.6587856333843807,1.0709465349284464,0.03278047240830121,0.7504681545267421,0.956468984918914,0.0,0.0,0.0,0.0
0.025037300350395853,-0.00814891138948441,0.7347733666113389,-0.007773287931471746,-0.5254701469991528,0.001844323270335747,0.8507745289317832,0.025649577413155593,-0.8746878315867141,1.0498121416198993,0.0076345918930494465,-0.8733955168575458,0.9029199147080729,0.025832444417100017,0.6572703591279238,1.0803995766978296,0.0360003735518989,0.7568286282218252,0.9529947152690099,0.0,0.0,0.0,0.0
0.02594388866200864,-0.00863708519844229,0.7351610456224373,-0.007645873629121496,-0.5255642165336094,0.0017291821177724245,0.850717817401907,0.027212834051511866,-0.8752880032882264,1.0543940873893813,0.007817087321383556,-0.8806257378550714,0.9022242291782855,0.028539168371742196,0.6555332999780092,1.08933937822369,0.03855917562297517,0.7619523018452139,0.9496318039059268,0.0,0.0,0.0,0.0
0.026543768989862458,-0.00897427340770957,0.7355090605043343,-0.007553767943861275,-0.5256359996736927,0.001650555900934128,0.8506744454267484,0.02828703352012731,-0.8752681162398435,1.0571613030810592,0.007898246132887235,-0.8872005176045508,0.9009978589201598,0.03094852226974378,0.6536799597449833,1.0975212232320142,0.04032610396748052,0.7658223154282415,0.9465791477467473,0.0,0.0,0.0,0.0
0.026867609281512876,-0.009149809611666676,0.7357761936173406,-0.007499473812223265,-0.5256859623436101,0.0016107179063513818,0.850644127984928,0.02884006957588775,-0.8749345980573061,1.0584867229431243,0.007888341615786562,-0.8924504596075427,0.8995364936838746,0.032877283150718056,0.6518726246941072,1.104359507401086,0.041230374128509745,0.7683325126064948,0.9441587431997914,0.0,0.0,0.0,0.0
0.02692523282880352,-0.009158592901459152,0.7359174881163102,-0.007486565810045095,-0.5257135612003803,0.001612058947877304,0.8506271828294312,0.02885519951925348,-0.8745047628055317,1.058550250962886,0.007799857716058927,-0.8954577345724373,0.8983487973550969,0.03400754781805203,0.6504326704142291,1.108718655551784,0.04126944062863725,0.7693006606693273,0.9427756491854785,0.0,0.0,0.0,0.0
0.026714638853541688,-0.009001915048050315,0.7359008826184238,-0.0075188081219922966,-0.5257196335271784,0.0016554930302826274,0.85062306210877,0.028336598587718632,-0.8740730352286438,1.0573753040647385,0.00764393501509961,-0.8953671406555486,0.8980405113407984,0.03390428055820997,0.6500785577247975,1.1087336622014698,0.04049552280217579,0.7685791086849338,0.9427498503769022,0.0,0.0,0.0,0.0
0.026238362139651774,-0.008681922117249323,0.7357233119368337,-0.007595325057777522,-0.5257059321866315,0.0017399102142726598,0.8506306816788927,0.027293558854507897,-0.8736334216841136,1.0549556032418368,0.007428639118161846,-0.8922057936140206,0.8986404502015586,0.032575117752876775,0.6508173997760868,1.1044114357145538,0.03892630967427307,0.766171242716103,0.944108839182585,0.0,0.0,0.0,0.0
0.025505854508427354,-0.008202289217917916,0.7354109300428603,-0.00771041506779562,-0.525675017352956,0.0018620136978439812,0.8506484929366775,0.02574278945645865,-0.8730869847493784,1.051271540657237,0.007163096841533956,-0.8868900915799327,0.8996213093866765,0.030468935690058662,0.6519487678735434,1.0976291213516822,0.03654736262593089,0.7622408335906807,0.9465818046837428,0.0,0.0,0.0,0.0
0.02452101628191551,-0.00757503544909393,0.7350035037055539,-0.007858181893253309,-0.525631119643611,0.0020165306119338845,0.8506739144018862,0.023728580223718147,-0.8722282997030761,1.0461873877687158,0.006859251150364165,-0.880407739439059,0.9005832282796942,0.02791829314735022,0.6531718679419279,1.0895400083503575,0.033406377007527056,0.7570116519155012,0.9498005982517145,0.0,0.0,0.0,0.0
0.023276959290123366,-0.006821069284470176,0.7345378224789496,-0.008033212235180444,-0.5255786043530867,0.0021973649885209407,0.8507042786624229,0.021321822930062496,-0.87078796663726,1.0394385978558507,0.006532739454160868,-0.8735151325468176,0.9013871130814191,0.025124813404071484,0.6543506688036108,1.0807600077698312,0.02962940382972097,0.7506682647753322,0.9534714254503829,0.0,0.0,0.0,0.0
0.021763762122390676,-0.005971290429187271,0.7340418936441174,-0.008229583515462846,-0.5255231817943696,0.0023970093522734026,0.8507361010901378,0.018624415802980313,-0.8684724820529824,1.0306915876552285,0.0062090499533550185,-0.8667277961735674,0.9021737718563809,0.022222570329397583,0.6554212855412718,1.0715900135256957,0.025414410995210312,0.7433532308944016,0.9574240137614358,0.0,0.0,0.0,0.0
0.019982788502035054,-0.005068666520791226,0.733532846000124,-0.008439803766024233,-0.5254748244629249,0.002605850956605564,0.8507632973447087,0.01577601454678753,-0.8650092960481632,1.0196428081361468,0.005917739051559602,-0.8604201496392532,0.9033847096454052,0.019337159620785863,0.6563941885532412,1.0621821406516743,0.021027924222680787,0.7352076264684536,0.9616211252869638,0.0,0.0,0.0,0.0
0.017965953578336906,-0.004169960762576507,0.7330142419853367,-0.008653851063935087,-0.525452595031641,0.002811286806692919,0.8507742226365159,0.012959431539152652,-0.860209734440288,1.0061593219233156,0.005673824335116871,-0.8549479134778053,0.9058426512349527,0.01662906354822619,0.6574067602146741,1.0526698671917887,0.01679210792937942,0.7264248634680974,0.9661722245866066,0.0,0.0,0.0,0.0
0.015800604628154972,-0.0033450620805450734,0.7324690425736801,-0.008857000319619293,-0.5254891551452446,0.0029899388550304424,0.8507489416012919,0.010416470899695994,-0.8540757568606073,0.9904926655769103,0.005483390861193949,-0.850796367295006,0.9109111706036968,0.014264668443126242,0.6588275590439925,1.043294528621072,0.01298645645334006,0.7172701487212618,0.9713713278146965,0.0,0.0,0.0,0.0
0.0136499908371208,-0.002667762364021376,0.7318516383802458,-0.00903013374651573,-0.5256543119799899,0.0031255222831797842,0.8506445979913237,0.008371847631354387,-0.8468549817332984,0.9734367206030387,0.005707191048794187,-0.8488415083034698,0.9208127157661304,0.012784781154707285,0.6613411866513986,1.0345059849743927,0.00990804138791396,0.7082063256115618,0.9777862873649119,0.0,0.0,0.0,0.0
0.01204824437614348,-0.002091872837288006,0.731078161623316,-0.009161944082367982,-0.5259628990438371,0.0032002522489759638,0.8504521420959423,0.006743797035617333,-0.8413271834081336,0.9600715298581305,0.006147075160349386,-0.8499297079200769,0.9375639562515223,0.012214937914531002,0.6668487750576934,1.0268362729957832,0.0069376010604794165,0.7004176529017706,0.9853683761268721,0.0,0.0,0.0,0.0
0.011279416044060513,-0.0017957694046312987,0.7303542437958269,-0.009213279823420907,-0.5265293227854934,0.0031749154336279083,0.8501011161232142,0.006073287545204864,-0.8371781492877519,0.9516759020181554,0.007950802463117895,-0.8573390095254615,0.964421432876972,0.01357780189010388,0.6746374396455991,1.0206826775740916,0.004841409810106362,0.6959829264316728,0.9927760625657545,0.0,0.0,0.0,0.0
0.011254332579712553,-0.0017160220247028342,0.7303253970020878,-0.009302403567829812,-0.5265526189700017,0.0031685560031874125,0.8500857397913154,0.0059518925655008305,-0.8372173746670929,0.9516046615768503,0.00794881589407655,-0.8573492524157418,0.9644328692115575,0.013583529768105939,0.6746532610894934,1.0206867570389466,0.0048256171435924235,0.6959483132699141,0.9927564684521737,0.0,0.0,0.0,0.0
0.011254332579712553,-0.0017160220247028342,0.7303253970020878,-0.009302403567829812,-0.5265526189700017,0.0031685560031874125,0.8500857397913154,0.0059518925655008305,-0.8372173746670929,0.9516046615768503,0.00794881589407655,-0.8573492524157418,0.9644328692115575,0.013583529768105939,0.6746532610894934,1.0206867570389466,0.0048256171435924235,0.6959483132699141,0.9927564684521737,0.0,0.0,0.0,0.0
0.012003684545133406,-0.0010433773786112954,0.7304708616609665,-0.009458602447460442,-0.5262212798506317,0.0033205504749667858,0.8502885824334273,0.0039188961450051536,-0.844251356072714,0.9629639455728102,0.00589314912961747,-0.8604818251607973,0.9703424584321432,0.010701186609734027,0.6766289608321929,1.019939722404658,0.0019225781133532988,0.6983077870486888,0.98762724104361,0.0,0.0,0.0,0.0
0.013767206793266372,0.00033143644482458,0.7314331843106189,-0.009759480487890274,-0.5262944501390108,0.0037271862432711744,0.8502382091956293,-0.0004984681356655953,-0.8532656584916922,0.9832148670745149,0.0014415261764230327,-0.8613908381166215,0.9795679575421697,0.005482845354237291,0.6863360764204983,1.013427736126324,-0.003348198751697971,0.709360729629982,0.9722858511152653,0.0,0.0,0.0,0.0
0.01541122907488745,0.0014260265493949112,0.7324212048806885,-0.010124371736810054,-0.5258519288040008,0.003975735382306431,0.8505065782216013,-0.0006668458976836966,-0.8419493168214723,0.9521205067411499,-0.001831756365899463,-0.8651876307689673,0.9911141686160606,0.0015183870505020517,0.6945592549448935,1.0048994147251111,-0.005431746813642948,0.693684895222339,0.9944247772091924,0.0,0.0,0.0,0.0
0.01743697854304163,0.0025291284162003783,0.733291266409527,-0.010467155791441758,-0.5255599253052955,0.004265847930396245,0.8506814950991731,-0.0018169171749350046,-0.8382463455992628,0.932115035196078,-0.0052809808597136946,-0.8700565485168676,1.0051876258877785,-0.002402691964340455,0.7038461227039526,0.9970800518523787,-0.007924231262329613,0.6833555888325911,1.0109352652154586,0.0,0.0,0.0,0.0
0.0195057005044453,0.0036205694272077515,0.7340445329938513,-0.010772111901656679,-0.5254463442894153,0.004543338516618869,0.8507464128359231,-0.0030832543536018758,-0.8395388570499301,0.9209792863671129,-0.00871304326954743,-0.874347431356515,1.0186266294825865,-0.006709401300660935,0.7134111860463375,0.9904081026468406,-0.01090380883851971,0.6768791983907532,1.0241625502719258,0.0,0.0,0.0,0.0
0.021418924859195287,0.004651386337032954,0.734704634046689,-0.011039348335878319,-0.5254304104959088,0.004796270093055307,0.8507514397916788,-0.004089369727514371,-0.8435488805582184,0.9150194190775608,-0.011959457214411252,-0.8777167305359823,1.0303123242383097,-0.011139876650920848,0.7225028434054988,0.9846526764353105,-0.014075096995847542,0.6726712610134853,1.0355545752351425,0.0,0.0,0.0,0.0
0.023076147152914343,0.005588691289567763,0.7353013115690745,-0.011271200095818373,-0.5254616803401821,0.0050203109589566,0.8507277937274341,-0.004819800704962795,-0.849007654588407,0.9118469802911453,-0.01491025730864425,-0.880057529791172,1.0398158672926034,-0.015424378636389305,0.7307487105271445,0.9795293830480807,-0.017280568079009802,0.6696605705706269,1.0458775640568796,0.0,0.0,0.0,0.0
0.024441045006486264,0.006410393245774316,0.7358579716671065,-0.011469092068462866,-0.5255120323836381,0.005212961405305965,0.8506928874632315,-0.005341100415000157,-0.8552425834505454,0.9100007020558151,-0.017490326091433847,-0.881414605137376,1.047118404979573,-0.01934003626172088,0.738006317166431,0.9748044708030693,-0.020416772632434348,0.667184975280622,1.055549762979882,0.0,0.0,0.0,0.0
0.02551462145884614,0.007101406558541728,0.7363873284534014,-0.011633632479725401,-0.5255667136774183,0.005372650025283015,0.8506558779561517,-0.005703262055435947,-0.8618852155475533,0.9086051513509509,-0.01964896106476015,-0.8819233689626997,1.0524178839836311,-0.02271354142179035,0.7442472929804427,0.970328194449351,-0.023408086940684948,0.6648730942474091,1.0647949956307292,0.0,0.0,0.0,0.0
0.026315220273390207,0.007651209990361706,0.7368905209559533,-0.011764973381909901,-0.5256182238789647,0.005498340197549123,0.850621441290259,-0.005926357530536676,-0.8686792340283618,0.9071588030025947,-0.021352670974396394,-0.8817629969700468,1.055995278912902,-0.02541771574264668,0.7494777266845243,0.9660485838389541,-0.026194883142229907,0.6625479901381237,1.0736990048706365,0.0,0.0,0.0,0.0
0.026863734217083594,0.008052043067964894,0.7373572186790598,-0.011862878847507525,-0.5256623556312453,0.005589103306553451,0.8505922183407795,-0.006014123109040316,-0.8753341484145881,0.9054201600932057,-0.022578824047881196,-0.8811220693647733,1.058120970034109,-0.02736599507560088,0.7536801656439931,0.9620219400102267,-0.02871544525638794,0.6601566100573177,1.082201678132709,0.0,0.0,0.0,0.0
0.0271724640274685,0.008297758669252734,0.7377658779754926,-0.011926427753883266,-0.52569568302545,0.005643686872723043,0.8505703721432576,-0.005966144984929744,-0.8813986836038092,0.9033654434392371,-0.023310816254738746,-0.8801717440718374,1.058984641260178,-0.02850877035747922,0.7567698132967586,0.9584241068932742,-0.030871653036800062,0.6577281685289555,1.0900322209729243,0.0,0.0,0.0,0.0
0.027237125324686376,0.008383860085753468,0.7380850014136578,-0.011953420197481392,-0.5257140953354927,0.00566016354284345,0.8505585037255433,-0.005779075181729257,-0.8861701030874538,0.9011868364870327,-0.023536606202655335,-0.8790400382458413,1.0586396013133874,-0.02883816435067917,0.7585692983341836,0.9555528666047748,-0.03247167578621941,0.6553795745190863,1.0965813018850872,0.0,0.0,0.0,0.0
0.02703402321083785,0.008309203575108788,0.7382787517911955,-0.011939795531066395,-0.5257123023589981,0.005635811022177292,0.8505599650025857,-0.005440867875308632,-0.8887162320190518,0.8992726737123784,-0.023252118665619114,-0.8777826010567934,1.0569706296606498,-0.02840389806784965,0.7588262737046444,0.9537850177016407,-0.033160351843057476,0.6534148333522062,1.1007038582220414,0.0,0.0,0.0,0.0
0.026528710376880267,0.0080782883681893,0.7383239283252847,-0.01188082271410997,-0.5256856463127325,0.00556889776180459,0.8505777064384648,-0.004936999469213559,-0.8881665235944388,0.8980596121985458,-0.022469790701545648,-0.8763438741825498,1.0537218641810413,-0.027304206547398287,0.7573241812099841,0.9534059447602332,-0.03243276415394204,0.6525518790089563,1.1005465051398062,0.0,0.0,0.0,0.0
0.025692100375326262,0.007696967803327385,0.7382259789391471,-0.011777114836383754,-0.5256310124025272,0.0054607063867792805,0.8506136132537395,-0.004286745749150942,-0.8845348439107186,0.8975125186254698,-0.021208185927728482,-0.8745641027510545,1.0486063374123282,-0.025583885340175326,0.7539957635806687,0.9544083864796,-0.030308373062407523,0.6527570929148492,1.096078521418281,0.0,0.0,0.0,0.0
0.024503202857959077,0.007174459606296774,0.7380188200545013,-0.011634948014320348,-0.5255464645843395,0.005315777768354381,0.8506687275633935,-0.0035427230968326077,-0.8787265642702449,0.8971383543149547,-0.019498407916023294,-0.8721851673636243,1.041318056055681,-0.023249203709101378,0.7489343131382917,0.9564914942626964,-0.027329621934221757,0.6532444483818183,1.0890904407093798,0.0,0.0,0.0,0.0
0.022938308328516354,0.006531301692413505,0.737748372604433,-0.011460748112858438,-0.5254303549187515,0.005140467678501616,0.8507438915294631,-0.002749404905718895,-0.8717166461778014,0.8965022014550649,-0.017406401219243202,-0.8688517364521937,1.0314428051452065,-0.020393442910009326,0.7423005384534612,0.9592644180620882,-0.02389249127318553,0.6536302331584029,1.0806729821919563,0.0,0.0,0.0,0.0
0.020968982917744013,0.005799861983955936,0.7374542196825085,-0.01126027439393795,-0.5252799154900794,0.0049415930508974705,0.8508406415195666,-0.001934985399485299,-0.8642553979624956,0.8953702385658855,-0.015033136501578259,-0.8641677729510382,1.0184647403155827,-0.0172175814198434,0.7342284696342601,0.9624275803673845,-0.020234024665884382,0.6536978355163331,1.0714004887000892,0.0,0.0,0.0,0.0
0.018574377684375573,0.005023583187686215,0.7371611442449495,-0.011039463682645103,-0.5250922958235413,0.004726544475719037,0.8509605577732032,-0.001123360929215019,-0.8568247550917942,0.8937268079822319,-0.012513051073266359,-0.8577666374738256,1.0018678241679313,-0.014008106746064003,0.7248225517470329,0.9658329918039705,-0.016499966139267193,0.6532952229920547,1.061549295232301,0.0,0.0,0.0,0.0
0.01576291808446447,0.004254313626941541,0.7368723768997555,-0.010805214299195006,-0.524866849722732,0.004503189767795788,0.8511038471819985,-0.00034502179828493104,-0.849669202979328,0.8917628616337709,-0.010005710055769784,-0.8494186447498334,0.981323156534387,-0.011095811231265084,0.7141912788942708,0.9695132319271159,-0.012800816514445725,0.6523431676041677,1.0512707527439007,0.0,0.0,0.0,0.0
0.012603219010426148,0.003544952288568294,0.7365583769328397,-0.01056602739052797,-0.5246089095885137,0.004279940195120412,0.8512670163688121,0.00036532875578161844,-0.8428129254585373,0.8898772884800387,-0.007674894654437905,-0.8392110932818947,0.9569988281121757,-0.008778659493105086,0.7024807595257477,0.9737385792298238,-0.009245187718066346,0.6509373125128869,1.0407481314257125,0.0,0.0,0.0,0.0
0.009266754348936684,0.0029337890695951383,0.7361342070915499,-0.01033504528792612,-0.5243373194725798,0.0040737112286724,0.8514381757497321,0.0009739498345601015,-0.8360433499941063,0.8886639592332334,-0.005666454219207907,-0.8278347990160135,0.9300541073337389,-0.0071252284287986216,0.689860093354234,0.9791588393634942,-0.005883944446745011,0.6496061655615976,1.0303934508220154,0.0,0.0,0.0,0.0
0.006228984411515353,0.0023109424439343765,0.7354181341089087,-0.010116530583052959,-0.5239537230113012,0.003892282740808005,0.8516777571867334,0.002052074013303797,-0.8281081426452943,0.8868884717052957,-0.0037385638020332353,-0.818946611092448,0.9060665077136618,-0.0052501097369004835,0.6765331646762766,0.9863414248186625,-0.0018452125882682802,0.6504019739057489,1.0203027684852104,0.0,0.0,0.0,0.0
0.003718440573680739,0.00180455597801546,0.7345127803137771,-0.0099403561068403,-0.5235527021962425,0.0037600625529293774,0.8519270034886086,0.0030402186289419223,-0.8202964167783894,0.8852781158105962,-0.0022468872919874146,-0.8126199187075979,0.8864091805482206,-0.0037287897829775198,0.6638893693007158,0.9947242625874063,0.002360407871093012,0.652844342094381,1.0108345418850417,0.0,0.0,0.0,0.0
0.0021042006988556735,0.0015117707615167895,0.7336851883322945,-0.009850943135698004,-0.5231883146456039,0.0037110252483777014,0.8521520842133966,0.003621184975487199,-0.8145507303799515,0.883152355528003,-0.0014777788839925954,-0.8095051606293819,0.8740622968328196,-0.002665389108405767,0.654297981168368,1.0019917173470738,0.006250591874165673,0.6560918009076522,1.0024934066054483,0.0,0.0,0.0,0.0
0.0020883465112747565,0.0014470200420384815,0.7336496960358387,-0.009787102383466414,-0.5231851817610311,0.0037123441380147735,0.8521547375410251,0.003634835272761331,-0.8145690998102917,0.8831603442235221,-0.0013690741280906272,-0.8095622126290081,0.8739118564651188,-0.0026647044463324583,0.6542257583811446,1.001925676197803,0.006243024896148373,0.6561243231543367,1.0025041181579453,0.0,0.0,0.0,0.0
0.0020883465112747487,0.0014470200420384732,0.7336496960358387,-0.009787102383466402,-0.523185181761031,0.0037123441380147726,0.8521547375410251,0.0036348352727613247,-0.8145690998102916,0.8831603442235221,-0.0013690741280906373,-0.8095622126290081,0.8739118564651188,-0.002664704446332492,0.6542257583811445,1.0019256761978033,0.006243024896148301,0.6561243231543366,1.0025041181579453,0.0,0.0,0.0,0.0
0.0020883465112747487,0.0014470200420384732,0.7336496960358387,-0.009787102383466402,-0.523185181761031,0.0037123441380147726,0.8521547375410251,0.0036348352727613247,-0.8145690998102916,0.8831603442235221,-0.0013690741280906373,-0.8095622126290081,0.8739118564651188,-0.002664704446332492,0.6542257583811445,1.0019256761978033,0.006243024896148301,0.6561243231543366,1.0025041181579453,0.0,0.0,0.0,0.0
0.0035636851312481456,0.0009685287173800165,0.7340354923634482,-0.009703243902859055,-0.5235987129567876,0.003683473142990977,0.8519017941484581,0.004900918017958977,-0.8173629831398374,0.8932350024180938,-0.00012036823302146631,-0.8149649144219068,0.8878792187470426,-0.0001435282276870749,0.66153621669429,0.9963012592042622,0.008906026037505317,0.6634887125086845,1.0001602970674508,0.0,0.0,0.0,0.0
0.006294054578910427,-4.578170695469764e-05,0.7351208078536102,-0.009496829621706565,-0.5243125159907612,0.0033896830056979114,0.8514662094597147,0.008219814451466526,-0.8207571279715192,0.9105632851223309,0.003177224987545323,-0.8247596457251899,0.9141183469175278,0.0037173306183704872,0.6773032387324385,0.9821137369261097,0.013023999438189326,0.6782666844592655,0.9923926337929925,0.0,0.0,0.0,0.0
0.0091956829843339,-0.0009282717772190049,0.735935264183154,-0.009236001098317452,-0.524430203771363,0.003212899096819036,0.8513972838431141,0.01084404590057712,-0.8293997882486311,0.933188788432051,0.0036332964706192864,-0.825817346493185,0.9071058510216377,0.005689968768821271,0.6701237821088224,1.0004024726855234,0.016822774885668763,0.6910846809273563,0.9849093533166386,0.0,0.0,0.0,0.0
0.012548025513572418,-0.0017205623540591543,0.7364906958201755,-0.00897033905985834,-0.5245138859033018,0.002977185742781224,0.8513494305376742,0.013421132566015213,-0.8409572279031561,0.9602017990176493,0.004017355720662028,-0.8297780587138266,0.9020979334504334,0.007528592469439047,0.6663736290180352,1.015627734593533,0.019678026434914897,0.7039185274964616,0.9785362346552847,0.0,0.0,0.0,0.0
0.015815559294248337,-0.002522938651288165,0.736904068471549,-0.008707427563663732,-0.5246624659950575,0.002729681974967019,0.8512614324151684,0.016087117327007287,-0.8515714719035969,0.9852482878213991,0.004571296852695323,-0.8356029154000678,0.9001181537661436,0.009939551861545864,0.6645248285421949,1.028855240600157,0.022654849011809308,0.7161597373014841,0.9733806133805769,0.0,0.0,0.0,0.0
0.018753071199147188,-0.0033335915125436467,0.7372631193026491,-0.008456926605113942,-0.524840800060918,0.0024891429430181486,0.8511547562877273,0.018785017272083163,-0.8602257935379651,1.0064809533644228,0.005117777606561281,-0.8423669144947575,0.8999457894931915,0.012739276052633334,0.6634128996684712,1.0408034029225794,0.02593918977635522,0.7274093817190924,0.9689503894209827,0.0,0.0,0.0,0.0
0.021247994858233282,-0.004128743193241514,0.7376147742379207,-0.00822497792418654,-0.5250182378116202,0.0022653141335670364,0.8510482172328451,0.02141958580244016,-0.8667060232938248,1.0234411840106583,0.005607824226856349,-0.8495817314706055,0.9005447023419492,0.01573818296681477,0.6624387505083993,1.0518413872456562,0.029449179961185953,0.7374157538416166,0.9649371313049491,0.0,0.0,0.0,0.0
0.02327487325112395,-0.004876651174341473,0.7379814820119218,-0.008016204649416717,-0.5251789770716493,0.0020645290434441275,0.8509515381176671,0.02388280913191332,-0.871161783636761,1.0363540322652622,0.006037724818560852,-0.8570054305893593,0.9012319378702908,0.018803288105015314,0.6613181374710848,1.0622077247782087,0.032980222509461546,0.7460956029447479,0.9611407895281029,0.0,0.0,0.0,0.0
0.024858879684004406,-0.0055458644042283315,0.7383683194947508,-0.007834282433690035,-0.5253168887147169,0.0018913111316045123,0.8508685053473553,0.026073557247864726,-0.8739121081561019,1.0457601090642665,0.0064034982617554885,-0.8645039966322069,0.9015949370601758,0.021839204478869813,0.6599430336735833,1.0720563824971256,0.036290906039626585,0.753470751103137,0.9574436154392012,0.0,0.0,0.0,0.0
0.0260492910185317,-0.006109475160534351,0.7387665953855375,-0.0076820858228160375,-0.5254310730920393,0.0017489902509726562,0.8507996908907882,0.02790832313247792,-0.8753399709173668,1.052303528438499,0.00669357928872934,-0.871954082135095,0.9014154273627204,0.02477006918283775,0.658308717646326,1.0814569350137462,0.03915720493026013,0.7596031854203252,0.9538156585641022,0.0,0.0,0.0,0.0
0.026900630711068046,-0.006546314005922866,0.7391557309496308,-0.007561851652845454,-0.5255227473034844,0.0016401093339046904,0.8507443626069768,0.029323466999485202,-0.8758329645381678,1.0566055903878329,0.006897486166975886,-0.8791491628380168,0.9006310357716203,0.027520920149420754,0.6564731669291602,1.09035920812506,0.04139916500172008,0.7645385352790574,0.9503301995247508,0.0,0.0,0.0,0.0
0.027459173168159236,-0.006840526188511227,0.7395042310103668,-0.007475593470374888,-0.5255932114007887,0.0015668444842073222,0.850701731883763,0.03027247840882816,-0.8757473040461653,1.059183543316726,0.0070145439420854615,-0.8856957585507138,0.8993396778289386,0.029987994099592942,0.6545371846191608,1.0985131780781472,0.04288967051735495,0.768259498167227,0.9471802448593203,0.0,0.0,0.0,0.0
0.02775368903220881,-0.006981066420178404,0.7397711951070852,-0.0074257907172656755,-0.5256427645580449,0.0015314067104114505,0.8506716149569623,0.0307228392364934,-0.8753801948676806,1.0603935116014225,0.007054184826248961,-0.8909273051075438,0.8978342932655586,0.03198983051615996,0.6526595985984761,1.1053290199515549,0.043558604134227394,0.7706568369470468,0.9446840139417887,0.0,0.0,0.0,0.0
0.027792160438070833,-0.006962239933012247,0.7399119055735225,-0.007416066084419608,-0.5256706777785669,0.0015362189926834164,0.8506544424846438,0.030656369008945496,-0.8749420413401826,1.06040167084008,0.00702775455002708,-0.893927058198177,0.8966197011255581,0.03320959935553732,0.6511587917286406,1.1096674244457707,0.04340186722913551,0.7715440163784009,0.9432438758725284,0.0,0.0,0.0,0.0
0.027570974074484025,-0.006784661991919214,0.739894498019174,-0.007450265888081283,-0.5256775864944871,0.0015822787607331504,0.8506497898603462,0.03007529120621935,-0.8745224476558782,1.059220977321043,0.006945253315067847,-0.8938394022307494,0.8962972773447476,0.03321258190473477,0.6507509042056049,1.1096600391663562,0.04246879442559778,0.7707688551281817,0.9431776111395936,0.0,0.0,0.0,0.0
0.027091437118347023,-0.006449860864819477,0.7397160443571866,-0.007527613220485545,-0.5256651212125341,0.0016685760259027135,0.8506566470873312,0.028986965421260145,-0.8741121778056652,1.056837831589533,0.006813596692738243,-0.890689767616771,0.8968929362390018,0.03200517639665243,0.6514424611787097,1.1053129768999723,0.040773605411101796,0.7683308146703415,0.9445111896997369,0.0,0.0,0.0,0.0
0.026362132564346556,-0.0059609715273902745,0.73940277592177,-0.007642497301970971,-0.5256357823015961,0.001791907083289896,0.8506735012142926,0.027406320024094197,-0.8736104098333765,1.0532280814353825,0.006640926701240737,-0.885391471711605,0.8978776444165144,0.030034004407524132,0.6525339401215742,1.0985049027586056,0.03829802956004756,0.7643903641489382,0.9469728379344794,0.0,0.0,0.0,0.0
0.025386262215673045,-0.005329482886601886,0.73899450439639,-0.007789071792134265,-0.5255936833453648,0.0019470777467083134,0.8506978425247813,0.02537583744693967,-0.8728111504109036,1.0482535433732758,0.006438646036931878,-0.8789274080912541,0.8988485647744959,0.027629638082770316,0.6537258742768132,1.0903905152394262,0.03508545957865385,0.7591679281021374,0.9501936166660405,0.0,0.0,0.0,0.0
0.0241562457981428,-0.004575756769883997,0.738528022185005,-0.007961907809239204,-0.5255429927309995,0.0021280406085401817,0.8507271256158171,0.022964556417392364,-0.871445259149167,1.0416482044205497,0.00622229915277162,-0.8720472702566897,0.8996611410484968,0.024992419246213197,0.6548836696041983,1.0815868388336949,0.031256928622195354,0.7528440598017477,0.9538793354772249,0.0,0.0,0.0,0.0
0.022661294947500764,-0.003730119254213549,0.7380312808101982,-0.008154968721204891,-0.5254891129674492,0.0023272737435344527,0.8507580575197405,0.020272550202712847,-0.8692195895121441,1.0330764892921427,0.0060173467161709175,-0.8652580033769517,0.9004466554386403,0.022255699816244683,0.6559447297338534,1.0723955974655244,0.02700444236804358,0.7455559472602098,0.9578598141054324,0.0,0.0,0.0,0.0
0.02090147004295438,-0.0028349569054310166,0.7375213220908955,-0.00836049058903608,-0.5254415421516739,0.00253502602164155,0.8507848503713796,0.017437908550057085,-0.8658606652254275,1.0222297806511587,0.005852674253456077,-0.8589239701887698,0.9016302524622005,0.019544948493220943,0.6569193694604832,1.0629689270185378,0.022587425265318827,0.7374372101078077,0.962097986704748,0.0,0.0,0.0,0.0
0.01890653730282036,-0.0019465333728403418,0.7370017353108472,-0.00856792075950553,-0.5254186241710984,0.0027383483345359855,0.8507963102625725,0.014642616076754073,-0.8611748015373554,1.0089623308805178,0.005741050354729375,-0.8533905507971893,0.9040067851312124,0.017021839379668283,0.6579396388940801,1.0534378949069225,0.01831981979702673,0.7286711650654345,0.9667021410405383,0.0,0.0,0.0,0.0
0.016760255381711213,-0.0011345814172831101,0.736456046073809,-0.00876164027753953,-0.5254522393097005,0.002913546594462324,0.850772995052329,0.0121284888132751,-0.8551483432534972,0.9934957480000233,0.005683172302138288,-0.8491343929194959,0.9088959042701054,0.014861468041837087,0.6593545220910111,1.0440371213195503,0.014475035562151975,0.7195123380644013,0.9719610588463878,0.0,0.0,0.0,0.0
0.014620942991026478,-0.00047398410157376307,0.735840109386724,-0.00892051228724662,-0.5256133925426308,0.003041823185840829,0.8506713427358802,0.010129102793544113,-0.8479826856760261,0.9765578593829107,0.006021731175113126,-0.8470296865667611,0.918478000805803,0.013614225551888254,0.6618029582388404,1.0352282936615609,0.011332394937077772,0.7104141935139563,0.9784331764208284,0.0,0.0,0.0,0.0
0.013023662660489837,9.0300677995576e-05,0.7350650321384798,-0.009031980364001753,-0.5259109001492626,0.0031057795221074228,0.8504860390203103,0.008539975045758598,-0.8425187936842718,0.9632847784704377,0.006530111270649321,-0.8478540272940983,0.9346135208713272,0.013298738385155778,0.6672036378879093,1.0275267850011838,0.008201007007445308,0.7025240231851112,0.9860591332648811,0.0,0.0,0.0,0.0
0.012249221057249219,0.000383551529635619,0.7343372481791401,-0.00905512084047536,-0.526460234683828,0.003066134139430037,0.8501460021106094,0.00789232123454406,-0.8384138658849872,0.954913940213249,0.00832194866059038,-0.8548477477924222,0.960473958755003,0.014860648135793816,0.674819540244479,1.0213631144615656,0.005817648742743858,0.697918793513978,0.9934731086587777,0.0,0.0,0.0,0.0
0.012224727635282812,0.0004616132940358797,0.7343088296083399,-0.00914209960023366,-0.526483289499935,0.003059975049053884,0.8501308160776941,0.007772886468664871,-0.8384526548140594,0.9548448529529215,0.008320327245680811,-0.8548573762021048,0.960485230944365,0.014866389404725438,0.6748352803120968,1.0213672459067629,0.005801937105232665,0.6978850110248336,0.9934544197164604,0.0,0.0,0.0,0.0
0.012224727635282812,0.0004616132940358797,0.7343088296083399,-0.00914209960023366,-0.526483289499935,0.003059975049053884,0.8501308160776941,0.007772886468664871,-0.8384526548140594,0.9548448529529215,0.008320327245680811,-0.8548573762021048,0.960485230944365,0.014866389404725438,0.6748352803120968,1.0213672459067629,0.005801937105232665,0.6978850110248336,0.9934544197164604,0.0,0.0,0.0,0.0
0.012983826363836184,0.001135971721907292,0.7344609652839329,-0.00931959203312318,-0.5261626790421938,0.003223599230602332,0.8503267541336553,0.005721463947409109,-0.845490195528951,0.9662521149127273,0.006245553264525569,-0.8579174093916884,0.9663994281650586,0.012197294443305869,0.6768380179760325,1.020557601515996,0.0030997922107334815,0.7003974444390416,0.9882782880319406,0.0,0.0,0.0,0.0
0.014762584365358142,0.00252056632097706,0.7354313219306875,-0.00963304460068935,-0.5262413250348845,0.0036315054164508076,0.8502729470268123,0.0012860313838645894,-0.854539788909035,0.986613968311386,0.0017789940066541467,-0.858826285037752,0.9757130645599714,0.0070048459317704394,0.6866310785050976,1.0139912178398545,-0.0021780136656843543,0.711562108712675,0.9728036463315596,0.0,0.0,0.0,0.0
0.016408968396520892,0.0036240677768004494,0.7364175298011447,-0.010018035010151692,-0.5258007914719705,0.0038943612468323742,0.8505398289395176,0.0011104068509016022,-0.8428274334182757,0.9546877922609229,-0.0015389879052622123,-0.8625817343323381,0.9872402363260119,0.0032094289117139893,0.6947960673060742,1.0054892274111327,-0.004565531308070225,0.6957006347939927,0.9949844039063823,0.0,0.0,0.0,0.0
0.01844406035053106,0.004739728441524247,0.7372810389707576,-0.010375125575448915,-0.5255099691078879,0.0041935226975141696,0.8507138434896342,-6.836202015599209e-05,-0.8388522756823713,0.9341214246490984,-0.005031705464079954,-0.8674735841183039,1.0013778238538589,-0.0006387082658115212,0.7040503203106875,0.9977426419562242,-0.00729307473828541,0.6852606330992765,1.0115086174121146,0.0,0.0,0.0,0.0
0.020523522792349258,0.005846731547990208,0.7380272738298762,-0.010688906273007366,-0.5253987765446269,0.004475120018341297,0.8507772012630084,-0.001367478734634432,-0.8399806012416638,0.9226676395419243,-0.008505615150063149,-0.8717932943215704,1.014883676404057,-0.004966800566427427,0.7136153848967183,0.9911615044513583,-0.010420931458392345,0.6787303127145664,1.0247483663907226,0.0,0.0,0.0,0.0
0.02244746929219443,0.006893240517134775,0.738681140109244,-0.01096168716240212,-0.5253852871238963,0.004729938859368791,0.8507806821776581,-0.0023980413360930363,-0.8438965075246057,0.9165365973283689,-0.011790977678905674,-0.8751911313585004,1.0266317561996108,-0.009462997110402159,0.722724909355526,0.9854920913874808,-0.013680141345502658,0.6745059763142734,1.0361526485689856,0.0,0.0,0.0,0.0
0.02411481268980634,0.00784459037025631,0.7392727457037795,-0.01119726118714365,-0.5254185454035735,0.004955188702455217,0.8507557931585438,-0.003142586680515061,-0.8493058081602507,0.9132774102613349,-0.014776470580569068,-0.8775588653114631,1.0361926105136725,-0.013824329519485552,0.7309960090778769,0.9804402921445469,-0.01693933976349427,0.6715016952751253,1.0464873723378032,0.0,0.0,0.0,0.0
0.025488914277041055,0.008677891731113253,0.7398254515402418,-0.011397812688311512,-0.52547029394653,0.005148964201327262,0.8507200175224061,-0.003669575565938879,-0.8555190069237396,0.9113913126284902,-0.017385954334131662,-0.8789411726973336,1.0435475011499276,-0.017810599434717505,0.7382796109134622,0.9757706814948678,-0.020109969609152942,0.6690455514822062,1.0561707034447942,0.0,0.0,0.0,0.0
0.026570525486516807,0.009377938128387386,0.7403517579797112,-0.011564315390452396,-0.5255258353622996,0.005309808691679365,0.8506824724349064,-0.004031734264078304,-0.8621563719635557,0.9099807815808959,-0.01956840727930012,-0.8794730974309127,1.0488934647358925,-0.021241716821327514,0.7445433625987081,0.9713359779827458,-0.023123545029891158,0.6667596095707902,1.065426636469196,0.0,0.0,0.0,0.0
0.027377777637621805,0.009934472545212744,0.7408525600761995,-0.011697099749393166,-0.5255778054164533,0.005436612600458186,0.8506477482216185,-0.004251481234437811,-0.8689541225552546,0.9085313991133365,-0.02129064940711352,-0.8793329499465556,1.0525097094542417,-0.023989765788018206,0.7497912083467355,0.967088115846488,-0.025923769010376498,0.664462334838193,1.0743411701497108,0.0,0.0,0.0,0.0
0.027931425133417627,0.010340145317900812,0.7413173290506572,-0.0117960293929879,-0.5256221546716446,0.005528337302757573,0.8506183878188646,-0.004334299557806317,-0.8756168701977347,0.9067942883421788,-0.022530713123888692,-0.8787082059672858,1.054664751198456,-0.02597015602609522,0.7540049086039092,0.9630870416973093,-0.028450696942010224,0.6620972922006686,1.0828543819757557,0.0,0.0,0.0,0.0
0.028243748553207392,0.01058918463917559,0.7417244107462369,-0.011860252679643675,-0.5256556060210216,0.005583654192052231,0.8505964619435653,-0.004281132605855065,-0.8816900880748144,0.9047417189069439,-0.023272693815728603,-0.8777690586927734,1.0555471123539053,-0.02713558512175527,0.757099924028315,0.9595109284872804,-0.030607491210940318,0.6596910389305705,1.09069542127959,0.0,0.0,0.0,0.0
0.028310592504501065,0.010677303324944924,0.7420423067271794,-0.01188762717460786,-0.525674168253682,0.0056006175242714,0.8505844968222169,-0.004089863135870833,-0.8864687755834264,0.9025641952417024,-0.023504992226788035,-0.8766430570846906,1.0552102649809039,-0.02747930193384462,0.758899976641929,0.9566579550153594,-0.032203709765971825,0.6573581979044152,1.097254417313401,0.0,0.0,0.0,0.0
0.028108545155137086,0.010603325817640421,0.742235277614757,-0.01187413120068753,-0.5256726208730557,0.005576531427376949,0.8505857998873018,-0.003749608986355334,-0.8890190634183945,0.9006498504191065,-0.023223486932728674,-0.8753862303373862,1.0535408457713569,-0.027050453741657318,0.7591544343822487,0.9549033349074055,-0.03288597980758566,0.6554007296872809,1.1013850959691585,0.0,0.0,0.0,0.0
0.02760357733187904,0.010371460094481814,0.7422802312157448,-0.011815023061151984,-0.525646283455759,0.0055096815832480946,0.8506033348912191,-0.0032464608974295483,-0.888469208501272,0.8994356203820313,-0.02243991431465525,-0.8739449125653759,1.050286892273405,-0.0259454645470355,0.7576485188686501,0.9545298293159544,-0.03215055938412326,0.6545352022546965,1.1012326702462834,0.0,0.0,0.0,0.0
0.026767183871968976,0.009987013179947449,0.7421825428642574,-0.011710881100462577,-0.5255919760046922,0.005401429762639748,0.8506390271906485,-0.002598935062772404,-0.8848335927804993,0.8988873914545407,-0.021171693387498382,-0.8721632097740426,1.045167752478063,-0.024205058098985,0.7543156342204816,0.9555284084297175,-0.03001580564808947,0.6547295658407237,1.096767031845535,0.0,0.0,0.0,0.0
0.02557907122209761,0.009458442961352873,0.7419759026823677,-0.011567931568283384,-0.5255076490762499,0.005256461914867021,0.850693989240386,-0.0018574082695805613,-0.8790198476183987,0.8985139620876373,-0.019448439368503358,-0.8697885253162906,1.0378857127992696,-0.021829620309551497,0.7492486461554911,0.9575972905316537,-0.027021026709167915,0.6552024543570739,1.0897814113639248,0.0,0.0,0.0,0.0
0.02401620188286153,0.008805410497336793,0.7417060943902226,-0.011392520054537891,-0.5253914198714817,0.005081274462821919,0.8507692090467712,-0.001063184626816768,-0.8720059265534035,0.8978829536020045,-0.017334294489136114,-0.8664716206231253,1.0280353920434644,-0.018906853619480447,0.7426079566693942,0.9603436306616506,-0.023559151099075862,0.6555757892816939,1.0813690314314042,0.0,0.0,0.0,0.0
0.02205063907873261,0.008059477114627473,0.7414127857681382,-0.011190323856979923,-0.5252401858956114,0.004882845683628249,0.8508664299350099,-0.00024057688853444106,-0.8645463041483539,0.8967649305661141,-0.01492863975845764,-0.8618215060447342,1.0151083292393739,-0.015633798667467336,0.7345279740509387,0.9634641500007397,-0.01986543109832272,0.6556387622710761,1.0721057850300322,0.0,0.0,0.0,0.0
0.019661587914869515,0.007263712183856535,0.7411211035935544,-0.010967192292039902,-0.5250506995285331,0.004668697069926302,0.8509874775139155,0.0005910346494950102,-0.8571291245306614,0.8951514263628766,-0.012365354794462846,-0.8554734973199073,0.9985911336705156,-0.012297798110498016,0.7251142870604473,0.9668065198949547,-0.016084239722787642,0.655244190097294,1.0622682372820174,0.0,0.0,0.0,0.0
0.016856685242857883,0.006470589524220965,0.7408348414445369,-0.010729902382310016,-0.5248219831815978,0.004446656070258544,0.85113276427006,0.0014053935513128973,-0.8500080701276224,0.8932447428422778,-0.009805587646417943,-0.8471935321995093,0.9781473512233463,-0.009240031017370118,0.7144771333187095,0.9704010633972545,-0.012322905938932377,0.6543145123557217,1.0520060718345536,0.0,0.0,0.0,0.0
0.013702483183823957,0.005735359916376043,0.740525096475687,-0.010486764095012556,-0.524559499704746,0.0042246902212098505,0.8512987202156813,0.0021688182589239802,-0.8432204062451298,0.8914628089900707,-0.0074180594671453565,-0.8370530553229122,0.9539192312665148,-0.0067834493077927,0.7027649458776756,0.9745223451871401,-0.00868218999101758,0.652940139709141,1.0414994773291382,0.0,0.0,0.0,0.0
0.010367137896274914,0.005101185161803155,0.7401073161417007,-0.010250793470623756,-0.5242849602259864,0.004018915210878903,0.8514716965551974,0.002836250054911028,-0.8365746821057622,0.8904490278135433,-0.0053587263157714605,-0.8257005812525509,0.9270058463230043,-0.0050365426148364905,0.6901537721461672,0.9798395188937575,-0.005203730214578437,0.6516330534173687,1.0311714382163166,0.0,0.0,0.0,0.0
0.007328859501471905,0.0044588811448872155,0.7393940322109477,-0.010026418976684824,-0.523901576750959,0.00383518921301908,0.8517111600325918,0.003968243952315115,-0.828780830642832,0.8889572962435555,-0.0033821626106068712,-0.8168216528259279,0.9030211088335766,-0.0031199031027538803,0.6768379964422817,0.9869692919717445,-0.0009711395451529143,0.6524910269466601,1.0211252194443403,0.0,0.0,0.0,0.0
0.0048169122553288635,0.003940886069035329,0.738486505570488,-0.009841942854282554,-0.5235069267401926,0.0036942318219304487,0.8519565637209079,0.004989652581403937,-0.8211592736229164,0.8878036140130835,-0.00184509639032089,-0.8104787871520589,0.8833223180470036,-0.0016661101246151647,0.664223467995847,0.9953833038389304,0.003528423485892592,0.6550424551628585,1.0117405915798303,0.0,0.0,0.0,0.0
0.0032035166838458046,0.003646519460572084,0.7376533395847297,-0.009742138319294472,-0.5231552826320063,0.003629407248944309,0.8521739660410982,0.005572306316857765,-0.8156919968845712,0.8863716656360102,-0.0010366702572530855,-0.8073315281294282,0.8709164490703726,-0.0007838128264721589,0.654696036525682,1.0027540072646746,0.007756858639921074,0.6584359056846733,1.0035196241174231,0.0,0.0,0.0,0.0
0.0031875427839433475,0.003581190593691864,0.7376177390163781,-0.009677504487733588,-0.5231521950403105,0.0036304911680005354,0.8521765933568428,0.005586036621950497,-0.8157106224950017,0.886379879751832,-0.0009266983148843795,-0.8073890472768922,0.8707654756364771,-0.0007830875695970557,0.6546235936946779,1.0026877704048545,0.007749446006714086,0.6584686351785412,1.0035303757826328,0.0,0.0,0.0,0.0
0.0031875427838999994,0.0035811905936821817,0.7376177390163512,-0.009677504487742548,-0.5231521950403717,0.003630491167925192,0.8521765933568055,0.005586036621553333,-0.8157106224957317,0.8863798797530548,-0.0009266983149290028,-0.8073890472781027,0.8707654756391078,-0.0007830875694052869,0.6546235936943042,1.0026877704057033,0.007749446006439535,0.6584686351782117,1.0035303757832188,0.0,0.0,0.0,0.0
0.0031875427838999994,0.0035811905936821817,0.7376177390163512,-0.009677504487742548,-0.5231521950403717,0.003630491167925192,0.8521765933568055,0.005586036621553333,-0.8157106224957317,0.8863798797530548,-0.0009266983149290028,-0.8073890472781027,0.8707654756391078,-0.0007830875694052869,0.6546235936943042,1.0026877704057033,0.007749446006439535,0.6584686351782117,1.0035303757832188,0.0,0.0,0.0,0.0
0.004650066472847489,0.0031176024111780926,0.7379991014055829,-0.009596324222932575,-0.5235632997060776,0.003601724029216475,0.8519251195652758,0.006819284519481972,-0.8184702240456178,0.8963492844695577,0.0002846162569932587,-0.812729452899111,0.8845988516036265,0.0016821768356455207,0.6618724353976667,0.9971362288311431,0.010364864547502652,0.6657985307384326,1.0011416204377312,0.0,0.0,0.0,0.0
0.007353736721953469,0.0021327393049845192,0.7390627671216949,-0.00939314922273726,-0.5242751144604194,0.003308947432556513,0.8514907069205642,0.010067697520897229,-0.821816858683856,0.9134676830780685,0.0035027187464313357,-0.8224213147317406,0.910565961243643,0.005407957629442515,0.6774600995645846,0.9832295423338204,0.014357754721643873,0.6804330244776947,0.9934206789081508,0.0,0.0,0.0,0.0
0.01024178429296203,0.0012841646570233456,0.739873197063798,-0.009143801518662372,-0.5243975546211658,0.003137917409198713,0.8514186685030237,0.012607012053753912,-0.8304150632769142,0.9359855713183645,0.0039866317115628425,-0.8239723402422618,0.9045634343128388,0.007043776857468934,0.6704728267256395,1.001380866634423,0.01807278224645299,0.6932627561132073,0.9858262735952023,0.0,0.0,0.0,0.0
0.01357413193966417,0.0005326080762640215,0.7404263004212436,-0.008888788604437196,-0.5244836837675968,0.002909447187730804,0.8513691267692169,0.015078409132192161,-0.8419187191127159,0.9628606008692872,0.004353892927766071,-0.8282445542944648,0.9001683045619315,0.008611620486945575,0.666830155528695,1.0165307304011837,0.0207907525118673,0.7060929186978016,0.979296433639319,0.0,0.0,0.0,0.0
0.016811761904344795,-0.00023278818137617346,0.7408398709779186,-0.00863384626811218,-0.5246357604552034,0.0026671331547030988,0.8512788391302488,0.01765005286367204,-0.8524140308333961,0.9876678058031225,0.004877449499158177,-0.8342853904120037,0.8985434674166539,0.010849180057884501,0.6649848903672066,1.029719598658264,0.023617441804237613,0.7183032529407948,0.9739883088225127,0.0,0.0,0.0,0.0
0.019715942699295504,-0.001010200800354993,0.7411986952488562,-0.008389739442419374,-0.5248156019070228,0.002430625280811933,0.8511711275224283,0.02026262068565088,-0.8609509973316342,1.0086532865791467,0.0053818493390583024,-0.841186746066475,0.8985495271232852,0.013527762941350366,0.6638400377717082,1.0416395020045472,0.026750447096832154,0.729491036303678,0.9694329492661431,0.0,0.0,0.0,0.0
0.022178357622365936,-0.0017761436473178976,0.7415495038914347,-0.008163099409536667,-0.5249932543692263,0.0022101251129090145,0.8510643700812672,0.022820965498738063,-0.8673304584860267,1.0253896050080185,0.005827529574089405,-0.8484802119745698,0.8992275739808795,0.016436731562190957,0.6628268664837552,1.0526593872000434,0.030117137945804333,0.7394195897635022,0.9653243452010964,0.0,0.0,0.0,0.0
0.024175970953285542,-0.0024991242690821248,0.7419151422106695,-0.007958760976182781,-0.5251535094876484,0.0020121641853594044,0.8509679199545783,0.025217843801463947,-0.8717046518208695,1.0381125945662433,0.006217231842076224,-0.8559417951423963,0.8999417555862252,0.019432449350194544,0.6616719218434464,1.0630163208889023,0.033519588459248864,0.7480190695425596,0.9614569808327967,0.0,0.0,0.0,0.0
0.02573519081376203,-0.0031478212868065354,0.7423010402629077,-0.007780483426679107,-0.52529063020931,0.001841318368967516,0.8508853197926365,0.02735293736198043,-0.874391211836243,1.047364971632416,0.006550079371880754,-0.8634523206245508,0.9003065196999137,0.022414110279440416,0.660269832176624,1.0728617926602964,0.036720709386128515,0.7553205183589525,0.9577069408746474,0.0,0.0,0.0,0.0
0.026905791659670466,-0.0036953126134943552,0.7426986905330378,-0.007631177865083233,-0.5254039638258555,0.001700907970883386,0.8508169878608121,0.02914325056611278,-0.8757707472131201,1.0537893812467827,0.0068152930605914815,-0.8708997864126043,0.9001188327422299,0.025302978384402645,0.6586157108103518,1.0822630584065915,0.03949875425075466,0.7613912953572192,0.9540395481789278,0.0,0.0,0.0,0.0
0.02774235377514529,-0.004120295356914698,0.7430875630610911,-0.007513108305192656,-0.5254948724003052,0.00159345592181367,0.8507621014025052,0.030525260372423185,-0.8762286155366724,1.0580043880477399,0.00700196338331005,-0.8780857276904859,0.8993247108164142,0.02802248351959989,0.6567666654242401,1.0911681463040508,0.041674462922139346,0.7662795535466776,0.9505249866060349,0.0,0.0,0.0,0.0
0.028290960725177693,-0.004406713240853076,0.743436142202658,-0.007428320702731781,-0.5255647361407072,0.0015211359451719928,0.8507198212821436,0.031452236803370864,-0.8761191949355099,1.0605242319882016,0.0071085621580016444,-0.8846220315713422,0.8980263469242548,0.030467995245714245,0.6548225663922453,1.0993256593680385,0.04312043804355287,0.7699687022239802,0.9473544586627576,0.0,0.0,0.0,0.0
0.028580067052754347,-0.004543300874409305,0.7437034972141838,-0.0073793324263005935,-0.5256138867372625,0.0014861832343311242,0.8506899428001276,0.031891219693833656,-0.8757382710031575,1.0617022125134323,0.007143665831488867,-0.8898454699229632,0.8965183455104049,0.03245769118900136,0.6529412892742438,1.1061445394838483,0.04376585741146616,0.7723492111366037,0.9448452235316824,0.0,0.0,0.0,0.0
0.028617292385724795,-0.004524161540363425,0.7438449104139905,-0.007369804391895499,-0.5256415872655569,0.001491064288109797,0.8506729009716131,0.031823489386262324,-0.875295191985854,1.0617020809787197,0.007117948824320578,-0.8928410438114931,0.8953054339295118,0.03367468873273988,0.6514402481752661,1.1104840894820487,0.043605888991802455,0.7732338014773439,0.9433991324880422,0.0,0.0,0.0,0.0
0.02839868508787938,-0.004349749025070314,0.7438285544484556,-0.007403615069081139,-0.525648420120099,0.001536832757621009,0.8506683037789923,0.03125071780740917,-0.8748789405507444,1.060535034606616,0.007040959024427094,-0.8927535130939253,0.8949878068047684,0.033683957225652705,0.6510349095927613,1.1104743954270373,0.04268924962797193,0.7724694092933169,0.943333576942978,0.0,0.0,0.0,0.0
0.027925358743134388,-0.004021469300648479,0.7436515141068825,-0.007480010910713353,-0.5256359953526699,0.001622522219400953,0.8506751537737722,0.03017978829305482,-0.8744801818534701,1.0581868521036653,0.006919421530879711,-0.8896076354060954,0.8955907128566795,0.032491436443486545,0.6517316849179132,1.10612164567934,0.041029084281783035,0.7700546586915908,0.9446744988993561,0.0,0.0,0.0,0.0
0.027205828111207527,-0.0035423516684236103,0.7433399992364443,-0.007593392210598304,-0.5256068199834836,0.0017449580489286376,0.8506919338415014,0.028625176919528643,-0.8739985071099603,1.0546338049985886,0.006761494936585277,-0.8843149621978211,0.8965849141522537,0.030543097236633412,0.6528315818027104,1.0993062289332345,0.038605430026480925,0.7661491168309206,0.9471504292552321,0.0,0.0,0.0,0.0
0.026243193951320715,-0.0029237509839955015,0.7429338082072483,-0.0077379078831639764,-0.525564951067325,0.0018989764742984722,0.850716169400548,0.026628760552635827,-0.8732287394127293,1.0497385298571047,0.0065786340503680195,-0.8778551284151752,0.8975661029674323,0.02816845873640085,0.6540361596323634,1.0911844394819807,0.03545959297186172,0.7609718386310228,0.95039274240718,0.0,0.0,0.0,0.0
0.025029633391181423,-0.002185804365437112,0.7424697111280072,-0.007908094023190418,-0.5255144254737567,0.0020785527262760775,0.8507453968646976,0.024258678007482357,-0.8719027679965805,1.043235666960766,0.006386292596156024,-0.8709729556910616,0.8983861227789024,0.025566833097073808,0.6552120082774711,1.0823747702514839,0.03170961650256185,0.7547010567870297,0.9541076750349083,0.0,0.0,0.0,0.0
0.023553850153541896,-0.0013584691847522336,0.7419756041865626,-0.00809782882562865,-0.5254604145350085,0.002276160827855411,0.8507764671268792,0.021613730231502266,-0.8697283519422192,1.034789277666137,0.006209502407329903,-0.8641689329171313,0.8991692626277777,0.022870596719009907,0.6562974984630264,1.0731804064955484,0.027543084473580608,0.7474701486433801,0.9581255259346662,0.0,0.0,0.0,0.0
0.02181494190210287,-0.00048359518717719006,0.7414684550136994,-0.008299171511745649,-0.525412039875396,0.0024819820032694435,0.8508038269022591,0.018830419471708895,-0.8664319066602931,1.0240876456495254,0.00607630893364334,-0.8577997942069826,0.9003280210107574,0.02020433161164079,0.657302497723344,1.0637546957277142,0.023213220956425095,0.7394069272205565,0.9624092631685578,0.0,0.0,0.0,0.0
0.01984095257503153,0.0003832178986026613,0.7409518794014509,-0.008501228142297972,-0.5253870685187183,0.00268289762059702,0.8508166426520685,0.016089073634040888,-0.8618165273486609,1.0109757315293153,0.00599854269006565,-0.8522033028372238,0.9026353002930565,0.017729717514437807,0.6583539490922178,1.0542286431258043,0.01902614246180893,0.7306867343036575,0.9670653852737692,0.0,0.0,0.0,0.0
0.017712747163127873,0.001172792763282512,0.7404099274261041,-0.00868785854653843,-0.5254169421251745,0.002855540996791987,0.8507957474783957,0.013628886156320089,-0.8558566412247447,0.9956520198818741,0.005975301237625117,-0.8478497107770101,0.907376905631012,0.01563225466571627,0.6597827220677659,1.0448345051083632,0.01525251642025868,0.7215581035710015,0.9723769928847267,0.0,0.0,0.0,0.0
0.015585432035441481,0.0018095990154257356,0.7397994432526436,-0.008836324406716304,-0.5255733624241343,0.0029783735172075995,0.8506971784203594,0.01169193898020316,-0.8487214550038049,0.9787997836764387,0.006325619692964708,-0.8456101078022722,0.9167007774849675,0.01445585016060364,0.6621908390465684,1.0360527408872107,0.012149572688263157,0.7124655958390573,0.978893123187876,0.0,0.0,0.0,0.0
0.01399399288081595,0.00235687484342203,0.7390270990216965,-0.008933361788353024,-0.5258602413712751,0.0030353104537435447,0.8505186585152333,0.010150395916643868,-0.8433037193834145,0.9655999116365215,0.0068134676177797815,-0.8462059036815469,0.932340312260804,0.014223731376574913,0.6675072270287903,1.0283917379352072,0.008968902912271861,0.7045252757831454,0.9865456959299964,0.0,0.0,0.0,0.0
0.01321620511459914,0.00264354606113489,0.7382993839670939,-0.008936418139556389,-0.5263938847546437,0.0029868451527652923,0.8501886245297471,0.009526235265138254,-0.8392385949596362,0.9572557672698325,0.008540995750202259,-0.8528508307230447,0.957397956017061,0.015837116593030973,0.6749635574376595,1.0223182865313452,0.0064173052598051035,0.6998081741628536,0.9939515588309765,0.0,0.0,0.0,0.0
0.013192294833208777,0.002719810059425681,0.7382714727949673,-0.009021288956534737,-0.5264165507757516,0.0029808972861271404,0.850173714993761,0.009409051563477922,-0.8392769252250589,0.9571884907501718,0.00853954666319282,-0.852859932197866,0.9574091037039709,0.01584284931958483,0.674979235399887,1.0223224933929282,0.006401823550312692,0.6997751261402549,0.9939335721219762,0.0,0.0,0.0,0.0
0.013192294833208777,0.002719810059425681,0.7382714727949673,-0.009021288956534737,-0.5264165507757516,0.0029808972861271404,0.850173714993761,0.009409051563477922,-0.8392769252250589,0.9571884907501718,0.00853954666319282,-0.852859932197866,0.9574091037039709,0.01584284931958483,0.674979235399887,1.0223224933929282,0.006401823550312692,0.6997751261402549,0.9939335721219762,0.0,0.0,0.0,0.0
0.013959001342282996,0.00339371962158074,0.7384287084751192,-0.009214713167455025,-0.5261054975195967,0.0031527897407719455,0.8503635425262243,0.007350186870806892,-0.8463062096857666,0.9686218226331099,0.006456242109556324,-0.8558624830472746,0.9633278262277511,0.01334191411611004,0.6770088865999059,1.0214610187465094,0.0038586004845522584,0.7024082603808613,0.988726574310256,0.0,0.0,0.0,0.0
0.01574989465074473,0.0047833743895423775,0.739405613541328,-0.009537433628262742,-0.5261898245289466,0.0035609359867804094,0.8503061952360932,0.0029100446622216817,-0.8553707845021014,0.9890591537362797,0.001986532667860902,-0.8567700185003208,0.972713589155598,0.008175983368291916,0.6868782472029087,1.0148429157441512,-0.0014209111904651506,0.7136650822378237,0.9731481228542774,0.0,0.0,0.0,0.0
0.01739935161791687,0.005890218679092805,0.740393366170434,-0.009937293508276211,-0.5257517059872109,0.003834477372060143,0.8505713906736758,0.0027234942460939403,-0.8433751375752835,0.9565589279495287,-0.0013559106077174025,-0.8604940874211046,0.984241933563222,0.0045286941734248715,0.6950179863480966,1.0063238293285879,-0.004026844768405443,0.6976304493311637,0.9954255210263266,0.0,0.0,0.0,0.0
0.019439901794786316,0.007013234610206677,0.7412555922906503,-0.010304984846020401,-0.5254632397727742,0.0041402072728676294,0.850743821381361,0.0015148595708090597,-0.8392081277493108,0.9356095965745258,-0.004874796046208678,-0.8653809709817752,0.9984089224408018,0.0007465801660924837,0.7042650479059659,0.9985948735752505,-0.006925367016014667,0.6870770479085051,1.0119964987903103,0.0,0.0,0.0,0.0
0.02152571243288182,0.008129948282755145,0.7419992541612918,-0.010625122767125388,-0.5253547495713861,0.0044244923309359405,0.8508054523430038,0.0001890407075131144,-0.8402200404836732,0.9239373280291729,-0.00837344918647468,-0.8697062161355614,1.0119497432199016,-0.003589355328891576,0.7138425755580483,0.9920518900767626,-0.01015884242216162,0.6804882181544419,1.0252632841952387,0.0,0.0,0.0,0.0
0.02345601396630087,0.009186440977684715,0.7426501470432108,-0.01090178123619232,-0.525343693662251,0.0046803567056636596,0.8508074100266693,-0.000858209199431187,-0.8440690699673556,0.9176885481695657,-0.011681920534491132,-0.8731142920932112,1.023732354264429,-0.008128010513178513,0.7229726521822066,0.9864260399695843,-0.013478943921636122,0.6762423771765347,1.0366854368117513,0.0,0.0,0.0,0.0
0.025129405805487375,0.01014672570119262,0.7432389378024306,-0.01113988808550023,-0.5253788112441983,0.0049062270074082415,0.8507813682290106,-0.0016098068276383872,-0.8494430321218485,0.9143697562094055,-0.014688081842192379,-0.8754948905214698,1.0333267161688109,-0.012540675481614215,0.7312657974041525,0.9814138954845053,-0.01677382444038201,0.6732393421393675,1.0470332246720182,0.0,0.0,0.0,0.0
0.026509093921843783,0.010987323932049833,0.7437892454762968,-0.011342211684603148,-0.5254318099520514,0.005100650058552831,0.8507448211382735,-0.0021369374078717015,-0.8556404412749896,0.9124565041433085,-0.017315083155994743,-0.8768915013419905,1.040713896873454,-0.016573921323245273,0.7385695775653482,0.9767763617349541,-0.01996598103164454,0.6707975552098931,1.0567270325194058,0.0,0.0,0.0,0.0
0.027595691503870014,0.011692949482834433,0.7443136189272943,-0.011510002558495937,-0.5254880922192424,0.00526224063097407,0.8507068200034757,-0.0024951007316845702,-0.8622736353381962,0.911036125545023,-0.01951166116086798,-0.877438022576489,1.0460899555013858,-0.020042648948467988,0.7448499631345592,0.9723661731686366,-0.02299224173441961,0.6685327064826626,1.0659921219731183,0.0,0.0,0.0,0.0
0.028407198111349015,0.012253551860652277,0.7448128924901025,-0.011643722789641538,-0.525540443059087,0.005389814345918967,0.8506718617247034,-0.002708789827907902,-0.8690736364197756,0.9095853508587508,-0.02124484193690766,-0.87731153406831,1.0497325361812315,-0.02281859649455984,0.7501101978930209,0.968137056827745,-0.025798827067638145,0.6662589745931088,1.0749152710979268,0.0,0.0,0.0,0.0
0.028964274237134453,0.01266209403922008,0.7452764437139774,-0.011743307449928754,-0.5255849674809091,0.005482231449696871,0.8506423936217616,-0.0027848966515516987,-0.8757416678856298,0.9078502179245644,-0.02249312018199232,-0.8766983384053406,1.0519085719377133,-0.024818879065741473,0.7543319907918649,0.9641511348043122,-0.028327183423101015,0.6639169025402366,1.0834370190122236,0.0,0.0,0.0,0.0
0.02927917998071008,0.012913087278687164,0.7456825440698583,-0.011807955426934582,-0.5256185250479173,0.005538091006955843,0.8506204017439777,-0.002725423645731339,-0.8818209584911988,0.9058002442362284,-0.023241079455336225,-0.8757677278524567,1.05280555478532,-0.025998111672694245,0.7574312281755288,0.9605881968185743,-0.030481555921743807,0.6615306903127531,1.0912866421507428,0.0,0.0,0.0,0.0
0.029347837660816386,0.013002400882905902,0.7459996755633513,-0.011835566687099926,-0.5256372279825563,0.0055554237799311625,0.850608347705708,-0.002529275061939806,-0.8866049290209272,0.9036247149345223,-0.0234774244105991,-0.8746468286896677,1.05247691984226,-0.02635051456046856,0.759232447979422,0.9577468662981543,-0.0320727687548039,0.6592128325934288,1.097853918437807,0.0,0.0,0.0,0.0
0.02914701893553719,0.012928830557035479,0.7461921475042799,-0.011822149337321983,-0.5256359085053505,0.005531546596330045,0.8506095052766889,-0.0021866264517902117,-0.8891584736761545,0.9017115186689877,-0.023197966246386165,-0.8733919525889304,1.0508105498727742,-0.025924876569947308,0.7594861653650958,0.9560014003656793,-0.032749128704692834,0.6572632146658752,1.1019915997419034,0.0,0.0,0.0,0.0
0.028642981840454315,0.012696350091064882,0.7462369420126914,-0.011762949973031149,-0.5256098558457837,0.005464749200600709,0.8506268564781393,-0.00168421295292609,-0.8886088577652881,0.9004975970326309,-0.02241385086656974,-0.8719509231112319,1.047557370162873,-0.0248162899608175,0.757978807369094,0.9556326719890949,-0.03200797970329398,0.6563968630142942,1.101843697568372,0.0,0.0,0.0,0.0
0.027807658608339458,0.012309821306059357,0.7461393879270696,-0.011658516543394108,-0.5255558351978198,0.00535645405377088,0.8506623604471396,-0.0010399759182222984,-0.8849707587626021,0.8999495755258806,-0.021141546854916322,-0.8701708773701023,1.0424416662481333,-0.023062123904726214,0.7546441921972349,0.9566302271186932,-0.02986673159731572,0.6565829234672725,1.0973805720534706,0.0,0.0,0.0,0.0
0.026621304588728464,0.011777077471821887,0.7459330283391902,-0.011515034092115793,-0.5254717129339238,0.0052114681116813945,0.8507171818508582,-0.00030241230178889526,-0.879153413681627,0.8995777825745161,-0.019409435287621762,-0.8678035522104706,1.0351723545252378,-0.02065774381472233,0.7495748270564783,0.9586913120910722,-0.026861907309137185,0.657044094610656,1.090397651045979,0.0,0.0,0.0,0.0
0.02506140614151489,0.011117058167496688,0.7456635840421115,-0.011338781133019024,-0.525355415963673,0.0050364061974906985,0.8507924268425686,0.0004897805067619083,-0.8721368013494095,0.8989517856635305,-0.01728016413567875,-0.8645045106046766,1.0253511499132248,-0.0176860877850761,0.742930852555358,0.9614211640824868,-0.0233835994547284,0.6574071627691095,1.0819901241856416,0.0,0.0,0.0,0.0
0.02310039319865839,0.010360658315550306,0.745370821592859,-0.011135368693963052,-0.5252035627135326,0.004838385042423527,0.8508900112865606,0.0013154255013265199,-0.864678255780334,0.8978453548115712,-0.014851792762143375,-0.8598867724363153,1.01247548209339,-0.014340778361153727,0.7348468140122836,0.9645133923476105,-0.01966530158740426,0.6574662507929797,1.0727349932153247,0.0,0.0,0.0,0.0
0.020717463733687706,0.009550623113482041,0.7450801389005507,-0.010910576974198994,-0.525012570385699,0.004625043007364977,0.8510119677326938,0.0021588619906677074,-0.8572703905320143,0.8962551888106908,-0.012257697285565408,-0.8535872699843151,0.9960340101429289,-0.010909627481081293,0.7254288506603207,0.9678123509118984,-0.01585004805794986,0.6570783905636103,1.062908747856065,0.0,0.0,0.0,0.0
0.017919551546207585,0.008739894043022807,0.7447957359675309,-0.010671085031528076,-0.5247811738537284,0.004404184652632176,0.8511588868539752,0.002997612609639872,-0.8501738744950376,0.8943917176805862,-0.009660207907049015,-0.8453685665031182,0.9756840811504016,-0.007742026694345045,0.7147880752620529,0.9713469937464007,-0.012042503257325001,0.6561678920041674,1.0526592322031785,0.0,0.0,0.0,0.0
0.014771449050125767,0.00798557066905373,0.7444891561445413,-0.010425041944778108,-0.5245149156931577,0.00418341722634939,0.8513271525895081,0.0037996824569291325,-0.8434364885368694,0.8926868045284686,-0.007231879287303258,-0.8352894322969155,0.951546763210946,-0.005181081593352393,0.7030742733064671,0.9753957937942971,-0.008337344758733824,0.654821688824606,1.0421631822351334,0.0,0.0,0.0,0.0
0.011438482816440493,0.007334723833122944,0.7440761513353942,-0.010185337911936536,-0.5242379084415442,0.003978164451868163,0.8515016432468282,0.004512044198892834,-0.8368848820316996,0.8918235216550299,-0.005136629528286355,-0.8239630999796018,0.9246706956469739,-0.0033680026085938165,0.6904694219474086,0.9806433950904538,-0.004770794707730943,0.6535386795422682,1.0318514438076232,0.0,0.0,0.0,0.0
0.008401206599247351,0.006678366860980589,0.7433644578150476,-0.009956540641609722,-0.5238545460685115,0.0037927189469459115,0.8517410974849079,0.005689354465012596,-0.8291968052747182,0.8905424621422088,-0.0031252083004219464,-0.8151004321810592,0.9007020270180099,-0.001424853337842105,0.6771599407707248,0.9877449986395739,-0.0003928490992440182,0.654456863369193,1.0218298648213155,0.0,0.0,0.0,0.0
0.005889331327897675,0.006152200429463873,0.7424544772963149,-0.009765662523444853,-0.5234648635274619,0.003644774603943193,0.8519834999022812,0.006745134378280521,-0.821715189803729,0.8897264995718533,-0.001554586355332106,-0.8087536547362033,0.8809835289434623,-3.0078725349380825e-05,0.6645665231156798,0.9961962667754012,0.004327790634471974,0.6571138876719008,1.0124901803511435,0.0,0.0,0.0,0.0
0.004277341345067204,0.005857067295962161,0.7416166062528403,-0.009657776899768876,-0.523123284590341,0.0035672601704252347,0.8521948316668224,0.0073407853101183735,-0.8164496247643781,0.888805806715745,-0.0007157092053669677,-0.8055864190902223,0.8685400987343318,0.000705762929772781,0.6550900751703369,1.0036542062969176,0.008813992746812478,0.6606516286119051,1.0043250104952706,0.0,0.0,0.0,0.0
0.0042612875961834515,0.005791370656195453,0.7415809514651157,-0.009592593268281255,-0.5231202338709046,0.0035681405784092255,0.8521974368900977,0.007354575712479911,-0.8164684035271689,0.8888141915614513,-0.0006048504314747394,-0.8056442598628457,0.868388884574024,0.0007064813747228277,0.6550175021231922,1.0035878808667964,0.008806706119639976,0.6606845176741402,1.0043357864734521,0.0,0.0,0.0,0.0
0.004261287596168127,0.005791370656191013,0.7415809514651047,-0.009592593268287895,-0.5231202338709244,0.003568140578383286,0.8521974368900855,0.007354575712318495,-0.8164684035274882,0.888814191561946,-0.0006048504314914128,-0.8056442598633059,0.8683888845749997,0.0007064813748456017,0.655017502122988,1.0035878808671679,0.008806706119565546,0.660684517674007,1.00433578647368,0.0,0.0,0.0,0.0
0.004261287596168127,0.005791370656191013,0.7415809514651047,-0.009592593268287895,-0.5231202338709244,0.003568140578383286,0.8521974368900855,0.007354575712318495,-0.8164684035274882,0.888814191561946,-0.0006048504314914128,-0.8056442598633059,0.8683888845749997,0.0007064813748456017,0.655017502122988,1.0035878808671679,0.008806706119565546,0.660684517674007,1.00433578647368,0.0,0.0,0.0,0.0
0.005713083137241786,0.005340110840549369,0.741958454267901,-0.009513553566846298,-0.52352927293497,0.003539376995968276,0.851947219896393,0.008560981536470506,-0.8192006925231404,0.8986975942606282,0.0005757368174820164,-0.8109313851471132,0.8821070673308179,0.003124868124429966,0.6622149005007426,0.9980971906851819,0.011380372823289976,0.6679856609488318,1.0019076608367299,0.0,0.0,0.0,0.0
0.008394206869859606,0.004379728860061633,0.743002963582371,-0.009313062861262836,-0.5242391259471163,0.0032476292190982974,0.8515139802673829,0.011750394190975219,-0.8225135401685604,0.9156448553070212,0.003727279961853387,-0.8205366006201551,0.9078400094697517,0.0067394923972483685,0.6776464275290144,0.98443261493614,0.0152668019346068,0.6824960911732012,0.9942292445682148,0.0,0.0,0.0,0.0
0.01127005419295656,0.0035591449628040563,0.7438075213323899,-0.009072566903999145,-0.524365372825008,0.003080684023437533,0.8514394597960625,0.01422144315728454,-0.8310785457795958,0.9380704376249238,0.004231813258744912,-0.8224758977848444,0.902618397255819,0.008122786672232492,0.6708376278998405,1.002409024012409,0.018901738295837224,0.6953200415755403,0.9865591683547927,0.0,0.0,0.0,0.0
0.014585025836452796,0.0028412282335681595,0.7443559429298328,-0.008825916037911403,-0.5244533877143951,0.002857780031766782,0.8513886189128184,0.016607017868187007,-0.8425441406564341,0.964831736413187,0.004583922123289202,-0.8269930516999788,0.8986925681505753,0.009487292109225073,0.6672949663460505,1.0174597509520173,0.02149552270581,0.7081314898007403,0.9799173891822252,0.0,0.0,0.0,0.0
0.017796962070663544,0.0021061488475432114,0.7447674841916434,-0.008577304277070605,-0.5246084284406299,0.0026195392182287703,0.8512964023621121,0.019102289993548578,-0.8529439573323797,0.9894378194195854,0.0050824316919804895,-0.833205768806659,0.897339217774526,0.011593895902902943,0.6654577768353909,1.0305973557677526,0.024191102186385885,0.720304108243686,0.9744979371353638,0.0,0.0,0.0,0.0
0.020672604222696126,0.0013558887424489387,0.7451244874265675,-0.008338353660228287,-0.5247896080297754,0.0023862692901776457,0.8511877847344066,0.02164579915995239,-0.861384714498996,1.0102140217169084,0.005552349753487668,-0.8402173348604518,0.897479730727416,0.014178819570982965,0.6642881643822744,1.0424841389894122,0.027194853296638483,0.7314315602190594,0.9698503386947126,0.0,0.0,0.0,0.0
0.02310724210074078,0.0006137746312617696,0.7454734155061353,-0.008116035272795521,-0.5249675148090679,0.0021684736784844424,0.8510808046763524,0.02414240270494249,-0.8676805416338601,1.0267598878508772,0.005961586355977226,-0.8475743528767279,0.8982153980069952,0.017016605410820698,0.6632440839481819,1.0534845814313853,0.030440777696294087,0.7412889757863467,0.9656711261541739,0.0,0.0,0.0,0.0
0.02507990085856282,-8.886494580193365e-05,0.7458373296101732,-0.00791532293109972,-0.5251274235733436,0.001972809360255395,0.8509845149574384,0.026485455325800513,-0.8719864976487585,1.0393209861806012,0.006318159264835998,-0.8550668198811088,0.8989471671669199,0.019956385518671158,0.6620617579761381,1.0638321366345271,0.03373570263491513,0.7498170249122879,0.961750955177576,0.0,0.0,0.0,0.0
0.02661803689595213,-0.0007208011559336003,0.7462218578789306,-0.007740028922149341,-0.525263922559278,0.0018038814705025955,0.8509022562089993,0.02857530978387552,-0.8746195007009293,1.0484422462727034,0.006623774413445598,-0.8625873387095949,0.8993105642416844,0.022893681271023796,0.660638346047791,1.0736749129704501,0.03684560162293933,0.7570539162190684,0.9579614206890255,0.0,0.0,0.0,0.0
0.027771839275651973,-0.001255104657596164,0.7466185727268778,-0.00759308881259881,-0.5253765678035414,0.0016650007410289876,0.850834316878314,0.03032942754673231,-0.8759584548864973,1.054765298054242,0.00686833496166198,-0.8700330100776285,0.8991144268115646,0.02574777966690308,0.658968938373198,1.0830775129696033,0.03955030881421674,0.7630711036364318,0.9542644231072445,0.0,0.0,0.0,0.0
0.028595922680710924,-0.001670378053220293,0.7470069334709113,-0.007476788269065675,-0.5254668483152621,0.0015586776086212173,0.8507797949428026,0.03168443723026752,-0.876386966530264,1.0589064473442276,0.007040612987566948,-0.8772118762235277,0.8983112850023487,0.028441010123412887,0.6571099195546837,1.0919860588979753,0.041670997556579714,0.7679185857753692,0.9507279493490619,0.0,0.0,0.0,0.0
0.029136190614002723,-0.0019504173270796265,0.7473553774942002,-0.007393200388837678,-0.5255362144792755,0.0014870893436740248,0.8507378070969266,0.032593485562990666,-0.8762578921759021,1.0613773364834436,0.0071384126502736294,-0.8837401715691282,0.8970066228343323,0.030868188417917906,0.6551602961175871,1.1001477365949355,0.04307998895901597,0.7715802025054752,0.9475419271951064,0.0,0.0,0.0,0.0
0.029420807665976073,-0.0020837925417068848,0.7476229390134285,-0.007344874640089863,-0.5255850271383815,0.0014524954058652813,0.8507081299256308,0.03302329909859765,-0.8758657475622639,1.0625287259991003,0.007169656795207807,-0.8889573449822471,0.8954962780647496,0.03284737027725766,0.6532769916157806,1.106970212658596,0.043705886334594886,0.7739461000974206,0.945022900832232,0.0,0.0,0.0,0.0
0.029457060322951176,-0.0020644537395477923,0.7477649070810687,-0.007335500904766489,-0.5256125398518278,0.001457402144820701,0.8506912038783375,0.03295474534439359,-0.875418851904286,1.062522094099828,0.007144527965609144,-0.8919497506303653,0.8942848130292588,0.03406184180255725,0.6517763882087929,1.1113113372764543,0.04354329314734363,0.7748283497266795,0.9435722606623664,0.0,0.0,0.0,0.0
0.02924068446999825,-0.0018927316983034413,0.7477495004808428,-0.0073689844200752145,-0.5256192832031829,0.0015029122111868218,0.850686668784973,0.03238906201886055,-0.8750055145104808,1.0613669097572163,0.0070722636850123095,-0.8918623502704153,0.8939713502396087,0.03407649327373606,0.6513731925554004,1.1112995687551028,0.04264051752306876,0.774073147383676,0.9435069908319001,0.0,0.0,0.0,0.0
0.028772622122471687,-0.0015699355201265845,0.7475738176297828,-0.0074445915012299425,-0.525606847004945,0.0015880959513400147,0.8506935396428902,0.031332746634391,-0.8746162737248729,1.0590483416518788,0.006959439310459297,-0.8887193393923862,0.8945805714614518,0.03289691470967569,0.6520737089165208,1.1069411481238405,0.041009853692097455,0.7716783991954468,0.9448530111787221,0.0,0.0,0.0,0.0
0.028061340275548515,-0.0010990060473204499,0.7472640410150674,-0.007556734266923518,-0.5255777457972419,0.001709801348945827,0.8507102946768987,0.0297999007131034,-0.8741511235789504,1.0555430818571283,0.006814184104076621,-0.8834309040484395,0.895583132375626,0.030968427035319594,0.6531795633958165,1.100118210179232,0.03862992551795098,0.7678028870863601,0.947339194650576,0.0,0.0,0.0,0.0
0.02710986208263921,-0.0004911848115398636,0.7468599560538673,-0.0076995608140151385,-0.5255359859737173,0.0018628899528909913,0.8507344908083412,0.02783188512458454,-0.8734056115695334,1.0507144838929965,0.006647945145353886,-0.8769740688240427,0.8965735663175055,0.02861953498310994,0.6543933596990104,1.0919886638670038,0.035540364070548267,0.7626645077034886,0.950597222688077,0.0,0.0,0.0,0.0
0.025910160423524477,0.00023358028556414324,0.7463983266743758,-0.007867582563131153,-0.5254854870162321,0.002041356449378294,0.850763737440526,0.025496069620123307,-0.8721124551020594,1.0442976630622451,0.006476065477157482,-0.870089701776015,0.8974008408931284,0.026048610718605696,0.6555827750684214,1.0831724759692445,0.03185685409772586,0.7564395850022803,0.9543336412323478,0.0,0.0,0.0,0.0
0.02445050344414198,0.001045638777027568,0.7459070302009608,-0.008054614638481856,-0.5254312161557786,0.0022376754992983624,0.8507950123739825,0.022890171339834915,-0.8699800562219243,1.035956193093889,0.006323205860445518,-0.8632730545628803,0.8981836530566993,0.02338715932559742,0.6566869529684195,1.0739743421085355,0.02776351460656002,0.7492584043415526,0.958378995327236,0.0,0.0,0.0,0.0
0.02272916289280437,0.0019035812173875915,0.745403012774723,-0.008252583765787021,-0.5253819657459674,0.0024419833336650227,0.8508229672778526,0.020149348270718816,-0.8667345560983001,1.0253754755826963,0.006216732157022439,-0.8568747375443718,0.899324384111029,0.020758912521426278,0.6577151646963992,1.0645490710008594,0.02350874771298892,0.7412440923201387,0.9626960259339352,0.0,0.0,0.0,0.0
0.020772711333577498,0.0027523416420598325,0.7448899618393646,-0.008450339512496857,-0.5253550020041364,0.0026410447698913234,0.8508370810642192,0.017452534631641092,-0.8621761349951556,1.012392327417563,0.006167780659684637,-0.8512265664868108,0.9015783883436392,0.018325277488697788,0.658789575763395,1.0550283999203403,0.019392678768331936,0.7325655745045125,0.9673894040003481,0.0,0.0,0.0,0.0
0.01865955537188694,0.00352316430104075,0.7443524146720238,-0.00863135845759833,-0.5253813868912369,0.0028118290669142737,0.8508184245634994,0.015036696846859095,-0.8562690447537719,0.9971854926206366,0.006174283925615881,-0.8467941199847517,0.9062046293518821,0.01628000865307123,0.6602249149396495,1.0456440493795025,0.01568469308962239,0.7234668010298352,0.9727371692275346,0.0,0.0,0.0,0.0
0.01654211098700948,0.004139873082188359,0.743748056206305,-0.00877164261894252,-0.5255334274350634,0.002930535750835215,0.850722685070954,0.013151260551009236,-0.8491553082249422,0.9804006348464861,0.006535323724623897,-0.844447124872769,0.9153270707082055,0.015159891113969348,0.6625907819819951,1.036895437678481,0.012624413237292333,0.7143853216500189,0.9792804677722009,0.0,0.0,0.0,0.0
0.014955517216172378,0.0046727985428649055,0.7429795432253524,-0.00885748479303111,-0.5258108244949816,0.0029823407052396635,0.8505501910240022,0.011648135128541789,-0.8437751465229796,0.9672614547125028,0.007006711661249181,-0.8448603700070588,0.9305751940172816,0.014992028374899345,0.6678240127181981,1.029289477480807,0.009413576245271824,0.7064105265240193,0.9869442389380046,0.0,0.0,0.0,0.0
0.014175008767936939,0.004953817914690985,0.74225299983887,-0.00884503665631531,-0.526330528328087,0.0029275541492604622,0.8502290101514581,0.011041790644571808,-0.8397470212564251,0.9589438136023751,0.008681687465012165,-0.851228538419758,0.9549969611334576,0.01664296860972341,0.6751262825936634,1.0233288935444527,0.006734984132589163,0.70160668597555,0.9943344626564581,0.0,0.0,0.0,0.0
0.01415156867381605,0.005028571342868634,0.7422255306767205,-0.008928137774826428,-0.5263528409724616,0.0029217951824647044,0.850214348425739,0.01092649701776137,-0.8397849837892234,0.9588779980221066,0.008680376499352454,-0.8512372036968319,0.9550080105526454,0.016648696157063197,0.6751419094567306,1.0233331713754035,0.00671974760889573,0.7015742032962181,0.9943170002721962,0.0,0.0,0.0,0.0
0.01415156867381605,0.005028571342868634,0.7422255306767205,-0.008928137774826428,-0.5263528409724616,0.0029217951824647044,0.850214348425739,0.01092649701776137,-0.8397849837892234,0.9588779980221066,0.008680376499352454,-0.8512372036968319,0.9550080105526454,0.016648696157063197,0.6751419094567306,1.0233331713754035,0.00671974760889573,0.7015742032962181,0.9943170002721962,0.0,0.0,0.0,0.0
0.014924231776005948,0.005701648719127149,0.7423868889674743,-0.009133867269833191,-0.5260504599628129,0.0030998722104129055,0.8503986575917727,0.008864425683687168,-0.8468000265269674,0.9703253299940573,0.0065923855258565875,-0.8541887262791042,0.960925299861011,0.014279098755507926,0.677198139757815,1.0224298141720347,0.004300387144512615,0.7043054782975277,0.9890856875433689,0.0,0.0,0.0,0.0
0.01672481418794287,0.007094488190121636,0.7433692508767731,-0.009463762568654699,-0.5261404690849758,0.0035079467445584796,0.8503377789435931,0.00442435072559853,-0.855869171777057,0.9908175646087041,0.002123074707306748,-0.8550892055381251,0.9703640440117023,0.009134813740289275,0.6871350799170922,1.0157661112564274,-0.000983324869009412,0.7156394957297253,0.9734206827548404,0.0,0.0,0.0,0.0
0.018377335093071413,0.00820269942909688,0.744360167843539,-0.009874871058495062,-0.5257049537482389,0.003789725884126582,0.8506012147321818,0.004217740492706236,-0.8436736180739219,0.957922855868844,-0.0012349004174988772,-0.8587843888758606,0.9818970987086973,0.0056077444348197995,0.6952689014558973,1.007211986988061,-0.0037396431864019967,0.6994528506575768,0.9958116068535205,0.0,0.0,0.0,0.0
0.020420572458049877,0.009330963986246396,0.7452239574903482,-0.010250608972133212,-0.5254193947723559,0.004100410309012292,0.8507717503819984,0.002973755770045285,-0.8393748138801286,0.9367141464155763,-0.00477220269502451,-0.8636464844592063,0.9960648412405263,0.0018764585409066065,0.704522644994597,0.9994737997575199,-0.006758358611378698,0.688792583737016,1.0124399226633531,0.0,0.0,0.0,0.0
0.022509715822613272,0.01045452075111542,0.7459675616408791,-0.010575489784089264,-0.5253136278269137,0.0043865869518619005,0.8508316574329302,0.0016218642839639758,-0.8403065385791781,0.9248929309986051,-0.008287389016490636,-0.8679605536978512,1.0096152851827374,-0.0024649982054935856,0.7141184017533498,0.9929408503808188,-0.010065030532990986,0.6821467050072588,1.025737186116966,0.0,0.0,0.0,0.0
0.024443456853001186,0.011517944482464572,0.7466173922579548,-0.010854991241191601,-0.5253048493788136,0.0046431081939230295,0.8508321961059978,0.0005607298770958313,-0.8441095116851631,0.9185640570825856,-0.011610902917350297,-0.8713656669025759,1.02141113041109,-0.007034737968931944,0.7232691555218776,0.9873345757239337,-0.013426561172662145,0.6778782317066174,1.037177516050738,0.0,0.0,0.0,0.0
0.026120225466250573,0.01248430413939614,0.7472047341895045,-0.011094921793256059,-0.5253416341519768,0.004869357188426996,0.8508051242778828,-0.00019488831301027324,-0.8494590793917802,0.9152050950649683,-0.014630263352710025,-0.8737489055721388,1.031021331632172,-0.011484361264842887,0.7315812840100374,0.9823433916340564,-0.016744907330131658,0.6748740409477308,1.0475373676953057,0.0,0.0,0.0,0.0
0.027503150343511328,0.013329732799621312,0.7477536059878315,-0.011298499834771181,-0.5253957176617002,0.005064223422334302,0.8507679104229068,-0.0007197038480127172,-0.8556454982526529,0.9132740531440616,-0.01726824327078576,-0.8751518354751207,1.0384262061459875,-0.015550617187829855,0.7389009068457758,0.9777239685678275,-0.019950329833967845,0.6724435834703765,1.057240164155618,0.0,0.0,0.0,0.0
0.02859276561306759,0.014038934652451023,0.748276741134668,-0.01146718847824825,-0.5254526232716729,0.005226365596869967,0.8507295277513116,-0.00107216988308627,-0.862275713703467,0.9118479060624034,-0.01947350693456035,-0.8757066932654191,1.0438205858607237,-0.01904495356013966,0.7451936518736954,0.9733279182395232,-0.022983406841856874,0.6701966078702376,1.0665127809077315,0.0,0.0,0.0,0.0
0.02940698722529405,0.014602055573850867,0.7487750157650204,-0.01160155128953233,-0.5255052850726766,0.005354531106362766,0.8506943801183785,-0.001278754789486766,-0.8690772459941202,0.910397327254983,-0.021213312198270908,-0.87558909154316,1.0474805899428428,-0.021839201362305036,0.7504628957933905,0.9691096177346551,-0.025792190509433825,0.6679433936999204,1.0754429215150139,0.0,0.0,0.0,0.0
0.029966412653888747,0.015012325028838851,0.7492377768182737,-0.011701579165112976,-0.5255499521507644,0.005447493862081958,0.8506648256804759,-0.0013475770154167523,-0.875749042336631,0.9086648684690862,-0.02246655599161943,-0.8749841198357864,1.0496717266362927,-0.02385207982007894,0.7546907198294527,0.9651324997754961,-0.028319216196882643,0.6656218135790484,1.0839716599877434,0.0,0.0,0.0,0.0
0.030283286205521013,0.015264490385664742,0.7496432465699693,-0.011766511717081155,-0.5255836063373791,0.005503790804884776,0.8506427747522357,-0.0012815225305556222,-0.8818328165870953,0.9066181416422303,-0.023218228133912958,-0.8740602127815129,1.0505805481563741,-0.025039905686944645,0.7577935288294877,0.9615775282927952,-0.03046966773959559,0.6632539883411604,1.0918284640397633,0.0,0.0,0.0,0.0
0.030353579825396288,0.015354554894194808,0.7499598797043754,-0.011794283582667642,-0.5256024483075755,0.005521430717772839,0.8506306337128253,-0.0010803871938958702,-0.8866208991634943,0.904445546611975,-0.023457291776388636,-0.8729440988954481,1.0502603315996522,-0.025397817997666983,0.7595965022111745,0.958743805731944,-0.03205554994880367,0.6609504527502146,1.098402855744637,0.0,0.0,0.0,0.0
0.030154187623810648,0.015281300925681675,0.7501520053777051,-0.011780928642555696,-0.5256013497429134,0.005497736199093436,0.8506316510484616,-0.0007353360513531406,-0.8891772704482864,0.9025347064666389,-0.02317951697332357,-0.8716922948858167,1.048599801313708,-0.024974464648677877,0.7598509425076899,0.9570050711303763,-0.03272676441998321,0.659009052135939,1.1025467611796496,0.0,0.0,0.0,0.0
0.029651570462624875,0.015048521704191646,0.7501966563234055,-0.011721683216565151,-0.5255755651256644,0.005430993371693282,0.8506488298918689,-0.00023377912766846167,-0.888628353217123,0.9013223794104913,-0.022395575173257624,-0.8702538223362984,1.0453520703585273,-0.023864022791400173,0.7583441044879966,0.9566408712369934,-0.03198167990443412,0.6581431949533378,1.1024031287279143,0.0,0.0,0.0,0.0
0.02881800122142048,0.014660719314121442,0.7500991278032058,-0.011617070343165174,-0.5255218141896575,0.0053226716702157815,0.8506841574014085,0.00040676425185893247,-0.8849889712790241,0.9007757294687844,-0.021121154983091594,-0.8684782579120589,1.0402453781202858,-0.022101115813323573,0.7550100569446545,0.9576396615981198,-0.029836914020921947,0.6583229538189024,1.097942695444597,0.0,0.0,0.0,0.0
0.027634180960176256,0.014125212756673385,0.7498928600602635,-0.011473241447479816,-0.5254379030950629,0.005177679982569873,0.8507388355727915,0.001139382251395425,-0.8791695076314769,0.9004063852500257,-0.019383614719440365,-0.8661208252450601,1.0329940663220816,-0.01967681930079951,0.7499409856949786,0.9596978321276407,-0.02682653759782944,0.6587746164402587,1.0909627586652781,0.0,0.0,0.0,0.0
0.0260780135545091,0.013460344940073246,0.7496235446944732,-0.011296419106670308,-0.525321605069469,0.005002732418781925,0.850814065957392,0.0019275392299960498,-0.8721512795138102,0.8997854120754174,-0.017244354063468508,-0.862840971137161,1.023205656580477,-0.016669995429364454,0.7432967533110381,0.9624189676524862,-0.02333804401459328,0.6591292248086109,1.0825601361689685,0.0,0.0,0.0,0.0
0.024122199427879566,0.012696456911475452,0.7493310347327137,-0.011092160450351489,-0.5251693052531529,0.0048050636180271625,0.8509119085781389,0.0027526161134958874,-0.8646935250350636,0.8986888962987796,-0.014800321868576298,-0.8582549857599793,1.010382340140487,-0.013271302720219426,0.7352117911817492,0.9654942334232764,-0.019603254685768203,0.6591851462771,1.0733126812266016,0.0,0.0,0.0,0.0
0.021745879805417655,0.011876014046541086,0.7490409236970964,-0.010866190831332789,-0.5249771360223017,0.004592415212993153,0.8510345717261727,0.0036020532913415395,-0.8572920193537954,0.8971171765858359,-0.012184442886719452,-0.8520011759077543,0.9940143277597655,-0.009768775406327403,0.725792248166676,0.9687656583120144,-0.01576394057237796,0.6588030929246765,1.0634966648849737,0.0,0.0,0.0,0.0
0.018955337820078497,0.011052316121440276,0.7487576818036966,-0.01062511051128045,-0.5247435795965153,0.004372582517791688,0.8511828024701766,0.00445677310717959,-0.8502127143497717,0.8952863709138437,-0.009559954344288472,-0.8438394523812545,0.9737536689053009,-0.0065183899304966045,0.7151493146057825,0.9722617201446684,-0.011922527927389473,0.6579092688482719,1.0532580704247516,0.0,0.0,0.0,0.0
0.015813812555860448,0.010283944964029318,0.7484531375914796,-0.010376936113321175,-0.5244742184987886,0.004152885503063322,0.8513529625654588,0.00528689804601076,-0.8435118852907769,0.8936383728536993,-0.00710247009476706,-0.8338182160521745,0.9497035532886193,-0.0038797019530598283,0.7034331718654124,0.9762647448392605,-0.008168986265316527,0.6565882053107147,1.0427700634610366,0.0,0.0,0.0,0.0
0.012484140590114625,0.009621167789066373,0.748043270625806,-0.01013444906880801,-0.5241952125066345,0.0039481695293037316,0.8515286748457529,0.006033840955495515,-0.8370318799691374,0.892888351493341,-0.004982367822333026,-0.822520544794549,0.9228692539270725,-0.0020209929661139086,0.6908306349414451,0.9814721851391593,-0.004537008718245394,0.6553279450203022,1.0324693097514681,0.0,0.0,0.0,0.0
0.009448892913331132,0.008954817895650998,0.747331699345552,-0.009902343706509392,-0.523811795067179,0.003761462337224081,0.8517681599700141,0.00724988055610028,-0.8294225912839853,0.8917622901532966,-0.0029464949838532662,-0.8136802661224699,0.8989260273224232,-6.22312943657998e-05,0.6775208518891285,0.9885698131679302,-5.147528094221008e-05,0.6563021675850087,1.0224611952898748,0.0,0.0,0.0,0.0
0.006938005982058999,0.008423088785439087,0.7464183296031631,-0.00970657579962139,-0.5234260284731935,0.0036079736120275337,0.8520081910577156,0.008340315332630008,-0.8220431553566251,0.8911934229746293,-0.0013515677201378269,-0.8073397729162689,0.87920305903478,0.0012809920103716782,0.6649379186417601,0.9970699557412857,0.0048331042276748325,0.6590572454979791,1.0131434785685822,0.0,0.0,0.0,0.0
0.005327607423890393,0.008127854634546192,0.7455756360843355,-0.009592448461021877,-0.5230924399620278,0.003520290390524495,0.8522146981498625,0.008956610608600906,-0.8169223135920878,0.8906455177168501,-0.0004895122393403455,-0.8041629872406747,0.8667367310205483,0.001897669512852224,0.6554975382865869,1.0046103399857673,0.009512705054586379,0.6627299467159536,1.0049959412772769,0.0,0.0,0.0,0.0
0.005311508407017253,0.008061945272967363,0.7455399554080169,-0.00952689614511106,-0.5230894232105586,0.0035209924161588853,0.8522172822628574,0.008970443337884765,-0.8169411650404902,0.890654033439876,-0.0003780476872021929,-0.8042210473443416,0.8665854902347034,0.0018983514899723985,0.6554248991250841,1.0045440106273444,0.009505522356551742,0.6627629574317785,1.0050067306577357,0.0,0.0,0.0,0.0
0.005311508407016178,0.008061945272966262,0.7455399554080153,-0.009526896145113692,-0.5230894232105608,0.003520992416156759,0.852217282262856,0.008970443337863147,-0.8169411650405375,0.8906540334399385,-0.0003780476872045501,-0.8042210473443909,0.8665854902348098,0.0018983514899824751,0.6554248991250539,1.004544010627403,0.009505522356547315,0.662762957431766,1.0050067306577612,0.0,0.0,0.0,0.0
0.005311508407016178,0.008061945272966262,0.7455399554080153,-0.009526896145113692,-0.5230894232105608,0.003520992416156759,0.852217282262856,0.008970443337863147,-0.8169411650405375,0.8906540334399385,-0.0003780476872045501,-0.8042210473443909,0.8665854902348098,0.0018983514899824751,0.6554248991250539,1.004544010627403,0.009505522356547315,0.662762957431766,1.0050067306577612,0.0,0.0,0.0,0.0
0.0067542186167732525,0.007620955718763924,0.7459140751642018,-0.009449573791388126,-0.5234966714401289,0.0034921571342604266,0.8519681598421484,0.010154803864595406,-0.8196512745001039,0.9004660328469745,0.0007771047617532421,-0.8094623508443679,0.8802039969785194,0.004277283407390575,0.6625789606908815,0.9991041152466325,0.012042282585047262,0.6700399369994327,1.002543683132261,0.0,0.0,0.0,0.0
0.009416135767645058,0.00668102970938673,0.7469416886137636,-0.009251323483448568,-0.5242046276189355,0.003201417839661467,0.8515360663650798,0.013294674607681752,-0.8229395094904493,0.917271434510043,0.003872608196572761,-0.8189938457920443,0.9057342630528161,0.007800256500835422,0.677874580874074,0.9856475326474364,0.01583761350306876,0.6844431690319884,0.9949026869060942,0.0,0.0,0.0,0.0
0.012281029911506612,0.005883714055229866,0.7477395038709831,-0.009017695256353424,-0.5243339429326898,0.003037360533574897,0.8514595538849226,0.01571049353744114,-0.8314788294636514,0.939616752127835,0.004393102616458176,-0.821241720003598,0.9011220498484617,0.00899393998626393,0.6712266499274325,1.0034347297024109,0.019397076886558322,0.6972511671677769,0.9871801893724186,0.0,0.0,0.0,0.0
0.01558083412511074,0.005193790019622519,0.7482819918223874,-0.008777663092444305,-0.5244233984635084,0.002818763066020295,0.851407720395697,0.01802595586732608,-0.8429170604948055,0.9662829734365241,0.0047320334153783845,-0.825953460314027,0.8975587495678322,0.010205356428756059,0.6677739187168418,1.018376550916248,0.021878439777712092,0.7100356519867878,0.9804566798663589,0.0,0.0,0.0,0.0
0.018770530356533678,0.004483723343908937,0.7486902241300359,-0.00853412280445822,-0.5245809580689561,0.0025837409469448955,0.8513138736459859,0.020459138380108356,-0.8532385394498393,0.9907176760048182,0.005210022409207266,-0.8323046318457962,0.8964150206653848,0.012212680588621721,0.6659460346851406,1.0314575832101285,0.024459042534745047,0.722167986849423,0.9749542359180415,0.0,0.0,0.0,0.0
0.02162153234865709,0.003755768612075545,0.7490444901261354,-0.008299364653241046,-0.5247633173384482,0.002353087598804133,0.851204466800458,0.022946562115375404,-0.8615988105066054,1.0113142906681252,0.0056515914334694444,-0.8394057938991611,0.8966577184905958,0.014724655866696669,0.6647568485954723,1.0433096971148474,0.027351822315409835,0.7332383703620495,0.970237373597409,0.0,0.0,0.0,0.0
0.024032225245018045,0.003033200376709489,0.749390956991682,-0.008080590907117245,-0.5249414891295393,0.0021374986897301673,0.8510972730190157,0.025392983322106155,-0.867823858596345,1.0276959994214767,0.006030702408792817,-0.8468148775811101,0.8974355185560776,0.017505568833551356,0.6636876258495479,1.0542906600608624,0.030495396744668557,0.7430313613948182,0.9660050331332184,0.0,0.0,0.0,0.0
0.025983408775166816,0.0023472528570721214,0.7497527911263328,-0.007882863362590928,-0.5251011442973231,0.0019437066637049327,0.851001099133987,0.02769220166101395,-0.8720716367673519,1.0401172261076268,0.006359770174193047,-0.8543328883501875,0.8981784170354813,0.020399791667622402,0.662483096815419,1.0646292183532378,0.03369987563621183,0.7514960294540993,0.9620450548938233,0.0,0.0,0.0,0.0
0.027503440553207973,0.001729092021116745,0.7501357214440537,-0.0077100268087893515,-0.5252371433089229,0.0017763312280669765,0.8509191168511011,0.02974512249681651,-0.8746588106819072,1.049125155651754,0.006642688409181044,-0.8618618882423703,0.8985385632406226,0.023300427826356555,0.661042686740957,1.0744697090409692,0.03673334030770173,0.7586762627066804,0.958225642792436,0.0,0.0,0.0,0.0
0.028642860390128796,0.0012056487153051807,0.750531335521818,-0.00756503370873273,-0.525349220130637,0.0016386750435768377,0.8508515040341756,0.03146961912799517,-0.8759630514054538,1.055360737424856,0.006869960012850091,-0.8693063779286054,0.8983341400130406,0.026125431087402808,0.6593614839764649,1.0838739905726333,0.03937668752860771,0.7646466983612583,0.9545061474872797,0.0,0.0,0.0,0.0
0.029456301956181177,0.0007983840572621899,0.7509190457645185,-0.007450187609390847,-0.5254389745929915,0.0015332421730623331,0.8507972895183019,0.03280249907551833,-0.8763665727568126,1.0594383910228786,0.007030118031271742,-0.8764797273901079,0.8975227866058509,0.028796390172537514,0.6574952171721523,1.0927862882363697,0.04145133713941232,0.7694587046516291,0.9509529653993709,0.0,0.0,0.0,0.0
0.029989499715641917,0.0005236067871363394,0.7512672267558766,-0.007367584750581025,-0.5255079195247885,0.0014622177543409404,0.8507555507493973,0.03369686383504334,-0.8762209426352564,1.0618674823717833,0.007120441371525348,-0.8830017389970931,0.896212541222823,0.031207794851855698,0.6555420664483891,1.100952395932916,0.04282934603381496,0.773096367205327,0.9477551191404193,0.0,0.0,0.0,0.0
0.030270351492340083,0.000392867040404975,0.7515348747972113,-0.007319801350478414,-0.5255564419156188,0.0014278856322174655,0.8507260475686669,0.03411922858912057,-0.875819528032915,1.0629964684484456,0.007148353549926824,-0.8882140400253397,0.8947001560723105,0.03317775183662016,0.6536579993136143,1.1077787186122836,0.04343885726282248,0.7754495000173875,0.9452286192270696,0.0,0.0,0.0,0.0
0.030305836630218286,0.0004123293259288215,0.7516772898915499,-0.007310550757270326,-0.5255837858532594,0.001432787870576217,0.8507092258901972,0.03405015274859272,-0.8753696472605323,1.0629846887755492,0.007123689266871378,-0.8912040365549514,0.8934899748055791,0.03438988121881881,0.6521583259182829,1.112121652836444,0.04327405797583604,0.7763296094107103,0.9437744453468069,0.0,0.0,0.0,0.0
0.030091401442168906,0.0005817561576614077,0.751662742360548,-0.007343759443740067,-0.5255904310942383,0.0014780705417029418,0.8507047568027811,0.03349052959207967,-0.8749589111191538,1.0618399315079337,0.007055484294888084,-0.8911167652966527,0.8931801320299347,0.034409158352365986,0.651756927432541,1.1121080253585895,0.04238300359060566,0.7755822632674152,0.9437091674315984,0.0,0.0,0.0,0.0
0.02962783507881411,0.0008999160996274294,0.7514883441534946,-0.007418710854082381,-0.5255779476072623,0.0015628352128380669,0.8507116675256657,0.03244654052923396,-0.8745777169709289,1.0595467783127972,0.006950197272428148,-0.8879759458354594,0.8937948202899457,0.03324090739160678,0.6524600077972524,1.107744111473239,0.040777307681613584,0.7732047446275894,0.9450586889925351,0.0,0.0,0.0,0.0
0.02892357304269711,0.0013639442686663803,0.7511802459298765,-0.007529829069149782,-0.5255488580013504,0.0016839478253538082,0.8507284313148274,0.030931969621710593,-0.8741264558380468,1.0560823443667129,0.0068158927179020065,-0.8826907053728601,0.8948046691356474,0.03132981104898307,0.6535698797437789,1.1009137599331467,0.03843439206071187,0.7693551413422807,0.9475522515305078,0.0,0.0,0.0,0.0
0.027981579512932543,0.0019626976134198017,0.750778219904002,-0.007671264688195928,-0.525507122701621,0.0018362907646449443,0.8507526336862994,0.028987730270890445,-0.8734013325273934,1.05131062852677,0.006663968851723861,-0.876235952253665,0.8958032929657739,0.029003402514599094,0.6547902067955289,1.0927764585019688,0.035392521700137416,0.7642503522518518,0.9508218403653439,0.0,0.0,0.0,0.0
0.026793653903300567,0.0026763908682957945,0.7503190337446983,-0.00783751194248048,-0.5254565551849443,0.002013875333952472,0.8507819499295118,0.026680523747587923,-0.872135747828731,1.044967097948137,0.006509648382678579,-0.8693493008759058,0.8966373348437128,0.026459198442598846,0.6559896919431802,1.0839535983806134,0.03176550194650586,0.7580651018881002,0.9545742388777718,0.0,0.0,0.0,0.0
0.025347686688002448,0.00347563236338228,0.749830568524828,-0.00802233913968927,-0.5254019401737673,0.0022091795650710008,0.850813471250907,0.02410713306068565,-0.8700385639748541,1.0367147642917809,0.006377271356885706,-0.8625216934098691,0.8974209630260908,0.02382793781143623,0.6571081377894507,1.0747513494550884,0.027734726323085955,0.75092711964813,0.9586401067899628,0.0,0.0,0.0,0.0
0.02364123243782162,0.0043193757563404255,0.7493297803558446,-0.00821757349805715,-0.5253517781498573,0.00241231049705899,0.8508420308368957,0.021401571730997368,-0.8668355478589356,1.0262363396392666,0.00629364636356363,-0.8560987566800489,0.8985483598652337,0.02123257300454999,0.6581541812240183,1.0653260519724599,0.023544855997019016,0.7429556790661995,0.9629818439578696,0.0,0.0,0.0,0.0
0.021699590372227066,0.005152982030206021,0.7488204500989951,-0.008411871751183292,-0.5253228944098592,0.00260995445907198,0.8508573823856799,0.018741607354260885,-0.8623242325298656,1.0133614050697821,0.006269380886310916,-0.8504076137059577,0.900760668836676,0.01883409421495912,0.6592456085428176,1.055810571168115,0.019491483849591977,0.7343144479904535,0.9677023980202054,0.0,0.0,0.0,0.0
