zhuoxili-jackie/tripod-support-walk/examples/pcbB样数据/trajectory_trotting_acc_025.csv
root_pos_x,root_pos_y,root_pos_z,root_rot_x,root_rot_y,root_rot_z,root_rot_w,FL_hip_joint,FL_thigh_joint,FL_calf_joint,FR_hip_joint,FR_thigh_joint,FR_calf_joint,RL_hip_joint,RL_thigh_joint,RL_calf_joint,RR_hip_joint,RR_thigh_joint,RR_calf_joint,FL_foot_joint,FR_foot_joint,RL_foot_joint,RR_foot_joint
0.0,0.0,0.72963,-0.009919430704566214,-0.5230949929384007,0.0038044909978256812,0.8522081665329894,0.0,-0.81,0.872,0.0,-0.81,0.872,0.0,0.65,1.0,0.0,0.65,1.0,0.0,0.0,0.0,0.0
0.0015211112430234246,-0.00025616439148097494,0.7300335943282659,-0.009820717291645947,-0.5235439128472844,0.0037484298395258904,0.8519338437379811,0.0007599079142537434,-0.813320565847009,0.8832585349096168,0.0007599079142537441,-0.8150439254966939,0.8856482860920758,0.0007603666183898299,0.6577638498686016,0.9951564821546567,0.0007603666183898383,0.6574162314393961,0.9967751426665663,0.0,0.0,0.0,0.0
0.004254069967824972,-0.0009199296457618424,0.7309507289754469,-0.009759364311869327,-0.5243040574736367,0.003692670386810539,0.8514671892153708,0.0026083936565622235,-0.8185159231435244,0.9025896393795566,0.0026100945344732104,-0.8237681805490438,0.9102600382997716,0.004614695265435981,0.6721927209905603,0.9836452427958161,0.004622964480432193,0.6720223028056211,0.989772762640206,0.0,0.0,0.0,0.0
0.007172366737800152,-0.001338609071405687,0.7316616271180469,-0.00943882042304278,-0.5245153077864537,0.003445246402387287,0.8513417238946591,0.004171704303103223,-0.8280835350283312,0.9268456214128752,0.007578916322906928,-0.8270847614341696,0.9062383548586176,0.013896932784539129,0.6641225978498339,0.9996829928207822,0.004044474521769235,0.6840004319038576,0.9817780881092608,0.0,0.0,0.0,0.0
0.010485637242278995,-0.0015755431838558704,0.7321425284557483,-0.009146351816780135,-0.5246582919986162,0.003216746825699653,0.851257700949247,0.005238733550711635,-0.840755735952651,0.955519124492242,0.01383731954415926,-0.8327450197607111,0.9030666535907198,0.0240935414336782,0.6587725277003512,1.0128434172343448,0.0023466814250670126,0.6959852460614758,0.9743835377866747,0.0,0.0,0.0,0.0
0.013667266112863032,-0.0017579209409941767,0.7324835791587142,-0.00889615322789808,-0.5248629697669176,0.003040236090406285,0.8511348179869698,0.006057665520838019,-0.8525401485230844,0.9820812712355629,0.02018423496821494,-0.8398044436089002,0.9023061599076635,0.034345767631068266,0.6551517548676019,1.0243102163097917,0.0007430237173004482,0.7073378629072135,0.968071586396025,0.0,0.0,0.0,0.0
0.016466234374887034,-0.001894858109653358,0.7327600828338783,-0.008676126661305338,-0.5250985375140114,0.002893656017811166,0.8509922899072905,0.00670073365862162,-0.8623129017048804,1.0045555060442584,0.026015095231378505,-0.8475258383693582,0.902983556895237,0.04430403439359263,0.652157389612442,1.0346942371860628,-0.0008799631851142029,0.7174724834162824,0.9624769484659343,0.0,0.0,0.0,0.0
0.018768131684973963,-0.0019645153390614126,0.7330188779946677,-0.008478675760779276,-0.5253333293264687,0.002763600537273564,0.8508497914838917,0.007138705880526354,-0.869816609365013,1.0224606877654818,0.031265073477108954,-0.8555420208357867,0.9041599798729967,0.053918619311883104,0.6491536940147513,1.0442775774570663,-0.002799742018445424,0.7260606506180174,0.9572784023895992,0.0,0.0,0.0,0.0
0.02054713401174056,-0.001933334794704846,0.7332851597160286,-0.008303785666345874,-0.5255491665712818,0.002648933367657055,0.8507185808549453,0.007282953057246396,-0.8751960679396266,1.0360377131615763,0.03605268723270169,-0.8636784765684907,0.9051919146093835,0.06320412813947357,0.6458271468872346,1.053240237953678,-0.0052682312094874196,0.7330145817554795,0.9522321085848687,0.0,0.0,0.0,0.0
0.021827945458943662,-0.0017654515286428488,0.7335654367200668,-0.008155555478231413,-0.5257375977432771,0.002554710533993258,0.8506038670780055,0.007024932956637216,-0.878784613922392,1.0458504691571893,0.04050259060664635,-0.8718331920510075,0.9056838439573571,0.07216474228765611,0.6420605941731838,1.0617020610100316,-0.008488990356961011,0.738379489414984,0.947182719262413,0.0,0.0,0.0,0.0
0.022658772658153175,-0.0014268342884899891,0.7338500911053988,-0.008039367915224286,-0.5258958966736342,0.0024876344836670663,0.8505073110209186,0.006258472699256926,-0.8809890628389467,1.0525653130347354,0.04468810848433632,-0.879894158531559,0.9054261337805312,0.08078053839444323,0.6378544212918354,1.069718262680676,-0.012624011229216947,0.7422426353210743,0.9420744633339787,0.0,0.0,0.0,0.0
0.023092749224850086,-0.0008861570081916718,0.7341153842608109,-0.00796037005933968,-0.5260240017021695,0.002453657737136589,0.850428928074218,0.004887953408389923,-0.8822269556062698,1.056826568468702,0.04863139067086379,-0.8876565750389718,0.9043622983165502,0.08899873451248666,0.6332830211120731,1.0772421396626148,-0.01780838841533334,0.744664558300474,0.9369616796297542,0.0,0.0,0.0,0.0
0.023175206169373963,-0.00011436582479837072,0.7343247486047878,-0.007923061177861871,-0.5261224982692848,0.002457074956701621,0.8503683347227338,0.002829089409458154,-0.8828898519777914,1.0591801978377193,0.052319086718687985,-0.8947270436392329,0.9025962786996412,0.09670720975597885,0.6284790428855647,1.084046388929534,-0.024160602571719057,0.745629610431717,0.9320201233005477,0.0,0.0,0.0,0.0
0.022935322146722687,0.0009151352153398336,0.7344304907412745,-0.007931776749776366,-0.5261918529640408,0.002500670816022266,0.8503252127494109,8.749170112346254e-06,-0.8833140861633068,1.0600190527700362,0.055712366500683716,-0.9004432667872977,0.9004308627918527,0.10367940238816253,0.6236588374059797,1.0895873378441454,-0.031774334539594176,0.7450214103607448,0.9275519752735291,0.0,0.0,0.0,0.0
0.02238333059147282,0.002224464185177256,0.7343795997266542,-0.007991714923258932,-0.5262331080283884,0.0025866442011775316,0.8502988637997492,-0.003631906433508604,-0.8837473395418932,1.0595490126113887,0.058749765435586895,-0.9039001177479167,0.8983905711279181,0.10950514037589126,0.6192339204214178,1.0927983750364287,-0.04068603372379432,0.7426474406151626,0.9239491603032738,0.0,0.0,0.0,0.0
0.021519002833188347,0.0038290397317020755,0.7341311312119574,-0.008108294206945296,-0.5262500641293555,0.0027158244754292298,0.8502868632798707,-0.008129336414501219,-0.8843088866715644,1.0578164032623503,0.061363213160400665,-0.9042590183609096,0.8971065997416167,0.1136224798370734,0.616035841938157,1.0918962476738863,-0.050868332675668544,0.7383568634225535,0.9215232995834267,0.0,0.0,0.0,0.0
0.020347155259377192,0.005745258107630892,0.7336721500849082,-0.008280408871748721,-0.5262456441839974,0.00288499850904848,0.8502873829417258,-0.013514284196825606,-0.8850255610636042,1.054846262389628,0.063514158356905,-0.9015721656755231,0.8966249430614331,0.1159860051263355,0.6141251043042472,1.0869169416403623,-0.0623563657760952,0.7321396664333985,0.9202801738567596,0.0,0.0,0.0,0.0
0.01888058193039388,0.00798830707750649,0.7330189083621225,-0.008499820721317856,-0.5262217962007609,0.0030868635640201557,0.8502992682134258,-0.019805659359646833,-0.8858359085893116,1.0506577492130802,0.06521527607358803,-0.8967862892914387,0.8964260269879043,0.1170999055010075,0.6127768304687418,1.079694633524226,-0.07522716879472766,0.7241487130908465,0.919906063635654,0.0,0.0,0.0,0.0
0.017129758237461608,0.010558186608958221,0.7322040678290905,-0.008756971287432701,-0.526183772585143,0.00331238028494069,0.8503193406354965,-0.026975257393910525,-0.8865488223935291,1.045141228636026,0.06652860280468148,-0.890923459894411,0.896137437713985,0.11740261235542863,0.6116579505337206,1.0713104894492151,-0.08943650168788844,0.7146394605146811,0.9199770842950455,0.0,0.0,0.0,0.0
0.015099950445921918,0.013434203628442113,0.7312632904416073,-0.009040784350598161,-0.5261391765313953,0.003551177285321133,0.8503430015453055,-0.03493352782384674,-0.8868730488170474,1.038045081189937,0.06757882213150475,-0.8847892320179379,0.8956840544645979,0.11729451590656619,0.6106000667395963,1.0622743583241547,-0.1047949935345504,0.7038864332424023,0.920123123070966,0.0,0.0,0.0,0.0
0.012800089545919453,0.016569511148922574,0.7302345466060526,-0.009335727513425445,-0.5260986250010479,0.00378891938976638,0.8503638780273182,-0.043509237446335565,-0.8864423994768776,1.0290347793258925,0.06857531875633006,-0.8789655759506821,0.8953208673836305,0.11731639528642532,0.6094708857944863,1.0527201961961028,-0.12099799268002012,0.6921869051734588,0.9200524541086312,0.0,0.0,0.0,0.0
0.010257260504774863,0.019884531897690218,0.729161284097785,-0.009617249806013485,-0.5260780766176848,0.004002428451280099,0.8503724750807133,-0.052422531314400084,-0.884844048139237,1.017788897173265,0.06980314344472122,-0.8739054092518992,0.8956767947940347,0.11840827672974068,0.6081015970723703,1.0425344776020848,-0.13768345758585301,0.6798907978110817,0.9195416468074388,0.0,0.0,0.0,0.0
0.007534988685100922,0.023259222349389607,0.7280891824417971,-0.009844377302164364,-0.5261032149108019,0.004149695424694103,0.8503536179284084,-0.061246085029720565,-0.8816731767763654,1.0041321759178738,0.07155269675273286,-0.8700485432774998,0.8978678318955217,0.12226969422639808,0.6062174665727696,1.0314462313282882,-0.15454092318862248,0.6673869370115911,0.9184932078011673,0.0,0.0,0.0,0.0
0.004753114369591973,0.026522450971477603,0.7270338058623591,-0.009938443355116927,-0.5262155099433912,0.004115546145259064,0.850283203831888,-0.06925212367156426,-0.8766216083245538,0.9881845175696481,0.07412162480190103,-0.8680608846903495,0.9037437967895886,0.1315303254102766,0.6034442947422001,1.0192076797097354,-0.17174374641698373,0.6548043886039865,0.9172322553877604,0.0,0.0,0.0,0.0
0.002298889751357197,0.029563217879106676,0.7258928984612313,-0.009820490170087754,-0.5264417882062696,0.003839349365138123,0.8501457880854653,-0.07609960452149503,-0.8714158655678856,0.9731176839785688,0.07822244267373814,-0.8686497407981523,0.9150477828148313,0.15096887706160247,0.6000112226510838,1.0053413732948813,-0.18985782540092888,0.6423971929333818,0.916751938896508,0.0,0.0,0.0,0.0
0.0005712708101487773,0.032037536604695896,0.7245161087772433,-0.009408884742656418,-0.5269266953367596,0.003191913322298732,0.8498526591820044,-0.08067756654102022,-0.8669879873498101,0.9612456011202826,0.0843079553916166,-0.8747817562037592,0.9358638136600702,0.184453942861176,0.5958003401249328,0.9897335840280489,-0.2088527117070363,0.6300623421551348,0.9198117504062178,0.0,0.0,0.0,0.0
-0.00015163432723066714,0.03338169517432708,0.7228227844730286,-0.008784531556884669,-0.5278486697636763,0.002204762729595218,0.8492901464489917,-0.08163580510109064,-0.8633473332268239,0.9533268120114059,0.09291309783547576,-0.8912640538876972,0.971714052474531,0.22710943232519268,0.5930050228024162,0.9731323866951331,-0.22600412539490528,0.6181819874673735,0.93009151258547,0.0,0.0,0.0,0.0
-0.0001902182003666187,0.03359764169438863,0.7227130761247131,-0.008981424079988854,-0.5279327911793164,0.0021739736384372016,0.8492358776321989,-0.08194881623037098,-0.8634350890156182,0.9532160875132349,0.09293610586654964,-0.8912808514771493,0.9717259801991293,0.22713001603295213,0.5930121867382483,0.973130929701055,-0.22606817913592006,0.618071628121373,0.9300251601377647,0.0,0.0,0.0,0.0
-0.0001902182003666187,0.03359764169438863,0.7227130761247131,-0.008981424079988854,-0.5279327911793164,0.0021739736384372016,0.8492358776321989,-0.08194881623037098,-0.8634350890156182,0.9532160875132349,0.09293610586654964,-0.8912808514771493,0.9717259801991293,0.22713001603295213,0.5930121867382483,0.973130929701055,-0.22606817913592006,0.618071628121373,0.9300251601377647,0.0,0.0,0.0,0.0
0.0007834339175011196,0.03542054219264063,0.7231384067371875,-0.009210000729265139,-0.5279802701444207,0.0022773570592732003,0.8492036409893777,-0.08691753050371143,-0.8702878901309462,0.9670833367354973,0.08817206614839919,-0.8909181778773417,0.9749888881858045,0.21971156213615753,0.5972930883883927,0.9758522007275695,-0.23512938546520773,0.6239584381095121,0.9168077545926364,0.0,0.0,0.0,0.0
0.0031697287348007508,0.038970300620759867,0.7253672527449798,-0.010597007000691175,-0.5295314820180426,0.0034210792103534235,0.8482171945978455,-0.09825200161456929,-0.8748807496025763,0.9902306671143323,0.07652469832323305,-0.8772649499558023,0.9746811943331761,0.2174374934425442,0.6135357374435335,0.9688866852760228,-0.24577372655352034,0.6503856843701826,0.8820269834916077,0.0,0.0,0.0,0.0
0.004214302229121638,0.04266937170470738,0.7282973447261275,-0.0089603627187131,-0.5259359987288628,0.0024438653610398477,0.8504734356010891,-0.08961067690980357,-0.8590794331290144,0.9471138139578311,0.06928506222027622,-0.8909218495998767,0.9925773729158958,0.1746921526981995,0.6300202439128569,0.9512379198264853,-0.19465224557934274,0.6262359841911574,0.925743334460149,0.0,0.0,0.0,0.0
0.006334558982443738,0.046480957357439436,0.7304011334077274,-0.008542726245619319,-0.5246107297855501,0.002252789273075414,0.8512963813870326,-0.07914176648157403,-0.8504509304355377,0.922507437681317,0.059980563146884644,-0.8957780292304178,1.0061367842483833,0.14815432229884967,0.6455399552252743,0.9417110885446092,-0.15164292741384025,0.6204602365911202,0.9596175402339447,0.0,0.0,0.0,0.0
0.009269288298102174,0.0501333991585574,0.7318210192452252,-0.00906225459630278,-0.5248628073283963,0.0027356508285855743,0.8511341993126176,-0.06875436725215221,-0.8479165633410427,0.9118196621952256,0.049595533278923534,-0.8951659085096039,1.017729439865333,0.13381337526108272,0.6603074465316102,0.9386737640226771,-0.12022709795382489,0.625810302443961,0.9866704838565357,0.0,0.0,0.0,0.0
0.01237117636717956,0.05354835836589348,0.7327870314990924,-0.009898086441325128,-0.5256049243505201,0.003466800488495707,0.8506641362357161,-0.05911198051275103,-0.8490825644308514,0.90739092070164,0.03927794988879731,-0.8930928731552397,1.0281759690319976,0.124196231320404,0.6736636904015213,0.9390574107217993,-0.10124869626083914,0.6331216515707649,1.008622718362694,0.0,0.0,0.0,0.0
0.015262673522505595,0.05678619981936521,0.7336281327392657,-0.010596243995061394,-0.5261679697800213,0.004111939788429738,0.8503046978242235,-0.05058980243517832,-0.8525628653487124,0.9054323289051542,0.029560087917612568,-0.8916658054616029,1.0379637184399744,0.1134365486851992,0.6862753072417944,0.9395707829575471,-0.08839226343500485,0.6391250754175933,1.0264355392370195,0.0,0.0,0.0,0.0
0.01774090041959749,0.05990867116007151,0.7344505035513691,-0.011057516057428893,-0.5263872603823762,0.0045917916886611745,0.8501606312308657,-0.043227758746714376,-0.8575218493659272,0.9041921663931974,0.020415316530407734,-0.8908093615562773,1.0461910368080696,0.09964724205870895,0.6980103128141104,0.939587095657775,-0.0781440402120971,0.6428422987650257,1.041191477805825,0.0,0.0,0.0,0.0
0.019764045861958197,0.06292265547275387,0.7352747657549021,-0.011317259785836697,-0.5263074947064039,0.0049243283207910105,0.8502047351299553,-0.03665483058333499,-0.8633751041959242,0.9029141261751343,0.011787531140448324,-0.8900508686387181,1.0523265086082407,0.08308020004107504,0.7087260474592344,0.9391684822204601,-0.06896501516132156,0.6445192418776146,1.0538449327578971,0.0,0.0,0.0,0.0
0.021396022495282385,0.0657915698461556,0.7360810909741231,-0.011460120886929112,-0.5260607279411663,0.005164761763427339,0.850354103525816,-0.030388632724207238,-0.8696234945637937,0.901344664073127,0.0036815112869907803,-0.8889713447256721,1.0563766081992734,0.06515466260209796,0.7183842306623057,0.9385261038169807,-0.06028482523716841,0.6450106774890737,1.0651925297788782,0.0,0.0,0.0,0.0
0.022740177489396194,0.06846438304424449,0.7368294830609958,-0.011576123166427336,-0.5257836549004421,0.005379638254587263,0.8505225459117579,-0.02406476444437905,-0.8757832385914669,0.8994579675515282,-0.0038785298919345812,-0.88734224778631,1.0586813110669413,0.047631725240926945,0.7269554924356526,0.9379260664269726,-0.051800803251544084,0.6452920798364741,1.0757649892959948,0.0,0.0,0.0,0.0
0.023883713677545222,0.0709089161788465,0.7374705781886388,-0.011726162326558263,-0.5255712775349823,0.005615617970739422,0.8506502184694625,-0.0175113355075345,-0.8813109496961471,0.8973568851541118,-0.010882469363302628,-0.8851336326639275,1.0596263515324744,0.031769667154626424,0.7343732494304628,0.9377719145703184,-0.04320015982881345,0.6461242517659097,1.0856776848686058,0.0,0.0,0.0,0.0
0.02486708159282714,0.07313996945006013,0.7379537354328504,-0.011908334890635365,-0.5254803040996933,0.005849043976802374,0.8507023158825794,-0.010655179625944991,-0.8854713067946901,0.8953661793074655,-0.017296503690854483,-0.8824101748894287,1.0593644311935018,0.017432482196713138,0.7407054919420829,0.9387355487622842,-0.03428475717171649,0.6479676042003116,1.0944836353834155,0.0,0.0,0.0,0.0
0.02568124135227485,0.07521468234845251,0.7382477543620384,-0.012060856576519544,-0.5255500291758098,0.0059806672237656495,0.8506561786006757,-0.0033769687166799595,-0.8872305017897443,0.8940968326344843,-0.023033028704868327,-0.8791663968724452,1.0576917712461786,0.0030143699186089036,0.7463194582555233,0.9415570791803659,-0.025116147069629648,0.6511571871167785,1.1010400672279468,0.0,0.0,0.0,0.0
0.02628249381651219,0.07716833668491144,0.7383836047717464,-0.012165797446049492,-0.525762612779695,0.005993264967127864,0.8505232208179879,0.004364122631325247,-0.885524384410956,0.8940135796606777,-0.028140545056917644,-0.8752201666961651,1.054243201262395,-0.012154586004752041,0.7513448544925926,0.9461109059720759,-0.01547493704813755,0.6562165385854924,1.1034058191640541,0.0,0.0,0.0,0.0
0.026596935160503102,0.07895060894133397,0.7384689154775002,-0.012372631473087576,-0.5259199506368617,0.0061623784660588396,0.8504217474901457,0.012098875247014647,-0.8804278859318552,0.8943650028582202,-0.033134022463943716,-0.8704641302257743,1.0489413096009865,-0.024382542306839547,0.7543928340129737,0.9506335932294662,-0.004270135094424671,0.6625467506944663,1.101341527596833,0.0,0.0,0.0,0.0
0.026520995338357754,0.08054258715834557,0.7386107670228912,-0.01287024595717756,-0.5257430523655987,0.006843048504799653,0.8505185314532928,0.018957668984964954,-0.8733179084581563,0.8935930971273771,-0.03880432944166139,-0.8647986228693041,1.041559448447742,-0.02858716861840674,0.7532178609607914,0.9533726729017281,0.009875223134005937,0.668585341653946,1.0963111094414224,0.0,0.0,0.0,0.0
0.025944639235926287,0.08222558772780877,0.7388149100719617,-0.013448846453342118,-0.5252470121514693,0.0077285615374821735,0.8508084238485124,0.024849504807317683,-0.865566634879795,0.8917211577078408,-0.045175410736039805,-0.8577366310278461,1.0305948136851606,-0.030782260503007162,0.7490120937601122,0.9557663122163503,0.025836140723376862,0.6734374258380761,1.0891018216248032,0.0,0.0,0.0,0.0
0.024826304325708173,0.08452426894063708,0.7390665400794934,-0.01334567977099684,-0.524902114400187,0.007583215579768908,0.8510241817781289,0.03162842058574791,-0.8571639705489343,0.8912988879641656,-0.05071163296071857,-0.8484781387398971,1.0137347858135668,-0.051360387355133146,0.7486870983594739,0.9617868463080785,0.03733698028375965,0.6766709374501158,1.0805735902312188,0.0,0.0,0.0,0.0
0.023186816352976654,0.08735201986731833,0.7395663608484727,-0.012683081287681919,-0.5247770109406183,0.00654168217853946,0.851120105879044,0.03940405543911292,-0.8475550867715668,0.8919505685616945,-0.05540687609014552,-0.8358126244093276,0.9903038757591727,-0.08766886993070812,0.7527033325783639,0.9688854948671737,0.04388926346075433,0.6782379756074011,1.0713338284031526,0.0,0.0,0.0,0.0
0.020696232556874906,0.09053292288792487,0.7398635654298559,-0.011756770851687411,-0.5238061046863588,0.005485375904313789,0.8517387238370888,0.046582347105640555,-0.8395463963095997,0.8899952177594673,-0.061146080325889175,-0.8239063571877552,0.962329422572011,-0.12813313978628355,0.7510505284486104,0.9781313004720936,0.05602565819198211,0.6763000412303187,1.0596917665124523,0.0,0.0,0.0,0.0
0.01765873792398965,0.0929793485331287,0.7404414491316786,-0.011724886287638894,-0.5211597524735418,0.006320102279987082,0.8533551990527912,0.051327601993155586,-0.8339957811516122,0.8822066737000965,-0.0695646444929296,-0.8146517878358696,0.9362098334749607,-0.13369084886456037,0.7342764081079,0.9776365983114818,0.07938633045458501,0.6695090286036678,1.0479285388797526,0.0,0.0,0.0,0.0
0.01485214497169934,0.0955815672598069,0.7407516393433036,-0.010969318765213102,-0.5200099018762581,0.005516474903808516,0.8540719785247067,0.05945181445211877,-0.8234204885305526,0.8780115922612493,-0.07423561260816866,-0.8020320208506688,0.9062309873503619,-0.1614830963693407,0.7284451180198003,0.9832398311059477,0.09673174040980378,0.6697966092222796,1.038063695244826,0.0,0.0,0.0,0.0
0.012338402443623808,0.09776070685488587,0.7404849272316274,-0.010313633994033528,-0.5192241391138498,0.0047220235067732845,0.8545628267186212,0.06892446166210213,-0.8111291635016601,0.8720943048476262,-0.07778531400879664,-0.7910354423212896,0.8785275936758341,-0.18483056587908608,0.721034618481105,0.9929696855498948,0.12402711067372219,0.6760916184668774,1.031616708011295,0.0,0.0,0.0,0.0
0.01023125222190623,0.09935494798329216,0.7397481666180574,-0.009920319865009056,-0.5187101271756681,0.00415844700279964,0.8548825056916903,0.07847257105877621,-0.7979854321038774,0.862940759886867,-0.08034142254264161,-0.782345136967661,0.8550496552517441,-0.2005613590688996,0.7120374523403139,1.005145567170338,0.16579052997418386,0.6882707251404029,1.0286012921865433,0.0,0.0,0.0,0.0
0.008889331793750559,0.10036196801713648,0.7389154301837133,-0.009668427393655215,-0.5187370922959804,0.0035030003667587363,0.8548719667742507,0.08642846402714466,-0.7844610865867436,0.8495524632956736,-0.08108468600511382,-0.7761280469273583,0.8384288052279697,-0.211246407768385,0.7058223812492564,1.0171320133636819,0.21573213150631496,0.7042440525159114,1.0290001720804955,0.0,0.0,0.0,0.0
0.00892374574832688,0.10039522680725073,0.7388893706180162,-0.009660678222160124,-0.518712400690995,0.003481697631922756,0.8548871238048169,0.08647783741844198,-0.7844651028484869,0.8495585889685315,-0.08110793463195926,-0.7761695512051352,0.8382987639926683,-0.2112728395237168,0.7057673311522521,1.017072140172749,0.21574125142623937,0.7042711457135606,1.0290110099602774,0.0,0.0,0.0,0.0
0.008923744128445201,0.10039522799628806,0.7388893685964508,-0.009660656528959106,-0.5187123894739203,0.003481692840296273,0.8548871308755627,0.08647783947481924,-0.7844651261569643,0.8495586050569903,-0.08110794258027285,-0.776169668920987,0.8382988730323457,-0.21127300047979944,0.7057673090206145,1.0170721659242508,0.21574111775316585,0.704271054859249,1.0290110667108665,0.0,0.0,0.0,0.0
0.008923744128445201,0.10039522799628806,0.7388893685964508,-0.009660656528959106,-0.5187123894739203,0.003481692840296273,0.8548871308755627,0.08647783947481924,-0.7844651261569643,0.8495586050569903,-0.08110794258027285,-0.776169668920987,0.8382988730323457,-0.21127300047979944,0.7057673090206145,1.0170721659242508,0.21574111775316585,0.704271054859249,1.0290110667108665,0.0,0.0,0.0,0.0
0.010231423137553835,0.10098191736978035,0.7390761253263963,-0.009737945246481614,-0.5192231466677488,0.003602405196360555,0.8545756368301282,0.08488229285610398,-0.7897114664683252,0.8626283645979687,-0.08293753592358914,-0.7771573522329916,0.8450942853958074,-0.21748158005204413,0.7130711351100939,1.016468020806017,0.21572146210690454,0.7114772933587115,1.0254513688318478,0.0,0.0,0.0,0.0
0.012401662175117432,0.10212276699439263,0.7392066132062176,-0.00993928542286576,-0.5199981565805654,0.004058440718183273,0.8540999103249184,0.08118470769870355,-0.8002435672472481,0.8858245494566178,-0.08708997411327223,-0.7787394007260894,0.8558996248896278,-0.22727847634605328,0.7237809210345565,1.0172640903071182,0.21687761516562354,0.723150063496151,1.020550764166095,0.0,0.0,0.0,0.0
0.01530914418491524,0.10377839193608626,0.7400190080774628,-0.009064040051902436,-0.5208805340427484,0.0028742519122180107,0.853576622869455,0.07991351992115174,-0.8079012855739771,0.9121864126622261,-0.07532573837773317,-0.7931050789815662,0.8728569950426638,-0.17156918394601342,0.7082536314820015,1.023692598369894,0.19289416592894265,0.7340317387225405,1.0058841198068833,0.0,0.0,0.0,0.0
0.01825981611756311,0.10565682593814492,0.7403580184193416,-0.008284099830241013,-0.5217714622957423,0.0019434289383187657,0.8530428699120151,0.07743414342749938,-0.8178518464035025,0.9400738043932777,-0.062023799073023,-0.8068816306120634,0.8827131372173905,-0.11951173967229245,0.6945786867333792,1.0302868866818973,0.1686334239630084,0.7432866580175156,0.9942392088963059,0.0,0.0,0.0,0.0
0.02105020326196214,0.10766934130487738,0.7403618768519212,-0.007846099930774515,-0.5225259166010598,0.0015201463301838612,0.8525859454337922,0.07344588795996876,-0.8301926410988841,0.9685402749476739,-0.05014191846429118,-0.8192187050953974,0.8891914473647613,-0.0826256330623166,0.6862605742776671,1.0376280061597576,0.14846024473620123,0.7515983786880944,0.98499790515354,0.0,0.0,0.0,0.0
0.023428727478413652,0.10963551698736895,0.7402103389134551,-0.007620987272081147,-0.523185311392507,0.0013636163742877761,0.8521837777419305,0.0689068679962155,-0.8419233897103846,0.9936453321412236,-0.04021077942271432,-0.8304135651336227,0.8940497351835509,-0.05645339793322908,0.6808140859539452,1.0459414208226592,0.13116946325891737,0.7584558435661217,0.977531614154863,0.0,0.0,0.0,0.0
0.02528973024653634,0.11149469131078962,0.7400261462855927,-0.007510837069026668,-0.5237569170778464,0.001336426402645251,0.8518336064655483,0.06426327443298956,-0.8517873893713342,1.0140371007630797,-0.031875686916813036,-0.8407658796926537,0.8977276114502029,-0.036459998261951315,0.6763936097091635,1.0546978318767608,0.11565746115330572,0.7636455418097075,0.9711491084220594,0.0,0.0,0.0,0.0
0.026622034003804737,0.11325418633473222,0.7398804159658349,-0.007461052618585238,-0.5242478669490941,0.0013699406500383541,0.8515319312602216,0.059657705563839196,-0.8594557810919139,1.0296779136605212,-0.024516820764839423,-0.8505571067638263,0.9003342220848484,-0.019796238160251542,0.6719981781960275,1.063488370195884,0.1011561441649863,0.7672247449362675,0.9652826975695545,0.0,0.0,0.0,0.0
0.027463421974509027,0.11495598971268149,0.7398010837874945,-0.007446210762648301,-0.5246659620481159,0.0014357426548721067,0.851274409844694,0.05506245506059773,-0.8650810602850566,1.041116499929583,-0.01761153058850496,-0.8599773127478565,0.9018851236785349,-0.004887625739429647,0.6671861330830554,1.072061788301307,0.0871384985743144,0.7693542681118556,0.9595519651017556,0.0,0.0,0.0,0.0
0.027869767620028414,0.11665751093078205,0.7397833110748494,-0.007457271975833299,-0.5250189033286453,0.0015253229403917252,0.8510565278712059,0.05036575826709232,-0.8690366881389892,1.0490954024074306,-0.010840924116068858,-0.8690871409842957,0.9023927687926613,0.00906902681437915,0.6618250736288903,1.0802496692339558,0.07320558596394132,0.7701815163332341,0.9537679165231786,0.0,0.0,0.0,0.0
0.02789570036372976,0.11842142590891461,0.7397986233992686,-0.007493460891399266,-0.5253133149121553,0.0016385666727825989,0.8508743058284994,0.045420721711827344,-0.8717725263294087,1.054349173527833,-0.0040680744399148976,-0.8777759211742368,0.9019165972020458,0.02243231572343947,0.6559382650721155,1.0878719155479781,0.05901629751618026,0.7697737624519975,0.9479155058220946,0.0,0.0,0.0,0.0
0.027582912338321112,0.12031064766378989,0.7398013779495689,-0.0075578086478329375,-0.525553992823267,0.0017779443791288865,0.8507248198270395,0.04007086436485026,-0.8737351867017409,1.057499127531325,0.0027219253262594986,-0.8856973506010727,0.9006150925580167,0.03528447836978109,0.6496319927521012,1.0946196608133665,0.044257935779704945,0.7680836772827544,0.9421362330102001,0.0,0.0,0.0,0.0
0.026953750202590256,0.12238504091404923,0.7397335899956187,-0.0076551714415331335,-0.5257439132235898,0.0019460573518406189,0.8506062243596213,0.034164565801009496,-0.8753187446009824,1.0589931270280384,0.009472912967340857,-0.8922101224303852,0.8988092090022045,0.04748812780205275,0.6430972632783677,1.0998951789953422,0.028655215877471905,0.7649429000003315,0.9367115378145872,0.0,0.0,0.0,0.0
0.026010807654633577,0.12469736603813453,0.7395322156322099,-0.007791826604379108,-0.5258855415863797,0.0021452749974692513,0.8505169500860947,0.027567324408300224,-0.8768237277961158,1.0590763482966454,0.016087560093159918,-0.8964176602538062,0.897021482568801,0.05868029123671896,0.6367183877991588,1.1025915148044787,0.012016162682685676,0.7601041780650493,0.9320144222668972,0.0,0.0,0.0,0.0
0.02474792017419264,0.12728882243584314,0.7391470637934094,-0.00797437734636995,-0.5259839116415002,0.0023766894383355636,0.8504538114133876,0.02017729598761387,-0.8784131183403188,1.0578236512145571,0.02245417988937764,-0.8974886684855978,0.8958776800735235,0.06832428293686967,0.6313149560587722,1.1008985677639804,-0.005737324215182714,0.7533762929622799,0.9283390106260012,0.0,0.0,0.0,0.0
0.02316699776530441,0.1301931907554061,0.7385581242066013,-0.00820308204484854,-0.5260439621570363,0.0026377629378026546,0.8504137237426123,0.01191879861015776,-0.8801356517751141,1.0552702161516416,0.02847998656444243,-0.8954832873416175,0.8954311961223751,0.07634415612917957,0.6269897417138207,1.0948684725203373,-0.02467349791987506,0.7447383184389206,0.9256771268772405,0.0,0.0,0.0,0.0
0.021281305434750066,0.13343475513187578,0.7377773571208875,-0.008470602125382736,-0.526070005555324,0.0029217190215542056,0.8503940626042811,0.0027499129279849044,-0.8819311670541085,1.051431646650885,0.03412810036041715,-0.8913586965764945,0.8951813698245955,0.08318709910268617,0.6230979540212558,1.0863844913198442,-0.04484286137692047,0.7343623001544393,0.9236962765304048,0.0,0.0,0.0,0.0
0.019104877873819676,0.13701616225199173,0.7368361890263743,-0.008767116287009474,-0.5260691252566715,0.0032194696896938276,0.8503905268396442,-0.0073064230912636445,-0.8835967075448725,1.0461903587910542,0.039441555976003344,-0.8861521312143974,0.8947776935936116,0.08927415042194409,0.6193796702146415,1.0765686616208423,-0.06613721742196974,0.7225493720953386,0.9219364974517213,0.0,0.0,0.0,0.0
0.016648784867767642,0.1409121305049995,0.7357734468650812,-0.009079915484354025,-0.5260499869934799,0.0035201877979716746,0.8503978919287274,-0.018145893620037087,-0.8848107641426873,1.0392767622045822,0.044561419066322806,-0.8806854966988016,0.8941700024603865,0.09504753820168073,0.615718587828973,1.0659550580792028,-0.08827361082944452,0.7096467744889855,0.9199690323989822,0.0,0.0,0.0,0.0
0.013929266292018714,0.14506253996655083,0.7346353440859597,-0.00939030591469229,-0.5260233811545953,0.003808535897140438,0.8504097363552677,-0.029557645600498197,-0.8851542173600908,1.0303226204212639,0.0497337499257659,-0.875553805207421,0.8936465813025497,0.10116108988633069,0.6120030163199118,1.0546862848021683,-0.11083077436735808,0.6960467557426535,0.9174275565759756,0.0,0.0,0.0,0.0
0.01098068646513375,0.14936395858628718,0.7334764214839877,-0.009668447038595564,-0.5260039371258919,0.004058507010090611,0.8504174902839027,-0.041189125596173756,-0.8841420403705961,1.018950491909183,0.05526354345289829,-0.871208688795118,0.8938764217927243,0.10874360039928958,0.6080364730247038,1.0426427810976515,-0.13332007907079035,0.6821879949321541,0.9140357101387497,0.0,0.0,0.0,0.0
0.007868359392943385,0.15365877211580567,0.7323435212257522,-0.009861248148930855,-0.5260075312568339,0.004205829141563933,0.8504123375441281,-0.05245555431878112,-0.8813079737429491,1.0048945338059134,0.06143640564670383,-0.8680934998814832,0.8959783413739791,0.11957660544765471,0.6034775613301262,1.0295319609841096,-0.15540845996252656,0.6683846051890675,0.9097814715199428,0.0,0.0,0.0,0.0
0.00467322849368039,0.15771721588332754,0.7312308862277319,-0.009893297661211402,-0.5261035705207663,0.004175023210531994,0.850352706191895,-0.06257219912131408,-0.8760148175204098,0.9876645071696568,0.06905538613290714,-0.867065966438864,0.9020590313272305,0.13684204233581085,0.5977519231359324,1.0149681962685881,-0.17673250752609465,0.6546867848858346,0.9056182746907759,0.0,0.0,0.0,0.0
0.001960104662633886,0.16137680186326409,0.7298122202649726,-0.00967924693306201,-0.5262597450800877,0.00386573930630461,0.8502599890308056,-0.07101523485125014,-0.8717845043756399,0.9725311889780992,0.07806199761711034,-0.8684780880054986,0.9129396196290513,0.1645675635752775,0.5918210851918719,0.9982587487783852,-0.19816264373783044,0.6402904900207478,0.9046368135077902,0.0,0.0,0.0,0.0
-7.946293928095226e-05,0.16408670727058244,0.7277948284531562,-0.00915472314415055,-0.5266794587617027,0.003187161897518317,0.8500086945212224,-0.07623126484626147,-0.8683986789751807,0.9593040553804241,0.08930378055867672,-0.8764111105236124,0.9332800838773299,0.20602147569552437,0.5853401938107501,0.9784731049507672,-0.2184070266682942,0.6237442692252039,0.9124688847022501,0.0,0.0,0.0,0.0
-0.0009787437374148484,0.1655363398917906,0.7256441180024547,-0.008418982222651448,-0.5275108551749537,0.002173823339970361,0.8495037921651735,-0.07749464217579992,-0.8657468787105098,0.95074745495696,0.10155206268256001,-0.8948947584730674,0.9692624956353327,0.25572984373983326,0.580751878737425,0.9571689320780574,-0.23619225710228628,0.6087896887556248,0.9262314552156053,0.0,0.0,0.0,0.0
-0.0010174301166396512,0.16578490761064876,0.725505225741476,-0.00863526807642125,-0.5276097004264727,0.002136092742647827,0.8494403294339932,-0.07785459425383558,-0.865856900479286,0.9506179471570328,0.10158436922843533,-0.8949142994059387,0.9692737824744878,0.2557557618024122,0.5807579078583791,0.9571664574841819,-0.23626554959056964,0.6086653058118656,0.9261453488328344,0.0,0.0,0.0,0.0
-0.0010174301166396512,0.16578490761064876,0.725505225741476,-0.00863526807642125,-0.5276097004264727,0.002136092742647827,0.8494403294339932,-0.07785459425383558,-0.865856900479286,0.9506179471570328,0.10158436922843533,-0.8949142994059387,0.9692737824744878,0.2557557618024122,0.5807579078583791,0.9571664574841819,-0.23626554959056964,0.6086653058118656,0.9261453488328344,0.0,0.0,0.0,0.0
1.2818841122427295e-05,0.16775957063453453,0.7260337865180418,-0.00883997874525247,-0.5275269141665663,0.0021996376344489694,0.849489476803545,-0.08314101569551166,-0.8737171130999526,0.9660813651686703,0.09656600319872183,-0.895257306659007,0.9735404017873269,0.2475031826034203,0.5852700927310721,0.9597246078712919,-0.24592761892881038,0.6151064091867899,0.9107092029701133,0.0,0.0,0.0,0.0
0.0024872603895605494,0.1716043948595824,0.7284735562591803,-0.009882741745387788,-0.528541231471906,0.0031731971145703983,0.8488441723130501,-0.09512509985729119,-0.8813852314845693,0.9932611606283749,0.08450151866104867,-0.8850534918925911,0.9769842506820052,0.24061839456454798,0.602171949010333,0.9519324699981621,-0.25947082854589726,0.6414471056357368,0.8707110476056193,0.0,0.0,0.0,0.0
0.004014572363720144,0.17546926119753867,0.731550224944717,-0.009059565419736796,-0.5264037544552508,0.002553055632761715,0.850182623603163,-0.08705991145091034,-0.8624348750051722,0.9520714344021871,0.07618876326091684,-0.8903686447716819,0.9898968424639881,0.2078122579382108,0.6211272695593967,0.9353891801239274,-0.21067593651696193,0.6234955747174582,0.9188244044401198,0.0,0.0,0.0,0.0
0.006375319356589272,0.17959472323812953,0.7337684939041721,-0.00885175491326747,-0.5254447119843602,0.002468143658743732,0.8507781199287555,-0.07711526348157963,-0.8528735769286143,0.9274353174473186,0.06591313906088521,-0.8930818073592146,1.0027023365917955,0.1826324452792254,0.6378722623748132,0.9271366161095472,-0.16590693557412012,0.6199508280704991,0.9550296019030021,0.0,0.0,0.0,0.0
0.009154855854744116,0.1837453431618478,0.7352219175752971,-0.009182744103948233,-0.5253686319379447,0.0028222413835715314,0.8508204938410608,-0.06768002616501816,-0.8505751207266282,0.9152503919976734,0.054528482988777174,-0.8931299452455237,1.0136720006695425,0.16376982812867433,0.6519739047734467,0.9261793916818336,-0.13483055935325208,0.6225544062417667,0.9820046409284097,0.0,0.0,0.0,0.0
0.012037284493393901,0.18770224477540914,0.736341094949772,-0.009709214236057145,-0.5255905689662212,0.003339768757375803,0.8506756907995722,-0.05905455612171308,-0.8520938318339166,0.9094589937664295,0.04323817381697741,-0.8923139512993045,1.0238026899314214,0.14773108005074304,0.665044308442486,0.9273562657377147,-0.11549910135888815,0.6264131304732591,1.0029354969576916,0.0,0.0,0.0,0.0
0.014791172492203034,0.1914168234276898,0.7373406333119917,-0.010220141263365437,-0.5258157855461543,0.003846274062304759,0.8505283737529721,-0.051507247029517575,-0.8557479193709491,0.9068627127945935,0.032548031398097685,-0.8912798631531613,1.032967512072831,0.13212522232585996,0.6776778400157749,0.9284111246527835,-0.10274759103717247,0.6300597787030147,1.0199097048642376,0.0,0.0,0.0,0.0
0.017281369832529675,0.19489029747712674,0.7382751269197327,-0.010645470441971418,-0.5259502783185026,0.0042837654858055,0.85043790369963,-0.044853114901940716,-0.8606626608886007,0.9056811852797191,0.022577489352679364,-0.8900697676755582,1.040693330107446,0.11606788765456913,0.6897231754277074,0.9289775776351071,-0.09315312163949964,0.6330595562247037,1.034362161284516,0.0,0.0,0.0,0.0
0.019456637818291846,0.19812679833614086,0.7391511913899846,-0.010975601496418545,-0.5259832409844493,0.004642025656349977,0.8504114404058145,-0.03867382184259351,-0.8663236331982564,0.9049122689475846,0.013345186913472392,-0.8886375084223884,1.046762082392414,0.09946196813370811,0.7009636560792639,0.92917580485118,-0.08487598255825726,0.635397870294136,1.047219718418138,0.0,0.0,0.0,0.0
0.0213249165304272,0.20112445079949062,0.7399600912467791,-0.011233051877108642,-0.5259521187755155,0.004935970111150942,0.8504256719432534,-0.03257322853092375,-0.8723379765298173,0.9040576326413605,0.004839600653539592,-0.8868939466495946,1.0511785829401212,0.08272246811449308,0.711273442484063,0.9292233733196792,-0.07705310654609748,0.6373227321053428,1.0590795858468467,0.0,0.0,0.0,0.0
0.022918441625592995,0.20388175509623263,0.740686969420821,-0.011445509006078238,-0.5258990384919087,0.005185462264977238,0.8504541801990135,-0.026282644667602204,-0.878303438386981,0.9029006958711842,-0.002960623586479345,-0.8848116909798832,1.0540961258094306,0.06636611419095001,0.7205785667746237,0.9293512323549056,-0.06927501746033378,0.6391365259867613,1.070226665448282,0.0,0.0,0.0,0.0
0.02426766873463572,0.20640389300995624,0.7413132779429736,-0.01163664983069382,-0.5258559309241877,0.0054084437979058375,0.8504768527292548,-0.01968437613648895,-0.8836822031212586,0.90143771375063,-0.01009323104786184,-0.8823959650921054,1.0556627891708936,0.05081388385828638,0.7287963242911896,0.9298220535145075,-0.06129196525507382,0.6411193469661167,1.0805954460134892,0.0,0.0,0.0,0.0
0.025382436599512295,0.20870798120410425,0.7418185006406118,-0.01182055252629935,-0.5258359422994019,0.005616774041058942,0.850485325078243,-0.012780398050452182,-0.887712589921665,0.8998638085271693,-0.016619461940972587,-0.8796519849738557,1.055901187298237,0.03625889108239842,0.7357855329284608,0.930951095758189,-0.05284510277815844,0.6435076676259784,1.0896631654291906,0.0,0.0,0.0,0.0
0.026242384432178478,0.210826981324201,0.7421851270681773,-0.011996936642559245,-0.5258270261256499,0.005812815305713234,0.850487050627622,-0.005639336842405339,-0.8894377436692014,0.8985417000756315,-0.022627794737449823,-0.8765709971140133,1.0546543677206637,0.022571024191685152,0.7413381616582255,0.933078120319723,-0.04355711100394361,0.6465655602942594,1.0962735407023894,0.0,0.0,0.0,0.0
0.026806342416780288,0.2128090305075876,0.7424129645159001,-0.0121579528613292,-0.5258047622574072,0.00599445846849422,0.8504972678599988,0.0016370616507596168,-0.8879842333104677,0.8978796257283095,-0.028238767248293738,-0.8730389735497958,1.0515720644447124,0.009398237923646245,0.7452798821324887,0.9364254424533281,-0.03296210184599713,0.6508678582750543,1.0985093400259223,0.0,0.0,0.0,0.0
0.02703190818787982,0.21470895665351586,0.7425325011436859,-0.012302486725221773,-0.5257514369857604,0.006160838729318685,0.8505269657065171,0.008912970136385645,-0.8833531547224198,0.8978364339402142,-0.0335846409175175,-0.8687586393452561,1.0461618315827692,-0.0036063741063429872,0.7475968623642233,0.9409310384314887,-0.021187304468152646,0.6562319954688389,1.096257422560579,0.0,0.0,0.0,0.0
0.026875890146721697,0.21659022912792547,0.7426038848734857,-0.01243070512380976,-0.5256484653473337,0.006309157100825314,0.8505876574373713,0.0160450715745542,-0.8764422862425447,0.8979151821108187,-0.03880804028691784,-0.8633003474969435,1.0378252348705674,-0.01685156062468155,0.7484270812638255,0.9462545660324587,-0.008852957691046298,0.6617028034473907,1.0912191459871157,0.0,0.0,0.0,0.0
0.026277645072136695,0.21853144164962884,0.7427003578454529,-0.012516831841523114,-0.5254412165638059,0.006419161708503133,0.8507136129271463,0.022962677363295277,-0.8682758805034267,0.8976058876721583,-0.04405877787428651,-0.8563241245359201,1.0259326984077672,-0.03115910384002557,0.7479157049112667,0.9519412482019034,0.0037108262900835583,0.666525203432855,1.0843629414977825,0.0,0.0,0.0,0.0
0.02516665634818671,0.2206114974174218,0.7428842716791216,-0.012506424567179915,-0.5250429584712545,0.006449318469593832,0.8509593923305482,0.02971621578021957,-0.859696037411234,0.8965454983923492,-0.04945062546782317,-0.8477076510759194,1.009948781100491,-0.047650958410901854,0.7461159953575262,0.9575907896506618,0.01648372220237795,0.6699404213808606,1.0761344503678143,0.0,0.0,0.0,0.0
0.023497992242450767,0.22288046965361227,0.7431827206614029,-0.012336629859057832,-0.5243772732812879,0.006348825478086941,0.8513729941951711,0.036502088195236745,-0.8512446293133961,0.8945893779671779,-0.05500704309793273,-0.8375592037468219,0.9896142478526986,-0.06721588961362146,0.7429900059755856,0.9629797343271331,0.029633763590706075,0.6713555498070793,1.0667906357280685,0.0,0.0,0.0,0.0
0.021298040867531065,0.2253238474308147,0.7435581229022317,-0.011972978080402697,-0.5234424817414975,0.006083397668043192,0.8519551680558084,0.04361676007445271,-0.8430829457126541,0.8918414537444438,-0.06061540507854074,-0.826148327049672,0.9651236199690739,-0.08977219836143951,0.7384353248546663,0.9682392215068675,0.043487221223686284,0.670800895538173,1.0567437463597193,0.0,0.0,0.0,0.0
0.018700355346746755,0.22782925407519977,0.7438843701862387,-0.011446842744552252,-0.5223586049221816,0.005663831669092131,0.8526302707890203,0.05127211716905273,-0.834907089352151,0.8886212151937052,-0.0659971363232529,-0.8138837254778628,0.937332979987757,-0.1137543775689294,0.7323212235235586,0.9740464537857602,0.05879807978728955,0.6694611818388058,1.0468127034483534,0.0,0.0,0.0,0.0
0.01595633880451333,0.23016245664899168,0.7439413406354988,-0.010840034292011216,-0.5212925449660815,0.005109395418341427,0.8532938944453974,0.05947933189591922,-0.8257327035133765,0.8846829402996789,-0.07058323016586696,-0.8020253036084813,0.9085670849755196,-0.1367230689597009,0.7245062266746468,0.9816413562914643,0.07742652514453684,0.6699426949684383,1.037938290931396,0.0,0.0,0.0,0.0
0.01340551482029316,0.23212005222789767,0.7435319082433496,-0.010274495737558698,-0.5203958120047738,0.004534514159276471,0.8538513171311328,0.06890821942063197,-0.814680493875749,0.8792908452640353,-0.07414689195786378,-0.7921005014491311,0.8820265117759808,-0.15615578826948845,0.7150969854004892,0.9921420699340272,0.10413613251000745,0.6752468741255635,1.031295753809949,0.0,0.0,0.0,0.0
0.011270872453803107,0.23360426787782468,0.7426939797442607,-0.009841033042852701,-0.5198080515797912,0.004001622467452256,0.8542170278091502,0.07870450895849075,-0.8025120367379144,0.871775998289696,-0.07657478970566,-0.7844345464552734,0.8595314818477994,-0.17126980112148998,0.7053007187960765,1.0050811021231802,0.14261437783120573,0.6860926745216996,1.0278752728391864,0.0,0.0,0.0,0.0
0.009870737079077917,0.23450288485404416,0.7417800074755869,-0.009575511972245168,-0.5196935637404083,0.0034383801584820985,0.8542921554826248,0.08667888128594443,-0.7904738726179469,0.8607678992377068,-0.07736104935875679,-0.7791965164997341,0.8437542246420333,-0.1826128307530271,0.6985922391392109,1.01713577665133,0.18853175516932955,0.7004255055699963,1.0278302268905855,0.0,0.0,0.0,0.0
0.00989711948802502,0.2345230973158968,0.7417522047063861,-0.009561397163249424,-0.5196724806975607,0.0034216587081924727,0.854305205849534,0.0867246405962195,-0.7904786000277244,0.8607748339155549,-0.07736853745685138,-0.7792388097936702,0.8436251541173788,-0.18263912721212264,0.6985323772244434,1.0170748263843319,0.18853889994095457,0.7004531939665908,1.0278412734436888,0.0,0.0,0.0,0.0
0.009897119488021827,0.2345230973159102,0.7417522047063934,-0.009561397163188046,-0.5196724806975804,0.003421658708105779,0.854305205849523,0.0867246405965192,-0.7904786000274387,0.8607748339153479,-0.07736853745663512,-0.7792388097939057,0.8436251541175626,-0.1826391272105284,0.6985323772239943,1.0170748263846947,0.18853889994064027,0.7004531939668122,1.0278412734436182,0.0,0.0,0.0,0.0
0.009897119488021827,0.2345230973159102,0.7417522047063934,-0.009561397163188046,-0.5196724806975804,0.003421658708105779,0.854305205849523,0.0867246405965192,-0.7904786000274387,0.8607748339153479,-0.07736853745663512,-0.7792388097939057,0.8436251541175626,-0.1826391272105284,0.6985323772239943,1.0170748263846947,0.18853889994064027,0.7004531939668122,1.0278412734436182,0.0,0.0,0.0,0.0
0.011210610224618056,0.23503560612324031,0.7419680464708008,-0.009624476805450395,-0.5201837011850272,0.0035264665494363695,0.8539928866807636,0.08534433867518668,-0.7953202694693822,0.8733204554628264,-0.07897694473769756,-0.7804527854530625,0.8508468417463221,-0.1879834533585136,0.7058224985706931,1.016073833787367,0.1884662497245276,0.7076902217588341,1.024163511285121,0.0,0.0,0.0,0.0
0.013410542593043782,0.23604934313343762,0.742196817718629,-0.00982909715927055,-0.5209434501394471,0.003988877897889476,0.8535252775746941,0.08194865040150819,-0.8053192660767856,0.8959442304764531,-0.0828192589901033,-0.7823579664831176,0.862503149321066,-0.19570486073796092,0.7165619068827557,1.015661116538814,0.18997211258978444,0.7197911300326745,1.0185970940955622,0.0,0.0,0.0,0.0
0.016260637227406935,0.2375476573032355,0.7429239290450885,-0.009029455046887036,-0.5216814926197976,0.002908711927101606,0.8530875855353081,0.08086506658600069,-0.8135532699644574,0.9220099349710811,-0.07131042950892848,-0.7960293068598543,0.8772649561393573,-0.1453677672284158,0.7018472931343837,1.022587043695332,0.16779135536648976,0.7299123022775598,1.0047983935235218,0.0,0.0,0.0,0.0
0.019154642326696353,0.23926291066600366,0.7432607990800046,-0.008326420226653076,-0.5224166292467629,0.0020877483197266474,0.8526471588644466,0.07857679925103955,-0.8239007613448022,0.9495497352700951,-0.057893433841119835,-0.8093080760564614,0.8857217485251656,-0.09818196866314755,0.6889502347749358,1.0293316408456035,0.14556608794764225,0.7388242225103411,0.9933504251796034,0.0,0.0,0.0,0.0
0.021869103591978637,0.24109550730084123,0.7433139886293044,-0.007925472144526744,-0.52305904979486,0.0017174504869014525,0.8522578645473502,0.0749355520260935,-0.8359472595767266,0.9770031251033067,-0.04573455909063586,-0.8213292662117064,0.8914136238671253,-0.06409463333826265,0.6808410670008185,1.0366678434547072,0.12704522183623523,0.7469812425289671,0.9840262991385162,0.0,0.0,0.0,0.0
0.024167368480841202,0.24289410283238275,0.7432303015956664,-0.007712560507135624,-0.5236338209108469,0.0015817055514564095,0.8519070584378787,0.07077837614399374,-0.8471408215904772,1.000960080071501,-0.03550419915346911,-0.832315555625655,0.8957904667937088,-0.03933323969152587,0.6752791973266754,1.0447996533984214,0.11104721186628663,0.7537573482417944,0.9763507567617891,0.0,0.0,0.0,0.0
0.02595052581580243,0.24461328863083298,0.7431158171645101,-0.0076010882008638245,-0.5241388718508063,0.0015571968366987056,0.8515974645401068,0.06648562205850171,-0.8564370293459802,1.0202935596406355,-0.02688936299150978,-0.842527174035466,0.8991409115346972,-0.019980573297847002,0.6705824374788149,1.0532653871396058,0.09650708628829877,0.7588853514557886,0.9696998970558777,0.0,0.0,0.0,0.0
0.027208798746253322,0.24626599424027493,0.7430336032836278,-0.007543650127647479,-0.5245754468953477,0.0015842672050312052,0.8513290691352674,0.06216549827025185,-0.8635966989016005,1.0350339518911928,-0.019284347152282565,-0.8522170387629746,0.901491758104319,-0.0035610699723891935,0.665835425692013,1.0617061331743876,0.08270752337493659,0.7623964311930169,0.9635386524776439,0.0,0.0,0.0,0.0
0.02797893351594355,0.24789431116876368,0.7430080808672642,-0.007518989950324985,-0.5249476887183395,0.0016397820606761807,0.8510997003960192,0.057776845064106415,-0.8688018247681725,1.04573042927357,-0.012172480327614504,-0.8615561714769171,0.9028149884750744,0.011295454840295177,0.6606367855182338,1.0699008205966647,0.06917405228084049,0.7644389332894267,0.9575043100866515,0.0,0.0,0.0,0.0
0.028315086851040856,0.24955299452674176,0.7430333275136635,-0.007520220998772338,-0.5252609189002256,0.0017179906923759998,0.850906259149738,0.0532074636091212,-0.872427961131946,1.0531021474212479,-0.005238059297472427,-0.8705938491424926,0.9031007853112858,0.02528564095379031,0.6548727731374137,1.0776987089307797,0.055556474738271425,0.7651551953766408,0.9514170860234281,0.0,0.0,0.0,0.0
0.028270416830176334,0.25130092796797154,0.7430810299965064,-0.007547444897276924,-0.5255201238175095,0.0018199016237857941,0.8507457455059249,0.04831733525815257,-0.874915971260655,1.0578558696804634,0.0016544986159749923,-0.8792134772787955,0.9023979093359922,0.03871350251408692,0.648577718109331,1.0849309642042946,0.04155655446252898,0.7646120812096462,0.9452654873179271,0.0,0.0,0.0,0.0
0.02788581711202068,0.2531969299080064,0.7431062265566346,-0.007603825321308962,-0.5257289768282715,0.0019481439501460173,0.8506159118537175,0.042960359018516414,-0.8767003285400329,1.0605886142289076,0.008520216216189966,-0.887066580631833,0.9008607709859492,0.05163184376075293,0.6418691604283073,1.0912980664355345,0.026899518869305902,0.7627654600169532,0.9391912700283095,0.0,0.0,0.0,0.0
0.027183623680614506,0.2552967652774604,0.7430517047769062,-0.007694018867225996,-0.5258898137714489,0.0021050552567197685,0.8505152994435007,0.036996525645314304,-0.8781631476014148,1.0617294890190583,0.015303934265534851,-0.8935125658657203,0.8988106209555187,0.06388242583281688,0.6349540921564475,1.0962132726662874,0.011346045390994729,0.7594535881105278,0.9334753745017765,0.0,0.0,0.0,0.0
0.026167057264001828,0.2576490585393954,0.7428551267659225,-0.007824095466469408,-0.5260049787394786,0.002292759459468695,0.8504424078827874,0.030303028787786485,-0.879593424187626,1.0615088487231659,0.021910048396848243,-0.8976578385032381,0.896773866523094,0.07507929339230486,0.6282393585452241,1.098584704754334,-0.005259154064316287,0.7544390806228908,0.9284916850896344,0.0,0.0,0.0,0.0
0.024830764450423884,0.2602907763950256,0.74246705262638,-0.008000523772299043,-0.5260797154846456,0.002512264633585316,0.8503939164301294,0.02278952307913344,-0.881141683967488,1.0599870470045212,0.02823048110242885,-0.8986747750164389,0.8953819464428023,0.08466051999035121,0.6225687618370255,1.0966195550809297,-0.022959168282748407,0.7475418042501252,0.9245363737170357,0.0,0.0,0.0,0.0
0.02317721275032918,0.26325175932869926,0.7418681927497272,-0.00822316896790211,-0.526118798918435,0.0027607885216227833,0.8503668425823572,0.014391338591722373,-0.8828453906818244,1.0571854213700553,0.0341795341890041,-0.8966268864337767,0.8946907205071449,0.09254623307197872,0.6180510178555803,1.0903739008373179,-0.04179671957779617,0.7387480455186325,0.9216022711892284,0.0,0.0,0.0,0.0
0.02121979774886649,0.26655258121897785,0.7410711884781336,-0.008484137862209551,-0.526125953235712,0.003031363892577315,0.8503589310223649,0.00507673826881256,-0.8846344294988806,1.05310555210794,0.03973013976820107,-0.8924729643772099,0.8941982140324822,0.09920223667612241,0.6140276093813423,1.0817178694111684,-0.061802698570330994,0.7282338516539801,0.9193573912924995,0.0,0.0,0.0,0.0
0.018972402510219262,0.27019199960522033,0.7401081874831273,-0.008773285846082769,-0.5261077096880608,0.003315205514026659,0.8503662250316893,-0.005121886433916615,-0.8862955004407861,1.0476142205120091,0.04493544221543829,-0.887249247795415,0.8935525648233414,0.10506964723789287,0.6102225799001733,1.0717568986247659,-0.08284968877510317,0.716304110710286,0.9173448877789231,0.0,0.0,0.0,0.0
0.01644601405532227,0.2741409008741006,0.7390186556995312,-0.009077864081239204,-0.5260721035723324,0.003602310442228136,0.8503838883622982,-0.016092121776050843,-0.8874994692248792,1.0404291573036892,0.04994484699795492,-0.8817736036491178,0.8927020624294641,0.11061094213013034,0.6065062161844177,1.0610068402170485,-0.10463934343447719,0.7033084630299414,0.9151427139280727,0.0,0.0,0.0,0.0
0.01365721564774602,0.27833597154269535,0.7378492634245383,-0.00937930703221032,-0.5260289027722308,0.0038785833278968088,0.8504061257065397,-0.027617738815577178,-0.8878267936237373,1.031178763649563,0.05500930156321686,-0.8766312287399953,0.8919306935004981,0.11650808498070196,0.6027559306576062,1.0495882963573622,-0.12674491733403637,0.6896382849188175,0.9123936742687152,0.0,0.0,0.0,0.0
0.010641676543673945,0.28267205926893546,0.736654460227401,-0.009647817735877895,-0.5259909348320856,0.004119429891537978,0.8504254737393352,-0.03934541102052579,-0.8868060138398146,1.0195007378183851,0.060432895443336285,-0.8722544682426671,0.8918942841365403,0.12393860778479826,0.5987654550513004,1.0373531089586134,-0.14868879973782373,0.67572510131767,0.9088324727970898,0.0,0.0,0.0,0.0
0.007467546879689405,0.28699247110984094,0.7354791786820789,-0.009829028811499602,-0.5259698968908756,0.004258976479370975,0.8504357229541646,-0.050689592547589375,-0.8840109075673447,1.0051775686875113,0.06650038082325421,-0.8690597375266292,0.8936683476556481,0.1347479010589563,0.5941885652016935,1.0239702653490785,-0.1701875446253618,0.6618521512584683,0.9044593672981175,0.0,0.0,0.0,0.0
0.004216784251337902,0.29107370047566833,0.734316586550489,-0.00984919586665555,-0.5260299967867519,0.004232868779408517,0.8503984469901191,-0.06091278400231992,-0.878869137717519,0.9877841011114191,0.07409271281528518,-0.8678824555534139,0.8992545526926841,0.1523097016782426,0.588437289156344,1.008944310557596,-0.19087082284197562,0.6480630121609536,0.9002346370201224,0.0,0.0,0.0,0.0
0.0014532893493004514,0.29474385879701476,0.7328432933727733,-0.009620314430802605,-0.5261384475751197,0.003936044686400378,0.850335399172422,-0.06945152252721797,-0.8748615123692034,0.9725379812599625,0.08309937964650098,-0.8691445239971097,0.9094340577787025,0.18075466376684357,0.5823408867544608,0.9915077944864684,-0.21162454830577623,0.6335065822122022,0.8992958503807518,0.0,0.0,0.0,0.0
-0.000627817771583735,0.29745152239654776,0.7307651034498658,-0.009081581358698097,-0.5264934646206048,0.0032874835178036965,0.8501243138764691,-0.07477547977521842,-0.8718319968357453,0.9593127354441899,0.09431931390105201,-0.8769279607094677,0.9287126092013971,0.22332427504464986,0.5755718414876795,0.9705400537024707,-0.23115084845149067,0.6166816107016588,0.9073641780446072,0.0,0.0,0.0,0.0
-0.001555888625623695,0.2988940153732355,0.7285646129408831,-0.008340057600251291,-0.5272487236345232,0.0023322922593759063,0.8496668684124429,-0.07620011264347312,-0.8696489099703358,0.950911293636367,0.10640675593746635,-0.8952068156532131,0.96329838079005,0.27395843107069806,0.5708273005228158,0.9475302535336114,-0.2481756459809714,0.6014544740683025,0.9214255841454003,0.0,0.0,0.0,0.0
-0.0015949943892624048,0.2991436122623036,0.7284223921463928,-0.008557465374211067,-0.5273472407109177,0.0022937697246890047,0.8496036700258544,-0.07656188833617848,-0.8697656270135007,0.9507776365529977,0.10643936219330635,-0.8952262379880133,0.9633095129232548,0.2739855985769312,0.5708335054023339,0.947527910458995,-0.24825257257368122,0.601327982737905,0.9213373664435857,0.0,0.0,0.0,0.0
-0.0015949943892624048,0.2991436122623036,0.7284223921463928,-0.008557465374211067,-0.5273472407109177,0.0022937697246890047,0.8496036700258544,-0.07656188833617848,-0.8697656270135007,0.9507776365529977,0.10643936219330635,-0.8952262379880133,0.9633095129232548,0.2739855985769312,0.5708335054023339,0.947527910458995,-0.24825257257368122,0.601327982737905,0.9213373664435857,0.0,0.0,0.0,0.0
-0.0005252206049612539,0.3011649095432051,0.7289947739225989,-0.008768787281355444,-0.5272389223863242,0.0023401563803275,0.8496686123181423,-0.08193046012792289,-0.8779606778284733,0.966888685742272,0.10137595630265485,-0.8958291943627472,0.9680916621097316,0.2657944116419907,0.5754167475568387,0.950099418815364,-0.2579633964746487,0.60818869186669,0.9050260328635107,0.0,0.0,0.0,0.0
0.0019977239864044927,0.30513572468251693,0.7314722611362118,-0.009647178891524572,-0.5280493514980122,0.003208622334645019,0.8491528243282697,-0.0941270159210381,-0.8869765542760986,0.9958053226439553,0.08923567655494878,-0.8873182761808148,0.9733406283732615,0.2570749748232013,0.5923268509365563,0.9427633866105936,-0.2729279495956022,0.6343452335765741,0.8630882035812821,0.0,0.0,0.0,0.0
0.003697026542603128,0.30908138462918194,0.7346227814086638,-0.009068851553998994,-0.5263890078175496,0.0026562097682368358,0.85019133901141,-0.08608799768448952,-0.8662102810920342,0.9543333579765942,0.08062819770377869,-0.8900648943690269,0.9849239824146975,0.22744661577192077,0.6121986336035009,0.9268000695606919,-0.2240157607976897,0.618449136085631,0.9132025198348342,0.0,0.0,0.0,0.0
0.006208164719226436,0.31332625152921617,0.7369266015878135,-0.008932288928067396,-0.52563998889282,0.0025721477590073187,0.850656335042047,-0.07629240722031355,-0.8558813206651638,0.929626319704523,0.07010105616169257,-0.891887717130283,0.9977792911590111,0.2032314420240736,0.6297507519465685,0.9190197418854036,-0.17896830842203512,0.6156288867241335,0.9507955098323082,0.0,0.0,0.0,0.0
0.009058566507759394,0.3176769240576966,0.7383840914346005,-0.009199972836776048,-0.5255218727326962,0.002858076625591289,0.8507255451538556,-0.06716071829671431,-0.8533209744398338,0.9168756526655778,0.05839357283373125,-0.8924669354683081,1.0094205949753894,0.18326414547901776,0.6438382875501318,0.9193283946845817,-0.1474569207988271,0.6178983899541969,0.9781831952232201,0.0,0.0,0.0,0.0
0.011983779020838744,0.3218669127019574,0.739522044642536,-0.009638197367716648,-0.5256435604977719,0.0032981202487336087,0.8506439177831997,-0.05890982509551692,-0.8547536990573863,0.9106965331590211,0.04668892402941432,-0.8922844289455495,1.0201318168033575,0.16551406986010875,0.6568650638048978,0.921601694341314,-0.12780290757861057,0.621118610722847,0.9991348159642093,0.0,0.0,0.0,0.0
0.014784762886716936,0.3258098741994666,0.7405527316895455,-0.010088637439076582,-0.525796334905589,0.003746665000052967,0.8505424128730148,-0.051744234247676164,-0.8583676501984263,0.90797080423367,0.03554081105762322,-0.8916067864104313,1.0296512737851957,0.14840276957606982,0.6695601904891709,0.9235371879194717,-0.11512675466931464,0.6242352196758395,1.0160357871377024,0.0,0.0,0.0,0.0
0.01734123796951525,0.329485425641733,0.7415213900961054,-0.010488630226351782,-0.5259053768374616,0.004150435068044132,0.8504682810888177,-0.04541949329322687,-0.8632447431119958,0.9068636683878456,0.025125664068264855,-0.8904926090956203,1.037608706031561,0.13131471733632014,0.6817825005340886,0.9247969895898025,-0.10590278961939648,0.6269947562532739,1.0304519757288264,0.0,0.0,0.0,0.0
0.019603456223371916,0.33288942947189243,0.7424277172713267,-0.010822721763439756,-0.5259578708071051,0.004496076634260092,0.8504298749012682,-0.03950034324944286,-0.868856626798908,0.9063134206370327,0.015495689493262526,-0.8889710950242634,1.0438641595054545,0.11418567630109,0.6932886977169468,0.9255475164585028,-0.09813277655072947,0.6294109606206761,1.0433576622381815,0.0,0.0,0.0,0.0
0.021567966580689067,0.33602293552154044,0.7432613870290797,-0.011097968375987843,-0.5259685602334302,0.004788602656319613,0.8504181195320911,-0.033595967512536275,-0.8748209091530511,0.9057333522132563,0.0066526582954572686,-0.8870731272184241,1.0484720229959215,0.09724280241842641,0.7039050944284332,0.9260339542087948,-0.09081548755564016,0.6316065401718726,1.0553247319212065,0.0,0.0,0.0,0.0
0.02325259972379827,0.3388919188947278,0.7440094660742499,-0.011329003168690732,-0.5259587453632654,0.005039271942795175,0.8504196949750106,-0.02745721633229384,-0.8807468044896426,0.9048451543298137,-0.0014285109314168126,-0.8848418637101647,1.0515766048869089,0.08079491092771401,0.7135150420256345,0.9265042160379644,-0.08346853265669674,0.6337437582495601,1.0665969073115502,0.0,0.0,0.0,0.0
0.024675751122680663,0.3415091354219678,0.7446561846239518,-0.011530178351212067,-0.5259452371303746,0.005259393696161141,0.8504240126578106,-0.020982291174246125,-0.886105923720608,0.90360941298803,-0.008793696750237275,-0.882319563829324,1.0532990821009236,0.06509458417866451,0.7220038688852494,0.9272318700322343,-0.0758213524560091,0.6359919526707165,1.0770763735198752,0.0,0.0,0.0,0.0
0.025840568289244303,0.3438964841920022,0.7451825772218187,-0.01171017500209911,-0.5259331419004688,0.005456462208746543,0.8504277918037991,-0.014178318473052287,-0.8901421239097419,0.9022065598227696,-0.01550882761826701,-0.8795321234063345,1.0536471505939111,0.0502365324305812,0.7292102597850174,0.9285437273876782,-0.06761995826098613,0.6385266807676214,1.0862282549189717,0.0,0.0,0.0,0.0
0.02672718178360128,0.3460870650170767,0.745570425870538,-0.011869569669034076,-0.5259137679933165,0.00563260094135251,0.8504364148821354,-0.007113735907705053,-0.8918926705099179,0.9010103525914036,-0.021661645679930265,-0.8764599331701046,1.0524574031274192,0.03610752984098417,0.7349217778784192,0.9307989842291953,-0.05849896421218871,0.6416262795444363,1.0929099484980436,0.0,0.0,0.0,0.0
0.027299068331460594,0.3481257010739296,0.7458170366420749,-0.012002734001694116,-0.5258687963425147,0.005786507977391311,0.8504613217161536,0.00011291152907101035,-0.8904749744721492,0.9004385178757457,-0.02736465354735925,-0.872989763328365,1.0494045504179965,0.022416810825491535,0.7389663282703205,0.934240931466635,-0.04798583448435022,0.6459027690359964,1.0952244781163698,0.0,0.0,0.0,0.0
0.027520471358075876,0.35006127454331976,0.745948841085879,-0.012108466141199252,-0.5257829936386531,0.0059170694616850605,0.8505119734236956,0.007372443442385859,-0.8858898144350164,0.9004467404106166,-0.03273460369351506,-0.8688697701740276,1.0440714333752774,0.008872790704539266,0.7413289581280452,0.9388253365636924,-0.03619536172706088,0.6511850121268463,1.0930677585570499,0.0,0.0,0.0,0.0
0.02735835543983654,0.35194770100682166,0.7460201647021223,-0.012187749360273522,-0.5256417131618147,0.006022135841703618,0.8505974265360481,0.014536417164998882,-0.8790379665693098,0.9005386702255447,-0.03789202690339991,-0.863734785678933,1.0359722244065306,-0.004836485957284201,0.7421475189193961,0.9442301826175804,-0.023755786827772865,0.6565340366667273,1.0881511853502042,0.0,0.0,0.0,0.0
0.026769054556883554,0.3538492095092799,0.746096098558915,-0.0122270034561478,-0.5254128436884417,0.0060903760790276835,0.8507377688764761,0.021549981700475805,-0.8709253445856177,0.900246750862817,-0.04296619205148393,-0.8572256015402089,1.0245550023839063,-0.019255402548437644,0.7415846714442192,0.950039644021397,-0.011040797551345884,0.6613259182036436,1.0814893095480627,0.0,0.0,0.0,0.0
0.025700473188533746,0.355830235462949,0.7462302610174246,-0.012194520986791744,-0.5250463167408562,0.006097367459790577,0.8509644417041311,0.02847232140063117,-0.8623551264017907,0.8992674928261638,-0.04806346916808012,-0.8491033678806692,1.009286324517376,-0.035111340757236736,0.7397214254995604,0.9559177069141834,0.0018729646256151703,0.6650248283598708,1.073597091882884,0.0,0.0,0.0,0.0
0.024115276247226744,0.35793625039220855,0.7464466805852874,-0.012048797978872162,-0.5244934079935156,0.006010221876488342,0.8513080339522276,0.035489255315271605,-0.8538429458587717,0.8974964295927175,-0.05322743194238172,-0.8393227788585945,0.9898218690191647,-0.05303275586519483,0.7365431379505141,0.9616985768714723,0.015138070773652475,0.6672083472486011,1.0647668278781037,0.0,0.0,0.0,0.0
0.022026249709361595,0.3601673959607189,0.7467192895185181,-0.011757447324933924,-0.52374191772541,0.005800003441502434,0.8517761008679393,0.04288128981537776,-0.8455824394117952,0.8950430019643927,-0.0583953389636642,-0.828074723553315,0.9662279777273498,-0.0731158714278771,0.7319661921944166,0.9674894760147592,0.029099565523522677,0.667822648203394,1.055344718179362,0.0,0.0,0.0,0.0
0.01953455529291167,0.3624475998483939,0.7469494458917474,-0.01132565126945923,-0.5228559551265326,0.005462096663473468,0.8523283084070848,0.05088322776480536,-0.8373766859696754,0.8922007086727654,-0.06336021251689887,-0.8158270668307204,0.9392474765013684,-0.09446131372763329,0.7258734918681269,0.9738194919205918,0.04445566627083621,0.667622730898195,1.0459828999832086,0.0,0.0,0.0,0.0
0.016859626848464242,0.3645934067157331,0.7469495403859204,-0.010803470550118965,-0.5219538634303411,0.005004099639517054,0.8528906192830422,0.05953558771105125,-0.8284433182245926,0.8889003618943789,-0.06767182125365043,-0.8037925680255388,0.9109654933905833,-0.1152580754390938,0.7181412416038734,0.9817299948930873,0.06283506024230802,0.6686542685312583,1.0375525945778625,0.0,0.0,0.0,0.0
0.014315586517318776,0.3664028140494475,0.7465149080819443,-0.010267880758133757,-0.5211316340622302,0.004477953667123894,0.8534027996997207,0.06919188506549405,-0.8178265046473724,0.8842815151002311,-0.0709741999459577,-0.7938808153471071,0.8847583283661302,-0.13352321465989583,0.7087570265327918,0.9923283505395016,0.08818968153236319,0.6737633087971019,1.0309427072325368,0.0,0.0,0.0,0.0
0.012182092604714506,0.36777989308305997,0.7456837251251723,-0.009819398447642364,-0.5205540452314561,0.003962038539708928,0.8537630629500806,0.07917549578620839,-0.8062335044227948,0.8779886012980084,-0.07319737283614997,-0.7864871413919143,0.862786696060258,-0.1481207602318154,0.6990557729020739,1.0050494401622643,0.12391624951760792,0.6838723889749446,1.0272467168290338,0.0,0.0,0.0,0.0
0.010784682900442264,0.3686190118056946,0.744800326179504,-0.009514637625473521,-0.5203899417495192,0.003411572867265902,0.853868925167885,0.08720653390126547,-0.7950961755759594,0.8688843086263763,-0.07391143775529727,-0.7817131490332823,0.8476821417083544,-0.15914615863857398,0.6923587425444214,1.0166311221099686,0.1657824457540567,0.6970788941732583,1.0266237214391996,0.0,0.0,0.0,0.0
0.01080535885200282,0.3686314774051414,0.744773675334775,-0.00949489135312008,-0.5203710402084604,0.0033963384903819603,0.8538807249466497,0.08724997338542545,-0.7951021302906152,0.8688917603998928,-0.07390705141864691,-0.7817554434669927,0.8475530203935354,-0.1591705193083096,0.6922975298419484,1.0165704965532416,0.16578782205736703,0.6971073679595232,1.0266349630385487,0.0,0.0,0.0,0.0
0.010805358852002882,0.3686314774051419,0.7447736753347753,-0.009494891353117789,-0.5203710402084626,0.0033963384903799134,0.8538807249466485,0.08724997338543085,-0.7951021302906074,0.8688917603998942,-0.07390705141864208,-0.7817554434669899,0.8475530203935332,-0.15917051930829654,0.6922975298419491,1.0165704965532536,0.16578782205735632,0.6971073679595334,1.0266349630385503,0.0,0.0,0.0,0.0
0.010805358852002882,0.3686314774051419,0.7447736753347753,-0.009494891353117789,-0.5203710402084626,0.0033963384903799134,0.8538807249466485,0.08724997338543085,-0.7951021302906074,0.8688917603998942,-0.07390705141864208,-0.7817554434669899,0.8475530203935332,-0.15917051930829654,0.6922975298419491,1.0165704965532536,0.16578782205735632,0.6971073679595334,1.0266349630385503,0.0,0.0,0.0,0.0
0.01212421271045869,0.36908739674713986,0.7450155062435194,-0.009547079060355564,-0.5208799017424227,0.0034884784728008494,0.8535694533898013,0.08603702155464443,-0.7996511197137224,0.8810711546787946,-0.0753440727808489,-0.7831552577385171,0.8551239171440488,-0.16382086215490177,0.6995740734502558,1.015235054154805,0.16563936711198277,0.7043691443516598,1.02282776916753,0.0,0.0,0.0,0.0
0.014349686913413292,0.37000214329596326,0.7453258674654951,-0.009755281515142105,-0.5216283557810755,0.0039555874767138975,0.8531078749228647,0.08287991406747972,-0.809242935553121,0.9032885335671021,-0.07894098452944895,-0.7853078924574556,0.8674600663702693,-0.1699338546072974,0.7103626760685188,1.0138334502417419,0.1673926411934746,0.7168313161671759,1.0167042299813451,0.0,0.0,0.0,0.0
0.01715362867119681,0.37137358269665677,0.7459858640894393,-0.00901553340465682,-0.5222619074859065,0.0029577218324687697,0.8527323566208647,0.08195233916520814,-0.8178766969647093,0.9290656496041382,-0.06761270180219064,-0.798403286945851,0.8805198850430875,-0.12400260789174536,0.6963200907449016,1.0212430024290295,0.1467364167616346,0.7264120555624926,1.0036299953511614,0.0,0.0,0.0,0.0
0.020004778073793552,0.37295815718675596,0.746320465033415,-0.008373539700273602,-0.5228842144827499,0.002223560377230992,0.8523596880759285,0.07982151253130335,-0.8284991712493331,0.9563090723731068,-0.05410465530832019,-0.811270595331972,0.8879055664742109,-0.08078626673099953,0.6840856200935407,1.0281770290897223,0.12620451251307355,0.735119275480183,0.9923775441444939,0.0,0.0,0.0,0.0
0.02266240398095253,0.3746474379996799,0.7464108686708301,-0.008001658034937785,-0.5234452643767875,0.0018944386200335456,0.8520196240536493,0.07646205888025287,-0.840304795026269,0.9829797363057498,-0.04173578260223178,-0.8230387989993655,0.8929961961171892,-0.048969069511758674,0.6761652651424175,1.0355539799696374,0.10902827908834528,0.7431936936974399,0.9830233812437712,0.0,0.0,0.0,0.0
0.02490050671410015,0.37631269531546724,0.7463788212132748,-0.0077977883603613215,-0.5239575909203573,0.0017740912137345635,0.8517068098905796,0.07261448902494937,-0.8510781993452985,1.0060581219557974,-0.03127573312058874,-0.8338616957436797,0.8969996519280016,-0.025339394948783872,0.6705187525269537,1.0435634288057234,0.09406693089174792,0.7499280575196021,0.9752085403433468,0.0,0.0,0.0,0.0
0.02662500092300742,0.377920289214253,0.7463175847398957,-0.007684539257206168,-0.5244127072358814,0.0017507232370367707,0.8514277393379226,0.06860626612218222,-0.8599333952134107,1.0245818850563049,-0.022441489663199247,-0.8439637799438438,0.9000918663437704,-0.0064880898794490854,0.665602026225124,1.0518047645054347,0.08030422275927965,0.755021312624659,0.9683640811788825,0.0,0.0,0.0,0.0
0.027827082576378954,0.37948752045789524,0.7462839002276287,-0.007620305900376342,-0.5248078900251948,0.0017718892544599282,0.8511847448784298,0.0645180905974328,-0.8666990708220135,1.0386323470470626,-0.014639576854614839,-0.8535739280475237,0.9022383403153715,0.009753450732149858,0.6605727458317172,1.059964487432269,0.0670715001302461,0.7584885783407109,0.9619834254904897,0.0,0.0,0.0,0.0
0.02854272770126235,0.3810566273157275,0.7462993387738173,-0.007587104716204325,-0.5251447681112548,0.0018185058658378144,0.8509771450537421,0.0602983439267461,-0.8715801889985534,1.0487600382804991,-0.007359791495449254,-0.8628483606453236,0.9033781793852108,0.024587024275598966,0.6550640745473408,1.0678494592158763,0.05393694880781605,0.7604698753571988,0.9557196320773613,0.0,0.0,0.0,0.0
0.028824895203550346,0.38268028927439696,0.7463570541851996,-0.007579806936059673,-0.5254271443317541,0.0018870579708650229,0.8508027394986483,0.055834421703582264,-0.8749540598780198,1.0556671948776748,-0.00029069902358749063,-0.8718276424825359,0.9034849968049824,0.03862198593781459,0.6489786456411901,1.075325764199435,0.04059072184988264,0.7611055426128281,0.9494016082830143,0.0,0.0,0.0,0.0
0.028725761878672186,0.3844144182271631,0.7464287854680836,-0.007599208803793475,-0.5256589136789125,0.0019794047181415026,0.8506591799612956,0.05099190865831395,-0.8772548853351481,1.0600403403749903,0.0067012979909020975,-0.8803910921521404,0.9025995763856358,0.05211694015383379,0.6423604118776332,1.0822355681178715,0.026767780265246788,0.760462889200655,0.94302143188466,0.0,0.0,0.0,0.0
0.02828576709605192,0.38631461177143467,0.7464700371515461,-0.00764854338602214,-0.5258429542265006,0.0020981997846736757,0.8505446989030512,0.04563324152656079,-0.878908105487642,1.0624588778301922,0.013631037294811202,-0.8881892284466779,0.9008732867450586,0.06509926046213992,0.6353364327318147,1.0882884713184093,0.012221198317624582,0.7585002421440122,0.9367214154048906,0.0,0.0,0.0,0.0
0.02752741168008756,0.38843333194398433,0.7464241672754331,-0.007732377805572895,-0.5259812571529684,0.00224567319099625,0.8504580438852783,0.03962760866326378,-0.8802865830576152,1.0633380352618163,0.020443740709399343,-0.8945822158402803,0.8986281080147076,0.0773932451682363,0.6281271496826695,1.0929081052226186,-0.0032593865893348097,0.7550620623671637,0.9307827576299156,0.0,0.0,0.0,0.0
0.02645453167430428,0.3908158850609819,0.7462293755754107,-0.007856616359608297,-0.5260761037187348,0.0024237148260101067,0.8503977494572378,0.032861736114174124,-0.8816704148287273,1.0628971767101691,0.02704517260551429,-0.8986792458926551,0.8963937288330923,0.08859298674100055,0.6211579139301846,1.0950162871570153,-0.019802238883155715,0.7499184418420255,0.925580295071065,0.0,0.0,0.0,0.0
0.025062477960571,0.3934958202772292,0.7458368303365409,-0.008027641211526434,-0.5261329349498545,0.002633279933156416,0.8503603692402562,0.025254536577232554,-0.8832002080302614,1.0611853481127291,0.03333002623953462,-0.899655578979996,0.8948062610974149,0.09811611346454364,0.6152918585087261,1.0928356358902185,-0.037424179588038314,0.7428977821042888,0.9214121221117787,0.0,0.0,0.0,0.0
0.023354176942545577,0.3964998097622251,0.7452277963206128,-0.008245015957262392,-0.526156385726499,0.002871411472850862,0.850343008713099,0.016750124386676314,-0.8849046543566835,1.058213080726927,0.03921831859141386,-0.8975771450513254,0.893923476687147,0.1058807310019309,0.6106416918365833,1.0864254725709213,-0.0561488897032448,0.7339915301248119,0.9182724426983572,0.0,0.0,0.0,0.0
0.02134310264735885,0.39984546588383657,0.7444153821551728,-0.00850041911515526,-0.5261496776981616,0.00313102618346583,0.8503437282699425,0.007324758921245497,-0.8867061850294423,1.0539710260166844,0.044691011259553756,-0.8934035153518811,0.8932420737939759,0.11236951072714237,0.6065367869225955,1.0776439209974569,-0.07599251550491884,0.7233780186600647,0.9158307865696401,0.0,0.0,0.0,0.0
0.019042930776768455,0.4035284584602166,0.7434321990804804,-0.008783469379546374,-0.5261188562043729,0.003403622099848122,0.8503588743398062,-0.002981847246560555,-0.8883836898628722,1.048313377598405,0.0498094581389651,-0.8881693808685166,0.8924086830941056,0.1180415092922664,0.6026873247525488,1.0675815263591737,-0.0968131469214289,0.7113638164266938,0.9136344596239483,0.0,0.0,0.0,0.0
0.016464435764887913,0.40751664516202546,0.742318068445592,-0.009081426890180098,-0.5260714054269681,0.0036799107018538942,0.8503839499514083,-0.01405113265858238,-0.8896022760324419,1.0409471573057627,0.05472982693456637,-0.8826885779579897,0.8913697582939647,0.12337627785189322,0.5989524502755508,1.0567379058052233,-0.11830062413599891,0.6982988153630887,0.9112691022537295,0.0,0.0,0.0,0.0
0.013624256114698854,0.4117441924231879,0.7411198259383622,-0.00937588868588414,-0.5260162285214267,0.003946861810409468,0.8504136889333882,-0.02566292887529013,-0.8899421251413662,1.0314967805142914,0.05970742290959221,-0.8775380289545299,0.8904048364642088,0.12907779975278577,0.59520111798653,1.0452139916563379,-0.14002356991047663,0.6845717230273451,0.9083878136213033,0.0,0.0,0.0,0.0
0.010558788638688381,0.41610457374359083,0.739891669946132,-0.009637175055873165,-0.5259646775134091,0.004181117684491745,0.8504415330403768,-0.03746360123396188,-0.8889419010139927,1.0196094804455222,0.06504722371319152,-0.8731354472517264,0.890157632586737,0.1363607916763046,0.5912198096584333,1.0328355762313277,-0.16151166761095234,0.6706064985380095,0.904737226063947,0.0,0.0,0.0,0.0
0.007338057429837631,0.42044175183806454,0.7386771695595649,-0.009810083878531085,-0.5259252994876028,0.004315998314962256,0.8504632348148371,-0.048867809234283285,-0.8862038899642696,1.0051010617768423,0.07103651745902495,-0.8698784581552712,0.8916686205912501,0.1471223991234657,0.5866580092330788,1.0192363334693508,-0.18251497137232006,0.6566634339007544,0.9003281397482557,0.0,0.0,0.0,0.0
0.004045076966310874,0.4245372253624144,0.7374697770316473,-0.009822329175253061,-0.5259583652607771,0.004295765729194847,0.850442747196179,-0.059174791780749914,-0.8812027834319003,0.987596718927807,0.07861387382648302,-0.8685875358333078,0.8968594191560745,0.16488127415739307,0.5809165446498341,1.0038328957656746,-0.20265979307088844,0.6427875301091527,0.8961154283935121,0.0,0.0,0.0,0.0
0.001244523019925017,0.4282144313082646,0.7359521036733854,-0.009584164451711464,-0.5260303412074812,0.004012455303559031,0.8504023307372461,-0.06779778296191004,-0.8773900177322249,0.9722908219962617,0.0876260430490371,-0.8697288555558481,0.9064761178782451,0.19385431736962325,0.5747271448786355,0.9857960612763359,-0.22285379026087732,0.6281176947799377,0.8952222578801194,0.0,0.0,0.0,0.0
-0.0008670000922668042,0.43091921227617724,0.7338255648455297,-0.00903832050738173,-0.5263358643787479,0.0033935753843163763,0.8502219417759066,-0.07322032564665552,-0.8746550604280037,0.9590877913212859,0.09883654675242778,-0.8773888458730559,0.9249006726344772,0.2372328847186391,0.5677921478341874,0.9638380350318742,-0.2417775640951145,0.6110961419819165,0.9034854424054608,0.0,0.0,0.0,0.0
-0.001816051506369216,0.43235535812878206,0.7315875724090218,-0.008297807725830312,-0.5270329866222596,0.0024922264038068644,0.8498006626300774,-0.07478991216392754,-0.8728447198468433,0.9508175390131145,0.11079500192279401,-0.8954818227820293,0.9583534631546243,0.28850469977583004,0.5630167814149478,0.9393746994299081,-0.25816218328387375,0.5956930045506383,0.9177749291685793,0.0,0.0,0.0,0.0
-0.001855601498280041,0.43260549633625645,0.7314428589526112,-0.008516289252099098,-0.5271310902665567,0.0024532705373881813,0.849737764228139,-0.07515317259773589,-0.8729670641227102,0.9506803251420998,0.11082790369748394,-0.8955010279871789,0.9583644673231205,0.28853282743724323,0.5630231170055517,0.9393724220744052,-0.25824203943859075,0.5955646744779411,0.9176851377488104,0.0,0.0,0.0,0.0
-0.001855601498280041,0.43260549633625645,0.7314428589526112,-0.008516289252099098,-0.5271310902665567,0.0024532705373881813,0.849737764228139,-0.07515317259773589,-0.8729670641227102,0.9506803251420998,0.11082790369748394,-0.8955010279871789,0.9583644673231205,0.28853282743724323,0.5630231170055517,0.9393724220744052,-0.25824203943859075,0.5955646744779411,0.9176851377488104,0.0,0.0,0.0,0.0
-0.0007552535139573524,0.43466344956789527,0.7320525959732612,-0.008744149218708048,-0.5270178994269216,0.0024953554416141176,0.8498055346603105,-0.08060092360218357,-0.8813568343794791,0.9672413735062881,0.10570803706017834,-0.8961970615918025,0.9634665497701955,0.2805231490140441,0.5676572207472236,0.941959072910112,-0.26791701875310286,0.6028361156899369,0.9006983676603669,0.0,0.0,0.0,0.0
0.0018077917810335833,0.438736500715067,0.7345658307077411,-0.00952604259084759,-0.5277281499698027,0.0032905316847684335,0.8493535345445019,-0.09296237995215029,-0.8911405244539401,0.9972893096234057,0.09348705572630561,-0.8886189003532593,0.9698113239286925,0.27074803711375967,0.5846205236461305,0.9350750289265549,-0.28386814379764097,0.6290856411547535,0.8572756459193909,0.0,0.0,0.0,0.0
0.0036058060666000276,0.44276213921438407,0.7377834468341327,-0.00907522401265917,-0.5263269526342804,0.0027568608763736922,0.8502293684400347,-0.08497804576846614,-0.869195224742847,0.9555252971374181,0.08467765476511828,-0.8899450057760325,0.9807193704209074,0.24273912317417518,0.605090894464223,0.9194982453194325,-0.23484470645410777,0.6141582232106684,0.908772618003167,0.0,0.0,0.0,0.0
0.006210586422199554,0.44711501293894457,0.7401626535151845,-0.008966251898170087,-0.5256980670031393,0.0026529971054364302,0.8506198388718781,-0.0753373896402585,-0.8583419269356121,0.9307856066907598,0.07396143812522538,-0.8912508432931301,0.9936664555838646,0.2189251163244894,0.6231981861667704,0.9120743238884349,-0.18972855083433646,0.6116163297253623,0.9473192639323158,0.0,0.0,0.0,0.0
0.009132012093821307,0.4516258858435444,0.7416327747397132,-0.009194248016292771,-0.525575241790518,0.0028861160684138473,0.8506925421997615,-0.06645561342098984,-0.8555534459509988,0.9177726278581609,0.06199884526978858,-0.8921386045519533,1.0058427801856433,0.19828912444559166,0.637338808769807,0.9133887437552305,-0.15786362603008042,0.613851723092348,0.9750546414702018,0.0,0.0,0.0,0.0
0.012112883344217295,0.4559968644114254,0.7427807030984895,-0.009584803560716958,-0.5256623223001214,0.0032756984219552885,0.8506330138517986,-0.05849264959062968,-0.8568976826713091,0.9114494601291004,0.04996211144907224,-0.8923075366546834,1.016999819018442,0.17956112099173727,0.6503471990727852,0.9166570824129636,-0.13806120195866062,0.6168416022750558,0.9960990017105813,0.0,0.0,0.0,0.0
0.014968426121812511,0.46011761881681185,0.7438302374450145,-0.01000170997870794,-0.5257883047899287,0.0036856257823279733,0.8505486702747983,-0.051610390873164984,-0.8604706430449846,0.908719147495275,0.038453162774235966,-0.8918362377502043,1.0268256549312522,0.16153559144707938,0.663095573268894,0.9194014530157555,-0.1255378313521734,0.6197255492069405,1.0129931315027854,0.0,0.0,0.0,0.0
0.01758423741777501,0.4639551894530818,0.744823675309152,-0.010385536036512374,-0.5258885089552697,0.004064156582206538,0.8504803933197478,-0.045540669168968054,-0.8653219401752257,0.9077118798484125,0.02768391593629094,-0.890781748204344,1.0349913948078897,0.14373635435901191,0.6754520370613737,0.9212833602009614,-0.11666286461904915,0.6223552638981126,1.02738683194203,0.0,0.0,0.0,0.0
0.01991060930747252,0.4675000331448782,0.7457561291498813,-0.010717243854536932,-0.5259490748636964,0.004395478495892927,0.8504371764586591,-0.03983898162526155,-0.870910925791267,0.9073250628903763,0.017729550672707598,-0.8892185521439718,1.041400956296056,0.1261188086183619,0.6871488315461995,0.922507171855007,-0.10931636718036324,0.624770093916605,1.0402898197570551,0.0,0.0,0.0,0.0
0.02193982219500477,0.4707527291975556,0.7466144972032634,-0.010997149359829298,-0.5259768133471864,0.004680270556037726,0.8504149278996805,-0.03411420240170569,-0.8768556389091577,0.906932517222012,0.008603218082916874,-0.8872355460384809,1.046139857472876,0.10885126014825351,0.6979803197632384,0.9233530205170232,-0.10240976721944751,0.6270552940516625,1.0522788545005186,0.0,0.0,0.0,0.0
0.023684207303307146,0.4737212265214195,0.7473849497610107,-0.011233763384480065,-0.5259847848804973,0.004925639329262978,0.8504055189799961,-0.028120909930679682,-0.8827683414573334,0.9062267310709724,0.00028308535456915765,-0.8849182082767071,1.0493632959068975,0.09216565308299561,0.7078025656845204,0.9240948671743788,-0.09541455931402001,0.6293195822450077,1.0635904008010597,0.0,0.0,0.0,0.0
0.025157699626904874,0.47642072921736844,0.7480516766514783,-0.011437013592330323,-0.5259839277087708,0.005139571162740302,0.8504020739158663,-0.021759842669938897,-0.8881232264930903,0.9051514360203653,-0.007276723886097364,-0.8823344147133387,1.0511936770339059,0.07625064375706056,0.7164817954402408,0.9250257997488145,-0.08804509049759464,0.6316887854608775,1.0741199807159645,0.0,0.0,0.0,0.0
0.026361472034995066,0.47887464224355963,0.7485955527727103,-0.011613819889950314,-0.52597793952289,0.005327801993302503,0.8504022229796551,-0.015038984181977529,-0.8921632691149194,0.9038839461656053,-0.014142427044677705,-0.8795167899446804,1.0516354986995586,0.061175155092272906,0.7238467617923113,0.9264902520426881,-0.08004886607830122,0.6343230329530928,1.0833336690155777,0.0,0.0,0.0,0.0
0.02727564443164033,0.48111638280420693,0.7489976866486772,-0.01176408296802705,-0.5259584841919297,0.005491515147750637,0.8504111491036739,-0.008026651519343666,-0.8939245787039325,0.9027994584860991,-0.02040047813136279,-0.8764515747610072,1.050530942514234,0.0468225040533117,0.729679816615898,0.9288632237610915,-0.07105896068770429,0.6375006632503719,1.0900947204382025,0.0,0.0,0.0,0.0
0.027865052383240857,0.4831898330081495,0.7492541205697837,-0.011881081753465538,-0.5259071777245414,0.00562828709681028,0.8504403581078046,-0.000819900081713165,-0.8925249373862161,0.9023152751818658,-0.02615880832512656,-0.8730446308525679,1.0475789199077794,0.03290248080695505,0.733806150056809,0.9324012075122184,-0.06059338128314423,0.6418336648059348,1.0925131184114403,0.0,0.0,0.0,0.0
0.02809741144549279,0.48514059947394933,0.7493890881776024,-0.011963945387503404,-0.5258105042376158,0.005737068342872888,0.8504982443785397,0.00645433570912147,-0.8879640581389588,0.9023868218307537,-0.031526107418258904,-0.8690665910508604,1.0424016441515371,0.019159320206598565,0.7362087834743927,0.9370715317965437,-0.048768304888483126,0.647156053584622,1.0904880470280331,0.0,0.0,0.0,0.0
0.02794573071610208,0.4870167632610796,0.7494536015479898,-0.012017086275528369,-0.5256598656423174,0.005818208570058564,0.8505900562194356,0.013669594225370042,-0.8811371058596091,0.9025225214900158,-0.03661286876324533,-0.8641630378579157,1.0345574792665477,0.005376299397422891,0.7370250765961317,0.9425665078644072,-0.03622937139862324,0.652556014286556,1.0857355337579813,0.0,0.0,0.0,0.0
0.027373967362176867,0.48887584642985965,0.7495087167236538,-0.01203206538809801,-0.5254330030732084,0.005864008358977662,0.8507296880266564,0.020775056449910102,-0.8730413286763811,0.9022688664007483,-0.04153802849120228,-0.8579720064507814,1.023535744148271,-0.008871257076936317,0.7364251735957486,0.9484932231425385,-0.02337731989620334,0.6574622211411651,1.0792858283724764,0.0,0.0,0.0,0.0
0.026337813224314895,0.4907762307128627,0.7496044715960715,-0.011986386989272456,-0.5250949618192817,0.005856983701467982,0.850939071462153,0.027829556146082197,-0.8644663962634686,0.9013496297497477,-0.04640505686613813,-0.8502099782772448,1.0088100508382782,-0.02415457015671401,0.7345046319677824,0.9545451073527341,-0.01032166684411843,0.6614267499521175,1.0716772761239213,0.0,0.0,0.0,0.0
0.024803653637373118,0.4927618043295883,0.749764542231493,-0.011849050229536421,-0.5246106116092437,0.005772982430608999,0.8512402591921324,0.03501247547705283,-0.8559186153321265,0.8996899524631693,-0.05126948690966761,-0.8407524110255954,0.9899934286099097,-0.04098284355911307,0.73126709673701,0.9605779968986036,0.003059595557896559,0.6641038916801364,1.0632130592543578,0.0,0.0,0.0,0.0
0.02277886032294406,0.4948406005641613,0.7499692438105579,-0.011592822501580502,-0.5239671094133691,0.00558931216684999,0.8516412591631214,0.042597334161824395,-0.8476067441689882,0.8974117213985565,-0.056101631242435446,-0.8297165757952932,0.9670664350599512,-0.05948871153740779,0.7266422851568514,0.9666859174802463,0.01709727481248631,0.665420041116355,1.0542062539358257,0.0,0.0,0.0,0.0
0.020348928373859706,0.4969575613238853,0.7501349839170931,-0.01121494692588536,-0.5232049341622309,0.005298798897969681,0.8521166261515991,0.05083721284975021,-0.8393948777722832,0.8948074695355159,-0.0607469618263064,-0.8175497410691481,0.9406714409451016,-0.07905671758460922,0.7205222212369351,0.9733240392823861,0.03244590274171398,0.6659316964574676,1.045218740597128,0.0,0.0,0.0,0.0
0.01771498036767392,0.4989627036528339,0.7500956028696042,-0.01074916039455096,-0.5224174171168365,0.004905394322888738,0.8526080195202965,0.059805504580492434,-0.8306383537116443,0.8919586976681892,-0.06483962126265637,-0.8053915244665483,0.9127098767681573,-0.09824898838491661,0.7128129001317189,0.981415060528139,0.050542736550598696,0.6673357300902358,1.0370847911279986,0.0,0.0,0.0,0.0
0.015181189755801523,0.5006531151013327,0.7496419747955371,-0.010245107214631675,-0.5216628230052657,0.004423357608679097,0.8530787600097679,0.06966669381916901,-0.8203225829603726,0.8879292608043808,-0.06794113715335909,-0.7954333225263388,0.8867375167760266,-0.11542220891262799,0.7034436826632329,0.9920482775926963,0.07477298639029266,0.6723735450818626,1.030498480500168,0.0,0.0,0.0,0.0
0.013054414946822758,0.5019401030347105,0.7488153976497163,-0.009797873827350582,-0.5211043874516447,0.00393262909036584,0.8534276498189798,0.07982878358443402,-0.8091487961828072,0.882558063996765,-0.07001106530052585,-0.7881845887519944,0.8651476313329136,-0.12938118624235945,0.693803703648838,1.0045773435707777,0.10819789377794727,0.6819614825303418,1.026567395571905,0.0,0.0,0.0,0.0
0.011662103321579848,0.5027258164381495,0.7479541014771176,-0.009475423974009385,-0.5209043206030853,0.0034072529772091967,0.8535556781749508,0.0879265205604274,-0.7986874424037176,0.8748446269517216,-0.0706832653867808,-0.7837413198964037,0.8505634246936642,-0.1399236169674604,0.6870658425103215,1.015774096642964,0.14670892545183753,0.6942751125971472,1.0254379644440998,0.0,0.0,0.0,0.0
0.011678384457310188,0.5027321789379671,0.7479282524500229,-0.009451272417379425,-0.5208870472642156,0.0033931915508180256,0.853566543213333,0.08796812935639928,-0.7986943309764205,0.8748524692335693,-0.0706695583337697,-0.7837839552607568,0.8504340507361179,-0.13994613116195861,0.6870037768716254,1.0157138119116702,0.14671284855440983,0.694304222373172,1.0254493533830018,0.0,0.0,0.0,0.0
0.011678384457312237,0.5027321789379658,0.7479282524500234,-0.009451272417385326,-0.5208870472642279,0.00339319155081827,0.8535665432133255,0.08796812935640633,-0.7986943309763562,0.874852469233518,-0.07066955833376269,-0.7837839552606878,0.8504340507360671,-0.13994613116193225,0.6870037768716641,1.0157138119116935,0.14671284855440594,0.6943042223732309,1.0254493533830118,0.0,0.0,0.0,0.0
0.011678384457312237,0.5027321789379658,0.7479282524500234,-0.009451272417385326,-0.5208870472642279,0.00339319155081827,0.8535665432133255,0.08796812935640633,-0.7986943309763562,0.874852469233518,-0.07066955833376269,-0.7837839552606878,0.8504340507360671,-0.13994613116193225,0.6870037768716641,1.0157138119116935,0.14671284855440594,0.6943042223732309,1.0254493533830118,0.0,0.0,0.0,0.0
0.013001271802422712,0.5031431768112178,0.7481905561403164,-0.009494759518251924,-0.5213914940712427,0.0034751464484524815,0.8532576883972447,0.08688976604167034,-0.8030309606465844,0.8867644121929893,-0.07196957481896091,-0.7853469718258363,0.8582970836100803,-0.14404374828834166,0.6942586673896259,1.0141081041684257,0.14648882386118356,0.7015725680722692,1.021536296801071,0.0,0.0,0.0,0.0
0.015247914083793737,0.5039790838300358,0.7485669275911336,-0.009706573960568846,-0.5221311369381149,0.003946162153731601,0.8528008478337226,0.08392438734216937,-0.8123098124392577,0.9086826620604919,-0.07536915919358302,-0.7876986694053485,0.8711844885031395,-0.1488959703437417,0.705095763958991,1.0119052120363814,0.14842827913304152,0.714330262038617,1.0149633445964361,0.0,0.0,0.0,0.0
0.01801461244754514,0.5052474460191935,0.7491729758613115,-0.009014428409139314,-0.5226878533145038,0.0030137866621157737,0.8524711521030418,0.08312766997147905,-0.8212256539857565,0.934193181206447,-0.06417298273968436,-0.8003209654402945,0.88291919049529,-0.10655251044149835,0.6915919519861021,1.0197845221927873,0.12903665839084,0.7235133461579423,1.00249632426424,0.0,0.0,0.0,0.0
0.020833176462654857,0.5067264632628283,0.7495049933446769,-0.008421358110639023,-0.5232272824206978,0.002349009859259501,0.852148328526733,0.08112720693831305,-0.8320427386109756,0.9611873699589326,-0.05059536850161787,-0.8128511639906953,0.8894815123659736,-0.06655850264878249,0.6799074252070099,1.0269318586498604,0.10989934992636986,0.7320982553981605,0.991428047930354,0.0,0.0,0.0,0.0
0.023447864080176135,0.5083003592164964,0.7496235913161944,-0.00807260697826593,-0.5237283076444219,0.002052386244070943,0.8518446340144366,0.07799852052473824,-0.8436512272141079,0.9872457045420815,-0.03806670186366657,-0.824418457378733,0.894110843740919,-0.03658018305755048,0.6721471966877473,1.0343792251707897,0.09381464766397557,0.7401309980450539,0.9820748367165058,0.0,0.0,0.0,0.0
0.025640416529824094,0.5098582001248287,0.7496311763254436,-0.00787565873972751,-0.5241938934957303,0.0019438170688275466,0.8515603076684617,0.07440421322897706,-0.8540923917129536,1.0096417182223418,-0.027428440807739925,-0.8351140103298024,0.8978239059992305,-0.013858764955460366,0.666433812440747,1.042309300040869,0.07968884938448476,0.7468464316945771,0.9741680232747447,0.0,0.0,0.0,0.0
0.027320270345297003,0.5113756236292618,0.7496110053339804,-0.007760564275511375,-0.5246110379077087,0.0019208286400881629,0.8513044948576612,0.0706290866002248,-0.8626008335749291,1.027536707013705,-0.01841970473652105,-0.84513099203631,0.9007119000424331,0.0045990597154336454,0.6613383498906309,1.0503770685352163,0.06655296600270863,0.7519210163572585,0.9671833982949674,0.0,0.0,0.0,0.0
0.028479313954300558,0.5128734324500128,0.7496147823696511,-0.007690394920476532,-0.5249742727847252,0.001936739471134835,0.8510811475883702,0.06673170244536142,-0.8690576345405115,1.0410511084896368,-0.010457791325721973,-0.8546784715095347,0.9026944128112413,0.020710053849085187,0.656079762571478,1.0583102236171984,0.05378058776404121,0.7553593127869305,0.9606386322927974,0.0,0.0,0.0,0.0
0.029152967354555775,0.514393987005263,0.7496617797932094,-0.007649901405356521,-0.5252836352471182,0.0019758738035565208,0.8508905202626089,0.06265169099432172,-0.873685517205298,1.0507368540009954,-0.0030396235641506125,-0.8639006337688622,0.9036861600079078,0.035538843746572985,0.6503205853776797,1.0659412171424056,0.04097786790967944,0.7572973476230346,0.9542008872110017,0.0,0.0,0.0,0.0
0.02939331037983392,0.5159884022386843,0.7497443449233593,-0.007635295778366057,-0.52554181669157,0.002036327862007094,0.8507310706302783,0.05827640106674361,-0.8768636356988058,1.0572840722670036,0.004141862621356012,-0.8728319636694373,0.9036479428817479,0.04962217193241529,0.6439770503809191,1.0731517331095943,0.027864534745249584,0.7578734902724673,0.9477064300916422,0.0,0.0,0.0,0.0
0.02925184522057438,0.517710257309204,0.7498342042262016,-0.007647927235835147,-0.5257519650353796,0.002120602453240223,0.85060089555306,0.05347598182990194,-0.8790212220995922,1.0613642788843702,0.011217980488920082,-0.8813490854600828,0.9026145275659769,0.06318088589586282,0.6371011642709992,1.0797942825226146,0.014201080484930824,0.7571557092180421,0.941150572793541,0.0,0.0,0.0,0.0
0.02876877427682502,0.5196125476603838,0.7498871984758506,-0.007691178669613784,-0.5259165194636055,0.0022315285373516003,0.8504984894791678,0.0481194785362637,-0.8805765965433179,1.063543508508645,0.018202694853261547,-0.8891017828469989,0.9007354219823643,0.07622194253343398,0.6298280392080793,1.0855870450278766,-0.0002355145983434382,0.7551056869956838,0.934676750405863,0.0,0.0,0.0,0.0
0.027966813980635018,0.5217451350161143,0.7498470887782774,-0.007769465811952204,-0.5260371498849923,0.0023710691262017083,0.8504227950690585,0.042083839920444545,-0.8818957465023683,1.0642269118208916,0.025041714833379792,-0.8954516371138166,0.8983330716426551,0.08855362383990542,0.6223890979674316,1.089963136004833,-0.0156360483976156,0.7515716889545697,0.9285662588198317,0.0,0.0,0.0,0.0
0.026850375006338165,0.5241506226139181,0.7496524960848309,-0.007888636723595518,-0.5261162001909165,0.002541049764644003,0.8503723045663047,0.03526328990064625,-0.8832516314965114,1.0636253318494568,0.0316414566288389,-0.8995099966805971,0.8959401533677025,0.09975395862512515,0.6152249425804758,1.0918566151735705,-0.03210638110247145,0.7463305560882653,0.9231951651967335,0.0,0.0,0.0,0.0
0.02541540339785602,0.5268598051859451,0.7492550723572287,-0.008054995349963373,-0.5261592642637949,0.0027423511721460453,0.8503434748319898,0.027584284565190242,-0.8847769780578947,1.0617789540138451,0.03789876780358459,-0.9004545401982227,0.8941965547367934,0.10922377961351473,0.6092141910725128,1.089503696523708,-0.049643871109520066,0.7392170596983263,0.9188632473284822,0.0,0.0,0.0,0.0
0.023665206126476046,0.5298968083517919,0.7486365022868295,-0.008267857551003958,-0.526170848368631,0.0029718687778613065,0.8503334927277171,0.018997998971713254,-0.8864936568922737,1.0586898716565727,0.043738300609023034,-0.8983529653110085,0.8931614628452959,0.11688034023412545,0.6044722133564341,1.0829663737461108,-0.06825793067401714,0.73022630384585,0.9155661790096288,0.0,0.0,0.0,0.0
0.021613315048679575,0.5332768709255982,0.7478102016374997,-0.008518564352900241,-0.5261537494408672,0.00322244961622034,0.8503406857425755,0.00948701043448662,-0.8883185336180563,1.0543402394665207,0.049147649633067475,-0.8941650865731299,0.8923302910464195,0.12322127924266521,0.6003178783908057,1.0740919975009382,-0.08795327580325366,0.7195378746779867,0.9129755522362433,0.0,0.0,0.0,0.0
0.019273195413118765,0.5369931907886366,0.7468090580360697,-0.008796555104095733,-0.5261135933582478,0.0034858472300918863,0.850361662100933,-0.0009032418977417225,-0.8900246067813488,1.0485741454634234,0.05419492430380588,-0.8889237603495166,0.8913481096665341,0.12872138004065817,0.5964495573412361,1.0639579551661993,-0.1085766523665559,0.7074588251986822,0.9106433032321584,0.0,0.0,0.0,0.0
0.016655365434224422,0.5410112006451941,0.7456730479081558,-0.009089116550636557,-0.5260573855925232,0.0037533780851093956,0.8503922196121261,-0.012049436266607974,-0.8912726545179364,1.041089653622237,0.059041895500975765,-0.8834389332739884,0.8901593538308178,0.13387445994735026,0.5927172528175412,1.0530496098237683,-0.1298084975543944,0.6943380703585545,0.9081630760633971,0.0,0.0,0.0,0.0
0.013776370296325193,0.5452630314431246,0.7444489704116691,-0.009378014757706136,-0.525993302010848,0.0040129230713720114,0.8504275369056157,-0.023728423796806373,-0.8916427211405612,1.0315070469871443,0.06394781617873242,-0.8782804334903874,0.8890390707345003,0.13940184546352163,0.5889834430292304,1.0414505531536238,-0.15121315719462206,0.6805607619449651,0.9051987173798417,0.0,0.0,0.0,0.0
0.01067298139410849,0.5496409968943421,0.743190659505733,-0.009633735576278744,-0.5259314946400168,0.004242231205676655,0.8504617907695571,-0.035586490017925895,-0.8906810995081723,1.0194792871377782,0.06921964758254348,-0.8738545143230562,0.8886197712040287,0.14654708387317353,0.5850293034031901,1.0289632142975706,-0.17232451960273687,0.6665434723384833,0.901509238091048,0.0,0.0,0.0,0.0
0.007416449979932887,0.5539894738812834,0.74194066310026,-0.009800530757291334,-0.5258780924930193,0.004374307133288954,0.8504922379833237,-0.047038885001075684,-0.8880105418884381,1.0048450491646508,0.07514929941654676,-0.8705454228533783,0.8899127563999302,0.15724924141340058,0.5805006462535679,1.0151891880183654,-0.1929154374353747,0.6525288679726626,0.8971150111428805,0.0,0.0,0.0,0.0
0.004090778589049512,0.5580939339188454,0.7406934123418311,-0.009807363004653671,-0.5258903373743012,0.004360164024773916,0.8504846604477447,-0.057413573731712124,-0.8831401136688541,0.9872684465863678,0.0827188252483309,-0.8691632643443075,0.894776633526844,0.17513843768522888,0.5747888801747079,0.9994733140563451,-0.2126108067827797,0.6385674419180498,0.8929596122365813,0.0,0.0,0.0,0.0
0.001262280547341477,0.5617760925559689,0.7391389910496267,-0.009563317586770039,-0.5259337739206782,0.004090080468278648,0.850461921339251,-0.06611086595851075,-0.8794999592766564,0.9719383682362496,0.09173974925961936,-0.8702011815125168,0.9039251377650348,0.2045043011492631,0.5685524700399758,0.9809344562083875,-0.23234291244812608,0.6238100474516597,0.8921162357863275,0.0,0.0,0.0,0.0
-0.0008722286052317467,0.564477985094639,0.7369731801610521,-0.009014388490773328,-0.5262004841246638,0.0034988860141900507,0.8503055621973588,-0.07162207558774553,-0.8770124532117325,0.9587690172030481,0.10294935111548965,-0.8777503096003147,0.9216367006775963,0.2484805470485579,0.5615279671185806,0.9581377953837845,-0.2507645082698973,0.6066418164308413,0.900544312949363,0.0,0.0,0.0,0.0
