zhuoxili-jackie/tripod-support-walk/examples/pcbB样数据/trajectory_trotting_acc_f005.csv
root_pos_x,root_pos_y,root_pos_z,root_rot_x,root_rot_y,root_rot_z,root_rot_w,FL_hip_joint,FL_thigh_joint,FL_calf_joint,FR_hip_joint,FR_thigh_joint,FR_calf_joint,RL_hip_joint,RL_thigh_joint,RL_calf_joint,RR_hip_joint,RR_thigh_joint,RR_calf_joint,FL_foot_joint,FR_foot_joint,RL_foot_joint,RR_foot_joint
0.0,0.0,0.72963,-0.009919430704566214,-0.5230949929384007,0.003804490997825683,0.8522081665329894,0.0,-0.81,0.872,0.0,-0.81,0.872,0.0,0.65,1.0,0.0,0.65,1.0,0.0,0.0,0.0,0.0
0.001552516475791407,-0.00046222519119452714,0.7300511274832183,-0.009841356121293983,-0.5235356106294268,0.0037917786896525555,0.851938515696371,0.001177534978004121,-0.8130982745603961,0.8829064026718187,0.0011775349780041204,-0.8156230197903881,0.8867177019930568,0.002564964844451459,0.6576690186214086,0.9942316247988349,0.002564964844451464,0.6577879494947936,0.9973700739593353,0.0,0.0,0.0,0.0
0.004412124745348669,-0.001511685566462962,0.7312224825937454,-0.009630760990400927,-0.5242801882002486,0.003492300282480775,0.8514841962962052,0.0045872324575686055,-0.8167914607353219,0.9013777561559094,0.004591626062915605,-0.8258352535662467,0.9142555360919259,0.006632970744266869,0.6742557525442457,0.9792176059611404,0.006664360577259135,0.673303260348509,0.9890260752017221,0.0,0.0,0.0,0.0
0.007430959638868511,-0.002476602997096018,0.7320450059703346,-0.009377884949148914,-0.5244117156220679,0.0033377347569503424,0.851406640400985,0.007344399519724882,-0.8259464842195883,0.9250725370882374,0.004766420382787237,-0.8269962047725216,0.9074752389515681,0.007698058467742925,0.667497449991347,0.9980619760185576,0.011071197910064438,0.6865503275765956,0.9818031057181601,0.0,0.0,0.0,0.0
0.010906352590869426,-0.0033802571847823806,0.73258813495801,-0.0091107383705417,-0.5245098734857436,0.0031039834337634664,0.8513499588002313,0.010175784190523039,-0.8379796850977833,0.9530679114144203,0.004784417071788627,-0.8310297687060717,0.902647117971402,0.008677310935770895,0.664168035869994,1.0137546870476237,0.014591364352920178,0.6996918875415661,0.9759538495229029,0.0,0.0,0.0,0.0
0.014312253150224968,-0.004294665588051643,0.7329802370620195,-0.008841450846048968,-0.5246636098607883,0.002851218143249429,0.8512589475534944,0.013120258860271029,-0.849155796734456,0.9791983825075571,0.0049862592576985065,-0.8368238282477674,0.9007791910080594,0.010429113635728248,0.6627678344779395,1.027315903419204,0.01819846040582048,0.7122173318610796,0.9713440482793341,0.0,0.0,0.0,0.0
0.017388532376080422,-0.005217396990431388,0.7333227631012098,-0.00858113557308708,-0.52484679375373,0.0026013530154491934,0.8511494816782742,0.01611367359051092,-0.858292684062642,1.0014077820983687,0.005258802832299595,-0.8435406502647742,0.9007441342048197,0.012757745504840478,0.6620431981467981,1.0395265265792304,0.022108815977149976,0.723792227200047,0.9673787663271949,0.0,0.0,0.0,0.0
0.020013010539902995,-0.0061229411175359304,0.7336645899856579,-0.00833789303539045,-0.5250282141579949,0.002366525776976828,0.8510406884712057,0.019050332683674332,-0.8651508963702172,1.019185458320573,0.005537818001748434,-0.850722935355665,0.9014885028584203,0.015398160026102233,0.6613875995858342,1.050766037166306,0.026258308258197412,0.734151854631221,0.9637372753218716,0.0,0.0,0.0,0.0
0.02215530846167539,-0.0069776340784456405,0.7340268213719336,-0.008117632726214739,-0.5251916503307746,0.0021543552579645735,0.8509425322635965,0.02181288972423733,-0.8698864075103332,1.0327519392384927,0.005790378965172317,-0.8581341972909629,0.9023136481020811,0.01816204794366045,0.6605328264145169,1.0612857480214903,0.030441753565884744,0.7431887894804078,0.960238038966767,0.0,0.0,0.0,0.0
0.02383884803369463,-0.007748423469445335,0.7344128363282775,-0.007924760787548644,-0.5253309050419745,0.001970017459170451,0.850858835180931,0.024292886324024245,-0.8728332587530498,1.042662064983006,0.005988886074085673,-0.8656349145459805,0.9027988330081502,0.020921573115733342,0.6593876718907379,1.0712526051790416,0.034407050699834484,0.7509051789369994,0.9567842290993726,0.0,0.0,0.0,0.0
0.02511313879926219,-0.008407440762061503,0.7348126928771394,-0.007762522197744677,-0.5254451922844482,0.0018171712578540261,0.8507900981105201,0.02640203138005832,-0.8743902076326706,1.049580690187184,0.006107950141881361,-0.8730934799206238,0.9027224191364066,0.023583264374406946,0.6579595106898799,1.0807467779366686,0.03791734715821011,0.7573512077107163,0.9533615398763383,0.0,0.0,0.0,0.0
0.026034070560173705,-0.008933280996995857,0.7352050684512533,-0.0076332931618515445,-0.5255359116906497,0.0016985051149322648,0.8507354779479679,0.02807455213239433,-0.8749586554920147,1.0541506677695156,0.006131421265954524,-0.8802962237835714,0.902021471743218,0.026062947799508816,0.6563137886805075,1.0897258022472114,0.04078263840370735,0.7625677898646115,0.9500534119650141,0.0,0.0,0.0,0.0
0.026649823777870212,-0.009310504356738766,0.7355581038276787,-0.007539077700931315,-0.5256045514326871,0.001616221371163189,0.8506940728893921,0.029264161654385126,-0.8749058500802659,1.0569088755680665,0.0060582318163663156,-0.8868447385361096,0.9007951231198117,0.028252342731500752,0.6545555144245089,1.0979448768601596,0.04287060082829031,0.766538070148762,0.9470591264304582,0.0,0.0,0.0,0.0
0.02699121007038993,-0.009528978507671702,0.7358307858657331,-0.007482257716106812,-0.5256515648631086,0.0015724811177944254,0.8506656073214486,0.02994037724134998,-0.8745372333789823,1.0582278943559489,0.005900392005656953,-0.892069585126081,0.8993387818406544,0.029968375433985506,0.6528455624086843,1.1048174944834204,0.04411079777893021,0.7691564525468723,0.9447007658311554,0.0,0.0,0.0,0.0
0.027068124207154383,-0.009584240454452596,0.7359784436604201,-0.007466313831069413,-0.5256763192950917,0.0015696110746412472,0.8506504557168091,0.030088239003607943,-0.8740689550624767,1.0582867702652623,0.005673322050646753,-0.895052752558623,0.8981605401118395,0.030895004834151328,0.6515026553732672,1.1092063127802358,0.044502427518701905,0.7702415264830312,0.9433831184500053,0.0,0.0,0.0,0.0
0.02687857728579003,-0.009478288682726762,0.7359693530286465,-0.0074949203795595274,-0.5256795029076667,0.0016084685336955134,0.850648164178486,0.02971383127348025,-0.873594160083599,1.057107684547909,0.005391501827169567,-0.8949387246177142,0.8978652879934657,0.030600710879225328,0.6512417030198614,1.1092442298077385,0.04409993605210173,0.7696463733975178,0.9434257029490649,0.0,0.0,0.0,0.0
0.026425071877354843,-0.009214144564159017,0.7358008370586697,-0.007567167820606995,-0.5256627684666029,0.0016879572063019448,0.8506577117852228,0.02882859028447433,-0.8731048759432751,1.05468211949926,0.005065202596022061,-0.8917538907836313,0.8984812855950837,0.02909410930931108,0.6520684663093996,1.1049376983615464,0.04292526881397523,0.7673755965508257,0.9448560797264512,0.0,0.0,0.0,0.0
0.025716944887519834,-0.0087964897445146,0.7354994569879254,-0.0076774071806983,-0.5256286229240299,0.0018048860498354044,0.8506775832054804,0.02745144542568117,-0.8724995756781984,1.0509871083029196,0.004703813987570103,-0.8864135427821701,0.8994809857278001,0.02682116662446863,0.6532840079870165,1.0981656123747625,0.04097010070466359,0.7635943033673073,0.9474043737486955,0.0,0.0,0.0,0.0
0.024757798862728726,-0.00823821410899132,0.7351053224038585,-0.007819874795244984,-0.5255811628933068,0.0019541432704336475,0.8507052792207092,0.025628331447179888,-0.8715706797916856,1.045883159624099,0.004317626848473927,-0.8799039479675884,0.9004635588244604,0.02410999493116861,0.6545890602897331,1.0900840681186659,0.038287389770341476,0.7585262235636709,0.950703886608896,0.0,0.0,0.0,0.0
0.023540152850736202,-0.007560752480533183,0.7346554193035006,-0.007989435667479203,-0.5255244939269822,0.0021299126210720097,0.8507382903529916,0.023430508481197296,-0.8700477046753373,1.0391017296144778,0.00391811952860735,-0.8729792637212634,0.9012874662006566,0.0211538247804428,0.6558488660797916,1.0813131252910197,0.035006932647046414,0.7523538468930542,0.9544628351037918,0.0,0.0,0.0,0.0
0.022053128013842117,-0.00679495229386306,0.7341776476217224,-0.00818067161285138,-0.5254639161160357,0.002325158968518153,0.8507733794070743,0.02095820487569643,-0.8676380347144568,1.0303054583900655,0.003523458686789114,-0.8661517613029134,0.9020887584908593,0.018069001054223714,0.6570015544272201,1.0721602878042782,0.03132882652317199,0.7452150953756973,0.9585140289347389,0.0,0.0,0.0,0.0
0.020296729551132826,-0.005982869334057263,0.7336885371135875,-0.008386948196753138,-0.5254087895744641,0.0025310706510553015,0.8508048287469935,0.018346393507038386,-0.8640733501120009,1.0191881982181052,0.003153113673122784,-0.859791696037072,0.9033003354355259,0.01494488494631313,0.6580623180436355,1.0627883165766203,0.027521227876842698,0.7372437991671779,0.9628247649074987,0.0,0.0,0.0,0.0
0.01830111591895571,-0.005179166319341337,0.7331904689882295,-0.008599690849743125,-0.525377304226305,0.0027365034394273694,0.8508215118755021,0.015768723398839158,-0.8591741782810716,1.005617083905149,0.002812422405447705,-0.854250450950264,0.9057304448248249,0.011872242061551885,0.6591792756535702,1.0533473336479016,0.023911325146235538,0.7286252120440428,0.9675096921532793,0.0,0.0,0.0,0.0
0.01615170494979987,-0.004450192237569556,0.7326651032267009,-0.00880687973998089,-0.525401647013978,0.002922266501265955,0.8508037426708585,0.01344777950763009,-0.8529562284106802,0.989847135686751,0.002501744502585693,-0.8500071875277873,0.9107232794761708,0.008905633681440185,0.6607405885801649,1.0441040182350263,0.02080824777572433,0.7196287862649602,0.9728657258260918,0.0,0.0,0.0,0.0
0.0140128542469819,-0.003865377158213155,0.7320652927807191,-0.008992638456039872,-0.5255493377056911,0.003073045520811929,0.8507100460685387,0.011596789067493974,-0.845702317381085,0.9727118998335195,0.002530439437508373,-0.8479187597683399,0.9204693525825111,0.006322699196034225,0.6634814239281902,1.0355636373894221,0.018521536703927623,0.7107211141776432,0.9794502251889787,0.0,0.0,0.0,0.0
0.012412569682957767,-0.0033682127283242978,0.7313074449007227,-0.009151650911592911,-0.5258311631502496,0.0031808672922102447,0.8505337837081589,0.010088545757002444,-0.8402275688909694,0.9593072950200279,0.002729455315059799,-0.8487954983997055,0.9369114602577517,0.0038505597873526066,0.6693837432567786,1.028275968251007,0.016498951873786152,0.7031041282746978,0.9871813224454208,0.0,0.0,0.0,0.0
0.011633760226689209,-0.003124743158387216,0.7306022868115024,-0.009243614486804257,-0.5263606797269756,0.0032076742011460167,0.8502050936419957,0.0094298765004343,-0.83622023276341,0.9509311550141657,0.004276723848216437,-0.8558873856823414,0.9632318708490216,0.0026364719618803063,0.6776623106203689,1.0226169591309076,0.015462083082951975,0.6988871931627111,0.9946202065564558,0.0,0.0,0.0,0.0
0.011609892177670774,-0.003049775462184834,0.7305750503969295,-0.00932829758432149,-0.5263819277919557,0.0032018217406044576,0.8501910357653414,0.009315628357470546,-0.8362582524370751,0.9508610457061754,0.004273767262215096,-0.8558971588979585,0.9632432903794524,0.00264155275979425,0.677678320724806,1.0226212075828567,0.015448383358575644,0.6988537423752489,0.9946010733098618,0.0,0.0,0.0,0.0
0.011609892177670774,-0.003049775462184834,0.7305750503969295,-0.00932829758432149,-0.5263819277919557,0.0032018217406044576,0.8501910357653414,0.009315628357470546,-0.8362582524370751,0.9508610457061754,0.004273767262215096,-0.8558971588979585,0.9632432903794524,0.00264155275979425,0.677678320724806,1.0226212075828567,0.015448383358575644,0.6988537423752489,0.9946010733098618,0.0,0.0,0.0,0.0
0.012360548638745182,-0.0024289444455759205,0.7307105717764742,-0.009482784682824302,-0.5260730502424628,0.0033546344175361224,0.8503798968879586,0.007420766724446441,-0.8430917752977443,0.9619573033115101,0.0023420782755393223,-0.8590334461744366,0.969211340966331,0.00010147788228669075,0.6796470715191797,1.0218112454616757,0.012910342185533191,0.7012536841298659,0.9898079425860933,0.0,0.0,0.0,0.0
0.01411205631492005,-0.0011473495817443476,0.7316187119255569,-0.00975582456091028,-0.5261641186442759,0.0037215691252506507,0.8503189366712205,0.003344559703945863,-0.8518416916474973,0.9817197911695128,-0.0017840240153806494,-0.8602193774177015,0.9786368619580802,-0.00505851863913793,0.6892529047667455,1.0155308926550188,0.007899953296324029,0.7119577163765464,0.975341375519878,0.0,0.0,0.0,0.0
0.015769434416750366,-0.00018562790382179578,0.7325700419923015,-0.010159542209136828,-0.5257516297855961,0.0040246651126145715,0.8505679335306625,0.002791826890888491,-0.8409443222638788,0.9512595913084648,-0.00484765853010382,-0.8641572476624566,0.9905144277199064,-0.007405901466573619,0.6971078725490778,1.0068546971191188,0.0029991821642325577,0.6959443429646525,0.9966107663998662,0.0,0.0,0.0,0.0
0.01778091025191947,0.0007871421908382286,0.73342286278698,-0.010522070958684777,-0.5254832961651407,0.004338156768122333,0.8507277895249541,0.0011378355764423069,-0.837548187633048,0.931674419243102,-0.008018405873861403,-0.8690800952148471,1.0047206753528504,-0.01010071719217336,0.7061476487001598,0.998778792759776,-0.0017820443408007947,0.6851954898792362,1.0124564571318826,0.0,0.0,0.0,0.0
0.01982787031869738,0.0017526715822981655,0.7341610628936259,-0.010828461377422839,-0.5253857775375633,0.004614825543484299,0.8507827176022389,-0.0005737056753899875,-0.8390306831287633,0.9207721108274087,-0.011125372095183364,-0.8734890876656315,1.0183054056081218,-0.01351654000336656,0.715536371057346,0.9918693811697292,-0.006271780560851245,0.6784126710407146,1.0252437799156446,0.0,0.0,0.0,0.0
0.021713705995783004,0.002665678576766953,0.7348043859635418,-0.01108881563035357,-0.525382770324235,0.004856784910757785,0.850779874265182,-0.0019529188425312905,-0.8431680304452811,0.9149498991247869,-0.014042194007948091,-0.8769935366172025,1.030110525384968,-0.017232645785693772,0.7244601000553158,0.9859370043956801,-0.01044402539089927,0.6739829422657561,1.0363545097055156,0.0,0.0,0.0,0.0
0.023339986746230303,0.003493395963525047,0.7353834399594947,-0.011311411119641008,-0.5254250241679522,0.005067473970075961,0.8507496204313887,-0.0029987976109831747,-0.8487172081057829,0.911859193572938,-0.016677321980939044,-0.8794655160122621,1.0397028185325519,-0.02087540950949459,0.7325246286348139,0.9806828636155328,-0.014365761251636626,0.6707950819231128,1.04649262860039,0.0,0.0,0.0,0.0
0.024671991844339804,0.004212822700797263,0.7359232215546082,-0.01150031712565607,-0.525484903080675,0.005247598430659089,0.8507090113846294,-0.0038011857932676906,-0.8550197425552793,0.9100608097095831,-0.018960972442345337,-0.8809410241191175,1.0470680990574568,-0.024170359290990116,0.7395860264134718,0.9758510015466098,-0.01806930646442738,0.668160808837002,1.0560348072468158,0.0,0.0,0.0,0.0
0.025711654805492066,0.004807667212938222,0.7364374369339602,-0.011656919193431203,-0.5255478973556588,0.005396365348942532,0.8506670341919832,-0.004430440866417721,-0.8617158496023226,0.9086922561247188,-0.02084150278214837,-0.8815535916255526,1.0524101375038386,-0.02692475060033759,0.745620489959874,0.9712758742159997,-0.021552700355220188,0.665694553769619,1.0651790551618088,0.0,0.0,0.0,0.0
0.026477650964398726,0.005266083003133439,0.7369274926952779,-0.01178126065451222,-0.5256066606356713,0.005512446901773096,0.8506282696465971,-0.00491976828938746,-0.8685547400080618,0.9072595648354835,-0.022281725877535047,-0.881483993584,1.0560144913969656,-0.029007987607834566,0.7506386708714857,0.9668973793584177,-0.024794343269992684,0.6632121849036495,1.073995734464799,0.0,0.0,0.0,0.0
0.026990764755421445,0.005578871938529099,0.737382819189704,-0.011872665014948986,-0.5256571007261972,0.005594289132884114,0.8505952951966459,-0.005278935132949036,-0.8752494803536416,0.9055254851450159,-0.0232542202880827,-0.8809238919468918,1.0581546197403182,-0.030335437985519544,0.7546256185628598,0.9627689053969071,-0.027751364818730185,0.6606570329682565,1.08241605572292,0.0,0.0,0.0,0.0
0.027262922775160042,0.005738299976328747,0.7377813578570175,-0.011929736393529048,-0.52569588620211,0.005640056727943082,0.8505702242495117,-0.005508296251548517,-0.881351103962122,0.9034683622450053,-0.023737244821711485,-0.8800479816787214,1.0590222987369995,-0.03085826868802537,0.7574965368377529,0.9590659088365753,-0.030334143568278026,0.6580566122338402,1.0901648566887308,0.0,0.0,0.0,0.0
0.027289370962040933,0.0057381113973404,0.7380909772593058,-0.011949922769412728,-0.5257190177011816,0.0056474586250071365,0.8505555948814801,-0.0056019717601412874,-0.8861583733254319,0.9012812016851078,-0.023713613668788144,-0.8789877075725564,1.058672562177035,-0.030564933375270806,0.7590719233382457,0.9560864102324326,-0.0323535200086619,0.655527661508698,1.0966312951416968,0.0,0.0,0.0,0.0
0.027046005619521567,0.005575266242289835,0.7382751846752985,-0.011928995639177405,-0.5257214143345281,0.005613654317396503,0.8505546310839467,-0.005543540823941328,-0.8887399846373812,0.8993526639964097,-0.02317425562547928,-0.8778015441260738,1.0569918812554386,-0.029496814192086194,0.759096293940898,0.9542070529944101,-0.033453549808400374,0.6533759057856358,1.100670751465096,0.0,0.0,0.0,0.0
0.026498137907362777,0.005252328012314221,0.7383101956006448,-0.011862198879946266,-0.5256987120720708,0.005536967212260884,0.8505700996141288,-0.005313282032345723,-0.8882257169787073,0.8981197531337497,-0.022126905640026985,-0.8764361534292702,1.0537264507850723,-0.027741370025956048,0.7573503157509458,0.9537119013747927,-0.03312642169471501,0.6523228379974307,1.1004313430555008,0.0,0.0,0.0,0.0
0.025616622286825954,0.004773222340103334,0.7382010194552723,-0.011750312164265553,-0.5256478084763844,0.005419070507560161,0.8506038709545417,-0.004925986090582249,-0.8846300134743006,0.8975470486499917,-0.020586358226734155,-0.8747347210197796,1.048593081800739,-0.025329185441773934,0.7537633360472467,0.9545897686336672,-0.031387027211917606,0.6523382100146613,1.095883717157661,0.0,0.0,0.0,0.0
0.024380672189109526,0.004145344387548114,0.7379813031004082,-0.011600042657649544,-0.5255665237433106,0.00526526936181619,0.8506571254443592,-0.004431862621055866,-0.8788589608261154,0.8971405653307966,-0.018581255896197087,-0.8724425915649312,1.0412914199380254,-0.022250001531337528,0.7484254633782234,0.9565330707952304,-0.028774009869400666,0.6526380702688139,1.0888187007573804,0.0,0.0,0.0,0.0
0.022767189998333274,0.003387834856979058,0.7376968582927796,-0.011418560901240734,-0.5254531512727951,0.005082919796897048,0.8507307248540938,-0.003876051275554047,-0.8718877688718996,0.8964651144528767,-0.016176853410009247,-0.8692062153109805,1.0314130022617132,-0.01858291956777327,0.7414973299783334,0.9591431369751029,-0.02568296335447729,0.6528411738774296,1.080326395004164,0.0,0.0,0.0,0.0
0.02074881720923523,0.0025325196708689203,0.7373873072207007,-0.011212751023097718,-0.525305150312757,0.004880077180533945,0.8508260445685109,-0.003291790967828367,-0.864467063349641,0.8952879724257669,-0.013476319248045576,-0.8646285410607519,1.0184466216196844,-0.014520118310086268,0.7331167212839437,0.9621133062280747,-0.022355888305971836,0.652734158630999,1.070979598534666,0.0,0.0,0.0,0.0
0.018306203680787687,0.0016237197222838317,0.7370776427099112,-0.010989956264683987,-0.5251201655786668,0.004665442879239343,0.8509443379015307,-0.0027130214550622877,-0.8570796038015905,0.8935967063915214,-0.010620200523308443,-0.8583385094432289,1.0018783993263527,-0.010350069521009284,0.7233962278535874,0.9652916186310725,-0.01895206597405287,0.6521680475836,1.0610515498871147,0.0,0.0,0.0,0.0
0.015449568977358661,0.0007162559084200328,0.7367714337446133,-0.010758437520019506,-0.5248982638477504,0.004447854287215755,0.8510853571904435,-0.0021837363252967413,-0.8499711444416312,0.8915890879885421,-0.007778681108680897,-0.850098630561087,0.9813775766529732,-0.006423915594424336,0.7124569821500174,0.9687138454994728,-0.015609542253423401,0.6510646535179062,1.0506875559624678,0.0,0.0,0.0,0.0
0.01224941969668519,-0.00013123484256584797,0.7364393217411829,-0.010527339131194552,-0.5246454146525598,0.004235667520317954,0.8512452191557481,-0.0017487710876712907,-0.8431659907646558,0.8896744668956765,-0.005130487950605975,-0.83998777923159,0.9571064193430193,-0.003087000223918979,0.7004601404257776,0.9726671752769197,-0.012487060733399747,0.6495159091744693,1.040058624739539,0.0,0.0,0.0,0.0
0.008878627850845897,-0.0008719609335718783,0.7359952998959102,-0.010309199709523632,-0.5243777702901691,0.004046126372164738,0.8514137086565146,-0.0014366077828080089,-0.8364490475222345,0.8884387041780629,-0.0028442931019958158,-0.8287062759853362,0.9302276873800227,-0.00046657045632089375,0.6875688119384963,0.9778364693376689,-0.009698867041958005,0.6480390166024216,1.0295432568679732,0.0,0.0,0.0,0.0
0.005812674857336657,-0.0016043940663234258,0.7352615547755212,-0.010105684137706678,-0.523999527634556,0.0038819876352719023,0.8516497521627483,-0.0007178430787247755,-0.8286140029542993,0.8866954978920539,-0.0006901224752071228,-0.8198738493457752,0.9062724243350271,0.0022065209312644584,0.6740276813931428,0.9848043036477089,-0.006611570922077885,0.6485924460996882,1.0192084934296521,0.0,0.0,0.0,0.0
0.003282951002697961,-0.0021895345210004684,0.7343383200389344,-0.009941868250059615,-0.5236062278743938,0.003762030690943691,0.8518940805710105,-9.981616247270344e-05,-0.8209551407290123,0.8852009614597156,0.0009632956592617529,-0.8135755149684203,0.8866189935369254,0.004255312889442454,0.6612352596931615,0.9930800600509188,-0.0039041119007838963,0.6506768415933337,1.0093722396467473,0.0,0.0,0.0,0.0
0.0016617360339681842,-0.0025212817923544167,0.7334918084254605,-0.009855841794695482,-0.5232527600535802,0.0037154156409292304,0.8521124381004208,0.00021486428732837536,-0.8154043961322589,0.8833191321304383,0.001818880582293401,-0.8104797527333126,0.874268871415937,0.005491160089060033,0.6515766733875525,1.000397317741896,-0.001922520316476953,0.6535188242516505,1.0005715605644192,0.0,0.0,0.0,0.0
0.0016452171170194885,-0.002589548650266498,0.7334548515133182,-0.009790408231892034,-0.5232504434709111,0.003717639314835323,0.8521146052451352,0.0002273241290839726,-0.8154233637341162,0.8833270904556603,0.0019319495787655143,-0.8105377566382316,0.8741168130444119,0.005492802265523389,0.6515035304760505,1.0003304166479379,-0.0019307430119258433,0.6535513398265819,1.0005821125722127,0.0,0.0,0.0,0.0
0.0016452171170194528,-0.0025895486502666206,0.7334548515133181,-0.0097904082318921,-0.5232504434709108,0.0037176393148353956,0.8521146052451354,0.00022732412908269524,-0.8154233637341193,0.8833270904556635,0.0019319495787648276,-0.8105377566382354,0.8741168130444191,0.0054928022655231475,0.6515035304760474,1.0003304166479436,-0.0019307430119253873,0.653551339826581,1.0005821125722139,0.0,0.0,0.0,0.0
0.0016452171170194528,-0.0025895486502666206,0.7334548515133181,-0.009790408231892107,-0.5232504434709111,0.003717639314835399,0.8521146052451352,0.00022732412908269524,-0.8154233637341193,0.8833270904556635,0.0019319495787648276,-0.8105377566382354,0.8741168130444191,0.0054928022655231475,0.6515035304760474,1.0003304166479436,-0.0019307430119253873,0.653551339826581,1.0005821125722139,0.0,0.0,0.0,0.0
0.0031300106619147018,-0.0031092596483230837,0.7338452760398204,-0.00970414270548864,-0.5236672241847973,0.003690714812122862,0.8518596401714994,0.0015854765345989323,-0.8181587832976536,0.8933502978140473,0.003285063816045248,-0.8160580260205671,0.8883117177427962,0.008358957268761518,0.6588223137009063,0.9945209016265427,0.0008857175714601958,0.6609400856370382,0.9983709275899498,0.0,0.0,0.0,0.0
0.005888773731267231,-0.004203746417533332,0.7349778488648645,-0.009483695869469117,-0.5243876726926078,0.0033748804310192167,0.8514201303837972,0.005152544178331148,-0.8213215073293626,0.9105910116384328,0.00685325828349879,-0.826053108040728,0.9150612028612749,0.012685217697928464,0.6749045025773012,0.9796337875763316,0.005127372005926884,0.6759216198789333,0.9904692860941401,0.0,0.0,0.0,0.0
0.008801163647409427,-0.005188367240689784,0.7358216526667918,-0.00925058121904354,-0.524489720711886,0.0032392984250914124,0.8513603623380588,0.007928910253498168,-0.8299253145078169,0.9331294388186065,0.006936673229610104,-0.826751613211508,0.9075580558045627,0.012495017707063343,0.668082284722213,0.9986278609422395,0.00994973395831859,0.689009928885499,0.9831249282316901,0.0,0.0,0.0,0.0
0.012172668911111784,-0.00609688109793387,0.7363924355765746,-0.009001443315756023,-0.5245627936669632,0.0030212113211721186,0.8513188132542926,0.010749862294544254,-0.8414210709858257,0.9600422255779629,0.006813195183365231,-0.8304660985432111,0.9022722448908219,0.012465412969947177,0.6647042005401602,1.0144055097750309,0.013744846675345266,0.7020239768342401,0.9770407556779632,0.0,0.0,0.0,0.0
0.015470885815666973,-0.007014890414627906,0.7368160808923908,-0.008744168656045244,-0.5247022397680268,0.002777290368747928,0.8512363865314607,0.013694241013246058,-0.8519963725192191,0.9850629508913262,0.006884307084350442,-0.8361042221335194,0.9001291673200776,0.013586394092556995,0.6631626014977534,1.0279979466363454,0.01753648588535771,0.7144220403350241,0.9721885405203646,0.0,0.0,0.0,0.0
0.018446352880311764,-0.007937395642686765,0.7371864542750114,-0.008492517079759024,-0.5248734649487171,0.002532847156592121,0.8511341302237029,0.0166828236447135,-0.8606062484751281,1.006304584350845,0.00702885599621064,-0.8427313774794527,0.8998717527235209,0.015504459078427717,0.6622908240113313,1.0401916665695972,0.021558270551704214,0.7258494902604183,0.9680163354918557,0.0,0.0,0.0,0.0
0.020982844489535385,-0.00883936840821402,0.7375509116031208,-0.008256086314049033,-0.5250446502343865,0.002301896779022964,0.8510315232529547,0.01960700181450962,-0.8670371946118876,1.0232915627063428,0.007187951629438824,-0.8498455247145299,0.9004283161355147,0.017853801096333617,0.6615160340440934,1.0513993710776375,0.025767994726056214,0.7360583464926049,0.964211709177332,0.0,0.0,0.0,0.0
0.023052362391780393,-0.009688790082345413,0.7379308742801337,-0.008041504212533319,-0.5251994449079831,0.002092904483912405,0.8509385976844436,0.02235221876819576,-0.8714416419278145,1.0362379836299553,0.007330154537700069,-0.8571924699557829,0.9010962260418919,0.02038968893095482,0.6605755189039578,1.061889264761179,0.029981691230610983,0.7449570917279779,0.9605881845454876,0.0,0.0,0.0,0.0
0.02467855494056093,-0.010454510538313172,0.7383305334286533,-0.007853429648299286,-0.5253315316000241,0.0019112769704623185,0.8508592436883283,0.024815032794539834,-0.8741402040284204,1.0456776032702404,0.007426495228975932,-0.8646287708154299,0.9014526100493255,0.02295529118126294,0.6593738954242084,1.0718345825334574,0.03396573423925603,0.7525582285343378,0.9570419178846444,0.0,0.0,0.0,0.0
0.025909985246015923,-0.011110345897871582,0.7387408101508323,-0.00769513120669843,-0.5254399778348253,0.0017606149070939145,0.8507940496288152,0.02691224328824288,-0.8755160211605902,1.052250662463154,0.007449496810275181,-0.8720246451132477,0.9012737266187517,0.025443233008649743,0.657912835672784,1.081316825802135,0.037497978585742796,0.7589171741044534,0.9535527097514062,0.0,0.0,0.0,0.0
0.026801054283535613,-0.011636181110547324,0.7391411580277853,-0.0075689270439914585,-0.5255260126166259,0.0016434643866273225,0.8507422761515279,0.02858220049184274,-0.8759559337312645,1.0565766498231477,0.0073814257601413046,-0.8791696315655592,0.9004942760841244,0.027763269116981397,0.6562531871068129,1.0902927824176991,0.040399145198644966,0.7640763639206117,0.9501996646874976,0.0,0.0,0.0,0.0
0.027398297071183197,-0.012017474009037769,0.7395003741724854,-0.0074767637268793,-0.5255909429443826,0.0015619144412398602,0.8507031321925912,0.029781485460954764,-0.8758149075522496,1.059172211807015,0.007220436830445376,-0.885668059898666,0.8992107054655348,0.029804960998985844,0.6544967348847279,1.0985160794858293,0.042544259602512985,0.7680181862633946,0.9471790693438891,0.0,0.0,0.0,0.0
0.027730939311554566,-0.012244675740788928,0.7397779978680509,-0.007420991139112694,-0.5256350457310311,0.0015180746336622786,0.8506764502672309,0.03048137357248984,-0.8753885656671484,1.0603932962749545,0.0069784230772112835,-0.8908521727379032,0.8977152990733427,0.031384772818945514,0.6528020798125548,1.105398287884563,0.04386760206494261,0.7706351285453343,0.9448109587645467,0.0,0.0,0.0,0.0
0.027807456140059444,-0.012313684004921898,0.7399298354504887,-0.007405089979158821,-0.5256575110064318,0.001514284598173602,0.8506627138337964,0.03066782364003482,-0.8748855768027625,1.0604058620331116,0.006671064328158918,-0.8938044959459093,0.8965125569094263,0.032186642793011686,0.6514861547404291,1.109799917119194,0.04437130494700886,0.7717434638621025,0.9434986394501118,0.0,0.0,0.0,0.0
0.027624658492060573,-0.012226701339167255,0.7399245878190407,-0.007432757019352841,-0.5256588413977514,0.001551464222136352,0.8506615834409311,0.030347233938026418,-0.8743936808504711,1.0592222964690294,0.006313355781684687,-0.8936687749290986,0.8962034664780784,0.031778594549853184,0.6512624266825168,1.109851575000766,0.044111343855042645,0.7711939767860594,0.943560292770519,0.0,0.0,0.0,0.0
0.027184146693008046,-0.011986808514769399,0.7397599067406205,-0.00750311439711235,-0.5256405655442326,0.001628592968405761,0.8506721147502289,0.02953088673253454,-0.8739013303651724,1.0568275027711471,0.005916526588792197,-0.8904695076253107,0.896813526701961,0.030169175218413283,0.6521350820530555,1.1055586311619423,0.04310924730402779,0.7689891237887209,0.9450223977739516,0.0,0.0,0.0,0.0
0.026494594379879742,-0.01159862389459905,0.7394625811914767,-0.007610551636146934,-0.5256051182593063,0.0017425633233960369,0.8506928368315311,0.028237165658985822,-0.8733049476517744,1.0531945480095857,0.005491014610001431,-0.8851187729248144,0.897813290110112,0.027804185694169675,0.6534038620262814,1.098800319929286,0.04135456738189974,0.7652918305402551,0.9476143848587103,0.0,0.0,0.0,0.0
0.025558991519268236,-0.011074847064768654,0.7390728752004211,-0.007749349492200006,-0.5255564777930317,0.0018883688310910353,0.8507213235222143,0.026511011255102353,-0.8723962036518994,1.0481816412049403,0.005047472531691865,-0.8785978912376359,0.898798729691221,0.025010259380714453,0.6547690805394122,1.090733439831604,0.03889700788750114,0.7603230224471967,0.9509692435452392,0.0,0.0,0.0,0.0
0.024369144624831925,-0.010436514434978039,0.738627817420935,-0.007914410096908327,-0.5254985600711011,0.002060306388712483,0.8507551825370222,0.02442205040322214,-0.870904961096843,1.0415188213227569,0.00459667760008042,-0.8716541814453505,0.899622520972408,0.02197809279202453,0.6560963089584252,1.0819792342433636,0.035861373437396815,0.7542609816917903,0.9547955145578152,0.0,0.0,0.0,0.0
0.02291318157747427,-0.00971376534054861,0.7381552015093967,-0.008100321678912914,-0.5254363669882899,0.0022514397836158823,0.8507913610596584,0.022068025141716442,-0.8685396317565597,1.0328670357713472,0.004154977139805906,-0.8647911167553708,0.9004104688740494,0.018820232794411532,0.6573244347042496,1.0728468876397046,0.03244022163057481,0.7472372056482329,0.9589268627705401,0.0,0.0,0.0,0.0
0.021189574551258132,-0.008947554265337297,0.7376713213139559,-0.008300379185765504,-0.5253787836311243,0.002453005478340483,0.8508244355798533,0.01958046259796928,-0.8650325532365769,1.0219160203688005,0.0037394577679647715,-0.8583686677340554,0.9015775392982821,0.015620378348668938,0.6584685941272468,1.0635008398907206,0.028891110600067316,0.7393762226927267,0.9633311659527375,0.0,0.0,0.0,0.0
0.019226017787520273,-0.008191044210983253,0.7371783665134783,-0.008505782196431326,-0.5253432804787737,0.002653843579706808,0.8508437262149153,0.017128676295517516,-0.8602019099239028,1.0085220555631387,0.003354328808019332,-0.852728027638534,0.9039013474016244,0.012461954780282072,0.6596724061618894,1.0540913061057648,0.025528136392026675,0.7308512197676953,0.9681212712589684,0.0,0.0,0.0,0.0
0.017104067079409355,-0.0075089806241801825,0.7366584850127093,-0.0087041976491983,-0.5253617301334755,0.002835947319775572,0.8508297402284692,0.014927567374398217,-0.8540503715186549,0.992912511817018,0.0030004843488670623,-0.8483389792147933,0.9086798121209555,0.009406384474739488,0.6613044360284922,1.044881636050676,0.022658825859728227,0.7219254754505287,0.9735868802983997,0.0,0.0,0.0,0.0
0.014984845808691482,-0.0069708906358079605,0.7360655016748062,-0.008877889905318705,-0.5255021379727043,0.002979716882702082,0.8507407403811368,0.013201506888575989,-0.8468273829320037,0.9758760265582235,0.0029453176553331686,-0.8460491910362959,0.9180553675268168,0.006686968339974852,0.6640643461923521,1.0364038218593976,0.020555924960842204,0.7130523277481501,0.9802711536070375,0.0,0.0,0.0,0.0
0.013394548264654653,-0.0065087136638043745,0.7353108198157899,-0.009021251095270692,-0.5257690908788664,0.003080361094031494,0.8505739188810205,0.01178644280533373,-0.8414089921366676,0.9625543302410563,0.00302700021118917,-0.8465930467667951,0.9337991083687501,0.004016249565151222,0.6699585244947954,1.0291894556237018,0.018607359933855733,0.7053974116385471,0.9880777277292694,0.0,0.0,0.0,0.0
0.012611983679003987,-0.006281931134902096,0.7346066351127722,-0.009091609667509831,-0.5262773427008216,0.003099341258732361,0.8502587225528342,0.011173116358955897,-0.8374521496875161,0.9542027082903413,0.0044260990558936545,-0.853179645381609,0.9589947474292561,0.002508836654175889,0.678158931554905,1.0236447520148948,0.01748237117759412,0.701067534794255,0.9955273178678753,0.0,0.0,0.0,0.0
0.012589143612953388,-0.006209987573097223,0.7345802254612029,-0.009173004365103285,-0.5262978218171647,0.003093813049221122,0.8502451923193933,0.011062910486802609,-0.837489371450461,0.9541351434713395,0.004423196639374369,-0.8531886741676954,0.9590060062589513,0.002513814434369148,0.6781748785917595,1.0236491046789575,0.017469087010694738,0.7010353352973249,0.9955092819574164,0.0,0.0,0.0,0.0
0.012589143612953388,-0.006209987573097223,0.7345802254612029,-0.009173004365103285,-0.5262978218171647,0.003093813049221122,0.8502451923193933,0.011062910486802609,-0.837489371450461,0.9541351434713395,0.004423196639374369,-0.8531886741676954,0.9590060062589513,0.002513814434369148,0.6781748785917595,1.0236491046789575,0.017469087010694738,0.7010353352973249,0.9955092819574164,0.0,0.0,0.0,0.0
0.01335005481249504,-0.005593986545103118,0.7347207667628701,-0.009346007768888522,-0.5260013584425534,0.0032556414657219203,0.8504261425038738,0.009171413232414723,-0.8443016517524453,0.9652472842406686,0.0024943637530164117,-0.8562722556219067,0.9650051501024046,0.00019446546185792994,0.6801777417916451,1.0227732257352546,0.015148276068276888,0.7035804650130224,0.9907080062228621,0.0,0.0,0.0,0.0
0.01511612935940599,-0.004314725746243803,0.7356307835747008,-0.009630504745520666,-0.5260992156610859,0.0036232448387233597,0.850360947337056,0.005109230346518406,-0.8530652000713123,0.9850702018022472,-0.0016151235313909074,-0.857495087640445,0.9745564539995764,-0.004882958646714551,0.6898438424588422,1.0164531648477144,0.010219553474912222,0.7143751807454315,0.9762142321192797,0.0,0.0,0.0,0.0
0.01677782333502955,-0.0033587973961879745,0.7365754941669469,-0.010056731470080646,-0.5256903491296006,0.003945342540901873,0.8506074025403096,0.004584026755670418,-0.8417733417499246,0.9537794317591765,-0.004697380782922889,-0.8614296344984708,0.9864752083029309,-0.006897876702070082,0.697597713744962,1.0077917075803977,0.0047739718975548726,0.6981558232883628,0.9974390700921493,0.0,0.0,0.0,0.0
0.018798815988937907,-0.0023880124441307523,0.7374189324091399,-0.010435326428795175,-0.5254247891633974,0.004270969612761538,0.850765334104235,0.0029260520335343287,-0.838106511777079,0.933634815052892,-0.00788192329129134,-0.8664014296074182,1.0007878176950025,-0.009380361551416975,0.7065738897642648,0.9997638181318842,-0.00040703169234639677,0.6872775930884157,1.0132406467095503,0.0,0.0,0.0,0.0
0.020856040214619186,-0.0014206403495443099,0.7381479469415008,-0.010751492991486342,-0.5253307171620986,0.004553784706684117,0.8508180216998547,0.0012019721111129963,-0.8394240919680026,0.9224100621387012,-0.011000580936414327,-0.8708642790067734,1.0144770067910145,-0.012699814290763542,0.7159373793243841,0.9929180328057127,-0.005124934537835638,0.6804328214839838,1.0260106064512284,0.0,0.0,0.0,0.0
0.022751522098954292,-0.0005040143077113194,0.73878321638956,-0.011017665179807968,-0.5253308662401668,0.004798786067004124,0.8508131778960788,-0.00018410357155101541,-0.8434661671103854,0.916410222546849,-0.013928245304326042,-0.8744193368282251,1.0263743760047779,-0.016385610696250916,0.7248569273335319,0.9870484018555449,-0.009415513100454,0.6759845607197722,1.0371210249851235,0.0,0.0,0.0,0.0
0.02438644334232047,0.00032763974945680414,0.7393556663049623,-0.011243792738991938,-0.5253755616755538,0.005011181010979773,0.8507813963550297,-0.001228415804215618,-0.8489647363378013,0.9132259123748586,-0.01657339813466053,-0.8769365957718847,1.036046003717336,-0.02002934134516071,0.7329272314791739,0.9818477604506115,-0.013396320827944,0.672803502791887,1.0472677010874354,0.0,0.0,0.0,0.0
0.025726002986442696,0.0010505592445453624,0.7398902620531481,-0.011434907173769472,-0.52543710968762,0.005192494953997853,0.8507397514264865,-0.0020227586707235548,-0.8552445166726325,0.9113813760609402,-0.018865901283127328,-0.8784517578420787,1.0434788565063902,-0.023336889737809913,0.7399979172361842,0.9770580352962167,-0.017128553981733845,0.6701899340409522,1.0568226203580369,0.0,0.0,0.0,0.0
0.026772108270464907,0.0016482135319718686,0.7404004949425861,-0.011592922408230209,-0.5255011252659205,0.005342239340238778,0.8506971446837702,-0.002640499068617407,-0.861934462587585,0.9099925720288514,-0.02075396771619408,-0.8790982156031663,1.048877280602646,-0.026106047174267587,0.7460414520797588,0.9725152430960596,-0.020624773122001377,0.6677511574575228,1.0659814003039476,0.0,0.0,0.0,0.0
0.02754341016585294,0.0021088299911264236,0.7408875006073151,-0.011718180131351593,-0.5255604571299073,0.005459159454579543,0.8506580321926441,-0.0031174068313516105,-0.8687763377316002,0.9085529346801146,-0.022200593708130278,-0.8790563508447836,1.05252660578459,-0.02820274422128566,0.7510664659010606,0.9681623285421835,-0.023870318543749065,0.6652984128929151,1.074813273800674,0.0,0.0,0.0,0.0
0.02806069363266355,0.0024234150159545688,0.7413404725378931,-0.011810183696867968,-0.5256112168081019,0.005541695228023395,0.8506248632273526,-0.003465078886812803,-0.8754783398926141,0.9068179747316286,-0.023178742855354057,-0.8785172632303156,1.0546997814257515,-0.029541814633511104,0.7550572014872828,0.964055629377766,-0.026825669530136348,0.6627717854031546,1.0832488849261934,0.0,0.0,0.0,0.0
0.028335951073231627,0.0025844249255570512,0.7417372093469285,-0.011867652793609578,-0.5256502525183807,0.005587998548145694,0.8505996385590336,-0.0036852055566093276,-0.8815882792139712,0.9047621292713611,-0.023667046879154382,-0.8776551577708478,1.0555884451637088,-0.030074694821952623,0.7579290276330967,0.9603723723014358,-0.02940308679918568,0.6601961980138634,1.0910125374224395,0.0,0.0,0.0,0.0
0.028364592327826198,0.0025856697132720257,0.7420455664658632,-0.011888109217287541,-0.5256736949572043,0.005595788308285526,0.850584814373315,-0.003773072762493025,-0.8864026650908478,0.9025766914136802,-0.02364845825352367,-0.8766013569014489,1.0552484420166612,-0.029789515546715464,0.759503426695109,0.9574104692830049,-0.03141507758130989,0.6576859414717238,1.0974924134322703,0.0,0.0,0.0,0.0
0.028122788038576717,0.0024239794779934505,0.7422291612526504,-0.01186735695563616,-0.525676515303398,0.005562253608141306,0.8505835810972151,-0.003713347882462314,-0.8889884945403902,0.9006500044096599,-0.02311361739294695,-0.8754149576264489,1.0535684359832753,-0.02872617897440449,0.7595264991972759,0.9555444627480241,-0.032507870245092024,0.6555442237541964,1.1015421457118977,0.0,0.0,0.0,0.0
0.027576230297970458,0.0021015711700979565,0.7422643415759185,-0.011800610954789835,-0.5256542904466508,0.0054857259895722005,0.850598741667591,-0.003486839064302748,-0.8884743775638048,0.8994192142929038,-0.022069399935915137,-0.874044677581468,1.0502986254633662,-0.02696982747024825,0.7577805002565428,0.9550553748474545,-0.0321754145154546,0.6544905397802592,1.1013078820304556,0.0,0.0,0.0,0.0
0.026696299162294785,0.0016218268041371382,0.7421560630060172,-0.011688576749217132,-0.525603849290876,0.005367915860073812,0.8506322097496137,-0.0031074650203783342,-0.8848752325659847,0.8988498952634976,-0.020529363640792882,-0.8723374685561148,1.0451618371916462,-0.02454726527285524,0.7541953732872102,0.9559302732927865,-0.030431586575806226,0.6544960786992228,1.0967608166226555,0.0,0.0,0.0,0.0
0.025462833612514144,0.0009914252293911252,0.741937758580701,-0.01153784883855474,-0.5255229240659728,0.005214198418815483,0.850685221724333,-0.0026230343065379727,-0.8790993271898107,0.8984499865124599,-0.018520588419531584,-0.8700439204197612,1.037865389680976,-0.0214432977680005,0.7488608326259837,0.9578610446981198,-0.027811424375828682,0.6547819099899028,1.0896949243885767,0.0,0.0,0.0,0.0
0.023853319812227054,0.00022866174098526448,0.7416551253811643,-0.011355437734892589,-0.5254095715517741,0.0050319853160193185,0.8507587879530892,-0.0020752716941536548,-0.8721248577865074,0.897786880688436,-0.01610638905674132,-0.8668164274865158,1.0280091111581278,-0.01773235665551574,0.7419371301498109,0.9604472984567689,-0.02470700926816246,0.6549726295551709,1.0812032505145124,0.0,0.0,0.0,0.0
0.021840791008565737,-0.0006354638082463652,0.7413479187321013,-0.0111480441657076,-0.5252608789664336,0.004829394888292095,0.8508545158155429,-0.0014931584554450064,-0.8647066291020052,0.8966321614170303,-0.013388029643406891,-0.8622630448918578,1.015088832088552,-0.013603323076001726,0.7335623233524097,0.9633784756899201,-0.02135792413569456,0.6548606297441115,1.0718605196265303,0.0,0.0,0.0,0.0
0.019405842927626687,-0.0015571196449251587,0.7410415540065617,-0.010922809975076742,-0.5250740360961191,0.004615157184031879,0.8509739415306126,-0.0009055927984321057,-0.8573336265410438,0.8949803923763929,-0.010504908437931788,-0.8560149514108804,0.9985933110709657,-0.009345510322052945,0.7238501039849496,0.9664973718581761,-0.017920854228719224,0.654301639024316,1.0619407042158533,0.0,0.0,0.0,0.0
0.01655781919607935,-0.002481124015783101,0.7407402777120993,-0.010687775167394983,-0.5248487272442336,0.004397988881247035,0.8511170557954292,-0.00035172614376679796,-0.8502608084831088,0.893040403408551,-0.007627853475131076,-0.8478307429062331,0.978184720364913,-0.005319211479286642,0.7129235005993659,0.9698356112360881,-0.0145282198775205,0.6532191884907763,1.0515884228116454,0.0,0.0,0.0,0.0
0.01336512109857026,-0.0033469526315920138,0.7404155363908445,-0.010451860698874932,-0.5245910552137177,0.004185791745958525,0.851279896711504,0.0001250242282088226,-0.8435255189769411,0.891240331619271,-0.004939243304164937,-0.8377738347113431,0.9540004941453798,-0.0018915596142542873,0.7009465454063484,0.9736814622479627,-0.011326028084349805,0.6517006808581162,1.0409736259748579,0.0,0.0,0.0,0.0
0.009997336120220546,-0.004103612219873752,0.7399819763410841,-0.010227542243505297,-0.5243202804099306,0.003994980642096643,0.8514503397498754,0.0004847861163358721,-0.8369332935641276,0.8902163469490156,-0.0026159959346807146,-0.826501668242271,0.9271441831437873,0.0007746571454201492,0.6880914278076776,0.9787346657083752,-0.008410564131058125,0.6502489099954832,1.0304899477395508,0.0,0.0,0.0,0.0
0.006932745010994048,-0.004849632873686449,0.7392560750692299,-0.010016788549010907,-0.523942128219545,0.003826646862678209,0.8516863665679559,0.0012491741290205469,-0.829236876486693,0.8887687143607821,-0.00042336653037100937,-0.8176641772694437,0.90318620246703,0.003449444551951617,0.6745928223795795,0.9856242918647258,-0.005081185562026719,0.6508746278929651,1.0202168316850295,0.0,0.0,0.0,0.0
0.004403243852967212,-0.005442548599135626,0.7383366872226884,-0.00984361134292631,-0.5235549808302673,0.0036965787954516684,0.8519270043077382,0.0018943336684129708,-0.8217609587026117,0.8877402254387724,0.0012692591209612048,-0.8113355427485998,0.8834896736915174,0.005409803422838561,0.6618624628903258,0.9938901494978225,-0.0019737640924179377,0.6530882475092044,1.0105009251146915,0.0,0.0,0.0,0.0
0.002783768195165531,-0.00577466486188522,0.7374904222803824,-0.009747333674328932,-0.5232134940191926,0.0036343431991906366,0.852138146495027,0.0022044063099600107,-0.8164785476669444,0.8865530291547318,0.0021611073928918044,-0.8081956059837136,0.871082075475632,0.006474990209629869,0.6522907624855314,1.00126103792694,0.0005044161912415603,0.656099298103107,1.001877350427666,0.0,0.0,0.0,0.0
0.002767147031874692,-0.005843340144434904,0.7374534954393891,-0.009681205627258138,-0.5232111539813716,0.0036362908262522037,0.8521403288168627,0.00221698174689104,-0.8164977545814691,0.8865612092414803,0.002275214123319736,-0.8082539933045015,0.8709295681512231,0.006476592280964314,0.6522174917960044,1.0011939829761762,0.0004964126750679032,0.6561320308900789,1.0018879650383001,0.0,0.0,0.0,0.0
0.0027671470318490483,-0.005843340144449564,0.7374534954393782,-0.009681205627241007,-0.5232111539814047,0.0036362908262213126,0.8521403288168429,0.002216981746550943,-0.8164977545822991,0.8865612092426001,0.002275214123274386,-0.8082539933050678,0.8709295681523186,0.006476592280848146,0.6522174917958385,1.0011939829767067,0.0004964126749763927,0.6561320308899959,1.001887965038571,0.0,0.0,0.0,0.0
0.0027671470318490483,-0.005843340144449564,0.7374534954393782,-0.009681205627241007,-0.5232111539814047,0.0036362908262213126,0.8521403288168429,0.002216981746550943,-0.8164977545822991,0.8865612092426001,0.002275214123274386,-0.8082539933050678,0.8709295681523186,0.006476592280848146,0.6522174917958385,1.0011939829767067,0.0004964126749763927,0.6561320308899959,1.001887965038571,0.0,0.0,0.0,0.0
0.004238411245644686,-0.006345885660925431,0.7378393653872202,-0.009598080580087409,-0.5236252250834385,0.003609732305489002,0.8518870056164605,0.0035362752689786755,-0.8192017453995495,0.8964806181093596,0.0035843632857472715,-0.8137038418626331,0.8849764065659194,0.009268941473559979,0.6594737794203678,0.9954662129445664,0.0032713870279209418,0.663490526194775,0.9996214514450483,0.0,0.0,0.0,0.0
0.006968618673382946,-0.00740590106375249,0.7389476840989008,-0.009380891465794631,-0.5243433263087588,0.0032947834699411202,0.8514488941989763,0.007020412799506975,-0.8223250955958714,0.9135115564028823,0.007059523614086891,-0.8235851651350601,0.9114240910250544,0.013410760115471291,0.6753648226503114,0.9809030746770733,0.007379021045767429,0.6783180571379004,0.9917667594326872,0.0,0.0,0.0,0.0
0.009867166456493548,-0.008349704300506126,0.7397862209315255,-0.009156855819381264,-0.5244507916147404,0.0031614618121205643,0.8513856495885902,0.009702419027351927,-0.8308875328277465,0.9359525596749574,0.007165808498352759,-0.8247957607610916,0.9049596840875381,0.013045755103810227,0.6686966719701226,0.9997263336263965,0.012057921152518676,0.6914077487576503,0.9842899991739165,0.0,0.0,0.0,0.0
0.013217989388180099,-0.00921000870422698,0.7403543679107072,-0.008916574126322619,-0.5245268216354666,0.0029482254923528708,0.8513421263260097,0.012404045916574201,-0.8423313832048153,0.9627360282578825,0.007019790997246203,-0.8288318135348972,0.9003013084742457,0.012863039860559727,0.6653976416456855,1.0154015768714666,0.015661250625256317,0.7044144916577298,0.978018381471554,0.0,0.0,0.0,0.0
0.01648475308270497,-0.010084126667069569,0.7407781404314445,-0.008666298542432768,-0.5246701432710442,0.0027080456166650754,0.851257189407792,0.015239671672980447,-0.8527868277462395,0.9875185681160032,0.007054001045291174,-0.8346932205284239,0.8985204551725058,0.013872386683519313,0.6638416809246329,1.028939103568091,0.019260794415538903,0.7167793694961739,0.9729847602458392,0.0,0.0,0.0,0.0
0.0194247839320732,-0.010967268691715715,0.7411480131386344,-0.008420663515286806,-0.5248430135843508,0.0024668400884201576,0.8511538158392039,0.018128876767894625,-0.8612786856418604,1.0085103688773553,0.007148823817914889,-0.8414623253814499,0.898442874016577,0.015695353926306877,0.6629270782872589,1.0410953229301652,0.023099802633616582,0.7281407962373454,0.9686649336852563,0.0,0.0,0.0,0.0
0.021926409338768084,-0.011834760203662033,0.7415111723655291,-0.008189521155788557,-0.5250143964617637,0.002238832731255447,0.8510509989883863,0.02096392444148744,-0.8676086538905182,1.0252687474914692,0.007255493762210861,-0.8486574936895585,0.8990767975402104,0.017962057657640643,0.662108189582867,1.0522802175887915,0.027142630175158427,0.7382659467469699,0.9647487113050685,0.0,0.0,0.0,0.0
0.023964294498067723,-0.012654826523876403,0.7418895635433033,-0.007979542832753204,-0.5251685966255881,0.0020325158191377944,0.8509583661342872,0.02363147458662415,-0.8719315343824275,1.0380196838822742,0.007349796773260339,-0.8560430874047658,0.8997684379850583,0.02042724670364146,0.6611309070372802,1.0627587503824918,0.031209946452674452,0.7470776530837794,0.9610425603318974,0.0,0.0,0.0,0.0
0.025563503712017717,-0.013396415173946599,0.7422878272741489,-0.007795362186854847,-0.5252997417004516,0.0018532415873264516,0.8508795327150804,0.02602911786796648,-0.8745662732639203,1.0472997558217365,0.007406419026680502,-0.8634910990326446,0.900122989142326,0.0229340243251481,0.6599013247290508,1.0727005105702463,0.035071139847577266,0.7545985901951408,0.9574350369627725,0.0,0.0,0.0,0.0
0.02677322461405264,-0.014033281429145786,0.7426971111486211,-0.007640216670000498,-0.5254071847847451,0.0017045340318274245,0.850814910441477,0.028074237698262953,-0.8758935191051379,1.05374825657534,0.007398956893806915,-0.8708836087775889,0.8999325861915476,0.025374734498509653,0.6584203864798184,1.082183949670254,0.03850554542840844,0.760890239108449,0.9539002608315476,0.0,0.0,0.0,0.0
0.02764799537876382,-0.01454512235649174,0.7430969233980603,-0.007516409886554624,-0.5254923235642376,0.0015888746649218456,0.8507636551562221,0.029705284402049892,-0.8762978702097997,1.0579823227023593,0.007309346996691087,-0.8780186069699296,0.8991406808214829,0.027658659524427927,0.6567477975280884,1.0911636076786493,0.04133407266407148,0.7659979788388757,0.9505136722838086,0.0,0.0,0.0,0.0
0.028234201116528846,-0.0149171377675344,0.7434560333466219,-0.00742589208407913,-0.5255565561795378,0.0015083149080450061,0.8507249187425969,0.030878563970352116,-0.8761324767368478,1.0605158256358245,0.00713491736941278,-0.8845060352956047,0.8978481452315806,0.02967488038093498,0.6549842264364796,1.0993914366410644,0.04343104721357121,0.7699051111444914,0.9474693841770816,0.0,0.0,0.0,0.0
0.02856076137424493,-0.015139508842115132,0.7437339393962646,-0.007371036843821958,-0.52560018894777,0.001464967815987455,0.8506985147884141,0.03156483273185146,-0.8756915947119439,1.0617020108498487,0.006886713337549333,-0.8896816169289721,0.8963489455342398,0.031239663334584222,0.653287068168389,1.1062775196542267,0.04472979817871325,0.7725038952695511,0.9450862345438524,0.0,0.0,0.0,0.0
0.028635777079364915,-0.015207891060186917,0.7438864405492002,-0.007355353632527485,-0.5256223912241971,0.0014612051724561322,0.8506849390321553,0.031749433124038086,-0.8751828783559552,1.0617044299122622,0.006579770979699617,-0.8926296777467144,0.8951473894278519,0.032037148661266994,0.6519718979840541,1.1106807029456998,0.04523154520217264,0.7736098273979785,0.9437668375779238,0.0,0.0,0.0,0.0
0.02845570063039067,-0.015124295308825265,0.74388227065198,-0.007382565496615708,-0.5256235938476324,0.0014979914833912575,0.8506838962498956,0.03143816352184296,-0.8746934845896934,1.0605336865083028,0.006228663013994075,-0.8924943454496542,0.8948431146476936,0.03163549209406331,0.6517510432704038,1.1107297751317817,0.04499146721382593,0.7730727021318105,0.9438288474312968,0.0,0.0,0.0,0.0
0.028021915390187037,-0.014891676480598243,0.7437190991475169,-0.007451819186807482,-0.5256052966272775,0.0015743486969232669,0.8506944598234664,0.030641824833125827,-0.8742116910785219,1.0581738930476956,0.005844399259040456,-0.8892994090567579,0.8954608983593263,0.030042660824214834,0.6526285715799911,1.1064302074026302,0.04403011132355859,0.770894105830058,0.9452986595372354,0.0,0.0,0.0,0.0
0.027342999629761715,-0.014514568084830133,0.7434237049352805,-0.00755752657652779,-0.5255699425741827,0.001687206071399838,0.8507151536150558,0.029378387211370555,-0.8736341541192517,1.0545982341909328,0.005437339228536125,-0.8839551041530517,0.8964711376156499,0.02770308833304658,0.6539052186219251,1.0996632751579976,0.042335710285183986,0.767236096170314,0.947906042483939,0.0,0.0,0.0,0.0
0.02642180554752407,-0.014005558250054237,0.7430363474319185,-0.007693975950152,-0.5255214471250894,0.00183159655268587,0.850743590395895,0.027692224930719194,-0.8727532121701076,1.049665414073639,0.005018033737485862,-0.877439375947597,0.8974683023823767,0.024941700423585362,0.6552827288054662,1.0915877308286484,0.039956211440083184,0.7623181613201696,0.9512843784610726,0.0,0.0,0.0,0.0
0.025249838162969662,-0.01338547497010819,0.7425940369584464,-0.007856054296235216,-0.5254635773737538,0.0020018535681148343,0.8507774702275346,0.0256520756897922,-0.8712996474648331,1.043105742612175,0.0045969540992958,-0.8704944720308272,0.8983012868543657,0.02194734041114669,0.6566281822821538,1.0828266719156592,0.037013714625522616,0.756316053879639,0.9551427621709604,0.0,0.0,0.0,0.0
0.02381462733984445,-0.01268408830080025,0.7421245026544392,-0.008038297584333467,-0.5254010725962416,0.002191059548060461,0.8508139032389641,0.023354351683149702,-0.868982749740965,1.0345793648061723,0.004189699548142174,-0.8636171342173997,0.8990885294075556,0.018830023133187636,0.657881808489914,1.073691248171826,0.03369661089016443,0.7493570632818091,0.9593155591980042,0.0,0.0,0.0,0.0
0.022113552646361286,-0.01194178622925148,0.7416439283833456,-0.008233878008972156,-0.5253423959134611,0.002390420485632187,0.8508477279741302,0.02092881911662096,-0.8655348508855869,1.0237724189219308,0.003812088917119762,-0.8571593712328958,0.9002316806043034,0.015669457164703637,0.6590589325707671,1.064347858464675,0.030256571131804806,0.7415592959233571,0.9637710825549944,0.0,0.0,0.0,0.0
0.020172407095282313,-0.011210994754769343,0.7411544604050918,-0.008433743645785278,-0.525304375157404,0.0025886710501909693,0.8508686644781323,0.0185427788380345,-0.8607712211220736,1.0105313556633344,0.00346697945342331,-0.8514544298413341,0.9024852521280236,0.012543115670929094,0.66029924802784,1.0549477669330818,0.027000468425355403,0.7330871687054864,0.9686209740443233,0.0,0.0,0.0,0.0
0.018069620079020167,-0.010555775340395859,0.7406386898372548,-0.008625186846353912,-0.5253183700757361,0.0027682835243188755,0.8508575396734558,0.01640777926624422,-0.8546831049333836,0.9950598161429562,0.0031535116644075645,-0.8469653627071159,0.9071114265758446,0.009512531030299334,0.6619551753186133,1.0457535992705171,0.024234998367524935,0.7241975354858639,0.9741497772242137,0.0,0.0,0.0,0.0
0.015962921139702612,-0.010046191723996194,0.7400514480957866,-0.008789083433384434,-0.5254530462844278,0.002906975257635005,0.8507722360641933,0.014756316154181817,-0.8474875900766139,0.9781009794200984,0.003114359509681863,-0.8445365783647738,0.9162186870080937,0.006784113574040479,0.6646931090981972,1.0373200018753677,0.022212890844673722,0.7153352998493688,0.9808906469919523,0.0,0.0,0.0,0.0
0.014378216175712277,-0.009605340581520561,0.7392997768079218,-0.008919594652725482,-0.525707719705441,0.0030018709805783215,0.850613204132144,0.013397983129115807,-0.8421165809346545,0.9648451735250585,0.0031792686862602837,-0.8448428676975454,0.9314450252465397,0.00404481192078731,0.6705393608821303,1.0301722024036934,0.02026918969208151,0.7076363828975821,0.9887361035505176,0.0,0.0,0.0,0.0
0.013591266976611553,-0.0093882353389826,0.7385964261793834,-0.00897239046127171,-0.5261979190783777,0.0030142467518027194,0.850309449837831,0.012812009724670892,-0.8382055801571929,0.9565161831362723,0.004516417055134283,-0.8510637523537743,0.9557999872111058,0.0023705218826567936,0.6786309856139842,1.024749528944402,0.019038760014744107,0.703203925463569,0.9961819800806524,0.0,0.0,0.0,0.0
0.013569123446793343,-0.009318361756180497,0.7385705871693199,-0.009051438406793608,-0.5262178784283603,0.003008968419912235,0.8502962789487976,0.012704483972799082,-0.83824229178542,0.9564504875604718,0.004513661964568963,-0.8510722148483544,0.955811119168443,0.00237543830640162,0.678646876949261,1.0247539597022999,0.019025783996856536,0.7031725683932388,0.9961647056150841,0.0,0.0,0.0,0.0
0.013569123446793343,-0.009318361756180497,0.7385705871693199,-0.009051438406793608,-0.5262178784283603,0.003008968419912235,0.8502962789487976,0.012704483972799082,-0.83824229178542,0.9564504875604718,0.004513661964568963,-0.8510722148483544,0.955811119168443,0.00237543830640162,0.678646876949261,1.0247539597022999,0.019025783996856536,0.7031725683932388,0.9961647056150841,0.0,0.0,0.0,0.0
0.014337772726016284,-0.008705754737930525,0.7387159050773991,-0.009238876955800734,-0.5259325581222392,0.003178093036614983,0.8504701565512124,0.010814846542275281,-0.8450281794442643,0.9675679377476214,0.0025854186202042776,-0.8541002262747198,0.9618204538483524,0.00022631064802472543,0.6806843741733422,1.02382159709283,0.016874307828440523,0.7058400299300871,0.9913479013891097,0.0,0.0,0.0,0.0
0.01611497697281682,-0.007428263715343188,0.7396290076773009,-0.009532571566651783,-0.5260371506123214,0.003546564222890206,0.8504007691301846,0.006764083940640047,-0.8537915363264017,0.9874319812923513,-0.001511894349286086,-0.8553347577526325,0.9714551270234028,-0.004786958443923125,0.6904098493224129,1.0174561352366212,0.012009372450808884,0.7167191560815273,0.9768128610306553,0.0,0.0,0.0,0.0
0.017780833016104523,-0.006477857216379057,0.7405723922501376,-0.00997646232716991,-0.5256322672513777,0.003884139074693588,0.8506445222813459,0.006242435970921223,-0.8422313535326351,0.9555873943481258,-0.004607426558776019,-0.8592514784136375,0.9834031395771439,-0.006528896752195987,0.6981056919244503,1.0087675991187577,0.006126697730903627,0.7002959860296012,0.9980723113198812,0.0,0.0,0.0,0.0
0.019806534301344922,-0.005508521629619148,0.7414133244932676,-0.010367812221879288,-0.5253704958701051,0.004219741741541041,0.8507999437697246,0.004564148991090807,-0.8383854215239063,0.9350741572947119,-0.007803654864519992,-0.8642210786567261,0.9977559707165629,-0.008841479265099244,0.7070506516743609,1.0007364547839608,0.0006261036202678243,0.6892776643390506,1.0138764832469227,0.0,0.0,0.0,0.0
0.021868904795646654,-0.00454007747878524,0.7421389831795132,-0.01069170422287627,-0.5252799226851589,0.00450765921597417,0.850850381261639,0.0028228026992807177,-0.8395935934780936,0.9236349100772835,-0.010930651477205266,-0.8686950443695658,1.0114916212098057,-0.012081209985954475,0.7164066914144159,0.9939051394238093,-0.004271057428373492,0.6823602420418455,1.0266489024142487,0.0,0.0,0.0,0.0
0.023769212224724477,-0.0036212979555432226,0.7427705904956562,-0.01096243671612539,-0.5252829427330984,0.004755236404897615,0.8508437240654919,0.0014295826952879093,-0.8435724235828077,0.9175167089888383,-0.013864991585390844,-0.8722670562019705,1.0234332550212948,-0.01573809864509192,0.7253292300122706,0.988058441629448,-0.008652985455067805,0.6778840274984973,1.0377655334709648,0.0,0.0,0.0,0.0
0.025408494583906288,-0.0027874139772730566,0.743339576861271,-0.01119127960580861,-0.5253297123003031,0.004969085877932061,0.8508106468661538,0.00038760242450423723,-0.8490372747023066,0.9142702466914668,-0.016515614370658925,-0.8748039132915222,1.0331456653798856,-0.019376890882006184,0.7334060315255391,0.9828813849106528,-0.012677916613883431,0.6747018352773732,1.0479210130387533,0.0,0.0,0.0,0.0
0.02675196887166772,-0.002062662155532204,0.7438711906950117,-0.011384034277596673,-0.5253925991273886,0.00515139169308175,0.8507681727176669,-0.0003982091066849342,-0.8553017677205236,0.9123955244810591,-0.01881247180009084,-0.8763393606489918,1.0406156651688523,-0.022688593117764173,0.7404835599429448,0.9781120404865731,-0.016430079102297313,0.6721022338293565,1.0574861689116801,0.0,0.0,0.0,0.0
0.027801559685044865,-0.0014636641007016564,0.7443789983850877,-0.01154304794449841,-0.5254573876261908,0.005301922187944685,0.8507250915861851,-0.0010044872124947365,-0.8619875151142116,0.9109941540472647,-0.020703961015027465,-0.8770052551487738,1.0460470874494674,-0.025464011406430974,0.7465328412670754,0.9735857284825802,-0.01993366460746801,0.6696851578589669,1.0666559415043337,0.0,0.0,0.0,0.0
0.02857591320011758,-0.0010020681152143624,0.7448640868960412,-0.011668913301561598,-0.5255171236205558,0.005419497957756276,0.8506857341497058,-0.001469387032738841,-0.8688314546195659,0.9095511627310153,-0.02215343843234708,-0.8769806606272161,1.0497243646938794,-0.027566645657214235,0.751561917525692,0.9692464025556423,-0.023179637892802737,0.667257189126036,1.0754992491362436,0.0,0.0,0.0,0.0
0.029095812971483004,-0.0006866645663822345,0.745315558096735,-0.011761288650605894,-0.5255681053670958,0.0055025678596365025,0.8506524322289737,-0.0018060565582316826,-0.8755386128710152,0.9078172165555668,-0.02313431272251186,-0.8764555790019196,1.0519195320476327,-0.028911097842620394,0.755554976560945,0.9651518912429933,-0.02613126028058186,0.6647552977603732,1.0839465761726577,0.0,0.0,0.0,0.0
0.029373287098025332,-0.0005248194433077906,0.7457111386253779,-0.011818994622401333,-0.5256073369711437,0.005549282365654887,0.8506270887724212,-0.002017289512359748,-0.8816546664459914,0.9057641145002912,-0.023625600717856476,-0.8756034351859726,1.0528237305932961,-0.029449147703163096,0.7584277510044215,0.9614804804363437,-0.028702436120482136,0.6622019952634598,1.0917219494885892,0.0,0.0,0.0,0.0
0.029403844062348142,-0.0005226493301699575,0.746018675133671,-0.011839617449519004,-0.5256310566655007,0.005557371920707513,0.850612092169335,-0.0020994011167839413,-0.8864745808793955,0.9035819444220498,-0.02361042757429235,-0.8745552361160944,1.0524931080333308,-0.029168802636010616,0.7600024596544924,0.9585300706919503,-0.03070722279722164,0.659709255603635,1.0982128355187093,0.0,0.0,0.0,0.0
0.029163828108830794,-0.0006834079434811561,0.7462018523439582,-0.011818991340517266,-0.5256342703572676,0.005524047251116156,0.8506106101922566,-0.0020381173651490563,-0.8890641141953097,0.901658711793119,-0.02307924778672466,-0.8733704751947519,1.0508177523551936,-0.028108946226153425,0.760026220808797,0.956673877885607,-0.031793895131244865,0.6575777831811244,1.1022714615480365,0.0,0.0,0.0,0.0
0.028619187873994534,-0.0010051399132433563,0.7462371051819489,-0.011752307893868018,-0.5256124926533193,0.0054476396578997995,0.8506254840104955,-0.0018148846355824525,-0.8885509052902635,0.9004314138154096,-0.02203826955174384,-0.8719994859411122,1.0475507990897108,-0.02635304159232701,0.7582822669580844,0.9561908569309336,-0.0314580326757913,0.656524965239894,1.10204234355398,0.0,0.0,0.0,0.0
0.0277416963975609,-0.0014848939033070114,0.7461293439844172,-0.011640210491800288,-0.5255624962599279,0.005329883538642158,0.8506586626645286,-0.0014430009504528556,-0.8849501530574074,0.8998663422836294,-0.02050004835442467,-0.8702921987507837,1.0424197551838243,-0.023924868699311534,0.754700850910452,0.9570668548474122,-0.029712701542412005,0.6565230663430877,1.0974971244267837,0.0,0.0,0.0,0.0
0.026511683528506552,-0.0021165720687623462,0.7459118434385931,-0.011489198426955385,-0.5254819541591782,0.005176207663993868,0.8507114205456375,-0.0009682961278648989,-0.8791717000175471,0.8994730766375639,-0.018490372059468237,-0.8680033564763789,1.0351380654155846,-0.02080509456278671,0.7493713058707331,0.9589933270997618,-0.027089832982414387,0.6567975386768671,1.0904323822772506,0.0,0.0,0.0,0.0
0.024907082424419046,-0.002882569537842791,0.7456302174638936,-0.011306146301274385,-0.5253687342409487,0.004994065297537201,0.8507848867073753,-0.00042971952122681254,-0.8721957869152182,0.8988209868477333,-0.01607094167567243,-0.8647901290803288,1.0253122018997585,-0.0170642186539398,0.7424534112621225,0.961568549168716,-0.023978359806755615,0.656978021449478,1.0819435521104428,0.0,0.0,0.0,0.0
0.022901193066153906,-0.0037525633856226384,0.7453243024730726,-0.011097600803212829,-0.5252196134921464,0.004791625825820291,0.8508808619198802,0.00014715959695974802,-0.8647800853383334,0.8976847514550873,-0.01334143791347982,-0.8602647665337746,1.012443568086035,-0.01288830989838674,0.7340849786700999,0.964479246303957,-0.020615632667789846,0.6568617996591246,1.0726068450295168,0.0,0.0,0.0,0.0
0.020474486881052932,-0.004683130050268357,0.745019770565383,-0.010870535530973243,-0.5250313941632128,0.004577646210535819,0.8510011232398428,0.0007375791957149296,-0.8574180265641544,0.8960638540539428,-0.01044028552895264,-0.8540604482525879,0.9960228464839936,-0.00856726539250608,0.7243797400231501,0.9675649630554357,-0.017155979557716184,0.6563086996304471,1.0626966195276943,0.0,0.0,0.0,0.0
0.017635481424546785,-0.00561881397587788,0.7447212646775095,-0.010632807374857672,-0.5248034170232603,0.004360755567164404,0.851145875099517,0.0013066847595002951,-0.8503715114406812,0.8941748578725393,-0.0075387928596659885,-0.8459329008850728,0.9757061187890256,-0.004468739290521976,0.7134609990776422,0.9708555023547584,-0.013727013197037766,0.6552441492086342,1.0523564322707368,0.0,0.0,0.0,0.0
0.014450700752034938,-0.006497576791885143,0.7444006889189629,-0.010393154386240631,-0.5245418441463533,0.004148502614720792,0.8513111217454534,0.0018131253659161744,-0.8436883787115297,0.8924593912383565,-0.004822280572179269,-0.8359331706484501,0.9516098389298611,-0.0009776127931284363,0.7014936050526186,0.9746417779764923,-0.010464349652426949,0.6537525818988005,1.0417542805731048,0.0,0.0,0.0,0.0
0.011086814145638299,-0.0072649803618364955,0.7439730940345805,-0.010164002150914283,-0.5242685466706636,0.003956632693078009,0.8514831349415198,0.0022089451853156937,-0.8371921971117701,0.8915940574821247,-0.002474437510923063,-0.8246823066914439,0.9247865048130108,0.001713946650884317,0.6886564155203854,0.9796368005186489,-0.007451309919480652,0.6523252383525534,1.0312949884635538,0.0,0.0,0.0,0.0
0.008024421322703416,-0.00801996332141051,0.7432500440260639,-0.009947611344655449,-0.5238903554232547,0.00378492535740151,0.8517192112797917,0.0030120436474439516,-0.8296006889767503,0.8903634965964213,-0.00025589009657003576,-0.8158568084069839,0.9008406308121735,0.0043803607989684745,0.6751746776306736,0.9865068863598551,-0.003933725263877127,0.653019588897211,1.0210641242811695,0.0,0.0,0.0,0.0
0.005495686858502302,-0.008617448930968384,0.7423296693597609,-0.009767166123085744,-0.5235079728375804,0.003646772539924874,0.851956985939697,0.0036860917325354367,-0.8222607580151052,0.8896755897601928,0.0014638836291020832,-0.8095197388344906,0.8811205485871434,0.006262027899240724,0.662473138166053,0.9948112324873436,-0.0005120169830817056,0.6553564626755737,1.0114258977463897,0.0,0.0,0.0,0.0
0.0038776358990508827,-0.008948792166835287,0.7414802796096159,-0.009663000446252817,-0.5231759022748022,0.003572077962167205,0.8521624504519985,0.004002849701955118,-0.8171741664122913,0.8889949349485505,0.0023819906327184302,-0.8063551268905451,0.8686717694006165,0.007186500501147912,0.6529534285050221,1.0022603144772408,0.002361934799348367,0.6585326764104679,1.0029062955228403,0.0,0.0,0.0,0.0
0.003860973695495409,-0.009017690916563258,0.741443368308629,-0.009596397551636434,-0.5231735553961254,0.003573780109561368,0.8521646367832549,0.004015504028048544,-0.8171934952785079,0.8890032883189648,0.002496813663147535,-0.8064137899618373,0.8685191019559929,0.0071880395901173086,0.6528800914318894,1.0021932301984289,0.002354118559500797,0.6585655774229983,1.0029169491456744,0.0,0.0,0.0,0.0
0.003860973695415889,-0.009017690916578213,0.7414433683085847,-0.00959639755163785,-0.5231735553962309,0.0035737801094200953,0.8521646367831908,0.004015504027313409,-0.8171934952799467,0.8890032883214096,0.002496813663093589,-0.8064137899641566,0.868519101960879,0.007188039591043685,0.6528800914307831,1.0021932302003684,0.002354118558887816,0.6585655774222581,1.002916949146877,0.0,0.0,0.0,0.0
0.003860973695415889,-0.009017690916578213,0.7414433683085847,-0.00959639755163785,-0.5231735553962309,0.0035737801094200953,0.8521646367831908,0.004015504027313409,-0.8171934952799467,0.8890032883214096,0.002496813663093589,-0.8064137899641566,0.868519101960879,0.007188039591043685,0.6528800914307831,1.0021932302003684,0.002354118558887816,0.6585655774222581,1.002916949146877,0.0,0.0,0.0,0.0
0.0053208760977815,-0.009505956193136504,0.741825157679559,-0.009515818326338332,-0.52358529150483,0.003547445859875777,0.8519127345856813,0.005302744273285186,-0.8198731850897055,0.898838267048837,0.0037695778809385422,-0.8118036183884982,0.8824384635588053,0.009918204088329639,0.6600834838058045,0.9965348260733176,0.005092518797020933,0.6658982135206584,1.00060324650663,0.0,0.0,0.0,0.0
0.008026891732421937,-0.010537145180669947,0.7429119089489233,-0.009301334590457426,-0.5243011159837043,0.0032334332855454453,0.8514759948831596,0.008717004570413623,-0.822970384864332,0.9156983865505706,0.007166420620092432,-0.8215890469000533,0.9086257705794277,0.013906176060161802,0.6758072437193049,0.9822526118450643,0.009085556126846646,0.6805915333835507,0.9927929368018753,0.0,0.0,0.0,0.0
0.010912960654543901,-0.011447021321902898,0.7437432495062986,-0.009084069739687249,-0.5244129952947322,0.0031011624211071996,0.8514099323091137,0.011322626997550355,-0.8315027150248258,0.9380557086334521,0.007289376966193038,-0.8232046481403412,0.9029669795662666,0.013428925172493528,0.6692865426279021,1.0008683569564438,0.013632247680692195,0.6936649356186412,0.9852249254486418,0.0,0.0,0.0,0.0
0.014245761295213344,-0.012267244172834185,0.7443062111216382,-0.008850630142409424,-0.5244914044531425,0.002891509391665024,0.8513648290681793,0.013926400485066468,-0.8429106689051874,0.9647328747250846,0.007123442264840726,-0.8274945933635443,0.8987904292641719,0.013145745388830492,0.6660640659092792,1.0164189256281133,0.017064441833853243,0.7066486004116828,0.9788176951228569,0.0,0.0,0.0,0.0
0.017485419931940548,-0.013105042487003199,0.7447277630865261,-0.008605839435430052,-0.5246380226850752,0.0026541626769406505,0.8512777690631833,0.01667300423059707,-0.8532701790762912,0.9893151916385123,0.007127231044769633,-0.8335342264607444,0.8972869288198406,0.014078002481183904,0.6645011564102311,1.0298899033059776,0.02049568122910426,0.7189725923113032,0.973649308337762,0.0,0.0,0.0,0.0
0.020395018447560774,-0.013955692649579472,0.7450955238100482,-0.008365037526880236,-0.5248123423002206,0.0024155182015822385,0.8511734234504434,0.01948079857883926,-0.8616654721005558,1.0100953628702531,0.007181085228522714,-0.8404174413021357,0.8973446623637158,0.01583006662481387,0.6635533332811513,1.0420043052148293,0.024177284110205376,0.7302692702117632,0.9692185147926239,0.0,0.0,0.0,0.0
0.0228667605154946,-0.014794749239101094,0.7454563932442657,-0.008138209901759449,-0.5249839542066883,0.0021898928615784272,0.8510703976372105,0.022242743601730314,-0.8679117555212736,1.0266591556076354,0.007244344524887026,-0.8476781427344128,0.8980344086028244,0.018032014593666768,0.662699095832482,1.0531652643288774,0.028078123468518058,0.7403176247592675,0.9652179557191386,0.0,0.0,0.0,0.0
0.02487758652246634,-0.015590606676787334,0.7458326130700613,-0.007932018474732436,-0.5251377112843335,0.001985760830221901,0.8509779809277639,0.024846494888229875,-0.8721664665327911,1.0392432194185113,0.007298776443091902,-0.8550952403910137,0.8987406807658689,0.020440257266489785,0.6616922422577639,1.0636324858579729,0.03202199885650311,0.749051748973705,0.9614492309783713,0.0,0.0,0.0,0.0
0.026453767898780043,-0.01631227797669437,0.7462290944401687,-0.007751052191165748,-0.5252681104243989,0.0018084077906784493,0.8508995610660367,0.027190511895438262,-0.8747476471481701,1.0483870010541365,0.007322166260639648,-0.8625530212931967,0.8990906390850377,0.02289886885348857,0.6604404199486478,1.0735710980875097,0.035780206013427754,0.7565022479671683,0.9577952618203928,0.0,0.0,0.0,0.0
0.02764501698318515,-0.016933466347164302,0.7466371035348512,-0.0075985106918007314,-0.5253747406036665,0.0016612832081177521,0.8508354040053805,0.029192700965399155,-0.8760341600240562,1.0547292709903853,0.0072890735470248404,-0.8699430991282702,0.8988888060425677,0.02530041375498781,0.6589440665625573,1.0830562196627205,0.03913284533323519,0.7627352532851593,0.9542258716314822,0.0,0.0,0.0,0.0
0.028505975479673797,-0.017433723304422437,0.7470361463688436,-0.0074766807405833805,-0.525459145484606,0.0015468138547681711,0.8507845749886335,0.030791646375791647,-0.8764088440269973,1.0588852498077013,0.0071812204774366496,-0.8770702890986626,0.8980854427058274,0.02755403133244316,0.6572619367996736,1.0920400687327865,0.04190072229599038,0.767798336352597,0.9508137648061282,0.0,0.0,0.0,0.0
0.029082883284718426,-0.017798050850843874,0.7473949381430534,-0.007387517050470033,-0.5255228020399947,0.0014670274710816514,0.850746176575752,0.03194347100197841,-0.876223364753228,1.0613664287004287,0.006995285611249281,-0.8835490969469355,0.8967848513187613,0.029548603642965812,0.6554936784212665,1.1002729073123454,0.043957532758792356,0.7716754006992707,0.9477514703495243,0.0,0.0,0.0,0.0
0.02940437746801251,-0.018016421982513187,0.7476729323486074,-0.007333412368818576,-0.5255660444717669,0.0014240455605057727,0.8507200044994658,0.032618542779302324,-0.8757707488961349,1.062523610289444,0.006741667262956151,-0.888718048680024,0.8952822493227575,0.031100415484516832,0.6537955266915254,1.1071633180700613,0.04523581323704482,0.7742584338829481,0.945356922179302,0.0,0.0,0.0,0.0
0.0294782145060702,-0.018084303798693482,0.7478259294529276,-0.007317900117409171,-0.525588022356959,0.0014202690569522355,0.8507065662897978,0.032801727443879054,-0.8752576498542084,1.0625180783739236,0.006434944790353732,-0.8916628665927712,0.8940816903894387,0.03189398626495617,0.652481699583017,1.1115684537460526,0.04573606746064312,0.7753622539494043,0.9440321200264393,0.0,0.0,0.0,0.0
0.029300515474091772,-0.01800355826709466,0.7478227072297082,-0.007344724065321902,-0.5255890972588421,0.0014567025719088313,0.8507056094141243,0.03249834360102769,-0.8747705807022332,1.0613586779469524,0.006089409618293616,-0.8915278918973619,0.893781597303462,0.03149775543080066,0.6522633605984314,1.1116152470811118,0.04551290520403087,0.774835817754747,0.9440941849803572,0.0,0.0,0.0,0.0
0.028872471027838496,-0.01777704141046487,0.7476609540357592,-0.007413052514948486,-0.5255707411457686,0.0015324036153678835,0.8507162243915756,0.031718805493243386,-0.8742976185054625,1.0590287532869933,0.005715901949531792,-0.8883363189152939,0.8944061288825256,0.029919232802592743,0.6531444616692179,1.1073092426476911,0.04458611225381942,0.7726799661663453,0.945569438902308,0.0,0.0,0.0,0.0
0.028202587656069172,-0.017409218048914814,0.747367432220068,-0.007517317719558011,-0.5255354055547629,0.0016443314356248543,0.8507369297361105,0.030480743723855556,-0.8737356589307196,1.055501632043837,0.005324665105518436,-0.8829969473160745,0.8954256121577919,0.02760158719757247,0.6544267486509279,1.1005337376406623,0.04294284595659608,0.7690560055744738,0.948188021024751,0.0,0.0,0.0,0.0
0.027293607570682856,-0.016912584814576234,0.7469823972979672,-0.007651818496654491,-0.5254869490822807,0.001787551266213814,0.850765373459899,0.02882805923786239,-0.8728776271318012,1.0506364418366865,0.004926110039074056,-0.8764850083831921,0.8964333249125511,0.02486816398642536,0.6558133515859047,1.0924494121199604,0.04062968375918668,0.7641822114441318,0.9515836841184533,0.0,0.0,0.0,0.0
0.02613677950052063,-0.016307797124050297,0.7465428593885608,-0.007811434608547742,-0.525429004432943,0.0019564282837774153,0.8507993389620921,0.026828736424797005,-0.8714550315772431,1.0441636250616289,0.004530406444401291,-0.8695386242793464,0.8972751254449315,0.021906133116866386,0.6571727087047419,1.083681177157357,0.03776663620959985,0.7582322503979689,0.9554659303461815,0.0,0.0,0.0,0.0
0.02471911760840776,-0.015624321067082482,0.7460765233343729,-0.00799066844357447,-0.5253660791285117,0.0021440663393066965,0.850836080040387,0.024578061067945044,-0.8691777629159224,1.0357424312289287,0.004152497057393354,-0.8626490576485176,0.8980635339011244,0.01882326012469626,0.6584461387485108,1.0745421478995123,0.034538888099485916,0.7513299819164038,0.9596695639169144,0.0,0.0,0.0,0.0
0.023037059671496187,-0.014902081620483478,0.7455995238648098,-0.008182608215760919,-0.5253062660624027,0.0023416600304873346,0.8508706648995868,0.022204310927605806,-0.8657779523208663,1.0250556566861937,0.003807128987300735,-0.8561618998916742,0.8991894983354235,0.015695651446176413,0.659648909001631,1.0652008670083093,0.03119359083370256,0.7435882923776812,0.9641630126770693,0.0,0.0,0.0,0.0
0.021114767399471688,-0.014192909273132853,0.7451140224641876,-0.00837802558392044,-0.525265832247787,0.002537884261500472,0.8508931620972342,0.019873088065594464,-0.8610682116723307,1.0119411185910194,0.0034960689609470513,-0.8504041537851331,0.9013889686801065,0.012595239459772294,0.6609169373817341,1.0558103580146458,0.028032164720482852,0.7351644830625306,0.9690565807346442,0.0,0.0,0.0,0.0
0.01902800300240784,-0.013560331855015487,0.7446030299916088,-0.008563958002894292,-0.5252756878705579,0.0027156771033102992,0.850884678116434,0.017793086009220145,-0.8550300431038432,0.9965821760172655,0.0032171210539876137,-0.8458338929414301,0.9058956018012977,0.009582743470442245,0.6625881607275951,1.04663425184521,0.02536168239110533,0.7263104184728572,0.9746301853281703,0.0,0.0,0.0,0.0
0.016931638157807506,-0.01307496202765554,0.7440222372006067,-0.008720208550100408,-0.5254050753680295,0.0028505475251037293,0.85080276158412,0.016203805375111863,-0.8478531607660227,0.9796835449401143,0.0031921356938177286,-0.8432940436108268,0.9147926043664987,0.006839581827303293,0.6652996064940762,1.0382497938970228,0.023419086158751917,0.7174643967681096,0.9814085501558233,0.0,0.0,0.0,0.0
0.015351558163907089,-0.01265223028726349,0.7432747244903323,-0.008840921548155444,-0.5256487664124151,0.002941417582422796,0.8506506689222617,0.014891919099836892,-0.842520742573402,0.9664819973313893,0.0032435447662182695,-0.8434097141880142,0.9296086542612636,0.004029731394741677,0.67109402812792,1.0311815852569204,0.02149368208423003,0.7097369565625662,0.9892751958761348,0.0,0.0,0.0,0.0
0.014560959097185182,-0.012443485923077152,0.7425732856594839,-0.008880454862014501,-0.5261228759054895,0.0029494310577588166,0.8503570766606321,0.014327137279746542,-0.8386522483398677,0.95817610900089,0.00452994849825119,-0.8493388345271287,0.9532942579824891,0.002199234837960729,0.6790751238781435,1.0259024850230887,0.020192603370902854,0.7052262865369165,0.9967087773810579,0.0,0.0,0.0,0.0
0.014539387358256401,-0.012375360783466283,0.7425479425387361,-0.008957526326631004,-0.5261423687884805,0.002944375244844023,0.8503442250889764,0.014221877783072266,-0.8386885465536243,0.958111928112987,0.0045273084752336205,-0.8493468262595366,0.953305289645437,0.0022041000099674666,0.6790909688341974,1.0259069894871709,0.02017993691794847,0.7051955884325436,0.9966920784024369,0.0,0.0,0.0,0.0
0.014539387358256401,-0.012375360783466283,0.7425479425387361,-0.008957526326631004,-0.5261423687884805,0.002944375244844023,0.8503442250889764,0.014221877783072266,-0.8386885465536243,0.958111928112987,0.0045273084752336205,-0.8493468262595366,0.953305289645437,0.0022041000099674666,0.6790909688341974,1.0259069894871709,0.02017993691794847,0.7051955884325436,0.9966920784024369,0.0,0.0,0.0,0.0
0.015314152490182954,-0.011766152493681474,0.7426971407729063,-0.009155948863839056,-0.5258671951227016,0.0031188713209799506,0.8505116897114751,0.012336988825359817,-0.8454438498461133,0.9692249739350766,0.0026021910007165386,-0.8523249720154452,0.9593179340321352,0.00018816579957402603,0.681162329380001,1.024928460273175,0.018162081618787237,0.7079635661721707,0.9918639749749437,0.0,0.0,0.0,0.0
0.01710021287370866,-0.01049146862416986,0.7436127777737265,-0.009456759321058933,-0.5259783533811205,0.0034879227118874753,0.8504382257829104,0.00830010754093681,-0.8541985487390795,0.9891140921842362,-0.001481596008687617,-0.8535638098016474,0.9690158180719962,-0.004769654144365131,0.6909408013525331,1.0185217754993103,0.013352303691192838,0.7189145636161802,0.977295896846345,0.0,0.0,0.0,0.0
0.01877021363320913,-0.009547636784660042,0.7445569785913212,-0.009914338995630496,-0.5255776467721026,0.0038378274424602232,0.8506792075608175,0.007770609309780591,-0.8424513423129597,0.9568938375218422,-0.004582147238885623,-0.8574629550803593,0.9809936922463658,-0.0062797830294802235,0.6986032238893203,1.0097878289861628,0.00712327134094278,0.7023101396313904,0.998618063893768,0.0,0.0,0.0,0.0
0.020798055954264365,-0.00858091122671925,0.7453985348803882,-0.01031563604312618,-0.5253201230322752,0.004181385713179036,0.8508318705854281,0.006065700539138413,-0.8384844339587304,0.9361343002791082,-0.007783775958723668,-0.862410020108295,0.9953574860558717,-0.008447760708530701,0.7075341622519691,1.0017276618430397,0.0013706321602657574,0.6911601439025543,1.0144429221911642,0.0,0.0,0.0,0.0
0.022862779643498823,-0.007613297199559747,0.746123557571826,-0.010645486267770288,-0.5252329803537724,0.004473356657191652,0.8508801202584497,0.004307125506813814,-0.8396182919945284,0.9245498609472687,-0.010912807912884527,-0.8668777097098836,1.009113469249868,-0.011613789896347924,0.7168909149095998,0.9948843537102318,-0.00366484514615363,0.6841723010054956,1.0272252763909295,0.0,0.0,0.0,0.0
0.024765227634443155,-0.006694507690364075,0.7467535827226484,-0.010919673290956397,-0.5252386414949117,0.004722978088158547,0.8508718021498757,0.0029088568154301032,-0.843554076438538,0.9183511400163581,-0.013847794575482643,-0.8704526379519882,1.0210772415417186,-0.015237240054762055,0.7258185012790178,0.9890382137470606,-0.008115223664329565,0.6796670824387577,1.0383502785714567,0.0,0.0,0.0,0.0
0.026406427024561276,-0.005860444013493429,0.747320616218997,-0.011150506888975852,-0.5252872428984995,0.004937970142800237,0.8508375844396394,0.0018713621994837014,-0.8489958483318495,0.9150623399389584,-0.016498373838102,-0.8729979486594858,1.03081197394608,-0.01886227843376153,0.7339004008528915,0.98386742576415,-0.012171299066424867,0.6764811406327557,1.048514183968368,0.0,0.0,0.0,0.0
0.027751678527926163,-0.005135639775668619,0.7478503347525807,-0.011344401700462402,-0.5253512735466798,0.005121038353515072,0.8507944046002666,0.0010955795931726858,-0.8552497254464142,0.9131672212977611,-0.018794785152692787,-0.8745447908431414,1.0383038349764047,-0.022168605041054185,0.7409818889942112,0.979105576213795,-0.015935604496727245,0.6738921884051332,1.0580880485532527,0.0,0.0,0.0,0.0
0.028802970488032882,-0.004536746918205962,0.7483565184664875,-0.011504056456406349,-0.5254167004624839,0.005272160516711538,0.8507509341068339,0.0005015443951999069,-0.8619324225380348,0.9117577531608466,-0.020685701939245904,-0.8752230488291879,1.0437559217373424,-0.024941732942082417,0.7470338848892191,0.9745861351361346,-0.019441622682416254,0.6714932976360076,1.0672668017045408,0.0,0.0,0.0,0.0
0.02957897990530935,-0.004075298787204686,0.7488403096579913,-0.011630271821766642,-0.5254767591583983,0.005390225059257055,0.8507113833936566,4.8906937246123196e-05,-0.8687776866559545,0.9103132969103046,-0.022134832923731928,-0.8752102708691681,1.047451787066712,-0.027043299852527465,0.7520646533566913,0.9702529469535501,-0.022684867951719423,0.6690867781651015,1.0761193731245087,0.0,0.0,0.0,0.0
0.030100509215398655,-0.003759922495401127,0.7492907822331311,-0.011722836503444446,-0.5255279180686825,0.005473694939193017,0.8506779773206912,-0.0002767938280701065,-0.8754884533227157,0.9085812379003972,-0.023115964744266432,-0.8746953371685,1.04966266871549,-0.02838769361993663,0.7560587223267431,0.96616450839158,-0.02563089650128483,0.666606809546463,1.0845762632847555,0.0,0.0,0.0,0.0
0.03037961964913835,-0.0035978456207892647,0.7496856149423972,-0.011780656292109889,-0.5255673187049479,0.005520723688758917,0.8506525326222049,-0.0004792517560180565,-0.8816089819028723,0.9065315614857914,-0.02360842480390004,-0.8738509419463976,1.0505792625898311,-0.02892692162185732,0.7589322545226977,0.9624997755237332,-0.02819502666364484,0.6640737514554939,1.092361356148921,0.0,0.0,0.0,0.0
0.030411887179022587,-0.0035951273113249056,0.7499926344121358,-0.01180137249572608,-0.5255912901149925,0.005529051132609309,0.8506373804130923,-0.0005556631776743989,-0.8864331850469107,0.9043534766291897,-0.023595473467095646,-0.8728078089025638,1.0502578760497578,-0.028648883918984614,0.7605080084926051,0.9595567354116782,-0.03019272413700267,0.6615974390787408,1.0988615642199528,0.0,0.0,0.0,0.0
0.030173769820728804,-0.003755085186710616,0.7501755587318734,-0.011780844962591797,-0.5255948623013724,0.005495902440943536,0.8506356725829974,-0.0004927377675030735,-0.8890259108453241,0.9024346365645183,-0.02306741667120409,-0.8716257510672377,1.0485896087512347,-0.02759170439229752,0.7605337521766947,0.957707783796115,-0.03127415928361149,0.6594761632435041,1.1029279394897888,0.0,0.0,0.0,0.0
0.02963139285777853,-0.00407596985945803,0.750210882300663,-0.011714244841041178,-0.5255734881551803,0.00541960136166453,0.8506502882720262,-0.00027258607434940576,-0.8885139774855402,0.9012117167951602,-0.022029915697117698,-0.8702564217938289,1.045329840248823,-0.025837601529462236,0.7587933321453996,0.9572304147575239,-0.03093639180786214,0.6584252045364933,1.102703588708141,0.0,0.0,0.0,0.0
0.02875683263463323,-0.004555177719167006,0.7501034820578121,-0.011602162581357706,-0.5255238950186548,0.0053018961355710825,0.8506832051270468,9.195998638345052e-05,-0.8849127167561315,0.900651531131942,-0.020494695001077062,-0.868552152612518,1.0402098200930578,-0.023407892384664102,0.7552171621059559,0.958109575503359,-0.02919182151748576,0.6584176580014068,1.0981605202314795,0.0,0.0,0.0,0.0
0.027530815906240718,-0.005187086755242828,0.7498865204459594,-0.011451016413491997,-0.5254437191443115,0.005148256299970439,0.850735721415271,0.0005567451199306965,-0.8791330849916288,0.9002650635309392,-0.01848646262078448,-0.8662710163145032,1.032947987851826,-0.020279738360917152,0.7498942507361641,0.9600363423810856,-0.026569678620980693,0.6586828524258024,1.091097516021999,0.0,0.0,0.0,0.0
0.02593162767684066,-0.005954659847864128,0.7496055658268339,-0.011267564223292238,-0.5253306783693681,0.004966164711070904,0.8508090605820533,0.0010851272206280037,-0.8721566670335333,0.8996232179279594,-0.01606556349656151,-0.8630740334771424,1.0231562239740128,-0.016520316328030187,0.7429839373418804,0.9626078552476169,-0.023456056012940173,0.658854852189297,1.0826119861950083,0.0,0.0,0.0,0.0
0.02393275133501812,-0.006828133418120569,0.7493005267066096,-0.01105822111784832,-0.5251812919690302,0.004763828864192319,0.8509051840516673,0.0016543305763229207,-0.8647430314799273,0.8985029021108945,-0.013330339521279294,-0.8585768652452751,1.0103403947072427,-0.01231330412468572,0.7346236047005271,0.9655087631057029,-0.020086244009822448,0.658735173412174,1.073281299112859,0.0,0.0,0.0,0.0
0.02151449749366662,-0.00776443182079537,0.748997258704102,-0.010829817379100779,-0.5249920328998091,0.00455002709058038,0.8510260734552944,0.002243049442847609,-0.8573887366145853,0.8969070291267809,-0.01041836030829596,-0.8524143772915448,0.9939925884474788,-0.00794897311701209,0.7249265526047287,0.9685763786666574,-0.016612432135782538,0.6581872427909331,1.0633799627213765,0.0,0.0,0.0,0.0
0.018684621654533516,-0.008707904690778253,0.7487006662745954,-0.01059005384370144,-0.5247619373791815,0.004333320463309879,0.8511721225295139,0.0028202762075227633,-0.8503609153125831,0.895057494662602,-0.0075012415735605424,-0.8443400722807697,0.9737636451296481,-0.0038008687780653827,0.7140156168738129,0.9718396682333963,-0.013158136144246874,0.6571384184713038,1.0530502903019552,0.0,0.0,0.0,0.0
0.015507985657890529,-0.009595319984635788,0.7483829479445473,-0.010347515101687582,-0.5244971763562076,0.004120980806786951,0.8513393321365904,0.003347108977271484,-0.8437158838463112,0.8934055154346775,-0.004766611180874064,-0.8343949190466367,0.9497523012685614,-0.0002682113540588538,0.702055496139743,0.9755922962226649,-0.009850534714999897,0.655671144942755,1.0424579087755395,0.0,0.0,0.0,0.0
0.012148681440228046,-0.010369450447907552,0.7479594648850777,-0.010114593770679867,-0.5242218169244138,0.003928224558164028,0.851512625100263,0.0037698812455236584,-0.8372929563823404,0.892660361335256,-0.002403654953555604,-0.8231689298023948,0.9229671738520816,0.002432939477544889,0.6892302973420669,0.9805580668294437,-0.006763812588965293,0.6542670151613778,1.032016231570421,0.0,0.0,0.0,0.0
0.009089308407183631,-0.01112995521621731,0.7472375482725739,-0.009893834060082459,-0.5238434809988259,0.003753807279679181,0.8517488059243354,0.004605927097121156,-0.8297794230238557,0.8915898921141193,-0.00016842264466036035,-0.8143625521161006,0.8990434300140864,0.005084475402983126,0.6757566963654835,0.9874327915613784,-0.0031010919207064675,0.6550251393985406,1.021813245212402,0.0,0.0,0.0,0.0
0.006562104460246547,-0.01172983076643071,0.7463149549968368,-0.009707761425243646,-0.5234647686482691,0.0036091868894479098,0.8519843714072,0.005309666115948643,-0.8225382012743088,0.8911506641981585,0.0015699763508780448,-0.8080283268854933,0.8793156042312542,0.006897461612945247,0.6630713404458426,0.9957881602052292,0.000566505075617168,0.6574762444536439,1.0122237505671912,0.0,0.0,0.0,0.0
0.004945620068309711,-0.012059885280785316,0.7454620268773868,-0.009597500704663765,-0.5231401010313631,0.003524508613861707,0.8521853674595393,0.005641469880126971,-0.8175910404023098,0.8908377122471062,0.002507556304392525,-0.8048503630545867,0.8668406741632175,0.007706764279276447,0.6535881509666895,1.0033127725068645,0.003755236038617102,0.6608073596457869,1.0037607993204685,0.0,0.0,0.0,0.0
0.004928944969559022,-0.012128869313961213,0.7454251506812208,-0.009530593079861878,-0.5231377508278925,0.003525993827537307,0.8521875549559547,0.005654182780610741,-0.8176104146162025,0.8908461985717443,0.0026228382985261007,-0.8049092070381016,0.866688049688346,0.0077082167057380465,0.6535148002101165,1.003245734001541,0.0037475768128611667,0.6608403905027579,1.0037714786636756,0.0,0.0,0.0,0.0
0.00492894496955897,-0.012128869313961337,0.7454251506812208,-0.0095305930798621,-0.5231377508278924,0.0035259938275372885,0.8521875549559547,0.005654182780609847,-0.8176104146162052,0.890846198571747,0.002622838298525847,-0.8049092070381052,0.8666880496883528,0.007708216705738679,0.6535148002101139,1.0032457340015464,0.0037475768128617617,0.6608403905027573,1.0037714786636767,0.0,0.0,0.0,0.0
0.00492894496955897,-0.012128869313961337,0.7454251506812208,-0.0095305930798621,-0.5231377508278924,0.0035259938275372885,0.8521875549559547,0.005654182780609847,-0.8176104146162052,0.890846198571747,0.002622838298525847,-0.8049092070381052,0.8666880496883528,0.007708216705738679,0.6535148002101139,1.0032457340015464,0.0037475768128617617,0.6608403905027573,1.0037714786636767,0.0,0.0,0.0,0.0
0.006379203356517409,-0.012605164460560278,0.7458033660987772,-0.00945208234165442,-0.5235474386824842,0.0034997720097080438,0.8519369044620012,0.006914839616307075,-0.820270728533941,0.9006113379222447,0.003865252908905343,-0.8102474254263237,0.8804970174770386,0.010385678016802761,0.6606734684832036,0.9976455207638653,0.006453376992089858,0.6681511980508511,1.0014161012041376,0.0,0.0,0.0,0.0
0.00906455929253382,-0.013612110631499962,0.7468710917273504,-0.00923986278539372,-0.5242610598738822,0.0031867019611725323,0.8515015037956372,0.010269996769428536,-0.8233503827347782,0.9173302162586755,0.007195766065971352,-0.8199511978097964,0.9064586774402276,0.014244899379448426,0.6762512547426575,0.9836053956157649,0.01034779802366197,0.6827280280573638,0.9936452309422522,0.0,0.0,0.0,0.0
0.011939396493864711,-0.014493589865575385,0.7476944392755461,-0.0090276735178253,-0.5243765548085255,0.003054710312537353,0.8514331439537126,0.012813296759080396,-0.8318598751136091,0.9396146135368614,0.007331494359500137,-0.8218898923096852,0.9014303661869485,0.013699248931665095,0.6698663210806299,1.0020005715476903,0.014773727182761008,0.6957757325588666,0.9860126166790265,0.0,0.0,0.0,0.0
0.01525642345673488,-0.01528023807799892,0.7482509416415394,-0.008799533677109266,-0.5244568123317159,0.002847640884415972,0.8513868164044556,0.015336480555241528,-0.8432426789905153,0.9662031898726564,0.007148644014044929,-0.8263821979527003,0.8976267102684362,0.013351847767523437,0.6667144284240011,1.0174181811105802,0.01805217278786726,0.7087277638218463,0.9795042194705398,0.0,0.0,0.0,0.0
0.018472573787590936,-0.016087840737055565,0.7486689274189856,-0.008559095119754837,-0.5246062775755407,0.002612473474791209,0.8512979328069634,0.01800993129758827,-0.853523524940307,0.9906146454561897,0.007127548861841829,-0.8325657252926624,0.8963376887522456,0.014231943025491313,0.6651483650323897,1.0308183335815524,0.021336084915033304,0.7210081315605902,0.9742338438250967,0.0,0.0,0.0,0.0
0.021355845663831866,-0.016911573667838502,0.7490336252088108,-0.008322217677448342,-0.524781906295286,0.0023758907080014624,0.8511927200472043,0.02075084316604734,-0.8618380572489215,1.0112129386591584,0.007147602439207231,-0.8395418708013087,0.8964981649177521,0.015931152122679038,0.6641739009172797,1.0428899858465015,0.024882238150183304,0.7322434202214945,0.9697186433568421,0.0,0.0,0.0,0.0
0.023801776778996593,-0.01772709835154387,0.749391629581882,-0.008098939406563952,-0.5249537811117579,0.002152216899719794,0.8510894799252156,0.023452672280322877,-0.8680135581351888,1.0276088066037516,0.007174748672615427,-0.8468563148430621,0.8972283206601583,0.01808205967713667,0.6632907532796148,1.0540272654649647,0.02866225269114149,0.7422220812143334,0.9656538167146074,0.0,0.0,0.0,0.0
0.025789270677378122,-0.018502907168238186,0.7497653538737741,-0.007895880229803615,-0.5251072102926605,0.001949875974584428,0.850997221357238,0.026003862724522497,-0.8722101918653427,1.040048566173562,0.007195804055615286,-0.8542994540591278,0.8979430158790369,0.02044403687151289,0.6622597810216513,1.0644836317698378,0.03250177480946954,0.7508872456595982,0.9618372771544249,0.0,0.0,0.0,0.0
0.027345638828085904,-0.019208054571167883,0.7501598639759606,-0.0077175772954450154,-0.5252370057939578,0.0017740877073766331,0.8509191379667597,0.028303594553486786,-0.8747455897256322,1.0490744801866976,0.007191221642096047,-0.8617654876101322,0.898286807691885,0.02286280338980909,0.6609901089441974,1.0744194514783076,0.036173230484679346,0.7582758379885104,0.958147662620839,0.0,0.0,0.0,0.0
0.02852103993844118,-0.01981620592159092,0.750566465970236,-0.00756719390854586,-0.5253429632147985,0.0016282403525164984,0.8508553680916633,0.03027023967281662,-0.8759973134787372,1.0553250522793887,0.007136424197774968,-0.8691538043093785,0.8980740149928318,0.0252315336205823,0.6594817954053489,1.0839064857273206,0.039457112984499186,0.7644576354643741,0.9545515934234555,0.0,0.0,0.0,0.0
0.029370194027546783,-0.02030680536185635,0.7509646218969757,-0.007447001228225947,-0.5254267537179248,0.0015147180729765434,0.8508048978933475,0.03184254507362544,-0.8763468157273888,1.0594139179047615,0.007012996189860153,-0.8762748251232125,0.8972602566153228,0.027459456576981026,0.657792756931445,1.092894680219332,0.04217400091517489,0.7694818533723576,0.9511197629915188,0.0,0.0,0.0,0.0
0.02993920133203289,-0.020664706886286133,0.7513229768259393,-0.007358957394923356,-0.5254899244736102,0.0014355323743877667,0.8507667860639491,0.03297653719300911,-0.8761445060533062,1.061850477197403,0.006817115025820215,-0.8827468069520333,0.8959525023094524,0.029435429185272404,0.6560216861978441,1.1011326610955656,0.04419700672277792,0.7733327753617073,0.9480435417769724,0.0,0.0,0.0,0.0
0.030256437740726155,-0.02087972582246458,0.7516009381629727,-0.007305471290008281,-0.5255328351155675,0.0013928149497459195,0.8507408120991612,0.03364230937033192,-0.8756822913949787,1.0629833042553618,0.006558693805374667,-0.887910558025283,0.8944468960015679,0.0309759006037065,0.6543236875278183,1.1080275512554765,0.04545801069696804,0.7759020973695461,0.9456401683296981,0.0,0.0,0.0,0.0
0.03032934186938162,-0.02094718502274118,0.751754313396227,-0.007290094325172886,-0.525554616041079,0.0013889948251966581,0.850727495015895,0.03382436013338278,-0.87516584652042,1.0629715416280094,0.00625199642669134,-0.8908528934858442,0.8932471988220392,0.03176589195667603,0.6530116245949138,1.1124348388502097,0.045956974149569715,0.7770040464305576,0.9443111000172699,0.0,0.0,0.0,0.0
0.03015372824327482,-0.020868831999784208,0.7517519310160345,-0.007316587608662349,-0.5255555631779764,0.0014251123225258837,0.8507266227251343,0.033527628136327904,-0.8746810020530413,1.0618223148648287,0.005911149216656588,-0.8907182383477653,0.8929507253095841,0.03137423202320089,0.6527954906022443,1.1124796277655586,0.045748132266824774,0.7764868717293263,0.9443729343594769,0.0,0.0,0.0,0.0
0.029730616024813042,-0.020647444975318615,0.7515914983686349,-0.007384138133568695,-0.5255371218978042,0.0015002552162318365,0.8507373021360254,0.03276221449345877,-0.8742156229037366,1.0595182342923446,0.0055468638251553615,-0.8875292821415923,0.8935811006138625,0.029808071326362512,0.6536791270455068,1.1081675132951636,0.04485068386825826,0.7743507714971816,0.9458519325499642,0.0,0.0,0.0,0.0
0.029068459364733824,-0.020287431918883804,0.7512997560422251,-0.007487197027423614,-0.525501752426037,0.001611407191432631,0.8507580463590692,0.03154546704421129,-0.8736668534995424,1.0560328010651927,0.005169242793719031,-0.8821937020659831,0.8946086526518574,0.02750941820616249,0.6549652976882081,1.1013837427197457,0.04325089661385684,0.7707563929455284,0.9484786289481744,0.0,0.0,0.0,0.0
0.028169913205420193,-0.01980121230971092,0.750916955229158,-0.007620075288919161,-0.525453261580146,0.0017536604229874359,0.8507865355202201,0.029920882322500314,-0.8728281490905437,1.0512255226470175,0.004788532757700491,-0.8756845221364065,0.895625708111582,0.02480016072082745,0.6563584800524689,1.093290845332007,0.04099427065072829,0.7659209723199044,0.951887136466081,0.0,0.0,0.0,0.0
0.02702600693809865,-0.019209296095416138,0.750480116691497,-0.0077776511163800055,-0.5253951606010174,0.001921407652483985,0.8508206283070339,0.027955797014316556,-0.8714316031784056,1.0448268816401465,0.004414614991449144,-0.8687364617676339,0.8964756603141152,0.021865969987871166,0.6577283652703255,1.084515454453824,0.03819920110462325,0.7600164295636833,0.9557872787523523,0.0,0.0,0.0,0.0
0.025623305946854892,-0.018540895873333303,0.7500169470378775,-0.007954406150591816,-0.5253317494335326,0.002107774723444055,0.8508577071083101,0.025744532411120315,-0.869187516663872,1.036495192010843,0.004061854914368757,-0.8618362632587221,0.8972662152051816,0.018812621784675628,0.6590171972776668,1.0753725650278751,0.035048398323152104,0.7531637798682072,0.9600141346107037,0.0,0.0,0.0,0.0
0.023957427641251052,-0.017835556275568022,0.7495435704042085,-0.008143372525509,-0.5252707921150537,0.00230395682307696,0.8508930439354244,0.023414103225935946,-0.8658276962230134,1.0259101392658276,0.0037440818249365876,-0.8553242763096885,0.8983796106424032,0.01571300516720603,0.6602400656885371,1.0660328677973656,0.031785558813924905,0.7454715947587967,0.9645360766600303,0.0,0.0,0.0,0.0
0.0220511176830618,-0.01714462882442964,0.7490621962696441,-0.008335200231301586,-0.5252280604773807,0.0024986003791884056,0.8509170147084956,0.02112868442135092,-0.8611623195642933,1.012901858395698,0.0034621530734938307,-0.8495225448802967,0.9005366973427241,0.012633986343302372,0.6615293623730861,1.0566514527006667,0.028708052591041817,0.7370913035804539,0.9694620984275869,0.0,0.0,0.0,0.0
