zhuoxili-jackie/tripod-support-walk/examples/pcbB样数据/trajectory_trotting_acc_f03.csv
root_pos_x,root_pos_y,root_pos_z,root_rot_x,root_rot_y,root_rot_z,root_rot_w,FL_hip_joint,FL_thigh_joint,FL_calf_joint,FR_hip_joint,FR_thigh_joint,FR_calf_joint,RL_hip_joint,RL_thigh_joint,RL_calf_joint,RR_hip_joint,RR_thigh_joint,RR_calf_joint,FL_foot_joint,FR_foot_joint,RL_foot_joint,RR_foot_joint
0.0,0.0,0.72963,-0.009919430704566214,-0.5230949929384007,0.0038044909978256812,0.8522081665329894,0.0,-0.81,0.872,0.0,-0.81,0.872,0.0,0.65,1.0,0.0,0.65,1.0,0.0,0.0,0.0,0.0
0.0015962986979905268,-0.0007477819398796054,0.7300750491064689,-0.009896951243313138,-0.5235513957016822,0.0038833220575882656,0.8519277588062881,0.0016888137637098765,-0.8127120875527615,0.8823302222597913,0.0016888137637098752,-0.8161727347753256,0.8879676784587135,0.005433435531757102,0.6574917390261666,0.9929740342096567,0.005433435531757107,0.6584909942546203,0.9982931984951868,0.0,0.0,0.0,0.0
0.004621154204989327,-0.0022928718982859328,0.7315698495568247,-0.009499138624408387,-0.5244034827629119,0.003330520537774543,0.8514103953232366,0.006947524902209072,-0.8138141562571088,0.899034707408679,0.0069565337701045175,-0.8274501732273658,0.9184827878899815,0.01020180704606379,0.6770288918950825,0.9736726830611665,0.010291829338309216,0.6756763984943568,0.9885660221411628,0.0,0.0,0.0,0.0
0.007715478384928861,-0.003862869386031049,0.732527401248033,-0.009357226560997235,-0.5243503128878292,0.003299456748780926,0.8514448339561904,0.010990836340965817,-0.8229393792425423,0.9223443490173636,0.0017847711632943963,-0.8264331179483466,0.9084371806341248,0.0016715373039786902,0.6712005213382366,0.995602106423636,0.020702415797953434,0.6901773543633497,0.9819183551499624,0.0,0.0,0.0,0.0
0.011325367684037713,-0.005445170724039571,0.7331459792902794,-0.009106135124517483,-0.5243470538392164,0.0030505999971436174,0.8514504913809642,0.01563974358089064,-0.8343959857542766,0.9495729710229731,-0.005204192148930665,-0.8284821305174289,0.9012626988987881,-0.00824893723275168,0.6699172463770006,1.0139239883987694,0.0296062377060125,0.7043396954636529,0.9773738545232153,0.0,0.0,0.0,0.0
0.014896261349451009,-0.007112514521020616,0.7336105140742761,-0.0087907560264022,-0.5244127720933737,0.0026813627725370296,0.8514145743217635,0.020858011350334705,-0.8446142089158515,0.9746437806930455,-0.012184080432130515,-0.8325729790452612,0.8976730001702911,-0.016615411682166327,0.670655320738344,1.0295182062296997,0.0383894685990427,0.7178130293801643,0.9742062467005501,0.0,0.0,0.0,0.0
0.018155839531296916,-0.00884471886958129,0.7340526383479046,-0.008465953735243646,-0.5244922035686961,0.0022873130580139353,0.8513700865205336,0.026361056297230616,-0.8526202099802517,0.9956735888816498,-0.01851939652726011,-0.8378396002989351,0.8962506020703727,-0.023317439221446908,0.6718783498035226,1.0432628543852547,0.047891832244134055,0.7305378518932649,0.97150424866491,0.0,0.0,0.0,0.0
0.020970716195995207,-0.010607047200612356,0.7345206136345802,-0.008162603270692886,-0.5245421682515303,0.0019125672970336483,0.8513431903293541,0.03193883676743616,-0.8582894975887745,1.012196372679132,-0.024161035447504454,-0.8437591830763198,0.8957714101811571,-0.028885705454794883,0.6729828249313827,1.0556540148676357,0.05834229956511095,0.7422826239653104,0.9689415113712145,0.0,0.0,0.0,0.0
0.023305939448581153,-0.012359577377363557,0.7350275547691314,-0.007892598329461584,-0.5245492851741465,0.0015747782257077827,0.8513420431227636,0.037425529993273164,-0.8618106240178177,1.024429348910641,-0.029289300768242717,-0.850021060794492,0.8954707966817077,-0.03375726471460494,0.6737688079075194,1.0670441614434198,0.0695788737990044,0.7529094524876463,0.9664125460857936,0.0,0.0,0.0,0.0
0.025186490172621315,-0.01406532826592647,0.7355698101006349,-0.007657999467390552,-0.5245159188978348,0.001278217699839395,0.8513652400858455,0.04269608006305401,-0.8635141315422056,1.0329264406218854,-0.03412435278342155,-0.8564278182522214,0.8949128935869003,-0.03822325102214094,0.6742125343370586,1.0776779346916525,0.08125360710786396,0.7623836283726616,0.9638882617826999,0.0,0.0,0.0,0.0
0.026667317894399713,-0.0156957917712673,0.7361336265042997,-0.0074564799492546395,-0.5244499375518558,0.0010210504186432296,0.851408022844901,0.047666852564799786,-0.8637829294750636,1.0383628677276933,-0.038836627702624124,-0.8628132833026866,0.8938781341444904,-0.042481264678479395,0.6743711459174885,1.0876885893262436,0.0929872567271036,0.770729892517738,0.9613937547901872,0.0,0.0,0.0,0.0
0.027811190768782967,-0.017233350411165405,0.7366973847312415,-0.007284134221516847,-0.524358768327453,0.0007990656802688936,0.8514659035808761,0.05229399643153868,-0.8629970514694316,1.0413940258042653,-0.043515630388065565,-0.8689490659544673,0.8923069475591455,-0.04668697861617745,0.6743382063135106,1.097062988032804,0.1044635356674666,0.7779787389591218,0.959026540851554,0.0,0.0,0.0,0.0
0.028672535972950886,-0.01867166293784254,0.7372323696317058,-0.0071372060987670285,-0.5242462799152968,0.0006078418495313635,0.8515365692748386,0.05656848887971312,-0.8614955416854108,1.042557782525045,-0.04816873108475255,-0.874435081973423,0.8902970370127137,-0.051000119741614815,0.6742230572244456,1.105562955844512,0.1154779124859677,0.7841175849970854,0.9569811016919708,0.0,0.0,0.0,0.0
0.029286323078280756,-0.020015376845224014,0.7377041572636232,-0.007013506411038487,-0.5241113651679089,0.0004441896312932309,0.8516207432450342,0.060510326388276185,-0.859546178332191,1.0422054603975162,-0.05273564544834014,-0.8786071639611449,0.888135490712098,-0.055632939680504735,0.6741632416832918,1.112586579629357,0.12595912047670554,0.7890580605421589,0.9555588794559451,0.0,0.0,0.0,0.0
0.029663947071339496,-0.02128019038804512,0.7380780327622657,-0.006913246719274437,-0.5239479113035875,0.0003065934890236059,0.8517221960597474,0.06416589495365349,-0.8573173611556044,1.0404688351627953,-0.05711386082446142,-0.8805554599651386,0.8863142484776962,-0.06089017276075204,0.6744216332223371,1.1169614576408664,0.13597202387597104,0.7926445195280045,0.9551277966093272,0.0,0.0,0.0,0.0
0.029802830422663178,-0.022493265576150806,0.7383348560889159,-0.006837067555453761,-0.5237484594824452,0.0001923395122355395,0.8518455075320405,0.06761393586169526,-0.8548391110693779,1.0372932026332793,-0.061187387230414884,-0.879433696835927,0.8854175244554172,-0.06713996559744477,0.6756330183629695,1.1167804012012572,0.14567679331510694,0.7947571003976935,0.9559593833372578,0.0,0.0,0.0,0.0
0.029702955993563127,-0.02369090078414524,0.7384872658923083,-0.006781958826960637,-0.5235052462510691,9.793720211782056e-05,0.8519954533859798,0.07095528147099357,-0.8520119688562711,1.032546310505837,-0.0648764374225662,-0.875269283342053,0.8854591309684224,-0.07436861672744328,0.6777674822521423,1.112039454634938,0.1552784044341994,0.7954380482351145,0.9580360084186891,0.0,0.0,0.0,0.0
0.029368273837853155,-0.02491860851908313,0.7385788769680292,-0.006742368513254091,-0.5232090718683575,2.022480517018819e-05,0.852177685211506,0.07431020209090984,-0.8486231006554908,1.0260348844561398,-0.06816094882622749,-0.8689707651088389,0.8859008836849087,-0.08221663414770695,0.6801387501355347,1.1046455951929022,0.16503709122269503,0.7948917271375354,0.96105284198413,0.0,0.0,0.0,0.0
0.028792407774439425,-0.026230586744041055,0.7386656550352688,-0.006716149793645336,-0.5228475026474477,-4.22485418716958e-05,0.8523997774063161,0.07781577907815451,-0.8443687139822141,1.017429345073722,-0.0710795050331979,-0.861512768511591,0.8863099555661518,-0.09046538188885186,0.6824328800138584,1.095807626105436,0.17530223790993057,0.7933496118975132,0.9646170899086521,0.0,0.0,0.0,0.0
0.02795160913679585,-0.027683120803955213,0.7387957441742045,-0.006708557107916203,-0.5224014969014258,-8.412976100918628e-05,0.852673245867878,0.08159746715111366,-0.8389376242985483,1.0062818117475676,-0.07374442880315481,-0.8536183264661145,0.8864676575455245,-0.09913069949815298,0.6844652879996052,1.0862354553603686,0.1865063555422766,0.7909490375321768,0.9684272402415111,0.0,0.0,0.0,0.0
0.02681261708321481,-0.029324960957853936,0.7389967060506168,-0.006734614198655735,-0.521845045343602,-8.984308605105738e-05,0.8530137077152682,0.08573820819925072,-0.8321180402316837,0.9921502711952672,-0.07635160013260611,-0.8457267397561526,0.886356846658894,-0.10855410966083981,0.6861159255143073,1.0764014702194797,0.1991151321019462,0.7876997855144028,0.9723454850176202,0.0,0.0,0.0,0.0
0.025349652054518543,-0.031182701283057182,0.7392626099921303,-0.00682288223176186,-0.5211446195404899,-2.8397122697277895e-05,0.8534411127873165,0.09023407057107433,-0.8239660368293332,0.974833587458593,-0.07917651954432849,-0.8380608930659311,0.886122869660011,-0.11960404357584642,0.6873990993745277,1.0667726130970032,0.21357226594054923,0.7834867032993589,0.9764404539508167,0.0,0.0,0.0,0.0
0.023570360485619085,-0.03323714799588009,0.739536326057497,-0.007022512754889699,-0.5202568418329284,0.00015605403927045598,0.8539809590897044,0.09492344628121131,-0.8150888879071042,0.9547775654735665,-0.08252511733445722,-0.8307105992201046,0.8860355796435029,-0.13411070468968322,0.688662934777686,1.0580457444169222,0.23025216086404632,0.778087791882375,0.9810398348691988,0.0,0.0,0.0,0.0
0.021555137485062555,-0.03538492605722901,0.73968466604515,-0.007417408070564952,-0.5191179699590072,0.000563905701186654,0.854670227241779,0.09936637950122454,-0.807162731701482,0.933812586299695,-0.08662674269945471,-0.823713908934532,0.8863817594749298,-0.15573322442319398,0.6909981802553018,1.0513720156849127,0.24946518588996683,0.7712103231224542,0.9867954485643223,0.0,0.0,0.0,0.0
0.01951715423732598,-0.037373476592569274,0.7394671269932132,-0.00816857685603715,-0.5175486173916456,0.0014371089153751107,0.8556136030394259,0.10249546265724929,-0.8043736559741596,0.9169351149202497,-0.0918735509222135,-0.8169577635708266,0.8865018521923012,-0.19112829293802028,0.696907732223224,1.04778418533843,0.27196724633125774,0.7625064462553501,0.9946179868799486,0.0,0.0,0.0,0.0
0.017717619597184025,-0.03907205901509673,0.7387058175424864,-0.009387824366841385,-0.5154379281152095,0.0028869343911467255,0.8568706300392018,0.10386449449319969,-0.8100827845639846,0.9087095159894644,-0.10009770688186828,-0.8121498102940657,0.8866459954867305,-0.24679652412692188,0.7067461701569504,1.0492830188712863,0.29816593188938506,0.7519345853004655,1.005166539011492,0.0,0.0,0.0,0.0
0.016346545392237472,-0.04032298604018757,0.7372359140143,-0.010817223660204168,-0.5130051352422571,0.00470489080037762,0.8583044814574342,0.10342102887372492,-0.8242507864609839,0.9102301722511694,-0.11086345495739727,-0.8123691701940369,0.8868364226216581,-0.3066845701108794,0.7131851184178011,1.0582518926453035,0.3237033997443557,0.7390177200741513,1.019472554379258,0.0,0.0,0.0,0.0
0.016437231424800216,-0.04047167475778346,0.7372066428091818,-0.010756905827847829,-0.5129844748102521,0.004761717403006872,0.8583172744551018,0.10358152773192426,-0.8242915167066549,0.9102120974111059,-0.11089291213826645,-0.8123647570699363,0.886847234377963,-0.306709369470649,0.7132010541250654,1.0582635867429862,0.32375073241732877,0.7389686353960164,1.019450500896126,0.0,0.0,0.0,0.0
0.016437231424800216,-0.04047167475778346,0.7372066428091818,-0.010756905827847829,-0.5129844748102521,0.004761717403006872,0.8583172744551018,0.10358152773192426,-0.8242915167066549,0.9102120974111059,-0.11089291213826645,-0.8123647570699363,0.886847234377963,-0.306709369470649,0.7132010541250654,1.0582635867429862,0.32375073241732877,0.7389686353960164,1.019450500896126,0.0,0.0,0.0,0.0
0.01820648625575158,-0.040622759982287815,0.7377141148826647,-0.009850095501324038,-0.5171755783816399,0.002199057027771987,0.8558198180063487,0.10980922055679206,-0.800652644535521,0.8979638022916738,-0.10331667228172468,-0.8028926433839839,0.8862858497006404,-0.3559191122623235,0.747739696242862,1.0613968881699931,0.31711533512183065,0.7566204884166217,1.0203010677002196,0.0,0.0,0.0,0.0
0.0207600077095301,-0.04123225530862126,0.7376472201763599,-0.009024798185440278,-0.5221050168203721,-0.0006875156156400229,0.8528331793211315,0.11795663315577837,-0.7764378595212262,0.8869915333557938,-0.09394663740097718,-0.7963141781140471,0.892014825977343,-0.42785469624759953,0.7931175730525252,1.0683117627216887,0.31724552275333445,0.7779839737126439,1.0271603700916432,0.0,0.0,0.0,0.0
0.022606841620848618,-0.043988093316133965,0.7379834167214365,-0.011159911877406295,-0.5185114104896744,0.004764710218850572,0.8549846028411431,0.09452350170000279,-0.8052724755333641,0.8896245520507908,-0.10150708940019611,-0.8187927580158613,0.9308364339913745,-0.301039304663302,0.756583285380948,1.047322134422891,0.24803925811809657,0.7306751317645581,1.0292732321941314,0.0,0.0,0.0,0.0
0.026104420606578364,-0.044807239774499366,0.7385624388989108,-0.010597807138290881,-0.5251359736960939,0.0018616737085706571,0.850950309821389,0.08584034970575047,-0.800379997710073,0.9081175886129913,-0.09105515309447844,-0.8046565523223828,0.934829189940837,-0.3879284713689674,0.8184038670413473,1.0482825250754617,0.1583331936066576,0.7373770101060507,1.0364213309317658,0.0,0.0,0.0,0.0
0.02764432820201185,-0.048486094468721444,0.7380170653357279,-0.01273438648977761,-0.5212684105686589,0.006829928840326015,0.8532704328734174,0.06377501285657249,-0.829025466986208,0.9038188446965916,-0.0950170073394074,-0.8323048949537744,0.9761478822435607,-0.261427173294196,0.7770028786469427,1.031564354556756,0.1322464831046139,0.7068962363705124,1.0416572151581773,0.0,0.0,0.0,0.0
0.030876659861053233,-0.04995110110109729,0.7384098970047946,-0.011117773608623972,-0.5283314568277782,0.002041794660723987,0.8489629543806892,0.06321741013114685,-0.8188646713771089,0.922934097022189,-0.07850131840588309,-0.8219466568144441,0.9821511733903203,-0.3802941734803452,0.8505026486242109,1.0334502964959529,0.060829407320759685,0.7218872268408576,1.0509804146466233,0.0,0.0,0.0,0.0
0.03154293500022444,-0.05434335709364154,0.7383151623167962,-0.012773850372591046,-0.5243501484898888,0.006307563619994264,0.8513835593705518,0.04603578748948227,-0.8376243207377401,0.9114067640337553,-0.07871077683318702,-0.8480001883570003,1.0185048608054241,-0.25361577035425487,0.8082608085379405,1.0118619367208392,0.058735374867282,0.7001912162434738,1.057330564919146,0.0,0.0,0.0,0.0
0.03152756256732627,-0.0587513530261159,0.73766721185795,-0.015361570727242141,-0.5191758915126777,0.012002431417014126,0.8544450581850702,0.025256715584910792,-0.8636530896674941,0.8967595482008749,-0.08219688001231816,-0.8746089088968031,1.051000133625922,-0.1276220032057696,0.757478667215199,0.9921266077971531,0.08524317623964157,0.6809105215324321,1.0599924084643337,0.0,0.0,0.0,0.0
0.03374022665683142,-0.0599535929304198,0.7381289324780491,-0.012464656117178815,-0.5264057475507781,0.004976530613936219,0.8501275524510634,0.032377999275510945,-0.8540926946142957,0.9183017383967027,-0.06070280598308191,-0.8641575832939482,1.0508990551516215,-0.25375364139295703,0.8304116616162956,0.997216503862536,0.015427968710742673,0.69436612141406,1.0741944539927908,0.0,0.0,0.0,0.0
0.035138416834092516,-0.061740529918689085,0.7383259066223448,-0.011662632331672666,-0.5321597218168382,0.001111363822057761,0.8465629204928459,0.03225585697107126,-0.8533512804156046,0.9362679829471359,-0.045591101215598784,-0.8498043821048112,1.045485304678651,-0.3803840330674718,0.8990914944000151,0.9977061528619044,-0.014562783966888829,0.711303325362825,1.0855108898836894,0.0,0.0,0.0,0.0
0.03393464898144288,-0.0659480166659385,0.7381486738388728,-0.012417893440876016,-0.5278438662663946,0.004686158187619564,0.8492377103549255,0.01887006045595402,-0.8704005011793312,0.9202592331874986,-0.044467502293851977,-0.8714728005903611,1.0673886299226276,-0.2528979764521398,0.8469903644052237,0.9804394583764506,-0.00936800835750132,0.6867044568090446,1.0917045115784554,0.0,0.0,0.0,0.0
0.03196103724746389,-0.07055008696297291,0.7376936435952111,-0.014543536626853535,-0.5227515607955372,0.009880123075694037,0.8523037453843684,0.0014380119034593762,-0.888954819097529,0.8992541844270439,-0.045702998288619845,-0.8911023920076281,1.0841982275107027,-0.12643048843765645,0.7905655432566076,0.9622825728916257,0.018931499099413027,0.6651024157962181,1.0917274782798758,0.0,0.0,0.0,0.0
0.030490953032347782,-0.07440003852236521,0.7364181227806446,-0.01610652735818887,-0.5219785779772873,0.012293687009984655,0.8527178954196806,-0.011079537179759014,-0.9002837028604381,0.8907641017441807,-0.04133356191715518,-0.8958352591036057,1.0861462486993774,-0.09295884693647541,0.7734249375280315,0.9595434067473946,0.023331763210009637,0.6569000228974499,1.1005992688829966,0.0,0.0,0.0,0.0
0.03061240466176245,-0.07596592775134055,0.7361243324589876,-0.012276919917916912,-0.5285150744886496,0.004331310730879726,0.848824088385184,-0.0013880544119459666,-0.8888976459992849,0.9092545796944352,-0.01711082448470492,-0.8850606108759013,1.0755371184650455,-0.21223177477437521,0.8324814326849893,0.9748024346571948,-0.04985169122963119,0.6619149508401961,1.1077641581343534,0.0,0.0,0.0,0.0
0.0298148698920404,-0.07816691160960683,0.735840623413104,-0.009904746483371842,-0.5336678354795574,-0.0011841871289499405,0.8456353440298647,0.0007976155805995803,-0.8803658506870271,0.9244946413621555,0.0023400368354153343,-0.8705654100939976,1.0592408842079901,-0.3378553092432981,0.8890436497449701,0.9833871608083101,-0.08924729886608351,0.66967729157426,1.1071309150659339,0.0,0.0,0.0,0.0
0.0264779636471416,-0.08336998533077684,0.7359901598526876,-0.010155946299541451,-0.5296142933215156,0.0014836584788128421,0.848176488604719,-0.012534146409079643,-0.8849220188931393,0.9097748230233352,0.008564775758939578,-0.8844860656249551,1.0649334593319886,-0.21075025780175374,0.8332857970222488,0.964992353438741,-0.07538173618703381,0.6511820929897454,1.097436236774719,0.0,0.0,0.0,0.0
0.02232302387446703,-0.08960790384678377,0.7365465092058957,-0.012044270322672534,-0.5250264672725413,0.005853077987494161,0.850980543663474,-0.027429957932353356,-0.8869939259315935,0.8924232571528529,0.01408158007296326,-0.8941742374936711,1.0652998518693642,-0.08739782247591454,0.7798122962194147,0.9357912589216972,-0.03735862075035283,0.6399657042935468,1.082262956692285,0.0,0.0,0.0,0.0
0.018625972070160254,-0.09516123960317203,0.7364271912143747,-0.012247194581618359,-0.5252644814664202,0.006125605449998874,0.8508288357199487,-0.03048048317487482,-0.8777356434008681,0.8891842382809276,0.027939743230010194,-0.8880615303258765,1.0496888266737163,-0.07119578472127847,0.7728617921369321,0.9213134060991623,-0.042055863386170005,0.6349044624611414,1.0760849956517922,0.0,0.0,0.0,0.0
0.014645995833432363,-0.10083420231588733,0.7354492142569775,-0.012116762826851991,-0.5252556156528235,0.006044974962926706,0.8508367531797558,-0.033419206737850156,-0.8706413469059574,0.8853223433983815,0.042609369839815114,-0.8851725863399421,1.033700958877883,-0.0430176211270245,0.7562791964959957,0.9164093651557641,-0.05058900082612566,0.6287775728015279,1.067375342525481,0.0,0.0,0.0,0.0
0.010253576047851824,-0.10630145360017844,0.7339696643386938,-0.011782226914333378,-0.525186390017622,0.00572425994408885,0.8508864011824904,-0.03744243516494691,-0.8645015932132224,0.8805539258693028,0.05706123989442868,-0.881517831342096,1.0133407660734959,-0.014396136896029976,0.7351355269097909,0.9179283250241004,-0.05628856812486065,0.6231049879975123,1.0560398157526731,0.0,0.0,0.0,0.0
0.005601342424283579,-0.11156669807232905,0.7324664850273498,-0.011457590582405893,-0.5250207477367818,0.005435513926822337,0.8509949431414431,-0.04242627768675201,-0.8589096678087215,0.875619516115936,0.0707136946878891,-0.8756635260950142,0.9888312349084454,0.014378303514687878,0.7125877007532824,0.9197976448223963,-0.06139548732887941,0.6166534642198092,1.0435540286208689,0.0,0.0,0.0,0.0
0.000797225969171287,-0.11650336303786785,0.7310449922097803,-0.011218937164998768,-0.5248396942337957,0.005207242553670688,0.8511112238893639,-0.04905350666503068,-0.8537680395819862,0.871527480508184,0.0831949833769133,-0.8668875160381185,0.95998982319085,0.04108096411203482,0.6904216560368591,0.9210119438442618,-0.06901120620749654,0.6092146149814992,1.0303403425633952,0.0,0.0,0.0,0.0
-0.003629405845226992,-0.12106237049497934,0.7295474259227087,-0.011065610121879245,-0.5245350978268388,0.005054511139317314,0.8513019061047389,-0.05693865258623253,-0.8477546581444342,0.8671300817432679,0.09444966846454182,-0.8588765845136618,0.9324457732295323,0.06503723418108051,0.6693023277079629,0.9224674491968863,-0.08104076994319154,0.6022337779662468,1.0162694317801106,0.0,0.0,0.0,0.0
-0.007505210107855006,-0.12491962096888955,0.727956734929952,-0.01099882628880954,-0.5242186824088617,0.004958444515379752,0.8514982164759791,-0.06629166913802477,-0.8415915563403233,0.8634284114493712,0.10378762803242096,-0.8516687505366832,0.9069199195350248,0.08445452662869968,0.6498520288182285,0.9258457500739418,-0.10096718404433358,0.5948040779063744,1.0012026277717265,0.0,0.0,0.0,0.0
-0.010573131601524644,-0.1277414872136544,0.7262669990731534,-0.010996771667769247,-0.5239391803191661,0.004905729545468589,0.8516705584655337,-0.07605389719073188,-0.8363756421415571,0.8603766012068029,0.11050172411434497,-0.8462074379148627,0.8854995891924202,0.09801786809296702,0.6325486849333404,0.9327755633080113,-0.13134357193162668,0.5860876468847752,0.9850061011480722,0.0,0.0,0.0,0.0
-0.012426849294108984,-0.1292472345659257,0.7247001229989462,-0.011002495126030899,-0.523775091358302,0.004874328322684808,0.8517715889233489,-0.08331985374703345,-0.8335232391948962,0.8577632781915744,0.11404443973022665,-0.843662987625213,0.8718083226989785,0.10468835278086007,0.6195315749790887,0.9425260596371587,-0.16674739731504906,0.5771312043987641,0.9700790702070657,0.0,0.0,0.0,0.0
-0.012427429579835015,-0.1294178446500186,0.7245964947419419,-0.010906462104221679,-0.5237935404822075,0.004908974734551887,0.8517612799373653,-0.08334399863778102,-0.8335543374766874,0.8577690094241106,0.11427790972898938,-0.843754344498131,0.8716029742746605,0.1047154130652834,0.6194392099753476,0.9424322892907044,-0.16677089858967756,0.5771598966447115,0.9700832327022246,0.0,0.0,0.0,0.0
-0.01242742957983579,-0.1294178446500189,0.7245964947419415,-0.010906462104221002,-0.5237935404822035,0.004908974734553454,0.8517612799373677,-0.08334399863778515,-0.8335543374767066,0.857769009424122,0.11427790972898617,-0.8437543444981533,0.8716029742746793,0.10471541306528968,0.6194392099753332,0.9424322892906994,-0.1667708985896664,0.5771598966447004,0.970083232702221,0.0,0.0,0.0,0.0
-0.01242742957983579,-0.1294178446500189,0.7245964947419415,-0.010906462104221002,-0.5237935404822035,0.004908974734553454,0.8517612799373677,-0.08334399863778515,-0.8335543374767066,0.857769009424122,0.11427790972898617,-0.8437543444981533,0.8716029742746793,0.10471541306528968,0.6194392099753332,0.9424322892906994,-0.1667708985896664,0.5771598966447004,0.970083232702221,0.0,0.0,0.0,0.0
-0.010617538961736568,-0.13119485510550616,0.7250111008831992,-0.010820456125359618,-0.5244090631857239,0.005047297987931558,0.8513827441056881,-0.0794043599469965,-0.8354885267816794,0.8676392680500626,0.11863630469630931,-0.8518075774831236,0.8911877164359586,0.11631597547814077,0.6275351794043856,0.9315846945987323,-0.15909718359725694,0.5847423064473005,0.9744911627497906,0.0,0.0,0.0,0.0
-0.007027001213491433,-0.13466928452527324,0.7272692117411013,-0.010250079120462078,-0.525546773547871,0.0043048902899532815,0.8506920668555917,-0.06889662750936841,-0.833620125795222,0.8845202233381002,0.12976576099150697,-0.8650882288563092,0.9291752871983627,0.13203495022894268,0.6535968446707271,0.8973412721232321,-0.14968229898091437,0.6048171060967855,0.9678672266890314,0.0,0.0,0.0,0.0
-0.003483570464281115,-0.1380328179151903,0.729719204735106,-0.010465773799781166,-0.5252837297530737,0.004825188026156578,0.8508490984869078,-0.0619235477442005,-0.8411284131070622,0.9094142294671841,0.11642845434922947,-0.8551604198372951,0.9114744104124975,0.0999175531518841,0.6463352425985294,0.9394571961494653,-0.1274324132677836,0.6276050995270861,0.9570443325781144,0.0,0.0,0.0,0.0
0.0006786388311980783,-0.14173080204519595,0.7314489163718761,-0.010488332754048948,-0.5252244259054358,0.004920761036972654,0.8508848825893915,-0.05306344525829877,-0.8507413365689261,0.9374600865302138,0.10048679974759277,-0.8515273306886573,0.9012497735809762,0.0668418202340844,0.6472198152582055,0.9718008969854363,-0.1060697588023045,0.6481523704883718,0.9524984834802939,0.0,0.0,0.0,0.0
0.0049473499688068474,-0.14566815044441728,0.7324075744677984,-0.010278985468667725,-0.5252629374406299,0.004692566857528628,0.8508649533417529,-0.04277370290536123,-0.8606037231414442,0.9641886645526135,0.08615134693593728,-0.8520141357256548,0.8959732641125352,0.04126712466261152,0.6513426649619841,0.9958443793205874,-0.08533203763455335,0.6649567029680411,0.9548125901049154,0.0,0.0,0.0,0.0
0.009001471089483716,-0.14964749303008817,0.733184647964769,-0.009942269501916595,-0.5253537515314185,0.004303857246509489,0.8508149410076303,-0.03183131532073238,-0.8682943229190963,0.9869798533717496,0.07412488222447633,-0.8549654374111773,0.8941981856237773,0.022575796394991344,0.655798920444446,1.014837101403975,-0.06446900233112195,0.6806664782146903,0.9582846096253935,0.0,0.0,0.0,0.0
0.012657706483270035,-0.15354079139080262,0.7339606111184868,-0.009563246001349437,-0.5254219290565252,0.003870277067963673,0.8507792673472095,-0.020843112515450506,-0.8735076383131472,1.005260574521472,0.06414853822470726,-0.8594082555230362,0.8940989367351396,0.008353097183623552,0.6598515445243018,1.0305485377698635,-0.04300884914216985,0.6957952313291055,0.9610624797021791,0.0,0.0,0.0,0.0
0.015828304406902114,-0.15727413077607266,0.7347656722868835,-0.009188173841865287,-0.5254347901731686,0.003441095205676114,0.8507773020014787,-0.010152822219079873,-0.8764300018543499,1.0190840627018667,0.05548732263512191,-0.864732754663093,0.8944979288000483,-0.0034359702103789677,0.6633884417876695,1.0440954396155369,-0.020982587096230226,0.7101386999923293,0.9628711289834012,0.0,0.0,0.0,0.0
0.018496619547684404,-0.16080448255227334,0.735588419831464,-0.008839042922140314,-0.525385518337216,0.0030372069932211965,0.8508129664123811,3.5355880893272323e-05,-0.877412699376176,1.0288573542746908,0.047421509918502455,-0.8705140146774055,0.8947116995916847,-0.014043358040971862,0.6664356258689916,1.0561613038291,0.0013172038431338885,0.7234296344936082,0.9638740136198874,0.0,0.0,0.0,0.0
0.02068934889059004,-0.16411261419706136,0.7364104137735954,-0.008523808561368218,-0.52527875118654,0.002665311467460864,0.850883349440039,0.009617405742481225,-0.8768325409107693,1.035134735957281,0.03945714167177493,-0.8764179078919145,0.8943778940019006,-0.02416465189845628,0.6690486743305886,1.067127828152807,0.023514155296271076,0.7354924010413759,0.9643077745008275,0.0,0.0,0.0,0.0
0.02245249739736895,-0.16719973418466663,0.7372133402922687,-0.00824302505032993,-0.5251211684981627,0.002325342721241893,0.8509843733667338,0.01856750035096008,-0.875033529152826,1.0384715445118047,0.03135123672120359,-0.882099648398183,0.8933561441442064,-0.03418750006654811,0.6712958557952075,1.0771199215623302,0.0452791038229632,0.7462312767816748,0.9644147908811973,0.0,0.0,0.0,0.0
0.023832094812595496,-0.17008459349669047,0.7379779324468465,-0.007994025616290854,-0.524916061037448,0.0020143566371748833,0.8511140738976853,0.026921523979125964,-0.87229711172627,1.0393172974620397,0.023059457467262692,-0.8870834681577635,0.8917013394059737,-0.0443681324087426,0.6732572529062953,1.0859741993775271,0.06640725787665848,0.755572842672368,0.9644659459136745,0.0,0.0,0.0,0.0
0.024859952768319125,-0.17280092509175307,0.7386827257422026,-0.007773910767714743,-0.5246607016934965,0.0017288587007373423,0.8512741776052274,0.03476323707981379,-0.8688190647091268,1.0379368574046628,0.014663609745300787,-0.8906608214208753,0.8896839130367129,-0.05495269687097258,0.6750439481462025,1.093129636561299,0.08685468370589446,0.763413896602084,0.9647875606899705,0.0,0.0,0.0,0.0
0.025546888409045617,-0.1753955365739409,0.7393076551336757,-0.00758149299875954,-0.5243460392286118,0.001465973020674617,0.8514702596287668,0.04221407918397495,-0.8646850233780506,1.0343687927717886,0.006301900811393212,-0.8919036997276671,0.8877984268887669,-0.06625301593180596,0.6768918636112815,1.0974403536740078,0.10674215753155374,0.7696121769867417,0.965736397881425,0.0,0.0,0.0,0.0
0.025890131668134208,-0.17792655595275886,0.7398487635396557,-0.00741614582955319,-0.5239608936990582,0.0012215220918524057,0.8517091584214052,0.04943002278762124,-0.8598329835203109,1.0284515335621454,-0.0018823002321157242,-0.8899723529473909,0.8866440448146512,-0.07863043038814142,0.6793983846999342,1.0970201442901795,0.12630271702467857,0.7740739080571378,0.9675497256674791,0.0,0.0,0.0,0.0
0.025887811711367656,-0.18045869365353936,0.7403335006526985,-0.007275089328749203,-0.5234929516337066,0.0009921113462386041,0.8519983675924298,0.05657943508192343,-0.8540682818610448,1.019929066256308,-0.009783602792058883,-0.8849233443784214,0.8862418216166144,-0.09207397606357876,0.6824873514058697,1.0918507350423192,0.1458213652794551,0.7768657847911438,0.9701622832717701,0.0,0.0,0.0,0.0
0.025540457229366265,-0.1830621537653144,0.740818777963484,-0.007155494080640251,-0.5229276261314018,0.000777310686770183,0.8523466973721051,0.06383366083187743,-0.8470887595983688,1.0084727715830124,-0.01738104616575749,-0.8777225836420781,0.8860535723346552,-0.1062577800219411,0.685420824302665,1.0837929524109653,0.16563694978007007,0.7782070068660208,0.9732157027357334,0.0,0.0,0.0,0.0
0.02483940563625343,-0.18580941594674716,0.7413700769066481,-0.0070605260875998685,-0.5222473176365094,0.0005811651308230294,0.8527646512607847,0.07135621133270337,-0.8385231672874554,0.9936287279412916,-0.02477240799025936,-0.869432045733989,0.8856521412417077,-0.12101282759741933,0.6878217353160311,1.0740172026266928,0.18614032112829776,0.7783301792231101,0.9762609344726746,0.0,0.0,0.0,0.0
0.02376329744528238,-0.18876205942573376,0.7420378207776108,-0.007003875527021404,-0.5214290496742598,0.00041860511124130773,0.8532657948454052,0.07925395480028058,-0.8280513130001604,0.974885458868772,-0.03215823751170791,-0.8608710166015001,0.8848276318178243,-0.13641715497496076,0.6894513455589296,1.0632104337279566,0.20771205531316053,0.7773547128781169,0.9789388927673777,0.0,0.0,0.0,0.0
0.022291012660897294,-0.1919500485145802,0.7428385377629482,-0.007012343441479433,-0.5204452839121536,0.00032082268635058684,0.8538661666595418,0.08751532482787294,-0.8155805914699014,0.951895975741703,-0.039743270970893654,-0.8525346602607663,0.8835686242728701,-0.1529066663946432,0.6902045208974138,1.0518512905898119,0.23059311247794426,0.7752408515492392,0.9810710373254342,0.0,0.0,0.0,0.0
0.020426410299227857,-0.19533975718948626,0.7437304993396125,-0.0071305534339861625,-0.5192621062931769,0.00034388118582568533,0.8545852221524946,0.09592175680150482,-0.8015645129656443,0.9249196164595928,-0.047543126962428295,-0.8445718518995566,0.8819942639814127,-0.17160937955621577,0.6903339043532005,1.0404672231904009,0.2547497004329485,0.7717634341855604,0.9827604543469884,0.0,0.0,0.0,0.0
0.01823713953393034,-0.19878283807705005,0.7445734756368708,-0.007438921899070852,-0.5178120638247629,0.0006014544122718752,0.8554618444156987,0.10387527477554498,-0.7877524195165685,0.8957988521900692,-0.05519423894911354,-0.8366788389794979,0.8800454860360079,-0.19528502463305514,0.6910415420571204,1.0297138619903934,0.27992124415563535,0.7664586233163851,0.9845675856872091,0.0,0.0,0.0,0.0
0.01587822229850288,-0.20200410842428992,0.745090446872915,-0.008089439089435133,-0.5159132732309482,0.0013394170659626157,0.8566015768379549,0.1102482173212354,-0.7782887075904376,0.8692396135160405,-0.06251148987764239,-0.8280572966051455,0.8766684628484175,-0.22981849902781576,0.6950126576128068,1.0198639589608955,0.30634550362328067,0.7584938918785465,0.9877551599214887,0.0,0.0,0.0,0.0
0.013440716257887711,-0.2049308512134254,0.7449247095276811,-0.0092008697683833,-0.51342459989026,0.002664553789323,0.8580812457897768,0.11478933657451888,-0.7764522436115995,0.8486886272414461,-0.07142546865964347,-0.8195143309127995,0.8717287249279767,-0.2829535032597217,0.7036506248435016,1.0117109337048573,0.3345253906487686,0.7462861726361897,0.9949942681302856,0.0,0.0,0.0,0.0
0.011157113766382131,-0.2073204338124257,0.7436822860780931,-0.010727196930139947,-0.5102575251834228,0.0045591901537924235,0.8599426719408987,0.11702048510499563,-0.7861095619038367,0.8392601423066405,-0.08525551278737807,-0.8112224543626523,0.862481139869473,-0.35283762267973123,0.7159132331679797,1.0054810423103675,0.3617489346713379,0.7281109716875706,1.0086576774841822,0.0,0.0,0.0,0.0
0.009400504725052144,-0.2089766260015388,0.7415254944460669,-0.012386417640584804,-0.5067142139301597,0.006851139884138888,0.8619978793137841,0.11665348814079594,-0.8068006512726283,0.8431367440296047,-0.10250236628283872,-0.8072672992777808,0.8494010004881029,-0.4232869517348339,0.7258056898244536,1.0021254834331579,0.385016251596193,0.7064291971416035,1.0267317896588057,0.0,0.0,0.0,0.0
0.00955732548803821,-0.20926126145453358,0.7414748270454578,-0.012258906909044217,-0.5066448631890355,0.00695265224119547,0.8620396524710287,0.11698435782743274,-0.8068873263559052,0.8430068281718153,-0.10256290719327513,-0.807272188370948,0.849406164627119,-0.42333102706689496,0.7258162339451205,1.0021310177095037,0.3851236060272945,0.7063036825801656,1.0266089075883407,0.0,0.0,0.0,0.0
0.00955732548803821,-0.20926126145453358,0.7414748270454578,-0.012258906909044217,-0.5066448631890355,0.00695265224119547,0.8620396524710287,0.11698435782743274,-0.8068873263559052,0.8430068281718153,-0.10256290719327513,-0.807272188370948,0.849406164627119,-0.42333102706689496,0.7258162339451205,1.0021310177095037,0.3851236060272945,0.7063036825801656,1.0266089075883407,0.0,0.0,0.0,0.0
0.010699622349982927,-0.2107514641172498,0.7416632817226623,-0.011671522142055342,-0.5092487455967497,0.0058440637971029,0.8605203876709486,0.12300086024006408,-0.7891271062122369,0.8291538391508632,-0.09568446620219462,-0.8054796221324868,0.8559120751879292,-0.44128881075121923,0.7436299786808587,1.0030805695117608,0.39810118726860655,0.7192962668422829,1.0324490017904722,0.0,0.0,0.0,0.0
0.012415855311255239,-0.21351732964061504,0.7417552670104052,-0.011080276589149611,-0.5119292101738437,0.00461387744550878,0.8589437835949512,0.13257326981031978,-0.7697691426400031,0.8137276742627627,-0.0854583148232492,-0.810414471728593,0.87388827278793,-0.45555462889706305,0.764016554221109,1.001910656723591,0.42524122873708203,0.7361660745253424,1.041685863200807,0.0,0.0,0.0,0.0
0.014094296449923516,-0.21691837343487436,0.7433423278908136,-0.0123487619856237,-0.5134513173753048,0.006699671078606198,0.8580037104642525,0.11500910095874471,-0.7854146413994596,0.8378972132172988,-0.08138667962531396,-0.8089097952910237,0.8901315959311127,-0.41278553923431904,0.774737607242587,0.9815028897809744,0.33782991719414546,0.7149993520311069,1.0382236814677859,0.0,0.0,0.0,0.0
0.01576049816211914,-0.22065804929603608,0.7438409693377019,-0.013398254538678512,-0.5152402420330402,0.008294990116735007,0.8569009119519095,0.09887426300017373,-0.8000352229726874,0.8524300928233518,-0.07530567695566708,-0.8111708085847058,0.9082638279732198,-0.37302979547511594,0.7819863518829435,0.9703113075410231,0.257402433657579,0.6964940249929055,1.0387562027208233,0.0,0.0,0.0,0.0
0.017486365242847614,-0.2246797222703268,0.74354795908961,-0.013923671409659222,-0.5169966500790455,0.00903241403111836,0.8558265073473077,0.08710044797322264,-0.8122422011929838,0.8613181356410818,-0.06666463775633383,-0.8193968928803893,0.9309834992206129,-0.3406377522514793,0.7875093498247263,0.9654714551309168,0.19927259892286225,0.6854683110348966,1.0434964564679592,0.0,0.0,0.0,0.0
0.019170942648918717,-0.22877569922451732,0.7427769051613486,-0.013995553000484676,-0.518581641931221,0.00905407500534157,0.854865620360257,0.07786624083699792,-0.8226711575432287,0.8671264511755246,-0.05626718477763009,-0.8317224122265585,0.9560628325913627,-0.31507862083894655,0.7919326964516293,0.9644364386127421,0.16116603830793386,0.6809906175284062,1.0508561769909144,0.0,0.0,0.0,0.0
0.02061533121701792,-0.2326994532819928,0.7419312148633624,-0.013874003690256117,-0.5199642445557286,0.00881170212805815,0.8540298884177295,0.07030200459208324,-0.8321052730574153,0.8712949213641891,-0.045651975511456555,-0.8440810122395201,0.9790410315579297,-0.29200268682534486,0.7951378826657094,0.9640121142705713,0.13435759046978132,0.678621871248886,1.0601707532785563,0.0,0.0,0.0,0.0
0.021695315244043265,-0.2364144282233228,0.7411626219926867,-0.01379205906290976,-0.5208918531502027,0.008722353735733242,0.8534666818182545,0.06335771632920309,-0.8415539068168645,0.8734451092595954,-0.03589689547683127,-0.8557728078562998,0.999154571985389,-0.26486003485372966,0.7948002378493225,0.9624206670523452,0.1144888228007323,0.675469427932417,1.0701431976949964,0.0,0.0,0.0,0.0
0.022457537331823783,-0.23981174237631045,0.7405213525273953,-0.013686445044580546,-0.5216657079562682,0.008600747849023547,0.852996833230326,0.056792250293326525,-0.8507552315862918,0.8747092833962341,-0.02680068710097258,-0.8654811646732001,1.0153794112698038,-0.23921368224794862,0.7935630647803035,0.9602231881205043,0.09762788706997491,0.6719127951251967,1.0802906705202047,0.0,0.0,0.0,0.0
0.022949623721636652,-0.242874419760905,0.7399893622446262,-0.01351017592079726,-0.5224524151630492,0.008329497579698857,0.8525207144151723,0.05036813441553648,-0.8596177745879469,0.8756616761740325,-0.01814184340769734,-0.8728952433644218,1.0276950740691506,-0.21799319509624196,0.7928339452758407,0.9581054437598076,0.08165321527013852,0.6682936601981915,1.0903288398768158,0.0,0.0,0.0,0.0
0.023175710216008876,-0.24569336033136535,0.7395342138455251,-0.013298146004539069,-0.5231958794610806,0.00798170332284755,0.8520713135881611,0.043723793208909546,-0.8682046155438703,0.8761236134425544,-0.00990106559545908,-0.8785633398836681,1.0368281123350156,-0.19926982760965062,0.7918917723207414,0.9560898178487607,0.06612392987515954,0.6643378736961006,1.0998562358632546,0.0,0.0,0.0,0.0
0.02312219641737337,-0.24838246806932493,0.7391234554293818,-0.013077234349781986,-0.5238412530651514,0.007620625920990095,0.8516814272892566,0.03668053132006823,-0.8762046865244432,0.8759866608364217,-0.001961459667508275,-0.8829977758974532,1.0433602286709696,-0.18111503885971272,0.7899637479410361,0.954107275646165,0.05106705335183074,0.6598683812902497,1.108370142205632,0.0,0.0,0.0,0.0
0.02276861523411729,-0.2510355895168193,0.7387230305589859,-0.01282545577749121,-0.5244178292950799,0.0072136149161301,0.851333901451938,0.029361403366118467,-0.8827616146833376,0.8755632688359885,0.005986531170540432,-0.8863635226032631,1.0474225370130024,-0.16343018513318042,0.787007100918124,0.9523532193045545,0.03636317880914663,0.6550602844437162,1.115154235516845,0.0,0.0,0.0,0.0
0.022059216852071146,-0.2537740979846216,0.7382911900439555,-0.012575219307859544,-0.5248502033034385,0.006841308801161026,0.8510742179419993,0.02176283685670896,-0.8870666410011393,0.8750092025268756,0.014045195587795071,-0.8890569489308782,1.0492405294630172,-0.14401950163823088,0.7819295457864078,0.9507633178670754,0.02278978425118805,0.6499846305622192,1.1189375546291314,0.0,0.0,0.0,0.0
0.020945722075449803,-0.25667999727099633,0.7377940103060154,-0.012327070773415971,-0.52512923868415,0.006518690068925594,0.8509082398736879,0.014030132752287426,-0.8882595900432081,0.8747299311877527,0.022378180453646635,-0.8911525061199265,1.0486969490572704,-0.12236827425292013,0.7743518486855616,0.9494212863291758,0.010993557168239911,0.645384870587011,1.1178213872810125,0.0,0.0,0.0,0.0
0.019409585648849675,-0.25978131735473015,0.7372159445545178,-0.012034961607851316,-0.5253418055440084,0.006155223986487129,0.8507839092651759,0.006465022870448322,-0.886195344804795,0.8749966013884916,0.03126616167365675,-0.892330064718764,1.0453593393710594,-0.10009919556753817,0.7649583530307087,0.9485742944003023,0.0005584494247985235,0.6415570074403151,1.1118771441945425,0.0,0.0,0.0,0.0
0.017431036358044,-0.2631256419150939,0.7365691846185698,-0.011729249264949651,-0.525453449922998,0.005803645750747092,0.8507217020693078,-0.0009781275276538222,-0.8819122446739911,0.8751801115446851,0.04068896677393007,-0.8925472776852037,1.039150812910909,-0.0763611323629046,0.7534954841417798,0.9477894149215768,-0.008691009221314747,0.6377213542520058,1.1029478816102718,0.0,0.0,0.0,0.0
0.015005001709480187,-0.26671950032516945,0.7358819333798484,-0.01142688167092957,-0.5254679390281279,0.005482592976329559,0.8507189974386761,-0.008324879739854305,-0.8764111287888948,0.8748334418552515,0.05060025612632436,-0.8915276457622826,1.0297959715641756,-0.051327076109040776,0.7402174780824315,0.9466317597665502,-0.017152963753477905,0.6335775408256875,1.0921893870002382,0.0,0.0,0.0,0.0
0.012135283259381712,-0.2705264898573615,0.7351776220124161,-0.011141735910682966,-0.5254030003361823,0.005198192798836039,0.8507646723684877,-0.015662012094155575,-0.8704716037657161,0.8738008656638426,0.060866740942217584,-0.888887563292535,1.0168834085194547,-0.02566880845576039,0.7255298488469408,0.9448493838348292,-0.025245034455582863,0.6290267349056406,1.0802291927631877,0.0,0.0,0.0,0.0
0.008843273503254444,-0.2744671958544194,0.7344725666342509,-0.010891553045167477,-0.5252767668275252,0.004957882221718412,0.8508472904742435,-0.023165823672422037,-0.8646090915232191,0.8721824210725548,0.07123826638485982,-0.884240714386413,1.000004376866829,-0.00022127840918110056,0.7098541508628938,0.9423757698002835,-0.033447026303850616,0.6240069195010602,1.0673625498915094,0.0,0.0,0.0,0.0
0.005186955044081476,-0.27841789263522365,0.7337736129311077,-0.010696822073394294,-0.5251064167870233,0.004770540086576857,0.8509559747683222,-0.0310407580216467,-0.8590519904126279,0.8703054981985311,0.08135353872672407,-0.8773203708485068,0.9789547124722698,0.02409880352628516,0.6936281282198306,0.9393644610132985,-0.04245700372448,0.618456196993958,1.0537162363088084,0.0,0.0,0.0,0.0
0.0012831635279601226,-0.28222141754179414,0.7330584165542021,-0.010593919381716454,-0.5248761474475132,0.004697691171231523,0.8510997182530669,-0.03949024741337494,-0.8537998901424727,0.8685627950349278,0.09065549581052265,-0.8683174638421665,0.9541719165575981,0.04685957557848774,0.6769841846936674,0.9362460847691737,-0.05289142456171713,0.6124108590965567,1.0393706965645897,0.0,0.0,0.0,0.0
-0.002712955410259061,-0.28571464681122194,0.7322643950532807,-0.010579711662617714,-0.5246149441242802,0.0046727587160350385,0.8512610618538803,-0.049522215912115565,-0.8486044085745652,0.867323766947399,0.09893470493805466,-0.8577441289553527,0.9264858512088053,0.06674287101940973,0.6603355091070947,0.9341471864365796,-0.06723609698526226,0.6060211517772174,1.024080517272361,0.0,0.0,0.0,0.0
-0.00626218788803767,-0.2887443193162411,0.7312904150178359,-0.010628255741334696,-0.5242846864379354,0.004697077371700824,0.8514637662347921,-0.060412743126576594,-0.8429171537446347,0.8661070443857662,0.10593078678696136,-0.8487201500510618,0.9011547788763535,0.0832775858937534,0.644463285720564,0.9341494873907115,-0.08784973310925959,0.599589860874489,1.0079680461428298,0.0,0.0,0.0,0.0
-0.009091197979576228,-0.29099135297610323,0.7301552326565058,-0.010706119714865106,-0.5239896755274767,0.004727885969361853,0.8516442015510476,-0.07128088445527,-0.8380442200780112,0.8656677419438626,0.11102970778215955,-0.8418541163295243,0.8800667880913374,0.09493144037634832,0.6302837488070262,0.9376147453102512,-0.11745310109807165,0.5920636777884244,0.9912264224816654,0.0,0.0,0.0,0.0
-0.010802089135761373,-0.29218940716650793,0.7290118786031372,-0.010753685337559231,-0.5238111890072694,0.0047412166915767025,0.8517533195630851,-0.07929545174008427,-0.8357203506728313,0.8659412121834544,0.11371277773519907,-0.8384048380697556,0.8667555433303926,0.10064768479715873,0.6195888969141794,0.944373383749592,-0.15098272574817048,0.584378686694609,0.976040153568445,0.0,0.0,0.0,0.0
-0.010811418497481351,-0.2923310184035031,0.7289326783420679,-0.010667133127904422,-0.5238225955239341,0.004766802434043792,0.851747250235629,-0.07931476955975508,-0.8357490951830482,0.8659472427117465,0.11391191629608848,-0.8384857542660288,0.8665640994444469,0.10067037152753833,0.6195033091086986,0.9442869437405531,-0.15100532456907081,0.5844076816140779,0.9760460092100107,0.0,0.0,0.0,0.0
-0.010811418497481393,-0.2923310184035031,0.728932678342068,-0.010667133127904422,-0.5238225955239341,0.004766802434043799,0.851747250235629,-0.07931476955975508,-0.8357490951830483,0.8659472427117466,0.11391191629608845,-0.8384857542660287,0.8665640994444468,0.10067037152753842,0.6195033091086986,0.9442869437405531,-0.15100532456907073,0.5844076816140779,0.9760460092100107,0.0,0.0,0.0,0.0
-0.010811418497481393,-0.2923310184035031,0.728932678342068,-0.010667133127904422,-0.5238225955239341,0.004766802434043799,0.851747250235629,-0.07931476955975508,-0.8357490951830483,0.8659472427117466,0.11391191629608845,-0.8384857542660287,0.8665640994444468,0.10067037152753842,0.6195033091086986,0.9442869437405531,-0.15100532456907073,0.5844076816140779,0.9760460092100107,0.0,0.0,0.0,0.0
-0.00903454134082459,-0.2940076914321328,0.7293525196108162,-0.010591562129776274,-0.5244332778634994,0.004907671687395102,0.8513715232726577,-0.0756123193010473,-0.8375892999874249,0.8756045284755388,0.11800027625419574,-0.8462618338381579,0.8857003079892111,0.11179897352224998,0.6274710622113421,0.9338913524710234,-0.1433667534486791,0.5922136357405487,0.9797524239813221,0.0,0.0,0.0,0.0
-0.00550969055468376,-0.2973079280240946,0.7315597427458634,-0.010018970911972434,-0.525567828070643,0.004152706565827779,0.8506825690862311,-0.06549731430443605,-0.8355761364720755,0.8919925652004309,0.1286734288940573,-0.8591487537455769,0.9228190160377719,0.12638872004347496,0.6530732702330505,0.9010243310277195,-0.13440999648588525,0.6122014447904113,0.9724886373598418,0.0,0.0,0.0,0.0
-0.0020023675763123218,-0.3005039567695233,0.733927719424791,-0.010240607014523463,-0.5253033176690907,0.0046529922055899234,0.8508407042903832,-0.05887117880388797,-0.8432325789109668,0.9167836272993599,0.1153143609176569,-0.8504787018778583,0.9070306122498405,0.09443497987432485,0.6461883033130008,0.9422430717902882,-0.11252172988313633,0.6347397783195853,0.961340913802186,0.0,0.0,0.0,0.0
0.002103127237095728,-0.3040194198832308,0.7355679361356479,-0.010259943893755763,-0.5252339564070644,0.004722392546815105,0.8508829082764048,-0.050383814200615155,-0.8529714305673735,0.9446143894085846,0.09920212898299166,-0.8476404004971647,0.8977865200274227,0.061390690756938524,0.6472311392433677,0.97400017412073,-0.09167361413197819,0.654943559649235,0.9564794865117064,0.0,0.0,0.0,0.0
0.006267413974802086,-0.3077664381067699,0.7365106295025128,-0.010052757533739784,-0.5252631072411852,0.004478631933999206,0.8508687043800017,-0.04050145400505349,-0.8625542240445291,0.9706646669444341,0.08468594813679578,-0.8486555372294193,0.8931043480101238,0.03581545107577555,0.6511917687581923,0.9977056680868207,-0.07140616623890778,0.6716811856592849,0.957874774262598,0.0,0.0,0.0,0.0
0.010213725474784125,-0.31156101276388914,0.7372825512099337,-0.009720115503966585,-0.5253380169874693,0.004077297056069356,0.8508283392735455,-0.029971405860064727,-0.870020624925288,0.9928750669080006,0.07241961823828497,-0.8518951681252046,0.8915372771907653,0.01695736189952705,0.6554571514486366,1.016494640313024,-0.051043319414606575,0.6872980694697355,0.9604199405568464,0.0,0.0,0.0,0.0
0.013761682057563859,-0.31528670068306053,0.7380522416536256,-0.00934657588003871,-0.5253877664362805,0.003633910087407271,0.8508038146928419,-0.019369741206752434,-0.8750608500188807,1.0106379649857946,0.06220405376079874,-0.8564797405844292,0.8914366849567411,0.0024673755189201993,0.6593100066538088,1.0320792674712211,-0.030068474295526202,0.7022499858920717,0.9624283971157279,0.0,0.0,0.0,0.0
0.01682673894484209,-0.31887361598911895,0.7388501908746984,-0.008978013232967569,-0.5253804914012691,0.0031975027179096576,0.8508140281575749,-0.009026233343949416,-0.8778498405212735,1.0239958356387546,0.05332908988127115,-0.8618518150436406,0.8917206571273254,-0.009627546958480008,0.6626354910382075,1.0455359647823872,-0.00849000930160377,0.7163525929121433,0.9636238089640953,0.0,0.0,0.0,0.0
0.01939511024027977,-0.3222799853428182,0.7396675237915664,-0.008635640879493032,-0.5253102664130407,0.002788323654247403,0.8508623713379619,0.0008625601755539898,-0.8787213139600927,1.0333459178843016,0.04508683534161049,-0.8676221481781662,0.8917648146789108,-0.02053620603568519,0.6654595692777856,1.0575252623994043,0.013408445054836952,0.7293727146055549,0.964132551328735,0.0,0.0,0.0,0.0
0.02149568433643606,-0.3254866378237944,0.7404877673590905,-0.008326590184806696,-0.5251824350923999,0.002412223047652941,0.8509455087996409,0.010196922127128263,-0.8780369835899238,1.0392341017885822,0.03698869298497631,-0.8734820808291346,0.891243032056477,-0.030931314945162,0.6678422442220014,1.0684159572603535,0.03525459020919255,0.7411631616800639,0.9641552495302484,0.0,0.0,0.0,0.0
0.02317595148656583,-0.32849429184048196,0.7412936015887562,-0.00805069674696196,-0.5250040192538057,0.002068231210659926,0.8510591568562653,0.0189533444339733,-0.8761306054864202,1.0422092852190776,0.028793649998706802,-0.8791045995323381,0.8900362491719106,-0.04119196331972069,0.6698582085827904,1.0783256972788189,0.05672240819831263,0.7516475706841335,0.9639071793375477,0.0,0.0,0.0,0.0
0.02448283226213765,-0.3313210178957549,0.7420660707563193,-0.0078047420811160175,-0.5247782782610054,0.001752564851538618,0.8512013705245681,0.027168900662922428,-0.8732777753306494,1.0427164531896185,0.020457618804177263,-0.8840261897426073,0.8882110898513148,-0.05157390010215948,0.6715939948385748,1.087086994711394,0.077610967936509,0.7607643286506733,0.9636403927198077,0.0,0.0,0.0,0.0
0.025448622524053426,-0.33399991979253935,0.7427836895861063,-0.007585460446550098,-0.5245021593793981,0.001461041276920336,0.8513740722823014,0.03492801535013401,-0.8696716528571466,1.0410176515226992,0.012061650526778494,-0.8875469435407466,0.8860433679880205,-0.06232609811133659,0.673166319507934,1.094136541689181,0.0978814320052417,0.7684169308792907,0.9636682843861116,0.0,0.0,0.0,0.0
0.026084433583236373,-0.33657737322834164,0.7434262425537348,-0.007391440325617957,-0.5241661193156799,0.0011902364081307411,0.8515831311790681,0.04235279203965085,-0.8653973174469205,1.0371501122532791,0.0037421339273083463,-0.8887450496411841,0.8840282328018224,-0.07376272388672821,0.6748156619635184,1.0983272978384664,0.11766003399800241,0.7744665130556551,0.9643386343589608,0.0,0.0,0.0,0.0
0.02638779491003225,-0.3391113849195777,0.743989556218547,-0.0072218439140247954,-0.5237585238053004,0.0009354558543460494,0.8518356523614861,0.04960041564949427,-0.8603925537740192,1.030951343253949,-0.00436087612225251,-0.8867853670441691,0.8827631581613979,-0.08624401376843217,0.6771424397152069,1.0977728164495681,0.13718406085598717,0.7788207721599618,0.9658824368908949,0.0,0.0,0.0,0.0
0.02635715456713152,-0.3416670688416093,0.7445010094685758,-0.007073773033857634,-0.5232665105908167,0.0006929050359871238,0.8521394489822586,0.056841366932707735,-0.8544620455379246,1.0221636584552118,-0.01214768615801479,-0.881727032530411,0.8822677885707129,-0.09976136722853247,0.6800698251195019,1.092457147870941,0.15674445885870203,0.7815476532490092,0.9682282942100832,0.0,0.0,0.0,0.0
0.025993427637823873,-0.34431528604344935,0.7450175800636812,-0.006944422743941711,-0.5226748445343068,0.00046195226066693136,0.8525037058476054,0.06424907368704141,-0.847303302054905,1.0104569831582442,-0.019605720488004266,-0.8745364962078244,0.8820030146614808,-0.11399474620140042,0.6828541847245743,1.0842456947774926,0.17668622780990517,0.782867764534802,0.9710101523110233,0.0,0.0,0.0,0.0
0.025288540003891236,-0.3471285858850818,0.7456046509807804,-0.006837046026687553,-0.5219654976197665,0.000246599862533036,0.8529391615377302,0.07198694984904097,-0.8385466966303323,0.9953790457546527,-0.02684284792409444,-0.8662737466089151,0.8815376294551971,-0.12877762788912686,0.6851099554194681,1.0743148331234524,0.19739770312541205,0.7830139151679671,0.9737701761121609,0.0,0.0,0.0,0.0
0.024221949100296628,-0.3501670952645436,0.7463121918928252,-0.006765528053189361,-0.5211154533106469,6.20249061644207e-05,0.8534593769500172,0.08015690893212853,-0.8278782601146503,0.9764269437438176,-0.034068362039266546,-0.8577508874055592,0.8806513439001931,-0.14418983304108546,0.686591065800394,1.0633611275881127,0.21924121596498833,0.7821033857173949,0.9761394575282478,0.0,0.0,0.0,0.0
0.02277350596629876,-0.353456521059476,0.7471555470430924,-0.006756954403249279,-0.5200976545612425,-5.9978698252396564e-05,0.8540800721768671,0.08873435159748808,-0.8152205964193562,0.9532751637531119,-0.04148722599885431,-0.849445985050091,0.8793138394787884,-0.16067487841789374,0.6871934779750379,1.0518809714593869,0.24241503549743607,0.7800895835805173,0.9779303212119861,0.0,0.0,0.0,0.0
0.020947955995860492,-0.3569543133910559,0.7480901600849235,-0.006856554827709651,-0.5188785941095627,-6.211230847744852e-05,0.8548204421823564,0.0974751663658889,-0.8010647435345843,0.9262325908734231,-0.049096569853592724,-0.8414717285096134,0.8776070105187227,-0.1794000804454489,0.6871962419537813,1.0404305086018013,0.2668108336616156,0.7767292672384662,0.9792435427109006,0.0,0.0,0.0,0.0
0.018813510827051013,-0.3604956681958536,0.7489689704494513,-0.007148173931312599,-0.5173842374955987,0.0001772438598005218,0.8557233332013098,0.10572499492115042,-0.787293683582984,0.897292104323705,-0.05651610046328209,-0.8334405817303736,0.8753415503096299,-0.2032492402929618,0.6878872479264156,1.0296514592256125,0.29209998484468613,0.7715118484299808,0.9806552661854865,0.0,0.0,0.0,0.0
0.016508471851913262,-0.3638082289069773,0.7495108200462887,-0.0077806200138836965,-0.5154356395210166,0.0008954403102276896,0.8568925029724622,0.1123870632705033,-0.7779576631032252,0.8709961690151699,-0.06364008116929759,-0.8245663679351091,0.871425385709923,-0.2381466352478432,0.6918414730750743,1.019872630899286,0.31842534693970725,0.7634990218994211,0.9835143055977497,0.0,0.0,0.0,0.0
0.01409757754418349,-0.36681314259436215,0.749320679019938,-0.008864211143650555,-0.5128882559673729,0.0021931943798162313,0.8584068106381494,0.11720907426041477,-0.776349653369873,0.8506370262999432,-0.0724495109617992,-0.8155408920470414,0.865343958954684,-0.2913514141666492,0.7002862652649209,1.0118473287266807,0.3461041623374451,0.7507914532269486,0.990876491080506,0.0,0.0,0.0,0.0
0.011828536032032622,-0.3692513598011867,0.7480323955790174,-0.010348388501839357,-0.509657592285762,0.004048241486346714,0.8603055627053466,0.11968738772695306,-0.7863160506057864,0.8414530786646527,-0.08627725360901635,-0.806523259283223,0.8541538324554945,-0.36126789992760644,0.7121235877595852,1.0059095368031277,0.37229598648669493,0.7318570829712892,1.0048148001738029,0.0,0.0,0.0,0.0
0.010068793124239249,-0.3709167593943712,0.7458522178794805,-0.011967356020735759,-0.5060320710378611,0.006318542812510463,0.8624084887614063,0.11943877447389287,-0.8074108980654207,0.845673030812789,-0.10373723789256191,-0.8013471929278408,0.8380005832751816,-0.43182933535906853,0.7213300285645867,1.0030852452514138,0.3943087766187706,0.7094266876440865,1.022872896287301,0.0,0.0,0.0,0.0
0.010230990158282332,-0.3712115513819114,0.7457994103142103,-0.011826538521444009,-0.5059560592609393,0.006420331554332342,0.862454276136697,0.11979195709509363,-0.8075016138419482,0.8455410001105031,-0.10379950925696296,-0.8013509587373591,0.8380050425070629,-0.43187545898155605,0.7213389452628929,1.0030906286275265,0.39441917758173606,0.709303627997437,1.022747171405013,0.0,0.0,0.0,0.0
0.010230990158282332,-0.3712115513819114,0.7457994103142103,-0.011826538521444009,-0.5059560592609393,0.006420331554332342,0.862454276136697,0.11979195709509363,-0.8075016138419482,0.8455410001105031,-0.10379950925696296,-0.8013509587373591,0.8380050425070629,-0.43187545898155605,0.7213389452628929,1.0030906286275265,0.39441917758173606,0.709303627997437,1.022747171405013,0.0,0.0,0.0,0.0
0.011369474683928432,-0.37277610711676035,0.746001014466544,-0.01132049483363927,-0.5084672290845199,0.005451257496642611,0.8609896672640951,0.12567005539878195,-0.7903838756919955,0.8321090550173519,-0.09709712193318294,-0.799898070017219,0.8450915719755532,-0.4472140518785255,0.738280020850228,1.0036729485117528,0.4094919888955945,0.7225344158466384,1.0284499146997617,0.0,0.0,0.0,0.0
0.013085875107434917,-0.37562458620817457,0.7460918903741531,-0.010806250639694568,-0.5110664888478577,0.004378404637595385,0.8594620983479516,0.13508706112428842,-0.7716538246470052,0.8170703759306657,-0.08708099817487788,-0.8052472543989384,0.8638085970537781,-0.4583902489371627,0.7576081803532754,1.0023534152671787,0.43932316308624825,0.7397559901229086,1.0377014820335126,0.0,0.0,0.0,0.0
0.01487973165556157,-0.3789964349501023,0.7477165514889796,-0.012051708538349163,-0.5129010952148607,0.006338694912679192,0.8583397018637242,0.1176876294981806,-0.7860366675889184,0.840818273926103,-0.08270652612276902,-0.8026837482498205,0.8796175172591785,-0.4202839828868556,0.7709733132211422,0.9825115317441594,0.34966083869285014,0.7188821979175612,1.0353955236856576,0.0,0.0,0.0,0.0
0.01667647810937802,-0.3827365410133107,0.7482451146181368,-0.01311151657499649,-0.5149160830738391,0.007894562137413649,0.8571039560133049,0.10168185040525944,-0.8000317629148403,0.8552947208106558,-0.07649471979589331,-0.8043486489039252,0.897943061717056,-0.3831134432252776,0.7801625949492959,0.9716624133313316,0.2672432006488969,0.700498056119964,1.0366959249439403,0.0,0.0,0.0,0.0
0.0184835567296505,-0.38681747938549643,0.7479564878436673,-0.013707404337249098,-0.5167012460166536,0.008743864059413567,0.856011375083581,0.08990584056451897,-0.8120224632325777,0.8636767889661485,-0.0679889986825629,-0.8127393318518423,0.9215070271639152,-0.3494421936481177,0.7858332416995247,0.96678895269886,0.2079358449853094,0.6890148075906454,1.0417823337069936,0.0,0.0,0.0,0.0
0.020219738597845448,-0.3910008403303537,0.7471800268407534,-0.013866108145174114,-0.5182193125038934,0.00892740376206239,0.8550887536712007,0.0805592299302084,-0.8224040769369927,0.8688320615727729,-0.057797291385442796,-0.825618825210292,0.9477088696817233,-0.32102502340305733,0.7895429663924551,0.9654772375078642,0.16947256317533327,0.6840021094864238,1.0492779287502934,0.0,0.0,0.0,0.0
0.021710150941464536,-0.3949931472738822,0.7463086213988016,-0.01380941846855708,-0.5195451007881735,0.008810211374941807,0.8542859991736349,0.07286637429588662,-0.8319812202216921,0.8726258623195368,-0.04734733375153621,-0.8385380555335576,0.9716671235882258,-0.2957459808228767,0.7920607245298239,0.9650032919883766,0.14272396141839205,0.6813736415455175,1.058750761030687,0.0,0.0,0.0,0.0
0.022892287527337775,-0.3986646664616,0.7455187027610263,-0.013634667560326172,-0.5207513706682964,0.008508546765918269,0.8535570926537616,0.0662914798426706,-0.8409346814923886,0.8756288734172812,-0.03718584958056828,-0.8496667845965984,0.9916339146778048,-0.273619413259005,0.7941278873706373,0.9643395925891951,0.12178942007905418,0.6793650465960821,1.0691162673122518,0.0,0.0,0.0,0.0
0.02369449893272178,-0.40210095267436924,0.7448546737395488,-0.013551995439186441,-0.5215209905423626,0.00842995306843865,0.8530891722056922,0.05972419497762388,-0.8502253713876352,0.8768072082459624,-0.02812296760840413,-0.8596837026622018,1.0084533064307493,-0.24715006296658718,0.7927402435189252,0.962260746432599,0.10503267860822495,0.6759272433904809,1.0794297243254196,0.0,0.0,0.0,0.0
0.024204116178370014,-0.40522548169610934,0.7443146634665424,-0.013426262218184545,-0.5222354167733265,0.008260944697542804,0.8526556525017251,0.05323078144743803,-0.8592375060527155,0.8774751431378108,-0.019579854795593144,-0.8675449980377195,1.0214382355405247,-0.22376979114134438,0.7912798244433532,0.9598918019150756,0.08946354550584242,0.6721984181672224,1.0895503853364654,0.0,0.0,0.0,0.0
0.024458177929163976,-0.40807272980286824,0.7438546105911027,-0.01321741526860684,-0.5229985119932128,0.007916601529888406,0.8521943345309915,0.04667693773448401,-0.867787092630551,0.8780152094879909,-0.011290068176780629,-0.8733305888698962,1.0308831415399622,-0.20496657974987822,0.790478824318958,0.9578845920376907,0.07396478061820973,0.6684838340541529,1.0992381736013737,0.0,0.0,0.0,0.0
0.024434878897785714,-0.4107752491332246,0.7434374418552752,-0.012983849934444234,-0.523689912637295,0.007527136156833526,0.8517767531836605,0.039766901224417756,-0.8757196928917728,0.8780615386952436,-0.0032607495790297914,-0.8777801408797374,1.0375990690042944,-0.18734475914176177,0.7889345784495359,0.9560297086649022,0.058835981456927366,0.6643549087023958,1.107948075117921,0.0,0.0,0.0,0.0
0.024098609070385198,-0.41345947046122933,0.7430293499230737,-0.012756668314073202,-0.5242406011521618,0.007168392828805683,0.8514444630516994,0.032427717616328414,-0.8823901365634859,0.8775758868112166,0.004634014311923855,-0.8813705432357166,1.0420216898843797,-0.16869220175701677,0.7856783142747472,0.954191128149561,0.04447068125291413,0.6596554635915239,1.1148909490447536,0.0,0.0,0.0,0.0
0.02341246219798223,-0.4162115188668814,0.742588599197252,-0.012514169851460802,-0.5246779787212045,0.0068100551014879645,0.8511815536931441,0.024844392604012985,-0.8867471463934525,0.8770576911963642,0.012679824766048392,-0.8841850937916709,1.0440885536819522,-0.14905497090281014,0.7806038930470806,0.9526405994012207,0.031072828045993043,0.6547700974115607,1.1188631813776884,0.0,0.0,0.0,0.0
0.02233237151616781,-0.4191052748374785,0.7420785966261139,-0.0122438084116933,-0.5250138161673872,0.006441285385734067,0.8509812523384486,0.017204114146930932,-0.8879002781686254,0.8770062670674541,0.021079838248565987,-0.8862424071065819,1.0436298205400583,-0.1282949924071417,0.7735012710614676,0.9515766640692868,0.01913849290713633,0.6504828488736284,1.1179842200760748,0.0,0.0,0.0,0.0
0.02082334435371612,-0.42220537589184476,0.7414888224814902,-0.011954080669917676,-0.5252361473676095,0.006083469170927668,0.850850798234693,0.009607750537123561,-0.8859041075181993,0.8773358600149881,0.02993588357362842,-0.887524279003793,1.0405102006416944,-0.10590628488210493,0.7641355859962479,0.950854696750438,0.00884424074322857,0.6468033501345394,1.1122407512305479,0.0,0.0,0.0,0.0
0.01887244490720232,-0.42554602016803467,0.7408336341724168,-0.011648307577409913,-0.5253595497956141,0.0057343068789882925,0.8507812751193748,0.0021319114913447915,-0.8816596913562507,0.8775885223476668,0.03932905229633062,-0.8878324565360056,1.034508458818533,-0.08209024246094283,0.7527320962211248,0.950173747962054,-0.00032063818092566317,0.6430820085049953,1.1035096595456806,0.0,0.0,0.0,0.0
0.016474367295417076,-0.42913363591036874,0.7401387029928116,-0.011340988326824689,-0.5253897479428753,0.0054088891774814185,0.8507689102559863,-0.005244697910900395,-0.8761892828920689,0.8773436722971926,0.04922093745458505,-0.8868933796976181,1.02534492808058,-0.05705526796818175,0.7395470851005302,0.9491366122771404,-0.008740702340069344,0.639042090409677,1.0929527120424842,0.0,0.0,0.0,0.0
0.013631357982630257,-0.432936142402927,0.7394278467069471,-0.011048609836585949,-0.5253380974686621,0.005119766847577782,0.8508064407114652,-0.012614661023521673,-0.8702931041090024,0.876427439185039,0.059474142047994165,-0.8843465162674022,1.012629326678196,-0.03134482647729046,0.7249294830244098,0.9474629990795077,-0.01678801699004817,0.634578448524089,1.081193429529177,0.0,0.0,0.0,0.0
0.010363585923559484,-0.43687741220234705,0.7387183058799048,-0.010789558574907888,-0.5252205683061841,0.0048764453805576445,0.850883752538699,-0.02014874498822142,-0.8644989001242656,0.8749424491079827,0.06984259530312194,-0.8798115433710434,0.9959576343020774,-0.005764856756577376,0.7092907797476742,0.9450614181851014,-0.02492300247359994,0.629632044059941,1.068528899058227,0.0,0.0,0.0,0.0
0.006727490322740013,-0.44083529564813306,0.7380173017109022,-0.010584021871798991,-0.5250545728361601,0.004687484690612736,0.8509898363154109,-0.02804588302342726,-0.8590544167634943,0.8732378732958866,0.07997011763975181,-0.8730144206936744,0.9751128984986833,0.018745629463393775,0.6930770237628227,0.9420748675434442,-0.03381528645506946,0.6241527650586383,1.0550939254581952,0.0,0.0,0.0,0.0
0.002837872762988138,-0.4446513327524043,0.7373030878439246,-0.01046617899188351,-0.5248289465886482,0.004608457587917327,0.8511308935989929,-0.036499164377769525,-0.8539761465380946,0.8717552963824202,0.08931061109225638,-0.8641118620296171,0.9504882451906448,0.04166955069793238,0.676459008443805,0.9389449307471377,-0.04405343972136,0.618191628532389,1.0409869944329093,0.0,0.0,0.0,0.0
-0.0011505099438975201,-0.4481578649365397,0.7365131432348461,-0.010434844958120738,-0.5245735757143883,0.0045793574466808755,0.8512888506014256,-0.04647601597590253,-0.8490464142648132,0.8709510790694838,0.09762412881823115,-0.8535858296183292,0.9228812618216599,0.061702658966852876,0.6598401759029748,0.9368033422762579,-0.05792306403208982,0.6119323458391289,1.02601563358189,0.0,0.0,0.0,0.0
-0.004696715762501353,-0.4512043509581626,0.7355433466399265,-0.010464905378215485,-0.524255067609082,0.004594994308621041,0.8514845834593399,-0.057300861968620234,-0.8436556711593733,0.8703639008486913,0.10467322196927564,-0.8445583158954111,0.8975637724055581,0.07834421469382163,0.6440226016224297,0.9367639256922708,-0.07760907377539168,0.6058017018023607,1.0103448278536133,0.0,0.0,0.0,0.0
-0.00752475901839864,-0.45346918601987973,0.734420102171338,-0.010527861715946465,-0.5239804313150621,0.004616798780711281,0.8516527208290887,-0.06814331319646622,-0.8391500528463463,0.8709120473316844,0.10982800201916622,-0.8375932279540997,0.8764054541768597,0.09009421303896281,0.629963203445926,0.9401169772350282,-0.1057228270907601,0.5987720567174967,0.9942469394374194,0.0,0.0,0.0,0.0
-0.009228609415288969,-0.4546858170331325,0.7333097455771301,-0.010573535757097437,-0.5238271933989715,0.00462739083693178,0.85174635840219,-0.07621019471565303,-0.8373012198542245,0.872610209319984,0.1125580109764699,-0.8339607411238185,0.8630206810004614,0.095969900787559,0.6195127218397887,0.9465427091011056,-0.13763469939704986,0.591614912431128,0.979889786988789,0.0,0.0,0.0,0.0
-0.009238532266068977,-0.4548294649535752,0.7332306059901978,-0.010485166624468207,-0.5238389978750005,0.004653041741876092,0.8517400511827072,-0.07622913933256313,-0.8373304706789435,0.8726167251909133,0.11275956680718294,-0.8340416087934384,0.8628289300660811,0.09599267160909311,0.6194267597065181,0.9464568419162779,-0.1376560133866604,0.5916446937677258,0.9798959379867516,0.0,0.0,0.0,0.0
-0.009238532266069,-0.45482946495357524,0.7332306059901978,-0.010485166624468287,-0.5238389978750004,0.0046530417418761405,0.8517400511827072,-0.07622913933256326,-0.8373304706789436,0.8726167251909134,0.11275956680718284,-0.8340416087934379,0.8628289300660807,0.09599267160909385,0.619426759706518,0.9464568419162778,-0.13765601338665964,0.5916446937677265,0.9798959379867509,0.0,0.0,0.0,0.0
-0.009238532266069,-0.45482946495357524,0.7332306059901978,-0.010485166624468287,-0.5238389978750004,0.0046530417418761405,0.8517400511827072,-0.07622913933256326,-0.8373304706789436,0.8726167251909134,0.11275956680718284,-0.8340416087934379,0.8628289300660807,0.09599267160909385,0.619426759706518,0.9464568419162778,-0.13765601338665964,0.5916446937677265,0.9798959379867509,0.0,0.0,0.0,0.0
-0.007485398553578351,-0.45644342248356373,0.7336413804909904,-0.01041510026351293,-0.5244456047873366,0.00479124065766207,0.851366770151799,-0.07266406905911375,-0.8391172899952164,0.8821009748178359,0.11668460446961645,-0.841641924850881,0.8816325654238858,0.10673651993036304,0.6272766984302888,0.9364454526469499,-0.12997881014113588,0.5995547586811936,0.9832244948412383,0.0,0.0,0.0,0.0
-0.004014277535395627,-0.45961294473318753,0.735792526595321,-0.00983709415063195,-0.5255784785037202,0.004023175945341906,0.8506787340516389,-0.06283907545074335,-0.8370078476103336,0.8980772911523673,0.1270186516305269,-0.8542486134922251,0.9180495502959352,0.12038319525852717,0.6524523486439893,0.9048065341358766,-0.12137386646826212,0.6193914329692473,0.9756049626778707,0.0,0.0,0.0,0.0
-0.0005398021382682912,-0.4626813761292311,0.7380713332441929,-0.010058332072259106,-0.5253108862475125,0.00450022918962259,0.8508390274799446,-0.056460984686106316,-0.8448235875770308,0.9227640127163107,0.11368259439473258,-0.8466216909723326,0.903720012592182,0.08878457116457841,0.6459038325765738,0.9450683520217786,-0.09977326626689552,0.6415901513544239,0.964408787094989,0.0,0.0,0.0,0.0
0.0035136237110557187,-0.4660539824147313,0.7396148740487358,-0.010069783405029793,-0.5252308504238049,0.004542201025362325,0.8508880782071797,-0.0482528754847013,-0.8547087597634855,0.9503946140456203,0.09746736685706894,-0.8444403803373451,0.8951730254530004,0.05594094780872536,0.6470877822191832,0.9761915887395267,-0.07935694761463177,0.6613626236076161,0.9595184125940415,0.0,0.0,0.0,0.0
0.007583066770086912,-0.46964786785576756,0.7405375406060833,-0.009861452830502942,-0.5252511645937452,0.004282265192554796,0.850879326371141,-0.03869176105765415,-0.8640445629116136,0.9758226485164916,0.08282357299440758,-0.8458883427799786,0.8909246627007537,0.030499838471603397,0.6508873212011655,0.9995345964625193,-0.059481165388055215,0.6779751499502544,0.9602404577352147,0.0,0.0,0.0,0.0
0.011431284169434577,-0.4732905474165492,0.7413043270614053,-0.009530923897129295,-0.525311565399567,0.003869291965450752,0.8508477827007658,-0.02849983320246538,-0.8713009564269999,0.9974938247278411,0.07037282272389132,-0.8493607028220214,0.8894896368402427,0.011583666593736303,0.6549661760370963,1.0181028445523306,-0.03953464126339294,0.6934803196050054,0.9620382650132051,0.0,0.0,0.0,0.0
0.014880469053304446,-0.47687672877920523,0.7420697073356477,-0.009161528711277768,-0.5253445723765896,0.0034173819885758446,0.8508333962453958,-0.018221198182451784,-0.8761726423819847,1.0147719471071768,0.05996744078438238,-0.8540570795671306,0.8893567720192855,-0.0030869505531058647,0.6586259103685396,1.0335481297438063,-0.018965373586689056,0.7082612695427996,0.963406117767735,0.0,0.0,0.0,0.0
0.01784919863972604,-0.48034064092873147,0.7428629925203726,-0.008798441318620127,-0.5253190605588687,0.0029749632369909826,0.8508546418969865,-0.008171343084660393,-0.8788289359803014,1.0276930146813426,0.05091867865808851,-0.8594626631515305,0.889519220139035,-0.015417921083991372,0.6617494350344433,1.0469056380902562,0.002236513011179383,0.7221422432490444,0.9640832524463668,0.0,0.0,0.0,0.0
0.02032649449063982,-0.48364202567056797,0.7436770159517461,-0.008461978328929537,-0.5252299453696838,0.00256151903975275,0.8509144128700187,0.0014612422396987328,-0.87958996390184,1.0366477687690274,0.04253005904910041,-0.8652173924003275,0.8894000165180425,-0.026572338548584457,0.6643630921175624,1.0588129721938027,0.02379406853443317,0.7349167208213129,0.9641706920637356,0.0,0.0,0.0,0.0
0.02234336854831597,-0.4867621091979683,0.7444968771233108,-0.008158421306597606,-0.5250832217616922,0.002182048855946774,0.8510089829425632,0.010581690123021669,-0.8788048210212273,1.042175891132381,0.03431910248033972,-0.8710338821022942,0.8887025014929486,-0.03719835319617426,0.6665311174966398,1.0696261744174926,0.04533819762914307,0.7464614702581985,0.9638405628534626,0.0,0.0,0.0,0.0
0.02394871987479322,-0.48970147577836703,0.7453061271205011,-0.007886907098453341,-0.5248862138699328,0.001834747254376643,0.851133886582023,0.019169380976980913,-0.8767983292245815,1.0448210840021548,0.026047733393919338,-0.8766002319104942,0.8873251780964492,-0.04766471355887418,0.6683339684239709,1.0794555694517718,0.06654613919214455,0.7567170392430838,0.9632856977731353,0.0,0.0,0.0,0.0
0.0251902890949772,-0.49247784438435394,0.7460861492321325,-0.007643701664404043,-0.5246421388892023,0.0015150941892986868,0.8512872044241157,0.027263065031579277,-0.8738407234463366,1.045024356845239,0.01767291056795844,-0.8814633075534334,0.885344277194407,-0.058224635478517486,0.6698637777448077,1.0881292930968358,0.08722145521140248,0.7656325047020771,0.9627421252048245,0.0,0.0,0.0,0.0
0.026100792975500553,-0.4951239505968179,0.7468155231967543,-0.0074251979048414315,-0.524347623663632,0.0012182919616645748,0.8514710516271662,0.03494824875786485,-0.8701225517114731,1.0430450614857805,0.009275627835143711,-0.8849303000284104,0.8830394272925964,-0.06912815792110202,0.6712421355997654,1.0950813580399814,0.10733071071502127,0.7731174942452179,0.9625119808456478,0.0,0.0,0.0,0.0
0.02669159098275281,-0.49768592315484106,0.7474739774329359,-0.007229779936929095,-0.523992660140302,0.0009404355804281969,0.8516915744458627,0.04234795140727081,-0.8657281240860126,1.0389190173954352,0.0009912271530812325,-0.8860849020172222,0.8809064329547593,-0.08069049359657722,0.6727136057120248,1.0991631489294933,0.12700585945125048,0.7790363920397767,0.9629351565072812,0.0,0.0,0.0,0.0
0.026960463867349894,-0.5002217358854635,0.7480572044716555,-0.007056406423997332,-0.5235651741117964,0.0006763323042683501,0.8519561362888807,0.049620714728265077,-0.8605948375068088,1.0324827551232763,-0.007042557232003392,-0.8840962089857619,0.8795412797908164,-0.09327049904321091,0.6748813742861739,1.0984876593915016,0.146488008640341,0.783298140212224,0.9642370553567425,0.0,0.0,0.0,0.0
0.02690616312447144,-0.502796889988773,0.7485925822282431,-0.006902075647377736,-0.5230517862453383,0.00042183637641245717,0.8522728508590369,0.05693895953252217,-0.8545268710987892,1.0234773799170735,-0.014730833036056445,-0.8790260095760705,0.8789626640909541,-0.10686116149624489,0.6776676666912581,1.0930408845931128,0.1660737360952453,0.7859720661504531,0.9663405511322425,0.0,0.0,0.0,0.0
0.02652999389261068,-0.5054828115544995,0.7491372348817665,-0.006764017846968018,-0.5224366644469558,0.00017617070100698671,0.8526512467990585,0.06447784809487225,-0.847221671665742,1.0115721594928206,-0.0220685775073221,-0.8718413237483136,0.8786302349986806,-0.12114707338830147,0.6803229959195303,1.0846922953487532,0.18611400534680464,0.7872806620350856,0.9688720376800037,0.0,0.0,0.0,0.0
0.025824443211489564,-0.5083520554150699,0.7497565772888677,-0.006645578216807086,-0.5217013963260175,-5.6673394899553885e-05,0.8531022717996795,0.07240053320696888,-0.8383111063915013,0.9963168334495182,-0.029172619625100874,-0.863600432463915,0.8781083797837651,-0.13596385997286758,0.6824534788922102,1.0746236634161186,0.20699517144147667,0.7874577035058584,0.9713648211435704,0.0,0.0,0.0,0.0
0.024769698973869315,-0.5114633912932636,0.7505003174991007,-0.006560846531588287,-0.5208229476690112,-0.00026125307758632086,0.8536394696948946,0.08080430656041482,-0.8274865280120683,0.9772163526782514,-0.03625980356465919,-0.8551098326503105,0.8771680057413734,-0.15139389953287596,0.6838059438859606,1.0635406197090895,0.22906395634931637,0.7866195382883276,0.9734402074427851,0.0,0.0,0.0,0.0
0.02334637610375621,-0.5148386758479488,0.7513828547647596,-0.006537208103884428,-0.5197746976613649,-0.00040521786135450794,0.8542782710450547,0.08965286667245898,-0.8146836346244047,0.9539639230394831,-0.04353524363247381,-0.8468330977399772,0.8757626243807745,-0.16789076778375783,0.6842771924984982,1.0519564370529153,0.25248097433201716,0.7847138376225798,0.974901951319722,0.0,0.0,0.0,0.0
0.02155973373018381,-0.5184273956423814,0.7523570141562991,-0.006620520474217601,-0.5185235217590028,-0.0004301360490817754,0.8550376255313392,0.09867937267918682,-0.8004264903316863,0.9269112200048568,-0.05098087589135588,-0.8388507394426651,0.8739426055206891,-0.18666334270667956,0.6841708676052374,1.0404546723037738,0.27707225528998314,0.781480166104328,0.9758509478399873,0.0,0.0,0.0,0.0
0.019477918998672246,-0.522050193695285,0.7532687154136074,-0.006897741918534307,-0.5169896440243681,-0.00020733279515778696,0.8559638345988073,0.10717978433955884,-0.7867175295078941,0.8981821260775317,-0.05820557562777651,-0.8306998599121325,0.871406949827979,-0.21071319811881817,0.6848542780720891,1.0296679646474287,0.3024489702816594,0.7763601514895623,0.9768885452529738,0.0,0.0,0.0,0.0
0.017222934007728154,-0.5254377930629733,0.7538294662745326,-0.007514065047484477,-0.5149975875269046,0.0004919133971821795,0.8571585510797521,0.11408807457083209,-0.7775198468314427,0.8721586489956277,-0.06517950727384875,-0.8216033184856165,0.8670352437608989,-0.24597056894292824,0.6888053492148195,1.0199761761908757,0.32866246102046315,0.7682999870635385,0.9794803378517857,0.0,0.0,0.0,0.0
0.014834132120045734,-0.5285043167893397,0.753609643066955,-0.008570314031015318,-0.512399354992565,0.0017609250667919576,0.8587027133202284,0.1191503587574795,-0.776130840349594,0.8519813081477392,-0.07395156169059659,-0.8120893292449278,0.8599033583187601,-0.29905662133934063,0.69704916064054,1.0120917218285617,0.3558143691755517,0.7550975414931135,0.9870310295938268,0.0,0.0,0.0,0.0
0.012581848676898731,-0.5309816276345775,0.7522813225538717,-0.01001770173914933,-0.5091154460944217,0.0035793602670472547,0.860632497864229,0.12184243247188574,-0.7863755122052857,0.8430469881820007,-0.08776625199536546,-0.802483530640037,0.8470678823909635,-0.36913393936792527,0.7084964853837253,1.0064855631895135,0.38111556171093747,0.7355267286780585,1.0012252025141248,0.0,0.0,0.0,0.0
0.010821682838102514,-0.5326528292970709,0.7500806884808913,-0.01160225475132636,-0.5054195502833353,0.0058297122623630964,0.8627760313841678,0.12169532504669288,-0.807830561607688,0.8475926925134588,-0.10541792596521303,-0.7962414446213661,0.8282372295245949,-0.4398361710866936,0.7170605883296784,1.0042361672961801,0.4020542500568867,0.7124621994790445,1.019288386629932,0.0,0.0,0.0,0.0
0.010988578671236548,-0.5329565030806582,0.7500260130177396,-0.011449214134795521,-0.5053374316471313,0.005931412833648294,0.8628254829418133,0.12206866899195835,-0.8079247194177611,0.8474590544035225,-0.10548172337575842,-0.7962442512032494,0.8282410506849625,-0.43988424511750207,0.7170679254386717,1.0042413978917573,0.4021675436996487,0.7123413287518585,1.019160063413488,0.0,0.0,0.0,0.0
0.010988578671236548,-0.5329565030806582,0.7500260130177396,-0.011449214134795521,-0.5053374316471313,0.005931412833648294,0.8628254829418133,0.12206866899195835,-0.8079247194177611,0.8474590544035225,-0.10548172337575842,-0.7962442512032494,0.8282410506849625,-0.43988424511750207,0.7170679254386717,1.0042413978917573,0.4021675436996487,0.7123413287518585,1.019160063413488,0.0,0.0,0.0,0.0
0.012126813201147538,-0.5345824004743879,0.7502416345994366,-0.011005354075122145,-0.5077905528401814,0.005066262789467792,0.8613953619617952,0.12785704715710738,-0.7912037048613707,0.834267657228709,-0.09889134629847657,-0.7950198013804637,0.8357802858023311,-0.45334438856354037,0.7334362896401998,1.0045556258768098,0.41894175721152804,0.7258369770772611,1.0247367021527451,0.0,0.0,0.0,0.0
0.013847109276068224,-0.5375040452252297,0.7503410067957383,-0.010551005243911896,-0.510345957555994,0.0041125634363299,0.8598946253562587,0.13717843120118456,-0.7727999945101257,0.819384185561776,-0.08900365978076695,-0.8006340396062133,0.8550883588027673,-0.46233366725391456,0.7521179944395886,1.00309343697879,0.45105975972747836,0.7434811315099608,1.033943916566829,0.0,0.0,0.0,0.0
0.015720195297007137,-0.5408802387228574,0.7520121632387359,-0.011805393346128816,-0.5123799134677491,0.006032466476881019,0.8586565473522754,0.11980155260413675,-0.7863170475524125,0.8427821285235767,-0.08446851482586158,-0.7973278428308616,0.8706952763390742,-0.426642944944962,0.7671677125067756,0.9834379495622728,0.35964181597736566,0.7224495831211059,1.032653480723226,0.0,0.0,0.0,0.0
0.017613969887686886,-0.5446430801215603,0.7525746654014799,-0.012894046259256749,-0.514536522889641,0.007603484102150814,0.8573377964450245,0.10383701360016626,-0.7999497068744931,0.8571719352832523,-0.07821272747000788,-0.7986302437165177,0.8893371506352782,-0.39069311062329865,0.7776111511594894,0.9726646629956143,0.2758507617225481,0.7039202932093492,1.0346077425186866,0.0,0.0,0.0,0.0
0.019502230405605836,-0.5487721458902143,0.7523036879557135,-0.013535868376151543,-0.5163953085487042,0.008514241744960929,0.8562010121832959,0.09214373828905184,-0.8117192443475099,0.8653670691408963,-0.06973398535229405,-0.8069904816179173,0.9135279117217676,-0.3568420159003226,0.7838821243376963,0.9677588461049532,0.21541131679507755,0.6922234152693281,1.0401217748479488,0.0,0.0,0.0,0.0
0.021303973674642613,-0.5530107114973053,0.7515193025931867,-0.01373107012267298,-0.5179560726324519,0.008751715561231875,0.855252227130212,0.08284453813049265,-0.8219623071499286,0.8703721584635424,-0.059551094497014866,-0.820065497221937,0.940468725383884,-0.3279402911484022,0.7878394823469772,0.9665351337612116,0.17639057073196435,0.6871740017299983,1.047874261374432,0.0,0.0,0.0,0.0
0.022843159797545653,-0.557060950004027,0.7506352041261838,-0.013707388225049922,-0.5192943344856925,0.008690274159080818,0.854441326724164,0.07516885851807685,-0.8314591785406927,0.8740143900831717,-0.049113438061764006,-0.8332699991066101,0.9651378863414936,-0.3018336090410413,0.7903395627852909,0.9660952281993846,0.14943313211403716,0.6845437584589087,1.0575151323865388,0.0,0.0,0.0,0.0
0.024056645524531618,-0.5607937374175815,0.7498248885868658,-0.013575539971850669,-0.5204628205068426,0.008472206937087546,0.8537343725621863,0.06854036480810562,-0.8405159988113169,0.8768007259445345,-0.0390272631179681,-0.8448312490618746,0.9858404847580935,-0.2781461299117912,0.7919342108670411,0.9654005828100227,0.12866078478171877,0.6824481567040939,1.068001468077376,0.0,0.0,0.0,0.0
0.024910009874122063,-0.5642378673103355,0.7491417551574637,-0.013464358954470798,-0.5213343007508996,0.008327708794089462,0.8532056652207348,0.06214218339685393,-0.8496459451855825,0.8782710606004255,-0.029796647214713277,-0.854795873689692,1.002871005871298,-0.2532735554233801,0.7913898971620467,0.9637198413132134,0.11155640867279457,0.6794995266168014,1.0785302921370017,0.0,0.0,0.0,0.0
0.025458043563349863,-0.5673764992475807,0.7485834450123134,-0.013323499348433325,-0.5221080992009602,0.00812417115622505,0.8527365448700419,0.055768833585757495,-0.8586132706038674,0.879129984855496,-0.02114926151778762,-0.8627067849013259,1.0161131407611896,-0.23064629420166932,0.7903888347715071,0.9616388434142545,0.09584715747417627,0.6761301129914171,1.0888367883313312,0.0,0.0,0.0,0.0
0.02573113756221499,-0.5702614490164628,0.7481136385896519,-0.01313520090519688,-0.5228520339083637,0.007820801587692223,0.8522863674831326,0.04922523129534098,-0.8672448948068776,0.8796070791469895,-0.012879689540253406,-0.8687373445765343,1.0259687515429663,-0.21094662975417616,0.7893408336177706,0.9595907614583079,0.08056907310595518,0.6725022803315557,1.098643349335107,0.0,0.0,0.0,0.0
0.025722390694975172,-0.5730005731053308,0.7476933150379504,-0.012923170299295529,-0.52352078645569,0.007474375334128584,0.8518820995487555,0.04232667450925443,-0.8752325639051924,0.8795833089072651,-0.00487443969575382,-0.8734014841116788,1.0330446564479232,-0.1924082479551137,0.7875432677840517,0.9576144714471208,0.06568347209983064,0.6684488588949246,1.1074693074048019,0.0,0.0,0.0,0.0
0.02540521352272255,-0.5757047212905947,0.747281809667209,-0.012700000821416452,-0.5240813068798483,0.007122716159625716,0.8515437514730266,0.03504540895692594,-0.8818990654580041,0.8791478750616802,0.0030435874465972804,-0.8770882913909334,1.0376958697089311,-0.1736022455193754,0.784347157349626,0.9557710054546779,0.051419300646809524,0.66393502258675,1.1145637542410132,0.0,0.0,0.0,0.0
0.02474063391863199,-0.5784660755930215,0.746834145054523,-0.012456278294907055,-0.5245375298378417,0.006760853587614063,0.851269353249265,0.02751062763093852,-0.8862644068833042,0.8787177797144107,0.011111217019582027,-0.879968615956758,1.0399469698083375,-0.15405020567336494,0.7794096583488554,0.9542955468508542,0.03809998172647731,0.659260286525661,1.1187091119000088,0.0,0.0,0.0,0.0
0.023683442340890724,-0.5813630346299604,0.7463149603088967,-0.012185364252378459,-0.5248900262662066,0.006390257937953929,0.8510588357027874,0.019887936514472383,-0.8874478284979207,0.8787456774634416,0.019513066406304992,-0.8820995826307466,1.0396723275810615,-0.1333555718246885,0.7724178731509768,0.9533363679303192,0.026256367418543484,0.6551559283413236,1.1180102613945135,0.0,0.0,0.0,0.0
0.022199240658762946,-0.584459966771446,0.7457151895135964,-0.011892723081149501,-0.5251315023468317,0.006026668232340617,0.8509166514122825,0.012293525649303895,-0.8854793914467372,0.8791626810278784,0.028364337522395013,-0.88344891973253,1.0367275213102491,-0.11109639551761323,0.7631839881657014,0.9527495595689683,0.016018131507030277,0.6516348986941918,1.1124520005672118,0.0,0.0,0.0,0.0
0.020273668365118347,-0.5877943264434458,0.7450503431179922,-0.011583966759781232,-0.5252714784843371,0.005673204054267161,0.8508369411119533,0.004799134957694449,-0.8812667642379132,0.879497954466133,0.03774155092985523,-0.8838339183736633,1.030907424861061,-0.08735587460581497,0.7518863403746341,0.9522051356640274,0.006907556619510147,0.6480379911852966,1.1039048398956028,0.0,0.0,0.0,0.0
0.017900790158927163,-0.5913742477429105,0.7443469683885549,-0.01127252092969102,-0.525316425124139,0.00534356391766415,0.8508155088450976,-0.0026064559980246566,-0.8758281271854598,0.8793385712263224,0.04761452203817809,-0.8829792967517209,1.0219309203185818,-0.0623544927847184,0.738790415789435,0.9512976283988107,-0.0014666842782426505,0.6440962480680394,1.0935304099998466,0.0,0.0,0.0,0.0
0.01508200681215886,-0.5951698418932119,0.7436293769744505,-0.010974358384457249,-0.5252772023904323,0.0050501492096647095,0.8508454149255847,-0.010008931468718976,-0.8699685147073813,0.8785165593839119,0.05785230054326487,-0.8805274467680763,1.0094093903768253,-0.03662944738488992,0.7242435162291395,0.9497370997161803,-0.009471531504380133,0.6397115569182261,1.081952644092896,0.0,0.0,0.0,0.0
0.011836407834817132,-0.5991073256750805,0.7429152561228185,-0.010707805319329012,-0.5251687135005668,0.004803126705846489,0.8509172082166693,-0.017573926294969282,-0.8642259484797743,0.877140103486811,0.06821367391151922,-0.8761010149259953,0.9929393959553818,-0.01097717682902193,0.708652836932129,0.9474188818691364,-0.017551565619548497,0.6348319088383824,1.0694704971513822,0.0,0.0,0.0,0.0
0.008219051511194654,-0.60306608161084,0.7422120978758894,-0.010492914739189832,-0.5250081295191732,0.004611165798288492,0.851020034916356,-0.025496542513723783,-0.8588641482337399,0.8755726560216008,0.07834630226302841,-0.8694215870422379,0.9722947865288515,0.013652958078341153,0.6924669549019262,0.944476772759579,-0.02634816340731289,0.62941815085791,1.0562246248212572,0.0,0.0,0.0,0.0
0.00434308195948885,-0.6068870270518418,0.7414985782793335,-0.01036224197587653,-0.5247876322346079,0.004525518931255635,0.8511580844198274,-0.03396074545811929,-0.8539134083164626,0.8742921732062631,0.0877127027595171,-0.8606200986072767,0.9478348000077008,0.03668059054366629,0.6758848589719518,0.9413592270178948,-0.036422334862311,0.623535749243741,1.0423280339354846,0.0,0.0,0.0,0.0
0.0003630149381718831,-0.6103993433155868,0.7407119420998423,-0.010316317412816417,-0.5245376652572656,0.004491749972642161,0.8513128893090237,-0.04389818850849843,-0.8491805790666312,0.8738214109369514,0.09604887935316973,-0.8501564026005358,0.9203332909911737,0.056815259110740285,0.6593003891518803,0.9392020316750869,-0.04989000229125917,0.6174000956698056,1.0276319752398189,0.0,0.0,0.0,0.0
-0.00317909335403092,-0.6134552049543066,0.7397449191057432,-0.010331048825681696,-0.5242284946271444,0.004500097775906047,0.8515030851213204,-0.05467050400329012,-0.8440091399056122,0.8737128276281783,0.10313465261428255,-0.8411540015365101,0.8950701969907433,0.07353557835315297,0.6435268393513779,0.9391494056081879,-0.06876965335504674,0.6115508829700083,1.012332278009424,0.0,0.0,0.0,0.0
-0.006005948782144852,-0.6157303373084114,0.7386280020201265,-0.010382020183312588,-0.5239695746914852,0.004515584794624855,0.8516617332888099,-0.06548975711317068,-0.8397782123962557,0.8750073236273738,0.10832485099042664,-0.8341371581524885,0.8738866994252688,0.08536025949696596,0.6295426375487804,0.9424560603339494,-0.09554958647787154,0.6049967053080001,0.9967536320474826,0.0,0.0,0.0,0.0
-0.007707639851330266,-0.6169544311323586,0.7375306474870709,-0.010426512972416514,-0.523835676395203,0.004525588294502862,0.851743500716856,-0.07361073983171965,-0.8383038584785675,0.8777714658783397,0.11107125549121655,-0.8303820132334354,0.8604255383064345,0.09133825852208924,0.619202020271699,0.9487698141409371,-0.12592500329384076,0.5983949054344695,0.9830014041682527,0.0,0.0,0.0,0.0
-0.007718119742653451,-0.6170995695910324,0.7374516001694067,-0.010336695978447831,-0.523847850786429,0.0045512092115580745,0.8517369713928126,-0.07362938354364021,-0.8383334588172423,0.8777783644129762,0.1112747026153165,-0.8304627784131062,0.8602337789695879,0.0913610917852009,0.6191157580865214,0.948684408500937,-0.12594521343453918,0.5984253897745818,0.983007823854979,0.0,0.0,0.0,0.0
-0.007718119742653394,-0.6170995695910325,0.7374516001694067,-0.010336695978447875,-0.5238478507864293,0.004551209211558074,0.8517369713928125,-0.07362938354364018,-0.8383334588172423,0.8777783644129762,0.11127470261531652,-0.830462778413106,0.8602337789695877,0.0913610917852011,0.6191157580865215,0.948684408500937,-0.12594521343453893,0.598425389774582,0.9830078238549788,0.0,0.0,0.0,0.0
-0.007718119742653394,-0.6170995695910325,0.7374516001694067,-0.010336695978447875,-0.5238478507864293,0.004551209211558074,0.8517369713928125,-0.07362938354364018,-0.8383334588172423,0.8777783644129762,0.11127470261531652,-0.830462778413106,0.8602337789695877,0.0913610917852011,0.6191157580865215,0.948684408500937,-0.12594521343453893,0.598425389774582,0.9830078238549788,0.0,0.0,0.0,0.0
-0.005988487098592346,-0.618658561919712,0.7378558039229305,-0.010271148456381033,-0.524449682871121,0.0046863030239572305,0.8513665909640424,-0.07018359191854324,-0.8400702074305686,0.8871033086647326,0.11505848713291324,-0.8378942261269275,0.8787144010915405,0.1017517445708544,0.6268623718923625,0.9390036700040567,-0.11823545795912231,0.6064200041748821,0.9859963280940199,0.0,0.0,0.0,0.0
-0.002570711242683592,-0.6217131549745245,0.7399578149335709,-0.009688655473791377,-0.5255793890117143,0.003908294261166244,0.8506804106344235,-0.060619682582208914,-0.8378751552315301,0.9026972297443401,0.1250906082436819,-0.8502248103634885,0.9144465373212071,0.11455766746269494,0.6516402109779242,0.9084545639831155,-0.10994100200112497,0.6261008659928781,0.9780757122704627,0.0,0.0,0.0,0.0
0.0008651512472668977,-0.6246693667630066,0.7421559517823522,-0.009909119438089573,-0.5253056338118255,0.00436464128394197,0.8508447275172952,-0.05446090186610116,-0.8458269894376237,0.9272495647260551,0.11178977434414106,-0.8434560375318092,0.9012303635435399,0.08335441581009263,0.6454033835945356,0.947733488034601,-0.08859423505622722,0.6479521148912055,0.9668690573831086,0.0,0.0,0.0,0.0
0.004861168361006916,-0.6279173006547019,0.7436105438805718,-0.009912912682388373,-0.525215821183675,0.004384351983132453,0.8509000251487816,-0.04650344762830753,-0.8558190596949261,0.9546338016348531,0.09555137336455186,-0.8418323871449823,0.8932031466059789,0.05081075040254631,0.6466975416125825,0.9782014057502999,-0.06855663188408351,0.6672893702242298,0.9620193009891361,0.0,0.0,0.0,0.0
0.008867380402958635,-0.6313725277989355,0.7445070197266522,-0.009699756138922563,-0.5252285675890082,0.004104505545823863,0.8508960098352021,-0.03722948225320494,-0.865088496873371,0.9797672954097731,0.08072258721988818,-0.8435736976993915,0.8892388546680654,0.02548785998511916,0.6504349393982675,1.0012108011529632,-0.04914618918494757,0.6837725709988938,0.962201137525945,0.0,0.0,0.0,0.0
0.012641212467024668,-0.6348817421110277,0.7452654745819748,-0.009368768330713139,-0.5252786373878787,0.003679092864169468,0.8508707560843748,-0.027334209090196952,-0.8722259261747431,1.0010872908717874,0.06808920427482802,-0.8472166199312995,0.8878916261479692,0.0065371908587701436,0.6543741302551473,1.019579959254539,-0.029629696716406695,0.6991807999451622,0.9633779095815671,0.0,0.0,0.0,0.0
0.016009139298851012,-0.6383470717826094,0.7460258395466565,-0.009002036155239503,-0.5252977888713461,0.0032187464538047566,0.8508647577748184,-0.017335618547246034,-0.8769798600434484,1.0179963553144347,0.05751722547764976,-0.8520003770796708,0.8877118507619649,-0.008282292485704404,0.6578602013928361,1.0348940150155268,-0.009443977598160444,0.7138139306076997,0.9642024096767461,0.0,0.0,0.0,0.0
0.018894588447473794,-0.6417051468536604,0.7468149826151467,-0.008643353388263834,-0.525255910409508,0.0027703332720408875,0.8508959080143976,-0.0075381437972482975,-0.8795306278678184,1.0305521665495394,0.048323188019028004,-0.8574342907774914,0.8877504419369475,-0.020819709784591994,0.6607922191968639,1.0481543333309553,0.011416686551545145,0.7274974753856409,0.9644355895972078,0.0,0.0,0.0,0.0
0.02129082344825032,-0.6449165539067045,0.7476265859655095,-0.008312217357509932,-0.5251497269286455,0.002353312048863664,0.8509660000680235,0.001873395591014038,-0.8801938805269041,1.039155398356458,0.039812442795608374,-0.8631780035360741,0.8874786713562617,-0.032188525293573494,0.6632059526016767,1.059979996149436,0.032680638888052574,0.7400533906544462,0.9641624326658282,0.0,0.0,0.0,0.0
0.023231889824164312,-0.64796246312503,0.7484468061830212,-0.00801389867923468,-0.5249860674508149,0.001971608517249435,0.8510708073775896,0.01080782294876563,-0.8793133023884838,1.044351520330854,0.031506218944165075,-0.8689594626142614,0.8866241205184723,-0.04301569263875423,0.6651726900633422,1.0707168262860562,0.05397405849042431,0.7513802057608684,0.9635305043621518,0.0,0.0,0.0,0.0
0.02476860142857853,-0.6508429059771114,0.7492598007572571,-0.007746458206887938,-0.5247720696454897,0.0016215131698858812,0.851205990345626,0.019248696179343657,-0.8772108915117182,1.0466884218513741,0.023170707460917275,-0.8744772121051789,0.8850907888472352,-0.05366740413540516,0.6667775008237651,1.0804688657313626,0.07495930985417795,0.7614282063851391,0.9627100176453527,0.0,0.0,0.0,0.0
0.025950088965663816,-0.6535753289500074,0.7500473972400271,-0.007505925483540638,-0.5245114215033886,0.001298609199390676,0.8513693343134209,0.02723440915680746,-0.8741532110297724,1.0466076018343222,0.014761749797053293,-0.8792862792793992,0.8829676876277602,-0.06438705922680708,0.6681172696388422,1.089059683760032,0.09545014937927575,0.7701623438723976,0.961922640305721,0.0,0.0,0.0,0.0
0.026809762570417357,-0.6561921458456017,0.750788219993869,-0.0072883639084735,-0.5242004762940331,0.0009975240798948987,0.8515631188293423,0.0348514912387856,-0.8703299791524071,1.0443689405091567,0.0063605319998832986,-0.8826996607163063,0.8805362017571264,-0.07542486196365367,0.6693175954629811,1.0959202011342195,0.11541715836937921,0.7774984880786969,0.9614603089852998,0.0,0.0,0.0,0.0
0.02735915245093052,-0.6587391252196388,0.7514615615199993,-0.007091545660891242,-0.5238279495443305,0.0007125287374427353,0.8517942718515545,0.0422269514288393,-0.8658283050767467,1.0400102610197195,-0.0018941859910470166,-0.8838076391685944,0.8782833630446079,-0.08710748789140674,0.6706258742741628,1.0999002217566478,0.134978111146465,0.7832933519232204,0.9616565564552424,0.0,0.0,0.0,0.0
0.027596688218674205,-0.661274848713528,0.7520630662829898,-0.006914975648504243,-0.5233828022396675,0.0004402475628673088,0.8520694992860718,0.0495165400747808,-0.8605820951888054,1.0333645870699188,-0.00986998737764072,-0.8817868308742628,0.8768240667405132,-0.09977905225867234,0.6726511531451936,1.0991138090550985,0.15441164386846418,0.7874729853007717,0.9627376501468198,0.0,0.0,0.0,0.0
0.027521344854182443,-0.6638651098651319,0.752619916196686,-0.006755291238155882,-0.5228506954114517,0.00017539830611763095,0.8523974927130437,0.056896365190786266,-0.8543968860775467,1.024173573564236,-0.017473526178431058,-0.8767032107847721,0.8761728920391426,-0.11343957704318601,0.6753145426899875,1.0935495483957185,0.17401047201008388,0.7901024925155786,0.9646215972738742,0.0,0.0,0.0,0.0
0.027134830645876365,-0.666581738252726,0.7531895766337126,-0.006609653600292607,-0.5222150863543535,-8.314236937969263e-05,0.8527881971219733,0.06454344557570099,-0.8469704266187514,1.0121071331362153,-0.0247072092861763,-0.8695207786021671,0.8757826955535717,-0.1277751191300264,0.6778603039032164,1.0850799204886328,0.19412756034762488,0.7914057548965042,0.9669254144234882,0.0,0.0,0.0,0.0
0.02643014094243092,-0.669497154970513,0.7538377072444304,-0.006481298509413619,-0.5214568449014259,-0.0003318964948885135,0.8532529762736247,0.07262166304883189,-0.8379365875604828,0.9967183404049865,-0.03169614503426469,-0.8612936675700789,0.8752088747590674,-0.142622099086411,0.6798856368685252,1.0748908443405256,0.21513908274984916,0.7916148776807922,0.9691713097539036,0.0,0.0,0.0,0.0
0.025388131678813937,-0.6726690731650821,0.7546139584780397,-0.00638450561684964,-0.520553012162311,-0.000555073112689808,0.8538053007042137,0.08122436478700631,-0.8269903296750188,0.9775183466507161,-0.03866530948325441,-0.8528226705017488,0.8742172059827956,-0.1580616036611999,0.6811299886736091,1.0636966159983665,0.23738102948294293,0.7908472951277985,0.9709714433019782,0.0,0.0,0.0,0.0
0.023989910144494617,-0.6761164362592473,0.7555318222421553,-0.006347030809853921,-0.5194776104412958,-0.0007194770004924623,0.8544601862011745,0.0903053204591883,-0.814076534727343,0.9542129906388805,-0.045821757438077836,-0.8445591900024852,0.8727517016435249,-0.17455320483586306,0.6814883378624239,1.0520259797075402,0.2609912126995591,0.7890478980102518,0.9721256906018954,0.0,0.0,0.0,0.0
0.022240371391096473,-0.6797826420588992,0.7565408327507449,-0.006415265355824732,-0.5181975060456252,-0.0007659168096631436,0.8552365769013561,0.09958070724368942,-0.7997470269882735,0.927183821529094,-0.053133590280173455,-0.8365584802723284,0.8708307614118186,-0.19334944506790153,0.6812793250478044,1.0404837211102005,0.28574265804934473,0.7859327462744399,0.9727479074061482,0.0,0.0,0.0,0.0
0.020205757686043477,-0.6834777456326995,0.7574771824106603,-0.006679001836953517,-0.5166275369730202,-0.0005598311099442728,0.8561840138456107,0.1083093748489698,-0.7861076946248973,0.8986507089261724,-0.06019312133030607,-0.8283047695825777,0.8680449508795656,-0.21758639102786848,0.6819336139151804,1.0296882794967814,0.31120890374572024,0.7808786258153281,0.9735036237464925,0.0,0.0,0.0,0.0
0.017990938737221424,-0.6869385234649301,0.7580338618204002,-0.007280848523906711,-0.5145939832375835,0.00012018366440101432,0.8574030599527485,0.11546096628978467,-0.7770696562305489,0.872840283745863,-0.06700396558270129,-0.8190777303067481,0.8632345129008245,-0.25332111550762443,0.685872961177383,1.0200469321095136,0.3373974457949153,0.7726661606920032,0.9760862279923952,0.0,0.0,0.0,0.0
0.01562828037368219,-0.6900598027014792,0.7577947696508632,-0.008314469824888648,-0.5119520321578808,0.001364231486660127,0.8589727150692261,0.1207371161584607,-0.7758715068452562,0.8528607169402953,-0.07569946598169357,-0.8092175156910975,0.855250300692338,-0.3065720009974058,0.6939604262644371,1.0123106115451401,0.36414370476728936,0.75909778438694,0.9837478889844932,0.0,0.0,0.0,0.0
0.013396862919284982,-0.6925600433586593,0.7564480311659009,-0.009725163533865192,-0.5086232659586002,0.0031442015874887153,0.8609285153345915,0.12360159653681935,-0.7863342066186125,0.8441990578423733,-0.08957788194106596,-0.7989649852405921,0.8409225870597278,-0.37648988796872607,0.7050344926983599,1.0070334585369933,0.3885042328206498,0.7390441906747989,0.9979905747163128,0.0,0.0,0.0,0.0
