zhuoxili-jackie/tripod-support-walk/examples/pcbB样数据/trajectory_trotting_acc_f025.csv
root_pos_x,root_pos_y,root_pos_z,root_rot_x,root_rot_y,root_rot_z,root_rot_w,FL_hip_joint,FL_thigh_joint,FL_calf_joint,FR_hip_joint,FR_thigh_joint,FR_calf_joint,RL_hip_joint,RL_thigh_joint,RL_calf_joint,RR_hip_joint,RR_thigh_joint,RR_calf_joint,FL_foot_joint,FR_foot_joint,RL_foot_joint,RR_foot_joint
0.0,0.0,0.72963,-0.009919430704566214,-0.5230949929384007,0.0038044909978256812,0.8522081665329894,0.0,-0.81,0.872,0.0,-0.81,0.872,0.0,0.65,1.0,0.0,0.65,1.0,0.0,0.0,0.0,0.0
0.00158882528142459,-0.0006995855540249673,0.7300731797723647,-0.009888119594004477,-0.5235471654186964,0.003868579779808108,0.8519305281320949,0.0016010027703270667,-0.8127812382825413,0.8824341178936587,0.0016010027703270708,-0.8160803471849845,0.8877606371892957,0.004957628391016452,0.657525205985954,0.9931623409852621,0.004957628391016454,0.6583811172739995,0.9981154565139196,0.0,0.0,0.0,0.0
0.00458279475770897,-0.0021614826888453884,0.7315105199893541,-0.009525621749618724,-0.5243674972225238,0.003356819119851058,0.8514321594538617,0.006555496017679339,-0.8143988613242548,0.8994933088474686,0.006563602530198206,-0.827251228203805,0.9178235698723236,0.009623160448652378,0.676503766366324,0.9745856321996279,0.009701639624989974,0.6752267092008047,0.988623794649422,0.0,0.0,0.0,0.0
0.007666267492848634,-0.0036295465080159748,0.7324451990866735,-0.009359948822864067,-0.5243555212421286,0.0033036396224281174,0.8514415803014169,0.010383016088128028,-0.8234699392170726,0.922820843068622,0.0023067616803435827,-0.8265724863475603,0.9083246888247166,0.002709467668216799,0.6705727410429598,0.9960221814512786,0.019053541150015417,0.6895339159401991,0.9819002788837773,0.0,0.0,0.0,0.0
0.011255368072103412,-0.0051010414287117325,0.7330499296060955,-0.009105998917019813,-0.5243734684507521,0.0030573905784521084,0.8514342010581335,0.01473468017107639,-0.8350071207862207,0.9501672733265303,-0.0035029973322970084,-0.828960618211948,0.9015621360078324,-0.005374877690589252,0.6689657082192888,1.013935962612572,0.027066365398309568,0.7035344924523694,0.9771702704299003,0.0,0.0,0.0,0.0
0.014802706025445197,-0.00664519250040542,0.7334997759411958,-0.008799675343731848,-0.5244554613326731,0.0027087631851581773,0.8513881003362594,0.01957776279638154,-0.8454069999721775,0.9754498224023086,-0.009271549903344924,-0.8333528823835868,0.8982807028036164,-0.012036333538131255,0.6693687582549651,1.02922489507656,0.035009353342402266,0.7168565270365963,0.9738009908654669,0.0,0.0,0.0,0.0
0.018038810245296768,-0.008244501029027525,0.733921691525926,-0.00848672592262769,-0.5245549952318617,0.0023398365450151004,0.8513310505469411,0.02466604450486133,-0.8536359465716299,0.9967368262193974,-0.014491533071019391,-0.8388818814447861,0.8971218032653995,-0.017216927259524027,0.6703078816694195,1.0427600531113794,0.04359696732450977,0.7294038326366592,0.9709347893185127,0.0,0.0,0.0,0.0
0.020832648641227393,-0.009865587519564636,0.7343642007285416,-0.008193695313274355,-0.5246322030141586,0.0019891723989870665,0.8512872359613946,0.029806690493599495,-0.8595434127369975,1.013551191637105,-0.019136517471638997,-0.8450333968367137,0.8968917001608188,-0.021402074645572502,0.6711849391379464,1.0550196125144313,0.05300265303086017,0.740944551104912,0.9682452797198394,0.0,0.0,0.0,0.0
0.02314995474629673,-0.011469647198640893,0.7348417973352047,-0.007931625563083819,-0.5246732197531386,0.0016728566990854472,0.8512651193020104,0.03484193228054558,-0.8633122604532635,1.0261102337681918,-0.023363587571929793,-0.8515094085651392,0.8968356836641089,-0.024987229087602234,0.6717876348868366,1.0663385702720316,0.06305952355555312,0.7513470825723185,0.9656142487639371,0.0,0.0,0.0,0.0
0.025014953514221915,-0.013020570187582722,0.7353520116035714,-0.007703333897918521,-0.5246784205251914,0.0013955191812036441,0.8512645101308185,0.03964972284627839,-0.8652751446279671,1.0349670850119237,-0.027360567512618846,-0.8581233487961558,0.8965182037238002,-0.028236698689122677,0.6720764990659353,1.0769471598104172,0.07344173363576889,0.7605813856454907,0.9630023789170568,0.0,0.0,0.0,0.0
0.02648102210370364,-0.014490163119982729,0.735881713705922,-0.007507800124014971,-0.5246536159930606,0.0011564799790202375,0.8512819032005567,0.04414581826004411,-0.865819123872192,1.0407935484266857,-0.03127310822889532,-0.8647159320241151,0.8957170879042307,-0.03133071520624795,0.6720951029521716,1.0869682537620637,0.08380014103661776,0.7686737939881779,0.9604300133833629,0.0,0.0,0.0,0.0
0.027609152878525178,-0.015860255647506254,0.7364092689832361,-0.007342490776223465,-0.5246048242547299,0.0009529477748313116,0.8513136660998715,0.04828242825428744,-0.8653289928094652,1.0442413135371258,-0.03517833126663411,-0.8710619067672247,0.894370430101787,-0.03441212130712423,0.6719276869502173,1.0963825551762219,0.09384422660197236,0.7756538241097343,0.9579946843390833,0.0,0.0,0.0,0.0
0.02845225614849743,-0.01712285387771382,0.7369052799607783,-0.00720486789263152,-0.5245354303229836,0.0007819080301809168,0.851357774871625,0.05204333174967814,-0.8641496516919082,1.0458474105815214,-0.03908313188985439,-0.8767615619489146,0.8925750401919723,-0.037630070405238254,0.6716792791020021,1.104949682937959,0.10338378163325922,0.7815060175092069,0.955894600076619,0.0,0.0,0.0,0.0
0.029044321082295002,-0.018279734312789526,0.7373339483590163,-0.00709368434766505,-0.5244448242589617,0.0006413832089138631,0.8514146431545219,0.05543832088420238,-0.8625566407657135,1.0459676076434814,-0.04293632646354936,-0.8811491467045696,0.890618760843217,-0.04118871978952798,0.6714885359512492,1.1120689159190666,0.11234718147158587,0.7861376951965381,0.9544381880137239,0.0,0.0,0.0,0.0
0.029396373972272943,-0.019342522368107365,0.7376584982112852,-0.007009786700142369,-0.5243282859981573,0.0005307983569455108,0.8514871870120873,0.058500987579144244,-0.86072866658413,1.044744612825311,-0.0466506492154008,-0.8833117051561761,0.8889956303706932,-0.04539026455727904,0.6716253209706989,1.116571450814625,0.12078490709940043,0.7893879707677145,0.9540036646813682,0.0,0.0,0.0,0.0
0.029505971878542498,-0.020333176481342627,0.7378571423630113,-0.006954367417101432,-0.5241802943764791,0.00044832666303563765,0.8515788012652845,0.06129468702181169,-0.8587105355006417,1.0421427577287241,-0.05012614850975132,-0.8823987710390991,0.8882923887680136,-0.050608678391598064,0.6727362819096194,1.1165538062645493,0.12883412416655143,0.7911316971367263,0.9548755687481821,0.0,0.0,0.0,0.0
0.02937376558818159,-0.021281218037046714,0.7379392437936146,-0.006924784850979865,-0.5239955617958675,0.0003912071101992012,0.8516927530101438,0.06390150650009482,-0.8564234459310794,1.0380594573113058,-0.05329019460553019,-0.8784337412834137,0.8885245271803935,-0.05682719884065535,0.6748005005493929,1.1120130283117862,0.13666344395038235,0.7914051986087712,0.9570510309181275,0.0,0.0,0.0,0.0
0.02900505666703739,-0.022224014073919024,0.7379447397699221,-0.006915364643089798,-0.5237681638292879,0.00035654038790684176,0.8518327072669264,0.06642095044561949,-0.853678606429857,1.0323409510214452,-0.056114249780587905,-0.8723207176590967,0.8891552573180679,-0.06366942521182965,0.6771399970424302,1.104853905905117,0.14448220353178062,0.7904081090403754,0.960240945785585,0.0,0.0,0.0,0.0
0.028395643170396983,-0.023207641534460147,0.7379262214268144,-0.006922963973541721,-0.5234898973712854,0.00034221854929106254,0.8520036870850305,0.0689721185519712,-0.8501929513232096,1.0247014031695323,-0.05861128048550867,-0.8650284837915598,0.8897567294036811,-0.07089741864751203,0.6794602156223616,1.0962797385934702,0.15258450318437483,0.7883734302291102,0.964068011358885,0.0,0.0,0.0,0.0
0.02752482972632765,-0.024281972842422114,0.7379296790810483,-0.006950276368658902,-0.5231471090252603,0.0003510857752254598,0.8522139829383757,0.0716716296135339,-0.8456623803927059,1.0147314050593452,-0.06085008817207084,-0.8572752222679966,0.8901230913950647,-0.07849416916588461,0.6816076200580856,1.0869888290521923,0.16135072575223244,0.7854508920132404,0.9682435707100159,0.0,0.0,0.0,0.0
0.026362925932835034,-0.0254938418233309,0.7379833960649297,-0.007007588501110397,-0.5227204226768841,0.0003933701187333783,0.8524752774596155,0.07461162021551915,-0.8398513600744874,1.0020030451753141,-0.06297163209715564,-0.8495025049814942,0.890263657905946,-0.08673586189744321,0.6834975367416636,1.0774281458068244,0.17121433303484798,0.7816808867309488,0.9726345154135008,0.0,0.0,0.0,0.0
0.0248872781871686,-0.026876969651297197,0.7380878219751155,-0.00711574337035669,-0.5221846042558876,0.0004904803073941635,0.8528026528473496,0.07782852942876552,-0.8327285794939855,0.9862651554884554,-0.06520774398217495,-0.8419536538406123,0.8903745142057334,-0.09636120988336366,0.685164851482655,1.0680100604497993,0.18263147800480417,0.7770085780384494,0.9772955902148652,0.0,0.0,0.0,0.0
0.023106314464256875,-0.028435441949344716,0.7382025427271317,-0.0073118084164067116,-0.5215076764457721,0.0006821592514543193,0.8532149878691591,0.08125163755348182,-0.8246867033278326,0.9677692831883126,-0.06787825835954063,-0.8347729239622839,0.89082358962491,-0.10893521368825859,0.6869199196960404,1.0593204305580497,0.1960621993636265,0.7713200693173565,0.9825013084006469,0.0,0.0,0.0,0.0
0.021095241619655345,-0.030116179440505535,0.7382293415721528,-0.007659494528941405,-0.5206463196578902,0.0010403803541002364,0.8537374652543801,0.08461486934723193,-0.8169204782973237,0.9478346441786062,-0.07133845550601886,-0.8281109465884778,0.892113688770556,-0.12754186280545277,0.6896567719505878,1.0523310498788214,0.21198163545385054,0.7645081433351999,0.988773759286472,0.0,0.0,0.0,0.0
0.019048786209424386,-0.03176091254063076,0.7379938497011801,-0.008272545007374923,-0.519498509666975,0.0017132631285477877,0.8544295922908717,0.0872586334845144,-0.8123073252150457,0.9300360500847552,-0.07601216313905768,-0.8221760317992954,0.8944028737625277,-0.15781145195722646,0.6953650650286819,1.0482278944976442,0.2310270493268564,0.7565295304090105,0.9968007420258966,0.0,0.0,0.0,0.0
0.01728991920327578,-0.03316636807898836,0.7373434850163866,-0.009270273149923553,-0.5179543676827416,0.0028597828181041347,0.8553532350300257,0.08841558569496685,-0.8146055454585304,0.919660322994693,-0.08268729074090359,-0.8181807658719654,0.8978791124005474,-0.20615718365541813,0.7055952540687259,1.0484648820154752,0.25371933511380856,0.7478394569264746,1.0067738051488748,0.0,0.0,0.0,0.0
0.016056784966835404,-0.03420431481927101,0.7362808338587787,-0.01047505395263877,-0.5162171259533112,0.004339689645953866,0.8563826943668171,0.08800512156495156,-0.8237490500009698,0.9182160233067339,-0.090522565459505,-0.8194607444098904,0.9037438719897027,-0.26178823728221745,0.714856957743025,1.0550123571624033,0.2771413933148249,0.7391464548587966,1.018242240960935,0.0,0.0,0.0,0.0
0.016108178398195255,-0.03429008012729242,0.7362600318625024,-0.010450856786294828,-0.5162053084405446,0.004376797067768205,0.8563899244956483,0.08808693182467958,-0.8237793445987152,0.9181904235591949,-0.09054542239350913,-0.8194582596555504,0.9037547599141237,-0.2618053595869041,0.7148752809129731,1.0550228394028656,0.2771783043638155,0.739096320927242,1.0182171826499262,0.0,0.0,0.0,0.0
0.016108178398195255,-0.03429008012729242,0.7362600318625024,-0.010450856786294828,-0.5162053084405446,0.004376797067768205,0.8563899244956483,0.08808693182467958,-0.8237793445987152,0.9181904235591949,-0.09054542239350913,-0.8194582596555504,0.9037547599141237,-0.2618053595869041,0.7148752809129731,1.0550228394028656,0.2771783043638155,0.739096320927242,1.0182171826499262,0.0,0.0,0.0,0.0
0.017701225777281518,-0.03423091752859193,0.7367312684677365,-0.009675885857964238,-0.5196224980199766,0.00227521915308963,0.8543381415822124,0.09281007494988679,-0.805551836627562,0.9103887199240981,-0.08493586214348946,-0.8114626618139511,0.9035695647900782,-0.30197765347970784,0.7439059143385833,1.0572397141363754,0.26740042624447224,0.753156950558326,1.0173290448820795,0.0,0.0,0.0,0.0
0.02001419181992492,-0.034472086634905016,0.7366735978695048,-0.008829129998970814,-0.5237506355749266,-0.0003616860324614385,0.8518257963818281,0.09957669175954083,-0.7864054752286442,0.903866304526806,-0.07736280114702271,-0.806300170136757,0.908954511135266,-0.3625089738567054,0.7823964722147957,1.0635277050966674,0.25801029532891945,0.7690005706068995,1.0216744517297733,0.0,0.0,0.0,0.0
0.021638815213722802,-0.03711302995423284,0.737272885377532,-0.011186793401581114,-0.5199387828671586,0.005068607518184096,0.8541152304823013,0.07968397614106337,-0.8078437698319938,0.8986215858297778,-0.0847678073699452,-0.827641313634013,0.9453609801235939,-0.2360879424622066,0.7446473854464003,1.039800552515609,0.20477154663135955,0.7264032027834191,1.0243692188372606,0.0,0.0,0.0,0.0
0.024639354919805893,-0.03814259064859965,0.7379381300709887,-0.011152526058647133,-0.5239577267441538,0.003688159746310999,0.8516632663355251,0.07192484517749186,-0.8049669092896296,0.9078292260703006,-0.07808119842756309,-0.822029658188836,0.9562967084326399,-0.27769587116042616,0.783745869024242,1.0340332161824597,0.13264311055947836,0.7231156763250881,1.0331950960156224,0.0,0.0,0.0,0.0
0.026045274762743126,-0.04139744580533407,0.737437845111541,-0.013877206733822364,-0.5193542081914888,0.009327118788335833,0.8543954789335947,0.04953748045273633,-0.8310034791838231,0.8962870657029469,-0.08443263557324315,-0.8495364781765378,0.9958436198220467,-0.1517130152809271,0.7383229411192337,1.0155426314488176,0.1214093399521753,0.6948595333388473,1.0349187228090846,0.0,0.0,0.0,0.0
0.029142906182836808,-0.04249532537282902,0.7374764239142974,-0.01310312308354437,-0.5234064739538058,0.006720562001690689,0.8519558704739835,0.044480112290383705,-0.833129249681113,0.9091027629391767,-0.07481953076893015,-0.8494547185601196,1.0105156378070874,-0.20460805833170928,0.7783447004420927,1.0151366272916806,0.07235025446829917,0.6997514876216031,1.0485664217365231,0.0,0.0,0.0,0.0
0.031990213212323974,-0.04319444770557901,0.7372499432312178,-0.012038977003155427,-0.5279801580964555,0.0034692962776795146,0.8491642830880824,0.04226063747392754,-0.8339554908553277,0.9225436485515548,-0.06464064923372967,-0.8465745101034821,1.0201566689167856,-0.2810299045524415,0.8259541602973384,1.019739339274895,0.029038779040035517,0.7083416965688996,1.0608751615068277,0.0,0.0,0.0,0.0
0.03241639809567029,-0.04621995201174849,0.7365624719875099,-0.01361680309803355,-0.522315735139276,0.00849919172306417,0.852601090334373,0.022196626164433266,-0.8621335083851575,0.9078686919073202,-0.07057347349585362,-0.8777662931185073,1.0566222711144775,-0.1534720818940275,0.7708386775546301,1.0037900604604295,0.047358228674772226,0.6857845020065985,1.0636321825832717,0.0,0.0,0.0,0.0
0.03444669415652901,-0.04669443592080052,0.7369288840507833,-0.011735459318332033,-0.5277987506477078,0.0035058342564572168,0.849281147168282,0.02387005397498625,-0.8593588174565386,0.9245571176616043,-0.05632978708150488,-0.8683216758119977,1.05617857675505,-0.2605357227170306,0.8307888548687766,1.0070430308710152,0.0007486878321414092,0.6960577179578338,1.075882628376818,0.0,0.0,0.0,0.0
0.0357113938955896,-0.04766181305859669,0.7372400043008727,-0.010693750312116834,-0.5328031944946406,-0.00018983284369764524,0.8461715922932297,0.02428269539336834,-0.8582976408300506,0.9401378957712233,-0.04402492440745471,-0.8553289034260542,1.0504333173456222,-0.38231069459598244,0.8938088687162846,1.0080738630746626,-0.03310635729505723,0.7072593493943057,1.0855775672336339,0.0,0.0,0.0,0.0
0.03437489038403299,-0.05119745749150251,0.7374715666982926,-0.011308088519848946,-0.5285950903192934,0.0031042643813773965,0.8487930967950998,0.01282953337993879,-0.8720713956955599,0.9244399377819332,-0.04382086606893612,-0.873815349494282,1.068320547508205,-0.25461843834393416,0.8413561775356042,0.9897394352974341,-0.031679945082164214,0.68277697093306,1.0900309106585304,0.0,0.0,0.0,0.0
0.032132748565218194,-0.05536696684350259,0.7377016661002502,-0.013405096005925328,-0.5235302225938387,0.008177880555712575,0.8518623901203375,-0.002273485372666766,-0.8872176409569554,0.903621306816062,-0.0457214882108675,-0.8893407457399578,1.0806879651539498,-0.1280842759182356,0.7861605952936249,0.966934206807733,-0.003162410337623274,0.6630543110362016,1.0890716288934095,0.0,0.0,0.0,0.0
0.030346394611754174,-0.05890725776810133,0.7371417706181083,-0.014977336062006881,-0.5226107693130557,0.01058953002314006,0.8523740523129447,-0.01264045456390703,-0.8965408667801855,0.8951514303545796,-0.042013740439214665,-0.8905954758512704,1.0789132133336814,-0.09518619986062578,0.7707619518051746,0.9582288474534952,0.005518250384593741,0.6566023883690493,1.0965504604221301,0.0,0.0,0.0,0.0
0.029839046275628178,-0.06074282758942947,0.7371236985629296,-0.012234505702545202,-0.5274092709195859,0.004835484088651327,0.8495095031321979,-0.006178840064939755,-0.8894828306213408,0.9082373457743015,-0.02260035453348441,-0.8809493242683224,1.0682439152416119,-0.17896102046327803,0.8130551109720316,0.9658166046469725,-0.04414580406608667,0.6599696103979359,1.104199390165155,0.0,0.0,0.0,0.0
0.028698107682697087,-0.06303348854473176,0.7366848579703092,-0.010146211256679022,-0.5313604343224706,0.0003342886384923631,0.8470850202222187,-0.0035346384198949574,-0.882593365412836,0.9184146118020369,-0.0054828820485190895,-0.8708472800779511,1.0546288619230766,-0.25703522470914053,0.8476961871361266,0.9742254242551214,-0.0794117837513997,0.6629175861134862,1.105188435925566,0.0,0.0,0.0,0.0
0.02561482931960106,-0.06819702786908771,0.7369005811068166,-0.011123865961203886,-0.5271608347367754,0.003640062123012547,0.8496849203519172,-0.015299126252511834,-0.8875929857599679,0.902950154816724,-0.0005694125731935569,-0.884681391216346,1.0617692015538986,-0.1308094477856501,0.7933084283917885,0.9531980063530606,-0.058920352069840504,0.6475311598874177,1.094102784783867,0.0,0.0,0.0,0.0
0.022321179241667325,-0.07330648151189013,0.7370338220049015,-0.012139008140280008,-0.5254084700479549,0.005818723915634016,0.8507436314984856,-0.023485643420485855,-0.8845083105128516,0.8940522596443983,0.007470750551394616,-0.8859623613430462,1.055643922325859,-0.07501462366768741,0.7687362253379219,0.9338072413502706,-0.04030539900000487,0.6419759739247619,1.0852174397358956,0.0,0.0,0.0,0.0
0.018985334684629086,-0.07817931980236127,0.7364308798805143,-0.012156714057427145,-0.5252715252704265,0.006016351057127481,0.8508265643263396,-0.026253631570292695,-0.8768911779465386,0.8899785827382481,0.019619844166831935,-0.8841371360846672,1.0439447731978875,-0.048661032798024695,0.7547005447946161,0.9264441345813157,-0.04485635467705602,0.6364406865525506,1.0773298729352172,0.0,0.0,0.0,0.0
0.015299679058705903,-0.08287378216295413,0.7353031150606071,-0.011815183978613725,-0.5253149720487358,0.0056637053497861425,0.8508069722391197,-0.028985270264858733,-0.869914113602789,0.8866505338712859,0.032423251087756455,-0.8816703764865954,1.028333035390534,-0.02547381178125891,0.7381592662847699,0.9264516182226635,-0.049627586203888914,0.6319613338301067,1.067431977767959,0.0,0.0,0.0,0.0
0.011270777888816691,-0.08747494698161812,0.7340522959389675,-0.011438276770867017,-0.5252508461748134,0.005288335379088574,0.8508541284650817,-0.032561374121012635,-0.8636558547207547,0.8826909714330047,0.044873473459518504,-0.8776709809318943,1.0089290274907132,-0.001071445752214687,0.7191805896673397,0.9280064767920495,-0.05301066692851864,0.6271198753335835,1.0562129738534805,0.0,0.0,0.0,0.0
0.0069837980931639065,-0.09193959657797951,0.7328717129883835,-0.011135013697722003,-0.5250786307030213,0.005021849281524672,0.8509660534232756,-0.036856060790172215,-0.8578622343718559,0.8784790119525941,0.05655917291712653,-0.871420183304766,0.9857191033243822,0.023595553443350025,0.6994101758511375,0.9286251972197159,-0.056735162375260766,0.6214164637398787,1.0441662710680015,0.0,0.0,0.0,0.0
0.0025255579351349464,-0.09612307848625247,0.7317528347501442,-0.010932751020190156,-0.5248765166734722,0.004857686550986367,0.851094307395617,-0.04231221741635341,-0.8524648264533784,0.8749420740310906,0.06712593556507754,-0.8625425002243248,0.9585033540670799,0.04651166707202002,0.679794730605866,0.9287232027884457,-0.06263662879782853,0.6149519152189682,1.0314763575613226,0.0,0.0,0.0,0.0
-0.0016880497870717416,-0.09998139944386178,0.7305314157832103,-0.010810832618695145,-0.5245773450328105,0.0047517833478732665,0.851280891087914,-0.04898261661232449,-0.8463523218538034,0.8712810210537735,0.07663951353336827,-0.8539977344447276,0.9316397199905315,0.06688570589358855,0.6607567271139273,0.9295442904573135,-0.0724904171832388,0.6089934010885368,1.0179229439921211,0.0,0.0,0.0,0.0
-0.005398212181974907,-0.10326022545577294,0.7291704898257271,-0.01075884111969616,-0.5242558582035967,0.004690440297311011,0.8514799130025258,-0.05682580734628677,-0.8399629887887002,0.8682154064492673,0.08456359793352076,-0.8465289459012211,0.9068831786330589,0.0834446753716429,0.6429244085134576,0.932504903308764,-0.08913548137577992,0.6029803337183263,1.0034866069977741,0.0,0.0,0.0,0.0
-0.008347273396786443,-0.10566324998122145,0.7276901355628194,-0.01075454896520349,-0.5239725043195503,0.004650747140764281,0.851654580768921,-0.06500479095407972,-0.8344336550908271,0.8659196336791463,0.09029035382817502,-0.840895443813433,0.8861709256605719,0.09495025294042793,0.6270007957414957,0.9388046248840797,-0.11515638264244063,0.59604134472252,0.9880781358910934,0.0,0.0,0.0,0.0
-0.010135718137197613,-0.10694137010809068,0.7263078252983957,-0.010751471062791085,-0.5237978869663392,0.004617050761709486,0.8517622099634662,-0.07110917483507652,-0.8313297213259767,0.8641730786972359,0.09331826161237239,-0.8382042030557127,0.8729871564916414,0.10050422151993459,0.6150842130451337,0.9475622620723888,-0.14613514931289803,0.588921243052,0.973751164531294,0.0,0.0,0.0,0.0
-0.010144227883415818,-0.10709092421699586,0.7262203573485906,-0.01065973206845308,-0.5238125855905329,0.004644192334929105,0.8517541762543613,-0.07112610546443393,-0.831358705608696,0.8641794071992982,0.09352672148448246,-0.8382885740522951,0.872793162975036,0.10052804740490565,0.6149935491022708,0.9474741193244111,-0.14615632738029916,0.5889508976068439,0.9737567588611529,0.0,0.0,0.0,0.0
-0.010144227883422053,-0.10709092421700174,0.7262203573485903,-0.01065973206845831,-0.5238125855905071,0.004644192334954342,0.8517541762543769,-0.07112610546448934,-0.8313587056088406,0.864179407199388,0.09352672148443429,-0.8382885740524024,0.8727931629751263,0.10052804740517224,0.6149935491021069,0.9474741193243229,-0.1461563273801415,0.5889508976068183,0.9737567588611233,0.0,0.0,0.0,0.0
-0.010144227883422053,-0.10709092421700174,0.7262203573485903,-0.01065973206845831,-0.5238125855905071,0.004644192334954342,0.8517541762543769,-0.07112610546448934,-0.8313587056088406,0.864179407199388,0.09352672148443429,-0.8382885740524024,0.8727931629751263,0.10052804740517224,0.6149935491021069,0.9474741193243229,-0.1461563273801415,0.5889508976068183,0.9737567588611233,0.0,0.0,0.0,0.0
-0.008380453987529348,-0.10864490566308546,0.7266404631339392,-0.010579001717547805,-0.5243917309854466,0.004764554523059124,0.8513980832823996,-0.06767436684108447,-0.8334226499601017,0.8740854494467861,0.09732265297546644,-0.8460412930436197,0.8917358498336384,0.11071122333316491,0.6229209370492359,0.9375449906148433,-0.13916657043665281,0.5966905188889609,0.9767821020820064,0.0,0.0,0.0,0.0
-0.004899650984916316,-0.11170936237899949,0.7287706819853674,-0.010067953239970803,-0.5254545704754168,0.004076835435047516,0.8507523200655338,-0.05832431658438454,-0.8321925830863082,0.8909888208469625,0.10720359345216804,-0.8590564060910005,0.9284946492257855,0.12445795267700496,0.6475850866218111,0.9062958224788055,-0.1306776674258923,0.6163679097650059,0.9690681198448678,0.0,0.0,0.0,0.0
-0.0014432045251664416,-0.1147158069062082,0.7309259187643593,-0.010212719594527141,-0.5252541888227368,0.004502902538262567,0.8508721768581832,-0.051992028590032456,-0.8398508096060281,0.9153399167884768,0.09632239524419246,-0.8507339912577132,0.9120050763636458,0.09552812343226888,0.6409998445904481,0.9452961842899752,-0.11077096527535166,0.637593369880098,0.9589822375655791,0.0,0.0,0.0,0.0
0.0025827768040251053,-0.11804220477484792,0.7323346949590472,-0.010197334123595853,-0.5251994444211023,0.004543315892008553,0.8509059385368294,-0.04390430025414514,-0.8499302339495861,0.9428875785388692,0.08329672166739066,-0.8484302389254308,0.9021486036218106,0.06573511554973575,0.6418089898203339,0.9753741414203085,-0.09149889162026228,0.6563214255915815,0.9554796611150596,0.0,0.0,0.0,0.0
0.006711304819298554,-0.12151190800800296,0.7331878422904088,-0.009982836858080454,-0.5252442409687799,0.004306419232234056,0.850882062950437,-0.03472458290340523,-0.8599075384692434,0.9692724068186879,0.07148608595207193,-0.8497184814435702,0.8972316273553144,0.04366358950515915,0.64528276353782,0.9981245166012142,-0.07310346323933391,0.672496364205124,0.9566585367262818,0.0,0.0,0.0,0.0
0.010637149172699114,-0.12499032020387718,0.7339051743264705,-0.009659535590121528,-0.5253430200764104,0.003934499704186169,0.8508266123842491,-0.025061273485630572,-0.8678413266358296,0.9920656114099382,0.06155657721130318,-0.8531810790767236,0.8956419174828086,0.02804601013114324,0.6490650462389115,1.0163585059499984,-0.05481095188849988,0.6877905054888023,0.9585867865790432,0.0,0.0,0.0,0.0
0.014170373148204444,-0.1283849084170109,0.7346196645406796,-0.009301313537241002,-0.5254298708569908,0.0035271817931776042,0.8507787581776391,-0.01539399899844881,-0.873392658837825,1.0105091615636592,0.05332498734497759,-0.8579815443393956,0.8956423987124863,0.016442127841369863,0.6524958992575789,1.0316425762437371,-0.0361208599026389,0.7024117365206853,0.9600021387413402,0.0,0.0,0.0,0.0
0.017225176758019878,-0.13163472768535914,0.7353543232384891,-0.008949369370063777,-0.525474005195022,0.003128148450620469,0.8507568356113578,-0.006014767439071093,-0.8767246441409752,1.0246124010294193,0.0461739339032302,-0.863579036785525,0.8961108071135732,0.006958371878464752,0.6554631943686455,1.044975538840355,-0.01702882385690765,0.7161324495115474,0.960727159293241,0.0,0.0,0.0,0.0
0.01978841124823181,-0.13470007979567863,0.7361002951199294,-0.008623673958896145,-0.5254679712642193,0.002756186727220983,0.8507652125337759,0.002892220112066954,-0.878175382177559,1.0347802713872793,0.03949473370086546,-0.8695945445528946,0.8963972031800135,-0.001531591209983963,0.6579900823617295,1.0569782957512306,0.0022098725746765614,0.7287305377431506,0.9608870491657886,0.0,0.0,0.0,0.0
0.021889497716805845,-0.13756008043744053,0.7368416225236124,-0.008331932599772988,-0.5254148327282694,0.0024176410716008276,0.8508019672402776,0.011225225981829795,-0.8781224442964014,1.041579514499909,0.03286842527199801,-0.8757254441269271,0.8961567025393674,-0.009642098827335265,0.6601357501051078,1.0679987365091455,0.021255916505145255,0.740075605871771,0.9606637960897667,0.0,0.0,0.0,0.0
0.023576101380764464,-0.14021104655855846,0.7375601025547273,-0.008075379452612991,-0.5253199751058034,0.0021130490770317634,0.8508638240195269,0.018948903434740583,-0.8769224868631716,1.0455851385775647,0.02608740457817496,-0.8816473529411215,0.895257976117132,-0.017712209864409356,0.6619762918990373,1.0781435773106247,0.03980919449722037,0.7501016380104861,0.9602613059339253,0.0,0.0,0.0,0.0
0.024895231824730624,-0.1426643249088471,0.7382342265141989,-0.007852379363698387,-0.5251864129716339,0.001840527513477814,0.8509489903788529,0.0260809335561503,-0.874878683232577,1.0472731793521757,0.019111998951072975,-0.8868961886495383,0.8937604271577504,-0.02596830993824758,0.6636025789475806,1.0872407782252134,0.05767807519042367,0.7587496476162069,0.9599327033576761,0.0,0.0,0.0,0.0
0.02587945238798022,-0.1449441762003841,0.7388384412084548,-0.007660997346844872,-0.5250124744924596,0.0015977219133530387,0.8510585514708395,0.03268047704765654,-0.8722154439559168,1.0469431181876654,0.012010423338329738,-0.8907676612734304,0.8919355689935516,-0.03463771513409183,0.6651406535827588,1.0947268739192246,0.07481156489476098,0.7659193358971493,0.9600048065311483,0.0,0.0,0.0,0.0
0.026540363495885982,-0.1470863751214671,0.739347297287706,-0.007500698226847287,-0.5247914664926152,0.0013827731776019146,0.851196654223323,0.03884013399598152,-0.8690522495201635,1.0446767639442014,0.0049015588352004065,-0.8923309410130339,0.8902771494013647,-0.04402353367639934,0.6668480313270763,1.0994567887148137,0.09130573355802325,0.7714643672226124,0.960849696315579,0.0,0.0,0.0,0.0
0.02687598467149738,-0.14913707075118515,0.7397508077194942,-0.00737118688626453,-0.5245153001110785,0.0011922831324576522,0.8513682775475048,0.04468522598966869,-0.8653657451975284,1.0403648029304298,-0.002084357695582675,-0.8907350380200058,0.8893807234444553,-0.054490009364697146,0.6693499714793519,1.0995440482266339,0.10735889540536843,0.7752838596795831,0.9627293888096764,0.0,0.0,0.0,0.0
0.02688547600154101,-0.15114818355510629,0.7400702331603088,-0.007269214370331931,-0.524175283457626,0.0010229379105095345,0.8515787599116049,0.05035348669780217,-0.8610037741488921,1.0338144614747289,-0.008839886790028298,-0.8860168247410967,0.8892631300956504,-0.06601059426387428,0.6725864638562142,1.0949686965780474,0.12320915788238214,0.7774370996051855,0.9656070065603323,0.0,0.0,0.0,0.0
0.026570566007908393,-0.15317712237526426,0.7403567938260733,-0.0071901280413474156,-0.5237611827590054,0.00087300764634702,0.8518343520610602,0.05598970867448822,-0.8557042615911162,1.0247671736940136,-0.015317110502036506,-0.8791118495448189,0.8893816699406579,-0.07822099914726721,0.6758278171470117,1.0875892103061904,0.13913945104048553,0.7781388923637446,0.9691543013709035,0.0,0.0,0.0,0.0
0.02592327781019429,-0.1552861739667953,0.7406720755079186,-0.007133655739156998,-0.5232602543980871,0.0007432662776576436,0.8521427490029383,0.06174346033589362,-0.8491220431696239,1.0128328039260361,-0.021560620328254013,-0.8710417711447537,0.8893059926742456,-0.09092033006713045,0.6787196726549595,1.0785687336474012,0.15550047634953687,0.7776260594512507,0.9729545145600664,0.0,0.0,0.0,0.0
0.024921505863745665,-0.15753319486806946,0.7410663886646377,-0.007107872810854856,-0.522654388693368,0.0006422498834612209,0.8525147832376596,0.067732526709375,-0.8409297442437724,0.9975340436945247,-0.027714593328395487,-0.8625868472958803,0.8888280406491729,-0.10415660459094433,0.6810521519666894,1.0685757104700615,0.17267707423220507,0.7760370948759262,0.9766791502560727,0.0,0.0,0.0,0.0
0.02354038289981497,-0.159957213115317,0.7415638815301161,-0.007131504658065623,-0.5219203070936875,0.0005904422359514236,0.8529642349257728,0.07399805880606061,-0.8309563097114709,0.9784790394947156,-0.03398153315067293,-0.8542296667677268,0.887949249381763,-0.11831287708674372,0.6827219069397695,1.0580419367064378,0.1910011619246285,0.7733798082166647,0.9801600908373651,0.0,0.0,0.0,0.0
0.021774521345929592,-0.16255642342282528,0.7421459401220715,-0.007237545294776296,-0.5210291521076678,0.000626504562962247,0.8535079660343561,0.08044093973007602,-0.8194155375334431,0.9556885523052696,-0.040523296463202116,-0.8461789759782915,0.8868382312993609,-0.13433851540543687,0.6838701044336775,1.0473974147905698,0.2106546577719175,0.769533846812275,0.983442320340899,0.0,0.0,0.0,0.0
0.019672108743003142,-0.16525328304189443,0.7427267088343874,-0.007482114564105004,-0.5199399882448561,0.0008204410997342805,0.8541696280376576,0.08672012446189288,-0.8073311474087564,0.9302034454151051,-0.04729741535062748,-0.8383761897949882,0.8857452614884533,-0.1543551515091326,0.6852558491700955,1.037280223908126,0.23160931858168568,0.7642630154695235,0.986866278932577,0.0,0.0,0.0,0.0
0.01738675558518914,-0.1678365988384112,0.7431161946030782,-0.007978851334759209,-0.5185304532805465,0.0013480015092881292,0.8550208709990533,0.09197034157460227,-0.7977240453911398,0.9055679912534959,-0.05415191534833064,-0.8302950902516514,0.8842475757570784,-0.1829092508925489,0.6890342653346814,1.0281825788998133,0.2540285782662383,0.7572113976070548,0.9911312170529817,0.0,0.0,0.0,0.0
0.015099935008623493,-0.1701499427263836,0.743091648575586,-0.008859224268510072,-0.5166505003718787,0.0023661749449691892,0.8561472862930639,0.09557301424120541,-0.7940815383642991,0.8860043594824093,-0.06206688796844495,-0.8221623529139473,0.8820589672285283,-0.22741498432540683,0.6973467775908151,1.020783047571802,0.27846984690782395,0.7478624373965592,0.9973309931635216,0.0,0.0,0.0,0.0
0.013054592494872367,-0.17206874699760807,0.7423689802311513,-0.010166974725900474,-0.5142197675137209,0.00392425902332893,0.8575892160668623,0.09720929292793432,-0.7997339371438347,0.8759406330565996,-0.07300652948111383,-0.8155913877504951,0.8787173730431452,-0.29225969750951775,0.7104738366435933,1.0156848734607777,0.3044976852067484,0.7354684747872613,1.0072143251026993,0.0,0.0,0.0,0.0
0.011476849922825633,-0.17341632815960123,0.7407230305237011,-0.011529462265987908,-0.5115360646339592,0.0056921612774109625,0.8591655983444931,0.09702308892527488,-0.8142597674223968,0.8763287246429593,-0.08611332020409618,-0.813439499242972,0.8734005950427511,-0.35765230590607233,0.7217372624269808,1.0135646124919728,0.3266211992223766,0.719374969566938,1.0224610909546095,0.0,0.0,0.0,0.0
0.011572057332563987,-0.17360031837949247,0.7406938716185559,-0.011459435711654791,-0.5114931448394865,0.005762904384667364,0.8591916160254566,0.09722475810166423,-0.8143127210652692,0.8762395020685134,-0.08615844805833728,-0.8134420492131075,0.873408194047347,-0.357682218105993,0.7217527570576103,1.013571203603218,0.326695000603683,0.7192785716606253,1.022370066905463,0.0,0.0,0.0,0.0
0.011572057332563987,-0.17360031837949247,0.7406938716185559,-0.011459435711654791,-0.5114931448394865,0.005762904384667364,0.8591916160254566,0.09722475810166423,-0.8143127210652692,0.8762395020685134,-0.08615844805833728,-0.8134420492131075,0.873408194047347,-0.357682218105993,0.7217527570576103,1.013571203603218,0.326695000603683,0.7192785716606253,1.022370066905463,0.0,0.0,0.0,0.0
0.012607604857027763,-0.17467556398795495,0.7407062717958846,-0.01091356153012707,-0.5137819944640318,0.004714017360208431,0.8578384080813923,0.10219929834064624,-0.8001942930750696,0.8661838270906311,-0.08060569718565368,-0.811597171047824,0.8782089733351828,-0.3744870637815075,0.737185514663737,1.0158752434187588,0.33423298346844715,0.7295173097069474,1.02813407522193,0.0,0.0,0.0,0.0
0.014193349007071483,-0.1767452228662834,0.7405044127670435,-0.010295312802881925,-0.5162242945715878,0.0033813916802156703,0.8563848728338574,0.11042809140523645,-0.7849955636192573,0.8556005598443623,-0.07196735975156826,-0.815730172087431,0.8927413121480176,-0.391206133304596,0.7553654290658004,1.0177342072100306,0.3511050397905065,0.7423441025164131,1.0379112147752168,0.0,0.0,0.0,0.0
0.01585007421825937,-0.1798676892380732,0.741677856718464,-0.011744693734891466,-0.516651839595055,0.005890851882189324,0.8560947591687623,0.09608819836961378,-0.7963807861555585,0.8653592611003494,-0.06992966213557615,-0.8196284363287788,0.9129393991292315,-0.3366488192129872,0.7567746621946246,0.9983633140868802,0.27601568628135675,0.7186085709370409,1.0366432786416993,0.0,0.0,0.0,0.0
0.01762642102529722,-0.18308191051250547,0.7420296890911421,-0.012819069647171622,-0.517769550424157,0.007542689929773844,0.8553908299342299,0.08263786573625864,-0.8071581285009916,0.8712187935209557,-0.06547944096258061,-0.8247973130787776,0.9330502273562012,-0.29601121644322065,0.7603352681448966,0.9870144809836803,0.2060719211017068,0.6998978820087555,1.0387194106105586,0.0,0.0,0.0,0.0
0.019571637863636002,-0.18630500243724613,0.741835368118611,-0.01319075432098937,-0.5192070776543929,0.007964656864415715,0.8545095545136172,0.072205900145978,-0.8169341265277846,0.8761830384418853,-0.0581480170992884,-0.8337995970473019,0.955948819349248,-0.2718109847168016,0.7671080764069602,0.9812588562935931,0.15800675629782207,0.6907522068190981,1.0440386191236735,0.0,0.0,0.0,0.0
0.02137826377789638,-0.18942379053624264,0.7413908799173771,-0.013244468355426735,-0.5205023100906405,0.007927923062231338,0.8537207255796289,0.06398774195682752,-0.8264424957984595,0.8800604710832168,-0.05004806004675995,-0.844404426555184,0.9785838284733187,-0.25271028003606083,0.7731604903617855,0.9778577376467916,0.12603554237386683,0.6860709519274073,1.0517921214528503,0.0,0.0,0.0,0.0
0.022877473919077622,-0.19234897212546573,0.740907487595273,-0.013193592409543561,-0.5215526850619012,0.00778273886249769,0.8530815639784101,0.057263832333972454,-0.835678691619646,0.8828450737906768,-0.042169246305486546,-0.854586358351751,0.998637780873112,-0.23450781705971255,0.7773897068267585,0.974960457264,0.10343740181964751,0.6827827695155001,1.0608269233954157,0.0,0.0,0.0,0.0
0.0240060269169679,-0.19507124674713008,0.7404827270867237,-0.013155689287317064,-0.5223087428078315,0.007714506944549782,0.8526200744812901,0.05122162295991104,-0.8448264323190211,0.8844241994607838,-0.03496029035761785,-0.8636308541428604,1.0154838160330748,-0.21478271030363957,0.7791484544377631,0.9716593245410544,0.08624224287777092,0.6793105940886991,1.0702966083958732,0.0,0.0,0.0,0.0
0.024801325548221526,-0.19755051603284646,0.7401507273335195,-0.013078274576999232,-0.5229783640037814,0.0075803769642624145,0.852211902875744,0.04556168146741473,-0.8536363828874708,0.885484131910328,-0.02816409250256429,-0.8707834101045606,1.028647766383955,-0.19691662369892085,0.7802290323212672,0.9682795579164065,0.07126682585247773,0.6757349684694385,1.0798517282026199,0.0,0.0,0.0,0.0
0.025283529679497273,-0.1998400514610635,0.7398998293681663,-0.01298117080832044,-0.523565602940683,0.00741143305181259,0.8518542241967946,0.0398619535234216,-0.862240089870257,0.8859372111859032,-0.021739879920364115,-0.8762714542283432,1.0385935180285526,-0.1803049840685548,0.7805503740727167,0.9648264849507915,0.05742858764856655,0.6718133206262019,1.0891793267589531,0.0,0.0,0.0,0.0
0.025471052462264502,-0.20201104589167515,0.7397049662713545,-0.012868993359838047,-0.5240756927394117,0.007217746032393282,0.8515438693524968,0.03392263101511637,-0.8705280852203106,0.8857302429215846,-0.01554585834918574,-0.8804152746921016,1.045813248925778,-0.16442597903702372,0.7800120648795438,0.9613664301137821,0.04420068893548922,0.6674722641790163,1.097983145430226,0.0,0.0,0.0,0.0
0.02537059162584301,-0.20413676419554347,0.7395292530156713,-0.012730866631621228,-0.52452616865544,0.006984416149139827,0.8512704866031174,0.027723569834313327,-0.8781082084649474,0.884985211067544,-0.009369917386747898,-0.8834926056581295,1.050650042081527,-0.149077616596206,0.778556272065839,0.9581039674953572,0.0313606240975311,0.662774141695493,1.1058687904226534,0.0,0.0,0.0,0.0
0.024967691930020186,-0.2062937403056272,0.7393296875495773,-0.012554714144457852,-0.5249269375491677,0.006698120195916362,0.8510283335905122,0.021348353504614427,-0.884280089093515,0.8839696325726791,-0.0029936133639908435,-0.8857333363323888,1.0532822175907892,-0.13394649771258596,0.7759783163945215,0.9552892895333217,0.01896291251476322,0.6578443942050972,1.112153102733171,0.0,0.0,0.0,0.0
0.02422099499094901,-0.20856989723983385,0.739063360734789,-0.012353762561603079,-0.5252402419237561,0.006398771843585337,0.8508402485386664,0.014859580164290181,-0.8881744061934058,0.8829519155058249,0.0037010162978181422,-0.8873999123963765,1.0538155478205107,-0.1178131851855643,0.7715870739664259,0.953025621870636,0.007575009157413565,0.6528740521447203,1.1156158920806754,0.0,0.0,0.0,0.0
0.023086184113758734,-0.21103228362770016,0.7386994323002937,-0.012131892301956536,-0.5254498336093428,0.006107244061887829,0.8507161636639192,0.008381701170058974,-0.8889411188006876,0.8823193596388273,0.010825482557204114,-0.8885632500814318,1.0521384696736251,-0.10007396600105897,0.7649656496965721,0.9513866751848151,-0.002156708822036644,0.6485709205906267,1.1143697133177437,0.0,0.0,0.0,0.0
0.02153803779777768,-0.21371445809051706,0.7382302986410814,-0.011871837689729901,-0.5255886541555261,0.005791227292037406,0.8506362840716962,0.0020942922972868976,-0.8865368148659774,0.8821767653989337,0.01853566090094167,-0.8890421044736976,1.0479580673992726,-0.08124323285001961,0.7563260064153947,0.9503973888653673,-0.010369272650266437,0.645062693828747,1.108437789503141,0.0,0.0,0.0,0.0
0.019559292149449445,-0.2166491930288738,0.7376759239075542,-0.011594098161931115,-0.5256405263236633,0.005482607184066864,0.8506101075066408,-0.00401553491034852,-0.8819255402336141,0.8819623031622374,0.026828248711245374,-0.8886979760298985,1.0411108506398572,-0.06090477083577192,0.745622586855315,0.9496359901433992,-0.017391841315711167,0.6416084761809572,1.0996615423584697,0.0,0.0,0.0,0.0
0.017143318496734453,-0.21983495498042885,0.7370689159751785,-0.011313258742560572,-0.525610600567223,0.005195788083466401,0.8506341813812673,-0.009977261584889041,-0.8761065335449233,0.8812569220711111,0.035649762975830626,-0.8872221721838366,1.0312831108492566,-0.03926773796340723,0.7331262641362678,0.9486681372731112,-0.023633653299237525,0.6379092416926241,1.0891847640991217,0.0,0.0,0.0,0.0
0.014290233690674566,-0.2232337887762509,0.7364373161050694,-0.011044393275443,-0.5255109384309118,0.004940645948831418,0.8507008081483456,-0.015882930640262034,-0.8698653110675143,0.8798962997412278,0.04485749005098875,-0.884223651357987,1.0180473187072316,-0.016878571330827388,0.7191910159774272,0.9472075808338672,-0.029471109693966862,0.6338458302776165,1.0776174536113727,0.0,0.0,0.0,0.0
0.011017517396127639,-0.2267691411061657,0.735800843127271,-0.010805557705667733,-0.5253555049724554,0.004727166119460583,0.8508010855765787,-0.021898391082779124,-0.863715860995822,0.8779711775832345,0.05420577373661418,-0.8793099324457847,1.0009783528146592,0.005527101518214016,0.7041986325545191,0.9451528243858603,-0.03533639249985976,0.6293421779914222,1.0652435320560867,0.0,0.0,0.0,0.0
0.007379876759762982,-0.23032446454924171,0.7351667307301684,-0.010615952531284776,-0.5251599208886094,0.004564052156205268,0.8509251015641967,-0.02821254066303502,-0.8578870568143476,0.8758100178340475,0.06335354368653742,-0.8722105498078785,0.9798550919238769,0.02708880919306716,0.6885622407182541,0.9426389423314423,-0.041862063268888285,0.6243430117736519,1.0521888155191974,0.0,0.0,0.0,0.0
0.0034932628398019663,-0.23375336507585326,0.7345102244747056,-0.010505805562154647,-0.5249150780886003,0.004500283210456358,0.8510778673516041,-0.03500689258140807,-0.8523685511472933,0.873843657347072,0.07179879332829033,-0.8630942145213016,0.9550815287558942,0.04730746330127913,0.6724540031602316,0.9401118000783297,-0.0496435181514074,0.6189195172951738,1.0385505527577186,0.0,0.0,0.0,0.0
-0.0004758795783765231,-0.23690834805145686,0.7337591385078587,-0.010471658656595745,-0.5246404185930258,0.004478819256354344,0.8512477405089445,-0.04313933618154549,-0.8468730053810599,0.8724139481348042,0.07934074960646884,-0.8526051667444643,0.9276560265174554,0.06501368175807304,0.6562186963893094,0.9386926624889242,-0.0608214059223916,0.6133449816631195,1.0241218504338578,0.0,0.0,0.0,0.0
-0.004006947132244301,-0.2396559544156532,0.7328136559141237,-0.010487746308971518,-0.5243035540602632,0.0044933007421692735,0.8514549903697645,-0.051965713030069305,-0.8408833632415313,0.8711377551622348,0.08575691946904326,-0.8437228049021565,0.9026184322477274,0.07974179657419003,0.6406379265656058,0.9394057677698142,-0.07751177113663502,0.6080346797983487,1.0090144269057006,0.0,0.0,0.0,0.0
-0.006827687338034825,-0.24169755317074718,0.7317073947814278,-0.010526180873618732,-0.5240055388503498,0.0045043863182846,0.8516378956306876,-0.060832842514594906,-0.8357068171046971,0.8708111647189941,0.09046426179622469,-0.8369818143949147,0.8817855100057334,0.09003945826949092,0.6267146141082367,0.9433522912086884,-0.10235583254727908,0.602009704748387,0.9933773812710108,0.0,0.0,0.0,0.0
-0.008536607997956993,-0.24279041068737275,0.7306220561704762,-0.010543633971275584,-0.5238174918876939,0.004499020891493297,0.8517533831962063,-0.06740816682534748,-0.8330959387199947,0.8713282033214622,0.09296645595302798,-0.8335716224895755,0.8686721991710376,0.0950213846038698,0.616373197768428,0.9499311262538478,-0.1313363674561567,0.5958793990175457,0.9791271976987291,0.0,0.0,0.0,0.0
-0.008549958348705153,-0.24292355805297014,0.7305489811431947,-0.01045741000708,-0.5238273989769451,0.004521306170890197,0.8517482353650645,-0.0674216435849313,-0.8331243281396624,0.8713347511799047,0.09315520544831672,-0.8336502538482697,0.8684836280517333,0.09504176624433598,0.6162870393323737,0.9498463603931663,-0.1313568650038507,0.5959097870062039,0.9791340770156978,0.0,0.0,0.0,0.0
-0.008549958348705203,-0.2429235580529702,0.7305489811431948,-0.010457410007080068,-0.5238273989769451,0.004521306170890182,0.8517482353650645,-0.0674216435849312,-0.8331243281396625,0.8713347511799048,0.09315520544831683,-0.8336502538482696,0.8684836280517333,0.09504176624433636,0.6162870393323734,0.9498463603931665,-0.1313568650038503,0.595909787006204,0.9791340770156977,0.0,0.0,0.0,0.0
-0.008549958348705203,-0.2429235580529702,0.7305489811431948,-0.010457410007080068,-0.5238273989769451,0.004521306170890182,0.8517482353650645,-0.0674216435849312,-0.8331243281396625,0.8713347511799048,0.09315520544831683,-0.8336502538482696,0.8684836280517333,0.09504176624433636,0.6162870393323734,0.9498463603931665,-0.1313568650038503,0.595909787006204,0.9791340770156977,0.0,0.0,0.0,0.0
-0.0068157047894379826,-0.24439581119589257,0.7309725199565632,-0.010385909419946469,-0.5244006765594449,0.004643211772154579,0.8513956212560386,-0.0641615464017803,-0.8351148456144201,0.8810568623295306,0.09673332926816063,-0.8411506390374344,0.8870054927548155,0.10483184700350805,0.6241075650497533,0.9402705713262957,-0.12437222962833706,0.6038199655514106,0.9815972741017844,0.0,0.0,0.0,0.0
-0.003394118017617514,-0.24730991356331702,0.7330616022831871,-0.009871955812298912,-0.5254594587145937,0.003945423307979809,0.8507522173763211,-0.05515396645014383,-0.8337610920347256,0.8975360676164131,0.10622015415255427,-0.8537854790478012,0.9229491628339765,0.11759261923233504,0.6483905618029848,0.9101513973546097,-0.1162847099808735,0.6234144840280658,0.9733312474353334,0.0,0.0,0.0,0.0
2.3434221784268596e-05,-0.25017141574085644,0.7351385497215793,-0.010020621430060071,-0.5252551695156779,0.004351523070447363,0.8508746431115333,-0.049115232110391906,-0.8415519778745921,0.9217607038053242,0.09531863072053257,-0.8465646404485142,0.9081099557054584,0.0890452456837719,0.6420468192354021,0.9482740510680557,-0.09670951936136424,0.6443531059333613,0.9630489193319729,0.0,0.0,0.0,0.0
0.003991100331397419,-0.2533366005515999,0.7364619159611455,-0.009999872348116818,-0.5251912545867686,0.004367324174260673,0.8509142583939666,-0.041353729450544795,-0.8517334007982991,0.9490701402649622,0.08216510451088191,-0.8449659169534952,0.8990949589010863,0.05954656987362389,0.6428952421291788,0.977755147748021,-0.07792868306430924,0.6627101813171838,0.9593562585646923,0.0,0.0,0.0,0.0
0.008028655987870371,-0.2566371137619303,0.7372978172351701,-0.009784497361454555,-0.5252290701193799,0.004114134966947635,0.8508946829111044,-0.03253428634280009,-0.861485835952579,0.9748914936948472,0.07016663062613135,-0.8466939850703749,0.8946753551766421,0.03762141444314336,0.6461876916407638,1.000168490406259,-0.060019899463890365,0.6787896303992977,0.9597745642926784,0.0,0.0,0.0,0.0
0.011857119591570792,-0.2599517414984855,0.7380104505164827,-0.009463658037351724,-0.5253156916916608,0.0037310680325946806,0.8508466033136644,-0.02323923569001353,-0.869212175318789,0.9971600145598121,0.06001705628614666,-0.8504037165798659,0.8932625329301823,0.02194312512089017,0.6497766791561068,1.0181942449636707,-0.04221102866816746,0.6939832639589586,0.9609116615496736,0.0,0.0,0.0,0.0
0.015290687955127502,-0.2631974768951478,0.7387199229353456,-0.009110259877907251,-0.5253874585784235,0.0033159941005494035,0.8508078665107578,-0.013919494527507648,-0.8745945833769191,1.015118400444913,0.05157193536311187,-0.8553295745720433,0.8932559887087881,0.010148185549846825,0.6530195046457815,1.0333432086830412,-0.02397252305305461,0.7084353594788431,0.9616634915542385,0.0,0.0,0.0,0.0
0.018247725396251392,-0.26631669903019967,0.7394485973061461,-0.008764616350233442,-0.5254146280217545,0.002911873030353521,0.8507961983674173,-0.004854525885023789,-0.8777935150833793,1.0287794356392768,0.04422922500054158,-0.8609710060878598,0.8936172494001252,0.00041971909328188464,0.6557985288517224,1.0465780124036548,-0.005287365071746954,0.721932787932461,0.9618597463289316,0.0,0.0,0.0,0.0
0.020718431656575054,-0.26927075371083825,0.7401895618563944,-0.008445672034412616,-0.5253907920367777,0.0025366274867227546,0.8508153452940586,0.003778578749037311,-0.8791344862796732,1.0385459351893205,0.03738866866434112,-0.8669781296155475,0.8937489695278201,-0.008318369515768628,0.6581334389341033,1.058498697120245,0.01359216336828616,0.7342827817362635,0.9615962576485921,0.0,0.0,0.0,0.0
0.022734581709951917,-0.2720388260336009,0.7409285599391706,-0.008160224910325947,-0.5253197996636924,0.0021957336371330708,0.8508629134969427,0.01188216802475589,-0.878982619499495,1.0449801464858421,0.03063589383260846,-0.8730704180919819,0.8933387138109459,-0.016654270326309128,0.660084465498389,1.069440910899144,0.03232784017201526,0.7453803315105727,0.9610243269422044,0.0,0.0,0.0,0.0
0.024345263156815775,-0.27461683824532224,0.7416483421412088,-0.007908770636944644,-0.5252074243819093,0.0018888669024004349,0.8509353940828634,0.019423221573379473,-0.8776852350697734,1.0486519826704934,0.023765619212419417,-0.8789393341294903,0.8922736809286742,-0.02491712385403584,0.6617311593543761,1.079504062489011,0.05062082623325952,0.7551767493724925,0.9603240967995066,0.0,0.0,0.0,0.0
0.025598155510604206,-0.2770155856948497,0.7423278258412781,-0.007689126037621764,-0.5250566979640179,0.0016133813782457883,0.8510309854902042,0.02642067737955124,-0.8755391745896012,1.05003233884471,0.016739182236533763,-0.8841316629237703,0.8906230510148189,-0.033331966516075416,0.6631682839106366,1.0885114862287901,0.0682820860805878,0.7636235693915445,0.9597317531575518,0.0,0.0,0.0,0.0
0.02652595026175074,-0.2792588512741639,0.7429416644370553,-0.0074990001426423845,-0.524865667480823,0.0013663310426542915,0.8511509438614591,0.032934445234042424,-0.8727646233069785,1.04941560191779,0.00962508404002715,-0.8879505095450905,0.8886625924609927,-0.04212812496386326,0.6645251793498318,1.095896450969717,0.0852650825165731,0.7706263935413077,0.9595620306959881,0.0,0.0,0.0,0.0
0.02714003396046299,-0.28138215155071544,0.7434645585207305,-0.007337621683669021,-0.5246271046322489,0.0011453230071041673,0.8512997407660947,0.039058132714060244,-0.8694781190293758,1.046878521528873,0.002542056371956835,-0.8894699122412488,0.8868853089219368,-0.051611242040041125,0.6660616426467845,1.1005113505500568,0.10167039752745602,0.7760410599603531,0.9601780931438885,0.0,0.0,0.0,0.0
0.027438112415118933,-0.2834317517589769,0.7438866970849091,-0.007204507699143103,-0.5243323631187088,0.0009465265261067792,0.851482690453951,0.04491861178664102,-0.8656531998047943,1.0423060756699725,-0.0043810103759730845,-0.8878427872899965,0.8858855410094604,-0.06214458113011583,0.6684039896969028,1.1004678768052332,0.1177014671423246,0.7797673224385397,0.9618352507688874,0.0,0.0,0.0,0.0
0.0274189603985925,-0.28546028427158054,0.7442296836304597,-0.007096290392470103,-0.5239720788338805,0.0007662371908091486,0.8517055337061834,0.050656445987063314,-0.8611334725887918,1.035497865913711,-0.011040062871198943,-0.883107735366793,0.8856783893715603,-0.07370546927247118,0.6714920387677585,1.0957472212939725,0.1336034239191225,0.7818644353838844,0.9644903700712004,0.0,0.0,0.0,0.0
0.027083905591445297,-0.2875263007725873,0.7445452598151346,-0.007008346374119712,-0.523535225104164,0.0006025391969135953,0.8519749926510455,0.05641968168523894,-0.855652152173858,1.0261865080469612,-0.017393685543610433,-0.8762002985659686,0.8857200735058487,-0.08593755331166399,0.6745931772633265,1.0882112898590375,0.14966870655287565,0.7825474812418614,0.9678080213959307,0.0,0.0,0.0,0.0
0.026424633962288196,-0.28969298829348555,0.7448954532415468,-0.006940543229203007,-0.5230082418382136,0.00045618805468118986,0.8522992430604659,0.06235985686609245,-0.848860892178833,1.013974484469401,-0.023496090451648455,-0.8681406308718714,0.8855762984751961,-0.09864532025649873,0.677346515681096,1.0790269595111706,0.1662526204107764,0.7820521045453647,0.9713633254212628,0.0,0.0,0.0,0.0
0.02541881423325644,-0.29201812904417895,0.7453307587578584,-0.0069013035777085174,-0.5223722456913291,0.0003360477233310458,0.8526895660275512,0.06859313803272295,-0.8404332130840124,0.9983817266869525,-0.02950273250184103,-0.859704490787121,0.8850292732754974,-0.11188259179119912,0.6795339267839077,1.0688679397099992,0.18373429930226953,0.7805131703177716,0.9748184650076391,0.0,0.0,0.0,0.0
0.024041531606716474,-0.29453862316755597,0.7458749103247757,-0.006909916974602815,-0.5216033275581404,0.00026338281318717997,0.8531600977291267,0.07515255381676,-0.8302069330405104,0.9790234844964908,-0.03562404258946239,-0.851363535271369,0.8840617428473528,-0.12604300097952426,0.6810460789847179,1.0581759171949487,0.20242125347304235,0.7779304930721812,0.9779953068625481,0.0,0.0,0.0,0.0
0.022287578171088503,-0.29724687660710536,0.7465076114994732,-0.007000167125861127,-0.5206720395131897,0.00027818400079958013,0.8537280290250796,0.08192054107471843,-0.818421018222591,0.9559481641409643,-0.04201626745177523,-0.843302880539934,0.8828087562404909,-0.1421019258404331,0.6820287855476234,1.0474005575787497,0.22244161715404437,0.7741673312783911,0.9809308546395825,0.0,0.0,0.0,0.0
0.02020560412565059,-0.3000535809581789,0.7471386238629573,-0.007229571258899466,-0.5195358491180249,0.00045288134569182226,0.8544179478914942,0.08852164353513785,-0.8061621190511703,0.9302699977882365,-0.048604681463504745,-0.8354172250979391,0.881455048189867,-0.1622583166274689,0.6832768939211292,1.0372114148012064,0.24367708527687548,0.7689542887201345,0.9839680309296487,0.0,0.0,0.0,0.0
0.01795027231759283,-0.30272627797467827,0.7475674855676195,-0.007717034712132526,-0.5180602064712713,0.0009754205119147051,0.8553087854108716,0.09401501772363406,-0.7966559027843095,0.905757207931704,-0.055210894596536504,-0.8270746886920637,0.8793716710397064,-0.19124236551685256,0.6870507409346452,1.0280661312555988,0.26621912487124705,0.7618628296533474,0.987832557988385,0.0,0.0,0.0,0.0
0.015680902570347436,-0.30511727214775325,0.7475653608659157,-0.008587771380698507,-0.516100709013479,0.001990730909267123,0.8564825423375213,0.09783451681980875,-0.7932349253940718,0.8863763028729217,-0.06292853340954883,-0.8185391464259669,0.8762014613527506,-0.2363870479086628,0.6952670913187925,1.020710968558825,0.2905232413336091,0.7522452422899547,0.9937401597980732,0.0,0.0,0.0,0.0
0.013621725894046234,-0.3070929345663189,0.7467913419677605,-0.0098686649585104,-0.5135687421476731,0.0035292392381503215,0.8579844410076405,0.099683197147478,-0.7993346207829113,0.8765067567712579,-0.07390567316564452,-0.8112334247122405,0.8708918640010161,-0.3014489907784257,0.7079829047044803,1.0157033100198651,0.3157868736943879,0.7389243758857316,1.0039472889092718,0.0,0.0,0.0,0.0
0.012019114783433555,-0.30845827727078046,0.7451092717824471,-0.011203668178631278,-0.5107598971580881,0.005290587276976241,0.8596341169129266,0.0995886882287889,-0.8144749447368536,0.877288417576142,-0.08728314304489167,-0.8079915204522836,0.8626065069883028,-0.3673194096767712,0.7185864471851544,1.0138589355853558,0.3367956803728286,0.7218513958214042,1.0192554183814209,0.0,0.0,0.0,0.0
0.01212022258932449,-0.30865444637008776,0.7450784482712814,-0.011122818381112249,-0.5107116026523613,0.0053636448263069654,0.8596634068876577,0.0998106808079859,-0.8145320332859723,0.8771964011884962,-0.08732994039690209,-0.8079932178654393,0.8626134708761883,-0.36735103343093595,0.7186008693450174,1.013865444152375,0.3368719206132071,0.7217560644983704,1.0191608824400817,0.0,0.0,0.0,0.0
0.01212022258932449,-0.30865444637008776,0.7450784482712814,-0.011122818381112249,-0.5107116026523613,0.0053636448263069654,0.8596634068876577,0.0998106808079859,-0.8145320332859723,0.8771964011884962,-0.08732994039690209,-0.8079932178654393,0.8626134708761883,-0.36735103343093595,0.7186008693450174,1.013865444152375,0.3368719206132071,0.7217560644983704,1.0191608824400817,0.0,0.0,0.0,0.0
0.013136309402088561,-0.30983084005761746,0.7450872047676015,-0.010667038908154711,-0.5128677335888393,0.0044876704299530775,0.8583896335222667,0.10463766775908796,-0.8012528011851905,0.8675765818356902,-0.08197140793714648,-0.8066861579434647,0.8681237233023217,-0.38086046047730177,0.7327535183860333,1.0157531127152788,0.34704049550739413,0.7321277866111042,1.0250280996594487,0.0,0.0,0.0,0.0
0.014706685654844665,-0.312012733984451,0.744866018212699,-0.010137725329715788,-0.5151776889122344,0.003350810139240705,0.8570168886571601,0.11270088152287183,-0.7869577772341932,0.8574657469021038,-0.0735649000822792,-0.8114811923651181,0.883563078891558,-0.39349118829778107,0.749326367657564,1.017384984338278,0.3672740573465162,0.7452119494817245,1.0350933139969858,0.0,0.0,0.0,0.0
0.01652103372489166,-0.3150552336276708,0.7460502281544154,-0.011475900102153809,-0.5161635034103704,0.0055369409077020365,0.8563952847542788,0.09883269785088013,-0.7966579990782029,0.867668532254094,-0.07084149722357043,-0.8135517423692546,0.9025900703974007,-0.3479242654732752,0.7553194139410504,0.9994337861654913,0.2887208724711138,0.7228686565803311,1.0349274201379226,0.0,0.0,0.0,0.0
0.018414638879008623,-0.31828934499366823,0.7463834848535484,-0.012566226495718858,-0.5174881269110513,0.007172509639312693,0.8555680473014545,0.08548054165368817,-0.8069480612922738,0.8734266238353116,-0.06627968860351624,-0.8183273908421497,0.9229988438155089,-0.30835290238264573,0.7601539638926827,0.9888139812523749,0.2160244596784719,0.7040113247639338,1.0375464448858893,0.0,0.0,0.0,0.0
0.020432453864240942,-0.3216049800851784,0.7461815137019374,-0.013025774983487087,-0.5189078958236677,0.007751656707135131,0.8546957567791172,0.07496234539236045,-0.8166634066789058,0.8777850837952264,-0.059114469857904084,-0.8277285177944167,0.9469589560669083,-0.2812795734725674,0.7664166926361649,0.9828942192745277,0.16680581912969417,0.6941474769752685,1.0430300527689351,0.0,0.0,0.0,0.0
0.0223008775329206,-0.3248208323329392,0.7457356015030201,-0.013149309460499244,-0.5201719192213275,0.007844190083339394,0.8539243167847189,0.06669381327097636,-0.8260780617632659,0.8811891484226931,-0.05110312426815236,-0.8388013679966495,0.9706430714458812,-0.25960612009699063,0.7719628899653921,0.9791610081076138,0.13435370874528924,0.6890450312946742,1.050878114301132,0.0,0.0,0.0,0.0
0.02385834726221079,-0.3278184341316462,0.7452411726046301,-0.013135959873138574,-0.5212206475962009,0.007769074924556632,0.8532854883053063,0.05997246837997452,-0.8352692913827883,0.883783082783329,-0.04322914845771545,-0.8493581535672258,0.9915244151030397,-0.23995202257677772,0.7759859801173685,0.9761311828355513,0.11157455622631851,0.6856827437474078,1.0600512426087045,0.0,0.0,0.0,0.0
0.025057949843856234,-0.3305603588895087,0.7448001643007831,-0.013069309576108282,-0.5220869191109828,0.007634984913192119,0.8527579662751801,0.054122372542901094,-0.8442269556577402,0.8856780510692983,-0.03581891206929796,-0.858403447979781,1.0087378228942434,-0.22148868545303055,0.7786087273848562,0.973144947311335,0.09388353269237146,0.682668625024478,1.0697515914607065,0.0,0.0,0.0,0.0
0.025900690646091042,-0.33307532538837603,0.7444488980740909,-0.012998966133450609,-0.5227782209033525,0.007513186280859108,0.8523365008378416,0.048525632164613426,-0.8530596450171457,0.8867724279324357,-0.028977475221616932,-0.8657874819775602,1.0224075762216178,-0.2033072125740601,0.7797745532334448,0.9698659732784427,0.07890843195036083,0.6793082458431741,1.0794762258394002,0.0,0.0,0.0,0.0
0.026420579286858606,-0.3353980132973305,0.7441840771612346,-0.012913212147492668,-0.523369633879495,0.007366127765394846,0.8519760650667488,0.04287734588596709,-0.861699632037523,0.8872236939074181,-0.022535811492650753,-0.871505590837886,1.032805014308076,-0.18618404280104786,0.7800597502016926,0.9664315881744393,0.06515582160828337,0.6755625137227315,1.0889529460909495,0.0,0.0,0.0,0.0
0.026644079066847796,-0.33758808097725557,0.7439780314144271,-0.012800938675164405,-0.5239003596293292,0.007170882603448575,0.8516531733000129,0.03701936592475947,-0.8699926115152405,0.8871084942143459,-0.01630071905620874,-0.8757873798712658,1.0403480155957623,-0.1702698322626846,0.7796629327242514,0.9630456177741006,0.051943698227102035,0.6714640639678052,1.0979208072135653,0.0,0.0,0.0,0.0
0.026576473018551615,-0.33972572789020866,0.7437928215010827,-0.012662416021381117,-0.5243693191729125,0.006935345688814597,0.8513685343673527,0.030888644449579575,-0.8775880855843381,0.8864652332552432,-0.01009998070635032,-0.8789755044458362,1.045454398658834,-0.15491814010611793,0.7783395157257456,0.9598594295242252,0.039145223870749715,0.6670050400367943,1.1059742313413052,0.0,0.0,0.0,0.0
0.02620260021155756,-0.3418928557814164,0.7435858494373947,-0.012493773541032422,-0.5247736203392134,0.006662621289472531,0.8511240582290772,0.024537229137898884,-0.8838064522812388,0.8855021237623879,-0.0037419619670493705,-0.8813435272828019,1.048355780033815,-0.13951905138303355,0.7757635223634538,0.957069612520152,0.026880528684175405,0.6622617785007614,1.1124191030857817,0.0,0.0,0.0,0.0
0.025485199363443182,-0.3441709538629094,0.7433129775241859,-0.012298509570904068,-0.5250933166643099,0.006373029812580227,0.8509319243910273,0.018055234589191654,-0.8877430502153476,0.8845475044283609,0.00292270595795448,-0.8831098587469978,1.0491199859425024,-0.12322848818054902,0.7714087548087335,0.9548523867690876,0.015609271593640839,0.6574693237918262,1.1160452469331712,0.0,0.0,0.0,0.0
0.024383127913124268,-0.34662189364681656,0.7429419820924468,-0.01207166764040625,-0.5253266278679879,0.006069906242448778,0.8507933739348443,0.011594844322411976,-0.8885228781547746,0.8840478020427657,0.01003439376693238,-0.8843114310848487,1.0476047138654183,-0.10572636533789208,0.7649842288777435,0.9533509378336988,0.0058711033924480245,0.6533627319556686,1.114972253886677,0.0,0.0,0.0,0.0
0.022866868193700526,-0.349290548226456,0.7424664587128068,-0.011812007694171402,-0.5254782678942088,0.0057539864720428996,0.8507055648606129,0.005276495025338814,-0.886157629933626,0.8839976640737988,0.017697227915814996,-0.8848539675214601,1.0436065202400135,-0.08691810574456685,0.756438197142327,0.952477090119349,-0.002294001204196717,0.6499910492010156,1.1091995526317056,0.0,0.0,0.0,0.0
0.020920870570850725,-0.35220710224977536,0.7419069359167855,-0.011532307069206488,-0.5255444542819819,0.0054421844272150265,0.8506705679026255,-0.0008761681961432007,-0.8815779320648468,0.8838856428340008,0.02593828606915638,-0.8845655425032194,1.03693167026012,-0.0666381264870217,0.7458423461037376,0.9518451107309125,-0.009306645070917682,0.6466470007227443,1.1005773442811178,0.0,0.0,0.0,0.0
0.018537987969876508,-0.35537186456588793,0.7412957410751608,-0.011246588492500863,-0.5255295898763089,0.005148908582172692,0.8506854019860288,-0.006888096852543826,-0.8757907330903648,0.8832988662495191,0.034708995567133735,-0.8831451942841793,1.0272728861873397,-0.0450727985118136,0.7334562046068214,0.9510214968273198,-0.015563478970126736,0.6430401117494218,1.0902515061610447,0.0,0.0,0.0,0.0
0.015717228377231163,-0.35875041550833425,0.7406617006951957,-0.010970830478494065,-0.5254425783925725,0.004886927597737996,0.8507442950907351,-0.012848437214570893,-0.869589715975197,0.882066938816303,0.04386925806373973,-0.880214354614362,1.0142151560606505,-0.022706404763978418,0.7196092128425975,0.9496971771468563,-0.021418600934316807,0.6390519487607222,1.0788320653349297,0.0,0.0,0.0,0.0
0.012474813558134864,-0.36226925857093933,0.74002538082993,-0.010723236852849989,-0.5252958634559559,0.0046673860596502794,0.8508392818475353,-0.018916691305533903,-0.8634983400914096,0.8802848132419907,0.05317911560924233,-0.8753852334727499,0.9973366525613514,-0.0002566142024556031,0.7046774821038564,0.947749971929698,-0.027286648967249427,0.6346117760109156,1.0666062658721789,0.0,0.0,0.0,0.0
0.00886367815333176,-0.3658136789561477,0.7393945044370882,-0.010522766960767947,-0.5251049579098483,0.004498899843299511,0.8509605246156756,-0.02527762987472557,-0.8577629608266083,0.8782978499514394,0.06230280779610943,-0.8683816752225489,0.976405048640112,0.02140188129140391,0.6890791880430359,0.9453026873684266,-0.03376997392917204,0.6296745968086221,1.0537078515571978,0.0,0.0,0.0,0.0
0.004997448897714899,-0.3692365936160158,0.7387451004700452,-0.010397800130222823,-0.5248647113924318,0.004425315227416408,0.8511106491358977,-0.03210457110224754,-0.8523891991595921,0.8765782249608234,0.07074914459035683,-0.859341432265856,0.9517831094089492,0.04169799208124922,0.6730200970238669,0.9428061546777001,-0.04143618562683881,0.6243226661484841,1.0402509125521675,0.0,0.0,0.0,0.0
0.0010420225775192972,-0.3723866571427722,0.7380049401368961,-0.01034706108126135,-0.5245954612103622,0.004396758195444642,0.8512773983384258,-0.04020815135537721,-0.8471170321178608,0.8755454945790292,0.0782874605019466,-0.8488782691434535,0.9244369556789923,0.05948023451885375,0.6568352293960686,0.9413828697575524,-0.05223070202582815,0.6188551265453859,1.0260847395871724,0.0,0.0,0.0,0.0
-0.0024807264264591574,-0.37513487545798824,0.7370695997981411,-0.010345670145435259,-0.5242679809392374,0.0044010735941887634,0.8514791141433569,-0.04899030444002034,-0.8413681299217208,0.8748193124410196,0.08472136934992563,-0.8399889484320033,0.8994302543716016,0.0742623731689107,0.6413164536830426,0.9420887325958117,-0.06809075374852797,0.6138116928053681,1.0113580104486413,0.0,0.0,0.0,0.0
-0.0052976037866805615,-0.3771804534429162,0.7359762617974249,-0.010369986277284514,-0.5239860184060988,0.004402895986947909,0.8516523530211494,-0.05784205500046348,-0.8364883122249186,0.8753328217664265,0.0894530424822385,-0.833167464886274,0.8785493824633267,0.08461020420682841,0.6274889726674248,0.9459875157536984,-0.09150957791203904,0.6082467197256035,0.9962919325258385,0.0,0.0,0.0,0.0
-0.0070033378329462555,-0.3782773728968284,0.7349081809916248,-0.01038473418570784,-0.5238176994306372,0.004394632799251131,0.8517557527024086,-0.06447913291506467,-0.8342862708482888,0.8770367656081958,0.09196811958100727,-0.8296142938580531,0.8653412143743304,0.08967547033669046,0.6172735445618197,0.9524515978525605,-0.11880644052782023,0.6026465104126029,0.9827569429291497,0.0,0.0,0.0,0.0
-0.007017155541794034,-0.3784116812259652,0.7348354823672636,-0.010297220046397463,-0.5238278109680984,0.004416781711251085,0.8517504820984848,-0.06449228526959898,-0.834315005773672,0.8770437181459263,0.09215848166658958,-0.8296926968680151,0.8651527837644931,0.0896957255376091,0.6171873922862139,0.9523674104527627,-0.11882578926823917,0.602677562137254,0.9827641102341507,0.0,0.0,0.0,0.0
-0.0070171555417941,-0.37841168122596525,0.7348354823672637,-0.010297220046397548,-0.5238278109680984,0.0044167817112511455,0.8517504820984849,-0.06449228526959903,-0.8343150057736725,0.8770437181459265,0.09215848166658953,-0.8296926968680154,0.8651527837644933,0.08969572553761025,0.6171873922862133,0.9523674104527623,-0.1188257892682382,0.6026775621372542,0.9827641102341503,0.0,0.0,0.0,0.0
-0.0070171555417941,-0.37841168122596525,0.7348354823672637,-0.010297220046397548,-0.5238278109680984,0.0044167817112511455,0.8517504820984849,-0.06449228526959903,-0.8343150057736725,0.8770437181459265,0.09215848166658953,-0.8296926968680154,0.8651527837644933,0.08969572553761025,0.6171873922862133,0.9523674104527623,-0.1188257892682382,0.6026775621372542,0.9827641102341503,0.0,0.0,0.0,0.0
-0.005308322308522597,-0.3798285834774685,0.7352532687874607,-0.010231207917009008,-0.5243959923109274,0.004536481359169349,0.8514009548794708,-0.06135337739940336,-0.8362441465834485,0.886584793372587,0.09559308503481088,-0.8370072457460142,0.8833265892279787,0.09916085691127632,0.6249010483550581,0.9430967640969077,-0.11180339354141892,0.6106690248901498,0.9848883736560134,0.0,0.0,0.0,0.0
-0.0019423418488684627,-0.38262683001671166,0.7372952163310406,-0.009713079240724337,-0.5254504734566389,0.0038293519189441134,0.8507601260635916,-0.05260896333980046,-0.834790813065465,0.9026574633114232,0.10477483553540326,-0.8493439359242528,0.9185551623064802,0.11110073283981045,0.6487933156521796,0.9140088673566426,-0.10402129041978515,0.6301041810726351,0.9763157700759889,0.0,0.0,0.0,0.0
0.0014327977188173585,-0.3853749912050613,0.7392936073770283,-0.009866064150056518,-0.5252363164729892,0.004218105860155415,0.8508887590155516,-0.0467960860023661,-0.84272026966605,0.9267311387066859,0.09389009837855382,-0.8430584736783213,0.9050258103425367,0.08290043976419209,0.6427301242970035,0.9511881369564237,-0.08466010114503951,0.6506999032441643,0.966015120458979,0.0,0.0,0.0,0.0
0.0053457805880660824,-0.38840505046190554,0.7405349669328808,-0.009835002782262207,-0.5251704188635442,0.004210020294088435,0.8509298323599225,-0.03930453099266601,-0.8529611414654887,0.9537838411193182,0.08070526889399433,-0.8420803255454729,0.8966980954085982,0.053920338450818214,0.6435884575288238,0.9800574328829991,-0.06635404432063749,0.6686733784868825,0.9622768419741552,0.0,0.0,0.0,0.0
0.009318374271659132,-0.39156091868749004,0.7413470535744543,-0.009615775035939182,-0.5252026271549872,0.003938195506141059,0.85091376056338,-0.03078809175821598,-0.8626245634232694,0.9792860853660682,0.06850993084115224,-0.844150290687394,0.8926484523540017,0.03217563209499445,0.6467750371374551,1.0021406055587327,-0.04894244759532042,0.6846354903497676,0.9621233918038545,0.0,0.0,0.0,0.0
0.013069236837724662,-0.39473789683918653,0.7420512533248338,-0.009295654771558652,-0.525280291413849,0.00354425568643616,0.8508711092205322,-0.02180247213103325,-0.8702125080646121,1.001169169508957,0.058166675370279586,-0.8480630907641424,0.8913717433884868,0.016474440324709815,0.6502127836522655,1.0199665245855982,-0.031579252745578254,0.6997271687360462,0.9626380799348025,0.0,0.0,0.0,0.0
0.016418350273395017,-0.39785933957133923,0.7427545599528868,-0.00894597961563745,-0.5253395155210936,0.0031222178192529997,0.8508399465449823,-0.012773920865936456,-0.8754617435130592,1.0187265641073435,0.04954480035712492,-0.8530976244736307,0.8913487986315428,0.004529835528890438,0.6532890230282696,1.0349837086325024,-0.013734087780064033,0.7140222425140934,0.9628563814581884,0.0,0.0,0.0,0.0
0.019289652012283436,-0.40086968423787833,0.7434776367647237,-0.00860577802491538,-0.5253518826629964,0.00271386467883872,0.850837219981317,-0.003972549626710526,-0.8785436515914271,1.0319971469891895,0.04204592720904056,-0.8587799847809571,0.8916089683275952,-0.005399801443183479,0.6558933752819814,1.0481216314354227,0.004607857434442839,0.7273170610034971,0.9626218185011697,0.0,0.0,0.0,0.0
0.021677645172793733,-0.40373080954193685,0.7442145728816912,-0.008292845009914748,-0.5253122403718244,0.0023361080910138895,0.8508659244770372,0.0044299566338857396,-0.8797805538338198,1.0413958577295694,0.035073598529126546,-0.8647821559815375,0.8915997395247609,-0.014344469798600504,0.6580489654905787,1.059961856617949,0.02318880299027482,0.7394433735273789,0.9620096569687092,0.0,0.0,0.0,0.0
0.02361708456484682,-0.4064218451718835,0.7449521705743646,-0.008013058212991744,-0.5252253142497643,0.00199351840173595,0.8509231375710108,0.01233934646906721,-0.8795315337000102,1.0474896283987207,0.028216762443398952,-0.8708416773872449,0.891036181657225,-0.02286969543798359,0.6598197043563238,1.070829180637005,0.041666623302542,0.7503179718708901,0.9611475549027995,0.0,0.0,0.0,0.0
0.025158901934259778,-0.408938400725697,0.7456737696750192,-0.00776621784872981,-0.52509732447883,0.0016849644788017029,0.8510050802317255,0.019724750925898402,-0.8781386880461176,1.050849159892289,0.021272440330790662,-0.8766638359465022,0.8898214164080357,-0.03129617317683435,0.6612889942524972,1.0808163596038347,0.05974142413370646,0.7599075197531842,0.9601969017493944,0.0,0.0,0.0,0.0
0.026351735398201584,-0.41129089031105703,0.7463585293456225,-0.007549644208371146,-0.524931368261301,0.001407113707339368,0.8511099115382571,0.026606493304693713,-0.8758950421538737,1.0519439470080028,0.014203357641958007,-0.8818052710693749,0.8880330353328527,-0.039847796096228495,0.6625550517179617,1.089742397415708,0.07722586715038908,0.7681731302079355,0.9593803949873776,0.0,0.0,0.0,0.0
0.02722860610087196,-0.4135027962985973,0.7469812171185449,-0.007360723617828421,-0.5247252512756297,0.0011564744267851873,0.8512390339901297,0.03304552078820898,-0.8730180599109404,1.0510656749557334,0.007078815402472983,-0.8855758754191019,0.8859502251441658,-0.04875565372772124,0.6637499789392699,1.0970374466378143,0.09407735875543893,0.7750258047768837,0.9590030966817322,0.0,0.0,0.0,0.0
0.027800846677508487,-0.41560952387208816,0.7475166418241689,-0.007198482545282158,-0.5244712721781932,0.0009301943541838211,0.851397205332092,0.03913661907180468,-0.8696222354504693,1.0482876512615835,1.7902157050175144e-05,-0.8870544591827659,0.8840659089943662,-0.05832706927340947,0.6651355101667676,1.1015514015863417,0.1104012515538883,0.7803236669879166,0.9594210194779773,0.0,0.0,0.0,0.0
0.02806596172223935,-0.41765753068406103,0.7479551207894611,-0.007062247218833374,-0.5241602655046531,0.0007240387355359277,0.851590051901865,0.04500832343442622,-0.8656787265866233,1.0434904021396412,-0.006851130102753257,-0.8853976483307328,0.882973475919145,-0.06892421459393597,0.6673389310457584,1.101394171854888,0.12640584801911223,0.7839670123161202,0.9608841995684405,0.0,0.0,0.0,0.0
0.028022461808747994,-0.4197001392645801,0.7483185295788117,-0.0069485428574031895,-0.5237822553763846,0.0005339551344922145,0.8518236798756542,0.05080388622703719,-0.8610278507733322,1.036467485938412,-0.013426929143602719,-0.8806457012354434,0.8826867486336285,-0.08052706838476352,0.6702997191822175,1.0965479802771803,0.14234317507464078,0.7860152072383196,0.9633445376085057,0.0,0.0,0.0,0.0
0.027671401816191425,-0.42179694368869824,0.7486590229298786,-0.006852763998522301,-0.5233254983345004,0.00035785461246677175,0.8521052366689243,0.05667436520869659,-0.8553992400091612,1.0269445887296933,-0.0196737535049265,-0.8737340574721768,0.8826609019475256,-0.09278549496987291,0.6732822794847136,1.0888780581995443,0.15851466622084545,0.7866836758410104,0.9664608250714355,0.0,0.0,0.0,0.0
0.02700423509462513,-0.4240119485901004,0.7490389692882816,-0.006774883011723877,-0.5227757094329227,0.00019645297279217587,0.8524433236252784,0.0627731935999533,-0.848442153696951,1.0145183516443752,-0.025654252743265743,-0.8656813530894122,0.8824580100125464,-0.10550815892657107,0.6759196352186823,1.0795550197193553,0.1752801343075847,0.7862070503823446,0.9698016460201543,0.0,0.0,0.0,0.0
0.02599846016541961,-0.42640291034314903,0.7495089929285654,-0.006723603526596885,-0.5221133397230706,5.886828213431401e-05,0.8528496058352633,0.06921535160899424,-0.8398309136917028,0.9987064712287417,-0.031533926561643076,-0.8572594082879563,0.8818519414359499,-0.11875368416108113,0.6779860404516197,1.0692578867167426,0.19301422053512912,0.7847170173683046,0.9730216940431822,0.0,0.0,0.0,0.0
0.024629062500937042,-0.42900495551213547,0.7500924697420249,-0.006718682949774843,-0.5213139630049355,-3.300743255764925e-05,0.8533385085568439,0.07602718120567106,-0.8294103835501723,0.9791296152062174,-0.03753076571208951,-0.8489306581990467,0.8808094668709071,-0.1329252145412536,0.679366230596401,1.0584380353827842,0.21200362936436112,0.7822062657560201,0.9759348458522964,0.0,0.0,0.0,0.0
0.022890768838157105,-0.43180562774294323,0.7507677133264671,-0.006794581502536815,-0.5203476760872764,-3.8093644459894896e-05,0.8539274724481292,0.08307572600724615,-0.8174395280113003,0.955857694168869,-0.04379754848211302,-0.8408605216729903,0.8794368717820992,-0.14902207663726083,0.6802085853557671,1.047563831307169,0.23233039636377745,0.7785234379183398,0.9785719551518048,0.0,0.0,0.0,0.0
0.020832143965653267,-0.43470572064803475,0.7514408615793474,-0.007010045780058822,-0.5191706471828964,0.00011805767724135295,0.8546418457016007,0.08995669896391773,-0.8050558602391897,0.9300631652304013,-0.05023358210315312,-0.832905071495209,0.8778628393902365,-0.16931340557531682,0.6813358350038451,1.0373349630875235,0.2537988644727628,0.7733695376247836,0.9812788995764604,0.0,0.0,0.0,0.0
0.018607932872233782,-0.43745485785055105,0.7519026383982773,-0.007488487294301221,-0.5176382037203721,0.0006335832937449319,0.8555666024216931,0.09566601344607939,-0.7956540193950482,0.9056968255290909,-0.05663749253717667,-0.8243461307391821,0.8752860887841001,-0.19869214063155316,0.6850924517441455,1.028188676647083,0.2764366219005588,0.766251385641071,0.9848060111477367,0.0,0.0,0.0,0.0
0.016357758467060116,-0.4399121313892173,0.7519182939170468,-0.00834973172496511,-0.5156111726801232,0.0016435349709489457,0.8567804265856851,0.09967904357769476,-0.7924335541565746,0.8865021056900683,-0.0641906144340837,-0.8154768572621292,0.8712854337108803,-0.24440296281597146,0.6931987077610834,1.0209408472387858,0.30060960014945326,0.7564058421485537,0.9904806913226861,0.0,0.0,0.0,0.0
0.01428946916547964,-0.4419363691187803,0.7510967459866051,-0.009606803602640763,-0.5129937532571568,0.003162362100714944,0.8583327547691627,0.10171835788415849,-0.7989250757937223,0.8768179953975827,-0.07520285582157146,-0.8075531442612989,0.8643010227607689,-0.3096901703983987,0.7055282841014299,1.0161278212442848,0.3252097839114336,0.7422821155051971,1.0010141201192015,0.0,0.0,0.0,0.0
0.012667121064093161,-0.44331714930456145,0.7493800388590643,-0.010918753891152624,-0.5100796318224647,0.0049167323800276665,0.8600438219974762,0.10170877697475916,-0.8145961860090071,0.8779448355647359,-0.08881288138265407,-0.8033860963885611,0.8534899029181215,-0.37599575719718925,0.7154987349689235,1.0147137177593786,0.3452791435300918,0.7243667775527995,1.0164277323268331,0.0,0.0,0.0,0.0
0.012773460277103162,-0.4435238527602299,0.7493475378055258,-0.010827825754031989,-0.5100264792195551,0.0049913987776439165,0.8600760632773055,0.10194922581725988,-0.8146568772983267,0.8778506236616028,-0.08886113314488163,-0.8033869902054301,0.8534963260854468,-0.37602896973295635,0.7155121138060995,1.0147201812098512,0.3453576754113412,0.724272377954599,1.0163307011276295,0.0,0.0,0.0,0.0
0.012773460277103162,-0.4435238527602299,0.7493475378055258,-0.010827825754031989,-0.5100264792195551,0.0049913987776439165,0.8600760632773055,0.10194922581725988,-0.8146568772983267,0.8778506236616028,-0.08886113314488163,-0.8033869902054301,0.8534963260854468,-0.37602896973295635,0.7155121138060995,1.0147201812098512,0.3453576754113412,0.724272377954599,1.0163307011276295,0.0,0.0,0.0,0.0
0.013789206654574684,-0.44477013078812716,0.7493758587794745,-0.010432237349985829,-0.5121189655601897,0.004226003305598957,0.8588407736207544,0.10669242925187739,-0.8017667334329023,0.8684495339907619,-0.08360686690258673,-0.8023268778664352,0.8594856410752362,-0.3875490833967118,0.7290776412256488,1.0161942787370861,0.3574191613711931,0.7349771154993042,1.0220870544034633,0.0,0.0,0.0,0.0
0.015362520023326812,-0.44703684089303636,0.7491676987253769,-0.009965070093049078,-0.5143648268307611,0.003221198062010662,0.8575075196057741,0.11466206380035684,-0.7878860128429919,0.8585513720136683,-0.07532955240761517,-0.8074635520840776,0.8755864013187304,-0.39764169381968545,0.7448732518475594,1.0174868466104547,0.38021758966384844,0.7485349950220452,1.0321381574488186,0.0,0.0,0.0,0.0
0.0172786962868467,-0.4500657714239741,0.7504000154668987,-0.011272454617322496,-0.5156551535070241,0.00528180139917202,0.8567057820526995,0.1009283845103969,-0.7966506458177998,0.8689927454457805,-0.07227289791833255,-0.8084534004334725,0.8941390426658994,-0.35614905037229194,0.7534168729547784,0.9999120310218517,0.2993875843311694,0.7265503409852374,1.0329203053596234,0.0,0.0,0.0,0.0
0.019264473922812934,-0.4533263547375689,0.7507286501635388,-0.012385910067727074,-0.5171522687408536,0.006920178379520723,0.8557758066802178,0.08766748352864137,-0.8065670679355993,0.8747776350573507,-0.06762735216707019,-0.8128188155457899,0.9147330016790628,-0.3175841144217983,0.7593833733881238,0.9897495259682226,0.2245667281157137,0.7075588122552586,1.0361134129723781,0.0,0.0,0.0,0.0
0.021349594721205102,-0.45670617931209606,0.7505125370619327,-0.012898588989702078,-0.5186187536708015,0.007584235307607848,0.8548746657363394,0.07719034866204416,-0.8162066013665104,0.8789211250408941,-0.060513333492179244,-0.8223498121686919,0.9393751056697124,-0.28934211307965085,0.765712669131989,0.9839424560006561,0.17423263674311024,0.6973149739559873,1.0419006057760194,0.0,0.0,0.0,0.0
0.023276130506264134,-0.4599959136909079,0.750050259580909,-0.013063319769541119,-0.5199006410733702,0.007746987118941523,0.8540917147933682,0.06895774293220704,-0.8255551591426882,0.8821264012395342,-0.052501989387847434,-0.8337321302223617,0.963854019302317,-0.26641092807556205,0.7711655052656375,0.9802107021500487,0.1412753464255308,0.6920347301414254,1.0499354429589984,0.0,0.0,0.0,0.0
0.024884634176648282,-0.4630576634730537,0.7495385467445544,-0.013072237070654023,-0.5209715695860785,0.007710175731579412,0.853439097704795,0.06229197377720724,-0.8346843034050971,0.8846474738340686,-0.044574872425000626,-0.8445759295607648,0.9854122821302945,-0.24596217863322334,0.7751905688206482,0.9772078903846463,0.11825708548252957,0.6886897290619411,1.0592765473033532,0.0,0.0,0.0,0.0
0.026127549968918994,-0.4658513911850798,0.7490789305940966,-0.013016665541671064,-0.5218594496753006,0.007595838609234602,0.8528983435548406,0.056506434844262515,-0.843614104601499,0.8865382307926488,-0.037096296370502685,-0.8538751301459668,1.0031790455615814,-0.22701487819315033,0.7778549595003662,0.9742869203107458,0.10048109356260197,0.6857969175338146,1.0691356485930712,0.0,0.0,0.0,0.0
0.027009335395547205,-0.46840207964337444,0.7487094638979062,-0.0129447604190194,-0.5225831124365163,0.007469545041366977,0.8524573477134985,0.05100057158006051,-0.8524232147084563,0.8877135141805411,-0.030165583045391617,-0.8614367948920847,1.0172585685541025,-0.2088179625813471,0.779200218353989,0.9711387481030438,0.08543522933533379,0.682651809231358,1.0790215421110014,0.0,0.0,0.0,0.0
0.027562313036004534,-0.47075207196957736,0.7484284030321484,-0.012856452034741658,-0.5232001895894651,0.007316998060735168,0.8520814132428927,0.04543719360717465,-0.8610650116222669,0.8882499264749363,-0.023652366236907786,-0.8673088481813392,1.0279934513001507,-0.1916995599855237,0.7796317833161488,0.9678270544715906,0.07166937068797695,0.6791263360166592,1.0886519556255236,0.0,0.0,0.0,0.0
0.027813330964796008,-0.47296525622477886,0.7482097611921525,-0.012745778606408405,-0.5237442540911856,0.007125069572915803,0.8517503946683941,0.03964429452342061,-0.8693809376034117,0.8881922688194691,-0.017376813646956868,-0.8717396889494505,1.0358375925426133,-0.17563052322234457,0.779290729949089,0.9645131440681541,0.05851264087969445,0.6752180475282685,1.097762887000576,0.0,0.0,0.0,0.0
0.02777037764389076,-0.4751205666620148,0.7480156482933211,-0.012610525553140933,-0.5242216771064598,0.006895956144900541,0.8514605414731864,0.03356585901132563,-0.8770011793603582,0.8876003023276074,-0.011155994416752153,-0.8750558902947279,1.0412057219369524,-0.1600898193465395,0.7779983409160857,0.9613669041091464,0.04579581191650018,0.6709344799945594,1.1059562646698735,0.0,0.0,0.0,0.0
0.02741999895479615,-0.4772992871537572,0.7478019175842863,-0.012446487283392234,-0.5246316428184616,0.0066319606759539336,0.8512125124817533,0.027247988547732527,-0.8832491932210099,0.8866855213715559,-0.00479846386685784,-0.8775346072627529,1.0443393874880285,-0.14449668408296854,0.7754408375643358,0.9586049735478017,0.033634423751772655,0.6663543247888214,1.112541861968477,0.0,0.0,0.0,0.0
0.026727269856544902,-0.47958014374208696,0.7475229262346634,-0.012253195560688594,-0.5249616219249701,0.006345374897836103,0.851014036853601,0.02078830606556221,-0.8872105456202757,0.8858007240013909,0.0018572178211837256,-0.879381828115525,1.0452984339158118,-0.1281550987664367,0.7711557055813599,0.9564445733979392,0.022440812570248662,0.6617265230565115,1.116314060691787,0.0,0.0,0.0,0.0
0.0256515370936915,-0.48202563598632847,0.7471455863677219,-0.01202615041076612,-0.525208615055424,0.006040723519130592,0.8508670824736531,0.014333037757973236,-0.8880151022943628,0.8853861886426341,0.008949713070228148,-0.8806460650218418,1.0439546117907574,-0.11070621089349439,0.7648346532072887,0.9550346924445418,0.012750458903474286,0.6577718327525257,1.115389048522273,0.0,0.0,0.0,0.0
0.024162842492202387,-0.48468285452639626,0.7466637257492886,-0.011765882197612767,-0.5253735875932394,0.0057228405738603254,0.8507710658992153,0.007996517224246318,-0.8856786502129821,0.8854207647575922,0.016578852295638397,-0.8812486789242632,1.0401224066107333,-0.09196404685056747,0.7563887684339415,0.9542718809624087,0.004618122917316267,0.6545240006556352,1.1097608018018847,0.0,0.0,0.0,0.0
0.02224553027732417,-0.4875829201492543,0.746098268318441,-0.01148405667812099,-0.5254536997032528,0.005407089125256427,0.8507275059016072,0.001810070068972467,-0.8811272158566933,0.8853998298038411,0.02477814828136425,-0.8810179710615662,1.0336096090721094,-0.07177134443520203,0.7458967366411983,0.9537700870881356,-0.0023845720901726607,0.6512815172583303,1.1012800157955236,0.0,0.0,0.0,0.0
0.019891832583166267,-0.4907281159278914,0.7454819787657645,-0.0111944305789315,-0.5254524537395903,0.005108230831983721,0.8507339828411843,-0.004245997222046705,-0.8753692349318148,0.8849121340781999,0.033503608996903134,-0.8796587252524566,1.0241148047383644,-0.050288592256212516,0.7336088877424344,0.9530879332620823,-0.008647997849469954,0.6477578144538059,1.0910929407740853,0.0,0.0,0.0,0.0
0.017099819290329672,-0.49408660414477795,0.7448443422287517,-0.010912994978387524,-0.5253772448482459,0.004840003121433844,0.8507856554421052,-0.010255628167676157,-0.8692020063242295,0.8837872092493472,0.04261994157793657,-0.8767990280832932,1.0112291656213201,-0.027970336370666486,0.7198436618438807,0.9519019896529589,-0.014515667734730573,0.6438377051608275,1.0798099484469745,0.0,0.0,0.0,0.0
0.013884499549549557,-0.49758740479592395,0.7442065241717148,-0.010657902807893171,-0.5252393080455259,0.004614282804873304,0.850875306249859,-0.01637299183144026,-0.8631561425191753,0.8821232437665069,0.05189241388830193,-0.8720547550259294,0.9945324641240939,-0.005519899875579284,0.7049714047245944,0.9500752805484609,-0.02038655354592469,0.63945592687145,1.0677203512485063,0.0,0.0,0.0,0.0
0.010297161992179015,-0.5011175687823466,0.7435765901100708,-0.01044797017556621,-0.5250537541148117,0.004439855157021317,0.8509933506763364,-0.02277950089213123,-0.8574916295768034,0.8802766782858871,0.06098968933782299,-0.8651461114156589,0.973783538746112,0.016181837041987942,0.6894109772802836,0.9477202831124698,-0.026834549097188964,0.6345767789969199,1.0549632154873023,0.0,0.0,0.0,0.0
0.00644939168169662,-0.5045298263878972,0.7429310555336519,-0.010310156533302882,-0.5248183674958239,0.004356681648958208,0.8511406470944075,-0.02964138075454141,-0.8522272928713462,0.8787507409661466,0.06942951747306995,-0.8561867841709649,0.9493120147176841,0.036508546267383604,0.6733927977887447,0.9452913715552357,-0.034399740348563364,0.6292940097539976,1.041665078997503,0.0,0.0,0.0,0.0
0.002506650426914246,-0.5076700819502793,0.742197376547871,-0.01024501085551002,-0.5245541725022892,0.004320867827032023,0.8513044637285948,-0.03772756975648414,-0.847125729956551,0.8780256758498043,0.07695743222161351,-0.8457668349619454,0.9220585711008511,0.05432464521153945,0.6572427570997716,0.9439126329126993,-0.04486082248315318,0.6239322012537254,1.0277207526554302,0.0,0.0,0.0,0.0
-0.001008324782389524,-0.510413791330218,0.741267152005914,-0.01022868473646024,-0.5242342670609941,0.004316024974176007,0.8515017200076619,-0.04647717686131619,-0.8415595266417497,0.8777189723575649,0.08339849229997583,-0.8368975700817018,0.8971059551109458,0.06913226461432603,0.6417587096489534,0.9446634237002309,-0.05998951852750431,0.6191444009964419,1.0133036646715865,0.0,0.0,0.0,0.0
-0.003821646620486302,-0.512458936048868,0.7401810405013461,-0.010241242638797228,-0.5239645947654548,0.004310409840487603,0.8516675646920534,-0.05531693979388058,-0.8369043510350009,0.8788691570209677,0.08814303904103767,-0.8300359659018435,0.8762118953176501,0.07951398376288546,0.6279876864162505,0.9485673417963415,-0.08213947320633927,0.6140214855416404,0.9986859264901272,0.0,0.0,0.0,0.0
-0.005524979654696499,-0.5135573139734191,0.7391253146149565,-0.01025400684013226,-0.5238110579436812,0.004300712249407305,0.85176190029479,-0.06200244862566262,-0.8350078263371844,0.8814676470545163,0.09066323666928641,-0.8263830424588327,0.8629426079733856,0.08465015892734953,0.6178589745369334,0.954956270915172,-0.10791099025153937,0.6089509786316137,0.9856797123995967,0.0,0.0,0.0,0.0
-0.005539265733947356,-0.5136924117995438,0.7390530267789355,-0.010165499335378065,-0.5238213580519487,0.004322685629383161,0.8517565155963435,-0.06201532622840137,-0.8350367624764654,0.8814749255519743,0.09085478426179822,-0.826461157104657,0.8627545601791758,0.0846702217277238,0.6177727865522603,0.9548726663391692,-0.10792932023259871,0.6089826182342798,0.9856871210676991,0.0,0.0,0.0,0.0
-0.005539265733947361,-0.513692411799544,0.7390530267789355,-0.01016549933537816,-0.5238213580519487,0.004322685629383226,0.8517565155963435,-0.06201532622840143,-0.8350367624764655,0.8814749255519743,0.09085478426179813,-0.8264611571046567,0.8627545601791756,0.0846702217277255,0.6177727865522598,0.9548726663391692,-0.10792932023259752,0.6089826182342803,0.9856871210676986,0.0,0.0,0.0,0.0
-0.005539265733947361,-0.513692411799544,0.7390530267789355,-0.01016549933537816,-0.5238213580519487,0.004322685629383226,0.8517565155963435,-0.06201532622840143,-0.8350367624764655,0.8814749255519743,0.09085478426179813,-0.8264611571046567,0.8627545601791756,0.0846702217277255,0.6177727865522598,0.9548726663391692,-0.10792932023259752,0.6089826182342803,0.9856871210676986,0.0,0.0,0.0,0.0
-0.0038525901417445765,-0.5150609353136174,0.7394658227643487,-0.01010404830129614,-0.5243843233864897,0.004439915320498505,0.8514101695107742,-0.05898210159607891,-0.8369240568950617,0.8908751547085222,0.09416554843919293,-0.8336162259584537,0.8806232351052072,0.093840515443643,0.6253937025427768,0.9458713662760907,-0.10087873604907376,0.6170401141952676,0.9875163682749867,0.0,0.0,0.0,0.0
-0.0005354360848300183,-0.5177577567116041,0.7414650631364665,-0.009582314252128552,-0.5254346562832533,0.003725328725501828,0.8507718396585302,-0.050472234711010026,-0.8354063098594924,0.9066197576036041,0.10307923968633875,-0.845693791823406,0.9152174266017963,0.10505164803093117,0.6489344707130961,0.9177059728921442,-0.09337635221566637,0.6363222024092197,0.9786952926512145,0.0,0.0,0.0,0.0
0.002801189919163156,-0.5204065229043193,0.7433914719138287,-0.009737204330886935,-0.5252108028214181,0.004097105579434404,0.8509065831084932,-0.044855585935069546,-0.8434768494649468,0.9305790612061514,0.09220746550200558,-0.8401665933091237,0.9026903867836258,0.07722966801031964,0.6431430282790273,0.9539440989986379,-0.07423066057257079,0.6565868208218614,0.9684107909622715,0.0,0.0,0.0,0.0
0.006665317436429175,-0.5233184126650253,0.7445583191842758,-0.009695553996675287,-0.5251426612030099,0.004066865523662524,0.8509492594873861,-0.037599999511897464,-0.8537886938656194,0.9574272237072718,0.07899863233952713,-0.8396850777476826,0.8948652975410976,0.048755298957431914,0.6440307007365422,0.9822054739434634,-0.0563734739717909,0.6741975702261003,0.9646652968259793,0.0,0.0,0.0,0.0
0.010580138753258108,-0.5263487102275071,0.74534677647824,-0.009472001040523531,-0.5251701197548208,0.003778192532672882,0.8509361619852465,-0.02934797455516422,-0.8633882991574857,0.9826634192617651,0.06663904366949698,-0.8420252249541412,0.8910796330513479,0.027201901844810892,0.647135452600589,1.0039593574859549,-0.039423876210264386,0.6900299190757966,0.9640512470750215,0.0,0.0,0.0,0.0
0.014262085121793921,-0.5294063853771142,0.7460416333648345,-0.009152059951307759,-0.5252399719834222,0.0033745435706027766,0.8508982454354878,-0.02063247675589018,-0.87086635092943,1.0042188458186814,0.05613200134061112,-0.846096388597506,0.8898843001235657,0.011499450190999228,0.6504436704823757,1.0215877081850657,-0.02247049091369829,0.7050107959706019,0.9640528651681407,0.0,0.0,0.0,0.0
0.01753619933301687,-0.5324201829607779,0.7467384455277145,-0.008805528051608082,-0.5252881041919766,0.002946460018024137,0.8508737795016919,-0.01185825182602474,-0.876006871740628,1.0214310584462327,0.04735846935397696,-0.8512132749210335,0.8898232099670869,-0.000565869914060782,0.6533716456184344,1.0364762259300992,-0.004982929170943503,0.7191530249187806,0.963826564583149,0.0,0.0,0.0,0.0
0.020331365751024368,-0.5353362678163169,0.7474561698416534,-0.008470129431472032,-0.52528730912929,0.002534537887999728,0.8508790019108582,-0.003287114462731786,-0.8789912470853987,1.0343624828869376,0.03972419990338326,-0.8569232239090766,0.889979673473581,-0.010666265288655389,0.6558177759121172,1.0495210447953012,0.013049943169289483,0.7322598697102918,0.963229931668845,0.0,0.0,0.0,0.0
0.022645946441232214,-0.5381169246331494,0.7481895439799611,-0.00816254890408649,-0.525233597468301,0.00215471575933105,0.8509162109666801,0.0049139445667102395,-0.8801398033444087,1.0434398349866445,0.03263678742022804,-0.8629155375256405,0.8898367584233587,-0.019789443082715116,0.6578100276190638,1.0612853831562674,0.031363799104896034,0.7441832495651348,0.9623222684055226,0.0,0.0,0.0,0.0
0.024517384176525867,-0.5407411839005146,0.748926111434921,-0.007887805382220631,-0.5251325082771283,0.001810727024469791,0.8509819930788588,0.012653546258849685,-0.8798072255661539,1.0492353628475397,0.025688489705525303,-0.868942226480966,0.8891313294851925,-0.028480088177209893,0.659416717058097,1.0720834168614015,0.04961166573090067,0.7548580658129274,0.9612121115401336,0.0,0.0,0.0,0.0
0.025998280371330878,-0.5432043487794543,0.7496495875831388,-0.007645058784128849,-0.5249906672792544,0.0015007092518891504,0.8510723237290775,0.019902619923654323,-0.878331886627487,1.052321540082389,0.018678593176449765,-0.8747200852082729,0.8877794789496468,-0.03705117106317689,0.6607253073581941,1.0820014629074166,0.06749158523690618,0.7642636375695667,0.9600456045368134,0.0,0.0,0.0,0.0
0.027138144058100323,-0.5455164822314559,0.7503392467025364,-0.007431173760853473,-0.5248112139004144,0.0012207026023012212,0.851185336637131,0.026682676675468343,-0.8760041994197291,1.0531675169125245,0.011571251055297004,-0.8798142408910378,0.8858657811706669,-0.0457256787380702,0.6618373754859984,1.0908544117223011,0.0848167324625888,0.772368781971014,0.9590344552732669,0.0,0.0,0.0,0.0
0.027970303615926537,-0.5477007929561454,0.7509699023834242,-0.007243242869048644,-0.5245917104549618,0.0009667008080808408,0.8513225817774512,0.033055611008690415,-0.8730398044808753,1.0520633025414512,0.004436712978591016,-0.8835405310068593,0.8836721572932249,-0.05473649984502661,0.6628875945712365,1.0980695349265277,0.10154705726673222,0.7790886586306466,0.9584757302063274,0.0,0.0,0.0,0.0
0.028506085830743755,-0.5497925995516161,0.7515164712414436,-0.007080145128967914,-0.5243240790802083,0.0007355542574079843,0.8514890431482831,0.039116984593301596,-0.8695516247769752,1.0490796362304664,-0.002605725375410266,-0.8849819892492921,0.8816923733203601,-0.0643913422337835,0.6641394851993131,1.1024943882408815,0.11779319606354072,0.7842840379652314,0.958719371284361,0.0,0.0,0.0,0.0
0.02874283046865195,-0.55183850764307,0.7519693973878434,-0.006941055749652493,-0.5239986863347915,0.0005226104215473661,0.8516906277180936,0.044996907279428386,-0.8655088600142374,1.0440934557743846,-0.00942823826449229,-0.8832971284630085,0.8805165087573018,-0.07505112737006073,0.6662212854766342,1.102237090443909,0.13376707721980344,0.7878555197328548,0.9600106814484789,0.0,0.0,0.0,0.0
0.028678877495904656,-0.5538924578471555,0.7523508073547833,-0.006822415268939843,-0.5236050285392898,0.00032357245770538986,0.8519337556636268,0.05084085966854121,-0.8607492586413461,1.0368935961810377,-0.015931935402368924,-0.8785277937782358,0.8801580240330769,-0.08669732712780903,0.669072102211608,1.097280688207625,0.14972773559609537,0.7898631023534866,0.9622972801102248,0.0,0.0,0.0,0.0
0.028315106692289385,-0.5560149650333835,0.7527131918273611,-0.006719609861965007,-0.5231306722034778,0.00013616266160534186,0.8522259841749547,0.056802653043010375,-0.8549999556471581,1.0272005415007175,-0.022085980411803798,-0.8716098582338305,0.8800717522402826,-0.09898539034883852,0.6719533867287593,1.0894934817003339,0.16598427573528735,0.7905222714910537,0.965233072245951,0.0,0.0,0.0,0.0
0.02764282547596377,-0.5582707560369377,0.7531192035002998,-0.006632682579575087,-0.5225606448628168,-3.898695790534647e-05,0.8525763182509661,0.06303754055327494,-0.8479085896591895,1.014606531725112,-0.02796041254433566,-0.863560735177552,0.8798164520033651,-0.11172771971347578,0.674492465483173,1.0800495433234925,0.18290012514350423,0.7900665480744516,0.9683810330028902,0.0,0.0,0.0,0.0
0.026639429080484032,-0.5607175797924501,0.7536196017924218,-0.00657057397408479,-0.5218747975275249,-0.00019256053403967453,0.8529967679796311,0.06965960220050571,-0.8391502989506058,0.998627688385487,-0.03372972952974446,-0.8551486895903203,0.8791584394568369,-0.124987014646225,0.676456575072468,1.069632755695113,0.20084608117190733,0.788624959217101,0.9713892650624509,0.0,0.0,0.0,0.0
0.025279818502402407,-0.5633890520358591,0.7542375175873373,-0.006553451950842475,-0.5210482649764426,-0.000302127143393348,0.8535020014925307,0.07668950837859047,-0.8285757130363309,0.9788892174448316,-0.039619053698847856,-0.846828032414875,0.8780503235073749,-0.13917480334901405,0.6777248231793688,1.0587032520354809,0.2200910070294918,0.7861843017634967,0.9740644482766135,0.0,0.0,0.0,0.0
0.023558570668463397,-0.5662685552783218,0.7549501730490209,-0.006616383173678489,-0.520050775453045,-0.00032566124506802066,0.8541096582811478,0.08398114610772359,-0.8164601949260999,0.9554786617672691,-0.0457790927393816,-0.83874720966843,0.8765731293701358,-0.1553123036130583,0.6784470863683969,1.0477461677495559,0.24067699551751354,0.7825807305513615,0.9764316976279825,0.0,0.0,0.0,0.0
0.021523924698134102,-0.5692483944578307,0.755660723890544,-0.006819223530349827,-0.5188374018001499,-0.00018696675147001572,0.8548457251031596,0.09110552970924275,-0.8039836944278135,0.9296167234939797,-0.05208787832321628,-0.8307293837686697,0.8748067615899106,-0.1757325251234477,0.6794689738029553,1.0374884109805498,0.26234085400992707,0.7774893400087284,0.9788390384304665,0.0,0.0,0.0,0.0
0.019330240094035285,-0.5720627902612143,0.7561523680879434,-0.007289291340994404,-0.5172548753752387,0.0003207934155151076,0.8558003021873017,0.0970045145008015,-0.7946840841463706,0.9054080649445676,-0.05832445182282798,-0.8219835483371316,0.8718029886265409,-0.20547339278608462,0.6832049298901014,1.0283540680691956,0.2850524997180671,0.7703595313779836,0.9820588367283936,0.0,0.0,0.0,0.0
0.01709960698121197,-0.5745762406565755,0.75618459139131,-0.008141657241051679,-0.5151688057793242,0.0013243134642364682,0.8570490424492186,0.10118739786326897,-0.7916461018629047,0.8864009138671995,-0.06574168282212474,-0.8128249018563192,0.8670816615790149,-0.25168853452301787,0.6912038731666008,1.021223573398176,0.3090970835781555,0.7603248665609892,0.9875219089629899,0.0,0.0,0.0,0.0
