zhuoxili-jackie/tripod-support-walk/examples/pcbB样数据/trajectory_trotting_acc_f01.csv
root_pos_x,root_pos_y,root_pos_z,root_rot_x,root_rot_y,root_rot_z,root_rot_w,FL_hip_joint,FL_thigh_joint,FL_calf_joint,FR_hip_joint,FR_thigh_joint,FR_calf_joint,RL_hip_joint,RL_thigh_joint,RL_calf_joint,RR_hip_joint,RR_thigh_joint,RR_calf_joint,FL_foot_joint,FR_foot_joint,RL_foot_joint,RR_foot_joint
0.0,0.0,0.72963,-0.009919430704566214,-0.5230949929384007,0.0038044909978256812,0.8522081665329894,0.0,-0.81,0.872,0.0,-0.81,0.872,0.0,0.65,1.0,0.0,0.65,1.0,0.0,0.0,0.0,0.0
0.0015659842871014254,-0.000552667745394269,0.730060709080355,-0.009858629881632998,-0.523538128930684,0.0038208155612486825,0.8519366386892059,0.001339151518941668,-0.8129820216224282,0.8827309626160834,0.0013391515189416666,-0.8158042951140929,0.8871220085830084,0.003472063952141075,0.6576152248761521,0.9938100405042054,0.003472063952141075,0.6580123563851977,0.9976394584845885,0.0,0.0,0.0,0.0
0.004474920945030032,-0.0017592270703424141,0.7313323247163165,-0.009591560306980464,-0.5242980505289535,0.003435198031633459,0.8514738725274545,0.00535223770350025,-0.8159551541682669,0.9007245418540729,0.005357932918846702,-0.8264626487024402,0.9156860996017326,0.007742465064755882,0.6750771661172064,0.9774285198211589,0.007789292576627816,0.6739759584359029,0.9888375106985408,0.0,0.0,0.0,0.0
0.007521808672759973,-0.0029177897904255298,0.732199176439266,-0.009368902367511454,-0.5243853057814128,0.003321913722857308,0.8514230673632116,0.008513680141761909,-0.825023685853379,0.9242428255798539,0.0038369686821599523,-0.8268826525691649,0.9078546803623702,0.005741636671778839,0.6686949082651368,0.9972994922148194,0.014084294469942003,0.6876720477402934,0.9818209758410343,0.0,0.0,0.0,0.0
0.011044648273822929,-0.004047855540614549,0.7327644961079829,-0.009107414966162195,-0.5244558979903806,0.003082269064110618,0.8513833247563368,0.01195377505704527,-0.8368543549376607,0.9519843676709056,0.0015639036066909355,-0.8302839518252735,0.9023023448177017,0.0031903389707032487,0.6660628153142691,1.0138883932711094,0.019375315793972343,0.701155651971887,0.9764515873732311,0.0,0.0,0.0,0.0
0.014512360469347525,-0.005213039590006351,0.7331764866949769,-0.008825504949020964,-0.5245833397594561,0.0027934225408401204,0.8513087729488743,0.01564994442758619,-0.8477570826985883,0.9778349964204297,-0.0005615914862479687,-0.835552538730921,0.8999172031267715,0.0016805958485700979,0.6653979468709557,1.0281589949777752,0.024716703511034225,0.7140082427718453,0.9723730467220699,0.0,0.0,0.0,0.0
0.01766162119084567,-0.006405115953571463,0.7335465312854946,-0.008545951136214557,-0.5247371194767096,0.0024982562686292195,0.8512177634883327,0.019472957246613198,-0.8565812343376722,0.9997638502634637,-0.0024192366527355084,-0.8418324390005694,0.8994899876103734,0.0010979007788025673,0.6653769107132165,1.0409378674693959,0.030491585992739156,0.7259907453205677,0.9688913318340506,0.0,0.0,0.0,0.0
0.020367226156688914,-0.007595726749177391,0.7339234813268323,-0.00828353810665084,-0.5248839727925053,0.0022189788527938164,0.8511305858884658,0.023284005079138772,-0.8631141195711944,1.017267910712624,-0.0040473075029095334,-0.8486406478172381,0.8999154155510481,0.0010912272554295028,0.6654019889738213,1.0526436142940063,0.0367241526186773,0.7368561602977038,0.9656843093422625,0.0,0.0,0.0,0.0
0.022597297907099963,-0.008749610340698055,0.7343259601372584,-0.008046291514843894,-0.5250085341095078,0.0019665358244557243,0.8510566544254825,0.0269509946568624,-0.867521627308961,1.0305658638066848,-0.0055309321257095475,-0.8557167595657729,0.900472910842216,0.001391790980255128,0.6652260047551279,1.0635589317774372,0.04322721031209924,0.7464888891337595,0.9625954451027658,0.0,0.0,0.0,0.0
0.024375269628406877,-0.009833052171771888,0.7347551792614802,-0.007838302202348423,-0.5251065276173452,0.0017459811049351224,0.8509986176382546,0.030361476806398873,-0.8701387883691808,1.0402116305157452,-0.006960303652878435,-0.8629041665984035,0.9007344146264639,0.001818511126065123,0.6647741620441721,1.0738736260881554,0.04972595174101833,0.7548773192231595,0.9595510393447076,0.0,0.0,0.0,0.0
0.02575173499210471,-0.01081860701833575,0.7352000779777763,-0.007661465708109757,-0.5251790343994037,0.0015594112565076377,0.8509558460972264,0.03343002247966068,-0.8713613704865595,1.0468720147949662,-0.008406265085402778,-0.8700616181020819,0.9004762602672902,0.002244621648463827,0.6640635727123599,1.0836827352854046,0.055946222594139464,0.7620602259006499,0.9565515102887372,0.0,0.0,0.0,0.0
0.02678418522669252,-0.011686602210554554,0.7356393052281841,-0.0075165168554858,-0.5252287576779142,0.001407565713168635,0.8509267141424337,0.03609876319312625,-0.8715854478983739,1.0511924493807001,-0.009907139334028389,-0.8769714693055,0.899634467651442,0.002564745021211858,0.6631631873821587,1.0929513345411055,0.061664433354051966,0.7680721486006629,0.9536876015848876,0.0,0.0,0.0,0.0
0.027522370048769833,-0.012424798400494076,0.7360419726540918,-0.007403913507701747,-0.5252577552237025,0.001290873141920327,0.8509099871835204,0.038333332214027745,-0.8711704208975598,1.053709492767667,-0.011465180874590543,-0.8832345475381106,0.8983063997453397,0.002657766247274925,0.6621749019547735,1.1014350264130395,0.06672962285306981,0.7728955139001876,0.9511607479368868,0.0,0.0,0.0,0.0
0.027998179349229217,-0.01302772553005813,0.7363689897380872,-0.007324788012302867,-0.5252662438601738,0.0012101926060539745,0.850905550560963,0.04011823297285376,-0.8704109868690231,1.0547897839142577,-0.01305272361338552,-0.888181624825223,0.8967840707070845,0.0023371169454750374,0.6612479720262765,1.1085401779812385,0.07107212089910976,0.7764290670832852,0.9492911449993376,0.0,0.0,0.0,0.0
0.028221854686526233,-0.013496816086850216,0.7365785010245248,-0.007281680942007514,-0.525252459401925,0.00116702154998897,0.8509144898728601,0.04145565570845887,-0.8695102211103545,1.0546003892177518,-0.014626574604579995,-0.8908943468428112,0.8955694728524369,0.0012981611866272065,0.6606785680968444,1.113114751656231,0.07470826847440988,0.778498638050663,0.9484774855874708,0.0,0.0,0.0,0.0
0.028191167832213253,-0.013840978171782859,0.7366421906233609,-0.007277375885445966,-0.5252152987449529,0.0011614698358426662,0.8509374717053494,0.04237096726307187,-0.8685457532334196,1.0531458593130165,-0.016139746400090395,-0.8905161871055195,0.8952590920534987,-0.0008630071704192027,0.6611511150966385,1.1132743769093236,0.07771785754301647,0.7789643674230677,0.9490309825949893,0.0,0.0,0.0,0.0
0.02790792031677788,-0.014072164241826326,0.7365613509925623,-0.007310471814904446,-0.5251548191421384,0.0011922232926171897,0.850974471730646,0.04289850222159952,-0.8674864435350054,1.0503884298411,-0.017559067201657643,-0.8870689566285208,0.8958751328640095,-0.004132437214524093,0.6626603441140702,1.1090217049352782,0.0801703027280677,0.777842247021408,0.9509752880268544,0.0,0.0,0.0,0.0
0.027379960427957154,-0.014205776565285273,0.7363667571727696,-0.00737554481037686,-0.5250720146897647,0.0012566717280686397,0.8510249123877335,0.04308235668847043,-0.8662013811739746,1.0462635385840622,-0.01886973459823851,-0.8814596861218535,0.8968861246990745,-0.008093486700442205,0.6645206476515195,1.102249679327381,0.08212763011861085,0.7753101206462528,0.9540442394241749,0.0,0.0,0.0,0.0
0.02660782784603784,-0.014264858430264815,0.7361021809756813,-0.0074679137163973066,-0.5249684540126375,0.00135102901606016,0.8510878493298466,0.04298953979759799,-0.8644578386562745,1.040585359619829,-0.02007383847182092,-0.8746627878942262,0.8978804292531674,-0.012460094571419056,0.6664446457181568,1.0941376365718452,0.08371390421762832,0.7715932896909592,0.9578800940305922,0.0,0.0,0.0,0.0
0.025578559740234836,-0.01427845724600544,0.7358068949652448,-0.00758518070377036,-0.5248441784714216,0.001472379911923818,0.8511632542912932,0.04270116724959329,-0.8619729515197538,1.0330389934093602,-0.02119695002273519,-0.8674115129772689,0.898691678714276,-0.017119242837706498,0.6683057350653911,1.085341016991681,0.08512512079391113,0.7668586592343188,0.9622061235237028,0.0,0.0,0.0,0.0
0.02427303098680214,-0.014279958759582977,0.7355080966169758,-0.007727211996348878,-0.524698449257497,0.0016190257867204282,0.8512515528896516,0.042307759480571284,-0.8584677672891592,1.023251272568185,-0.022292025183158454,-0.8601830223667174,0.8994082751298215,-0.022126464149006007,0.670055480750251,1.0762255952123794,0.08661782269913162,0.7612052699727642,0.9668810939838962,0.0,0.0,0.0,0.0
0.02268044855783064,-0.014305383508147881,0.7352165318198207,-0.007896555788907435,-0.5245316898610488,0.0017913337886863465,0.8513524193079166,0.04190352759841498,-0.8537363434055258,1.010912877266961,-0.02344790114636367,-0.853293786865915,0.9003755177340724,-0.027746388884271268,0.6717464207460075,1.0670511364922353,0.0885086807823859,0.7547012774091278,0.9719124922702136,0.0,0.0,0.0,0.0
0.02081859862747678,-0.014390011991907111,0.7349220485084078,-0.00810001267460775,-0.5243487026128647,0.0019940253489143566,0.8514627717791217,0.04157322939754259,-0.8477447822681433,0.9959598927453146,-0.024786460602326504,-0.8470213327853914,0.9022429340209355,-0.034578253921881824,0.6736220243186446,1.058125427812601,0.09118484675126647,0.7474474372852318,0.9774621752719693,0.0,0.0,0.0,0.0
0.018761762605878123,-0.0145613247024027,0.7345885496486683,-0.008351674808868536,-0.5241637855843926,0.002240721228562904,0.8515735755518143,0.04136478501394249,-0.8407808344921051,0.9788518318611811,-0.026411351436349855,-0.841743387190727,0.9060796447784112,-0.043791722771092376,0.6762744046552339,1.0499618306227778,0.09512274395075146,0.7396727392423375,0.9838471693525349,0.0,0.0,0.0,0.0
0.01668014001765307,-0.014825586655617335,0.7341507331976652,-0.00867571196154738,-0.5240104414480935,0.00255948817330844,0.8516638059091305,0.04124384689088693,-0.8336623618018038,0.9609914328694482,-0.02825155514793605,-0.8381225776371626,0.9135496162129705,-0.057435281320670724,0.6808833242772049,1.0434561690401396,0.10088611058440214,0.7318870937388908,0.9915086265761061,0.0,0.0,0.0,0.0
0.015043594602980393,-0.015053119038582363,0.7335272393808119,-0.009123392952744478,-0.5238489862360586,0.0030148705663217063,0.8517569570458182,0.04077477327284783,-0.8295831963783787,0.9476762120323154,-0.030511699378274495,-0.8368138477433485,0.9258424366527402,-0.07913240199783556,0.6899670337508992,1.0394067771705533,0.10854659621548432,0.7253266316387456,1.0001231173455403,0.0,0.0,0.0,0.0
0.014133147934416852,-0.015295961440562531,0.7329533498563809,-0.009647308555807204,-0.5238035635674891,0.0035874547176110907,0.8517768994286459,0.04012448288835077,-0.8283264445443353,0.940479256331393,-0.03184418580087951,-0.8410056803872032,0.9455892539038618,-0.1065133999719643,0.7019330293363266,1.0382789939684876,0.11842176199971803,0.7223259915697555,1.0076313376665789,0.0,0.0,0.0,0.0
0.014122613346766446,-0.015263242869138778,0.7329357858653865,-0.00969485154388316,-0.5238093205770783,0.003587684047182885,0.8517728183343839,0.040068868862003296,-0.8283553948411052,0.9404194964112883,-0.03185600959873222,-0.8410103658181071,0.9456003871627946,-0.1065149301410418,0.70195079001536,1.038284984334844,0.11842881700224586,0.7222890194442718,1.0076089535798205,0.0,0.0,0.0,0.0
0.014122613346766446,-0.015263242869138778,0.7329357858653865,-0.00969485154388316,-0.5238093205770783,0.003587684047182885,0.8517728183343839,0.040068868862003296,-0.8283553948411052,0.9404194964112883,-0.03185600959873222,-0.8410103658181071,0.9456003871627946,-0.1065149301410418,0.70195079001536,1.038284984334844,0.11842881700224586,0.7222890194442718,1.0076089535798205,0.0,0.0,0.0,0.0
0.014916362783069856,-0.015132030409612212,0.7329786291447757,-0.009695274638855705,-0.5240386787043629,0.003505539892153464,0.851632066130396,0.0400078321639621,-0.8308842432071548,0.9469495554199532,-0.032005208489617194,-0.8432053085943849,0.9513377750610609,-0.1092583516242551,0.7060018677963752,1.0378513036770798,0.11761601736799301,0.7255812484881085,1.0061414892092115,0.0,0.0,0.0,0.0
0.016660220252757915,-0.014862462621886991,0.7336707070853745,-0.009443479863238497,-0.5248321209272544,0.002935930713084497,0.8511483101327996,0.04079147934536878,-0.8318103646502931,0.9580154665553587,-0.03130575419080156,-0.8455458605416785,0.9624260480542552,-0.12049408535465514,0.7201541012723396,1.0323352604552045,0.1111074462373292,0.7348729496290974,0.9977665185193517,0.0,0.0,0.0,0.0
0.018301519565021553,-0.015505432995989556,0.7343822343785751,-0.01049169264198718,-0.5242090679377733,0.004423591367775571,0.8515134815824867,0.03502659504718657,-0.8275525649858472,0.935276683506216,-0.033163755435865784,-0.852193884942984,0.9792483058142024,-0.0943603356235321,0.7195894914696188,1.0195219861149043,0.08256377610682585,0.7136925407671602,1.011862933819481,0.0,0.0,0.0,0.0
0.0202166174742047,-0.01602261480138377,0.7350850432818081,-0.011154669911381088,-0.5240283810820143,0.005259565541669989,0.8516115112714506,0.028465597981452262,-0.8281952182317222,0.9211106351474501,-0.033784165726282865,-0.8587218358136102,0.9966148095596232,-0.07919114534066574,0.7244503424975384,1.0079037818873413,0.05766057690978485,0.6988361952170948,1.0227180862006386,0.0,0.0,0.0,0.0
0.02212707911387886,-0.016324430170118528,0.7356293191385201,-0.011441682745547353,-0.5242249297239792,0.005498139767361893,0.851485220899892,0.022876981559926384,-0.8321277357866379,0.9141729528197768,-0.03354192187163222,-0.8644147796627362,1.012204303125121,-0.0738220971466896,0.7325097701785619,0.9994261935936755,0.038933524555059294,0.689841630647574,1.0324730549124268,0.0,0.0,0.0,0.0
0.023835327663517574,-0.016511276355682454,0.7360325959223476,-0.011571906104994655,-0.5245351044249708,0.0055206708044636685,0.8512922749613384,0.018295704280848563,-0.8379994683444452,0.9110703905751474,-0.03309251917645434,-0.8691823591899193,1.0254072376197512,-0.0722128842926026,0.7406674018592557,0.9931530551203508,0.02497789715314679,0.6841153693796889,1.0417751611901014,0.0,0.0,0.0,0.0
0.025252413867139837,-0.01667524048909251,0.7363646336526967,-0.011662013471878601,-0.5248321196168577,0.005516037252845515,0.8511079937312792,0.014445521508961494,-0.8448478010790068,0.9097019993259363,-0.032638057116674016,-0.8729280879082342,1.0361053644676534,-0.07110697298670082,0.7476694496876459,0.9879419705898871,0.013976215801150941,0.6798697201980806,1.050788134945131,0.0,0.0,0.0,0.0
0.026353565409354726,-0.016876537184278232,0.7366799696115353,-0.011749241338162408,-0.5250761234353671,0.005538249564152578,0.8509561373642179,0.011032977894789688,-0.8521313938438329,0.9089353266327252,-0.0321413658313631,-0.8756461659271391,1.044418982857041,-0.06918773294989436,0.753221541798183,0.9830680728474399,0.004698225617503635,0.6761271305422459,1.0595521394320693,0.0,0.0,0.0,0.0
0.027146947724153228,-0.01715037051478072,0.7370036133578949,-0.011831984082282468,-0.5252694695181903,0.0055779324396492795,0.8508353984258378,0.007851255152583137,-0.8595700949458869,0.9081761459139914,-0.03148321291979916,-0.8774172368867291,1.0505733803890516,-0.06622166773006166,0.7574375567896108,0.9782251295831335,-0.0035753855165526326,0.6724332551691578,1.0680692826470883,0.0,0.0,0.0,0.0
0.027652699588013082,-0.017520271711588882,0.7373349112081434,-0.011897824442278509,-0.5254257692685759,0.005610309229814198,0.8507377546532255,0.004786603458213642,-0.8669874788809089,0.9071115606067577,-0.03054273077824845,-0.8783916538141241,1.0548350398319408,-0.06235335776895572,0.7604954696932917,0.9733806537459652,-0.011223801607528748,0.6686109351984296,1.0763021279684801,0.0,0.0,0.0,0.0
0.027889296618670616,-0.018006859797337432,0.737655122866773,-0.011934242056096207,-0.5255571494715148,0.005613111552362307,0.8506560700333731,0.0017987876559584174,-0.8741579694135024,0.9056074665242353,-0.0292163722490362,-0.8787562123957631,1.0574546427310028,-0.05776193193644074,0.762490630059825,0.9686670887279251,-0.01841871820541552,0.664620027716977,1.0841262968973062,0.0,0.0,0.0,0.0
0.027863701360060993,-0.018632903002891277,0.7379329729532349,-0.01193257558568418,-0.5256685847629767,0.005573344519271081,0.8505874972417891,-0.001107907912085808,-0.8806776338138141,0.9036852521461438,-0.027419751916275444,-0.8787031125688871,1.058616052881971,-0.05249632964752212,0.7633633780440345,0.9643197790248207,-0.025163946879412875,0.6604926220688528,1.0912407583300812,0.0,0.0,0.0,0.0
0.02756497483794004,-0.019423961726171377,0.7381284589239304,-0.011887914200008412,-0.5257576784139755,0.005487093262572787,0.8505336165562463,-0.003901629696246438,-0.8858750168508769,0.9015427447536156,-0.025084442877069738,-0.8783948948741467,1.0583842063518611,-0.04646532693812305,0.7628905263843404,0.9606519321051861,-0.031281727288984325,0.6563429666371536,1.0970266613978827,0.0,0.0,0.0,0.0
0.026963513402156754,-0.020404499794760896,0.7381991541506588,-0.011796149104031099,-0.5258190823503062,0.005354120589763739,0.850497781828564,-0.006523971321269058,-0.8888329516423285,0.8995636344176461,-0.022154231370490794,-0.8779199459417688,1.056663728728535,-0.03955369290983624,0.7607572292203699,0.9580197526590158,-0.03638725272163765,0.6524855778914458,1.1003443176258598,0.0,0.0,0.0,0.0
0.026021408159552926,-0.02159305179685059,0.7381175775218751,-0.01165289475998176,-0.5258494096043193,0.005175172685758557,0.850482113891982,-0.008900443861868368,-0.88867921271409,0.89818710897123,-0.018590096529145568,-0.877245508833078,1.0532217099804575,-0.03170747700144781,0.7567116628182744,0.9566613969723317,-0.03993698256505283,0.649670533803247,1.0993549598521999,0.0,0.0,0.0,0.0
0.024708520385453885,-0.023007297785444965,0.7378874368781829,-0.01146359308251196,-0.5258409038521829,0.004961831689629729,0.8504912169422102,-0.011005119820694088,-0.885431044612086,0.8973648393642433,-0.014377884795365205,-0.8762461981268441,1.047820823698457,-0.02273098411157573,0.7506275014121792,0.9564698645853842,-0.04187301784988385,0.6478916450459545,1.0940398753476646,0.0,0.0,0.0,0.0
0.023006608312273386,-0.02465968421607654,0.737542993195637,-0.011243830516704937,-0.5257827134291253,0.0047355023931046425,0.850531415969747,-0.012873357092293827,-0.8800032535574823,0.8965781569622061,-0.009538118162714302,-0.8747068277935088,1.0402307631918106,-0.012360143796873866,0.7425391508662718,0.9570033781618267,-0.04265414975329204,0.6463764931285196,1.0861906123599325,0.0,0.0,0.0,0.0
0.020900876734973064,-0.026542777346934405,0.7371312332004918,-0.0110099641621825,-0.5256694518348567,0.004516726517546047,0.8506056708477522,-0.014558902243459671,-0.8733750755638706,0.8953877136915873,-0.004143242942742169,-0.8722941755157229,1.030109382223986,-0.0005706093144830539,0.7326277813756444,0.9577445825873803,-0.04265431794932596,0.6447650132458825,1.076892484630577,0.0,0.0,0.0,0.0
0.018378405566746206,-0.028623877711420255,0.736692307130481,-0.010778819897027201,-0.525500385359204,0.004323848345868593,0.8507140920217776,-0.01614107995306153,-0.8663057739795423,0.8935820076416823,0.0016694872600439385,-0.8686078097859035,1.0169997889549238,0.01238857565819236,0.7211208252981878,0.958313696471582,-0.042163841499062736,0.6428764104554304,1.066708067866486,0.0,0.0,0.0,0.0
0.015439636471313377,-0.03084109938706404,0.7362506020605043,-0.010568241792592255,-0.5252791438853898,0.004173010302136115,0.8508541116134208,-0.017743497786038776,-0.8592946519544364,0.8911953000329518,0.007688486917335979,-0.8632515725821228,1.0004256562257345,0.02602403341343077,0.7082672877708576,0.9585570781158355,-0.04147822001764744,0.6405960753148185,1.055888995392481,0.0,0.0,0.0,0.0
0.012118690510298126,-0.03309972238871462,0.7358063872806545,-0.010392367903378299,-0.5250184404820205,0.00407015108546416,0.8510176670982391,-0.019515052672388605,-0.8525951761400725,0.888515115741515,0.01364091429932194,-0.8559401338967949,0.9800617511688537,0.03956551929592919,0.6943722229543541,0.9586443063303891,-0.04103795953219205,0.6378740166318984,1.0445374979984006,0.0,0.0,0.0,0.0
0.00851062234663269,-0.035277916509091754,0.7353200656562755,-0.010260426940551742,-0.5247346994481159,0.00401709946870885,0.8511945028875313,-0.021581362500941437,-0.8462239361444641,0.8860427703410393,0.019197196725852718,-0.8467263159340681,0.9560679046337022,0.05216013505313559,0.679712951554296,0.9591802495810559,-0.04145863302669857,0.6348118753346353,1.0327303230613385,0.0,0.0,0.0,0.0
0.004796392470724664,-0.03725162948824974,0.7346841707519892,-0.01017180837717866,-0.5244363567940937,0.00400198438051401,0.8513794841948531,-0.024154653417509542,-0.8399283787817852,0.8842251020579416,0.02406882865014344,-0.8363953024219476,0.9295960661222828,0.06302308158682987,0.6644075256445129,0.961386186953178,-0.04375134665896309,0.6318638886060522,1.0204673741124441,0.0,0.0,0.0,0.0
0.0014558216129454344,-0.03898601589967855,0.7337544497183904,-0.010090612089184253,-0.5240851952369506,0.003964987894076743,0.8515968333384717,-0.026902384562689546,-0.8329547228397137,0.8824550958364886,0.028340736920583323,-0.8280485458549386,0.9055801682123357,0.07173281388334976,0.6491388202335782,0.966265854824466,-0.049391456260288825,0.6301231009903376,1.0076072780733107,0.0,0.0,0.0,0.0
-0.001256109674321211,-0.040251659492949496,0.7326046657006254,-0.009998957193525653,-0.5237815415546802,0.0038726836463191566,0.8517851371695918,-0.029804674724973487,-0.826593155759667,0.8815987767634571,0.03155566237363021,-0.8219363856827338,0.885514409237331,0.07702615710320872,0.6352255633567873,0.9740930719344608,-0.060515596487656476,0.6289203084804356,0.9940450039463441,0.0,0.0,0.0,0.0
-0.0029423620992255163,-0.04089675103643377,0.7315162017166522,-0.009905382555727557,-0.5235615190316806,0.0037592675326715065,0.8519219958970901,-0.03199606716226974,-0.8226490748949769,0.8812951839371443,0.03330154096911506,-0.8189538163399787,0.8727643856450871,0.07876050908368838,0.625007617576803,0.982671155595224,-0.07561701106245436,0.6281625541500351,0.9806515080430215,0.0,0.0,0.0,0.0
-0.0029610428231092315,-0.04099554918724556,0.7314624244840562,-0.009826451789399025,-0.5235658739901513,0.003768853887270006,0.8519201912025187,-0.0319948656617621,-0.8226729583678966,0.881302809629095,0.03345336536531083,-0.8190234844848564,0.8725940067740416,0.07877129914572192,0.6249251185054917,0.9825945593040754,-0.07563150502041364,0.6281949138469963,0.9806603210905563,0.0,0.0,0.0,0.0
-0.0029610428231091755,-0.04099554918724556,0.7314624244840561,-0.009826451789399025,-0.5235658739901518,0.0037688538872700387,0.8519201912025185,-0.03199486566176218,-0.8226729583678956,0.8813028096290942,0.03345336536531077,-0.8190234844848552,0.8725940067740408,0.07877129914572313,0.624925118505492,0.9825945593040757,-0.07563150502041302,0.6281949138469977,0.9806603210905558,0.0,0.0,0.0,0.0
-0.0029610428231091755,-0.04099554918724556,0.7314624244840561,-0.009826451789399025,-0.5235658739901518,0.0037688538872700387,0.8519201912025185,-0.03199486566176218,-0.8226729583678956,0.8813028096290942,0.03345336536531077,-0.8190234844848552,0.8725940067740408,0.07877129914572313,0.624925118505492,0.9825945593040757,-0.07563150502041302,0.6281949138469977,0.9806603210905558,0.0,0.0,0.0,0.0
-0.0013668875369516938,-0.04190526565571083,0.7318901512629,-0.009735012364173167,-0.5240365143986008,0.003792381179119004,0.8516317155650245,-0.02984421918335223,-0.8250198752679564,0.8911499262584637,0.03572330130609173,-0.8255223976359992,0.8888840698045881,0.08486624008645056,0.632420594393883,0.9749733535676957,-0.0713002054855492,0.6358650278557906,0.9800106389576659,0.0,0.0,0.0,0.0
0.0016989071494396568,-0.04377054390017473,0.7334995503158409,-0.00939586918822387,-0.5248743907221673,0.003304759360255507,0.8511214191710852,-0.0239760749228177,-0.826082528531368,0.9080099519493772,0.0418018584159558,-0.8370230644545428,0.9203096272860487,0.09353421007042811,0.6520148643852774,0.9529723173885486,-0.06568596536773973,0.6531406549094995,0.9709951142809908,0.0,0.0,0.0,0.0
0.004736481377931104,-0.04572918425893238,0.7346439261224286,-0.009393263691595401,-0.5248418282021838,0.0034847986089668347,0.8511408098224784,-0.01957394314839874,-0.834281932017157,0.9300070667331304,0.038301840826444784,-0.8346510488763355,0.9091849181241204,0.07465633741671063,0.6480023792126085,0.9793887215842941,-0.05258389535020121,0.668522573524819,0.9650754454035857,0.0,0.0,0.0,0.0
0.00831966281776425,-0.04771701258885367,0.7353937483158616,-0.00928961453269675,-0.5248660262079895,0.0034227714034736974,0.8511272773389345,-0.014488293057173977,-0.8451459696320277,0.9563089384503898,0.033584228167488496,-0.8363680864882992,0.9021320093503303,0.05814674364424612,0.6479210179482334,1.0009594700966318,-0.040952407062918854,0.6832720190673656,0.961743411435171,0.0,0.0,0.0,0.0
0.01194411227209888,-0.049708909524776655,0.7359275945201079,-0.009082866276894482,-0.5249600963205159,0.003206541364301858,0.8510723335321327,-0.00896658346598439,-0.855478914393696,0.9815595009535578,0.02912290534654485,-0.8404586163392268,0.8989608091053516,0.047571750923427025,0.6492708426053254,1.0184260722205885,-0.030323060402959248,0.6971167758533381,0.9598784452877461,0.0,0.0,0.0,0.0
0.01531544106954597,-0.05167518633084273,0.7364099034787913,-0.008822384541527182,-0.5250989006588634,0.002927680381040066,0.850990445742748,-0.003289747255892467,-0.8638406198919889,1.003353481850868,0.025417314416752282,-0.8459292658874626,0.898243932045533,0.0414015832367366,0.6507325051431886,1.0332512931782376,-0.01999012369004182,0.7102042114346347,0.9582933411516275,0.0,0.0,0.0,0.0
0.018277921703886375,-0.05358030436190347,0.7368973463426768,-0.008547767582442044,-0.5252386126393292,0.002635519432660124,0.8509079794545291,0.0023247231070959995,-0.8699686822493183,1.0209910583899402,0.022380750060641223,-0.8521796003869173,0.8986395790308565,0.037737267476925906,0.6519224390371827,1.0462928822415358,-0.009657767812717271,0.7223203225563528,0.9566027376580859,0.0,0.0,0.0,0.0
0.020776756076947192,-0.05538847861920924,0.737403625128018,-0.008283208362879012,-0.5253578004801084,0.0023560332083700447,0.8508378335743191,0.007704305599346917,-0.874020862637877,1.0345614565547898,0.019745466513129955,-0.8588585049445003,0.8992919097273252,0.03532808920614554,0.6527562238621765,1.0581208572558742,0.0006562352806286781,0.733286523104924,0.9547369953965382,0.0,0.0,0.0,0.0
0.02281976180155312,-0.05706896373735922,0.7379251494702266,-0.00804193928702275,-0.5254492470977707,0.002101815332820451,0.8507843430089651,0.012719970290730223,-0.8763268157716994,1.0445317917964596,0.017250948029201088,-0.865743843615556,0.8996982071811537,0.033463726208322546,0.65324680066703,1.0691035631251677,0.010765811083629258,0.7430195450699427,0.9527204178592589,0.0,0.0,0.0,0.0
0.024447950268975623,-0.05859954892827391,0.7384492639269089,-0.007830639135282183,-0.5255127596887925,0.001878622779034412,0.8507476072675471,0.017284359010781045,-0.8772718658511313,1.0515110865580604,0.014715175518420779,-0.8726500506385678,0.8995925159433243,0.03175681471855231,0.653450491821339,1.079442900790807,0.020439913043451243,0.751506195899935,0.9506235551535858,0.0,0.0,0.0,0.0
0.0257139170723412,-0.059967318640595776,0.7389557291640758,-0.007652329800514188,-0.5255505560443867,0.0016889644771788633,0.8507262792984914,0.021346914672532507,-0.8772382926006815,1.0561080118954935,0.012045623353093395,-0.8793313976688909,0.8988867212613503,0.029983475504036988,0.6534514390382257,1.0891656231047169,0.029478365536930645,0.7587525068172826,0.9485786165234962,0.0,0.0,0.0,0.0
0.02666596045898872,-0.06116774160673595,0.7394162266787216,-0.007508328128609203,-0.5255645262541154,0.0015340471619677658,0.8507192253918476,0.024886712009727818,-0.8765713494831473,1.0588377908800006,0.009224185068552673,-0.8853718316346265,0.8976651852718436,0.027974669617893147,0.653357619354821,1.0980616655603113,0.03774913084546297,0.7647314245904312,0.9468090244061295,0.0,0.0,0.0,0.0
0.02733682855354687,-0.06220357864602523,0.7397947023186473,-0.007399807644330134,-0.5255548094093075,0.0014149193982007982,0.8507263856003703,0.027905875598943915,-0.8755529033913529,1.0600562731402614,0.006282600271314658,-0.8900924726331308,0.8962142976666422,0.025527618024879236,0.6533228499417445,1.1055562343499383,0.045204847960118366,0.7693454137240688,0.9456464956663088,0.0,0.0,0.0,0.0
0.027738868891310168,-0.06308465184427146,0.740052297159362,-0.007328933057751677,-0.52551955750051,0.0013329442232361622,0.850748908130008,0.030426702842589543,-0.8743746003446707,1.059925565123803,0.00327631284556984,-0.8925696173164721,0.8950352582944289,0.022331192619256868,0.653648964928843,1.11050816480727,0.051890505070943546,0.7724322348761835,0.9454964849704453,0.0,0.0,0.0,0.0
0.02787222032769406,-0.06382789071042451,0.7401635749472493,-0.00729795769446072,-0.5254575012502124,0.0012880475136167948,0.8507875734441445,0.03249481031186642,-0.8731035453618871,1.0584472507470835,0.00026884610886286587,-0.8919427581847119,0.8947254825102586,0.01797615828777792,0.6550244617797776,1.1110384330836263,0.05791843355713528,0.7738679774859311,0.9466734698133651,0.0,0.0,0.0,0.0
0.027740740038368,-0.06445175530441935,0.7401323407962686,-0.00730484177915787,-0.5253683886306015,0.0012787018578036189,0.8508425591352525,0.03416129317515986,-0.8717008230117103,1.055582988856963,-0.0026834728743692607,-0.8882304124966545,0.8953063318193395,0.012488594500569385,0.6574323282094561,1.1071446732425925,0.06338242817280607,0.7736828008791741,0.9492005361098752,0.0,0.0,0.0,0.0
0.02735374153003468,-0.06497676395395043,0.7399914797175714,-0.007343604649689721,-0.5252528134136918,0.0013021918850344932,0.85091354306301,0.03548327609082284,-0.8700296169601366,1.0512677262227292,-0.005540758207980225,-0.8823369952665483,0.8962434961473211,0.0063047448898824856,0.6601655259996037,1.1007090946001286,0.06836105580791417,0.7720648833965448,0.9528097784970087,0.0,0.0,0.0,0.0
0.026712567754761423,-0.06543036372056699,0.7397864860483981,-0.0074093536572839135,-0.5251118883068806,0.001354927292664145,0.8509998651052743,0.03653835817925558,-0.867851939428229,1.0453127417015569,-0.008288571794801037,-0.8752344734432089,0.8971210914720797,-0.00028629274247764203,0.6629212249840648,1.0929050152080342,0.07299470856999454,0.7692463589254138,0.957144059025721,0.0,0.0,0.0,0.0
0.02580448942449971,-0.0658447908921497,0.7395576429294309,-0.0074999407083332975,-0.5249451280218971,0.0014345364204680065,0.8511018185626816,0.037414095480410095,-0.8648831446163605,1.0374006585857254,-0.010949708127832143,-0.867653027234935,0.8977656082767618,-0.007184672144404362,0.6655632429036349,1.084389088960033,0.07749152118164183,0.7653954913581962,0.9619304953181779,0.0,0.0,0.0,0.0
0.024610054169066045,-0.06625445083468441,0.7393321197702295,-0.007616082250361275,-0.5247511125659964,0.001540387502004205,0.8512202372818966,0.038200153532944134,-0.8608501468661468,1.0271605992547603,-0.01358991588480863,-0.8600635355072938,0.8982520015315647,-0.014475472249658214,0.6680380666578816,1.0755354803729869,0.08210852446608578,0.760604912186279,0.9670339928184977,0.0,0.0,0.0,0.0
0.023117645239643148,-0.06669294130517268,0.7391191931627739,-0.007761956228654628,-0.524529271944516,0.0016746900358675044,0.8513553842680178,0.03897865859460347,-0.855566322576718,1.0142968552045124,-0.016325592525987136,-0.852769438486323,0.8988999797009817,-0.022476508378895456,0.6703982953390293,1.0666202070434674,0.08714364984951736,0.7549267091654305,0.972468890685694,0.0,0.0,0.0,0.0
0.021343987117478515,-0.06718802187148211,0.738905407013825,-0.00794698162594492,-0.524282784122783,0.0018451403762645329,0.8515051398626389,0.03980626287505731,-0.8490391743615973,0.9987814779429625,-0.019315431535865117,-0.8460240109779373,0.9003105630294562,-0.031879504120312804,0.6728963478903929,1.05797732881961,0.09294012528653303,0.7484356045786067,0.9784012058450516,0.0,0.0,0.0,0.0
0.01936262628339949,-0.06775235208786111,0.7386494482039675,-0.008189118148051821,-0.5240230293847203,0.00207003745005345,0.8516622088383241,0.04068060474464177,-0.8416331864844324,0.9811513472278516,-0.022694744404330173,-0.8401633976054126,0.9034606360126198,-0.04401300015927438,0.6761498607122335,1.0501597220818422,0.09990192395544578,0.7413276477836148,0.9851407990458696,0.0,0.0,0.0,0.0
0.01734425563066817,-0.06836688939737925,0.7382797621457879,-0.008518163889403973,-0.5237768687824984,0.002385092546882414,0.8518095702361518,0.041485220542830714,-0.8343056156991079,0.9629662976992279,-0.02639640699790656,-0.8357786884636622,0.9098282076078067,-0.06119202586330198,0.6813915770184487,1.0441082455300184,0.10849119281579273,0.7340789042297334,0.9930877835349257,0.0,0.0,0.0,0.0
0.01574366255734739,-0.06887254428851504,0.7377117855593421,-0.008991038604890625,-0.523495705989393,0.002864743072408925,0.8519760561674262,0.04168780585247738,-0.8303333994302021,0.9495678806530804,-0.030510501500703734,-0.8334704985425065,0.9203304056851205,-0.08734539577767661,0.6911342503032152,1.0406488594560424,0.11868069478354673,0.7278595163066129,1.0018555961473496,0.0,0.0,0.0,0.0
0.014832160198304047,-0.06927823075695454,0.7371767960567409,-0.009554084137421908,-0.5233104676243194,0.0034913041636207443,0.8520813838750078,0.04133960430537887,-0.8295220372453979,0.9425682174859675,-0.0333684048095694,-0.8364311482469988,0.9374156229410459,-0.11963029348019197,0.7035437987739224,1.040304450633571,0.130460084045126,0.7249482717348353,1.0093019124624318,0.0,0.0,0.0,0.0
0.014827431794592685,-0.06925918968459754,0.7371611068503483,-0.009589912277267075,-0.5233124685968795,0.003493707376232321,0.8520797426311246,0.04130228361874957,-0.8295480648187936,0.942512550003728,-0.033382227020653576,-0.8364343065328259,0.9374264889651945,-0.11963284331168964,0.7035618114156525,1.040310950532709,0.13047149931822735,0.7249102237938392,1.0092782871907267,0.0,0.0,0.0,0.0
0.014827431794592685,-0.06925918968459754,0.7371611068503483,-0.009589912277267075,-0.5233124685968795,0.003493707376232321,0.8520797426311246,0.04130228361874957,-0.8295480648187936,0.942512550003728,-0.033382227020653576,-0.8364343065328259,0.9374264889651945,-0.11963284331168964,0.7035618114156525,1.040310950532709,0.13047149931822735,0.7249102237938392,1.0092782871907267,0.0,0.0,0.0,0.0
0.0156404071351661,-0.06921633336028349,0.7372023794244279,-0.009589337657590973,-0.523596441950341,0.0034099034002264407,0.8519056186802814,0.04146872422355039,-0.8316317604672214,0.948568933898549,-0.03329813466635243,-0.8386647291131206,0.9434454312774464,-0.12189656497723095,0.7078016181275868,1.0397177076929034,0.1305782690278121,0.7285560489955013,1.0081839079335988,0.0,0.0,0.0,0.0
0.01737770745714457,-0.0690882076952691,0.7378124489253843,-0.00937898869780074,-0.5243702595994804,0.0029256417121889325,0.8514336768293534,0.042411362770663465,-0.8327385285691146,0.9593740250818803,-0.032453552296132136,-0.8415372614085558,0.9551567224322831,-0.13126849989862335,0.7211024356768942,1.0344164271496072,0.12649856779952975,0.7379470368956845,1.0010651940704571,0.0,0.0,0.0,0.0
0.019076885582797878,-0.06982145110505497,0.7384988796552794,-0.010393767343669218,-0.523925627454586,0.004323723268163982,0.8516896218187846,0.03706683322306786,-0.8278608492278922,0.9365524265729821,-0.03384498742931393,-0.8479938175211885,0.9721865834537399,-0.10557421563547074,0.7214405754708675,1.0219609437716333,0.09405378143634477,0.7168237588696074,1.0145298454397285,0.0,0.0,0.0,0.0
0.021037307379394028,-0.07045128456146896,0.7391476687118906,-0.011068680135353826,-0.5238333001040261,0.005161464986093431,0.8517332430411437,0.030721360900569095,-0.8282474784710327,0.9221649006922131,-0.03416944169166362,-0.8547169689910851,0.9900844553169507,-0.08935516557863121,0.7263050659070285,1.0106471089194835,0.06642240853080383,0.7017826992550497,1.0249491251021783,0.0,0.0,0.0,0.0
0.022980369836143422,-0.07088213337755894,0.7396451946409123,-0.011391873815779961,-0.5240484322263488,0.005459189144026712,0.8515947763731063,0.025256602456488655,-0.8320815529216806,0.9149048446119146,-0.03373473658943665,-0.8608116564846373,1.0063822994094844,-0.0821863074200095,0.7339267821545823,1.0021628405000196,0.046449844638916896,0.6925990799015553,1.034472441384283,0.0,0.0,0.0,0.0
0.02471357937906556,-0.07118840690370597,0.7400135045503689,-0.01155122539304688,-0.5243601924808845,0.005535434677005399,0.851400209476287,0.02080775140526419,-0.8378849308379317,0.9115468513679102,-0.03310619251182534,-0.8659827214600424,1.0202449256532957,-0.07895072237889447,0.7416653883917091,0.9957718996302437,0.03198775208865739,0.6867722877961121,1.0436976020525115,0.0,0.0,0.0,0.0
0.026150799926056647,-0.07144852697663424,0.7403180966043161,-0.011655329233612531,-0.5246618071235716,0.005560355217025661,0.8512127958954474,0.01710482426115481,-0.8446847582354494,0.9100352643049696,-0.03247454047022984,-0.8700627884668963,1.0314714122419428,-0.07669642185142256,0.7483942892024813,0.9904748395434343,0.020811174784217276,0.6825241214368523,1.0527305915217084,0.0,0.0,0.0,0.0
0.027269650622836473,-0.07171887064534571,0.7406103240007034,-0.011742799593037444,-0.5249192209867362,0.005587640683653998,0.8510526989370201,0.013841607577612852,-0.8519375771746152,0.9092242310591783,-0.031811764009416287,-0.8730288591484807,1.0401713078681496,-0.0741581931610905,0.7538397834972246,0.9855998135074522,0.01147617586804232,0.6788572592546464,1.061570246278393,0.0,0.0,0.0,0.0
0.028079240692674468,-0.07203902920478511,0.7409137638798133,-0.011820396500258923,-0.5251284458630668,0.005621957081092167,0.8509223155909094,0.010786603879144405,-0.8593714742302755,0.9084717142487981,-0.031021755511550207,-0.8749833278604309,1.0466073965232576,-0.07089204525304253,0.7580320406910603,0.9808165371723523,0.0032042878781760945,0.6752767475612068,1.070190246766182,0.0,0.0,0.0,0.0
0.028601103897855192,-0.0724369699756558,0.7412282076399855,-0.011879420439762468,-0.5253008232840618,0.005644779627395803,0.8508149392729657,0.00782247399723659,-0.8667973606163736,0.9074411259328361,-0.02998746890054036,-0.8760898904095026,1.0510763990824732,-0.06692384046009103,0.7611169836647699,0.9760640827714665,-0.004430944229583432,0.6715825381523163,1.0785358009577626,0.0,0.0,0.0,0.0
0.028854183990174063,-0.07293857986623437,0.7415352474360503,-0.011911853749155675,-0.525443821976006,0.005642080422619633,0.8507261983834815,0.0049006108951531215,-0.8739891661879553,0.9059749534012657,-0.028611729511872595,-0.8765548103327928,1.0538615123634525,-0.06227132163101081,0.7631350565708489,0.9714395135827505,-0.011591901782207328,0.6677147739617303,1.0864711797762203,0.0,0.0,0.0,0.0
0.02884647857559609,-0.07356856720964697,0.7418039669712168,-0.011908334196511033,-0.5255642460169226,0.005599460574292243,0.8506521386128438,0.0020317879680582787,-0.8805313520948623,0.9040978768336948,-0.02680154278927668,-0.8765719191743875,1.0551563327986577,-0.05698504618019794,0.7640407843580165,0.9671716660459949,-0.01830510259404377,0.6637040052813504,1.0936894631186067,0.0,0.0,0.0,0.0
0.028567718880705632,-0.07435374075101943,0.7419944724748052,-0.011863201817505352,-0.5256611584018978,0.0055116097621895396,0.850593459384706,-0.0007482776258603114,-0.8857464956417248,0.902011352081325,-0.024481733093979857,-0.8763050353819081,1.0550319109020596,-0.05097952515767936,0.7636221772298947,0.9635715532268815,-0.02440682876916893,0.6596619813476664,1.0995665875604932,0.0,0.0,0.0,0.0
0.02798836233035072,-0.07532044538148332,0.7420644334484379,-0.011773571001522789,-0.5257275753901273,0.005380705642521586,0.8505544941431318,-0.003385867761144098,-0.8887203717737439,0.9000911525180479,-0.021596999497862694,-0.875850656016428,1.0534046096498872,-0.044085971505488986,0.7615460868971183,0.9609834429010797,-0.02950524587808777,0.6558921785186568,1.1029552298227367,0.0,0.0,0.0,0.0
0.027070826693347108,-0.07648758721318587,0.7419861962124178,-0.011634478550137273,-0.5257606659210733,0.0052065532785386184,0.8505370379248947,-0.005806183585913243,-0.8885808974813428,0.8987777874345547,-0.018105070053020134,-0.8751789982872453,1.0500457579608702,-0.036258645642389724,0.7575657307370416,0.9596479655392058,-0.03306841915891787,0.6531388421115909,1.1020096762619127,0.0,0.0,0.0,0.0
0.02578554150834755,-0.07787156237014872,0.7417626124519446,-0.011448570414225541,-0.5257561010882922,0.004995814145692672,0.8505436462903768,-0.007975319272483329,-0.8853418464940092,0.8980357136650241,-0.013983307847353306,-0.8741612326485948,1.0447126326903993,-0.02737477483611893,0.7515832660491496,0.9594826701942729,-0.035063719323307485,0.6514023831935735,1.0967125950410368,0.0,0.0,0.0,0.0
0.024114203954246228,-0.0794846741870519,0.741426900184937,-0.011230317715603953,-0.5257038679158852,0.004768431336468611,0.8505801463030239,-0.009925318210271225,-0.87992185672629,0.8973502599635762,-0.009249159555989423,-0.8725855278656602,1.0371756230600542,-0.01717973446544408,0.743631170983177,0.9600637214673003,-0.035946247921672086,0.6499184260651772,1.0888630103709018,0.0,0.0,0.0,0.0
0.02204155508917695,-0.08132047560276316,0.7410257245178602,-0.01099527752541052,-0.5255984089259512,0.004544373875454592,0.8506496135734899,-0.01170474726683683,-0.8733034178615001,0.896283244984627,-0.003971062669340232,-0.8701241712811459,1.0270964092273525,-0.005636764649338802,0.7338821875462127,0.9608798783306904,-0.036083906566207684,0.6483329751038083,1.0795530612125939,0.0,0.0,0.0,0.0
0.01955368692306377,-0.08334848569272496,0.7405998685558965,-0.010759857469660244,-0.5254378175966987,0.0043423386178173505,0.8507528838633338,-0.013387197161449715,-0.8662504882517731,0.8946232322404372,0.0017189088583264324,-0.8663830482937588,1.0140237000418537,0.007035757568664317,0.722551559118372,0.9615420000029705,-0.03575462822961386,0.646469206906958,1.0693504286089694,0.0,0.0,0.0,0.0
0.01664962522732978,-0.08550959972726607,0.7401753137195295,-0.010541002955240058,-0.5252250267123478,0.004177973680644003,0.8508878322714662,-0.015088206448913524,-0.8592677949362043,0.8924097967098955,0.007618033539303986,-0.8609675795878811,0.997482232692489,0.020361611525400065,0.7098870478175981,0.9618767308507395,-0.035241998910934,0.6442164339284315,1.0585125067113745,0.0,0.0,0.0,0.0
0.013361306360252338,-0.08771300250701053,0.7397553184390423,-0.010353232214509546,-0.5249708414012766,0.004058772252348033,0.8510475619076479,-0.0169550820660434,-0.8526217574651774,0.8899360396111101,0.013460429990816706,-0.8535898740879924,0.9771447227848209,0.03360911037977392,0.6961901312974995,0.9620101824253522,-0.034948807457087415,0.6415246640779072,1.0471495200680117,0.0,0.0,0.0,0.0
0.00978122364234214,-0.08984018822254808,0.7393050094026746,-0.010205642451779521,-0.5246923622386946,0.003985134757883582,0.8512214098408747,-0.019112381917386203,-0.8463409211569861,0.8877271718217659,0.018929566574596986,-0.8442813856490188,0.9531502368183422,0.04591966582938241,0.6817669920805582,0.9624918822715894,-0.035455268072190176,0.6384900736083599,1.0353549633794685,0.0,0.0,0.0,0.0
0.006090596696221279,-0.09176789491004281,0.7387211922021305,-0.010100960621962798,-0.5243978355261665,0.003954413845019812,0.8514042772391548,-0.021718678597416722,-0.8401871341080496,0.8862893716457088,0.023715704940648473,-0.8337993397402537,0.9266380288070433,0.0565711671530381,0.6667431643907862,0.9644788307149883,-0.037586910867581244,0.6355695576402357,1.0231999192270456,0.0,0.0,0.0,0.0
0.002770792975820062,-0.09347211484958062,0.7378558884670724,-0.010005486366045152,-0.5240480888211121,0.003905013837125637,0.851620949550004,-0.02448298630973724,-0.8333392435801917,0.8849832246624346,0.02793666589378165,-0.8252994096289217,0.9026142487860667,0.06517550593042856,0.6518038629061191,0.9689557054759523,-0.04263069802945402,0.6339575888627532,1.010595243061651,0.0,0.0,0.0,0.0
7.595090415392792e-05,-0.09472491532318916,0.736780942042597,-0.009904114098870518,-0.5237458813566992,0.003806701161792819,0.851808469852276,-0.027414059968825368,-0.8271207464265627,0.8847737559317574,0.03113090473239697,-0.8190161895529933,0.8825563874268044,0.07046909209250041,0.6382689312618834,0.9761994572066212,-0.052535703720521965,0.6329965919716343,0.9975500796776525,0.0,0.0,0.0,0.0
-0.0015979836499905888,-0.09537037043892259,0.7357608282023202,-0.009807927562159634,-0.5235293814177413,0.0036923750099303546,0.8519431657781396,-0.029667455575794907,-0.8233924488452941,0.8853325937746949,0.032879889719035535,-0.8158695038336986,0.8698168946472563,0.0722695819746559,0.6284022511369778,0.9841867536988267,-0.06601477738532664,0.6325040272362363,0.9849545974062789,0.0,0.0,0.0,0.0
-0.0016171911992888706,-0.09546881119061082,0.7357086568021326,-0.009728999528600749,-0.5235333056062572,0.0037017036882199825,0.8519416188207749,-0.02966582347990076,-0.823416576501213,0.8853404116242765,0.03303113090476406,-0.8159383184121454,0.8696471416256313,0.07227958904397179,0.6283205802514723,0.9841105765145619,-0.06602851592852424,0.6325366673096146,0.9849637094000808,0.0,0.0,0.0,0.0
-0.0016171911992888318,-0.09546881119061079,0.7357086568021326,-0.00972899952860062,-0.5235333056062571,0.003701703688220003,0.8519416188207749,-0.029665823479900957,-0.8234165765012121,0.8853404116242758,0.03303113090476388,-0.8159383184121445,0.8696471416256307,0.0722795890439716,0.6283205802514729,0.9841105765145621,-0.06602851592852454,0.6325366673096154,0.9849637094000803,0.0,0.0,0.0,0.0
-0.0016171911992888318,-0.09546881119061079,0.7357086568021326,-0.00972899952860062,-0.5235333056062571,0.003701703688220003,0.8519416188207749,-0.029665823479900957,-0.8234165765012121,0.8853404116242758,0.03303113090476388,-0.8159383184121445,0.8696471416256307,0.0722795890439716,0.6283205802514729,0.9841105765145621,-0.06602851592852454,0.6325366673096154,0.9849637094000803,0.0,0.0,0.0,0.0
-4.3747820786066514e-05,-0.09634624071723107,0.7361323087363768,-0.009643364962508946,-0.523999275544493,0.0037265854295638373,0.8516559618191388,-0.02759141212981558,-0.8257188517013897,0.8950432130444879,0.035213548512941784,-0.8222986652018535,0.8856726503610969,0.07819299903349858,0.635740454530858,0.9766458055046995,-0.061650421134026925,0.6402336047098133,0.9841465564675281,0.0,0.0,0.0,0.0
0.0029755044967641306,-0.09813924736938057,0.7376958174030487,-0.009304449282074924,-0.5248310102972458,0.0032358801892157303,0.8511494386612322,-0.021893547590485153,-0.8267582870233477,0.9116099214260518,0.04110083177236126,-0.8336030839835492,0.916547312720049,0.08632097276669191,0.6550108336184238,0.9553603691508107,-0.056211847822823596,0.6572740613910315,0.9751522709888862,0.0,0.0,0.0,0.0
0.0059946893170366375,-0.10000145033343659,0.7388256418545311,-0.009296083968233589,-0.5248009876583966,0.003396726972770457,0.8511674150374294,-0.01767550899869652,-0.83497248860759,0.9335915177100285,0.03757905247518313,-0.8318818589070867,0.9065706994842236,0.06835358199215816,0.6508317813077072,0.9813517949535324,-0.04353356894638275,0.6726168148630743,0.9688539114301976,0.0,0.0,0.0,0.0
0.009548093683368779,-0.1018814083482316,0.7395703924226887,-0.009187020339739034,-0.5248224230177175,0.0033205770453440613,0.8511556830117362,-0.012816661199833549,-0.8458189751617211,0.9598169894258147,0.03277288108338842,-0.8339707220934562,0.9001513586196472,0.05252753534876145,0.6505755494790372,1.0025911170745094,-0.03238916195307367,0.6873497464790908,0.965011679415706,0.0,0.0,0.0,0.0
0.013123580839847633,-0.10377428239443809,0.7401056135587222,-0.008978031339179428,-0.5249164450239231,0.0030952572672744314,0.851100781387944,-0.00751381640036262,-0.8560103530444323,0.9847884969016881,0.02821581887653409,-0.8383138268600507,0.8973318977002869,0.04228611681891393,0.6517455547089505,1.0198476143166904,-0.022181532387729998,0.701164760809592,0.9626570920467912,0.0,0.0,0.0,0.0
0.01643628841684378,-0.1056516714195044,0.7405873067796811,-0.008718585164737768,-0.5250523344902122,0.0028110319540658466,0.8510206404185839,-0.0020433407578177827,-0.8642236263502884,1.0062519760787636,0.024399791731782857,-0.8439406339806045,0.8967587224301576,0.03619635905814756,0.6530624948098712,1.0345316650429688,-0.012202657963730873,0.7141663771591622,0.9606754415877482,0.0,0.0,0.0,0.0
0.01933776533746038,-0.10747842346517161,0.7410716812233364,-0.008447294672054089,-0.5251870239890549,0.002516263144547166,0.8509411856679818,0.003381090729467514,-0.8702242422298252,1.0235654163290788,0.021248354145111538,-0.850275030102572,0.8971797391515834,0.03248161011320893,0.654140668978981,1.0474800792055636,-0.002165606651947472,0.726155060787034,0.9586827877264575,0.0,0.0,0.0,0.0
0.021777923183675368,-0.10921884469019918,0.7415738853897763,-0.008187280647740842,-0.5253000160420246,0.002236032155982183,0.8508747626660702,0.008590388831657414,-0.8741734584860503,1.036841173600229,0.01850470155775482,-0.8569873929423417,0.8977960202017958,0.02997098517738084,0.6548851323974111,1.0592463005401551,0.007903585959325712,0.7369749492968343,0.9565886351054309,0.0,0.0,0.0,0.0
0.023767445438159118,-0.1108421229278238,0.7420916449867628,-0.007950926241767584,-0.5253848524862778,0.0019822050798930946,0.8508252525712265,0.0134581626168435,-0.876397029594098,1.0465540147057673,0.015915678447411184,-0.8638736958750978,0.8981386089370332,0.027996612380746775,0.6553006289303983,1.070186000692673,0.017813233913347368,0.7465617375697187,0.9543963011604807,0.0,0.0,0.0,0.0
0.025348936308060264,-0.11232579422459497,0.7426130431091312,-0.007744292890135337,-0.5254418754656518,0.0017599471297792305,0.850792432982846,0.017898691942191958,-0.8772752874808564,1.053313954031655,0.013302807882759726,-0.8707626279286897,0.8979612077748794,0.026190519162225968,0.6554387592439551,1.0804922131982766,0.027328654801041647,0.7549150153319779,0.9521608629924752,0.0,0.0,0.0,0.0
0.026575699200192412,-0.11365652648312173,0.7431181039620897,-0.007569965580570107,-0.525473615734465,0.0015712804941968252,0.8507747680001243,0.02186214133818768,-0.8771863099727534,1.057727768838859,0.01057452947654296,-0.8774188475202613,0.8971866754285007,0.024336047688945435,0.6553811747907776,1.090185780266706,0.03624712161785168,0.762048106360661,0.9500044187606317,0.0,0.0,0.0,0.0
0.027496116582910884,-0.114829298978138,0.7435785253637947,-0.007428962721553705,-0.525482071205405,0.0014170240706815583,0.8507710593322639,0.02532766575171622,-0.8764720896721506,1.0603073291150498,0.007712580110934064,-0.8834333617721084,0.8959047307288647,0.02226566587418219,0.6552341331919348,1.0990525667123683,0.044434796416887086,0.7679372371870519,0.9481440378952556,0.0,0.0,0.0,0.0
0.02814258839373292,-0.11584642442903724,0.7439582226412896,-0.007322274873367055,-0.5254673091384969,0.0012979540385624337,0.8507812918916,0.028297139084458633,-0.8754118275075995,1.0614041775480754,0.0047484602308654885,-0.8881317147767441,0.894403267729873,0.01977635971511048,0.6551493421141767,1.1065144684400876,0.051843562004792086,0.7724856535432322,0.9469072684301096,0.0,0.0,0.0,0.0
0.028526847863043242,-0.11671740271490087,0.7442183845529963,-0.007251959635492906,-0.5254272343747663,0.0012152501591062707,0.8508067663258093,0.030792611118711743,-0.8741948753698611,1.0611755984175086,0.0017377527821084626,-0.8905926000286652,0.8931821696609904,0.016557769413395765,0.6554254416614576,1.111426956124849,0.05851856738825735,0.7755303923094778,0.9466963039197914,0.0,0.0,0.0,0.0
0.028648336047548045,-0.11745903942488474,0.7443337194090002,-0.007220174179581907,-0.5253602123362675,0.0011686705721668806,0.8508484886205664,0.0328598379011916,-0.8728861279738616,1.059618151091241,-0.0012555817603542969,-0.8899564094453908,0.8928359278426613,0.012203259907713976,0.6567473259555257,1.1119078148620154,0.06457268418539104,0.7769459082460658,0.9478228187580707,0.0,0.0,0.0,0.0
0.028510261224465157,-0.11809008031123629,0.7443082993621739,-0.007224829457021513,-0.5252656847496375,0.001156587493569303,0.8509068248458118,0.034550890325854025,-0.8714433976596927,1.056687359152899,-0.004174742198424017,-0.886241241536737,0.8933844704016938,0.006736866771272349,0.6590985117358272,1.107954573091684,0.07010300629101635,0.7767613188083342,0.950308004320904,0.0,0.0,0.0,0.0
0.028121327083133488,-0.11863172588319003,0.7441753687016842,-0.007259948587173301,-0.5251439462237308,0.001176263195975439,0.8509816362859851,0.03592464938373865,-0.8697258395302921,1.0523110428762124,-0.006979483179055784,-0.8803496845564343,0.8942933314309,0.0005880278795743869,0.6617763119472647,1.1014521176725525,0.0751945922837335,0.7751642942638477,0.9538829017998285,0.0,0.0,0.0,0.0
0.027482185681069117,-0.11911224841335405,0.7439807867863562,-0.007320661065264899,-0.5249955924018855,0.0012241278637719585,0.8510725805659197,0.03706066134366255,-0.8674922357308544,1.0462934782054867,-0.009655175332447747,-0.8732501206687051,0.8951443674186529,-0.00595974100761717,0.6644814118724878,1.0935763024360605,0.07999500028983969,0.7723853188724437,0.9581896624954438,0.0,0.0,0.0,0.0
0.02657921267890726,-0.11956469534163494,0.7437651248809499,-0.0074049223684794,-0.5248193221952423,0.0012979628091521211,0.8511804517655404,0.0380479940694773,-0.8644563022212856,1.0383106104375999,-0.01222481698537609,-0.8656667895938289,0.895758106650077,-0.0128133425844356,0.6670800487679053,1.0849861075423628,0.08471968970218276,0.7685890758859918,0.962955303001594,0.0,0.0,0.0,0.0
0.025391789132494437,-0.12002402847853422,0.7435555712231794,-0.007513689626934289,-0.5246125338301876,0.0013974798849884895,0.8513068077176591,0.03897661591970338,-0.8603462177338871,1.0279860512323187,-0.014755504506055795,-0.8580616867901023,0.8961978652591424,-0.020071232690126388,0.6695209773134353,1.076058652200789,0.089631945787946,0.7638615437996427,0.9680459756752879,0.0,0.0,0.0,0.0
0.02390682279827499,-0.12052376353964123,0.7433608922986793,-0.007651586224073199,-0.5243729563966814,0.0015254783431197618,0.8514529515738872,0.03992665756374293,-0.8549819422732708,1.0150218661896218,-0.01736744060630578,-0.8507257840119056,0.8967622635957465,-0.028079495923567323,0.6718600211842238,1.0670743114966819,0.09503303684887547,0.75824359064693,0.9734791097939288,0.0,0.0,0.0,0.0
0.022139241035127346,-0.1210903783104708,0.7431663303008209,-0.00782878933832992,-0.5241012559435638,0.0016905829020111207,0.8516182980099279,0.04094896276542129,-0.8483867388710365,0.9993951070414108,-0.02022746046858632,-0.8438958109154173,0.8980145639984217,-0.03758715586779891,0.6743552011765795,1.058373279562394,0.10126466707236502,0.7517926839824416,0.979425181244154,0.0,0.0,0.0,0.0
0.020160520121766196,-0.12173323486680096,0.7429283588198063,-0.008064505726435583,-0.5238049746085623,0.001912531239256515,0.8517978953642528,0.04202940132992208,-0.8409559810717935,0.9816619755886109,-0.023486264229834374,-0.8378869225963723,0.9008638547695025,-0.05003413278589869,0.6776346146243781,1.050515853444171,0.10872268520341559,0.744680898820656,0.9861967695859439,0.0,0.0,0.0,0.0
0.018139240050155204,-0.12242668842517929,0.7425726864364495,-0.00839056949168495,-0.5235048763342279,0.002229364700256389,0.8519784461657015,0.043030189525972845,-0.8337026451813485,0.9634294611117631,-0.02710557824752401,-0.8332629084471207,0.9066666818041891,-0.06794045090174311,0.6829505743665106,1.0444479865816838,0.11785240897261215,0.7373553250434531,0.9941851041928205,0.0,0.0,0.0,0.0
0.016524466110495833,-0.12300170931547305,0.7420128409227577,-0.008866965295847117,-0.5231438864659514,0.0027197409628461114,0.8521939063316734,0.04338667054073476,-0.8299656587580156,0.9500829442397174,-0.031215667953112345,-0.8306003372661885,0.9161593389292061,-0.09554953763160225,0.6928337609937968,1.0409825147892113,0.1286030586122554,0.7309468859686346,1.0029777085738294,0.0,0.0,0.0,0.0
0.015586892905705946,-0.12345083499093024,0.7414788725935084,-0.009436956673743573,-0.522855985636409,0.003365571491132525,0.8523621501811628,0.04310710132914748,-0.8295660198591992,0.9432699257601678,-0.034201675357049134,-0.8330828834708622,0.9316851638514465,-0.12994827964879896,0.7053502294158303,1.040681631087692,0.14081946007093105,0.7277194319974795,1.010390754853789,0.0,0.0,0.0,0.0
0.015584353897945958,-0.12343746668496493,0.7414637903423129,-0.009468710243596103,-0.5228563775065513,0.0033697063676322203,0.8523615413109894,0.04307617753188442,-0.8295919704048274,0.9432155094195821,-0.0342155295475579,-0.8330852055417911,0.9316958312688381,-0.12995130723545603,0.7053684204148812,1.0406882560757575,0.1408322262187506,0.7276803543843958,1.0103664276067927,0.0,0.0,0.0,0.0
0.015584353897945958,-0.12343746668496493,0.7414637903423129,-0.009468710243596103,-0.5228563775065513,0.0033697063676322203,0.8523615413109894,0.04307617753188442,-0.8295919704048274,0.9432155094195821,-0.0342155295475579,-0.8330852055417911,0.9316958312688381,-0.12995130723545603,0.7053684204148812,1.0406882560757575,0.1408322262187506,0.7276803543843958,1.0103664276067927,0.0,0.0,0.0,0.0
0.0164090487404057,-0.1234400949836609,0.7415069628636849,-0.009476305705746344,-0.5231832740993796,0.0032987130894480223,0.8521611231596864,0.04332906865826398,-0.8313930845345787,0.9489854969152481,-0.03404178496009747,-0.8352167559427418,0.9377743671270792,-0.1318617039108225,0.7097322588422077,1.0400055089389033,0.14167844847076197,0.7316574300157884,1.0094689579057574,0.0,0.0,0.0,0.0
0.018139661518882848,-0.1233960831510663,0.7420636720601826,-0.009304200425433472,-0.5239456138777153,0.002888799270865946,0.8516960023338843,0.044312209983300224,-0.8326605701571105,0.9596543946965793,-0.033167847358023424,-0.8383491053386433,0.9498007577369033,-0.13986847190388327,0.722417047499256,1.0348567999816112,0.13944218063217434,0.7412125838204143,1.0031453726858053,0.0,0.0,0.0,0.0
0.019884085934474507,-0.12417426421675765,0.7427435847415808,-0.010304694756034445,-0.5236513546354482,0.004232841066271211,0.8518598212798587,0.039152535543710426,-0.8274582680599012,0.93706068962686,-0.03429287916520014,-0.8444390305118844,0.9667772528756807,-0.11459805323584524,0.7235492882652584,1.0226331685054106,0.10381644613926451,0.7200220767296392,1.016232126777932,0.0,0.0,0.0,0.0
0.02188091022452357,-0.12486821118897184,0.7433621936982143,-0.010993864054762988,-0.5236429231331934,0.005076107190429976,0.8518517812046067,0.03288713250938104,-0.8277565175795556,0.9227175810939652,-0.03445266901712934,-0.8511194941728039,0.9849017271837401,-0.09773494798019912,0.7285503765936218,1.0115308859023202,0.07393063877959294,0.7047566746126467,1.0263775489155036,0.0,0.0,0.0,0.0
0.023850577719299663,-0.1253804052737392,0.7438319525674709,-0.011346701601345328,-0.5238837848822858,0.0054193847646559785,0.8516969311726756,0.027470359681675754,-0.8315879886525958,0.9153450313241006,-0.03391347456556992,-0.8573921137479718,1.001623315798723,-0.08931855215832181,0.735937581835941,1.0030325877802653,0.052891365134436714,0.6953715883142059,1.0357462206169765,0.0,0.0,0.0,0.0
0.02560392946802996,-0.12576665042663682,0.7441791333729961,-0.011530681330326161,-0.5242021331192919,0.005539092724325082,0.8514977894704331,0.0230940531786783,-0.8373878903830017,0.9118680307002255,-0.033181941231125105,-0.8627933086855318,1.0159226680675162,-0.08489315236987145,0.743407051008029,0.996534503561677,0.03798221597848754,0.6894313256551574,1.0449174678191904,0.0,0.0,0.0,0.0
0.027057090870855588,-0.12609384704766963,0.7444668485130428,-0.011647908634236362,-0.5245091110365897,0.005590016985321443,0.8513068015552082,0.019487472682966585,-0.84417848200769,0.910291037855015,-0.032439439244077904,-0.8670828691654293,1.0275167501486353,-0.081768770814736,0.7499503714095747,0.991146654544509,0.02664053215363429,0.6851617462196786,1.0539643694376928,0.0,0.0,0.0,0.0
0.02818934392620051,-0.12641461408873228,0.7447443491379531,-0.011738767781074046,-0.5247752638467995,0.005626720195030192,0.8511412713559078,0.016326579738980728,-0.8514252855558979,0.909467217924692,-0.0316693511265899,-0.8702166042404299,1.0364981688358192,-0.0787051967313519,0.7553062654277262,0.986236922677322,0.01725806074681165,0.6815420630924458,1.062858366065709,0.0,0.0,0.0,0.0
0.02901108487435405,-0.1267695809160936,0.7450344472401293,-0.011814519874376612,-0.5249951935599125,0.005660773262124441,0.8510043592750878,0.013363436499197785,-0.8588627467668786,0.9087346373256365,-0.030789651780787675,-0.8722996107381077,1.0431439765955468,-0.07516519739384693,0.7594732474512036,0.9814698152634774,0.008986139486715585,0.678047541239937,1.0715540371021575,0.0,0.0,0.0,0.0
0.029545038094298714,-0.12718928403497373,0.7453372083171245,-0.011869932013382435,-0.5251783545090613,0.005679398470084485,0.8508904424790364,0.010473139304610024,-0.8663002611415878,0.9077408755901595,-0.029690668556126395,-0.8735030851234475,1.047771531366432,-0.071077719319445,0.7625693831090976,0.9767644873506912,0.001366523639963005,0.6744563834660137,1.0799842948209837,0.0,0.0,0.0,0.0
0.029811045327864903,-0.12770236482815864,0.7456347044949322,-0.011899441866225791,-0.5253304978521689,0.005672842439693131,0.8507961507719219,0.007603629108466568,-0.8735094359720652,0.9063180680566713,-0.028278453866288526,-0.8740416435301497,1.050683434025057,-0.06637619740949849,0.7646120810874213,0.9721973775486488,-0.005771828996737946,0.6706944184619814,1.0880057904556544,0.0,0.0,0.0,0.0
0.029817875439794896,-0.1283354674907003,0.7458964344261066,-0.011894712280830328,-0.5254579621681561,0.005628519321263428,0.8507177943267057,0.004765377376392354,-0.8800715643680752,0.9044872700247161,-0.026459339146352456,-0.8741142098422781,1.0520864289276135,-0.061067971636457045,0.7655479070846576,0.9679841281164476,-0.012459643694223048,0.666785007522985,1.095306750248725,0.0,0.0,0.0,0.0
0.029555931872902487,-0.1291163275094424,0.7460826917439485,-0.011849980687861715,-0.5255604421298873,0.005540889897771161,0.8506556871996305,0.0019951859322321183,-0.8853062454833718,0.9024514113051657,-0.02415511928266359,-0.8738866173121967,1.0520585832364218,-0.05506085649249529,0.7651691213496568,0.9644317940525622,-0.018540717129472167,0.6628360875460088,1.101259246392712,0.0,0.0,0.0,0.0
0.02899616920800824,-0.1300716874942783,0.7461511491022332,-0.011761901359794049,-0.5256316757206604,0.005411297727788183,0.8506137296166775,-0.0006526780965178192,-0.8882973682773241,0.9005880499850389,-0.02130740363764276,-0.8734570977277974,1.0505207559278067,-0.048190821780299604,0.7631484505455237,0.9618854341386089,-0.023633652465309123,0.6591461456120605,1.1047113281210048,0.0,0.0,0.0,0.0
0.0281012677936046,-0.1312208578262213,0.7460739194531528,-0.011625389093920321,-0.525668764387559,0.005239440146712873,0.8505937624639749,-0.0031046956558509775,-0.8881738507561358,0.899336536039512,-0.01787263288288564,-0.8728001801867576,1.04724981708335,-0.04040686149624539,0.7592372133259134,0.9605874492185408,-0.027213127102853354,0.6564526159556943,1.1038122463417612,0.0,0.0,0.0,0.0
0.0268418987298556,-0.1325800443320054,0.7458532745149973,-0.011442143715310995,-0.5256683225939315,0.005030484105745072,0.8505977816795329,-0.005324745382698895,-0.8849495950991082,0.8986645689208758,-0.013825070601767641,-0.8717891665681677,1.0420045733435563,-0.03160411213917662,0.7533430477853501,0.9604662058950075,-0.029254103964796822,0.6547570020789361,1.09854525079034,0.0,0.0,0.0,0.0
0.025199776719848656,-0.13416126385695187,0.7455215216602358,-0.01122534842536903,-0.5256215445489002,0.004802451976507504,0.8506308952264613,-0.0073406436860778725,-0.8795444833667558,0.8980629632625715,-0.009178225012491246,-0.8702140923365534,1.034554906572343,-0.021548156752430304,0.7455024415943433,0.9611144057102224,-0.030213960757978442,0.6533026330529871,1.0907157536073782,0.0,0.0,0.0,0.0
0.023159235629377085,-0.13595851569867667,0.745124571607934,-0.01098946727722717,-0.5255232824218988,0.004574019500012006,0.850695944263924,-0.009196285130826251,-0.8729432434237516,0.8970967471088083,-0.003996117774698993,-0.8677514176079227,1.0245636128515192,-0.01020571107844825,0.7358844840767761,0.9620328081864445,-0.030459217308595674,0.6517421624869021,1.0814220808285864,0.0,0.0,0.0,0.0
0.020705394640643103,-0.13794281239878023,0.7447030219263984,-0.010750159672942683,-0.525371064770889,0.004363464295146861,0.8507941223044818,-0.010960379146238833,-0.8659127109243647,0.8955553239281405,0.001594357962857543,-0.8640125751336137,1.0115818341193208,0.0022204154550675877,0.724694171569269,0.9628338028490164,-0.030261290257966433,0.6499028199553764,1.0712365980148881,0.0,0.0,0.0,0.0
0.01783565993425628,-0.1400574728607395,0.744283379488029,-0.010523968562603896,-0.5251665862117036,0.004186744359822059,0.8509240706338633,-0.012743664742396452,-0.8589619833908266,0.8934783275924267,0.007396463278814128,-0.8586072816187957,0.9951352648697801,0.015280091248519114,0.712166847965905,0.9633337633081192,-0.02988909576990089,0.6476759945002609,1.0604209304703243,0.0,0.0,0.0,0.0
0.014579578876008137,-0.1422146164218501,0.7438701840060863,-0.010325512105443198,-0.5249191263513394,0.004052353414412452,0.8510798276437479,-0.014691225431682496,-0.8523661434390993,0.8911611332812046,0.013150023969727503,-0.8512465189750064,0.9748910927241882,0.028268992881923242,0.6985936618420333,0.9636367599457379,-0.029715814205595992,0.6450121415436821,1.0490907687430144,0.0,0.0,0.0,0.0
0.011026582732274973,-0.14429801708381076,0.7434309492593552,-0.01016379113696442,-0.5246461713877223,0.003959588383051082,0.8512505000631516,-0.016925503596560712,-0.8461635048262556,0.8891447597581921,0.018547866957310782,-0.8419439922088807,0.9509640605777611,0.04032155740881334,0.6842925250552977,0.9642639628022245,-0.030291050201431642,0.6420034577592226,1.0373500911641609,0.0,0.0,0.0,0.0
0.00735691718464607,-0.14618404905132348,0.7428645308986078,-0.010044455064260095,-0.5243561008488027,0.003913896473415011,0.8514308367915141,-0.019555853357721684,-0.8401308427387262,0.8879841785675636,0.02325887588477337,-0.8314269101410319,0.9244674566441861,0.05076580087597048,0.6693827913880802,0.9663384666657736,-0.03228193992252233,0.6391087531312122,1.0253267395439252,0.0,0.0,0.0,0.0
0.004052349525152762,-0.1478579469597344,0.7420183531605381,-0.009936134644886897,-0.5240083916751115,0.0038526774127013827,0.8516464263760726,-0.022329011311433576,-0.8333894541838341,0.8869995741570111,0.027427489347582608,-0.822896001313059,0.900460508785597,0.05924831644170449,0.6545386534697764,0.9708393842866557,-0.036810928198331025,0.6376188376028815,1.0129619710771078,0.0,0.0,0.0,0.0
0.001366209381482032,-0.14909320732096332,0.7409647247885978,-0.009826957519351545,-0.5237074693714675,0.0037496561644356015,0.8518332333908408,-0.025281454645325392,-0.8272918672109439,0.8872274250217708,0.03058618090156734,-0.8165618089111396,0.8803974562377317,0.06451641835278601,0.6410892043430566,0.9780179755626248,-0.04565836567088578,0.6368925009001328,1.000347509186192,0.0,0.0,0.0,0.0
-0.0003044713832242956,-0.1497322106339786,0.7399646427342903,-0.009730631190259442,-0.523493167713219,0.0036369750820984914,0.8519665431144999,-0.027590288688712824,-0.8237394501660734,0.8883691903845327,0.032314981901828584,-0.8133422460259879,0.8676256018051786,0.06636503143252319,0.6312975769920524,0.9858811848116372,-0.05771640204430462,0.636672663688143,0.9883775786262599,0.0,0.0,0.0,0.0
-0.00032380123945342527,-0.14983015713642817,0.7399133267296564,-0.009651708327957288,-0.5234968882109866,0.0036459631176133274,0.8519651163708,-0.02758842191229116,-0.8237635203590317,0.888377220742011,0.03246585970625494,-0.813410567651215,0.8674566763973378,0.06637450363224384,0.6312164045745295,0.985805651405283,-0.05772942197301939,0.6367055519992276,0.9883868916286885,0.0,0.0,0.0,0.0
-0.0003238012394534288,-0.14983015713642817,0.7399133267296565,-0.009651708327957162,-0.5234968882109869,0.0036459631176133287,0.8519651163707997,-0.027588421912291307,-0.823763520359031,0.8883772207420105,0.0324658597062548,-0.8134105676512147,0.8674566763973375,0.06637450363224301,0.63121640457453,0.9858056514052832,-0.057729421973019945,0.6367055519992281,0.9883868916286883,0.0,0.0,0.0,0.0
-0.0003238012394534288,-0.14983015713642817,0.7399133267296565,-0.009651708327957162,-0.5234968882109869,0.0036459631176133287,0.8519651163707997,-0.027588421912291307,-0.823763520359031,0.8883772207420105,0.0324658597062548,-0.8134105676512147,0.8674566763973375,0.06637450363224301,0.63121640457453,0.9858056514052832,-0.057729421973019945,0.6367055519992281,0.9883868916286883,0.0,0.0,0.0,0.0
0.0012318074568707757,-0.15067932419110097,0.7403320165290186,-0.009570954564844804,-0.5239583116352502,0.0036715839196565865,0.8516822200613188,-0.025580151189659874,-0.8260390836524615,0.8979682392812154,0.03457297510425475,-0.8196547133716829,0.8832508008036921,0.07212379849272252,0.6385649956739633,0.978487928943563,-0.05331602985537693,0.6444164051751456,0.9874343391721235,0.0,0.0,0.0,0.0
0.0042105426236698235,-0.15240913691714156,0.7418528820942314,-0.009232297337016583,-0.5247841281501627,0.003178588311201748,0.8511793466149788,-0.02003323510166909,-0.8270792708935782,0.9143006141589834,0.04029234579117768,-0.8307928738977816,0.9136395993080565,0.0797734153138597,0.6575393697745715,0.9578510561016073,-0.04803848590306719,0.661237158135902,0.9784793253442559,0.0,0.0,0.0,0.0
0.007212725521956915,-0.15418771687309424,0.7429644811661463,-0.009217203681519933,-0.5247565378015513,0.003321079500590456,0.8511959760371128,-0.01597206440475215,-0.8353192383532976,0.9362728417634778,0.03674774566580473,-0.8295989028526393,0.9045583371797961,0.06267594522009838,0.6532481799769999,0.9833583300379319,-0.03575997374845502,0.6765064692963508,0.9719045087355817,0.0,0.0,0.0,0.0
0.010739601669884066,-0.15597408937536986,0.7436996648607004,-0.009102298700520093,-0.5247757818599321,0.003231753657368373,0.8511856922551985,-0.011309042431484076,-0.8461672780586339,0.962443006874967,0.03186421168408667,-0.8319848296420116,0.8986200919332665,0.04750291188631849,0.6528597122576224,1.004239271777843,-0.025067690011330437,0.6911893694133858,0.9676692667509794,0.0,0.0,0.0,0.0
0.014271867808399546,-0.15778111454893062,0.7442322598957563,-0.008890716319921242,-0.5248700502173971,0.0029981091588801682,0.8511306579424672,-0.006195979273320501,-0.856248760505947,0.9871809325007815,0.027225804364297335,-0.8365314375091826,0.8960641410740491,0.03758761310872063,0.6538829850583968,1.0212754731553029,-0.015248760510042925,0.7049517025758832,0.9649277499527037,0.0,0.0,0.0,0.0
0.01753287843658742,-0.15958149634153343,0.7447108005303508,-0.008631933834989239,-0.5250035817643481,0.0027091679428762044,0.8510519310018226,-0.0009049347644649102,-0.8643426003569328,1.008362937203438,0.023315354162458005,-0.8422844148851254,0.895590289936959,0.03158868594816908,0.6550775142434163,1.0358168825252398,-0.005592950524820265,0.7178595403376733,0.9626289154113237,0.0,0.0,0.0,0.0
0.02038052997390357,-0.16134040685976514,0.7451907825495752,-0.008363510545951667,-0.5251339797882452,0.0024122482113497377,0.8509750501757812,0.0043541085934192866,-0.8702387916222801,1.025397299496767,0.02006480480080501,-0.8486864303794746,0.8960176018515871,0.02784242682275689,0.656058398363623,1.0486738492742778,0.0041772873996041016,0.7297238136525045,0.9603929310284466,0.0,0.0,0.0,0.0
0.022768888088612785,-0.16302219298505216,0.7456883404093849,-0.008107508902274806,-0.5252415852251505,0.002131525600488046,0.8509118650296192,0.009415178896620526,-0.8741024133403983,1.038417352708187,0.017226964664611367,-0.8554249693148611,0.8965925559307393,0.025251158993457243,0.6567233488463532,1.0603809642626987,0.014026993620144866,0.7404066980745311,0.9581135772948809,0.0,0.0,0.0,0.0
0.024711185476932164,-0.16459594440409983,0.7462021347095467,-0.00787551650895266,-0.525320637877315,0.0018781876433032738,0.8508658390551737,0.014154135161254487,-0.8762566230735221,1.047905462282564,0.014555275968341072,-0.8623106541793601,0.8968732136215346,0.023186024651351875,0.6570711441275154,1.0712805576055653,0.02375845104437796,0.7498592846507112,0.9557777208877644,0.0,0.0,0.0,0.0
0.026251443657719496,-0.16603893476715792,0.7467207449194608,-0.007673020952688706,-0.5253719568406091,0.001656848505679206,0.8508364628810627,0.018486629317726128,-0.8770781034886813,1.0544733150080516,0.011874548669496304,-0.8691838596705391,0.8966289209161011,0.021296835064768174,0.6571498884239519,1.0815567309357836,0.03313262878554717,0.7580914024396563,0.9534280938223084,0.0,0.0,0.0,0.0
0.027443585832838128,-0.16733743659860395,0.7472243286409055,-0.007502198331441368,-0.5253983339963736,0.001469069270760457,0.8508220433730596,0.022363442079870982,-0.8769417930830823,1.0587265985084022,0.009094253319661223,-0.8758178758312387,0.8957911480000312,0.019373466158965517,0.6570393050267904,1.0912245133160456,0.04194337317231356,0.7651219353968935,0.9511786606473736,0.0,0.0,0.0,0.0
0.028336058804453113,-0.16848601356055154,0.7476845387833247,-0.007363834623156962,-0.5254019100723301,0.0013153910282586877,0.8508212953249541,0.025763676163130175,-0.8761869610136965,1.0611743249597332,0.0061959876219292095,-0.8818094830148332,0.8944539595998148,0.017250342516391622,0.6568443101379333,1.1000658333885711,0.05005569113008443,0.7709299476281498,0.9492416893202988,0.0,0.0,0.0,0.0
0.028960924142214944,-0.16948658695807756,0.748065252217813,-0.007258753250487722,-0.5253826721432501,0.0011963387605361184,0.8508342535925765,0.02868901284804584,-0.8750905316613167,1.0621642465890508,0.0032111972008349093,-0.8864879405938305,0.8929062427334337,0.01472416946299018,0.6567147028734767,1.1074993656251855,0.05742033156394775,0.7754190112479972,0.9479412150302504,0.0,0.0,0.0,0.0
0.02932933333750189,-0.17034839188599699,0.7483277216485655,-0.007188926570590217,-0.5253383022873234,0.0011129447352850592,0.8508623559887061,0.031161294383041983,-0.8738396609339463,1.0618491092087663,0.00019571457073498536,-0.8889338895527413,0.8916466349849934,0.011485339793436244,0.6569462328104868,1.1123773001295996,0.0640826698891817,0.7784254643109643,0.9476765593980653,0.0,0.0,0.0,0.0
0.02944006406052381,-0.17108815264141478,0.748446820167227,-0.007156432602154388,-0.5252668272549716,0.0010648249912045035,0.8509068173458505,0.033226451566738535,-0.872497020828851,1.06022059729578,-0.0027859583174523975,-0.8882884378739015,0.8912670463318794,0.007129541293046727,0.658220534494461,1.1128142712143756,0.07015619605428589,0.7798222616231061,0.9487568119904973,0.0,0.0,0.0,0.0
0.029295716097120866,-0.17172489904243127,0.7484268836263124,-0.007159140098699934,-0.5251673948302884,0.0010502612301334698,0.850968184523701,0.03493749760157723,-0.8710173444863667,1.0572284639746221,-0.005676545757672968,-0.8845693476505975,0.8917860958685112,0.0016790944327953576,0.6605214628890317,1.1088076006123968,0.07574110133020856,0.7796375214716205,0.9512014056405219,0.0,0.0,0.0,0.0
0.028904432934705244,-0.17228047113751563,0.7483014920988811,-0.007191073591413881,-0.5250400051358644,0.0010664894111710795,0.8510464993570388,0.03635497135984977,-0.8692561307660419,1.052793984291447,-0.008435540528699537,-0.8786777329451928,0.8926690962734294,-0.0044424073871373185,0.6631499845817909,1.1022446516064217,0.08092844605173519,0.7780583832146446,0.9547403993731017,0.0,0.0,0.0,0.0
0.02826623460290047,-0.17278391965971118,0.748116858208339,-0.007247382707684248,-0.5248847568943035,0.001109953329169288,0.8511417246425553,0.03756027375615158,-0.8669691610817655,1.0467149089321417,-0.011048202480548944,-0.8715790249747356,0.8934959090639859,-0.010956205670730626,0.6658096601661444,1.0943036222519311,0.08587256421781597,0.7753138459426268,0.9590151881826195,0.0,0.0,0.0,0.0
0.027366688296075792,-0.17326906866379424,0.7479138604357114,-0.007326122550554562,-0.5246995779258546,0.001178571857642243,0.8512551273391431,0.03864395722843448,-0.8638685011459452,1.0386608801629191,-0.013537752949659459,-0.8639925103874309,0.8940819595438472,-0.01777502576608464,0.6683685247172069,1.0856456671808057,0.09079602183203461,0.7715655198665938,0.9637524044925941,0.0,0.0,0.0,0.0
0.02618414155735953,-0.1737714364039281,0.7477197787774305,-0.007428481407988585,-0.524480759837607,0.001272374196129974,0.8513889424276325,0.03969639900642626,-0.8596832761270742,1.0282503182800102,-0.01597250948742853,-0.8563727128856528,0.8944806723354196,-0.025009048790096407,0.6707767895298309,1.076650761104423,0.09596834105604762,0.7668937294926897,0.9688187790300965,0.0,0.0,0.0,0.0
0.02470422842570674,-0.17432452334107057,0.7475430190674188,-0.007559511638936052,-0.5242244522115304,0.0013947134178671737,0.8515454375791016,0.04079605757423298,-0.8542393177653042,1.0151833681376796,-0.018476061431883406,-0.8490000182889991,0.8949727576899714,-0.033029281610200224,0.6730922719890836,1.0676037114806554,0.10169434621922673,0.7613297774587603,0.9742337019107185,0.0,0.0,0.0,0.0
0.022940380828058483,-0.17495369764066065,0.7473677557989719,-0.0077301218336485455,-0.5239290053104543,0.0015550963712030678,0.8517254394968552,0.0419886074352613,-0.847574490678343,0.9994424812136912,-0.021222479413338526,-0.8420969621116781,0.8960893324393268,-0.042635405766200965,0.6755767170671012,1.0588514444861505,0.10831458235655217,0.7549162777037698,0.9801706382257843,0.0,0.0,0.0,0.0
0.02096245013056312,-0.17566534698554107,0.7471485234525309,-0.007960723523400316,-0.5235984332500181,0.0017746380480722485,0.8519261460002907,0.04324922250813241,-0.8401136026038462,0.9816039879861216,-0.024376242237506365,-0.835960474855811,0.8986813685228646,-0.055366191922049515,0.6788660033285778,1.0509634583788943,0.11621701021251837,0.7478043002881871,0.9869437361699327,0.0,0.0,0.0,0.0
0.018937528231997895,-0.17642775423741522,0.7468084126876435,-0.008285136982057595,-0.5232477142734578,0.0020936327497307365,0.8521377838792853,0.04442044706515273,-0.8329251655626728,0.9633246706475618,-0.027925645660124416,-0.831130172441886,0.9039986200552372,-0.07392514656536625,0.6842286615507948,1.0448936557882118,0.125829713643229,0.7404140272424361,0.9949363328329882,0.0,0.0,0.0,0.0
0.017309565276118214,-0.17706327937238048,0.7462590004036256,-0.008766111765106673,-0.5228122835630923,0.0025945348657850464,0.8523988150090875,0.044909543173942745,-0.8294051129555687,0.950031515708551,-0.03203615622754472,-0.8281664230525996,0.9126228776239331,-0.10282898109581133,0.6942021278392333,1.0414519224132992,0.137078465980929,0.7338391277273951,1.0037157850312226,0.0,0.0,0.0,0.0
0.01634873150009039,-0.1775500898399794,0.7457279311126872,-0.00934402975401426,-0.5224288340060794,0.003258700262907705,0.8526254648904177,0.04468743575575954,-0.8293928458255442,0.9434064715050431,-0.035139860069812345,-0.830252251962682,0.9268087723103533,-0.139086630591441,0.706752785880358,1.0412485880640323,0.14967362235266715,0.7303223372123991,1.0110736109125775,0.0,0.0,0.0,0.0
0.016348171779173845,-0.17754188065323348,0.7457133566371219,-0.009372278656570856,-0.522427798833614,0.003264514023873349,0.8526257668794888,0.04466224024396778,-0.829418846110942,0.9433529945931717,-0.035153775123614166,-0.8302538584559304,0.9268192729345641,-0.13909008363968792,0.7067711354344665,1.041255340583758,0.14968758223949152,0.7302821818926422,1.0110484786576353,0.0,0.0,0.0,0.0
0.016348171779173845,-0.17754188065323348,0.7457133566371219,-0.009372278656570856,-0.522427798833614,0.003264514023873349,0.8526257668794888,0.04466224024396778,-0.829418846110942,0.9433529945931717,-0.035153775123614166,-0.8302538584559304,0.9268192729345641,-0.13909008363968792,0.7067711354344665,1.041255340583758,0.14968758223949152,0.7302821818926422,1.0110484786576353,0.0,0.0,0.0,0.0
0.01718317517796688,-0.1775855837513409,0.7457578853979719,-0.009384973476524457,-0.5227950948459883,0.0032031352418129696,0.8524006986168192,0.04499658770455739,-0.8309498767086096,0.9488500709643504,-0.03489538881225516,-0.8322928326944246,0.9329452140950624,-0.14072357773607563,0.7112626517429902,1.040503229635692,0.1511884495718778,0.7345577164631152,1.010328794124892,0.0,0.0,0.0,0.0
0.01890920602953901,-0.17761723152414188,0.7462697739828597,-0.009240346701269275,-0.5235555269568974,0.002848500069633031,0.8519366832300855,0.04604294840184235,-0.8322844427561998,0.9593425647962929,-0.03396720398315756,-0.8356376275694787,0.9452428279134184,-0.14765151223113315,0.7234868813226855,1.0354940492117095,0.15050294690523947,0.7442697636535157,1.0046839578699625,0.0,0.0,0.0,0.0
0.02069429857148929,-0.17844314355599597,0.7469494904003,-0.010235528674022496,-0.5233887860908819,0.004160756951709788,0.852022359242212,0.04100267537775216,-0.826886309476382,0.9370902119883809,-0.034876044867634556,-0.8414002772637028,0.9621996832107848,-0.12251678230332184,0.7252665098773222,1.0233830999471825,0.11222016654796618,0.7229893985410911,1.0175268469752217,0.0,0.0,0.0,0.0
0.02272516206951718,-0.1791986915242173,0.7475458732916973,-0.010938824040447128,-0.5234574418918025,0.005012926666453023,0.8519668533592953,0.03480087529483593,-0.8271489156615616,0.9228947650998686,-0.034887825067691954,-0.848021652178315,0.9805295838982375,-0.10502878561415302,0.7304137511059505,1.0124139543495052,0.08039888454207644,0.7075211780531064,1.0274952684856167,0.0,0.0,0.0,0.0
0.02472052698389261,-0.17978373862105476,0.7479928051204421,-0.011314561479287047,-0.523728271593291,0.00539114089138734,0.8517931755023191,0.029437031233834024,-0.8309986648996518,0.9155069682207551,-0.03424131790824928,-0.8544299794804099,0.9976184388052358,-0.09557930344231538,0.7376553417761287,1.0039010386069633,0.05841163965401859,0.697967333949685,1.0367666487105465,0.0,0.0,0.0,0.0
0.02649320809057627,-0.18024027909580212,0.7483213481681811,-0.01151695021026375,-0.5240583008994992,0.0055436530242910015,0.8515864753666127,0.025133849492650975,-0.8368105810374836,0.911978886063361,-0.03340673986448947,-0.8600208951229718,1.0122959858653662,-0.09017808342112672,0.7449344362267026,0.9973234626236553,0.043094358707790305,0.6919350355752422,1.0459113616690427,0.0,0.0,0.0,0.0
0.02796114417797971,-0.1806267117003678,0.7485937959064548,-0.011644037124214931,-0.5243729727343049,0.005614837680761042,0.8513905540132897,0.021616556021438305,-0.8436041631505966,0.910372162782762,-0.03256041179965289,-0.8644894765424372,1.0242111050323852,-0.08632107753295658,0.751335575343535,0.9918657488502414,0.03160018071896486,0.6876483689886213,1.0549803232966601,0.0,0.0,0.0,0.0
0.02910518387553159,-0.18099287991961208,0.7488582082587727,-0.011737775950476387,-0.5246471190389388,0.005660125247775847,0.8512200585524624,0.01854646443592641,-0.850853304116287,0.9095473793939177,-0.03169448195893286,-0.8677709301479901,1.0334420703874165,-0.08278262932188486,0.7566108919004592,0.98692375446057,0.022178391810222013,0.6840663277267868,1.063925248409083,0.0,0.0,0.0,0.0
0.029937197362773112,-0.1813798797573895,0.7491369329203351,-0.011812284961789384,-0.5248757659434009,0.0056951229332458785,0.8510778259501799,0.0156646522837006,-0.8582966181226189,0.9088350913460053,-0.030735433830853167,-0.8699683210554697,1.0402749721032,-0.07897343726328128,0.7607470779950595,0.9821614525619511,0.013910595500435496,0.6806423351747777,1.072686919445772,0.0,0.0,0.0,0.0
0.030481125790484512,-0.18182024263747662,0.7494300634990859,-0.011865120548294332,-0.5250672283600905,0.005711602206217353,0.8509588722240723,0.012839407655343863,-0.8657450387552135,0.9078732938321946,-0.02957952811821128,-0.8712586648635252,1.045044565958664,-0.07474633724386281,0.7638415024950599,0.9774843920574798,0.006311421718403378,0.6771372034614408,1.0811893105475316,0.0,0.0,0.0,0.0
0.03075787435503106,-0.18234456393784518,0.7497199166394294,-0.011892241678281904,-0.52522676574733,0.005702346810214461,0.850860095651054,0.010017294578037534,-0.8729678882581168,0.9064892168490699,-0.028133916713636645,-0.871861989406438,1.04806862512457,-0.0699824131113034,0.7659008428162685,0.9729563960596865,-0.0008039788263802267,0.6734662880551737,1.0892837367366122,0.0,0.0,0.0,0.0
0.030776952213134746,-0.18298123953936435,0.7499761446807818,-0.011886459201333282,-0.5253600616223374,0.005656814704264759,0.8507781838923884,0.007207418437317547,-0.8795459009863817,0.9047001441127758,-0.02630533915233085,-0.8719830602054901,1.0495669461903836,-0.06464422853831264,0.7668611142471458,0.9687823590146654,-0.007467423555470099,0.6696456999599393,1.09665480761637,0.0,0.0,0.0,0.0
0.030529392210457147,-0.18375890620245527,0.7501590847835258,-0.011842120446926497,-0.5254671343819594,0.005569641582894072,0.8507132501380065,0.004446857935271354,-0.8847971675158095,0.9027094443554773,-0.024013644807004877,-0.8717906440426836,1.04962511404638,-0.058627773054832515,0.7665154058217488,0.9652658922284947,-0.013527578832602756,0.6657791053267884,1.1026716333651667,0.0,0.0,0.0,0.0
0.029986664361249395,-0.18470454046416582,0.7502263512993694,-0.011755278400389285,-0.5255426386304453,0.005441067778037124,0.8506686447686392,0.0017911137240035281,-0.8878033147280571,0.9008973270507361,-0.02119714827728926,-0.871384149839255,1.0481676144902574,-0.05177958308137961,0.7645442851690034,0.9627543929971589,-0.018614627238874887,0.6621608669358529,1.1061787599713466,0.0,0.0,0.0,0.0
0.029111678590905556,-0.18583781863860274,0.7501498392119741,-0.01162074892250999,-0.5255835937312107,0.005270709268781153,0.8506462624492448,-0.0006873334687001816,-0.8876939224559673,0.8997019303387418,-0.017811159899249328,-0.8707420989934687,1.0449764238090484,-0.04404317388617417,0.7606969907946547,0.9614919129207823,-0.022209320894475533,0.6595219046864284,1.105321382760798,0.0,0.0,0.0,0.0
0.02787523850924602,-0.18717502085694632,0.7499313796333616,-0.011439817250408794,-0.5255868857717431,0.005063186134424604,0.8506479414141941,-0.002951740637977723,-0.8844839283491547,0.899091781505561,-0.013828419732500952,-0.8697409306493289,1.039813285644066,-0.03531664292866053,0.7548806185380295,0.9614133238337811,-0.024288983837692117,0.6578634887154358,1.1000830187990538,0.0,0.0,0.0,0.0
0.026259108177859782,-0.18872786698646007,0.7496026155971064,-0.011224456307784163,-0.5255449083808817,0.00483466698981467,0.8506780747442729,-0.005025681641956263,-0.8790931768381527,0.898562974916875,-0.009258660328610195,-0.8681716012002841,1.0324472766001689,-0.025386601542220208,0.7471373315975931,0.9621249738373672,-0.02531459496010104,0.6564361353303174,1.0922744035957461,0.0,0.0,0.0,0.0
0.02424726684698793,-0.19049066492446826,0.7492088681225259,-0.010988165148687449,-0.525452907482502,0.004602654166228257,0.850739277228621,-0.006949103921122554,-0.8725078890746808,0.8976834910626643,-0.004162125363000099,-0.8657137728025293,1.0225418152271308,-0.014224184234381586,0.7376337573950947,0.9631378120350037,-0.025651477672807968,0.6548986924889114,1.0829989386017849,0.0,0.0,0.0,0.0
0.02182396413323781,-0.19243557738933054,0.748790566086266,-0.010745886095755804,-0.5253080008132924,0.004384926010555815,0.8508330051411035,-0.008786642441052315,-0.8654967339074967,0.8962433345588825,0.001338752354738639,-0.8619832437176221,1.0096494472120956,-0.0020212172176595697,0.7265666307344476,0.9640665215981815,-0.02556581250196247,0.653082251261675,1.0728327154773416,0.0,0.0,0.0,0.0
0.01898515010229651,-0.1945078618917742,0.748374576155832,-0.01051369935114512,-0.5251108999827491,0.004197517161248176,0.8509585099726907,-0.010644919406462982,-0.8585717074147056,0.8942816699273185,0.007052460448801446,-0.8565932025753358,0.9932958649003337,0.010792130354736773,0.7141606543826106,0.9647206675828652,-0.02531449314511386,0.6508803736531932,1.0620405308986562,0.0,0.0,0.0,0.0
0.015758226316060463,-0.19662209845653755,0.7479663770868118,-0.010306203778233679,-0.5248695734289782,0.00404965511816288,0.8511106351970864,-0.012666811977534654,-0.8520143408516457,0.8920943246990185,0.012723856902793762,-0.8492539886389909,0.9731430467701081,0.023534489297199722,0.700696937863404,0.9651877121656584,-0.025245672848555202,0.6482443255704292,1.0507419225651042,0.0,0.0,0.0,0.0
0.012229864033540212,-0.1986641562104247,0.7475353237084609,-0.010132384381526473,-0.5246015844443308,0.00393991399637875,0.8512784441432449,-0.014972676024928777,-0.8458711237918773,0.8902327421688324,0.01805357130556047,-0.8399653549055133,0.9492853420560908,0.03533816995578574,0.6865001024434235,0.9659656374050438,-0.02588127518273531,0.6452634965767284,1.039048310288109,0.0,0.0,0.0,0.0
0.00857936515108346,-0.200510308523736,0.7469818720412152,-0.010000340591906517,-0.5243155043646522,0.003880563056152596,0.851456508755,-0.017628448112034883,-0.8399316423339066,0.8892910709694198,0.02269299351550193,-0.8294287109570927,0.9228130304668903,0.045575304045234494,0.6716834968413176,0.9681494554595668,-0.027754107654782485,0.6423994328072582,1.0271346334976905,0.0,0.0,0.0,0.0
0.005288781741869514,-0.20215433525661472,0.746149477429896,-0.009880902400528935,-0.5239693134449863,0.0038085687461159906,0.8516713105064928,-0.020410912308142716,-0.8332675851623567,0.8885493143023032,0.026809660206504243,-0.8208849667926467,0.898832684228711,0.0539301226217961,0.6569095283811447,0.9727099658775764,-0.03184011912611186,0.6410301412295848,1.014962965932345,0.0,0.0,0.0,0.0
0.0026106121729272203,-0.203371564717964,0.7451113316228706,-0.009765157879150412,-0.5236686457229066,0.0037014256291741264,0.8518580225757364,-0.023378878538433442,-0.8272533689082372,0.8890960357841072,0.029931496110487198,-0.8145229473386935,0.8787780640381099,0.059164220266233684,0.6435165706001227,0.9798680993537594,-0.03976672956560003,0.640532708257627,1.0026883082888862,0.0,0.0,0.0,0.0
0.0009427007647871166,-0.20400350528113673,0.744126686005168,-0.009668969842819695,-0.5234549283351494,0.0035905553298751897,0.8519909371209563,-0.025727828609805794,-0.8238193374635874,0.8906526538669763,0.03163875241356667,-0.8112537588828322,0.8659884242228114,0.061052710576022996,0.633774862761887,0.9876430378401656,-0.05057005284724741,0.6405910170269739,0.991197140507626,0.0,0.0,0.0,0.0
0.00092328707947315,-0.2041008524511873,0.744076141094979,-0.009590161227246794,-0.5234584671776662,0.0035992105908527585,0.8519896170909398,-0.025725763644096147,-0.8238432854586712,0.8906608491990462,0.03178912502140885,-0.8113216113483501,0.8658203968403189,0.061061671957804924,0.6336941428264181,0.9875681261280548,-0.050582443357082556,0.6406241169361342,0.9912066163162084,0.0,0.0,0.0,0.0
0.0009232870794731351,-0.2041008524511873,0.744076141094979,-0.009590161227246706,-0.5234584671776664,0.003599210590852759,0.8519896170909397,-0.02572576364409623,-0.8238432854586714,0.8906608491990463,0.03178912502140875,-0.8113216113483501,0.865820396840319,0.061061671957804306,0.6336941428264183,0.9875681261280549,-0.05058244335708306,0.6406241169361341,0.9912066163162085,0.0,0.0,0.0,0.0
0.0009232870794731351,-0.2041008524511873,0.744076141094979,-0.009590161227246706,-0.5234584671776664,0.003599210590852759,0.8519896170909397,-0.02572576364409623,-0.8238432854586714,0.8906608491990463,0.03178912502140875,-0.8113216113483501,0.865820396840319,0.061061671957804306,0.6336941428264183,0.9875681261280549,-0.05058244335708306,0.6406241169361341,0.9912066163162085,0.0,0.0,0.0,0.0
0.0024634262325786333,-0.20492523221587824,0.7444903452982514,-0.009513573376156013,-0.5239155031694711,0.0036251961256539883,0.8517093961048844,-0.02377505060187098,-0.8261018721878548,0.900163142464832,0.03383091640618219,-0.8174659090068243,0.8814118120928857,0.06666318329709016,0.640980195437967,0.9803800309010563,-0.04614187613544078,0.6483447831700636,0.9901350124736948,0.0,0.0,0.0,0.0
0.005406760689081672,-0.20659963825150868,0.7459728452573828,-0.009175246363469716,-0.5247357182855308,0.0031305673175083546,0.8512099860538574,-0.01836201986822407,-0.827155628365028,0.9163052274360484,0.039402255685492646,-0.8284602245719719,0.9113714471834758,0.0738891679525017,0.6596900771945492,0.9603202948128554,-0.041011159098086294,0.6649670977875826,0.9812216049802814,0.0,0.0,0.0,0.0
0.008393309572846584,-0.20830544668671908,0.7470653209069692,-0.009152981589279506,-0.5247103923336047,0.0032557756041279714,0.8512253679433881,-0.014435080325781391,-0.8354245960980092,0.938270772610157,0.0358365506331251,-0.827695636065641,0.9029955032698487,0.05760469284106642,0.6553254401310751,0.9853218818161983,-0.029105901532344672,0.6801478360172593,0.9744358152403538,0.0,0.0,0.0,0.0
0.011896527983885137,-0.21001040400445206,0.7477890099384285,-0.009032100326225104,-0.5247278965605005,0.0031542265263059775,0.851216251366191,-0.00994138286644352,-0.8462837557489111,0.9643993100048739,0.030887173181699763,-0.8303205093484625,0.8974261334385022,0.043041046306829964,0.6548363579498143,1.0058392492127248,-0.01883095995027834,0.6947641896725626,0.9698881281002303,0.0,0.0,0.0,0.0
0.01539064087423904,-0.21174287661156582,0.748316860161773,-0.0088178569075967,-0.5248227311310402,0.002913145414171139,0.8511608895335293,-0.0049933091073741534,-0.8562772496900646,0.9889389496305587,0.026180064100198915,-0.8350320780648305,0.8950697557308522,0.03343649339867307,0.6557389724126141,1.022655842729563,-0.009366458107614044,0.7084639438703508,0.9668341673847916,0.0,0.0,0.0,0.0
0.018606051653703604,-0.21347634758239004,0.7487909431172385,-0.008559376963995148,-0.5249542390283437,0.0026198677085770873,0.8510833803367037,0.00014187066663829805,-0.8642734547370456,1.0098798032688647,0.022189330994387163,-0.8408880221624112,0.8946634054183885,0.02753003851127568,0.6568292797281056,1.0370581711668951,-6.449558944989636e-06,0.7212764400896275,0.9642757978088662,0.0,0.0,0.0,0.0
0.02140625975976037,-0.21517644572842204,0.7492658922846885,-0.008293496335351175,-0.525081061556195,0.002321271299321863,0.8510086417969619,0.0052567072217790355,-0.8700826443494132,1.0266724427108918,0.018852906095489775,-0.847344696930014,0.8950851598348374,0.02376607057657865,0.6577256178980178,1.049827701785098,0.009525027513863247,0.7330238074470441,0.9618412702923982,0.0,0.0,0.0,0.0
0.02374895464415673,-0.21680741930558134,0.7497585842035189,-0.008041085729091891,-0.5251840741223796,0.00204033262354394,0.8509482159751566,0.010188507148050275,-0.8738741645045411,1.039469685397498,0.01593280731240639,-0.8541037627208002,0.8956172398767697,0.021110691319520244,0.6583203419633923,1.061479308636707,0.01918009769255803,0.7435813200048734,0.9594104613900735,0.0,0.0,0.0,0.0
0.02564961791002224,-0.21833819085306896,0.7502684086455329,-0.007812953119610368,-0.5252580803736282,0.0017875207062333248,0.8509052306429234,0.014815150668599487,-0.8759695234277595,1.0487613927259567,0.013188573633008798,-0.860987760059994,0.8958392047015469,0.018969954825755482,0.658607619104381,1.0723419432513808,0.0287533095257697,0.7529123301298024,0.9569561574257726,0.0,0.0,0.0,0.0
0.027153531335801492,-0.21974579046035045,0.7507842759921202,-0.007614092699190426,-0.5253043683591999,0.0015670046796261083,0.8508788930696567,0.01905334555949735,-0.8767425681044048,1.0551611291196985,0.010447979370262905,-0.8678466762529521,0.895533206201783,0.017010250912889636,0.6586330258963333,1.0825910309350026,0.0380015544199548,0.7610352846413084,0.9545112865964286,0.0,0.0,0.0,0.0
0.02831517049599022,-0.2210161608388784,0.7512863769863155,-0.007446363291255385,-0.5253260387601402,0.001380031723376005,0.850867322316915,0.022854229693126712,-0.8765656464921859,1.0592737613313825,0.007621357745919176,-0.8744608983176905,0.8946379055810989,0.015028129390054844,0.658474977651682,1.092236073193704,0.046716457250928115,0.767974060912547,0.9521837043277458,0.0,0.0,0.0,0.0
0.029183017596086984,-0.2221434740661311,0.7517462928164792,-0.007310305531846288,-0.5253253034204887,0.0012268251227923817,0.8508691908391799,0.0261969591739546,-0.8757759599516844,1.0616061171521647,0.004690417775940442,-0.8804321668268309,0.8932505519055154,0.0128592867664401,0.6582371753132141,1.1010552380648817,0.05476050410851369,0.7737094227461028,0.9501814803523052,0.0,0.0,0.0,0.0
0.02978881519516765,-0.22312931911146208,0.7521278564831274,-0.007206607420846848,-0.525302088135405,0.0011077104104814676,0.8508845714829429,0.029083022942316954,-0.8746484209657741,1.0625025449194891,0.0016866217228628626,-0.8850928270808709,0.8916607398006935,0.010300367313819364,0.6580677243541286,1.1084641513718876,0.06208346358061468,0.7781451446537938,0.9488257714499786,0.0,0.0,0.0,0.0
0.030143177726633358,-0.22398273287934534,0.7523923873034628,-0.00713720189295683,-0.5252539186401729,0.0010236566881917733,0.8509149977696165,0.03153400943460256,-0.8733680075846001,1.062111439003217,-0.001333964314229674,-0.8875250365630069,0.8903661218976969,0.007042856048134755,0.6582598688894391,1.1133119113507555,0.06873191438640744,0.7811173020974029,0.9485136129669183,0.0,0.0,0.0,0.0
0.030244255284738772,-0.22472037104059328,0.7525149370606928,-0.0071040700357133104,-0.5251784599637268,0.0009740966252279183,0.8509619077930695,0.03359614493005129,-0.8719953582275076,1.0604199993064136,-0.004306104077646398,-0.8868705778533947,0.8899561215832583,0.0026840533148749183,0.6594921950558235,1.1137101097903772,0.0748190159846844,0.7824970542234512,0.9495514719153807,0.0,0.0,0.0,0.0
0.03009408912790859,-0.22536154491187774,0.75250009430038,-0.007105051673628174,-0.5250745952967613,0.0009572466784684143,0.8510260109382404,0.035323313992653364,-0.8704823199289093,1.057372600686048,-0.007172085506664193,-0.8831469073918536,0.8904482148226724,-0.0027550453198938486,0.661748785470045,1.109655802247804,0.08044811300743288,0.7823117035253139,0.9519572402461783,0.0,0.0,0.0,0.0
0.029700321725742766,-0.22592870163256273,0.7523817438083187,-0.007134188850602414,-0.5249420719454315,0.0009703508736595988,0.8511075037092924,0.03677754975933497,-0.8686810329295976,1.0528844961013197,-0.009891285450543436,-0.8772538871819712,0.8913075832102885,-0.00885560920561176,0.664333771472195,1.1030386189388999,0.08571644810755864,0.7807481372624601,0.9554602674657431,0.0,0.0,0.0,0.0
0.02906239926627286,-0.2264516079506459,0.7522064362135924,-0.007186633013345881,-0.524780492619808,0.0010098289584427244,0.8512066535907234,0.038042046542393425,-0.8663446008676091,1.0467475227105718,-0.012448856300889533,-0.8701545437770107,0.8921122247002118,-0.015343160529727055,0.6669530334049899,1.0950388668076938,0.0907841876881333,0.7780337990462457,0.9597010767283757,0.0,0.0,0.0,0.0
0.028165163887438838,-0.22696482150828792,0.7520153645984969,-0.007260536228696253,-0.5245870704134227,0.0010737291227767857,0.8513251654183056,0.03920877060106373,-0.8631834595496454,1.0386254413816642,-0.014868274302978546,-0.8625639512092949,0.8926731810048121,-0.022135391726791003,0.6694759650996042,1.08631968060716,0.09588082185691002,0.7743277216472905,0.9644057609607548,0.0,0.0,0.0,0.0
0.026986045194920736,-0.22750440271245373,0.7518359485734402,-0.007357303550119572,-0.5243570680139722,0.0011623674617043545,0.8514659031400763,0.040368579748879814,-0.858927433072852,1.0281318232593561,-0.01721897126648775,-0.854930276696584,0.8930353887610083,-0.029352766948527308,0.671853673311351,1.0772636921720378,0.10128194249820854,0.7697053772955933,0.9694411858979147,0.0,0.0,0.0,0.0
0.02550956613617208,-0.22810388601587317,0.7516763433353826,-0.007482389955702087,-0.5240851760060397,0.0012796038868794228,0.8516320242599863,0.04159855252788455,-0.8534075506939326,1.0149650819831304,-0.019627582735202258,-0.8475248334240197,0.8934641872265795,-0.037388250492082456,0.6741451187530536,1.0681599742552805,0.10729595279296554,0.7641898095199872,0.9748279289763773,0.0,0.0,0.0,0.0
0.023747891376250947,-0.22878768745668634,0.7515198392919217,-0.0076473931236470056,-0.523767622344176,0.0014357635790878036,0.8518256475038105,0.04293981798297299,-0.8466750054845397,0.999113020007376,-0.02227468354351102,-0.8405578919162715,0.8944630593458182,-0.0470862174321027,0.6766144468066102,1.0593622260226758,0.11426250148440649,0.7578107079659755,0.9807414510605208,0.0,0.0,0.0,0.0
0.02176956452204159,-0.2295595418528979,0.7513192664876646,-0.007873861684033917,-0.5234052017658241,0.0016532491391460476,0.8520459282420998,0.044357958788633495,-0.8391820459248611,0.9811717479414724,-0.025337179753531572,-0.8343104949265145,0.8968327511242324,-0.06007289132191625,0.6799033192183888,1.0514497773729579,0.12256202466966166,0.750700607032665,0.987496740125658,0.0,0.0,0.0,0.0
