zhuoxili-jackie/tripod-support-walk/examples/pcbB样数据/trajectory_trotting_acc_015.csv
root_pos_x,root_pos_y,root_pos_z,root_rot_x,root_rot_y,root_rot_z,root_rot_w,FL_hip_joint,FL_thigh_joint,FL_calf_joint,FR_hip_joint,FR_thigh_joint,FR_calf_joint,RL_hip_joint,RL_thigh_joint,RL_calf_joint,RR_hip_joint,RR_thigh_joint,RR_calf_joint,FL_foot_joint,FR_foot_joint,RL_foot_joint,RR_foot_joint
0.0,0.0,0.72963,-0.009919430704566214,-0.5230949929384007,0.0038044909978256812,0.8522081665329894,0.0,-0.81,0.872,0.0,-0.81,0.872,0.0,0.65,1.0,0.0,0.65,1.0,0.0,0.0,0.0,0.0
0.0015330186552744707,-0.00033092992495030487,0.730037745128209,-0.009823933413748409,-0.5235384923349508,0.0037598433707685913,0.8519370874388298,0.0009202319055468174,-0.8132517901823315,0.8831430331867175,0.0009202319055468188,-0.8152914815141782,0.8860698388617634,0.0013607635347431782,0.6577307783233246,0.9948408532370785,0.0013607635347431739,0.657518605926022,0.9970000967651627,0.0,0.0,0.0,0.0
0.00431598591914625,-0.0011442380679935684,0.7310515273814127,-0.009701634379927286,-0.5242839091119722,0.003600760330301358,0.8514806489061694,0.0033957217610539716,-0.8179115447177537,0.9021916551503234,0.003398363981593242,-0.8246745577249455,0.9118927053820285,0.005218835859909917,0.6729931586108049,0.9819817108764718,0.005233719175771425,0.6724189818341897,0.9894674775910657,0.0,0.0,0.0,0.0
0.007278829981037762,-0.001784307121609206,0.7318055106308013,-0.009405784422252848,-0.5244687764285786,0.0033864115047895316,0.8513709919817752,0.00545360406710182,-0.8272937982176581,0.926220771409822,0.0064361813848645665,-0.8271099303824498,0.9067849521576931,0.011282123250636067,0.6654823103398475,0.999126240805507,0.00661625888459893,0.6849073836229196,0.9818121836825005,0.0,0.0,0.0,0.0
0.010662910931652449,-0.002292862433749058,0.7323130708455257,-0.00912575133938668,-0.5246007267851581,0.0031609199722392226,0.8512936078133705,0.007226927516825736,-0.8396958636094833,0.9546332909478815,0.01024562116977902,-0.8321355393917667,0.9030086495556585,0.017938969577579424,0.6609487663946143,1.013298286827168,0.0070717476880241496,0.6974130740286231,0.9750566944126046,0.0,0.0,0.0,0.0
0.01394347352106089,-0.0027725981206530854,0.7326748192609188,-0.00887076007069885,-0.5247898196737364,0.002959187031833071,0.8511804732221515,0.008895404998788475,-0.8512600481085683,0.9810836660691813,0.01420313523406614,-0.8387152758096036,0.9018587002839948,0.024909177148826865,0.6582435859256099,1.0256180443534124,0.007614989780085861,0.7092898923118479,0.9694527057673723,0.0,0.0,0.0,0.0
0.016865717882654722,-0.003229077146533755,0.7329768413285471,-0.008637076269576341,-0.5250100158509777,0.0027760996077384973,0.8510476939870276,0.010480605055705815,-0.8608149220221605,1.0035378489400932,0.017879688161199163,-0.8460640800654948,0.9023134416090195,0.031912690036982494,0.6562042248079465,1.0367688151544114,0.008258492908762205,0.720057656233628,0.9645494992600663,0.0,0.0,0.0,0.0
0.019311962606577623,-0.0036397339136461098,0.7332674163523122,-0.008423021343250162,-0.5252306680040365,0.0026082645220472257,0.8509142113372344,0.011924927551462185,-0.8681005279572536,1.0214933338996166,0.02120420822043539,-0.8537764288778237,0.9033913240424684,0.03882042225391696,0.6542051146832398,1.0470686126802606,0.00880590718121006,0.7294157267743557,0.9600251397790616,0.0,0.0,0.0,0.0
0.021254219304555174,-0.003971628021818912,0.7335707773334806,-0.008230945778560463,-0.5254343022313955,0.0024580285866811404,0.8507908107553018,0.013129957454066662,-0.8732620587310658,1.0351783934190466,0.024236153929630404,-0.8616532200681987,0.9044263498399854,0.045570329340883044,0.6519478379643929,1.0567226388684794,0.009021729043436516,0.737268302735057,0.9556583748374918,0.0,0.0,0.0,0.0
0.022716153521733177,-0.004190696888078904,0.7338928499515682,-0.008065234725390625,-0.5256129386904184,0.0023306165393471743,0.8506824077742489,0.013988620979258286,-0.8766309257650887,1.0451497304298765,0.027043725934093394,-0.8695780323578784,0.9050112383318278,0.052117258851743495,0.6493220350210135,1.0658661930078612,0.008683086063586693,0.7436418773318652,0.9513154416320772,0.0,0.0,0.0,0.0
0.023745828359855337,-0.004266116795038568,0.7342245391300418,-0.007930672838793191,-0.5257641886454153,0.002231797018503914,0.8505904663517105,0.014403079509878021,-0.8786085648120423,1.0520688370492075,0.029665412191172507,-0.8774310586565834,0.9049298535520218,0.05841592461037215,0.6463272071675933,1.0745608932148927,0.007601105904572894,0.7486073511315189,0.9469566159853272,0.0,0.0,0.0,0.0
0.024396711283292197,-0.00417132448327496,0.7345436942569051,-0.007831614620485955,-0.5258882839202377,0.0021666651989240356,0.8505148347970066,0.014290527025588303,-0.8796033595249009,1.0565741556779051,0.03211178233011791,-0.88500325982116,0.9041218944050757,0.0644066464724629,0.6430304404900004,1.0827577665354189,0.005624163350419636,0.7522163274938489,0.942648913401637,0.0,0.0,0.0,0.0
0.024714414805283906,-0.0038834780700436598,0.7348161961780465,-0.007771893186177218,-0.5259860498331289,0.0021392313037947594,0.8504549939571598,0.013582390783867653,-0.8799940305674746,1.0592020652440366,0.034376928943402996,-0.8918979357849346,0.902688573796916,0.06998662861070445,0.6395492238252825,1.0902178775143008,0.002633843987326888,0.7544515557745515,0.9385801171470626,0.0,0.0,0.0,0.0
0.0247278290749511,-0.0033831696529672494,0.7349974926007473,-0.0077553397207530015,-0.5260579361203632,0.0021525556226860247,0.8504106473080466,0.012222731593100049,-0.8801015967771256,1.060331531513301,0.03644367878396867,-0.8974482623815606,0.9009289549560331,0.07495665136384737,0.6360727266261367,1.096374798043004,-0.0014517143565559963,0.7551987035933162,0.9350643556189508,0.0,0.0,0.0,0.0
0.02444605321739929,-0.0026556327897427536,0.7350382316006381,-0.007786620610331092,-0.526104337983149,0.00220925120425728,0.8503815104433421,0.010169961210055499,-0.8801591263831209,1.0601532157811315,0.038281531787727356,-0.9007422730380196,0.8993597169657888,0.07895509282064495,0.6329694001970291,1.1001268242682014,-0.006657598840950317,0.7542654296460428,0.9325037486842436,0.0,0.0,0.0,0.0
0.02386718146358092,-0.0016922988013832942,0.734901319805009,-0.007870570965222218,-0.5261278485115877,0.002310429652785578,0.8503659230284741,0.007403524452921353,-0.8802753640129777,1.0587019715907753,0.03985449457014134,-0.900933317396532,0.8985996172899396,0.08148073621686955,0.6310184960209272,1.0996494288180638,-0.012952565113045888,0.7514968844901118,0.9312189042944823,0.0,0.0,0.0,0.0
0.02299429069459013,-0.00048392250346578135,0.7345779323362953,-0.008006337296909798,-0.5261309846010096,0.0024539571943181927,0.8503623131935875,0.0039073438036407535,-0.8804656224239072,1.05599158532973,0.04114158506012927,-0.8980630378911648,0.8986855914521573,0.08251551335848772,0.6302536405081459,1.0949617768667115,-0.02036134130157718,0.7468821271043097,0.9312309381805962,0.0,0.0,0.0,0.0
0.021838292293680464,0.0009779698482255256,0.7340881770765451,-0.008186856941484948,-0.5261160684683426,0.002634193181194364,0.8503692838403314,-0.00032552945901400017,-0.8806581037677078,1.0520319935994338,0.042151646236717896,-0.8930669433933658,0.8990930574546957,0.08254282341656101,0.6299560719904246,1.087914717945052,-0.02895430918093094,0.7405698651771158,0.932251583995521,0.0,0.0,0.0,0.0
0.020406928206115848,0.0026901153244070553,0.733466809513116,-0.008404038540993508,-0.5260881235358048,0.002843313898378209,0.8503837804055605,-0.005263807891514445,-0.8806651973506147,1.0467159122322705,0.04292317630209559,-0.8869552325234079,0.8994362686492351,0.08195452982351409,0.6298038302897457,1.0796184810284237,-0.03871042198782587,0.7327914854441452,0.9338908979857399,0.0,0.0,0.0,0.0
0.018701181194196028,0.004634001462088325,0.7327479942182811,-0.008648843905110476,-0.5260538244075037,0.003071960549530312,0.8504017488127165,-0.010829852172350395,-0.8802193955231491,1.0398067114027547,0.043532463181894174,-0.8805156506478468,0.89961220461356,0.08106343842509918,0.6296424631695415,1.070625376641027,-0.04949337884331901,0.7237708197916151,0.9358280195118593,0.0,0.0,0.0,0.0
0.016724112618087657,0.00677201870760312,0.731961942362042,-0.008909263916611995,-0.526022616032259,0.0033076406390200185,0.8504174809776937,-0.016886061118755187,-0.879005784328997,1.0309990044713173,0.044108199544914066,-0.8743038445477695,0.8998293912455497,0.08023633776451039,0.6293764858732038,1.0611352282474995,-0.06106719417025589,0.713725716016528,0.9378503704028303,0.0,0.0,0.0,0.0
0.014495993651968615,0.009042661022451791,0.7311355818159575,-0.00916740458356599,-0.5260095568591155,0.003531857503809231,0.8504219133869086,-0.023217001475664308,-0.8766985611915317,1.020018932164789,0.04482041865900071,-0.8687370619070399,0.9006443516998335,0.08007594002410924,0.6289385009696649,1.0511378764576467,-0.07313098251419844,0.70290416102756,0.9398531894969469,0.0,0.0,0.0,0.0
0.012074254707463358,0.011356078957900884,0.7302904569693768,-0.009394743523155533,-0.5260397125811509,0.003713724535911321,0.8504000046047423,-0.029506363187223605,-0.8730214285629172,1.0067702598754775,0.045821476177384246,-0.8642041941553472,0.9030560260768375,0.0816689218084056,0.6282860465531948,1.0405160095324915,-0.08540363177025904,0.6916042531955459,0.9418633238151823,0.0,0.0,0.0,0.0
0.00957653351578944,0.013593046132887606,0.7294255783015816,-0.00953738350846247,-0.5261437282531134,0.0037682620783569126,0.8503338260569405,-0.03523709992878215,-0.8678837717415762,0.991568401683673,0.04723047345525499,-0.8612490370642291,0.908628634353224,0.08665831708386122,0.6274621440640864,1.0291611266196772,-0.0980193734212198,0.6799877577039387,0.9441361721767754,0.0,0.0,0.0,0.0
0.00720686054926465,0.015645542462827098,0.7285038849607297,-0.00953917960382426,-0.5263911535788774,0.003671911077069471,0.8501810833907248,-0.040109283576539194,-0.8616507395369659,0.9755147837569715,0.05002508831499815,-0.8608815184355261,0.9196276019804581,0.098749013740552,0.6266191872602559,1.016740323278085,-0.11095483290303014,0.6684779684695585,0.9473046338274503,0.0,0.0,0.0,0.0
0.005530464339335087,0.017381990451179597,0.7274583174676513,-0.009322857211693115,-0.5268572759648317,0.0032926709214353275,0.8498962603838958,-0.04352997839084086,-0.8563900027724036,0.9630634799713115,0.053848154309894716,-0.864861669891044,0.9391785073573613,0.12115104608866431,0.6263604836662822,1.0035383829096152,-0.12520249581177462,0.6579837515242589,0.9519108066523102,0.0,0.0,0.0,0.0
0.0048599212190572815,0.01844153654111987,0.7264152857160346,-0.008899023768257576,-0.5276953213557353,0.0026162433370127565,0.849383076394886,-0.04455303248770926,-0.8518564560621317,0.9554066684379008,0.059350481791796764,-0.87713254650743,0.9719291294414115,0.1522235010728681,0.6273241636501633,0.9904201558647177,-0.13907323832238477,0.6502202392609684,0.9583361416278052,0.0,0.0,0.0,0.0
0.00482316656620431,0.018596839284923103,0.7263495604662396,-0.009048695751688545,-0.5277518643328423,0.0025973162426655596,0.8493464221074568,-0.04478209090239513,-0.8519159285003668,0.9553169244378389,0.05936235989240143,-0.877147831481755,0.9719409474653355,0.152238030371566,0.6273362874791756,0.9904211843448454,-0.1391143979553297,0.6501456131120915,0.9582953877306243,0.0,0.0,0.0,0.0
0.00482316656620431,0.018596839284923103,0.7263495604662396,-0.009048695751688545,-0.5277518643328423,0.0025973162426655596,0.8493464221074568,-0.04478209090239513,-0.8519159285003668,0.9553169244378389,0.05936235989240143,-0.877147831481755,0.9719409474653355,0.152238030371566,0.6273362874791756,0.9904211843448454,-0.1391143979553297,0.6501456131120915,0.9582953877306243,0.0,0.0,0.0,0.0
0.005647143063444286,0.019970055390646082,0.726644589833107,-0.009158167079313499,-0.5273838814303781,0.002650269936181548,0.8495736257985188,-0.048507207074490334,-0.8601194831128789,0.9691653689603719,0.055839000244924025,-0.8795601127108041,0.977054374890911,0.14467804936703424,0.6304787870539839,0.9913511729344151,-0.1467018591970301,0.6532639149296567,0.9482161436812045,0.0,0.0,0.0,0.0
0.007721284618342228,0.022677487843632667,0.7284405725555295,-0.009854982927769986,-0.52774176802595,0.003475493837647975,0.8493405833556538,-0.057375666143374554,-0.8695681125594743,0.993938435075852,0.04706218435997843,-0.8747243456940952,0.9828557771444516,0.1380758595604052,0.6438705001704178,0.9826117003897715,-0.1559214293709086,0.6718482706566928,0.9196823670880327,0.0,0.0,0.0,0.0
0.009170068666678646,0.02543291506241023,0.7302623822651926,-0.00955717766890834,-0.5264177714915127,0.0031409512512137455,0.8501665275921841,-0.05251468530660975,-0.8536186918868698,0.9555691079924047,0.04086520221062162,-0.8789396762121083,0.9931562993169281,0.11533130495868346,0.6567037158382668,0.9726328720229405,-0.12253444998469545,0.6572514999192202,0.9558585593378286,0.0,0.0,0.0,0.0
0.011384698183198472,0.028220841416740555,0.7315452117281778,-0.009643550399639733,-0.5258002248098309,0.0032373247669457038,0.8505472622106158,-0.046777052851452755,-0.8463732064299236,0.931595530556828,0.03357034221864876,-0.882966816445893,1.0060732322125494,0.09849575894420384,0.6689879073514864,0.9670490621104645,-0.09461078514595736,0.6519779890043301,0.9833269023079002,0.0,0.0,0.0,0.0
0.013831096881610367,0.03095289901090115,0.7325643252945251,-0.009969513800528533,-0.5256441978323618,0.0035893417123404998,0.8506385264645765,-0.04122929833300606,-0.8453329775791173,0.9188143786778916,0.025782299978186363,-0.885302292890477,1.0181014564494073,0.08517317368617201,0.680890078159011,0.9636383973010114,-0.076801343638906,0.6505046996871376,1.0041716386421042,0.0,0.0,0.0,0.0
0.016246160983336293,0.03354100127754879,0.7334581590333901,-0.010362400070488222,-0.5256587609074836,0.004009156410160446,0.8506229566681509,-0.03623335269528789,-0.8477378954215347,0.9121741747323285,0.018168533900061106,-0.8866687874939702,1.028931463500899,0.07329819385388156,0.6924218087155968,0.9608551055142437,-0.06605106775222216,0.6504707302194938,1.0207401013620618,0.0,0.0,0.0,0.0
0.01846499797939241,0.03595918620952543,0.7342774957231886,-0.0107351581360006,-0.5257089953839329,0.004409822339374936,0.8505853055509166,-0.031870233564998726,-0.8520652587043036,0.9087279591760654,0.010998681655155738,-0.887300915782878,1.0381222066515448,0.061830298172312295,0.7033398266531273,0.9582439528510118,-0.05919628717010457,0.6508829577830513,1.0346376691962011,0.0,0.0,0.0,0.0
0.020408703717985005,0.03819794557728637,0.735040274720097,-0.011055257006924215,-0.5257442788701668,0.004758450846338857,0.8505575181452115,-0.02796586980440521,-0.8574775782038397,0.9067898939792065,0.004380775627029709,-0.8872834336328771,1.0454581144074913,0.050419055167990404,0.7134398859895313,0.9557227350378942,-0.05423792842034714,0.6513091767540449,1.046884237441437,0.0,0.0,0.0,0.0
0.022057716986497587,0.04025144475627031,0.7357528440189225,-0.0113183671702325,-0.525754671436848,0.0050497134561663945,0.8505459543263623,-0.024259602645196898,-0.8634855115469525,0.9053973480192137,-0.001646374857417406,-0.886680061482031,1.0509651173422332,0.03911504420869963,0.7226153984637685,0.9532974264977827,-0.05010875447826233,0.6515948994507201,1.0581104537114505,0.0,0.0,0.0,0.0
0.02342552044447768,0.04211627323488129,0.7364146177968192,-0.01153191700632422,-0.5257463573185739,0.0052898339670575745,0.8505467655061718,-0.020525998388820053,-0.8697472719612316,0.9040183189643225,-0.007076607551636531,-0.8855746845779636,1.0548211146379707,0.028141058509564103,0.7308235540936776,0.9510077812948399,-0.04627664937566251,0.6517357631828908,1.06866623069519,0.0,0.0,0.0,0.0
0.02453699992565214,0.04379314271988352,0.7370169216348824,-0.011706426484497767,-0.5257293878037148,0.0054880844766104905,0.8505536145989104,-0.01663012134469358,-0.8759236454024442,0.9024126278158087,-0.011923864746985289,-0.8840675708812042,1.0572442250654834,0.017739033391690487,0.7380274846015583,0.9489589653467086,-0.04245348562100252,0.6518118756783676,1.0786536778100162,0.0,0.0,0.0,0.0
0.025411464597214023,0.04528815253002062,0.7375420304065649,-0.011850912615259349,-0.5257111767700992,0.005652262864777973,0.8505617945885475,-0.012525089815911604,-0.8815282586093797,0.9005446695230865,-0.01621622385725893,-0.8822548536488313,1.0583931003923155,0.008077070394381053,0.7441447805021554,0.9473558640141776,-0.038426212025242504,0.6519408587423152,1.087896285482369,0.0,0.0,0.0,0.0
0.026050666302628495,0.046613942330269886,0.7379647021218646,-0.011969852915013124,-0.5256924439484048,0.005786148901958617,0.8505708068571544,-0.008223649358042047,-0.8858280197828953,0.8985751887670627,-0.019993282682403517,-0.8802047859694669,1.0582927252864545,-0.0008098532614849753,0.7490181052625322,0.9465095387695319,-0.03394845268108549,0.6522751416306054,1.0958258130692855,0.0,0.0,0.0,0.0
0.02643370845760795,0.04779120096060248,0.7382585448032095,-0.012061309437862645,-0.5256646305626765,0.005889054988125483,0.8505859980163063,-0.003768308900389046,-0.8878747632432409,0.8968665103134943,-0.023308851225728608,-0.8779331286050382,1.056798072533874,-0.009048730376581295,0.7524257937243083,0.9467863583673555,-0.02865004216304318,0.6530959008334909,1.1012913887272597,0.0,0.0,0.0,0.0
0.02652548950852826,0.04884916102191845,0.7384128474105054,-0.012119493311815619,-0.5256137695534825,0.0059589964695280166,0.8506161140601085,0.0007830886524324929,-0.8867960062653961,0.8958512194155097,-0.02623685851045735,-0.8753545383435117,1.05361580429465,-0.016879802492099576,0.7541858532251503,0.9484351913563681,-0.022053934005303866,0.655050276375623,1.1024034160449019,0.0,0.0,0.0,0.0
0.02629402464996885,0.0498196854870541,0.7384470489874572,-0.012143643570790959,-0.5255296409315314,0.005995590988588624,0.8506674916275446,0.005340407903564644,-0.8825957996532168,0.8955095405548721,-0.028855499675958466,-0.87225291413428,1.0483863872292878,-0.024509412842916585,0.7542764720579552,0.9514077275632394,-0.014242516597997114,0.6580339903468517,1.0990919131642578,0.0,0.0,0.0,0.0
0.025712270164418436,0.05073966680541757,0.7384081646638151,-0.012136540632317457,-0.5254043684795804,0.005998853837520342,0.8507449486871429,0.009792735961918632,-0.8761739245397953,0.8953771218430163,-0.031251025556430154,-0.8683001607771689,1.0406975765682576,-0.03214317753474261,0.7528320749828811,0.9553857102003662,-0.005799854873828126,0.6612065511141205,1.093119405500332,0.0,0.0,0.0,0.0
0.02474521387593,0.05165773929406729,0.7383526514612779,-0.012093000061452589,-0.5252220848085388,0.005963081228128843,0.8508583681442831,0.014066918901182572,-0.8685249023481385,0.8950360369656726,-0.03352812035916487,-0.8631238824368932,1.0300407985711493,-0.04017033090955658,0.7500257696481121,0.9599886173274582,0.0028871514248597144,0.6640913740873574,1.08555189146709,0.0,0.0,0.0,0.0
0.02334785281791653,0.05262804286141979,0.7383269104918436,-0.011996851869676285,-0.5249559540308683,0.005874439299455353,0.851024566528884,0.01816716127559224,-0.860376404537461,0.894129564510139,-0.035790877225063716,-0.8563952965413839,1.015851578768085,-0.049141332042094296,0.7459609319778654,0.964937081080959,0.011676310254084535,0.6663198722314615,1.0769557953161326,0.0,0.0,0.0,0.0
0.02148373937755759,0.05370018374797421,0.7383547105022006,-0.011824193379628891,-0.5245759976476377,0.005713755127045313,0.8512623356787582,0.022167591051102557,-0.8522310540366801,0.8925679243134431,-0.03812362566139815,-0.8479135999179043,0.9976601839598509,-0.059621855548544836,0.7406655336237704,0.9701128558498314,0.020669617115200732,0.6676116650900569,1.0676250772967604,0.0,0.0,0.0,0.0
0.019153907117237155,0.05490032719849244,0.7384281380191667,-0.011553035515483576,-0.5240639102027679,0.005463930723324082,0.851583049886747,0.026241795620671464,-0.8443240659972675,0.890459096488886,-0.040557447405402236,-0.8376948429056065,0.975322074124489,-0.07190679345124541,0.7341275579092614,0.9755527058328337,0.03014058999107399,0.6678563689183329,1.0578067820470436,0.0,0.0,0.0,0.0
0.016433618200178086,0.0562089511644937,0.7384924362362892,-0.011180774213849384,-0.5234380712633877,0.005122527557367512,0.8519749618101858,0.030646695886614766,-0.8365814203386347,0.8880723919265019,-0.043038903581828936,-0.8260638893069702,0.9493051352033456,-0.08568200261640344,0.7263403697516491,0.9815153863626096,0.04058124916902017,0.6673660146417272,1.047930246709382,0.0,0.0,0.0,0.0
0.013512477522443271,0.05753782922265269,0.7384225579112945,-0.010749195267356097,-0.5227841426922243,0.004723467080154412,0.852384234843303,0.03557840054830228,-0.8285793803985992,0.8857817072063848,-0.04541976588005102,-0.8137678820489465,0.9210411174376447,-0.09969289334999351,0.7173288633691037,0.9886692291950211,0.053189488558694,0.6673684385209251,1.0388643659625623,0.0,0.0,0.0,0.0
0.010815435678325918,0.05864528614376328,0.7379989481292398,-0.010313026933497988,-0.5221222897304033,0.0042946442904393065,0.8527974625153198,0.04158024297180968,-0.8189038724285296,0.882264859048028,-0.047190816807384905,-0.803859312968571,0.8954820884648496,-0.11182850469311278,0.7071695442723365,0.997809478439822,0.07153836833857155,0.6710429816401499,1.0312564079275681,0.0,0.0,0.0,0.0
0.008563810591256757,0.059485754822539656,0.7372868383932735,-0.009956084876068416,-0.5215829838414875,0.003911799687868088,0.8531334978560817,0.047884155102387825,-0.8084749529426647,0.877468460546563,-0.04840006701314105,-0.7964901122025417,0.8742474966759398,-0.12116965865543226,0.6970108947118867,1.0082272165950443,0.09800193316935761,0.6787247272522626,1.0260619739523473,0.0,0.0,0.0,0.0
0.007079163502569231,0.059974930028244736,0.7365751108608323,-0.00977679624823874,-0.5212477989428647,0.003633142909560052,0.8533416353518315,0.05290793177580602,-0.7989762726521525,0.8700369582320092,-0.048933459681026005,-0.7921080778052688,0.8601950247461295,-0.12653719115267267,0.6891981499105796,1.016940888440409,0.130248631072795,0.6887536137112592,1.023494295723712,0.0,0.0,0.0,0.0
0.007082620834856514,0.05996111132295801,0.7365508461208289,-0.00973680207644819,-0.521233823772177,0.0036191417831810094,0.8533506884358344,0.05293496169139458,-0.798985930010461,0.8700446539491156,-0.04888209594693654,-0.7921593552754482,0.8600591724184629,-0.12655012138713415,0.6891334888698138,1.0168805260427003,0.13025009059497317,0.688786655933855,1.0235067332245353,0.0,0.0,0.0,0.0
0.007082620834855863,0.059961111322958165,0.7365508461208287,-0.009736802076445108,-0.5212338237721784,0.003619141783182607,0.8533506884358335,0.052934961691400356,-0.798985930010471,0.8700446539491524,-0.04888209594694157,-0.7921593552754447,0.8600591724184593,-0.1265501213871278,0.6891334888698102,1.0168805260427067,0.13025009059496306,0.6887866559338572,1.0235067332245384,0.0,0.0,0.0,0.0
0.007082620834855863,0.059961111322958165,0.7365508461208287,-0.009736802076445108,-0.5212338237721784,0.003619141783182607,0.8533506884358335,0.052934961691400356,-0.798985930010471,0.8700446539491524,-0.04888209594694157,-0.7921593552754447,0.8600591724184593,-0.1265501213871278,0.6891334888698102,1.0168805260427067,0.13025009059496306,0.6887866559338572,1.0235067332245384,0.0,0.0,0.0,0.0
0.008458286878911125,0.060092969451183025,0.7368375894434541,-0.009726237655187151,-0.5216669749579307,0.0036311982697246926,0.8530860343121569,0.05267106118420084,-0.8030097744398806,0.8815540067447419,-0.049318794544809884,-0.7954146567753145,0.8703586748507653,-0.1291837886725651,0.6964731629174991,1.0140803485130967,0.13100509585910766,0.6959597901165395,1.0200131889130324,0.0,0.0,0.0,0.0
0.010888453142227479,0.06039466429398695,0.7374181809523455,-0.009778588756132236,-0.5223842179975239,0.0037368046613439924,0.8526459665535144,0.05185328912868377,-0.8104033536715272,0.9022124909156477,-0.05045167379533064,-0.8007535498037351,0.8881872858513336,-0.13343527309126646,0.7094728821296171,1.0084600104780788,0.13290323298430046,0.7091919343918669,1.0127824639347864,0.0,0.0,0.0,0.0
0.013712540647892827,0.06112984891537014,0.737956463592459,-0.00911377640849547,-0.5228682818811153,0.002967418383629233,0.8523596032839678,0.051871754881216724,-0.8194060838402876,0.9270798607217224,-0.0434183854438488,-0.8084891122983001,0.8921104514649242,-0.09730437956011329,0.6965669578194024,1.0187511078078801,0.11929032881637441,0.7189399905525848,1.0025181131534697,0.0,0.0,0.0,0.0
0.016812420203830076,0.06206049949474,0.7382841607672042,-0.00857971689027991,-0.5232820356298986,0.002405481812037105,0.8521129698005799,0.05093545861825634,-0.8313778111896342,0.9556464251829759,-0.03540057090807163,-0.8173294750761914,0.8938537278279388,-0.06650059394871499,0.6870372999513074,1.0278389378784185,0.10605732186620141,0.728924474475936,0.9928311414992039,0.0,0.0,0.0,0.0
0.019716824088570818,0.06295432248079043,0.7384766255120793,-0.00822607526044921,-0.523698525509888,0.0020754013880434135,0.8518614199349899,0.04954338250750586,-0.8428667466684151,0.9820032907268622,-0.0281861538642082,-0.8266253726660862,0.8958610244455332,-0.04438746975839071,0.6808490350872249,1.0370247341369374,0.0955341676338961,0.7385598671344236,0.9845589956129844,0.0,0.0,0.0,0.0
0.022215071091488167,0.06376221619821291,0.7385958791573544,-0.007991813790264883,-0.524088928092941,0.0018831293581506167,0.8516239664233002,0.04801986349492407,-0.8526999902334647,1.004266476649588,-0.022199380021967207,-0.8358513388585115,0.8980090279768675,-0.028235229181367387,0.676542464656805,1.046331269609632,0.08702059878530288,0.7470565316518595,0.9775808402151877,0.0,0.0,0.0,0.0
0.024225452938484555,0.06449180812496406,0.7387006148551485,-0.007826974810277127,-0.5244413070871404,0.001764144210733581,0.8514087982169639,0.04648659378583227,-0.860434909487521,1.0219506670712921,-0.01716538766074194,-0.844847912995528,0.8999833269484138,-0.015465438130471274,0.672986421723758,1.05559723608151,0.07971158390919615,0.7541073247206626,0.9715140683327839,0.0,0.0,0.0,0.0
0.02574533246220568,0.0651773662170336,0.7388294657651943,-0.007704558594327508,-0.5247512414017277,0.0016874848386451919,0.8512190827390629,0.04492761597857161,-0.8661009296415441,1.0353308716985823,-0.012676380425241777,-0.8536172547751089,0.901497897867199,-0.004493194660454506,0.6695276291677456,1.064685702836134,0.07299403838134154,0.7596955740819072,0.9659669881457458,0.0,0.0,0.0,0.0
0.026813550511236225,0.06586309579160436,0.7389969745557551,-0.007613108163528433,-0.5250190489537055,0.0016417729929241135,0.8510548415944044,0.04325987061428924,-0.8699749695956737,1.0450152135959918,-0.00842001086555355,-0.8621941386157526,0.9023526471898247,0.005526888611051221,0.6658534763168578,1.0735070489991476,0.06642147884966997,0.7639234407220099,0.960656830444119,0.0,0.0,0.0,0.0
0.02748478590794327,0.06659470249891336,0.7391962959970421,-0.007549663861179494,-0.5252475900012366,0.001625001601121986,0.8509144088233977,0.0413760533070289,-0.8724413441995409,1.0517042733265503,-0.0042266407345330345,-0.8705630507548753,0.9024425762278727,0.0150018791963029,0.6618573696632901,1.0819824964252893,0.059659673729333416,0.766904254154419,0.9554456452651819,0.0,0.0,0.0,0.0
0.02781258219677657,0.0674158723761846,0.7394033277851784,-0.007515395088935755,-0.5254403654387165,0.0016389480780059826,0.8507956599874512,0.039165486039720324,-0.8739099083004046,1.0560579801336183,-3.773456001050692e-05,-0.8785811918969618,0.901764514065549,0.024089376047153006,0.6575502749198371,1.0899778593544092,0.052444658613783814,0.7686971259369296,0.950344413221587,0.0,0.0,0.0,0.0
0.027838116799611026,0.06836724324888982,0.7395800225912198,-0.007513377748623481,-0.5256000990214906,0.00168647761890134,0.8506969148037664,0.03652240684344989,-0.8747679705304857,1.0586179729705232,0.004141238213202198,-0.885890541355762,0.9004449602675627,0.032783880525972794,0.6530151999146593,1.0972022207144119,0.04455698492261306,0.7692658578764678,0.9455103967415015,0.0,0.0,0.0,0.0
0.02758324132912668,0.06948571869278378,0.7396774127490334,-0.0075478301634967,-0.5257281373139452,0.0017704691082827122,0.8506173177965337,0.03334993417751995,-0.8753467516665434,1.0597570872663156,0.008273158094216701,-0.891844349550835,0.8987885211298356,0.04092801736763135,0.6484136543078309,1.1030551124027008,0.035818072409280345,0.7684614060834358,0.941238650337179,0.0,0.0,0.0,0.0
0.02704920733592078,0.07080251929463258,0.739641919966024,-0.007624148346731452,-0.5258250234598483,0.0018935931486905662,0.8505564833510024,0.029565810638782847,-0.8758896418324679,1.0596547857866823,0.01230228045213309,-0.8955393199735205,0.8973054838978236,0.04818234748510924,0.6440886688559659,1.106409245691445,0.026112455706358888,0.7660506628468288,0.9379154769812716,0.0,0.0,0.0,0.0
0.026227161016225617,0.07234056945163027,0.739432502020455,-0.0077479137426560585,-0.52589318235709,0.002056966906843808,0.8505128449765547,0.025113090606340253,-0.8765150846462647,1.0583345105363546,0.016165836742186853,-0.8961328517973004,0.8966050810302194,0.054058864808262885,0.6408037191874809,1.1054218852174607,0.01539881390005908,0.7618414329537707,0.9358482722843979,0.0,0.0,0.0,0.0
0.025115160328335877,0.074119350319168,0.7390371020183106,-0.007919089158306886,-0.5259353264371244,0.002258578793717164,0.8504846966607987,0.019949446956983943,-0.8772413195456614,1.0557951898135678,0.019810226980468176,-0.8936680295033975,0.8967219982954618,0.05852046246445577,0.6386098767564868,1.1001183059611692,0.003615052306875746,0.7557988148534095,0.9350505049960592,0.0,0.0,0.0,0.0
0.0237213026708786,0.07615350396374256,0.7384733917250386,-0.008131155734794594,-0.5259541890872566,0.0024927465671752452,0.8504703766166901,0.014052613668269424,-0.877993542613192,1.0520308228376936,0.023213258959791545,-0.8890807637867467,0.8971361468303162,0.06201467921085087,0.6368294628117446,1.0923734744736984,-0.009314777510229192,0.748061939928543,0.9352288105129936,0.0,0.0,0.0,0.0
0.022052445444443656,0.07844287903489222,0.7377744795201642,-0.00837587181122142,-0.5259549181374226,0.0027511965265785933,0.8504667540686885,0.0074472038734385675,-0.8785787490858658,1.0469206733425855,0.02639967604809048,-0.883382465280993,0.8974669560199874,0.06491819432645572,0.6351785263583944,1.0833151070483957,-0.023353766512724226,0.7388644557395414,0.9359849760286362,0.0,0.0,0.0,0.0
0.020110074358308784,0.08096828431447128,0.7369742629325156,-0.008643271406188655,-0.52594400727693,0.003023901087116316,0.8504699001676066,0.00021461727439045595,-0.8787170842875418,1.0402110679179288,0.029455839021445558,-0.8773628866512839,0.897616573306664,0.06755570171472977,0.6335319884133644,1.0735003522818143,-0.03832660612709303,0.7284452630072951,0.9369858394074535,0.0,0.0,0.0,0.0
0.017898695583039588,0.0836863889811275,0.7361046452242699,-0.008919602858206092,-0.5259304762455036,0.003297561834745877,0.8504743975728932,-0.007489907374289328,-0.878068657122562,1.0315686478573787,0.03254359272705313,-0.8715820431016017,0.8978005502435279,0.07033529160849629,0.6318120327553775,1.063119390965953,-0.053932442643357496,0.717050023815418,0.938004969403663,0.0,0.0,0.0,0.0
0.015440308351290902,0.08652356933497882,0.7351965641130827,-0.009184211589174884,-0.5259286167324781,0.003552491088927549,0.8504717045066287,-0.015415118464426603,-0.8762649275839178,1.0206726879977817,0.03587946764853113,-0.8664647987114618,0.8985863163694782,0.07393891997659775,0.6299484534955413,1.0521336003302348,-0.06978237863637368,0.7049622680026633,0.9389282162020844,0.0,0.0,0.0,0.0
0.012793159560951001,0.08936991939629604,0.7342770258061535,-0.009404293315908824,-0.5259623279994505,0.003755340747663822,0.8504475799298247,-0.02318472540636161,-0.8729643346816598,1.007349156792053,0.039651229366919616,-0.8624117960788062,0.9009928165298304,0.07958428244032123,0.6278572061098928,1.040372388277163,-0.08549306603813449,0.6925072313148115,0.9397971135701935,0.0,0.0,0.0,0.0
0.010073011617286663,0.09207576484618651,0.7333465442378426,-0.009517434655326331,-0.5260655154302905,0.0038094228620868973,0.8503822553476185,-0.030171263577571272,-0.8679522025051147,0.9917553569027227,0.04398771826069943,-0.8600113909057592,0.9066790806413091,0.08907999054178342,0.6254869372005007,1.0276898705769562,-0.10114706254571137,0.6798132917134994,0.9409737082099714,0.0,0.0,0.0,0.0
0.007582119957981194,0.0945521492942357,0.7323375422695353,-0.009464556015330514,-0.5262821342851475,0.0036902789819362094,0.850249327640274,-0.03613490326980951,-0.8623544161929783,0.976140332106859,0.04961010090086641,-0.8600323153590927,0.9175394672672237,0.10632051012057524,0.623224848621723,1.0136708869452418,-0.11696171910358026,0.6673339565591663,0.9431474442776618,0.0,0.0,0.0,0.0
0.005806910729017431,0.09659525373184343,0.7311850245039725,-0.00916560054709063,-0.5267117744217543,0.003268605971165027,0.8499882438405272,-0.040297431290879246,-0.8576032183731799,0.9639253620859929,0.05618002921111995,-0.864638650762655,0.9370194976120368,0.13461474291797276,0.6213418189270077,0.9984290638195574,-0.1335072358285632,0.655781879170146,0.9473203050128,0.0,0.0,0.0,0.0
0.0050557802915835864,0.09778685941528989,0.7299519239551454,-0.008651566864500264,-0.5275041943508537,0.002544885481795333,0.8495045608417475,-0.041603077701412326,-0.8536013683076182,0.9562403956316214,0.06373344975781313,-0.8779489088592989,0.9698302857048349,0.17087643282749293,0.6210175518419297,0.9827594510498502,-0.14869235047686555,0.6465261813475861,0.954771533636249,0.0,0.0,0.0,0.0
0.005016174526075432,0.09796266236583943,0.7298734862480714,-0.008812098587204425,-0.5275695198820315,0.0025212438854533645,0.8494624134940888,-0.04186090173191364,-0.8536689948499414,0.9561443885061257,0.06375025746829265,-0.8779650472435112,0.9698419504489169,0.1708929971120279,0.6210293909737397,0.9827597671731014,-0.14873617662839253,0.6464403800805014,0.9547231828719103,0.0,0.0,0.0,0.0
0.005016174526075432,0.09796266236583943,0.7298734862480714,-0.008812098587204425,-0.5275695198820315,0.0025212438854533645,0.8494624134940888,-0.04186090173191364,-0.8536689948499414,0.9561443885061257,0.06375025746829265,-0.8779650472435112,0.9698419504489169,0.1708929971120279,0.6210293909737397,0.9827597671731014,-0.14873617662839253,0.6464403800805014,0.9547231828719103,0.0,0.0,0.0,0.0
0.005872579719044002,0.09941655291397916,0.7302028427210049,-0.008972938837487518,-0.5272474478675226,0.0025921268300471132,0.8496604592213878,-0.04579934571581889,-0.8619169063877176,0.9703491025730155,0.0600059955061875,-0.8799673365682472,0.9747352981744655,0.16355771109808162,0.6243234030834477,0.9838306001964394,-0.15633051062715764,0.6501148920745298,0.9439919717726276,0.0,0.0,0.0,0.0
0.007992428433514017,0.10229531516136194,0.7320764443264883,-0.00964622893294471,-0.5275624562533302,0.003394571895096484,0.8494546967914035,-0.05507265955532405,-0.871920416286448,0.9962150977962096,0.050844849529965784,-0.8752190426322435,0.9808217510089388,0.15595841200480987,0.6380960355868224,0.9751467021155317,-0.1667330818032374,0.6691361978398228,0.9136801867462405,0.0,0.0,0.0,0.0
0.009511471892321295,0.1052111987089874,0.7340123739343681,-0.009439904139236148,-0.5264023804060193,0.0030863165993113358,0.8501775677836761,-0.050613728186433254,-0.8551946516916081,0.9576394013364888,0.04422179059791288,-0.8780526527657192,0.9902433941950886,0.13360512976125064,0.6517976478301963,0.9650911554190519,-0.13255439721618578,0.6550376621936633,0.951537607110645,0.0,0.0,0.0,0.0
0.011765559449431818,0.10821254366994272,0.7353468255439987,-0.009537143176775892,-0.5258293889592827,0.0031684718873794286,0.8505306916229608,-0.04532041649689534,-0.8477518508564674,0.9335207416978522,0.036437578901638845,-0.8814988715627465,1.0026839191574157,0.11589855721463424,0.664491380052755,0.9600858442780095,-0.10375326185933623,0.6499028114504184,0.9800007991089555,0.0,0.0,0.0,0.0
0.014245015455630835,0.11117036587863836,0.7363946515088368,-0.009842384757124912,-0.5256574897442813,0.0034887910336175603,0.8506322115198538,-0.040157624028229616,-0.8466647701579492,0.9205890258560245,0.028155543658186007,-0.8836708031810961,1.0145145385147945,0.10120317173373292,0.6766221824509197,0.9573965032045983,-0.08546385701505187,0.6483225514946515,1.0012887495837957,0.0,0.0,0.0,0.0
0.01669677933820979,0.11397405695843217,0.7373136208656741,-0.010215659336352018,-0.52564870033872,0.003879984151839318,0.8506315476512257,-0.035520344410461285,-0.8490681147861024,0.913913231986085,0.02006002909623627,-0.884934700709756,1.0252108442943728,0.08795488297378821,0.6883707845905379,0.9552652105032927,-0.07463914349559687,0.6481165365696773,1.0180204768250707,0.0,0.0,0.0,0.0
0.018960722370615093,0.11658382835592584,0.7381576214015518,-0.010579748116375126,-0.5256858743043047,0.004262273423953016,0.8506022945607261,-0.03147838220013605,-0.8534021737390809,0.9105413225836679,0.012444273142019874,-0.8854402010228083,1.0343037765662875,0.07533177640623753,0.6995353864249161,0.9531785449918606,-0.0679730178973042,0.6484091629840927,1.0319587845766327,0.0,0.0,0.0,0.0
0.02095785228075151,0.11898431689179094,0.7389429511797303,-0.01090173614973981,-0.5257212011266181,0.004602314930719837,0.8505746231414301,-0.027844548933331183,-0.858819527853898,0.9087483319699745,0.005434941370113305,-0.8852779043566819,1.0415901371449814,0.0630400031427814,0.7099061147980591,0.9510602233061041,-0.06333444434279742,0.6488075661536303,1.044204791310455,0.0,0.0,0.0,0.0
0.022664645027792935,0.1211699946974935,0.7396735714366877,-0.011172926096790579,-0.5257407025192241,0.004891330049563462,0.850557437406419,-0.024357062835640562,-0.8648355812864787,0.9075300685974769,-0.0009216842377543456,-0.8845399070084048,1.0471005392276216,0.05109220006973624,0.7193525048895552,0.9489490798681994,-0.05955432882536655,0.6491444612280034,1.0554248601219298,0.0,0.0,0.0,0.0
0.024089237646597123,0.12314094964023856,0.7403475390706407,-0.011396679669095914,-0.5257461935368234,0.0051321412149580165,0.8505496556936643,-0.020798764347715,-0.8711126008528425,0.9063223427924606,-0.006621125160976486,-0.8833240875375761,1.0509956994082834,0.039646221163900514,0.7278089396007247,0.9469212793982656,-0.056031766299625675,0.6493893172721669,1.0659830923609073,0.0,0.0,0.0,0.0
0.02525134517574242,0.12490194208369389,0.7409568777896385,-0.011579974021244234,-0.5257430608160388,0.00533105749545636,0.8505478928499149,-0.017040320199886286,-0.8773050711520667,0.9048518080431383,-0.011681723591965246,-0.8817377165907122,1.0534735526863084,0.028876530818761598,0.7352245162627274,0.9450992024148811,-0.0524503903764746,0.6495848353487926,1.075986068015949,0.0,0.0,0.0,0.0
0.026166869503722764,0.12646217234165774,0.7414862288032539,-0.011729428631264843,-0.5257350001754556,0.005494002748010017,0.8505497904463339,-0.01303728549044545,-0.8829239528094126,0.9030788775613279,-0.01613584515238843,-0.8798789414970459,1.0546800859125394,0.018905310053102017,0.7415136104498242,0.9436824911092789,-0.048599634717789726,0.6498176436534765,1.085253193918432,0.0,0.0,0.0,0.0
0.026836439182766677,0.12783594594121628,0.7419128480308438,-0.01184853285670563,-0.5257207863061133,0.005624331003629102,0.8505560734105583,-0.008803933759063996,-0.8872411430544884,0.9011876799218704,-0.020026692577322012,-0.8778153982570309,1.0546378754927797,0.009753700608446537,0.7465209861907722,0.9429675406886667,-0.04424586016982837,0.6502254810162852,1.093211461931978,0.0,0.0,0.0,0.0
0.027239952852205446,0.12904434945440088,0.7422113007667674,-0.011935665159860925,-0.5256922905712177,0.005721750754760875,0.8505718177199845,-0.004382805188163998,-0.8893102430120235,0.8995592397570756,-0.023409779196498497,-0.8755607734541665,1.053205951224901,0.00130597829899887,0.7500273879014839,0.9433158298081831,-0.03902922127883327,0.6510912619873419,1.0987136363589276,0.0,0.0,0.0,0.0
0.02734412271212641,0.13011643255199953,0.7423692270019767,-0.011985917580728353,-0.5256379207343647,0.005784524662933651,0.8506042871630883,0.00016793174258094082,-0.8882544563163008,0.8986222370028465,-0.02635856158161407,-0.8730294863958463,1.0500973747003537,-0.006661975092754974,0.7518498665039463,0.9449956392236798,-0.032468027788566334,0.6530763547662477,1.0998819951858132,0.0,0.0,0.0,0.0
0.027119157743094164,0.13108348785415058,0.7424021437555167,-0.011998859577382108,-0.5255498077452205,0.005811713022012634,0.8506583632337683,0.004757398714037277,-0.8840784834087072,0.8983411323781584,-0.028948261418120447,-0.8700168316591349,1.0449675089257182,-0.014352094940908593,0.7519610414284086,0.9479978466569149,-0.0246339794916036,0.6560876298128354,1.0966545669643077,0.0,0.0,0.0,0.0
0.026540769518981416,0.13198045182112503,0.7423528522331233,-0.011977380150365565,-0.5254218662667394,0.005802643173268521,0.8507377587398564,0.00927954993269823,-0.8776807341252524,0.8982265836166883,-0.03125864942485114,-0.8662162112953736,1.0374321770611667,-0.021960778548048503,0.7504901580730471,0.9520388682964714,-0.01611149554421855,0.659285829100774,1.0907971703574593,0.0,0.0,0.0,0.0
0.02557792925237019,0.13285154212408065,0.7422748363748543,-0.011918357381550731,-0.5252415203890635,0.005753824653727516,0.8508502756176111,0.013669883357104463,-0.8700432465098994,0.8978349548662695,-0.0333881528171898,-0.8612680216022027,1.0270159893744282,-0.029812728309337195,0.7476063281605257,0.9567505827505464,-0.007287097756577189,0.6622085744521141,1.0833842850642217,0.0,0.0,0.0,0.0
0.024191922160239392,0.13374552229456696,0.7422128440965354,-0.011811036313199325,-0.5249898480148715,0.005656581491311028,0.8510077332130199,0.017932659736237515,-0.8619264652679001,0.8969083495144541,-0.035437736855288345,-0.8548294523451614,1.0131800399899489,-0.03834435252935618,0.7434225871291541,0.9618536578049379,0.0016828605379644469,0.6645422669559988,1.0749859260420498,0.0,0.0,0.0,0.0
0.02235070387719279,0.134707173338011,0.7421913260314544,-0.01163792475625256,-0.5246439838437955,0.005497653624705144,0.8512244267691699,0.02215296845285339,-0.8538171136509106,0.8953834361195522,-0.0374915455557977,-0.8466719023048143,0.9954641284209141,-0.04800938032917219,0.7379791597008516,0.9672145577710273,0.010837306155430208,0.6660372080664816,1.0659020399868104,0.0,0.0,0.0,0.0
0.020055075919166998,0.13576394986321133,0.7422027690448824,-0.011381946775147995,-0.5241896104992111,0.005264277294054105,0.8515092430014276,0.026498788480901255,-0.8459384683999985,0.8933771229369211,-0.03959345600861857,-0.8367731825730724,0.9736938541296262,-0.05907909179227782,0.7312684161880836,0.9728853630452362,0.02040370271190535,0.6665973281593487,1.0563743086060535,0.0,0.0,0.0,0.0
0.01737384348703635,0.1369067626876515,0.7421923101511185,-0.011039963695793364,-0.523640576156261,0.0049546772420193145,0.8518533426463513,0.031192593638072256,-0.8382413033327752,0.891174877688288,-0.04172061039976531,-0.8254334306033275,0.9482745173763378,-0.07135978267793631,0.7232699277639545,0.9791728493022773,0.030878679651235447,0.6665128930247206,1.0468019749848272,0.0,0.0,0.0,0.0
0.014486425764093914,0.1380650641705931,0.7420393246414968,-0.010641603544576026,-0.5230607860018733,0.004592716083810604,0.8522165671823543,0.036413090644909094,-0.8303411590575337,0.8891431771606045,-0.04375327394367776,-0.8134570778169816,0.9206232305070591,-0.08389719903432634,0.7139970919718512,0.9867471025322272,0.04336866586828865,0.6668848378068338,1.037956752982796,0.0,0.0,0.0,0.0
0.011770003947479447,0.13904030942925769,0.7415390106192865,-0.010225776382091977,-0.5224511083438829,0.004195581118284998,0.8525976014432082,0.042584181730651205,-0.8209956582347093,0.8861238871240752,-0.045267853095102346,-0.8036596391594413,0.8951857695989158,-0.09501406691466438,0.7034565804111391,0.9964049012758147,0.06089441337745012,0.6704627572697555,1.0303786582568009,0.0,0.0,0.0,0.0
0.009495173441796458,0.13978054400974585,0.7407506362174516,-0.009870095231434834,-0.5219308038355851,0.003830138111945009,0.8529221226288516,0.04901639777365878,-0.8110194367245179,0.88207855877181,-0.046280204719783384,-0.7965379577218598,0.8741270050601108,-0.10376130075447178,0.69289314999731,1.0073604474554543,0.08563005912803587,0.677762759782716,1.024948841213065,0.0,0.0,0.0,0.0
0.007994690662654047,0.14022057903339774,0.739975845876207,-0.009672575277157229,-0.5215886029961633,0.0035561284242684363,0.8531348805802331,0.054067461176933035,-0.8022127732862888,0.875910356464938,-0.04672583760432073,-0.7924669107473327,0.8602831894043359,-0.10903333690313385,0.6847582092398669,1.016550659019651,0.11523699032982289,0.6872038487601185,1.0219164555059486,0.0,0.0,0.0,0.0
0.007995892539038924,0.14020227507508304,0.7399505451103657,-0.009629831176867233,-0.5215757745945853,0.003543505775602081,0.853143259525844,0.05409443298829449,-0.802223187280526,0.8759184611787657,-0.04666960306779779,-0.7925185969904694,0.8601463324030377,-0.10904510158117957,0.6846931013163379,1.0164904671345105,0.11523755633790793,0.6872368553800482,1.0219287220970283,0.0,0.0,0.0,0.0
0.007995892539039689,0.1402022750750852,0.7399505451103666,-0.009629831176851298,-0.5215757745945894,0.0035435057755934087,0.8531432595258418,0.05409443298830387,-0.8022231872804682,0.8759184611787214,-0.04666960306779196,-0.792518596990499,0.8601463324030668,-0.10904510158094535,0.6846931013162727,1.016490467134592,0.11523755633780251,0.6872368553800231,1.021928722097074,0.0,0.0,0.0,0.0
0.007995892539039689,0.1402022750750852,0.7399505451103666,-0.009629831176851298,-0.5215757745945894,0.0035435057755934087,0.8531432595258418,0.05409443298830387,-0.8022231872804682,0.8759184611787214,-0.04666960306779196,-0.792518596990499,0.8601463324030668,-0.10904510158094535,0.6846931013162727,1.016490467134592,0.11523755633780251,0.6872368553800231,1.021928722097074,0.0,0.0,0.0,0.0
0.009367705600873555,0.14031362391982868,0.7402341462865365,-0.009613915111632983,-0.5220103077705596,0.0035498055372984783,0.8528776055789947,0.05389522286141996,-0.8061201639840653,0.8872129520277237,-0.04704000011449579,-0.7958419354435139,0.8705242374985595,-0.1113450851897337,0.6919354038403317,1.013680540999193,0.1158598528991367,0.6943217042686806,1.0185018418827534,0.0,0.0,0.0,0.0
0.011811419734623936,0.1405490395036325,0.7408833879875174,-0.009666583261551008,-0.5227205892825056,0.0036566017315686956,0.8524414184986405,0.05324592216219842,-0.8131742988083032,0.9075501323940534,-0.04799889867240411,-0.8012801118243552,0.8887477112847846,-0.11456749123894125,0.7050556185010223,1.0072290837484381,0.11790001145779315,0.7078460524502584,1.0107910589254376,0.0,0.0,0.0,0.0
0.014603279476860645,0.14119538896499553,0.7413813900158982,-0.009047844366447847,-0.5231514388682827,0.0029450794813704615,0.8521866198370016,0.05337316489480762,-0.8223235058836061,0.9321025736319507,-0.041009758002828585,-0.8089704955390119,0.8923242071647761,-0.08160930962934423,0.6927292963812942,1.0179271833375583,0.10542339168678845,0.7173499423831713,1.0010580669176807,0.0,0.0,0.0,0.0
0.017658170946229478,0.14202850139729808,0.741713003497026,-0.008558649426088643,-0.5235154300461018,0.0024394520653493873,0.8519697137206623,0.05257343409393557,-0.8342025964798909,0.9601199629696138,-0.03291964959862792,-0.8178138415448826,0.8939308827794018,-0.05361638059403286,0.6836839788895489,1.027278736463155,0.09341384355178387,0.7272810864807295,0.9915816813281304,0.0,0.0,0.0,0.0
0.020520744195796324,0.1428333943062179,0.7419251044350041,-0.008230530538074389,-0.5238934738387221,0.0021423887237122866,0.8517413319822014,0.051347125960106724,-0.8454812284749368,0.9859027035838929,-0.025578575326663727,-0.8270998943817545,0.8958482254420288,-0.03315336085041972,0.6777220625381053,1.0365842628316702,0.08379842772735296,0.7368994293862108,0.9833794952468139,0.0,0.0,0.0,0.0
0.022983129968336232,0.14356625429288247,0.7420689781525004,-0.008007746058575465,-0.5242553933371904,0.0019663265949320307,0.8515211636357908,0.0499900827778323,-0.8550684697327817,1.0076469571399918,-0.019452062010143018,-0.8363111108928335,0.8979340498803767,-0.01783182001421961,0.6734613339878783,1.0459033317430375,0.07591618719932264,0.7453874268820516,0.9763970537963542,0.0,0.0,0.0,0.0
0.024963638351154123,0.14423641136872487,0.742198198843837,-0.007846456699569106,-0.5245859493179085,0.0018538531255443225,0.8513193161934477,0.048603357280230915,-0.8625737760289218,1.0249020146987868,-0.01428759004872843,-0.8452901997121798,0.8998567794472795,-0.00543640197351624,0.6698506270912573,1.0551128759710173,0.0690334577228876,0.7524284386798049,0.9702828861874128,0.0,0.0,0.0,0.0
0.026458153638888003,0.1448777029220452,0.7423489362522071,-0.00772364032571142,-0.5248784182526536,0.001778585960641811,0.851140310445165,0.04716122610151096,-0.8680468488551072,1.0379420402104746,-0.00968613325765745,-0.854040046101961,0.9013208325276646,0.005391159364021403,0.6662848019010341,1.0641047442574267,0.06259477338535219,0.7580004190925894,0.9646647688479055,0.0,0.0,0.0,0.0
0.027503628827529106,0.14553293538262121,0.7425347645498467,-0.007630126968130257,-0.5251316555259636,0.0017318134556428006,0.8509850329760011,0.045577795586325465,-0.8717683132094529,1.0473604968305827,-0.005338156932285393,-0.8625956272298446,0.9021212798567512,0.015374341594091926,0.6624761110068437,1.0728077105321603,0.056195949715684715,0.7622022150347615,0.9592718515943703,0.0,0.0,0.0,0.0
0.02815299913961164,0.14624610592117585,0.7427487124212981,-0.007564168934024867,-0.5253475485888092,0.0017129622053464763,0.8508523974818131,0.04374682112310467,-0.8741189474773922,1.0538404495199378,-0.0010742261171903167,-0.8709414765008794,0.9021507215170709,0.024859160635213755,0.6583303352732576,1.0811539370988608,0.04953275326202442,0.7651452147284514,0.9539723942841721,0.0,0.0,0.0,0.0
0.028458456804064603,0.14705922047709766,0.7429669693511214,-0.007527502804007075,-0.5255289125213193,0.0017244804545402807,0.8507406919695666,0.04156060402683882,-0.8755026900168819,1.058026139814159,0.0031650770690028647,-0.87893484822034,0.9014048503709757,0.03397395455700393,0.6538653600859592,1.0890157308160597,0.04236218006315498,0.7668876719483692,0.9487796229714678,0.0,0.0,0.0,0.0
0.02846031165730362,0.14801140478403185,0.7431519216619245,-0.007523405692483729,-0.525677995655445,0.0017694609756848368,0.8506485245142765,0.0389170732430278,-0.8763009398922862,1.0604470770999659,0.007375306255858645,-0.8862179288669463,0.9000098251018251,0.04269914178744362,0.64916983824225,1.0961066325672657,0.03447996014992533,0.7673936710270745,0.9438507631424665,0.0,0.0,0.0,0.0
0.02818002156198469,0.1491382268218942,0.7432550082085975,-0.007556101060511978,-0.525795856577028,0.0018507601688898467,0.8505752155041845,0.03572317420949389,-0.8768399437053672,1.0614676732405004,0.01151999794398566,-0.892144637888342,0.8982706046018826,0.05086846146650512,0.6444123122312738,1.1018305386568665,0.02571958553310479,0.7665155884809361,0.9394800618350819,0.0,0.0,0.0,0.0
0.027618816724248544,0.15046964764794374,0.7432229772371485,-0.007630938357841357,-0.5258829689204737,0.0019709697195396322,0.8505204213054096,0.03190034913198262,-0.877358778618645,1.0612614741563933,0.01554367110333739,-0.895812833953137,0.8966987475858503,0.058132416032985655,0.6399458160649286,1.1050657870066376,0.01597759664432559,0.764023240286773,0.9360534652229845,0.0,0.0,0.0,0.0
0.026767981431023977,0.1520273104007923,0.7430151018361776,-0.007753466068988123,-0.5259418331603315,0.0021311882208745804,0.850482527705675,0.02739518138937969,-0.8779714575235461,1.0598466440611474,0.01938419749047491,-0.896380850320542,0.8959052590762361,0.06399055916434428,0.6365453996542927,1.1039757898064295,0.005225564330977496,0.7597285812066703,0.9338784046078136,0.0,0.0,0.0,0.0
0.025625746482793588,0.15382959212381575,0.7426195569496865,-0.007923446873481392,-0.5259750556173896,0.002329238830349996,0.8504598958824562,0.022168692711977325,-0.8786929757152941,1.057218286760339,0.022990116301973382,-0.8938923833494207,0.8959252577719978,0.06840405523691624,0.6342650326311972,1.098586704507389,-0.006589776042531227,0.7535993796703582,0.9329676892849561,0.0,0.0,0.0,0.0
0.024200333907349967,0.15589014335742724,0.7420542012624539,-0.008134016156126333,-0.5259850483112036,0.0025591993662326365,0.850451066924392,0.016201788222916614,-0.8794462376535938,1.0533673616293042,0.02634283478548366,-0.8892831079843192,0.8962375323163752,0.07183030888245594,0.6324206489547833,1.0907678416937765,-0.019538206415700712,0.745776247742875,0.9330265081211015,0.0,0.0,0.0,0.0
0.022498651895669377,0.15820761686391815,0.7413524277193814,-0.008376649083568515,-0.5259766559514095,0.0028127703193244736,0.8504531012745112,0.009522226065921372,-0.8800351506133894,1.0481688271749952,0.029471275685138965,-0.8835628969879262,0.8964602694524961,0.07465601428048955,0.630722005534126,1.0816398213468768,-0.03357412055595573,0.7364954314457939,0.9336555541064167,0.0,0.0,0.0,0.0
0.020522275065847195,0.1607614439036796,0.7405485164596034,-0.008641161063871316,-0.5259560540386699,0.003080126566387169,0.8504622698132323,0.002214468095214757,-0.88017669331149,1.0413645997414591,0.03246620747880266,-0.87751905482111,0.8964939930970498,0.0772174951161918,0.6290390178635836,1.0717518583628052,-0.048512429593224646,0.725999200965024,0.9345211305891558,0.0,0.0,0.0,0.0
0.0182758949911611,0.1635068819285524,0.7396749308194314,-0.00891356873210913,-0.5259317603821914,0.003348353863039136,0.8504734682752632,-0.005563530528765652,-0.8795287387013343,1.0326182793656726,0.03549453087004488,-0.8717078046276088,0.8965506040855329,0.07994208795000715,0.6272879111512267,1.0612837040218717,-0.06404489909466866,0.7145364158721268,0.9353955241994955,0.0,0.0,0.0,0.0
0.01578183009327469,0.1663690736035296,0.7387633927473863,-0.009172820958125086,-0.5259171767001515,0.0035982385055375057,0.8504787094848814,-0.013558525861943699,-0.8777226763023948,1.0216090921118997,0.0387791681486743,-0.8665483250150369,0.8971891230504089,0.08354814325553281,0.6253868912851692,1.050181063789728,-0.0797815505448251,0.7023922648985877,0.9361611960274814,0.0,0.0,0.0,0.0
0.013098814531260366,0.16923725210261253,0.7378416675244371,-0.009385295985738657,-0.5259347508546242,0.003796850182493989,0.850464660048515,-0.021393230238370274,-0.8744208324289445,1.0081675835009558,0.04251586962838632,-0.8624342451759096,0.8994114413573395,0.08932262613753938,0.623226844056486,1.038248707263757,-0.09534754274251299,0.6898892537676601,0.9368555799912573,0.0,0.0,0.0,0.0
0.010343379344666441,0.17196100609524553,0.7369098386097189,-0.009486838821444488,-0.5260175406008322,0.0038478147154936675,0.8504121008025127,-0.028439509043231035,-0.8694122443037132,0.992454787560076,0.04684373614676228,-0.8599499789287459,0.904855524754321,0.09920590489539684,0.62070793612142,1.0253088844381744,-0.11084009790141242,0.6771454752009795,0.937849401243822,0.0,0.0,0.0,0.0
0.007837446887589323,0.17445924457467676,0.735891307949893,-0.00941632045813214,-0.5262005812166992,0.003724977722740029,0.8503001856857393,-0.03447647614706953,-0.864007343622386,0.9769779891325339,0.05241116458810892,-0.8598072320791904,0.9152714596663659,0.11723199269526272,0.6182094406834738,1.0109014562407619,-0.12657881467919602,0.6645826026405958,0.9398469456029173,0.0,0.0,0.0,0.0
0.006047908539020541,0.17651734933350224,0.7347184387279154,-0.009092857976356974,-0.5265871570231458,0.0033033794927392396,0.8500660995922784,-0.03870753904199442,-0.8595164143392542,0.9649335694225306,0.058918908029163636,-0.8642616346625549,0.9340884436750159,0.14684211471408848,0.6158701617954973,0.9950608586382047,-0.1430557904778321,0.6528444803508261,0.9439672453176693,0.0,0.0,0.0,0.0
0.005277907289971014,0.17770702343108324,0.7334348399745093,-0.008553416716022059,-0.5273299953064557,0.0025917566697570334,0.8496135579838284,-0.040069108774807405,-0.8558532066158482,0.9573849204670175,0.06636601612194398,-0.8774842553438003,0.9660108676365806,0.18452342365443233,0.6150135858708391,0.9785612514409019,-0.15809502503887143,0.6431938036593855,0.9517605623933271,0.0,0.0,0.0,0.0
0.005237863820269008,0.17788394777056837,0.7333545751515097,-0.008713672368996856,-0.5273958309301288,0.0025674167588008957,0.8495711375762193,-0.04032880171049352,-0.8559233869555809,0.9572883921443348,0.06638319400974328,-0.877500230248329,0.9660224241192888,0.18454086092667454,0.6150254560689405,0.9785616849565378,-0.15813980605090086,0.6431061210460738,0.9517105122504214,0.0,0.0,0.0,0.0
0.005237863820269008,0.17788394777056837,0.7333545751515097,-0.008713672368996856,-0.5273958309301288,0.0025674167588008957,0.8495711375762193,-0.04032880171049352,-0.8559233869555809,0.9572883921443348,0.06638319400974328,-0.877500230248329,0.9660224241192888,0.18454086092667454,0.6150254560689405,0.9785616849565378,-0.15813980605090086,0.6431061210460738,0.9517105122504214,0.0,0.0,0.0,0.0
0.006119687905431285,0.1793660787567984,0.7336891067673199,-0.008900548661136421,-0.527101337005891,0.002638554849460724,0.849751727734895,-0.044323439262298314,-0.8642244867493023,0.9717130005742606,0.06258841106762669,-0.8794061987365904,0.9709529689302387,0.17743391283850948,0.6183509016614155,0.9798142772940469,-0.16570604629476027,0.6470328307185406,0.9407805234501817,0.0,0.0,0.0,0.0
0.008283856012457888,0.18233072764253222,0.735595041527924,-0.009548488456337063,-0.5273975531526821,0.003410029225551848,0.8495581316175157,-0.05376301713753889,-0.8745883940073867,0.9983034263487277,0.0532891187628388,-0.8748975802968756,0.9774698533743328,0.16929624194069842,0.6323461107966454,0.9713186819564349,-0.17688278192653148,0.6662762785112369,0.9095313250185756,0.0,0.0,0.0,0.0
0.009863312832128525,0.18532547392754253,0.73760761323792,-0.009385897355738186,-0.5263504431643521,0.0030944652903932925,0.8502102917490967,-0.049415648683200294,-0.8570570856971925,0.9592898294922527,0.046515788573281695,-0.8769912067515563,0.9865780661878981,0.14724061291059098,0.6467084890043993,0.9611861711917298,-0.14178026214717507,0.6526675458764605,0.9484696074447057,0.0,0.0,0.0,0.0
0.012161653254387055,0.18844958787322094,0.7389655815340015,-0.009477670510962972,-0.5258204567500204,0.00314750848503353,0.8505369564076696,-0.04433265236594242,-0.8493055627822302,0.9349427177173257,0.038506688488065946,-0.8802041663556073,0.9989427811392051,0.12901763250034046,0.6597132603315747,0.9566880248671003,-0.1120524733533512,0.6477826203442291,0.9776180426214686,0.0,0.0,0.0,0.0
0.014688047295109438,0.1915412017768646,0.7400155891757806,-0.009761138790321047,-0.5256519100534182,0.0034331852753603054,0.8506368219549246,-0.03935713520808923,-0.8480665905249369,0.921842501213179,0.029975902912728065,-0.8824489948504359,1.0109291595129368,0.11350989440032036,0.6720110956472293,0.9546489585854074,-0.09323271375264999,0.6462754211382667,0.9992541494741501,0.0,0.0,0.0,0.0
0.017190578068598326,0.19447639692851296,0.7409357249460399,-0.010115739799199679,-0.5256394237530585,0.0037953621459180325,0.8506388559377291,-0.034906168444952396,-0.850396380666144,0.9151140282491478,0.021618385612076636,-0.8838198241635544,1.0218188976799736,0.09944014898061292,0.6839229941820101,0.9531067174388359,-0.08225720192184957,0.6460588106376399,1.0161559287772428,0.0,0.0,0.0,0.0
0.019508290471842306,0.1972071430831314,0.7417841079993209,-0.010469422569662558,-0.5256760415655398,0.004157590502002609,0.8506102544386943,-0.03104221674551343,-0.8546959020939447,0.9117750949472997,0.013743389779628364,-0.8843937199234995,1.0310923254931947,0.08610403799563654,0.6952761262470583,0.9514951457919153,-0.0756756162992123,0.6463348015216084,1.0301757066719521,0.0,0.0,0.0,0.0
0.021560325002365224,0.1997137988563304,0.7425760664831537,-0.010788529387253562,-0.5257158390799577,0.004485769005968427,0.8505800033215815,-0.027568519242512742,-0.8601001747556549,0.9100660645123917,0.006492150236587797,-0.8842583672175421,1.0385410928999383,0.07324077976169796,0.7058527802705555,0.9497436926286011,-0.07122872533031346,0.646748215492442,1.0424642707215723,0.0,0.0,0.0,0.0
0.023320693840030143,0.20198931392939679,0.7433138834352424,-0.011062191057585626,-0.5257439846225035,0.004769309344677249,0.8505575490527569,-0.02421928684993471,-0.8661165904088585,0.9089585356718953,-7.995058300655847e-05,-0.8835179949315775,1.0441969239399784,0.060860785436714526,0.7155060481727858,0.9479118576500496,-0.06766356189488515,0.6471409096983246,1.053712472377248,0.0,0.0,0.0,0.0
0.024794713105547136,0.20403429735150935,0.7439947234548001,-0.011290507644125774,-0.5257595800236395,0.005007772436091295,0.8505435383716299,-0.020773978495914017,-0.8724054806009401,0.907875311753988,-0.005961942227077929,-0.8822889959563509,1.0482235439251355,0.04908457670022372,0.724158696799949,0.9460954088725931,-0.06434372117835142,0.6474658855716964,1.06429278288719,0.0,0.0,0.0,0.0
0.025999356490062832,0.2058546196844364,0.7446103488002405,-0.01147825600935106,-0.5257654959462909,0.005205874837707422,0.8505361789944674,-0.017103429090817707,-0.8786071317166012,0.9065079145269153,-0.011171572380135608,-0.8806888375421276,1.0508153146858144,0.03806085721980183,0.7317466983418303,0.9444298741435196,-0.060932249385737776,0.6477447398870776,1.0743190010893748,0.0,0.0,0.0,0.0
0.02694901466243019,0.20746114734088944,0.7451453718595695,-0.011630206208362017,-0.5257640416607305,0.005367156655559936,0.8505340113302696,-0.013163743033765118,-0.884237803075509,0.9048267356336855,-0.015739926457400327,-0.8788228924736009,1.0521163456660325,0.027877649975380694,0.7381819756355981,0.9431278916246767,-0.05722077767195689,0.6480508544168349,1.0836086208186637,0.0,0.0,0.0,0.0
0.027643517475896533,0.20886920001882234,0.7455766663043052,-0.011749126964312552,-0.5257530727178389,0.005494702464114631,0.8505383429265009,-0.008972124204087852,-0.8885661963936372,0.9030047995030847,-0.019712453636323096,-0.8767633196834693,1.052148892344518,0.018547988641610103,0.7433013596622603,0.9424961268568179,-0.05296704669072019,0.648515925216737,1.091593215254976,0.0,0.0,0.0,0.0
0.02806321297660297,0.21010021980992258,0.7458781428247852,-0.01183333228334955,-0.5257249458164216,0.0055881432659314325,0.8505539525792775,-0.0045726467316296125,-0.8906451201727615,0.9014226507387401,-0.02314532594024076,-0.8745261239570868,1.0507754646510936,0.00995847506471604,0.7468828337645149,0.9429063745406944,-0.047805334818444074,0.649426733777815,1.0971319837172393,0.0,0.0,0.0,0.0
0.028176201040120367,0.21118276969577096,0.7460366832263708,-0.011878273080492654,-0.5256693059831578,0.005646006917101601,0.8505873323661143,-2.4424849544762116e-05,-0.8895992786669059,0.9005161559280336,-0.02611114843729719,-0.872028376738287,1.0477179835450658,0.0018978967744399718,0.7487439670789973,0.9446344429242607,-0.041244945563023744,0.6514548907434691,1.0983537311062206,0.0,0.0,0.0,0.0
0.027954711063800094,0.21214664281073786,0.7460670964398701,-0.011883721501161064,-0.5255792427084082,0.0056673153788468905,0.8506427677549111,0.004585204195078915,-0.8854354866413348,0.9002568662582698,-0.028681077431145525,-0.869074891441627,1.04265096586456,-0.005820172320527339,0.7488606862080726,0.9476733934246565,-0.03336115196971478,0.6545098282450709,1.0951977616765853,0.0,0.0,0.0,0.0
0.027377120632906822,0.21302432239931265,0.7460114812793903,-0.01185302710421995,-0.5254503805414709,0.005651122215917503,0.8507229091513822,0.0091592219701065,-0.8790488595086678,0.9001567121256965,-0.03092764717312112,-0.8653693621223129,1.0352143830320981,-0.013371043935420813,0.7473700483612812,0.951739154943313,-0.024759574627598292,0.6577512352825637,1.089428278594109,0.0,0.0,0.0,0.0
0.026415375597708426,0.213856950165264,0.7459222421333332,-0.011784957821585663,-0.5252734301495413,0.005595576040780898,0.8508334901006483,0.013639481865040083,-0.8714097608175766,0.8997594732327097,-0.032944754661308515,-0.8605525664493502,1.0249509074785084,-0.02103070567726414,0.7444449807733404,0.956465543888192,-0.015836488054451155,0.6607295279796618,1.0821226030086124,0.0,0.0,0.0,0.0
0.02503374493361741,0.2146909215552386,0.745842665422664,-0.011670986428127592,-0.525032416666461,0.005494092247938618,0.8509844678227336,0.018031123437196206,-0.8632937568082827,0.8988372267556736,-0.03483203307867401,-0.8542826226942818,1.0113394858156994,-0.02919110742229475,0.7402000307564447,0.9615812938884474,-0.006751607048128775,0.6631516035647534,1.0738518950415115,0.0,0.0,0.0,0.0
0.02320245766796922,0.2155695427559463,0.7457961377540855,-0.011497620318377512,-0.5247088760721519,0.005337559518442942,0.8511873533814401,0.022415164807308048,-0.8551919595232486,0.8973421820598675,-0.0366790322262845,-0.8463118142551252,0.9939174871142072,-0.03824640973007378,0.7346746572514944,0.9669631810916506,0.002528931343267985,0.6647972242364903,1.0649196543683037,0.0,0.0,0.0,0.0
0.02092278512837955,0.21652153932829438,0.7457758760233509,-0.011251288190851895,-0.5242917360255577,0.0051164090942146445,0.8514490039969123,0.02695282366399565,-0.8473280721469479,0.8954048037488396,-0.03853985308732227,-0.8365879436823875,0.9724888329848825,-0.04844938725501101,0.7278687546741399,0.9726692468397846,0.012202628422886778,0.6655845429280988,1.0555623705768045,0.0,0.0,0.0,0.0
0.018261120585698645,0.21754355553528132,0.7457304512566629,-0.010929079688647087,-0.5237926294871067,0.004829222791162603,0.8517620061492382,0.031853304686413,-0.8396608534568833,0.8933273358718049,-0.04040789708567245,-0.8253893313300007,0.9474273833938119,-0.0596685387233675,0.7197749500049606,0.9789988339351696,0.02270980058104713,0.6657783992780794,1.0461525465820551,0.0,0.0,0.0,0.0
0.015392251720669266,0.21857563627591226,0.7455455240153559,-0.010553717302311366,-0.5232629265998932,0.00449407814291137,0.8520940863301794,0.03728661413168985,-0.8318264761204072,0.8914896013540253,-0.04218055751843683,-0.8135469864987986,0.9201467429110087,-0.07112209097507578,0.7104215509386037,0.9865879671340774,0.03504107392047594,0.6663915992821401,1.0373957537514735,0.0,0.0,0.0,0.0
0.012668367484948177,0.2194452136768752,0.7450260623801007,-0.010155092400619637,-0.522691922838105,0.004122431412109314,0.8524511912463915,0.04359922126464706,-0.8226978756688696,0.8888749997061768,-0.04348737348421027,-0.8037490688847765,0.8948224746856374,-0.08138845921377355,0.6997874571805981,0.9962240884928624,0.05185173374337194,0.6699233289890367,1.0297618972341256,0.0,0.0,0.0,0.0
0.010388061042656667,0.2201002515223165,0.744227588806381,-0.009803887548427296,-0.522188755066068,0.0037734377399581006,0.8527652367674884,0.05014606483028217,-0.8130266207921181,0.8854557823010981,-0.04433025408554797,-0.796716388399613,0.8739513659904865,-0.08955936417618271,0.6891684479983071,1.0070922671794686,0.07511415189453183,0.6769554392305405,1.024074677273954,0.0,0.0,0.0,0.0
0.008888014256068295,0.22049198148607813,0.7434502878561535,-0.00959648869076328,-0.5218424676536554,0.0035073474163645245,0.8529806825902053,0.05524134477182984,-0.8046931285022747,0.8802786857270856,-0.04468761819465761,-0.7928110770111616,0.8603524935117419,-0.09460907108347248,0.6810164780975594,1.016179270524741,0.10252191227463306,0.6859588636981945,1.0205875175167987,0.0,0.0,0.0,0.0
0.008887201463446983,0.22047032344395698,0.743424966423122,-0.009551670376953226,-0.5218303992551541,0.0034957319687767448,0.8529886164915795,0.05526839803397143,-0.8047043332924338,0.8802870298786395,-0.04462770847541807,-0.792862625444889,0.8602149555947641,-0.09462001486086757,0.6809508384719147,1.0161187912788359,0.10252165113141717,0.6859918697966985,1.0205996915823352,0.0,0.0,0.0,0.0
0.008887201463446617,0.22047032344395695,0.7434249664231218,-0.009551670376951281,-0.5218303992551553,0.0034957319687778333,0.8529886164915789,0.05526839803397321,-0.8047043332924474,0.8802870298786756,-0.04462770847542207,-0.7928626254448833,0.8602149555947578,-0.09462001486087263,0.680950838471916,1.016118791278839,0.10252165113141058,0.6859918697967,1.020599691582338,0.0,0.0,0.0,0.0
0.008887201463446617,0.22047032344395695,0.7434249664231218,-0.009551670376951281,-0.5218303992551553,0.0034957319687778333,0.8529886164915789,0.05526839803397321,-0.8047043332924474,0.8802870298786756,-0.04462770847542207,-0.7928626254448833,0.8602149555947578,-0.09462001486087263,0.680950838471916,1.016118791278839,0.10252165113141058,0.6859918697967,1.020599691582338,0.0,0.0,0.0,0.0
0.010256173924118163,0.22055670496694368,0.7437134201203723,-0.009530149599575858,-0.5222645239481608,0.0034958697620153124,0.8527231216335216,0.055146629018548145,-0.8084617107824239,0.8913741631594788,-0.04491916857769476,-0.796258091465645,0.8707005190393219,-0.09660196518439781,0.6881419136967062,1.0132086857728548,0.10307203746610254,0.6930340589585169,1.0171804066589671,0.0,0.0,0.0,0.0
0.012703340006028224,0.22073409788576975,0.7443980525114993,-0.009580850249289802,-0.5229693149177826,0.0035996904440090773,0.8522900593058874,0.054654564350829056,-0.8152503597786185,0.9113902551375547,-0.04571738357975883,-0.8018225275649997,0.8892229024744182,-0.09902246338959103,0.7012570359672226,1.0062643571320833,0.10520764214894976,0.7066684092766408,1.009279660998073,0.0,0.0,0.0,0.0
0.01547361891882209,0.22130797276558406,0.7448848456725201,-0.009005362653210607,-0.5233602855469766,0.002943897688265515,0.8520588292025806,0.054853229539493856,-0.824483263838921,0.9357114244974101,-0.03875154379833289,-0.8094569064949497,0.8925482034068208,-0.06887456736333507,0.6895034078183703,1.0172514078615589,0.09376571269351203,0.7161352186159762,0.9997992160331729,0.0,0.0,0.0,0.0
0.018495298445296515,0.22206253252523292,0.745223190758851,-0.008551221471143827,-0.5236873162459005,0.002482155567055809,0.8518640210258082,0.05416869412925075,-0.8362749296592451,0.9633015216390822,-0.03061175053453121,-0.8182728695966409,0.8940211486199958,-0.043118990282494774,0.6808698732716958,1.0267995692064793,0.08272380267415369,0.7260587335363438,0.9904599990904809,0.0,0.0,0.0,0.0
0.021326707048131093,0.22279603364153977,0.7454493111262369,-0.008242445176706142,-0.5240366845672199,0.0022099540686324184,0.8516529407148898,0.053081139147797565,-0.8473891580672472,0.9886422896493124,-0.023185218562304002,-0.8275286346023017,0.8958512982738086,-0.02392722840206927,0.6750964092375482,1.0361888492862483,0.0738118326025542,0.7356659322818937,0.9823254003243024,0.0,0.0,0.0,0.0
0.023762180058356182,0.22346871935333706,0.7456100590116812,-0.008028195428116147,-0.5243770550561244,0.0020458979848003603,0.8514458682207989,0.05186164941772172,-0.8567898430836494,1.0099888845072214,-0.01695936398390513,-0.8367125452422024,0.8978779368218304,-0.009233558647403627,0.6708742095076136,1.0455091846359026,0.06641617128009364,0.744140494601167,0.975360050237393,0.0,0.0,0.0,0.0
0.02571998595209671,0.22409115786033648,0.7457562741107526,-0.007869389419924667,-0.524690822447908,0.0019381122757160404,0.8512542847292472,0.05059523293242621,-0.864121630365268,1.0269141914640456,-0.011696751791867587,-0.8456681231222343,0.899752760524932,0.0028856511093516835,0.6672184459126408,1.054667183150163,0.05986183293506587,0.7511656306102674,0.9692269144312397,0.0,0.0,0.0,0.0
0.027194881763784318,0.22469683262014387,0.7459225050710746,-0.007746048753984851,-0.5249696445210906,0.0018636999352694803,0.8510836608011294,0.04924872491005899,-0.8694483295537354,1.039691114763849,-0.007006828269758471,-0.8543972017362337,0.9011710834284948,0.013612599749004112,0.6635636425830529,1.0635764889536732,0.053638721703275945,0.7567173390613486,0.9635667453077229,0.0,0.0,0.0,0.0
0.028222405538875603,0.22532747467150185,0.7461215434359968,-0.007650744896663227,-0.5252113330778013,0.001815941939383792,0.8509354993558782,0.04773420125280003,-0.873053408680459,1.0489022554099232,-0.0025844880718501944,-0.8629332798473865,0.9019234846438782,0.023576966879839054,0.6596428429525739,1.0721797938937512,0.047375005727139215,0.7608921593482724,0.9581181702668529,0.0,0.0,0.0,0.0
0.028854197483000235,0.22602575795929292,0.746346205545923,-0.007582655159454282,-0.525417073609602,0.0017953281926758257,0.8508091318838412,0.04594640408899781,-0.8753153344364962,1.0552178049890653,0.0017379040348201443,-0.8712596211434529,0.9019003961281793,0.0330778652418074,0.6553724092112106,1.0804176354563073,0.04078920622140482,0.7637997386170666,0.9527550873307453,0.0,0.0,0.0,0.0
0.029141462640215183,0.22683236945621715,0.7465727910625608,-0.007543951740794208,-0.5255891859061739,0.0018048038208464878,0.8507031439543328,0.043780110291284424,-0.8766339288652449,1.0592704807961917,0.006019549775485824,-0.8792326629810959,0.9010965002282968,0.04222107118893682,0.6507762584084312,1.0881674284227367,0.03365432493275443,0.7654974457412391,0.9474932876695161,0.0,0.0,0.0,0.0
0.029123901784499046,0.22778523427933373,0.7467639258833513,-0.007538059902399944,-0.5257295712551826,0.0018476144766083268,0.8506163541112384,0.04113630716584159,-0.8773864205102001,1.061580945575669,0.010256432236286295,-0.8864943386181027,0.8996376114426515,0.05097591372846558,0.6459479505658768,1.095146398864593,0.02577764666672045,0.7659494014438958,0.9424906121527326,0.0,0.0,0.0,0.0
0.028822734212514464,0.22891884180302094,0.7468712939422897,-0.007569204332520507,-0.5258390879947926,0.0019265874443724948,0.8505482049498408,0.03792510457204562,-0.8778954813438394,1.0625075133039201,0.014412465511661646,-0.8923989622208568,0.8978289451672821,0.05916885007116194,0.6410620694059379,1.1007622254898326,0.01700211391245717,0.7650090892204242,0.9380411729640422,0.0,0.0,0.0,0.0
0.028239235297588865,0.2302621153408411,0.746841853900174,-0.0076427004883899965,-0.5259181834082783,0.002044253169882609,0.85049836832222,0.03407101184070392,-0.8783969464583575,1.062219371442668,0.018432311989734166,-0.8960453271756033,0.8961831092382497,0.06644192059941333,0.636480136119837,1.1038981885019474,0.007233961286771661,0.7624487596853027,0.9345310371450188,0.0,0.0,0.0,0.0
0.027364839561413824,0.23183562429218044,0.7466351069166332,-0.007764075107077348,-0.5259694397773212,0.002201702825731324,0.8504651786303362,0.029523559461306838,-0.8790013076280111,1.0607305525259614,0.022254335133030666,-0.8965925318450748,0.8953125419445763,0.07228433766023896,0.6329868715022031,1.1027231034180842,-0.0035446847846451156,0.7580838057537205,0.9322679907026734,0.0,0.0,0.0,0.0
0.02619794663027746,0.23365681066864605,0.746239388917122,-0.007932928889903294,-0.5259953834757376,0.002396632263628566,0.8504470479431582,0.024246577901560158,-0.8797210265167025,1.058033176540155,0.025828887752497975,-0.8940848230518075,0.8952527058332943,0.07665607499612317,0.6306385632017754,1.0972639261016315,-0.015379791265665998,0.7518841362769941,0.9312646633717181,0.0,0.0,0.0,0.0
0.024746898480830663,0.23573847730731043,0.7456726768997811,-0.008142117150169178,-0.5259981607868517,0.0026229376254920094,0.8504426852971192,0.01822362519692167,-0.8804772993208031,1.0541158398859527,0.02914046809666002,-0.8894577417785273,0.8954814760891628,0.08002320561306575,0.6287456555175378,1.0893850675678924,-0.028335884409912547,0.7439914551346442,0.9312255289644036,0.0,0.0,0.0,0.0
0.02301863725845526,0.23807825222026338,0.7449685684218997,-0.008382891568196162,-0.5259823584682034,0.0028723242066925636,0.8504493138705174,0.011485072204753552,-0.8810715746330601,1.0488498655039096,0.0322215636597094,-0.883719850846938,0.8956159980342678,0.08278130648891986,0.6270124522421018,1.0802010102695674,-0.04235989895039433,0.7346439605084599,0.9317509497709571,0.0,0.0,0.0,0.0
0.021014780030139856,0.2406543892247128,0.7441616270557897,-0.00864490714732047,-0.5259538738537701,0.003135173441705688,0.8504633788977142,0.0041178874726928265,-0.8812182549811235,1.0419732546386626,0.035166683290019686,-0.8776563242705582,0.8955554413232308,0.08527679139571588,0.6253045399778299,1.0702541212850736,-0.05725827758165189,0.7240864373305765,0.9325075054665592,0.0,0.0,0.0,0.0
0.018740122109724,0.24342094371676823,0.7432847285690031,-0.008914022889090852,-0.5259207846752465,0.0033989465503341805,0.8504800500922134,-0.0037178147477104767,-0.8805734459665261,1.0331467165286297,0.03814703393647482,-0.8718201246003037,0.895508655692919,0.08795312763606072,0.623533114042502,1.0597151821367612,-0.07271613844227975,0.7125700185717547,0.9332673664544727,0.0,0.0,0.0,0.0
0.01621718482372849,0.2463020128142384,0.742370158394416,-0.009168915124368366,-0.5258957199692976,0.0036449099206294347,0.8504918208572536,-0.01176732763137861,-0.8787687097545179,1.022049060260302,0.04139104828309995,-0.8666256920052812,0.8960276105137042,0.09155856191542382,0.6216067908903868,1.0485164507799263,-0.08834177809049766,0.7003808044114465,0.9339114296849793,0.0,0.0,0.0,0.0
0.01350504564528426,0.24918611213389547,0.741446185442292,-0.009375377306521316,-0.5258998714315286,0.0038406150516035534,0.8504861416887917,-0.019652878281032765,-0.87547011177105,1.0085144273924807,0.04510145757509048,-0.8624611161367272,0.8980998316552751,0.09743622723140882,0.6193959065840431,1.0364415348696507,-0.10376615894906749,0.6878385759365475,0.9344751664654348,0.0,0.0,0.0,0.0
0.010720835321359687,0.25192226474682067,0.7405124230424492,-0.009467995718484827,-0.5259654493287315,0.0038901927600418153,0.8504443365498944,-0.02674646930007773,-0.8704710621372576,0.9927075811835354,0.049426086103914336,-0.8599082223078088,0.9033448312606341,0.1076320487678185,0.616761262056941,1.023284463246817,-0.11909689974317855,0.6750526492588755,0.9353373232956484,0.0,0.0,0.0,0.0
0.008201699013666578,0.2544355625636576,0.7394849553896015,-0.009384161640893398,-0.5261203874424719,0.003766489005307808,0.8503499802953215,-0.03284252129376218,-0.8652275196017678,0.9773374652163099,0.05495706629828909,-0.859636707119948,0.9133979531079806,0.12629473375835853,0.6140717416668596,1.0085464063520997,-0.1347321660255041,0.6624185671575779,0.9372153829054608,0.0,0.0,0.0,0.0
0.006399669337025569,0.25650327902951103,0.7382942964150973,-0.00904279781352512,-0.5264706608999218,0.0033486332718728933,0.8501386108597314,-0.03713243799982139,-0.8609585507502504,0.965430954659028,0.06142133979298521,-0.8639738634828213,0.9316733353422993,0.15696089859399262,0.6113658012612837,0.9921940391520462,-0.1511013473822129,0.6505298778239602,0.941316600176006,0.0,0.0,0.0,0.0
0.005614296153651941,0.25769006063063166,0.7369706958391006,-0.008485924318690575,-0.5271715420592556,0.0026522989182800227,0.8497123746549605,-0.038549473274191975,-0.857584216421665,0.9580028590755331,0.06877995743594709,-0.8771273601814112,0.9628737638132148,0.19577392308790623,0.6100851394176379,0.9749833490615017,-0.16596637396357422,0.6405771378819931,0.9493860080498553,0.0,0.0,0.0,0.0
0.005573817642287103,0.2578677603036757,0.7368890123155639,-0.008645981752379139,-0.5272376624804928,0.0026274981073341574,0.8496698126421459,-0.038810660292797027,-0.8576566987659309,0.9579056844254651,0.06879746076725844,-0.8771431781537595,0.9628852301305635,0.19579209202305867,0.6100970366006907,0.9749838722050133,-0.1660119076446755,0.6404879170509608,0.9493345373917728,0.0,0.0,0.0,0.0
0.005573817642287103,0.2578677603036757,0.7368890123155639,-0.008645981752379139,-0.5272376624804928,0.0026274981073341574,0.8496698126421459,-0.038810660292797027,-0.8576566987659309,0.9579056844254651,0.06879746076725844,-0.8771431781537595,0.9628852301305635,0.19579209202305867,0.6100970366006907,0.9749838722050133,-0.1660119076446755,0.6404879170509608,0.9493345373917728,0.0,0.0,0.0,0.0
0.006475192910443548,0.25937314496853137,0.7372271032742908,-0.008853614015050647,-0.5269642331187362,0.002699043605938031,0.8498370583212219,-0.04285196323472974,-0.866010733598433,0.9725151081287152,0.06496077766866004,-0.8789796067080333,0.9678502369100112,0.18887074152945976,0.6134333879967153,0.9763953781977143,-0.17356280398213284,0.6446088771808081,0.9382425498637837,0.0,0.0,0.0,0.0
0.008676976826793352,0.26240865579427647,0.7391632764870737,-0.009483082286610451,-0.5272531000693723,0.003444053347814252,0.8496483849888253,-0.05242187133423362,-0.8766301643348421,0.9996827282135107,0.05555217468542335,-0.8746213653853335,0.9746956609723659,0.18033237470063146,0.6276392610682816,0.9680494287774074,-0.18536936334478535,0.6640810834849118,0.9061893801723149,0.0,0.0,0.0,0.0
0.010303666228558675,0.26547073211792477,0.7412430518665999,-0.009347691481318953,-0.5262883543935597,0.0031155704592273157,0.8502490705166355,-0.04817838251277603,-0.858488437841828,0.9603847211866338,0.0486640312015476,-0.8761661339530578,0.9835949734378958,0.15842089852902413,0.6425550304768453,0.9578311159127348,-0.14953786018446158,0.6507953615464775,0.9460056628375728,0.0,0.0,0.0,0.0
0.012636895963524877,0.2686996752624137,0.7426209933811301,-0.009432079543351181,-0.5257951212504363,0.0031403956034625593,0.850553151931248,-0.043287773229332714,-0.8505077180842365,0.9359143569556796,0.040471413241530335,-0.8791789826725667,0.9958820232318679,0.13974433644866258,0.6558166027003826,0.9537834338576224,-0.11907222135758923,0.6461025696127615,0.9757071044939603,0.0,0.0,0.0,0.0
0.015201427650782688,0.2719043535830794,0.743672427477161,-0.009697857230646234,-0.5256344753486317,0.00339617314371675,0.8506484678749975,-0.03848035830913416,-0.8491574977981458,0.9227226051228572,0.03173399597500012,-0.8814567963985614,1.0079704074020108,0.1235794245606511,0.668250381492401,0.952319696217816,-0.0998319425256469,0.6446679729569312,0.9976288967081116,0.0,0.0,0.0,0.0
0.017745679289193714,0.2749499671054346,0.7445930837663529,-0.010037603814944838,-0.525623246004475,0.0037337893609895967,0.8506500506003518,-0.03418935010033091,-0.85143646437566,0.915981724852694,0.023159342797765114,-0.8828961927202638,1.019003111603215,0.10884862551226406,0.6802954252154374,0.9512944469887002,-0.08874416752143417,0.6444565948170616,1.01467109907717,0.0,0.0,0.0,0.0
0.020107463060032235,0.2777821297194662,0.7454449582733879,-0.010382836801751194,-0.5256619360791768,0.004078893956566018,0.8506204137460673,-0.0304751103388584,-0.8557156831681435,0.9126910112773824,0.015069805861262043,-0.8835161038337475,1.0284169441571793,0.09493305035245757,0.6918028944258315,0.9500957477940596,-0.08224124489118151,0.6447265071031327,1.0287558481896326,0.0,0.0,0.0,0.0
0.022204185406680104,0.2803779033287437,0.7462427725817053,-0.010699237558243407,-0.525706566277645,0.00439642176718156,0.8505873288286661,-0.027134670202499666,-0.8611146358270618,0.9110659098789978,0.00761876790399943,-0.8833977517294949,1.0359944426310637,0.08159639180088193,0.702550052760573,0.9486588149366547,-0.0779634385013072,0.6451519802490329,1.0410741074141772,0.0,0.0,0.0,0.0
0.02400776003206394,0.2827290370529133,0.7469873753598887,-0.010973971944823031,-0.5257417527805799,0.004673866375248704,0.8505606011896295,-0.023897820328556797,-0.8671317705287501,0.9100550450524335,0.0008699934107342048,-0.8826550716124818,1.0417673635572666,0.0688435947727408,0.7123772303524273,0.9470623001539549,-0.07459401578122257,0.6455798770634767,1.0523383322089017,0.0,0.0,0.0,0.0
0.02552125569689528,0.28483625687568354,0.747674735102466,-0.011205284129562431,-0.5257649493702085,0.004909504007610997,0.8505419192442646,-0.02054464149176364,-0.8734224641325848,0.9090605068690061,-0.0051626903380690686,-0.8814156841892314,1.0458990545148092,0.056783126579500215,0.7211911839834677,0.9454209924879301,-0.07145403634299638,0.6459566851643959,1.062932149156335,0.0,0.0,0.0,0.0
0.0267599769930606,0.2867065122316169,0.7482959652571576,-0.011396134694049598,-0.5257775979206204,0.005106182708317754,0.850530406591679,-0.016947903151268272,-0.8796343650229608,0.90778160972685,-0.010495406693421614,-0.8798063394819705,1.048583394881739,0.04553938356717237,0.7289195797722353,0.9438873803447649,-0.0681901649212631,0.6462954700645546,1.0729706039224594,0.0,0.0,0.0,0.0
0.02773692742521154,0.28835153981228195,0.7488353910467401,-0.011550297305737768,-0.5257806237749215,0.0052671324352127945,0.8505254749923211,-0.013065991261706064,-0.8852758395980569,0.9061666951016346,-0.015161040784955724,-0.8779378123449333,1.049962912889306,0.035192380628892135,0.7354637878617951,0.9426837367885957,-0.06457978023199655,0.6466592107023295,1.0822771145170935,0.0,0.0,0.0,0.0
0.028451859172130133,0.28978759603161636,0.7492699575585468,-0.011669568191267566,-0.5257719177687702,0.005393510175141375,0.8505284367450447,-0.008913678984067086,-0.8896192061392694,0.9044030092611576,-0.019202655964324928,-0.8758858766193557,1.0500619587748368,0.025734249975686845,0.7406651874557731,0.9421246775089771,-0.06039184082562526,0.6471747840232067,1.0902836145585826,0.0,0.0,0.0,0.0
0.028885611973002077,0.2910363079550824,0.7495734746296026,-0.011751986452230261,-0.5257445101727621,0.005484622024010939,0.8505436612889915,-0.004533562338865594,-0.8917102941118964,0.9028650855844641,-0.022676060185435595,-0.8736671980257773,1.0487461654885384,0.017050621322875784,0.7443039448073514,0.9425865681267535,-0.05526451270624462,0.6481299638343013,1.0958549972291083,0.0,0.0,0.0,0.0
0.029007380330589916,0.29212594569986583,0.7497325393135689,-0.011793117612236876,-0.5256893496846908,0.00553859133275457,0.8505768360419412,1.75900147235189e-05,-0.8906689886877623,0.9019891979420445,-0.02565181238118392,-0.8711993149033721,1.0457431473860421,0.008933560974240121,0.746202716521092,0.9443497445960268,-0.048710472843170635,0.6502017671053072,1.0971253257631162,0.0,0.0,0.0,0.0
0.028790695896582254,0.2930854330160072,0.7497612311822471,-0.011793005058768813,-0.525600241992568,0.005554359846639442,0.8506318003318073,0.004654151829428571,-0.886503770815481,0.9017501993970173,-0.02819848676597896,-0.8682933833852091,1.0407394478974243,0.0012060932374351315,0.7463385261813512,0.9474121317756315,-0.04080647240301067,0.6533016177793655,1.0940343843803075,0.0,0.0,0.0,0.0
0.028215088534002238,0.29394551343800246,0.7497003128834038,-0.011755812499695237,-0.5254724683267173,0.005533455114637826,0.8507113886492841,0.009275090289612412,-0.8801109164250515,0.9016444571499462,-0.030390641131504956,-0.8646635507807442,1.0333915683305297,-0.006267790613797788,0.7448342738404318,0.951493200788309,-0.03214077155512255,0.6565905293700757,1.0883457382757462,0.0,0.0,0.0,0.0
0.02725485019335822,0.2947458242648453,0.7496012583284849,-0.011681276225682496,-0.5252985795987386,0.005473662854834032,0.850820186098237,0.013824766480891981,-0.8724829836761328,0.9012615558660073,-0.0323169917298513,-0.8599565190837746,1.0232592917122911,-0.013749468776434562,0.7418699527638287,0.9562324695510461,-0.02312040894151199,0.6596278776227168,1.0811318471043634,0.0,0.0,0.0,0.0
0.025876202300069713,0.29553046518023957,0.7495067894225894,-0.0115628991571985,-0.5250652722291677,0.00537092235193796,0.8509664578907208,0.018312714977762976,-0.8643760465128031,0.9003443879021078,-0.03407709301943053,-0.853824691033972,1.0098298678099622,-0.021582935311179788,0.7375601445077951,0.9613579924862263,-0.013913638355675401,0.6621314025032008,1.0729689438706318,0.0,0.0,0.0,0.0
0.024051415265646223,0.296341722115322,0.7494403749241035,-0.011389467512614503,-0.5247579311630023,0.005217292223194389,0.8511593115117538,0.022825016930129654,-0.8562754393991765,0.8988552087533342,-0.03575990186476982,-0.8460056455563526,0.9926404076607533,-0.030139154517158692,0.7319577774702483,0.9667484765990525,-0.0045185300890634595,0.6638960805295587,1.0641604659974753,0.0,0.0,0.0,0.0
0.021782396863729125,0.29720944291667517,0.7493958638760253,-0.011149850709210431,-0.5243676312390277,0.005005401555455911,0.8514042600863599,0.027516779810478453,-0.8484141927477937,0.8969508219381472,-0.0374273152673283,-0.8364274764999963,0.9714822339365018,-0.03966040413443392,0.7250695346292346,0.9724652262638588,0.005238304817948666,0.664851397092963,1.0549357288892662,0.0,0.0,0.0,0.0
0.019134062510893866,0.2981346674081811,0.7493239172890668,-0.01084169538540776,-0.523904382631093,0.004734879888431456,0.8516949198002448,0.03258396472214127,-0.8407662948225263,0.8949573264207992,-0.039087118472910756,-0.8253529776417813,0.9467075141007151,-0.05005208682181879,0.7168932312337509,0.978805449531026,0.0157599639866607,0.6652480299518668,1.0456464288674874,0.0,0.0,0.0,0.0
0.016278120365954506,0.2990654148979234,0.7491144295249823,-0.01048346862530803,-0.523411209581687,0.004420498716780364,0.8520042615861216,0.038188990500091176,-0.8329827201470198,0.8932624940762032,-0.04065162007140603,-0.8136274983639927,0.9197237747391862,-0.06064737667103931,0.7074659769531476,0.9863847706125097,0.02794217600679124,0.6660375693994112,1.0369491720581125,0.0,0.0,0.0,0.0
0.01354914850506244,0.29984835753703853,0.7485794164244862,-0.010099447993103765,-0.5228698795713181,0.004070303736041943,0.8523429607938381,0.0446225711804291,-0.8240152252210161,0.8909462196146319,-0.0417909012387672,-0.8038409996482399,0.8945073563409665,-0.07020436752452655,0.6967484214517758,0.9959870158878082,0.04415056440092381,0.6695374941919919,1.0292584584165843,0.0,0.0,0.0,0.0
0.011265772699751764,0.3004329752807848,0.7477718463964693,-0.00975413582793893,-0.5223810658354243,0.0037366739930304142,0.8526481784173153,0.05127325730159809,-0.8145711629932982,0.8879896679043896,-0.04249804541414139,-0.7968818543646846,0.8737968138202619,-0.0778703783980802,0.6860756064144935,1.0067797870151873,0.06616465855064493,0.676359600668318,1.0233464323353194,0.0,0.0,0.0,0.0
0.009767171325279387,0.30078422163939067,0.7469910364089396,-0.009541447246008833,-0.5220327660697276,0.003479093918314265,0.8528649645984693,0.056419531343477124,-0.8065918306348926,0.8835475073507297,-0.042784832108988397,-0.7931078034488238,0.8603987919922459,-0.08270234214034694,0.6779007337890354,1.0157891605823464,0.09171108764957951,0.6850099127481541,1.0194646477070506,0.0,0.0,0.0,0.0
0.00976478107313196,0.30075988353110483,0.7469656507238865,-0.009495035191878859,-0.5220213127049962,0.003468313890846588,0.8528725368935338,0.05644665350050562,-0.8066036385047737,0.8835560314744704,-0.04272204559623652,-0.7931592451873152,0.8602607845825806,-0.08271259358446406,0.6778346594011079,1.015728468277532,0.09171012765810929,0.6850429109616638,1.0194767394724227,0.0,0.0,0.0,0.0
0.00976478107313195,0.30075988353110483,0.7469656507238865,-0.009495035191878587,-0.5220213127049961,0.0034683138908464897,0.8528725368935338,0.056446653500506185,-0.8066036385047739,0.8835560314744721,-0.042722045596236415,-0.7931592451873152,0.8602607845825805,-0.08271259358446147,0.6778346594011068,1.0157284682775334,0.09171012765810777,0.6850429109616633,1.0194767394724233,0.0,0.0,0.0,0.0
0.00976478107313195,0.30075988353110483,0.7469656507238865,-0.009495035191878587,-0.5220213127049961,0.0034683138908464897,0.8528725368935338,0.056446653500506185,-0.8066036385047739,0.8835560314744721,-0.042722045596236415,-0.7931592451873152,0.8602607845825805,-0.08271259358446147,0.6778346594011068,1.0157284682775334,0.09171012765810777,0.6850429109616633,1.0194767394724233,0.0,0.0,0.0,0.0
0.011130945422961464,0.3008235980097535,0.7472579894855136,-0.009468868942908422,-0.5224547625738525,0.0034633291149315866,0.8526073931982311,0.056394622691726654,-0.8102423520446584,0.8944647801617028,-0.042942601670850435,-0.7966197787420534,0.8708416964084624,-0.08442142709130865,0.6849804540842876,1.0127284437514186,0.09221350666911664,0.6920483701503115,1.016069298279694,0.0,0.0,0.0,0.0
0.013575004627911485,0.3009518737893158,0.7479534707802948,-0.009516313304831084,-0.5231547201008699,0.0035621718805138123,0.8521771468120689,0.05604178086542439,-0.8168358857607024,0.9141827306544487,-0.04359976286628872,-0.8023266400425577,0.8895889187103051,-0.08621986149641095,0.6979997910506506,1.0055449572065387,0.09440276870387573,0.7056617820180915,1.0081821087267189,0.0,0.0,0.0,0.0
0.016332975264407912,0.30146596543799203,0.7484497266359096,-0.008981150160899504,-0.5235157817126576,0.0029586417129483745,0.851963503724653,0.05628702619380199,-0.8261109208055843,0.9383455029169345,-0.036651807046508944,-0.8099085335573097,0.8927529317888637,-0.05856232208298029,0.6868057361738015,1.0167257413924637,0.08389462204595567,0.715238836039096,0.9987496557131288,0.0,0.0,0.0,0.0
0.01932996595137947,0.3021557156299617,0.7487970702698529,-0.008554177435480564,-0.5238151775466449,0.002530788201152534,0.8517852316935649,0.05570408153888746,-0.837813279988552,0.9655905873105554,-0.028475613700027488,-0.8186863263716259,0.8941074118397672,-0.03457703933771487,0.678516799282012,1.026411901318984,0.073620759002863,0.7251841015798122,0.9894902156614088,0.0,0.0,0.0,0.0
0.022137709722566026,0.30283043690472206,0.7490336422623225,-0.008259811293193245,-0.524142747018685,0.0022770317178886813,0.851587324583723,0.05473675486907303,-0.8487917497192218,0.9905794535502331,-0.020987587250661584,-0.8279030181539565,0.8958585471996984,-0.016353344490204258,0.6728970589785671,1.035851061103321,0.06525733440423213,0.7347829010110557,0.9814157559550842,0.0,0.0,0.0,0.0
0.024552462333162724,0.3034535616422794,0.7492061490860494,-0.008051709555682006,-0.5244664462148559,0.0021216881837377026,0.8513904011716609,0.05363452906570214,-0.8580447870751593,1.0116108738270635,-0.01468630717049512,-0.837053398222143,0.8978318935216558,-0.0021259198480938456,0.6687060591886964,1.0451599861232197,0.05824110370105332,0.7432404599220787,0.9744783922651045,0.0,0.0,0.0,0.0
0.026492507772596274,0.30403659627331375,0.7493643284356408,-0.007894482600148751,-0.5247670078661629,0.002017164140678334,0.8512069053106301,0.052469881916228485,-0.865240289450082,1.028273999353577,-0.009345341782380797,-0.845982230381004,0.8996640365925688,0.00979528429632763,0.6650130093347999,1.0542678286151501,0.05194432575827239,0.7502458228972657,0.9683438620171331,0.0,0.0,0.0,0.0
0.027951778514525703,0.3046127443917225,0.7495417117864246,-0.007770460718238467,-0.525034940123303,0.0019431697527376977,0.8510429811009887,0.05120404113119058,-0.8704517614343138,1.0408403779184425,-0.004582242252468965,-0.8546899510858325,0.9010420109021415,0.02045658584854359,0.6612843967143011,1.063104129660756,0.04589172507929811,0.7557750118823187,0.9626608878127855,0.0,0.0,0.0,0.0
0.028964760173737013,0.30522289392653235,0.7497504683007584,-0.00767353607540813,-0.5252673018376304,0.0018944643680596218,0.850900575548679,0.04974768911816415,-0.873964768037206,1.0498844242082768,-9.700796248593695e-05,-0.8632078529985777,0.9017524434068266,0.030416180247382997,0.657270294702695,1.071621704349847,0.03973599927017087,0.7599229176521182,0.9571754367096531,0.0,0.0,0.0,0.0
0.02958212461180672,0.30590866655169763,0.7499831660596882,-0.00760358983228816,-0.5254647631190451,0.001872324131310984,0.8507793265848997,0.047996531473028736,-0.8761562039714293,1.0560666610986347,0.00427551464880961,-0.8715172220749741,0.9016839540717192,0.039937558637175796,0.6528959793299078,1.079767261853383,0.033212952040556375,0.7627976020837923,0.9517663550725608,0.0,0.0,0.0,0.0
0.029854343352336898,0.30670968492159845,0.7502161032109352,-0.007563123990784097,-0.5256292750119609,0.0018800565487350938,0.850678041207879,0.04584748324472255,-0.8774229524981838,1.0600111271129797,0.008593857784296853,-0.8794731647620897,0.9008304114433917,0.049109327567508715,0.6481905946016129,1.0874220953581968,0.026107843517829358,0.7644554906944396,0.9464520524814201,0.0,0.0,0.0,0.0
0.029820679090159615,0.3076628922382498,0.750412020447583,-0.007555672050773052,-0.5257624799271431,0.0019210094263954263,0.8505956949359109,0.043204133154525454,-0.8781392100960492,1.0622318316457136,0.01285419049296167,-0.8867170391266492,0.8993173495433634,0.057892262666123254,0.6432519882009199,1.094306385681483,0.018236934842929688,0.7648605706440381,0.9413913658557298,0.0,0.0,0.0,0.0
0.029502204332592142,0.3088018838988941,0.7505227407738124,-0.007585453299514997,-0.5258650924530672,0.0019979765081881585,0.8505318180570558,0.0399792699997897,-0.8786249947528345,1.063082510030379,0.01702070135056643,-0.8926033378124213,0.89745018774011,0.06610696888315565,0.638259955393562,1.0998310098988415,0.009450682742184028,0.763867155212611,0.9368787015887843,0.0,0.0,0.0,0.0
0.028900266651696458,0.3101547117382064,0.7504953563521477,-0.007657755259701107,-0.5259375559408747,0.0021134372291690975,0.8504860842003238,0.036099997412342856,-0.8791136240656702,1.0627290032591554,0.021038152720210965,-0.8962315902323804,0.8957423889735737,0.07338846732012824,0.6335832307181372,1.102883512032767,-0.00033675489849995313,0.7612494944643416,0.9333005404158756,0.0,0.0,0.0,0.0
0.028006443063613114,0.31174103522444185,0.7502895361401759,-0.007778087202806352,-0.5259825313235276,0.0022684793323807027,0.8504567785040451,0.03151834075095642,-0.8797127216546209,1.0611819952358954,0.02484529550528262,-0.8967615018465923,0.894807526474573,0.07921742495106499,0.6300146349328752,1.1016373911557902,-0.011134526919026628,0.7568258194132156,0.9309652032491232,0.0,0.0,0.0,0.0
0.02681928947256458,0.3135775001620245,0.7498937276169153,-0.007945916132258502,-0.5260024816773755,0.0024606979439937824,0.8504423535147398,0.02620050418417441,-0.8804327442816308,1.0584312337077184,0.028394035581495388,-0.894237803175594,0.8946813232215796,0.08355303402422978,0.6276123272167532,1.096120292202793,-0.022982514600195986,0.750567753763747,0.9298854442399263,0.0,0.0,0.0,0.0
0.025347262740242408,0.3156761849795138,0.7493259777040376,-0.00815386765549126,-0.525999332567628,0.0026838492113643695,0.8504416579249144,0.020132272482053026,-0.8811936198352173,1.0544634852324657,0.03167155629692862,-0.8895959659227143,0.8948409116183099,0.08686893005770908,0.6256820682110548,1.0881923877038286,-0.0359407569854226,0.7426178057706931,0.9297655108101563,0.0,0.0,0.0,0.0
0.023597332487455498,0.3180338426272193,0.7486200283258018,-0.008393014469258341,-0.5259774507600179,0.002929660248956641,0.8504520537284495,0.013346187634874312,-0.8817948556842137,1.0491470436076675,0.03471341834045289,-0.8838434135284184,0.8949025493735091,0.0895684909364748,0.6239234846468001,1.0789628678381817,-0.049949779532866355,0.7332156499713269,0.9302059331897305,0.0,0.0,0.0,0.0
0.021571134365701926,0.32062772375085946,0.7478106489668482,-0.008652891693708474,-0.5259424911373584,0.0031887115719347924,0.8504701379825618,0.0059312695215069725,-0.8819487853496524,1.0422165129213203,0.037617338259533305,-0.8777634223932239,0.8947642362632966,0.09200685388151945,0.6221984742292053,1.068968210945777,-0.06480867782821859,0.7226079588763838,0.9308740909009835,0.0,0.0,0.0,0.0
0.019273519128022915,0.32341086094192506,0.74693101184673,-0.008919250425906836,-0.5259021467474679,0.003448817391564256,0.8504913195775982,-0.0019506459595403734,-0.8813101481554895,1.0333299656185164,0.04055822917553474,-0.8719060792638192,0.8946321905903506,0.09464104526335398,0.6204140396272046,1.0583715049501727,-0.08019660250607295,0.7110474633798112,0.931542833134749,0.0,0.0,0.0,0.0
0.016727134502305372,0.3263064599255153,0.7460137946249717,-0.009170579334902049,-0.5258683762113425,0.003691706393043091,0.8505085082933713,-0.010043764980755408,-0.8795108483890998,1.0221655863142949,0.043769313752098214,-0.8666817661719413,0.8950523187442286,0.09824398606574875,0.6184709026845113,1.0470934733197423,-0.09571974770287721,0.6988206306132173,0.9320928072751775,0.0,0.0,0.0,0.0
0.013991294757807178,0.3292024214592727,0.7450875764509305,-0.009372253495172365,-0.5258612857325708,0.003885433571684033,0.8505098308885498,-0.017970132150969955,-0.8762204226498862,1.0085602616799627,0.047459436338310804,-0.862474043739495,0.8969997769538245,0.10420463469286881,0.6162225329494947,1.0348995063844368,-0.11101287852800512,0.6862445559048859,0.9325591153218129,0.0,0.0,0.0,0.0
0.01118358033856586,0.33194730648289017,0.7441514810069043,-0.009457940598607358,-0.5259122567748938,0.003934717992050653,0.8504771387450073,-0.025102273477170416,-0.8712367787053286,0.9926820645775517,0.05178387204508906,-0.8598629722452399,0.9020774617623757,0.11465396328170818,0.6134975501383939,1.0215586095844584,-0.12619102025642548,0.6734208505226065,0.9333279461673523,0.0,0.0,0.0,0.0
0.008652825103641895,0.3344710211960977,0.7431156602377132,-0.009363964938125083,-0.5260435756377647,0.0038118978209776663,0.8503975200609861,-0.031246833085203367,-0.8661300798694965,0.9773964507520517,0.05729148145298669,-0.8594874502433583,0.9118287479819931,0.1338355631518528,0.6106527786280741,1.0065382388571598,-0.14171276319358014,0.660723426547416,0.9351284530592419,0.0,0.0,0.0,0.0
