zhuoxili-jackie/tripod-support-walk/examples/pcbB样数据/trajectory_trotting_acc_f015.csv
root_pos_x,root_pos_y,root_pos_z,root_rot_x,root_rot_y,root_rot_z,root_rot_w,FL_hip_joint,FL_thigh_joint,FL_calf_joint,FR_hip_joint,FR_thigh_joint,FR_calf_joint,RL_hip_joint,RL_thigh_joint,RL_calf_joint,RR_hip_joint,RR_thigh_joint,RR_calf_joint,FL_foot_joint,FR_foot_joint,RL_foot_joint,RR_foot_joint
0.0,0.0,0.72963,-0.009919430704566214,-0.5230949929384007,0.0038044909978256812,0.8522081665329894,0.0,-0.81,0.872,0.0,-0.81,0.872,0.0,0.65,1.0,0.0,0.65,1.0,0.0,0.0,0.0,0.0
0.0015734360262194358,-0.0006016923388657912,0.7300655237535842,-0.009867139159038,-0.5235407035883854,0.003835841374951358,0.8519348904534552,0.0014281691747195296,-0.812911355269988,0.8826288598865342,0.0014281691747195296,-0.8158996329323382,0.8873381776903243,0.003953770535685301,0.6575908642780612,0.9935883019908868,0.003953770535685308,0.6581326950367854,0.9977903666212288,0.0,0.0,0.0,0.0
0.004509942094588659,-0.0018946517907369284,0.7313925252589827,-0.009570303562882477,-0.5243148865075097,0.0034078574882159744,0.8514638545373912,0.005760389036464748,-0.8154635233370346,0.9003357078199065,0.005766863131749729,-0.8267601853250375,0.9164299858755266,0.008375205620130558,0.675538215493932,0.9764582784735342,0.008431687228737602,0.6743754878181389,0.9887509433328137,0.0,0.0,0.0,0.0
0.00757017275564168,-0.0031580173838559756,0.7322823682771722,-0.009364418099536054,-0.5243732952632775,0.0033139001628460715,0.8514305449971239,0.009148784315261924,-0.8245042842433268,0.9237671913131874,0.003336771567223322,-0.826798268188567,0.908039010695607,0.004736826284594056,0.6693285421920323,0.9968660364852068,0.015735977454646277,0.6882862034420565,0.9818421058754551,0.0,0.0,0.0,0.0
0.011116288003140932,-0.004405235393842279,0.7328606791788883,-0.009106282329487353,-0.5244275899970452,0.003073186624873881,0.8514008069035378,0.012898920926800778,-0.8362324773966268,0.9513737656349586,-0.00011295765180638351,-0.8298669364011221,0.9020931915632134,0.0003519541895565933,0.6670424452249326,1.0139112029751167,0.02196876952886869,0.7019536128618212,0.9767035218654658,0.0,0.0,0.0,0.0
0.014612751981080838,-0.0057007206617834295,0.7332842074037161,-0.008817719337710745,-0.5245396927493201,0.0027656638579377168,0.8513358383502688,0.016985455224855416,-0.8469797666273763,0.9770504093888195,-0.003451673114846898,-0.8348524760645574,0.8994191319628808,-0.0028688133520933584,0.6667415510186334,1.0285354453943083,0.028223365273889262,0.7149712473768898,0.9728864646309232,0.0,0.0,0.0,0.0
0.017794502535744362,-0.0070328277925243935,0.7336701001719373,-0.008528097792043618,-0.5246759271904857,0.002446869710140084,0.8512558110247912,0.02123985669039889,-0.8556194892169026,0.9987875966905271,-0.006428679947082868,-0.8408916571736992,0.8987632150383812,-0.004979080322645446,0.6670579494557751,1.041585481905767,0.034981562743741285,0.7271545793800261,0.969639184477642,0.0,0.0,0.0,0.0
0.020534596941633933,-0.008371208803190177,0.7340672991112767,-0.00825580115476016,-0.5248014118742724,0.0021442747361868552,0.8511819558284345,0.02550476460671229,-0.8619564935148081,1.016089891255937,-0.009061301813194195,-0.8474901623852474,0.8989911768082796,-0.006374475754304548,0.6673962933715833,1.0535009384755558,0.04231074610196903,0.7382638204586773,0.966635460950274,0.0,0.0,0.0,0.0
0.022800396461004478,-0.00967927567029127,0.7344930611538136,-0.008009975408305899,-0.5249012071992184,0.0018706037709648425,0.8511234127999849,0.029638982076273884,-0.8661634720084636,1.0291770955295845,-0.011459510355133436,-0.8543753864737694,0.8993705446175742,-0.007366387950508207,0.6675207646869137,1.0645820775644042,0.050029610842012476,0.748178214815391,0.9637307088598952,0.0,0.0,0.0,0.0
0.024615539136627472,-0.010922472664023734,0.7349472832983952,-0.007794550693983179,-0.5249722689800017,0.0016309304571250896,0.8510820770332975,0.03352644687353885,-0.8685772872618058,1.038604990898109,-0.013746710592743535,-0.8613815996428141,0.8994700566304774,-0.008164282383862916,0.6673666399327469,1.0750320640474385,0.05784823677100311,0.7568791812667292,0.9608632174466026,0.0,0.0,0.0,0.0
0.026031524193356803,-0.012073054697949946,0.7354180481009504,-0.007610731087591233,-0.5250169405736363,0.0014266163342638986,0.8510565513811911,0.037081663167401906,-0.869594005158223,1.045044745869835,-0.016019407751448295,-0.8683625191925667,0.8990660069494854,-0.008913248384627743,0.6669578590406411,1.0849553317232195,0.06546996524320932,0.7644003013078385,0.9580414600055722,0.0,0.0,0.0,0.0
0.027107142390820883,-0.013111681155648234,0.735883632873288,-0.007458415663524867,-0.5250388511493411,0.0012574285703981253,0.851044649647103,0.040249332506885664,-0.8696097807404363,1.0491479090087623,-0.018329999298845538,-0.8750989216044889,0.8980948930460247,-0.009731382874316892,0.6663668402543022,1.094322784594266,0.07265057111586035,0.7707736299525995,0.9553605624931544,0.0,0.0,0.0,0.0
0.027893566126797872,-0.014027138681426394,0.7363132097321434,-0.007337282141309914,-0.5250405168653939,0.0011228657251365166,0.851044863161198,0.042999746856466556,-0.8689840888466881,1.0514574363211138,-0.020684070104062712,-0.8811923257978285,0.8966540096071809,-0.010749157945874289,0.6656954482495728,1.1028925467280326,0.07922591666603018,0.7759818933618385,0.9530237555459542,0.0,0.0,0.0,0.0
0.028424035561961783,-0.014815668824678779,0.7366681430344834,-0.00724785038761792,-0.5250221090324585,0.0010230682574054115,0.851057111493235,0.04532361059997558,-0.868011714904971,1.0523455731967446,-0.023048534031985177,-0.8859753053686779,0.8950343062455696,-0.012158859680285893,0.6650887712230786,1.1100702499733646,0.08512303541656784,0.7799266544157885,0.9513510495998886,0.0,0.0,0.0,0.0
0.02870999995241729,-0.015480998311562626,0.7369073891627593,-0.007192240794949928,-0.5249813052738044,0.0009590715960792306,0.8510828284996905,0.04723031533758775,-0.866896187098057,1.0519841912010428,-0.025368249943907437,-0.8885314659647745,0.8937354144926353,-0.01426412142745649,0.6648338241234316,1.1147000954579518,0.09036382280600451,0.7824383187211446,0.9507389590592912,0.0,0.0,0.0,0.0
0.02875040161110071,-0.0160348220649358,0.7370036682918355,-0.007172856089189327,-0.5249160962183171,0.0009305961209764708,0.8511232437533978,0.04875340159325022,-0.8657156313951576,1.0503819009912048,-0.02758104912231074,-0.8880057834879623,0.8933506621118467,-0.017459133675419503,0.665602395061509,1.1148933517378035,0.09503838040607716,0.7833821430494015,0.9514953815876993,0.0,0.0,0.0,0.0
0.028548198676931858,-0.016492914053323718,0.7369595553777647,-0.007188080484149102,-0.5248255380168313,0.000936173345776685,0.851178952820007,0.04993730977922759,-0.8644372895073724,1.0475014896447414,-0.02964189436189162,-0.8844189789250823,0.8939001759476685,-0.021730483673476873,0.6673859210806022,1.110654302229821,0.09923809895094785,0.7827815425368692,0.9536420884663439,0.0,0.0,0.0,0.0
0.02811215530720581,-0.016875525352757624,0.7368072298454572,-0.007232624667226783,-0.5247093691202811,0.0009734625177278184,0.8512501509359902,0.05083764702893563,-0.8629273850577386,1.043274812941616,-0.031530386610153054,-0.878673594944285,0.8948510451521873,-0.026677963693612243,0.6695068960493893,1.1038854525057684,0.10306089745842842,0.7808226690201712,0.9569139760281878,0.0,0.0,0.0,0.0
0.027442996992746594,-0.01721060163571824,0.7365916300646635,-0.0073024735674274465,-0.5245671428033372,0.0010395194299667317,0.8513371282695797,0.051531310446089634,-0.860953706413045,1.0375110112605408,-0.033248164463191725,-0.8717358816660853,0.8957867539694294,-0.032035897584139904,0.6716852782437779,1.0957809007055488,0.10667270823658924,0.7777342979159361,0.960956991101673,0.0,0.0,0.0,0.0
0.02652656513272951,-0.017531445442684607,0.7363526272928772,-0.007396952027337778,-0.5243957342209441,0.0011334103517858117,0.8514417856862304,0.05210458432919036,-0.8582412189947904,1.0298896851493633,-0.03482888836945899,-0.8643246796486274,0.8965289792795023,-0.03772973591975157,0.6738002608891382,1.0870183457478173,0.11031783883353807,0.7736785503401166,0.9655018898466503,0.0,0.0,0.0,0.0
0.025340576587603216,-0.01787415663097936,0.7361167733231083,-0.007519304332026971,-0.5241896572765794,0.0012571123721251657,0.8515674271219563,0.052645089647451244,-0.8545320290530096,1.020034612659574,-0.03635028122970813,-0.8568945584439287,0.8971424044457689,-0.04390071207319723,0.6758112053971516,1.077999632289377,0.11430838739672347,0.7687370641204898,0.9704219432556364,0.0,0.0,0.0,0.0
0.023868598174515285,-0.018274670885556676,0.7358920078067073,-0.007678039009712592,-0.5239422078499579,0.0014172036724587457,0.8517180296812012,0.053231562092756916,-0.8496650856193385,1.0076435310152558,-0.03795439675229248,-0.8497309023573661,0.8979275862250155,-0.05099677005118489,0.6777865284876561,1.0690437447255108,0.11902854686992487,0.7629436736595646,0.9757492322347004,0.0,0.0,0.0,0.0
0.02211989680798238,-0.018763620503243608,0.7356623900241726,-0.007890024282167124,-0.5236473353169442,0.0016286747466137807,0.8518970378812573,0.05391401834865584,-0.8436923711309644,0.9926850877134776,-0.03985616180354851,-0.8430749298432213,0.8994496766720602,-0.05998702876900484,0.680003435913112,1.0605540648747134,0.12495875642996035,0.756346848552873,0.981679341029967,0.0,0.0,0.0,0.0
0.020157353513904682,-0.019356706606695664,0.7353831870609798,-0.008185834748823017,-0.5233028899360594,0.0019221087880683149,0.8521052652060308,0.05467593049938751,-0.8370530076477463,0.9757043695802823,-0.042294760751271296,-0.8372725446214558,0.9026211915049188,-0.07274279051401242,0.6831184660085166,1.0531961391107914,0.1327216314080053,0.7491142446025787,0.9885583061627586,0.0,0.0,0.0,0.0
0.01813821573054347,-0.020037536025274156,0.734980797693241,-0.008615032480077618,-0.522921890681001,0.002353166858739095,0.8523338196198185,0.055372299880611646,-0.8307902547195852,0.95826955919371,-0.04535254277780766,-0.8329785518614482,0.9088583146189341,-0.09250961138642076,0.6884074806518125,1.0481277305987933,0.14312451405759682,0.7417300132863943,0.9968117121249215,0.0,0.0,0.0,0.0
0.016514527968927935,-0.02063119081342561,0.7343616866237056,-0.009268843251882949,-0.52242744733145,0.0030350744386466737,0.8526279605681889,0.055367642416819726,-0.828527183693202,0.9460466241869527,-0.04935887336074336,-0.8308427904234497,0.9189291984962557,-0.12471766579650406,0.6985950621336983,1.0464088942606309,0.15659377594658258,0.7353931957263399,1.0060571238039921,0.0,0.0,0.0,0.0
0.015566992284797087,-0.02112775934745567,0.7337672085875288,-0.010101610171064703,-0.5219767962601987,0.003967272576358711,0.852890639171398,0.054616561518014604,-0.8300099306282894,0.9406670008502669,-0.05280383095474678,-0.8341733999426709,0.9354762233277805,-0.1658265474466743,0.7113490592358261,1.048963421916075,0.17329199859365532,0.7326108981513879,1.014031858021731,0.0,0.0,0.0,0.0
0.015567221841310305,-0.021116644672352948,0.7337501963072852,-0.01013377211122088,-0.5219808847242811,0.003972841742133718,0.85288772952467,0.05458495692558022,-0.830035553394628,0.9406244993582117,-0.052817671352388025,-0.8341746670961301,0.9354873821520562,-0.165833484563995,0.7113675019472572,1.0489711048707961,0.17330781711065085,0.7325710116196306,1.0140106959891995,0.0,0.0,0.0,0.0
0.015567221841310305,-0.021116644672352948,0.7337501963072852,-0.01013377211122088,-0.5219808847242811,0.003972841742133718,0.85288772952467,0.05458495692558022,-0.830035553394628,0.9406244993582117,-0.052817671352388025,-0.8341746670961301,0.9354873821520562,-0.165833484563995,0.7113675019472572,1.0489711048707961,0.17330781711065085,0.7325710116196306,1.0140106959891995,0.0,0.0,0.0,0.0
0.016743980634050182,-0.020635754639353496,0.733910001663478,-0.009365786650991654,-0.5242451347801709,0.0021087320690160137,0.8515132846578435,0.05782644743628432,-0.8190840633012904,0.9378659241805157,-0.04924794890405162,-0.8295635701915769,0.9354776484955138,-0.1987824841519591,0.7321205001249863,1.0531469455451188,0.1534658524416477,0.737979186567991,1.0123820971724495,0.0,0.0,0.0,0.0
0.018764339384479887,-0.020430622445366396,0.7345253826102521,-0.008284749756970515,-0.5271475409644315,-0.0004878964554809586,0.8497332492810118,0.06346759620853654,-0.8046033286790711,0.9363617605626229,-0.04322157856791833,-0.8263497318130774,0.9417224711565975,-0.24802979789207327,0.7653011913897273,1.0527679974317377,0.1274308540277884,0.7475060229945246,1.0066156764990093,0.0,0.0,0.0,0.0
0.01967424238446229,-0.023071406872401688,0.7358248317623215,-0.010756036303352168,-0.5221708839919127,0.0051639903676418755,0.8527574149766324,0.04825287433508181,-0.8160249657262209,0.9132116965818284,-0.0508027521003835,-0.8486192326818849,0.9759846367033079,-0.12153377280481406,0.7230261810261099,1.0204383483097534,0.11601556801090174,0.711184646995196,1.011651793741048,0.0,0.0,0.0,0.0
0.021295500709065385,-0.024654098104800327,0.7367168687685942,-0.011939435557250275,-0.5220336799130142,0.0067189777312790045,0.8528148346817717,0.03942668261031649,-0.8195674638587861,0.9052341418899313,-0.05036015457912579,-0.8531834132922207,0.992271641754155,-0.10504150563154113,0.729073519220974,1.001737416734672,0.0886617776472157,0.6975163936872366,1.0214841315864136,0.0,0.0,0.0,0.0
0.02326125068464869,-0.025684288757996217,0.7372860287346593,-0.011900454132973493,-0.523206776069082,0.006183334386983569,0.8521002376731773,0.03421774066812819,-0.8246401401105569,0.9062458306027398,-0.04627285884151937,-0.8571104797347776,1.0072771499379296,-0.11335784053279896,0.745745094434827,0.9921400875399191,0.05969184200994082,0.6919294411360439,1.032643999701081,0.0,0.0,0.0,0.0
0.02494277292317191,-0.02649527431006515,0.7373840113574464,-0.011698337543996698,-0.5242739154858417,0.005515413598558252,0.8514514611254642,0.029521983020441584,-0.8320909120456245,0.9081390798606223,-0.042522768081508996,-0.8616799817918352,1.0203364238000738,-0.12193526984063013,0.7588017482064185,0.9882334274055773,0.03956400457506477,0.6890446193891658,1.0428899661766138,0.0,0.0,0.0,0.0
0.02618427090978691,-0.027390486675359784,0.7373316328096368,-0.011724473359434634,-0.5248079538005745,0.005385097032812855,0.8511228754310655,0.02476678893726414,-0.8404821239407999,0.908264951563616,-0.039887422841332135,-0.8666358904312784,1.0317732898595722,-0.11996504295670764,0.7650063276496957,0.9848881869174625,0.026254476288212723,0.6854771955579715,1.052238510186236,0.0,0.0,0.0,0.0
0.026971701108932288,-0.02854778862241832,0.7373214185816892,-0.012173115089125608,-0.5245426410335468,0.006135130087719165,0.8512750396818795,0.01913733554606166,-0.8502082107646294,0.9059601535277886,-0.03871437163004734,-0.8723862072164555,1.0426208093673397,-0.10045106099642488,0.7623975831331289,0.9790110621704535,0.019504646144984667,0.6798149201716547,1.060838607875808,0.0,0.0,0.0,0.0
0.027554239791744647,-0.029485249615255657,0.7374107860369473,-0.012205451453604388,-0.5248306681407476,0.006112102523855638,0.8510971971146938,0.015092357910704552,-0.8580323180243641,0.9054792426347628,-0.03617700049071521,-0.8752685179728689,1.0493927526423596,-0.09365093199333839,0.76487238985185,0.974842560327087,0.009299146151271033,0.67545681474688,1.069440330866629,0.0,0.0,0.0,0.0
0.027884867567185008,-0.030378881933020307,0.7375346911540718,-0.012116435772199124,-0.5252200798380635,0.005881489178025001,0.8508598402816561,0.011313566080358339,-0.8655587211544981,0.9051944659952619,-0.033226353405815104,-0.8768189068434186,1.053703040868593,-0.08949011335211925,0.7677578860632767,0.9712653040975755,-0.00110406973180599,0.6713067959468759,1.0778363142376097,0.0,0.0,0.0,0.0
0.027927908055337174,-0.03140993566288773,0.7376760825166592,-0.012134939368765675,-0.5253766966156487,0.005878572376145168,0.8507629001587713,0.007035683827584061,-0.8733159523342877,0.9036827819054695,-0.03046480470284265,-0.8781370031010072,1.056806740876988,-0.08033178763913318,0.767713856058202,0.966941451012057,-0.009661894847760012,0.6664612227685378,1.0856968608652753,0.0,0.0,0.0,0.0
0.027721189151709284,-0.03253962810192725,0.73781409187623,-0.01210528310643266,-0.525523835056954,0.005810154179792383,0.8506729118858503,0.0028359745331655766,-0.8802364643534251,0.9017075812096773,-0.027280034311594203,-0.8788559213658159,1.0583312339019761,-0.0710790320425467,0.766928761580711,0.9627566408339476,-0.01814463267699455,0.6614460338290918,1.0927770716757863,0.0,0.0,0.0,0.0
0.027249676707245925,-0.03379351978976821,0.737888951305443,-0.012008055439282753,-0.5256801866842143,0.005645977290477282,0.8505787858115508,-0.0012294833693233028,-0.8857145490483391,0.8996147329492035,-0.02354340015140758,-0.879123618280102,1.0582656393014702,-0.06208277885368336,0.7652803197347186,0.9592713538132173,-0.02635055706594691,0.6564758731437096,1.0984752403418734,0.0,0.0,0.0,0.0
0.026472490162480076,-0.03522206102858288,0.7378490208819981,-0.011858669456606899,-0.525810881796497,0.005424395923264098,0.8505015370191735,-0.005152852651537336,-0.8889342814769533,0.8976935914467757,-0.01922767278370097,-0.8791302191334249,1.0565900780806914,-0.052467997073807,0.762085086233367,0.9567746476749872,-0.03360762693350099,0.6518060076750882,1.1016349605142806,0.0,0.0,0.0,0.0
0.025345039238753485,-0.03686602495180251,0.7376668742261872,-0.011658514883857336,-0.525903193477486,0.005159016149548267,0.8504488783420515,-0.008830046818702687,-0.8890154776344811,0.8963435568967434,-0.014268450938982507,-0.8788775597406875,1.053104487681566,-0.041851079091731386,0.756974525152117,0.9554052337237955,-0.039303379084323735,0.6481553823617604,1.1004104002342472,0.0,0.0,0.0,0.0
0.023831414176779215,-0.03876684725171058,0.7373485940642177,-0.011425250917815256,-0.5259319057088119,0.004885872649943039,0.8504359014337359,-0.012229327372801885,-0.8859863598978216,0.8954515206971954,-0.008650623712823872,-0.8782903038086439,1.047630802690684,-0.029573044795328747,0.7496577325358706,0.9548952565205178,-0.043234294554468956,0.645482756457585,1.094780252598165,0.0,0.0,0.0,0.0
0.02191194253925244,-0.04095195927890647,0.7369291519907333,-0.011182057879074342,-0.5258777715480369,0.004640312761820716,0.8504739845937277,-0.015379417809293607,-0.8807684863858966,0.8944640554743651,-0.002391733068335909,-0.8771819139350978,1.0399774722923056,-0.015188711365053554,0.7401170338081646,0.9546952430799186,-0.045770785678790865,0.6430098583619274,1.0865430694896159,0.0,0.0,0.0,0.0
0.019576744643967636,-0.043413120676469595,0.736451085914536,-0.010940906949434568,-0.5257468421439319,0.004432121111613669,0.8505591753859689,-0.018311515677435386,-0.8743352904403087,0.8929836924579249,0.004456233658726405,-0.8752026958396716,1.029788826792619,0.001024362609438858,0.7286685896480739,0.9543229140690775,-0.04735062146250966,0.6404159824737756,1.0768033500236105,0.0,0.0,0.0,0.0
0.016821402553277312,-0.04610774112032436,0.735946774893758,-0.010714117314376213,-0.5255515299805819,0.004267160543355722,0.8506836006213712,-0.021108907765273792,-0.8674604085015939,0.8908549963917621,0.011755909614797382,-0.8719344224065824,1.016592318354511,0.018469014227211016,0.7156768239197348,0.9534963045560084,-0.04835029392336126,0.6375639144264622,1.066141077067479,0.0,0.0,0.0,0.0
0.0136571790378649,-0.04895872820497314,0.7354339492502304,-0.010517920270198154,-0.5253045823252341,0.004153960214012995,0.8508391233105359,-0.023919629724683155,-0.8606578742198222,0.8881576439041435,0.01927004218119559,-0.8669723435895453,0.9999149242491814,0.03640194214800241,0.7014864002638881,0.9521607758655505,-0.049164984931022435,0.6343645317126769,1.0548147874735203,0.0,0.0,0.0,0.0
0.010130469033337943,-0.051852246644498404,0.7349095093895244,-0.010367426017147541,-0.5250228402894703,0.0040962067886753505,0.8510151319113548,-0.026913772409384674,-0.8541708710848442,0.8852034754375773,0.026678666809981325,-0.860035729494395,0.9794622350489055,0.053919066790992495,0.6864527865834195,0.9505691173510455,-0.05036978290734929,0.6307688519519132,1.042920436878134,0.0,0.0,0.0,0.0
0.006347481638820409,-0.05464515116479973,0.7343297164059258,-0.010279894389856116,-0.5247125021952632,0.004115005930595388,0.8512074838354691,-0.03025433530247003,-0.8480135466597605,0.8824627898811023,0.0335493574609582,-0.8512336161811258,0.9554818960756224,0.07027344721024203,0.670756260315365,0.9494031454252383,-0.052600750291607344,0.626882440368313,1.0305096781829184,0.0,0.0,0.0,0.0
0.002480455834995351,-0.05719048256816978,0.733587651590319,-0.010237861656267333,-0.524399208149805,0.00414475531397561,0.8514008912867967,-0.034513845604159016,-0.8419006566726167,0.8803287088488219,0.03967891656214934,-0.8412887556683195,0.9289914888685064,0.0842011448609681,0.6546435693846486,0.9501127934785301,-0.05768519306363407,0.6231040769799862,1.0173704959580538,0.0,0.0,0.0,0.0
-0.0009786320393363446,-0.05938574510145854,0.7325553189135933,-0.010198029878177022,-0.5240593715952968,0.004134328536898262,0.8516106402325511,-0.039174364532587276,-0.8352705498962945,0.8784181134409255,0.04497512683151305,-0.8331087982707358,0.9047622418792624,0.09510796144742686,0.6388363472527785,0.953900148609235,-0.06761816360997965,0.620131544957524,1.0033631643907592,0.0,0.0,0.0,0.0
-0.00376674806492862,-0.06096742436697042,0.7312941297901923,-0.010130895406751545,-0.5237897707636198,0.004034999979643308,0.8517777643122743,-0.043966691617888416,-0.8293926835010267,0.8775313329759247,0.04894442800093063,-0.8270573728032078,0.8843962997833935,0.10165281778908561,0.6245224910799351,0.9613999946726723,-0.08505158463812547,0.6171825688138841,0.9882467604418468,0.0,0.0,0.0,0.0
-0.005480493173008173,-0.06176594456191516,0.730087563817386,-0.01003917539866468,-0.5236180776506761,0.0038923819522834885,0.8518850703454445,-0.047522972453666185,-0.8260303697014323,0.877392724636203,0.051113809763877256,-0.8241346749197003,0.871419895800408,0.1037945979391066,0.6139534560306796,0.9704977190245407,-0.10729373735586514,0.6145175616083804,0.9731624307688114,0.0,0.0,0.0,0.0
-0.005497941840958154,-0.06187868417887785,0.7300243055662592,-0.009954939147044112,-0.5236252037129152,0.0039056776690284487,0.8518816178936675,-0.04752751870989083,-0.8260560825173128,0.8774001160214361,0.05128306498190629,-0.8242105698650084,0.8712400874016645,0.1038103596851205,0.6138668661690667,0.9704164322761616,-0.10731117091835993,0.614549516035598,0.9731702741924125,0.0,0.0,0.0,0.0
-0.005497941840958149,-0.061878684178877846,0.7300243055662592,-0.009954939147044081,-0.523625203712915,0.003905677669028468,0.8518816178936675,-0.0475275187098909,-0.8260560825173128,0.8774001160214361,0.05128306498190622,-0.8242105698650085,0.8712400874016646,0.10381035968512056,0.6138668661690667,0.9704164322761617,-0.10731117091835995,0.6145495160355979,0.9731702741924125,0.0,0.0,0.0,0.0
-0.005497941840958149,-0.061878684178877846,0.7300243055662592,-0.009954939147044081,-0.523625203712915,0.003905677669028468,0.8518816178936675,-0.0475275187098909,-0.8260560825173128,0.8774001160214361,0.05128306498190622,-0.8242105698650085,0.8712400874016646,0.10381035968512056,0.6138668661690667,0.9704164322761617,-0.10731117091835995,0.6145495160355979,0.9731702741924125,0.0,0.0,0.0,0.0
-0.003847186746047536,-0.06301297407183938,0.7304461427357832,-0.009864129509297397,-0.5241357664012292,0.003962343889186447,0.8515683749170841,-0.04492642759031975,-0.8282470476373247,0.8871735518539475,0.054074354012357335,-0.8312100118573692,0.8885589238451429,0.11146202326313066,0.6214333766739917,0.9619995285895022,-0.10210895174107527,0.6222165041046525,0.973802474931401,0.0,0.0,0.0,0.0
-0.0006491322574398743,-0.06530875346574813,0.7321998637348364,-0.009472474497745261,-0.5250450273045056,0.0034030760994849243,0.8510149297178996,-0.03782122381424993,-0.8284968930040486,0.9038509256637538,0.061501477006468255,-0.8435116839710546,0.9220949001107591,0.12225145227713734,0.6424306589600266,0.937085349687633,-0.09549353597211965,0.6400960568652536,0.9655339658521639,0.0,0.0,0.0,0.0
0.0025377283329137477,-0.06764098504435698,0.733733399575525,-0.009549762712344366,-0.5249593134146201,0.003700383683047415,0.8510657016071008,-0.03279759159487023,-0.8363720830381868,0.9265537995439657,0.05572458904574678,-0.8391307522039702,0.9094777602371228,0.09729126002273873,0.6388306902544157,0.9676709384773527,-0.07972231599362431,0.6578134734144356,0.9578388511844977,0.0,0.0,0.0,0.0
0.006261976287894018,-0.07013517729326818,0.7346542539272143,-0.009499783672991063,-0.5249736780588169,0.0036964121475026694,0.8510574175652309,-0.026623983454394887,-0.8468931724734783,0.9529699570949317,0.04855682551488788,-0.8397639481756932,0.9017210376469386,0.07407368401310607,0.6400187827854376,0.9922139848327158,-0.06502590534444527,0.6737219478605254,0.9551760575425561,0.0,0.0,0.0,0.0
0.010070193791767346,-0.07266474237844855,0.7352629093680789,-0.009308074018782182,-0.5250570968937079,0.003481471365890337,0.8510089800447118,-0.019793770926466156,-0.8571647234373418,0.9786028198274683,0.041688553294978996,-0.8430360240372645,0.8980974799009949,0.05820384007933743,0.6427105692473278,1.0116491872547724,-0.051473587799964096,0.6882676047252677,0.9547836226012341,0.0,0.0,0.0,0.0
0.0136558370611157,-0.07516750846643416,0.7358038757054959,-0.009037676497781595,-0.5251903705913386,0.003178995585712852,0.8509308368067995,-0.012730113931516447,-0.865474409954344,1.0008672369167795,0.03592758717675899,-0.8478967738800341,0.897197906939393,0.048156402561441124,0.6453333458765149,1.0278229690817977,-0.03827118423065955,0.7021131327038506,0.9546568290214134,0.0,0.0,0.0,0.0
0.01684509285682632,-0.0775948333604312,0.736353281788063,-0.008740961642551165,-0.5253221450832285,0.0028528653044539026,0.8508537480873393,-0.005716237426025752,-0.8715086939923938,1.0189707354132176,0.031182518206972258,-0.8536938768321684,0.8975535586205327,0.041507367397644344,0.6475267880918539,1.041817849106562,-0.025028420212315182,0.7151303065773494,0.9541990500627148,0.0,0.0,0.0,0.0
0.01956921231835974,-0.07990538864726801,0.7369247820026898,-0.008449875039350633,-0.5254278954188025,0.002536292346766588,0.850792391567249,0.0010402932649686853,-0.8754197478711527,1.0329436348500327,0.027067195656458685,-0.8600265096869951,0.89822796401444,0.03658790591146966,0.6492697578039107,1.054346935059086,-0.011718531179036845,0.7271042883213318,0.9533517698066539,0.0,0.0,0.0,0.0
0.02182716986657926,-0.08206636745974139,0.7375111131442613,-0.008181380094519334,-0.5255001302131893,0.0022447558714655098,0.8507512205320352,0.007392775344061641,-0.8775409958535663,1.0432209526155065,0.023199253153999854,-0.866629632653994,0.8986749581058656,0.03244150246885277,0.6506184167161125,1.0658686271137179,0.0014712500511790266,0.7378949290807981,0.9521983624334147,0.0,0.0,0.0,0.0
0.02365536899136636,-0.08405585681017401,0.7380972058817621,-0.007943510214268108,-0.5255395172621568,0.0019847442994770214,0.8507297909626774,0.013247443260347297,-0.8782603314577029,1.0503974399332574,0.019312115929191898,-0.873285083470026,0.898605362288591,0.028553988874507677,0.6516502832631879,1.0766399515997565,0.014284721084499963,0.7474437359991344,0.9508605479260389,0.0,0.0,0.0,0.0
0.025104787489725115,-0.0858632552566756,0.7386624084584092,-0.007739413658331412,-0.5255492455009425,0.0017585547378835273,0.850726160121369,0.018555718550110963,-0.8779592601639147,1.0550773445507347,0.015270070910094219,-0.8797252971518561,0.8979182040877853,0.02464095050470915,0.6524569224648998,1.086719698368318,0.0264923786881326,0.7557290314844588,0.949503243925153,0.0,0.0,0.0,0.0
0.026223924380386423,-0.08748814871630209,0.7391795624916763,-0.007569952991767384,-0.5255317588516338,0.001566804064677104,0.8507388620340752,0.023305424477938347,-0.8769788608700579,1.0577749264027805,0.011043399095984419,-0.8855211665964242,0.8966904842368801,0.020506398433668267,0.6531461553899732,1.0959144452224965,0.037941906417063874,0.7627112774238776,0.9483671009978646,0.0,0.0,0.0,0.0
0.027046590901002254,-0.088938972723735,0.7396148363973538,-0.007435628474906443,-0.5254870828067448,0.0014098411348417068,0.8507679175782399,0.027512870023743804,-0.8755936824509819,1.0588439645622274,0.006672301677458451,-0.8899869210906824,0.8952043451892776,0.01593794237450244,0.6538667678476137,1.1036557202701096,0.04858140021440001,0.768291587111515,0.947790290304297,0.0,0.0,0.0,0.0
0.027586378881634906,-0.09023245322176224,0.7399323295098068,-0.007337896242869375,-0.5254124957485525,0.0012883327977544548,0.8508150238380892,0.03121858770974191,-0.8739852215091947,1.0584407646175145,0.0022319915258934963,-0.8921959772814912,0.8939584153679311,0.010626651380606053,0.6549107941868947,1.1088020523953772,0.05846758781127274,0.7723135034662986,0.9481770454241288,0.0,0.0,0.0,0.0
0.027844473490985438,-0.09139330879592798,0.7401100672179385,-0.007278216627012151,-0.5253052925016397,0.0012014417618078821,0.850881856528972,0.03448932241851519,-0.8722068336082976,1.0565553484877803,-0.0021886072662840915,-0.8912874534091823,0.893548550202926,0.004176416470753811,0.6569523341369118,1.1094710923033928,0.06773590564485106,0.7746623458640725,0.9498355363988686,0.0,0.0,0.0,0.0
0.02782526186272519,-0.09244886278193047,0.7401557775422855,-0.0072539018392832,-0.5251634583834269,0.001147170952038648,0.8509696862319313,0.03739943986811795,-0.8702004984831211,1.0531284638796954,-0.00650718919541513,-0.8872788795958847,0.8939939449929691,-0.0033791547339538167,0.6599641290994399,1.1056553936747595,0.07651925010202253,0.7753804571379909,0.952780979813722,0.0,0.0,0.0,0.0
0.027537864476869834,-0.09342960114098484,0.7401065038108522,-0.007258746010219376,-0.5249853242795971,0.001122886937877177,0.8510795844234135,0.040030718912849664,-0.867806476223715,1.048064436414627,-0.010663272635076373,-0.8810730914442235,0.8947571129488233,-0.011612411568151163,0.6632371601200212,1.0992338880035522,0.08495326525499725,0.774668595486809,0.9567391464077528,0.0,0.0,0.0,0.0
0.026982630447824264,-0.09437309779569886,0.7400115265201114,-0.007288291243394071,-0.5247687798041092,0.0011257308093853458,0.8512128648486246,0.042483876909529594,-0.8647665887404878,1.041139608877392,-0.014632675386547866,-0.8736410566471461,0.8954163216844876,-0.02025302500012602,0.6664664143286531,1.0913829139709021,0.09324443817823144,0.7727659532914425,0.9613491866501402,0.0,0.0,0.0,0.0
0.026144960333789307,-0.09532066097380988,0.7399138380179527,-0.007342109287613325,-0.524508765376911,0.0011554059731070637,0.8513726055676414,0.04486313807821285,-0.8607873674602935,1.032004578757918,-0.018444645751401208,-0.8657090283110941,0.8957854174522782,-0.02924497611145099,0.6695122455484135,1.0827708163106644,0.10167202746838308,0.7698387162703285,0.9663383490815189,0.0,0.0,0.0,0.0
0.025002920494302885,-0.09631280864900939,0.7398409943716822,-0.007424617782026023,-0.5241975558163504,0.001215490647215169,0.8515634563022544,0.0472617422120445,-0.8556119750651827,1.0202731519247397,-0.022193614405371483,-0.8577356239549945,0.8959142466786402,-0.03877312792089473,0.6723206794734827,1.0737968733819754,0.11056145808256643,0.7659634100678185,0.971578982045217,0.0,0.0,0.0,0.0
0.02354265516092195,-0.09738328062205069,0.7397984437862092,-0.007546694749104251,-0.5238257545259452,0.0013156582560436738,0.8517909927541154,0.04974274219174573,-0.849119820061986,1.0056791127681097,-0.026053489916955015,-0.8499960765832816,0.8960739128475471,-0.049367430606537185,0.6749588947586038,1.0647840830564743,0.1202674149231093,0.7611562436224655,0.9771047658717005,0.0,0.0,0.0,0.0
0.02178074928337487,-0.09854931469646613,0.7397621619423389,-0.007729100054318721,-0.5233836299112014,0.0014761618433794517,0.8520608299291413,0.05230684261199566,-0.841477968877514,0.9883233405940959,-0.030274506916056373,-0.8426897533335223,0.8967701472051969,-0.06214987742031137,0.6777380085181789,1.0561494806943406,0.13117228105301615,0.7554319670056282,0.9831164929815516,0.0,0.0,0.0,0.0
0.019796296945533542,-0.09979498212968335,0.7396707610787212,-0.00800861580985245,-0.5228620272207452,0.0017362846910493257,0.8523779372314223,0.05483641827134356,-0.8333841386785981,0.9690771238330241,-0.035122783346891555,-0.8360584113679556,0.8987790256944181,-0.07929940091434975,0.6814445332413545,1.0485781020926732,0.14370423761428605,0.7489030733476458,0.9899689080637089,0.0,0.0,0.0,0.0
0.01777677975744624,-0.1010411218263243,0.7394211082965303,-0.00844794086215124,-0.5222383963147585,0.002169520535815862,0.8527549371832587,0.0569951033513691,-0.8265305875193053,0.9503143953109626,-0.04075303764015697,-0.8305122223567242,0.9030179084349196,-0.10478057562070878,0.6877196202797934,1.0430690761320287,0.15834161039045522,0.7419070959152431,0.9980595475889046,0.0,0.0,0.0,0.0
0.016125797023755134,-0.10208759070307058,0.7389267843727497,-0.009135814019622036,-0.5214409464833378,0.0028940633866726987,0.8532335557336417,0.05807179944790787,-0.824379499618043,0.9374230460950111,-0.04725821788878337,-0.8268725299515312,0.910023596847414,-0.14420689816521387,0.6989835520113905,1.0405557447194604,0.17529957193564225,0.7355033992932073,1.0069490563229813,0.0,0.0,0.0,0.0
0.01511612422344283,-0.10284454858531164,0.7383814548442147,-0.009992174753942496,-0.5206352219081313,0.0038839392056935515,0.8537119169653214,0.05786857545871805,-0.8268810766187477,0.932285446065509,-0.052793440480657115,-0.8285218514376862,0.9219977976488616,-0.19257925184705915,0.7124800695992093,1.0418591797347854,0.19364207803521688,0.7317735698434127,1.014577719149258,0.0,0.0,0.0,0.0
0.015128107946455053,-0.10286319921564442,0.738367060720903,-0.010005712227548029,-0.5206302539438217,0.0038985958868570114,0.8537147212923777,0.05787248829270894,-0.8269045934327365,0.9322353975767484,-0.052811952468890845,-0.8285222418685595,0.9220083573812333,-0.19258736993677011,0.7124994160964901,1.0418668638278998,0.19366801805008915,0.7317203744088706,1.014543991097402,0.0,0.0,0.0,0.0
0.015128107946455053,-0.10286319921564442,0.738367060720903,-0.010005712227548029,-0.5206302539438217,0.0038985958868570114,0.8537147212923777,0.05787248829270894,-0.8269045934327365,0.9322353975767484,-0.052811952468890845,-0.8285222418685595,0.9220083573812333,-0.19258736993677011,0.7124994160964901,1.0418668638278998,0.19366801805008915,0.7317203744088706,1.014543991097402,0.0,0.0,0.0,0.0
0.016112892467137294,-0.10290034984720146,0.7383872579881144,-0.009593967845097216,-0.5220821109030941,0.002982539573526422,0.8528360508993794,0.06014680526945562,-0.8209419226419269,0.9317410991870136,-0.05038951301663417,-0.8272787429217598,0.925315961557101,-0.2084968817953709,0.7248176654251977,1.0439670700761012,0.18787013500242436,0.7371728472601128,1.0153200873622545,0.0,0.0,0.0,0.0
0.017882558222768963,-0.10327751192593627,0.7386763297460096,-0.00889642364072921,-0.5240414447347392,0.001452839899468929,0.8516450593427748,0.06476556002315073,-0.812634530026838,0.9329510577004446,-0.04563500742072805,-0.8285021863398451,0.9354939758468468,-0.23355854933752163,0.7457515873242951,1.0430810333287122,0.17931289681427964,0.7464189818847528,1.0141026804235038,0.0,0.0,0.0,0.0
0.01935390555561951,-0.10556806380644745,0.739766545687671,-0.010921365491198213,-0.5218527534225884,0.005125933979571236,0.8529502636859361,0.05393152773327162,-0.817178112029433,0.9151710782703516,-0.04877930111350798,-0.841281477384303,0.9617246332502472,-0.15468961995974506,0.7281217862190682,1.0188616817379434,0.14577262821074027,0.7181799187233429,1.0209593334984095,0.0,0.0,0.0,0.0
0.021239712935616113,-0.107194695265433,0.7403887388919693,-0.011795773393063596,-0.5219482910117269,0.006330846788850021,0.8528720663844802,0.04536087177149574,-0.8205632350042162,0.9067708602009457,-0.047422323428090205,-0.8481773910358676,0.9811241594384048,-0.13099026620392484,0.7323578156695733,1.0047062490422234,0.10720501310682322,0.7024919119647826,1.028710188463204,0.0,0.0,0.0,0.0
0.023207750195684093,-0.10839875913796224,0.7406859172894796,-0.011954593961071961,-0.5227571396653525,0.006303713843180359,0.8523745208556555,0.03885697440335599,-0.8261577045963638,0.9049448212451212,-0.04418571961620485,-0.8544264130646496,0.9984366375137492,-0.1256745063154838,0.7425549663161154,0.9969781315127397,0.07742588004023893,0.6945078481347446,1.0374775152763775,0.0,0.0,0.0,0.0
0.024931629472080774,-0.10938483735642149,0.7407291362280609,-0.011940508024912963,-0.5235385084426709,0.0060628838817932875,0.8518967636308793,0.033381482900804664,-0.8335454358267417,0.9049772608272904,-0.041037686808841796,-0.8604670743323736,1.0134586355949313,-0.12362309438724045,0.7514741190855473,0.9926841723122579,0.056900291978827955,0.6898088339599358,1.0464811298760206,0.0,0.0,0.0,0.0
0.026319831413696055,-0.11030676425537482,0.7407257953188681,-0.011951389229362615,-0.5241092483442389,0.005934143737801182,0.8515465025667267,0.028570385983196327,-0.841605796603766,0.9051746976536914,-0.038331050768778505,-0.8658575823946753,1.026113635025983,-0.11948053887751144,0.757777035423003,0.9889819493515665,0.041998130797918254,0.685951916559001,1.0554944989259973,0.0,0.0,0.0,0.0
0.027360724214040733,-0.1112231148471826,0.7407714557909213,-0.01200826125533575,-0.5244904960836253,0.005932671177952817,0.8513109447154257,0.024150599756588183,-0.8497793732039243,0.905107289236219,-0.03592979867064712,-0.8702677233764884,1.0363352542674555,-0.11262692190425422,0.7617769893573215,0.9848795625732387,0.03016748868908374,0.6820619746345425,1.0643730404610316,0.0,0.0,0.0,0.0
0.028078119721632468,-0.1121479523866663,0.7408873840619886,-0.012072558777333948,-0.5247667352537044,0.005971676337941823,0.8511395102904407,0.019939371069002756,-0.8578317022423356,0.9047155588399793,-0.033580262178043975,-0.8735405338850872,1.0441425141058183,-0.10440319684084998,0.7643162932462483,0.98034055357812,0.01984658720852049,0.6779785328133062,1.0730424742066569,0.0,0.0,0.0,0.0
0.02850142274583401,-0.11309496704210079,0.7410547715159173,-0.012112464633540767,-0.5249984336721396,0.005984699636110522,0.8509959554619321,0.015806488034356123,-0.8656784641238128,0.9039395812354193,-0.03108856200099674,-0.8757421273869423,1.0497158411296659,-0.0959021721329084,0.7659432998668311,0.9756229084915494,0.010235724936136996,0.6737089905206257,1.0814285617364778,0.0,0.0,0.0,0.0
0.028650147542988783,-0.1140936720488762,0.7412368829216964,-0.01211941026328365,-0.5252009010067826,0.005955677554572065,0.8508711203122361,0.011651729694201859,-0.8732175362688832,0.9026796210016559,-0.02834730224386357,-0.8771078559099079,1.0533471060962318,-0.0872787078586798,0.7666910663526338,0.9709942320645526,0.001102946908082587,0.6692482119590222,1.0893759386706516,0.0,0.0,0.0,0.0
0.028534041902308665,-0.11517178764091911,0.741392270152828,-0.012071503646821927,-0.5254023062005536,0.005846185325940436,0.8507482104336036,0.007518449943326919,-0.8800484923003585,0.9010606167524724,-0.025199725792329788,-0.8778175144666485,1.0552045340015201,-0.07897376522983446,0.7666650421288805,0.9668294916748826,-0.0077518520982709175,0.6646825099027466,1.0965706904119272,0.0,0.0,0.0,0.0
0.02813762746007671,-0.11637778323548728,0.7414780799450666,-0.011972429121969278,-0.5255870478514743,0.0056708531284250085,0.8506366777282104,0.0034348867950020527,-0.8855269177292687,0.8992365622463379,-0.021565208413405996,-0.8781012353808633,1.0554291552687303,-0.07043588966532753,0.7654649690305328,0.9633674453477109,-0.01609123612476447,0.6600706857739205,1.1023668070135515,0.0,0.0,0.0,0.0
0.027423000620623052,-0.1177689728090895,0.7414541164963726,-0.011840725946610418,-0.5257154971593434,0.005475465214979101,0.8505604226251309,-0.0005768092002383703,-0.888776691621336,0.897453414702957,-0.017415244745416177,-0.8781553402163363,1.0540513900867816,-0.060631144885660335,0.7624171857360591,0.9607473853959537,-0.023308904241348127,0.6556230217246046,1.1055889276853683,0.0,0.0,0.0,0.0
0.026351056655911524,-0.11937736700290032,0.7412938211110532,-0.01166753236103559,-0.5257908611897437,0.005253627811289405,0.8505176296660594,-0.004387001831906305,-0.8888914203750049,0.8961802065468724,-0.0126591254367286,-0.8779453014341347,1.0508441554640813,-0.04955749117725305,0.7573314515603707,0.9591632842557507,-0.028913508924774806,0.652099101012427,1.104389158712914,0.0,0.0,0.0,0.0
0.024892618207924985,-0.12122592213340587,0.7409976365810748,-0.011449745531844843,-0.525818217103412,0.005001294599337161,0.8505051986565254,-0.007915039055426027,-0.8858729946287497,0.8954319280239301,-0.007233155194387988,-0.8773295393583274,1.0455498741530977,-0.03725459315062401,0.7501956716258736,0.9585446208252866,-0.03290739807046322,0.6495390571991373,1.0987624227179407,0.0,0.0,0.0,0.0
0.023029599346033047,-0.12333605293622027,0.7405964559599659,-0.011207681225162965,-0.5257811036925459,0.004749174310742997,0.8505328119624601,-0.011197021466103893,-0.8806625663417027,0.8946679745319006,-0.0011602293731684818,-0.8761232035282086,1.0379702873985455,-0.023325320802579392,0.7409887503008651,0.9584199037288783,-0.0356668798668149,0.647183365209676,1.0905170206020987,0.0,0.0,0.0,0.0
0.020750901791823973,-0.1257034773424431,0.7401344054883917,-0.010959268350879951,-0.5256750288042166,0.004519663530315101,0.8506028633683714,-0.014282352706396289,-0.8742519941519066,0.8934526665363746,0.005487394178311752,-0.8740052159692587,1.0277845082752541,-0.007788426041276499,0.729918536767318,0.958262805984071,-0.03755866145138741,0.6446942149450595,1.0807564874659705,0.0,0.0,0.0,0.0
0.018050174466199283,-0.12829233636965362,0.739648742791464,-0.01072119135514588,-0.5255039832486903,0.004328453992789804,0.8507125743350211,-0.017254556731491573,-0.867414954816558,0.8916022990625857,0.012566748858575612,-0.8705755405186121,1.0145497838400068,0.008961570762659918,0.7172841414075819,0.9577095719610105,-0.038907476602759984,0.6419199083802353,1.0700593896925137,0.0,0.0,0.0,0.0
0.014936585019693024,-0.13103188440661703,0.7391623099453999,-0.010510554808117618,-0.5252775612966303,0.004187163451384247,0.850855733657664,-0.02025006875563793,-0.8606633368278285,0.8891937710339651,0.01985050276175288,-0.8654317909614289,0.9978042102092411,0.026258084797003846,0.7034230302692831,0.9566333088670561,-0.040077514382167445,0.638770930035856,1.0586895810441932,0.0,0.0,0.0,0.0
0.011454279257063025,-0.13381444107714943,0.7386768946687214,-0.010342098642093785,-0.5250120974752402,0.004099664990731168,0.8510220509759366,-0.023431278657555493,-0.8542512502069222,0.8865558007371729,0.02703508203513891,-0.8582851084835666,0.9772511189609852,0.043213900157494455,0.6887120978188398,0.9552186846627283,-0.04159935694511494,0.6352063578709756,1.046758247294939,0.0,0.0,0.0,0.0
0.007707744675522916,-0.13650305593677678,0.738155499486086,-0.010231425938777319,-0.5247170203447632,0.004082371299810907,0.8512054397901503,-0.02695181833030462,-0.848200215434909,0.884196015735199,0.03371667085959798,-0.8492180348922921,0.9531208447784512,0.0590466875481849,0.6733976186114056,0.9540659403925951,-0.04407413930680147,0.6313335096074758,1.0343501012140768,0.0,0.0,0.0,0.0
0.0038724869252705707,-0.13895749192488188,0.7374978768266681,-0.010168875560334599,-0.5244119523098972,0.004089369434154333,0.851394136285887,-0.03130463517569649,-0.8422422500492236,0.8825585023087306,0.03966028406248871,-0.8389573080626334,0.9264760266505346,0.07265480256057778,0.657717687853845,0.9544822050628338,-0.049018631608055904,0.6275676158415677,1.0213565584938467,0.0,0.0,0.0,0.0
0.00044201917926220934,-0.14109262314755694,0.7365744307188952,-0.010115439162511775,-0.524071409510665,0.004069371050614173,0.8516045301918649,-0.03602823859688234,-0.8357372531433139,0.8812265730500731,0.04482082719265795,-0.830473595515608,0.9021786189195669,0.0834872259232876,0.6424167138744007,0.9575921030279376,-0.058172751818449026,0.6247330059919859,1.0077258643025058,0.0,0.0,0.0,0.0
-0.0023212666513326512,-0.1426489500818668,0.7354436321910152,-0.010045435312295903,-0.5237961146599117,0.0039784125547880165,0.8517751415309741,-0.0408867227289838,-0.8299898644355119,0.8811200946630844,0.04870193124174098,-0.8241145345671803,0.881818462393659,0.09019133885146116,0.6286932183945041,0.9640237407948201,-0.07394907341906591,0.6220589934849051,0.9933889045705522,0.0,0.0,0.0,0.0
-0.004016733953097916,-0.14344896695548953,0.734357605609013,-0.00996041224599373,-0.5236203967102938,0.003852981292561754,0.8518847485851614,-0.0445336572904101,-0.826821586594561,0.8819911461418934,0.050832546270796065,-0.8209204748379612,0.8688831316850062,0.09259158561230982,0.618677413557337,0.9720100235639871,-0.0940284596550409,0.6196656800873829,0.9795237518859384,0.0,0.0,0.0,0.0
-0.004035094865950621,-0.1435609677127981,0.7342971334832404,-0.00987676755738262,-0.5236267750731288,0.0038662654076985206,0.8518817417229516,-0.044537323052713004,-0.826847717754324,0.881998676470743,0.05099977069383593,-0.8209944701026755,0.8687043850735283,0.09260593077398675,0.618592357061137,0.9719294889669384,-0.09404489287371899,0.6196979905958915,0.979532093665336,0.0,0.0,0.0,0.0
-0.004035094865950784,-0.14356096771279822,0.7342971334832404,-0.009876767557381922,-0.5236267750731284,0.003866265407699212,0.8518817417229518,-0.044537323052715225,-0.8268477177543266,0.8819986764707443,0.05099977069383387,-0.8209944701026786,0.8687043850735312,0.092605930773998,0.6185923570611325,0.9719294889669373,-0.09404489287370917,0.6196979905958953,0.9795320936653279,0.0,0.0,0.0,0.0
-0.004035094865950784,-0.14356096771279822,0.7342971334832404,-0.009876767557381922,-0.5236267750731284,0.003866265407699212,0.8518817417229518,-0.044537323052715225,-0.8268477177543266,0.8819986764707443,0.05099977069383387,-0.8209944701026786,0.8687043850735312,0.092605930773998,0.6185923570611325,0.9719294889669373,-0.09404489287370917,0.6196979905958953,0.9795320936653279,0.0,0.0,0.0,0.0
-0.0024056616122691025,-0.14464641736544315,0.7347220811406289,-0.009794625249795083,-0.5241317348931116,0.003926141577903395,0.8515718262169453,-0.04205470087122289,-0.8289955131453816,0.8916469619532215,0.05365713840678905,-0.8277924183177645,0.8856878641393441,0.09998766707911085,0.6261112792985046,0.9636984263746228,-0.08876275066785733,0.62748781891699,0.979819292667043,0.0,0.0,0.0,0.0
0.0007495619884360745,-0.14683869340877,0.7364574046558977,-0.009399022159586462,-0.5250361107022107,0.0033606631174713654,0.8510214138225609,-0.03518775493536923,-0.8291594025815368,0.9080524777526078,0.06081613532693913,-0.8397636957571644,0.9185718492779568,0.10998034676408663,0.6469468765049331,0.9394282235606386,-0.0823949621190444,0.6453461473451483,0.9711226856134815,0.0,0.0,0.0,0.0
0.003898608401985654,-0.14907554231238018,0.7379093608532493,-0.009464826900187445,-0.5249448480665788,0.0036277805462176624,0.8510758854229243,-0.03031950093670879,-0.8371491103878544,0.9306074552566257,0.05503908124853939,-0.8362017539685779,0.9070148351433239,0.08629987225610665,0.6429215294654117,0.9695719756028756,-0.0669548343828749,0.6626474123507101,0.9635775724607359,0.0,0.0,0.0,0.0
0.0075875719691106455,-0.15143475062310288,0.738813516719931,-0.009399876247184035,-0.5249490978402302,0.0035979161463017104,0.8510741107580879,-0.024410721589269067,-0.8477000157959967,0.9569651319612215,0.04771433840374287,-0.8372094493940666,0.8998163672719551,0.06429272299676311,0.643674892462045,0.9937684902219003,-0.05282242121708582,0.6784939122641223,0.9603027763595239,0.0,0.0,0.0,0.0
0.011339856432260487,-0.1538333703729519,0.7394294345351218,-0.00919856155183978,-0.5250273005483199,0.0033655186223469093,0.8510290203211192,-0.0178558627948839,-0.8578174880186042,0.9823078950584514,0.04069708369659948,-0.8407194255867039,0.8965064418556555,0.04911661785479855,0.646005301872783,1.012967472071458,-0.0397831926993579,0.6930621449512501,0.9591544047155032,0.0,0.0,0.0,0.0
0.01485597295869713,-0.15621670925544615,0.7399772035036289,-0.00892443349348488,-0.525152382788926,0.0030514958214052303,0.8509559434607562,-0.011057551273517967,-0.8659513764394283,1.0042025615239742,0.03478638516684083,-0.845723092535398,0.895711275006623,0.03932603334535091,0.6483665244452005,1.0289645196331056,-0.02701002146126249,0.7068673410254018,0.9583746363303006,0.0,0.0,0.0,0.0
0.017969922220598095,-0.15853787287109652,0.7405287187279852,-0.008628482573281452,-0.5252734483452789,0.0027183708802242983,0.8508854001636764,-0.004291328350551359,-0.8718317336479151,1.0219250990918354,0.0298932045382536,-0.8515935775948027,0.8960472363570928,0.03268478142924067,0.650366395033996,1.0428249241527958,-0.014119183868601488,0.7197733366360394,0.9574086367755241,0.0,0.0,0.0,0.0
0.020618750000971717,-0.16075575259732083,0.7410991689201676,-0.00834090578934231,-0.5253670070256862,0.002398013444346106,0.8508314678895031,0.0022401788527966118,-0.8756172667097734,1.0355365814536113,0.025638760018204337,-0.8579494573273863,0.8966361770852279,0.02766255466677608,0.6519521308784049,1.0552477589011848,-0.0010980538020866105,0.7315904798994011,0.9561740419274845,0.0,0.0,0.0,0.0
0.02280527015739407,-0.1628374349565712,0.7416835640959331,-0.00807723202876033,-0.5254265336286323,0.002104806911755373,0.8507980288350564,0.008393943071232087,-0.8776356363893101,1.0454832441316275,0.021647942519935216,-0.864542274364877,0.8969678271588257,0.02338147075107437,0.6531608195438998,1.0666797605297744,0.011854898126330652,0.7422055687496812,0.9547209561405743,0.0,0.0,0.0,0.0
0.024568161664204575,-0.16476077152126445,0.7422684735707901,-0.007844433329575488,-0.5254533946373221,0.0018443462879422674,0.8507842225362566,0.01407885465788861,-0.878266501497314,1.0523614805057864,0.017659209722233293,-0.8711675619514228,0.8967743275118553,0.019365131278519146,0.6540608233137858,1.0773690059513115,0.02447658227334088,0.7515802966102675,0.9531441427648364,0.0,0.0,0.0,0.0
0.025959469423184334,-0.16651483742743417,0.7428341773455107,-0.007644886227823528,-0.5254511558107837,0.0016181709567328554,0.8507878819626133,0.019248143210461904,-0.8778836960291948,1.0567721961561634,0.013539708101307467,-0.8775680670864168,0.8959666696440952,0.015344241102432725,0.6547398862507635,1.0873676730944144,0.03653399602610141,0.7597056595232003,0.9515896872104679,0.0,0.0,0.0,0.0
0.027027824586317098,-0.16809890017067525,0.7433540340076247,-0.007478904201911152,-0.5254223222545769,0.0014262645405286529,0.8508075076290798,0.023890880095200663,-0.8768214582796645,1.0592230751561902,0.009261382198859844,-0.8833217514502523,0.8946276184683595,0.01112693206578351,0.6553039970018502,1.096477284181794,0.047873970998774204,0.7665488615411402,0.9502854944673279,0.0,0.0,0.0,0.0
0.027806454487869486,-0.16952121339954482,0.7437946254503683,-0.00734662116533415,-0.525366681554568,0.001268480176270817,0.8508432687797657,0.028024433926014267,-0.8753478023090755,1.0600586993947212,0.00486584529415127,-0.8877472795678274,0.8930407332763493,0.006500917286490773,0.6559000253030411,1.1041250026610274,0.058446155817728176,0.7720137212631445,0.9495605237788116,0.0,0.0,0.0,0.0
0.02830786128740814,-0.17079857783663818,0.7441205702494756,-0.007249259518753958,-0.5252809955468862,0.0011451061024028725,0.8508971810305379,0.03169062971324176,-0.8736374776758163,1.059423951999847,0.0004298274829977926,-0.8899206211577574,0.8917029048571189,0.0011582297596833286,0.6568168501791896,1.1091650417772427,0.06831081283159221,0.7759438845272816,0.9498113236536629,0.0,0.0,0.0,0.0
0.02853186330099762,-0.1719561691219274,0.7443105771384684,-0.007188073498148867,-0.525161874244272,0.0010549392169342036,0.8509713417870647,0.03495832595142875,-0.8717360368297613,1.057295134496531,-0.0039563191578105145,-0.8889823709200113,0.8912065994354529,-0.00529313157096311,0.6587245522343049,1.1097111430041149,0.07760792013447533,0.7782230443078315,0.9513392082688954,0.0,0.0,0.0,0.0
0.028481312973560692,-0.17302250115886492,0.7443733392073445,-0.007160255134350407,-0.5250065878154708,0.0009957321934920384,0.8510674603191959,0.03790551378291566,-0.8695749463719016,1.053595290890117,-0.008209280012960486,-0.884950568654583,0.8915690947539264,-0.012821872958996321,0.6615962375397046,1.10575435823703,0.08648007531309873,0.7788923048079786,0.9541533897774502,0.0,0.0,0.0,0.0
0.028163664371854316,-0.17402995290600784,0.7443471181340856,-0.007159588653121815,-0.5248126239831536,0.0009647522313028021,0.8511871235230049,0.04061893873969781,-0.8669819583813907,1.0482076119129944,-0.01226869044385977,-0.8787278319636213,0.8922521300533655,-0.02100907502752712,0.664726264360196,1.099173716761153,0.09507839505390223,0.7781517220729145,0.957973947546319,0.0,0.0,0.0,0.0
0.027577513976668803,-0.1750182348809045,0.7442824608334866,-0.007181685839995706,-0.524576696032794,0.0009591485284390469,0.8513323636523598,0.043204506213474596,-0.8636871935303758,1.040886771424339,-0.01611244616736365,-0.8712844598903001,0.8928306994874176,-0.029590416814383323,0.6678094181900315,1.09114498651419,0.10362567550348012,0.7762384016983608,0.9624339714296616,0.0,0.0,0.0,0.0
0.02670650186359263,-0.17603065084750474,0.744223474620665,-0.007226397976664926,-0.5242921263138176,0.0009789274920264765,0.8515072443371131,0.04577040104233822,-0.8593890008348417,1.0312638576845785,-0.019774090066765716,-0.8633447950133055,0.8931106971246721,-0.0385172031962585,0.6707020071317014,1.082335139631701,0.1124163272881182,0.7733143208270665,0.9672543159681002,0.0,0.0,0.0,0.0
0.025527197185325947,-0.17710890228456794,0.7441982359778203,-0.00729873136572928,-0.5239490491657063,0.0010284201053996484,0.851717714240399,0.04841049892936505,-0.8538305475917163,1.0189407811097426,-0.023354171961181877,-0.8553623363689168,0.8931266761384751,-0.047990375830607765,0.6733438712918873,1.0731422673921887,0.1217852898740024,0.7694481754055931,0.9723016148822641,0.0,0.0,0.0,0.0
0.024025032051318174,-0.17828593598702902,0.7442113721682846,-0.007410574438183946,-0.5235351948956612,0.0011186822992479567,0.851971086153733,0.05118190184845569,-0.8469084056966374,1.0036583103940824,-0.027033242865836936,-0.8475998348903698,0.8931222477118856,-0.05857552389270081,0.67579793495801,1.0638899518957927,0.13208364552840357,0.7646420639873759,0.977606271551781,0.0,0.0,0.0,0.0
0.02221754869775519,-0.17957435264747162,0.7442354849333634,-0.0075843050225573375,-0.5230367426853663,0.0012722474059455105,0.8522754399282809,0.05406791829287733,-0.838840561121772,0.9855648455198389,-0.031066999572262215,-0.8402297051878556,0.8935537798734607,-0.07147076027508413,0.6783833887973102,1.055000080003868,0.1436667865533554,0.7588859908264127,0.9833717092819498,0.0,0.0,0.0,0.0
0.02018790047992978,-0.18094684201355765,0.7442012815437736,-0.007859406996427702,-0.5224378339370986,0.0015321627853981659,0.8526397784938116,0.056914669887308415,-0.8304422249896781,0.9656623436195668,-0.03572863182434478,-0.8334398518373765,0.8951003983176125,-0.08902084364943925,0.6819339911312138,1.0471652026292875,0.15690105062981954,0.752249103903976,0.9899677197926493,0.0,0.0,0.0,0.0
0.018132512539633695,-0.18230089007973982,0.7439896947053342,-0.008304704675642633,-0.521695557393364,0.00198016565758707,0.8530890083808641,0.0593139417688164,-0.823701677683443,0.9466626267779539,-0.04122176989116956,-0.8275282684414674,0.8984072604149752,-0.11556586287823867,0.688237893549137,1.0413118533313164,0.17215406412901213,0.7449674047954368,0.9978183610698977,0.0,0.0,0.0,0.0
0.0164284114231565,-0.18343099785720526,0.7435067282640883,-0.00900760008381881,-0.5207348468983364,0.002739515427108485,0.8536665493163714,0.06052979740440276,-0.822042148103601,0.9338114365030702,-0.047619613788985035,-0.823369333597925,0.9038110468882232,-0.15674377072357495,0.6995474955258257,1.0382834299054724,0.18959505148645125,0.7379649681577113,1.0065704011794763,0.0,0.0,0.0,0.0
0.015342307037089917,-0.18423237314860338,0.7428999960398914,-0.009859808967063944,-0.5197259620216366,0.003752258759745047,0.8542678907239913,0.06039206724060668,-0.8254534570327677,0.928972435836879,-0.05329570545742376,-0.8243008267510286,0.913125336692572,-0.20651612159345306,0.7127010470024251,1.0389183104192397,0.20768927828996134,0.7329562207433931,1.014526251030194,0.0,0.0,0.0,0.0
0.015359012592070337,-0.18426369696931424,0.7428859566328209,-0.009867391602642694,-0.5197171758136947,0.0037719794838349608,0.8542730616834238,0.060409738238274904,-0.8254790572703985,0.9289185493077989,-0.05331541776146181,-0.8243008484173806,0.9131354559459588,-0.2065249999394654,0.7127204811879526,1.0389258920962692,0.20771790777695529,0.7328990631639554,1.0144878447737384,0.0,0.0,0.0,0.0
0.015359012592070337,-0.18426369696931424,0.7428859566328209,-0.009867391602642694,-0.5197171758136947,0.0037719794838349608,0.8542730616834238,0.060409738238274904,-0.8254790572703985,0.9289185493077989,-0.05331541776146181,-0.8243008484173806,0.9131354559459588,-0.2065249999394654,0.7127204811879526,1.0389258920962692,0.20771790777695529,0.7328990631639554,1.0144878447737384,0.0,0.0,0.0,0.0
0.016290397777069268,-0.18451148459006614,0.7429255890734341,-0.00963806210189234,-0.5208284571760022,0.0032631410989511843,0.8536007133694029,0.06226124509860842,-0.8215709492969558,0.9296018230089327,-0.051392049074624135,-0.8242901029967267,0.9179334882516934,-0.21500943177651385,0.7219339154876937,1.0394564412753589,0.20799696714821742,0.7388489109669067,1.0154585324610854,0.0,0.0,0.0,0.0
0.017975525734553046,-0.1850848250934157,0.7430930040550795,-0.009164002363911994,-0.5223945137150842,0.0022283036904881745,0.8526517623061116,0.06623602021266865,-0.816174212720873,0.9324277228352754,-0.04739373557191558,-0.8271136629022307,0.929600673553862,-0.2304127676277295,0.7380709316756661,1.0382804998349664,0.20712099682529994,0.7482397216562671,1.015760596322151,0.0,0.0,0.0,0.0
0.019740006616673057,-0.18693376871440803,0.743948166480488,-0.01060268225134352,-0.5217688815767029,0.004563356916617473,0.8530087884195128,0.05765676991448535,-0.8171040758938761,0.9178493576641393,-0.04826616075472216,-0.8351600782162933,0.9511424966101713,-0.1812533577770516,0.7336314422935455,1.020798084850999,0.16063239386314365,0.7240738518528973,1.023748545817125,0.0,0.0,0.0,0.0
0.021747250021065638,-0.18862624688412652,0.7445044674193589,-0.01151576346228486,-0.5219048322539576,0.005845152679806483,0.8529059546350927,0.048814417907592014,-0.8206004231047702,0.9088343950553511,-0.046928150798891885,-0.842768572453739,0.9719515687627978,-0.15202249015661431,0.7365537372967533,1.0075856024133134,0.11786952156300734,0.707112626980091,1.030993880702759,0.0,0.0,0.0,0.0
0.02375401111235579,-0.189999397866144,0.7447606601289839,-0.011851409727686238,-0.5225292761771985,0.006162754926630079,0.8525166978287956,0.041723594083374047,-0.8262951204571819,0.9054787564119093,-0.04410830499461736,-0.8500242349398754,0.9908083875989837,-0.13887043821341202,0.7439623296570712,0.9993731932655866,0.08732717555547234,0.6976984955403952,1.0390294062819496,0.0,0.0,0.0,0.0
0.025532815994199872,-0.1911566879427969,0.7448403068473791,-0.011951398666047707,-0.5232031923998814,0.006143608712253422,0.8521020124401119,0.036064691771041414,-0.8334221104762495,0.9046475755939377,-0.04105788125578142,-0.8567322638719387,1.0071661809450576,-0.13140617294196616,0.7514558483091924,0.9939359298187769,0.06621819662936734,0.6921199293834309,1.047688733663217,0.0,0.0,0.0,0.0
0.026986478970358867,-0.19218993955917313,0.7448697300173567,-0.01199273825647805,-0.5237703116096969,0.006078202410253921,0.8517534211031104,0.03133591028864601,-0.8412009120207771,0.9046502337909239,-0.03821545756394537,-0.8624821817131263,1.0207294254239765,-0.12493015285189465,0.7575248712241737,0.989528780331397,0.050786369010885214,0.6880545317489625,1.056617246289077,0.0,0.0,0.0,0.0
0.028095065071710553,-0.19315850704786244,0.7449241114394658,-0.012029948301950437,-0.5242125303005694,0.006042304042736617,0.8514810590856277,0.02710434409716397,-0.8491804006329505,0.9047417219714428,-0.03559452845476356,-0.8670535286085562,1.0315044093386505,-0.11793034597268279,0.7619858224773677,0.9852704701885956,0.0384656232567561,0.6843787843394615,1.0655616183398877,0.0,0.0,0.0,0.0
0.028873847176952468,-0.19410350790276373,0.745029821665484,-0.01206716508069026,-0.5245550364283826,0.006030500423899896,0.8512696578342087,0.023059534186980916,-0.8571623159704407,0.9045677695953849,-0.033071178316361,-0.870439390790641,1.0396989099218277,-0.11022228348914492,0.7650642908061643,0.9808585105244081,0.027811634449325974,0.6806311181208122,1.0743608772304118,0.0,0.0,0.0,0.0
0.029349881883819415,-0.19505771769940944,0.7451802315141212,-0.012089937837658294,-0.5248335800624205,0.00601047364042393,0.8510977739652255,0.019037129276051442,-0.8650200013124053,0.9039628100128503,-0.030484786932113934,-0.8727620055658065,1.045598674424794,-0.10212756841642642,0.7670631231182797,0.9763266313782667,0.01803559049719984,0.6766732876824617,1.0828908515272682,0.0,0.0,0.0,0.0
0.02954470264855321,-0.1960573765931251,0.7453482431119728,-0.012087826996007845,-0.5250674760245352,0.005962938720138893,0.8509538609240566,0.014961188031938702,-0.8725825254214229,0.9028438039307329,-0.027701331656211692,-0.8742400778533652,1.0495153429763007,-0.09374474238541407,0.7680668024287731,0.971845634030311,0.008814434374562419,0.6724755736071693,1.0909773227959574,0.0,0.0,0.0,0.0
0.029467729661980614,-0.19713846099818033,0.7454961400229916,-0.012046119150595173,-0.5252753852192277,0.005863964051462553,0.8508268182314217,0.010853633997964119,-0.8794517071416426,0.9012896313898853,-0.024577526346910003,-0.8750792049288046,1.05166391013027,-0.08522517215128116,0.7680874997156064,0.967702608478826,1.0905628630075367e-05,0.6680926566708564,1.0982934196316878,0.0,0.0,0.0,0.0
0.029106963570508848,-0.19834484925608334,0.7455803956651197,-0.011960608961637937,-0.5254549281758586,0.0057127628013377615,0.8507181828491417,0.006760541722826875,-0.8849652908232222,0.8994977139447087,-0.021006641639368065,-0.8754821009386701,1.0521632510242322,-0.07629297075638813,0.7668532116163244,0.9641874491973486,-0.008216793702047618,0.6636179188099997,1.104196200479476,0.0,0.0,0.0,0.0
0.028429439127585433,-0.19972321302143672,0.7455576063258074,-0.01183532426483566,-0.5255885918269932,0.005526597389837996,0.8506385918603476,0.002740028705986471,-0.8882262973614277,0.8978031065762883,-0.01691852443459057,-0.8755990353990777,1.0509936814433076,-0.0664066795535409,0.763898189714244,0.961561698275953,-0.015412182150096022,0.659314119133512,1.1075178685803588,0.0,0.0,0.0,0.0
0.027396536491127527,-0.20130642463255607,0.7453991181443635,-0.011665162563156795,-0.5256740537342544,0.005306323788091449,0.850589534464672,-0.0011008735133412788,-0.8883560924522003,0.896650556259341,-0.012238454293120822,-0.8754196485286704,1.047953743533313,-0.05543084094147343,0.7589651704656359,0.9600241720946733,-0.021047766338409914,0.6559220062914828,1.1064031633377727,0.0,0.0,0.0,0.0
0.02597897392065507,-0.20312012332416185,0.7451055323019586,-0.011451069388118506,-0.5257101126286348,0.005056229609608332,0.8505716813014594,-0.004694999844397158,-0.8853644984875547,0.8960204800429309,-0.0069160972519542166,-0.8748244114627827,1.0428134448125694,-0.04325315448866105,0.7519779063790494,0.9594799088440695,-0.025092855038389508,0.6534618822983395,1.100842168339098,0.0,0.0,0.0,0.0
0.024159395028623645,-0.20518441717706098,0.7447073678213553,-0.01120991680320081,-0.5256845528049333,0.004800991437462953,0.8505921697198723,-0.00806315038031167,-0.880182166552658,0.8953911785391097,-0.0009628685261220994,-0.8736229952407484,1.0353689606628877,-0.02955567839943689,0.7429502991841187,0.9594814706615212,-0.027959068596079113,0.651185774264085,1.0926501029803861,0.0,0.0,0.0,0.0
0.021926150152046082,-0.2074957771632263,0.7442482066120919,-0.010958345402663508,-0.5255932222054006,0.004561574875149924,0.8506532028226537,-0.011248225298244423,-0.8738021531619058,0.8943329496627394,0.005554619126614208,-0.8714989865064257,1.0253015125127034,-0.014349394486369332,0.7320832492229196,0.9595139245523177,-0.030011675997842154,0.6487631941860427,1.082936324580031,0.0,0.0,0.0,0.0
0.019271356398877896,-0.21002133907315348,0.7437657965046081,-0.010713210402390372,-0.5254378818734492,0.004355273413273458,0.8507533667336926,-0.014329704964390434,-0.8670012451473071,0.8926569359949881,0.012497751106114147,-0.8680616357185834,1.0121759130679,0.002030568945604907,0.7196498570006847,0.9592014480430776,-0.031556350882792496,0.6460436560641117,1.0722829100279863,0.0,0.0,0.0,0.0
0.01620203165458088,-0.2126944123714644,0.7432842691407933,-0.01049190486791435,-0.5252258001316874,0.004195479147649363,0.8508878755529385,-0.017438865879001023,-0.8602956479016205,0.8904362600550665,0.019646076667960026,-0.8629147047934106,0.995534592066334,0.01897044443113509,0.7059676627834915,0.9583919969065823,-0.0329314849155954,0.6429386615496264,1.0609581273591262,0.0,0.0,0.0,0.0
0.012759571253738677,-0.21541161163064595,0.7428071624003186,-0.010309606072632253,-0.5249715587341747,0.004087688525753263,0.8510475106275528,-0.02073581256667445,-0.8539501915231031,0.888002842422361,0.026703890770742325,-0.8557677878261855,0.9750758678849657,0.03561592517014624,0.6914043977685056,0.9572371885065905,-0.034625963347591035,0.6394102498086643,1.0490813961817855,0.0,0.0,0.0,0.0
0.009045485401068705,-0.2180389896586153,0.7423002263805141,-0.01018092784736732,-0.5246867084765505,0.0040451164689632325,0.85122490781753,-0.02436745979780785,-0.8479948502050126,0.8858891617540527,0.033283728224624866,-0.8466797781008842,0.9510008291008578,0.051151858508573275,0.6762359431082302,0.9563059179283592,-0.03721223756434514,0.6355662443523974,1.0367549883387734,0.0,0.0,0.0,0.0
0.005235311423777218,-0.22043732705975613,0.7416654968140083,-0.010101009867916913,-0.5243887912571288,0.004034746157600424,0.8514094702474123,-0.02876165290113197,-0.8421809228790516,0.8845910953708038,0.039120357736902325,-0.8363573740443673,0.9243635512424737,0.0645614656561874,0.6606833649405485,0.9568498354465889,-0.04198468133502371,0.6318319942219802,1.0239421346024338,0.0,0.0,0.0,0.0
0.0018228427808290662,-0.22253295051730493,0.7407687920715448,-0.010033824941339451,-0.5240510207594312,0.00400384013017276,0.85161835305626,-0.033505868926736564,-0.8358034327288515,0.8836523831122957,0.04420257162923223,-0.8278187628660455,0.9000820481500815,0.07531957201566633,0.6454888013546012,0.959974873437588,-0.05048659311349448,0.6291496403383379,1.0106338318991561,0.0,0.0,0.0,0.0
-0.0009300481073098972,-0.22406806099753573,0.7396695557337621,-0.009957799012075734,-0.5237767052229746,0.0039134421534325805,0.851788406985627,-0.03839852015464894,-0.830200543095648,0.8840836221946309,0.048025688454362524,-0.8213793919106591,0.8797175905967718,0.08208031030326449,0.6318698047846837,0.9662704582123588,-0.06493796952666472,0.6267697797733848,0.9968655739425953,0.0,0.0,0.0,0.0
-0.0026213976459920395,-0.224861874467853,0.7386141356058865,-0.009876731156366747,-0.5236030453530205,0.0037972275393529393,0.8518966381796104,-0.04211982350230657,-0.8272383128610569,0.8856709552775267,0.050118150654946195,-0.8180774403202633,0.8667461416005451,0.08461804140948771,0.6219549574475479,0.974030130421201,-0.0832924806708668,0.6247073080679083,0.983817673487084,0.0,0.0,0.0,0.0
-0.0026400554819540375,-0.22497344163973076,0.7385548383536141,-0.009793102267186174,-0.5236092266576335,0.0038102543369657126,0.8518937462318098,-0.042123129864437184,-0.8272644278309401,0.8856787315623165,0.05028487377149585,-0.8181505856793482,0.866568483779282,0.08463167750355985,0.6218705234606781,0.9739504667065865,-0.08330798090392888,0.6247399650749565,0.9838262986458862,0.0,0.0,0.0,0.0
-0.0026400554819514693,-0.22497344163972974,0.7385548383536165,-0.009793102267177622,-0.5236092266576569,0.003810254336966429,0.8518937462317955,-0.042123129864449216,-0.8272644278308174,0.8856787315622231,0.050284873771483767,-0.8181505856792246,0.8665684837791784,0.08463167750364978,0.6218705234607343,0.973950466706636,-0.08330798090392999,0.624739965075085,0.9838262986457933,0.0,0.0,0.0,0.0
-0.0026400554819514693,-0.22497344163972974,0.7385548383536165,-0.009793102267177622,-0.5236092266576569,0.003810254336966429,0.8518937462317955,-0.042123129864449216,-0.8272644278308174,0.8856787315622231,0.050284873771483767,-0.8181505856792246,0.8665684837791784,0.08463167750364978,0.6218705234607343,0.973950466706636,-0.08330798090392999,0.624739965075085,0.9838262986457933,0.0,0.0,0.0,0.0
-0.001029632734154524,-0.22601781583485137,0.7389787323702122,-0.009717564323957668,-0.5241086768409684,0.003871624128083035,0.8515871501673977,-0.03973848967854161,-0.8293875828139011,0.8952250151520234,0.052831779965162584,-0.8247899984073365,0.8832678946469864,0.0917859917619372,0.6293277569895372,0.9658959734228831,-0.07797778252183608,0.6326008237842943,0.9838567166838702,0.0,0.0,0.0,0.0
0.0020863203254820944,-0.2281227797556775,0.7406877243526339,-0.009319643192767598,-0.5250087206896602,0.003301929801707013,0.8510394143106126,-0.03307762337879985,-0.829506886829043,0.9113990579987604,0.05976062070019759,-0.8364988146601506,0.9155838059140593,0.10112828207391547,0.6499549042330202,0.9422594973417365,-0.0718376565598704,0.6503730200048233,0.9748987719009411,0.0,0.0,0.0,0.0
0.005201036378036545,-0.23027786466458752,0.7420669302396278,-0.009377208628436532,-0.5249141191646748,0.0035444915670310314,0.8510961591027442,-0.02834676416495853,-0.8375979257870061,0.9338232434425603,0.0539985154224757,-0.8336359502414841,0.904930416390062,0.07836815886152124,0.6457658677711976,0.9718134642995988,-0.05669761291175211,0.6673003645128943,0.9675182564899365,0.0,0.0,0.0,0.0
0.008856417805190316,-0.23252398618302372,0.7429476297050461,-0.009302005073976154,-0.5249116805701318,0.0034947742776669506,0.8510986939570474,-0.022665801041101732,-0.8481858778161706,0.9601145262351243,0.04655970453245939,-0.8349784180561446,0.8982048601966288,0.057229432351139246,0.6462922680709327,0.9956010273182769,-0.04305106276546707,0.683036011823238,0.9638349260082001,0.0,0.0,0.0,0.0
0.01255769222822438,-0.2348126572677949,0.7435612860400445,-0.009094631320177425,-0.5249871886950451,0.0032493469165366436,0.8510553337661654,-0.016348042886147243,-0.8581851242247298,0.9851981214571147,0.03942730903867282,-0.8387066671331685,0.8951580193785662,0.042539955700085015,0.6483960863360816,1.0145465930735549,-0.03045874331970004,0.6975669561129533,0.962146954476995,0.0,0.0,0.0,0.0
0.016011816434072745,-0.2370953105448443,0.7441086740511803,-0.008819048392585245,-0.5251066081196507,0.0029270901771515797,0.8509857264593923,-0.009779017245976865,-0.8661811155829304,1.0067713051949547,0.033393471723453166,-0.8438431820758951,0.8944474086771148,0.03291335304772726,0.6505752639356426,1.0303719372009368,-0.01806474526945718,0.7112937667714738,0.9608886606031884,0.0,0.0,0.0,0.0
0.01905951301190356,-0.2393268553922005,0.7446578673930915,-0.008525035162106828,-0.525219599497775,0.002589308857433423,0.8509200852950425,-0.0032266378710853784,-0.8719390818994965,1.024165611603434,0.02837490665868722,-0.8497829761841836,0.894763140552179,0.026254086152635053,0.6524291702716812,1.0441124418833903,-0.005488830955006876,0.7240733220649948,0.9595442158954403,0.0,0.0,0.0,0.0
0.021642793676995398,-0.2414666170312583,0.7452248069608466,-0.008241349979345948,-0.5253036729267309,0.0022667183822932136,0.8508719018442079,0.0031113563836067193,-0.8756234775260563,1.0374673503654335,0.024001609192479637,-0.856162403256644,0.8952772268502146,0.02113488218310296,0.6538899072395661,1.0564474418839218,0.007271585628740033,0.7357350102969018,0.9580176098255863,0.0,0.0,0.0,0.0
0.02376778745380545,-0.24348169799762528,0.7458059188121526,-0.00798235602769105,-0.5253531773154315,0.001972763866196032,0.8508445388433519,0.009095344767139673,-0.8775582365185596,1.047132714873241,0.01990587180611739,-0.862748445884351,0.8955101251180703,0.016735947368487426,0.6549849061511949,1.067809917985641,0.020009543125330015,0.7461862631615367,0.9563360616700325,0.0,0.0,0.0,0.0
0.025475177348834303,-0.24534976213448512,0.7463887720507919,-0.007754183265884572,-0.5253701089677282,0.0017123025827232333,0.8508367582944343,0.01463644098146586,-0.8781174153380668,1.0537605559109282,0.015830740401887866,-0.8693491942737085,0.8952121255315464,0.012608814796978486,0.6557780854797066,1.0784385653370054,0.03245670818712498,0.755404415418889,0.9545751581145419,0.0,0.0,0.0,0.0
0.026818006267095167,-0.2470595683758335,0.7469541520118897,-0.0075585969653945585,-0.5253583703214116,0.0014862456165623467,0.8508461913995458,0.019689251681982402,-0.8776697788362815,1.0579504059906173,0.011645711907070404,-0.875716884644656,0.8943044595576758,0.00849509059171525,0.6563555927191913,1.088379198769581,0.04437708606054634,0.7633901918041748,0.9528674397794309,0.0,0.0,0.0,0.0
0.02784514369519791,-0.24861004139139076,0.7474756510589426,-0.0073954832639680345,-0.5253205371634014,0.001294059088150129,0.8508712978310669,0.024243663366398625,-0.876545199438109,1.060206159086905,0.00732388654079429,-0.8814360026439173,0.8928748903356715,0.004205579535508802,0.656822679620039,1.097428799923048,0.05561646004568607,0.7701159537891378,0.9514315936012626,0.0,0.0,0.0,0.0
0.028589494875358987,-0.2500091831010923,0.7479200464158784,-0.007264701975894518,-0.5252562320647302,0.0011352065356025696,0.8509123492396179,0.028317617299191477,-0.8750076167288658,1.0608667329512287,0.0029077667426992493,-0.8858293279194395,0.8912083559936039,-0.00047231252654202083,0.6573250703819655,1.1050107886305687,0.06612537917056037,0.7754876873827012,0.9505898800142399,0.0,0.0,0.0,0.0
0.029062862573845907,-0.25127373024615457,0.7482522583371719,-0.00716731275488608,-0.5251618377854989,0.0010096936655991798,0.8509715942852222,0.03195362356743342,-0.873227658245245,1.0600698769358374,-0.0015249196784228591,-0.8879751813339183,0.8898004849420831,-0.005846238324721905,0.6581493804556101,1.1099757167177764,0.07596662941473298,0.7793493202085757,0.950733249892993,0.0,0.0,0.0,0.0
0.029264181021182115,-0.25242907198815867,0.748451419379471,-0.007104424571775719,-0.5250334496781398,0.0009160392093329539,0.8510514465898893,0.03522182707149629,-0.8712462090755824,1.0577834110800177,-0.0058829095007013835,-0.8870154618265234,0.8892410422598079,-0.012305769722040297,0.6599627179979055,1.1104340195695108,0.08528322119680598,0.7815834445494615,0.9521580722327188,0.0,0.0,0.0,0.0
0.02919535326922181,-0.2535044555971405,0.7485268284972406,-0.0070731453070356255,-0.5248678174116354,0.0008517911266091936,0.8511539339701653,0.03820259005683335,-0.8689884219867013,1.0539195803614072,-0.010082774958271201,-0.8829685794751753,0.8895458166451773,-0.019822239348942786,0.6627382911928068,1.1063763131759339,0.09422422315543458,0.7822303543585511,0.9548693123637768,0.0,0.0,0.0,0.0
0.02886282595265061,-0.2545334700072539,0.7485175110815135,-0.007067257802761068,-0.5246618287252274,0.0008141093758471976,0.8512810091689897,0.04098594192492007,-0.8662746063053224,1.0483488113581985,-0.014065499539855714,-0.8767367466515967,0.8901760275564399,-0.027984607174435412,0.6657726128907197,1.0996835156793014,0.1029509724016255,0.7814896053189915,0.9585830773992463,0.0,0.0,0.0,0.0
0.02826408590616518,-0.255557150888064,0.7484748068873167,-0.007082445758696485,-0.5244113514388313,0.0008001198657656392,0.8514352196452611,0.04368105734527836,-0.8628281748619203,1.0408127424551485,-0.017812295172941136,-0.8692890983442371,0.890704006760251,-0.036535054935399644,0.6687599236450504,1.0915330212895404,0.11169658081700971,0.7795964993960527,0.962928210932398,0.0,0.0,0.0,0.0
0.027381544849197213,-0.2566199229377528,0.7484435149037284,-0.007118817507494683,-0.5241085460690655,0.0008100449866605687,0.8516213349850887,0.046398178675655086,-0.8583432598112689,1.0309307171973596,-0.0213623361085047,-0.8613473687469685,0.8909291031608388,-0.04543329316266879,0.6715531603663368,1.0825932905536013,0.12076430915624935,0.776709214494258,0.9676210501237644,0.0,0.0,0.0,0.0
0.026190525267344493,-0.2577638746819654,0.7484519876087796,-0.007181906364217342,-0.5237420140350622,0.000848793521063713,0.8518462317255567,0.049230376710027744,-0.8525644267159779,1.0182976171774496,-0.024823826697235783,-0.8533595720748834,0.8908732751152685,-0.054896615135336044,0.6740874893828918,1.073265130465394,0.1304929239428263,0.7728892708589733,0.9725241533947777,0.0,0.0,0.0,0.0
0.024675431020738544,-0.2590207274685413,0.7485041868777339,-0.00728449607127933,-0.5232974267766062,0.0009285083811870882,0.8521184642513951,0.052228610888439,-0.8454012965671122,1.0026591230016486,-0.028385244787569243,-0.8455772702374099,0.8907574608964783,-0.0655237536825854,0.6764231639503572,1.0638782562427769,0.14122671565346834,0.7681259481114441,0.9776655046140152,0.0,0.0,0.0,0.0
0.02285342111290354,-0.26039888871024236,0.7485702701338705,-0.007450383696712359,-0.5227580173542188,0.0010735440007751736,0.8524478837899336,0.05536114635660651,-0.8371076286285584,0.9841943557467819,-0.03230659218730159,-0.8381514963276142,0.8909973310422253,-0.07857950227691626,0.6788861504761141,1.0548675181360692,0.15329644204234913,0.7623873036789848,0.9832501223720881,0.0,0.0,0.0,0.0
0.020808628736149637,-0.26186186932892647,0.748575353686248,-0.007721358533440332,-0.5221031149952382,0.0013299867997983647,0.8528463806980595,0.05844489683384538,-0.8285787297002298,0.9639888789303627,-0.036857755673994366,-0.8312314157154531,0.8921941450639008,-0.09654535573164796,0.6823438164081598,1.046946822043919,0.16701875956043247,0.7557054800612703,0.9896581222316855,0.0,0.0,0.0,0.0
0.018740790660838898,-0.2632896544462304,0.7483891897545135,-0.008171129449537821,-0.5212764630251921,0.0017867345686266994,0.8533468751445954,0.06101527583528417,-0.8219983146324711,0.9449683293810032,-0.042250236546870455,-0.8250396307238964,0.8947959459343509,-0.12403855792916675,0.6886804216456202,1.0410222819999289,0.18268708634835013,0.7482419818587752,0.9973355421368135,0.0,0.0,0.0,0.0
0.01700675511255864,-0.2644713667461056,0.7479089368206248,-0.008887405600311187,-0.5201979273963047,0.0025747479267961416,0.8539956094895325,0.06230477755580051,-0.8207929526293207,0.9322931826646846,-0.048544023379073216,-0.8204619308370225,0.8989462235748656,-0.1667185455741642,0.7000339644147656,1.0378919957022443,0.20046138705133915,0.7408086881016408,1.0060146734337108,0.0,0.0,0.0,0.0
0.015870920571302256,-0.2653030522247221,0.747248653309113,-0.009737298922181909,-0.5190448547801201,0.0035975191650117655,0.8546839659147943,0.06223111738956857,-0.8249046587477443,0.9277357398326477,-0.05440084606405435,-0.8208171433841326,0.9062094637337332,-0.21782586682040908,0.7128502038089422,1.0385116946592734,0.21831432466445516,0.734835046858333,1.0142879276995687,0.0,0.0,0.0,0.0
0.01589178678274079,-0.2653445961872591,0.7472347606957793,-0.009739035417574649,-0.5190331566926457,0.0036206568840903976,0.8546909525006863,0.0622613210496559,-0.8249315085699278,0.927680957864795,-0.054421558390056274,-0.8208166823555763,0.9062192523553407,-0.21783569812196746,0.7128694670408006,1.0385193055809767,0.21834478814679475,0.734776579723977,1.0142472150439692,0.0,0.0,0.0,0.0
0.01589178678274079,-0.2653445961872591,0.7472347606957793,-0.009739035417574649,-0.5190331566926457,0.0036206568840903976,0.8546909525006863,0.0622613210496559,-0.8249315085699278,0.927680957864795,-0.054421558390056274,-0.8208166823555763,0.9062192523553407,-0.21783569812196746,0.7128694670408006,1.0385193055809767,0.21834478814679475,0.734776579723977,1.0142472150439692,0.0,0.0,0.0,0.0
0.016821042280101704,-0.26567739486221364,0.7472898843974848,-0.009561911352054402,-0.5200957431477573,0.0032247841827756185,0.8540483525994602,0.06405961781876851,-0.8212881050226791,0.9284335004991563,-0.05256301904647278,-0.8210006301434073,0.9114260340715946,-0.2243171939251914,0.7214913531438938,1.038551696046403,0.22080574149691126,0.7411923824294435,1.0153155066439967,0.0,0.0,0.0,0.0
0.018485221068471086,-0.2663604372317867,0.7474108317971747,-0.009178186426286497,-0.5215478285563051,0.0023864127085841836,0.8531693433642067,0.06785400853829217,-0.8167694929999151,0.9316439493323583,-0.048783984455194086,-0.8243798400098495,0.9237505094876222,-0.2361775261868832,0.7360440323596211,1.037235579158186,0.22352043142329772,0.7509285874997156,1.0163202917863812,0.0,0.0,0.0,0.0
0.020347359754116993,-0.26813931880949404,0.7482332299839639,-0.010483035507252277,-0.5214010121475926,0.004397838404187727,0.8532360456024993,0.059804095779966815,-0.8166905131249449,0.9181531371204493,-0.04899389004290885,-0.8308747868491176,0.944036766481457,-0.19391625148426114,0.7352497812432016,1.021328415859641,0.17192887458271158,0.7275843652082952,1.0245606312148863,0.0,0.0,0.0,0.0
0.02242580345919107,-0.26987072140511853,0.748739268028896,-0.01138745412864477,-0.5217043093633743,0.005638125273965281,0.8530317409238344,0.05104458398625647,-0.8200254438447009,0.9093730456388199,-0.04744065317257969,-0.8382916980113613,0.9650462221835643,-0.16472997785581342,0.7387766419004002,1.00889182244343,0.12622915764892723,0.7104564364243315,1.0317656694154522,0.0,0.0,0.0,0.0
0.02448240193876893,-0.27135769159638323,0.7489705804950472,-0.011785200533564227,-0.5223276597785724,0.0060665833961291585,0.852641848283628,0.043905340307704994,-0.8257324328064505,0.9056932234409332,-0.04460060498982345,-0.8459299588596803,0.9847474373833918,-0.14891738534380636,0.7455842744190532,1.0005297284284103,0.0945770449010993,0.7005701571115568,1.0396992305903225,0.0,0.0,0.0,0.0
0.02630353572879251,-0.27263541220277226,0.7490400442342569,-0.011937539242181609,-0.5229810313747747,0.006147163089939081,0.8522385513252518,0.03827741078818632,-0.8328184545768995,0.9045748266413461,-0.04148722980635437,-0.8530689693111507,1.001958886597864,-0.13901161102991236,0.7525234062359257,0.9947111964178119,0.07303727905105237,0.6946746735412731,1.0483272168280675,0.0,0.0,0.0,0.0
0.02779556494585746,-0.2737653902148096,0.7490600651242124,-0.01200248794063707,-0.5235479541995057,0.006130673105954761,0.8518896024626754,0.033657382350614724,-0.8405366489667052,0.9044680983180645,-0.038518606367035725,-0.8591642403418224,1.0161985496563313,-0.13102866151243966,0.7583386261910924,0.990040813092634,0.05741924721222838,0.6905226688876804,1.0572992635464156,0.0,0.0,0.0,0.0
0.028939045928789178,-0.274801196107146,0.7491008240506574,-0.012041694787755807,-0.5240092648767665,0.00610337758601999,0.8516055640330162,0.02956506308417338,-0.8484733283385412,0.9045812975634653,-0.035749050825828445,-0.8639856123283974,1.0274633981433112,-0.12336341514473975,0.7627922545868155,0.9857042189417639,0.045002899126693446,0.6869275307974521,1.0663373346270841,0.0,0.0,0.0,0.0
0.029749129719158374,-0.27578949229573785,0.74918970063824,-0.012071861683891301,-0.5243774927559048,0.006082230854225633,0.8513786006908747,0.02565039704966958,-0.8564434502895649,0.9044833583042609,-0.03309532351417733,-0.867556116485017,1.0360141292282703,-0.1154606007494583,0.7659713445617905,0.9813402206927794,0.03430073389265185,0.6833383836430206,1.0752552044081405,0.0,0.0,0.0,0.0
0.030253451561388114,-0.27677012615221663,0.7493232327233902,-0.012086746462662426,-0.5246794957060593,0.006050105548238969,0.8511925361329468,0.021731587912384078,-0.8643133450554481,0.9039645566576363,-0.030415769471151925,-0.8700227355245894,1.0421874003579228,-0.10734694792164386,0.7680856876406176,0.9769078540961373,0.024510222031876375,0.6795585235192326,1.0839111214169068,0.0,0.0,0.0,0.0
0.030474701931051045,-0.277784465324756,0.7494771911763208,-0.01207914331554416,-0.5249316426864793,0.005993861248382197,0.8510375658163228,0.017731468139162,-0.8718966767727855,0.9029268728023321,-0.027578028787261955,-0.8716156879033482,1.0463274930641921,-0.09897727431095536,0.76918903462802,0.972526571095463,0.015294647666388047,0.6755316843285241,1.0921211139581346,0.0,0.0,0.0,0.0
0.030423155017556228,-0.2788723725955289,0.7496151501700767,-0.01203687928636794,-0.5251500539436729,0.005894458264111411,0.8509041013779258,0.013667724974647506,-0.8787928716181799,0.90143910132276,-0.02444061546515281,-0.8725528796758707,1.0486755183856393,-0.09039632614978366,0.7692659993905961,0.9684507327604561,0.0065286196787623565,0.6712983969618835,1.0995526935388846,0.0,0.0,0.0,0.0
0.030088253695794907,-0.2800780990003712,0.7496935213446241,-0.011954370750755776,-0.5253352301556911,0.005748420248480523,0.8507919514439869,0.00959037233033814,-0.8843344069803512,0.8997082278143402,-0.020889216931004595,-0.8730361765881545,1.049356452310404,-0.08136694547198436,0.7680701985964107,0.9649754113248193,-0.0016471158181882838,0.6669548734305903,1.1055613055969318,0.0,0.0,0.0,0.0
0.02943863569221722,-0.2814466507535113,0.7496680411452825,-0.01183217535299456,-0.525475037362372,0.0055663706733846885,0.850708528376762,0.005565943537960866,-0.8876170619179391,0.8980870915591773,-0.016841923094278885,-0.8732090857831935,1.0483461663181428,-0.07145517910865905,0.7651846582949983,0.9623896178181784,-0.008816356663642935,0.6627703390723572,1.1089781767381053,0.0,0.0,0.0,0.0
0.028436242942059473,-0.28301098293215055,0.7495089986292182,-0.011665131904200711,-0.525567090299343,0.005349156690180212,0.8506553619502105,0.0016977070533737378,-0.8877679306753679,0.8970179499919726,-0.012223942224373474,-0.8730687815181238,1.0454516663295976,-0.06051752192939771,0.7603457357783223,0.9609032265579138,-0.014456628417399666,0.6594779677671685,1.107944065304386,0.0,0.0,0.0,0.0
0.02705205974728011,-0.28479680152850456,0.7492161425164761,-0.011453866712159647,-0.5256102892340976,0.005100753083829865,0.8506330672543634,-0.001947820790446524,-0.8848000034034543,0.8964801430863981,-0.006984040513923007,-0.8725016353570958,1.0404487996835408,-0.048437323695345896,0.7534719513793672,0.9604321621756184,-0.01853926011575309,0.6570962265426064,1.1024488308321845,0.0,0.0,0.0,0.0
0.025268798806463783,-0.2868238128529126,0.7488191985050269,-0.011213454720262939,-0.5255942621010558,0.0048430205671423565,0.8506476798484021,-0.005384770761569334,-0.8796418304413973,0.8959589019589072,-0.0011277454214861102,-0.8713177025568489,1.0331322290961549,-0.03492545841291745,0.7445862207515871,0.9605476047879148,-0.021486372853474996,0.6548846855166833,1.094313033323739,0.0,0.0,0.0,0.0
0.023074160764976655,-0.28908938514657145,0.7483612765944894,-0.010959618794620651,-0.5255148493484784,0.004596062448205577,0.8507014200529436,-0.008651284433258681,-0.8732875735791154,0.8950262948371775,0.005282975995635624,-0.8692053038649675,1.0231853378547167,-0.0199806989112275,0.7338805654491856,0.9607428925548684,-0.02366057106456216,0.6525176559433923,1.0846506164934107,0.0,0.0,0.0,0.0
0.020458927311767336,-0.29156294074228034,0.7478803632177767,-0.010708946759052146,-0.5253724324660841,0.004377749973566641,0.8507937241007073,-0.011822565054453359,-0.8665157488379853,0.8934906692531739,0.012114457931753388,-0.865780442411748,1.0101772643415132,-0.0038999790807383167,0.721610042132938,0.9606362011419721,-0.025355839974964364,0.649846290495006,1.0740466585196804,0.0,0.0,0.0,0.0
0.01742819970912903,-0.29418098957851674,0.7474014243528366,-0.010478833786722857,-0.525172486215893,0.004202577644108569,0.8509209082549524,-0.015025534184871087,-0.8598456867476425,0.8914219093402592,0.019152423060760922,-0.860651893902911,0.9936526541059887,0.012742891634635475,0.7080753127153693,0.9600586170571865,-0.02689046479422822,0.6467832751441087,1.0627726379728644,0.0,0.0,0.0,0.0
0.014020880559404475,-0.2968436643741467,0.7469292460304257,-0.010284756425707507,-0.5249279798826146,0.004077378754784862,0.8510747409623383,-0.01841841455440016,-0.8535504955419105,0.8891524947809869,0.02610756713119805,-0.8535284592543402,0.97330481300636,0.029122696942952532,0.6936335038330608,0.9591369997845979,-0.028718363646800978,0.6432930916071482,1.0509535195944897,0.0,0.0,0.0,0.0
0.010335687154246247,-0.2994195662444658,0.7464316502710466,-0.01014072508497713,-0.5246517710240658,0.004013195173189978,0.8512470728998509,-0.02214314027689422,-0.847668001618892,0.8872321131490738,0.032604888321227064,-0.8444500850695283,0.9493096285203787,0.04440261251253487,0.6785797813469823,0.958415295380412,-0.03138423781117888,0.6394844580905493,1.0387037108144968,0.0,0.0,0.0,0.0
0.006547884050727128,-0.301770016522568,0.7458122925771864,-0.01004560130477993,-0.5243601597112629,0.003987179678959801,0.8514279835665561,-0.026571125895620953,-0.8419659557772546,0.8861997163422733,0.03835448127514022,-0.8341035822887315,0.9227085613287465,0.05763064890275461,0.6631217553741129,0.9591046963811999,-0.03600024227739532,0.6357921940243266,1.0260445377925849,0.0,0.0,0.0,0.0
0.0031514275772864054,-0.3038313062631293,0.7449329233298071,-0.00996601745622974,-0.5240249546320025,0.003945686340737307,0.8516354601461181,-0.03132961828408851,-0.8356841453153535,0.8855596706464443,0.04337325652586833,-0.8255483762029232,0.898467676552513,0.06830979246868449,0.647996248710292,0.9622954159084393,-0.04393615514950932,0.6332649010199335,1.0129951109974888,0.0,0.0,0.0,0.0
0.0004076366588224136,-0.30534740019368023,0.7438545519968329,-0.009884097900418633,-0.5237513733083701,0.003854386994416793,0.851805111083039,-0.03624513539590022,-0.8301864629767493,0.8863909202142243,0.04714939039635395,-0.8190700785655437,0.8781218649124176,0.07510477834175859,0.6344390299049676,0.9685345363480454,-0.05723920561772816,0.6311775453508364,0.999668025624664,0.0,0.0,0.0,0.0
-0.001280387876939129,-0.3061353076553982,0.7428209260390137,-0.009805831148386967,-0.5235788418791046,0.0037451218989155346,0.8519125636319651,-0.04002073185591902,-0.8273707148362553,0.8885033915602286,0.04921084830252038,-0.8156977774039413,0.865133976117118,0.07775234102093662,0.6245883432267443,0.9761413777308005,-0.07408110480249566,0.6294632324477285,0.9872280886161506,0.0,0.0,0.0,0.0
-0.0012993087184766038,-0.3062464251378801,0.7427626066915484,-0.009722233540992366,-0.5235848966880469,0.0037578787771394384,0.8519097443287276,-0.040023775043549786,-0.8273967413097458,0.8885113666926714,0.04937714253970932,-0.8157702030188649,0.8649574413342603,0.0777653658115974,0.6245044029404437,0.9760625149685909,-0.07409578352807625,0.6294961890432544,0.9872369321775742,0.0,0.0,0.0,0.0
-0.0012993087184766004,-0.3062464251378801,0.7427626066915484,-0.009722233540992309,-0.5235848966880472,0.00375787877713943,0.8519097443287275,-0.04002377504354984,-0.8273967413097449,0.8885113666926708,0.04937714253970926,-0.8157702030188642,0.8649574413342599,0.07776536581159756,0.6245044029404444,0.9760625149685911,-0.07409578352807646,0.6294961890432552,0.9872369321775738,0.0,0.0,0.0,0.0
-0.0012993087184766004,-0.3062464251378801,0.7427626066915484,-0.009722233540992309,-0.5235848966880472,0.00375787877713943,0.8519097443287275,-0.04002377504354984,-0.8273967413097449,0.8885113666926708,0.04937714253970926,-0.8157702030188642,0.8649574413342599,0.07776536581159756,0.6245044029404444,0.9760625149685911,-0.07409578352807646,0.6294961890432552,0.9872369321775738,0.0,0.0,0.0,0.0
0.0002943976501603889,-0.3072550230510742,0.7431851268595753,-0.009652218722320782,-0.5240788658666841,0.0038199751168128604,0.8516064729766523,-0.037723571776268526,-0.8295061201788918,0.8979777690948119,0.05182915785705389,-0.8222755180498964,0.8814094404681297,0.0847151714608127,0.6319052864985364,0.9681643854740053,-0.06873025804992729,0.6374112065063919,0.9870472321327833,0.0,0.0,0.0,0.0
0.0033754570855015643,-0.3092837544400207,0.7448684053722543,-0.009252593845171419,-0.5249747278399703,0.0032472125763816145,0.8510613257850278,-0.03124537599824647,-0.829603147126032,0.9139628324598711,0.05855549048502294,-0.8337593937647793,0.9132221900341024,0.09348645666844617,0.6523332047310945,0.9451057670608057,-0.06279808809872277,0.6550892772792278,0.9778874535166321,0.0,0.0,0.0,0.0
0.006459060970129932,-0.31136701845388093,0.7461816676225601,-0.009301935427690564,-0.5248772462881263,0.003467220445636076,0.8511200436534638,-0.026633942854880518,-0.8377901093677282,0.9362773741401453,0.05280729234473374,-0.8314763197749112,0.9032866704722369,0.07155278503631143,0.6480553201662563,0.9740333352352739,-0.047947093658773726,0.6716698819081317,0.9706728713241617,0.0,0.0,0.0,0.0
0.010084008317998952,-0.3135149543423866,0.7470378990388588,-0.009217326100000065,-0.5248695374049459,0.003399894756525112,0.8511259896863266,-0.021151192663575263,-0.8484202017397829,0.9625139165778606,0.0452748457003671,-0.833093138906742,0.8969260158401008,0.05118502268014061,0.648420842903497,0.9973975695790936,-0.03474823352797743,0.6872792046449071,0.9666784795826675,0.0,0.0,0.0,0.0
0.013739755334075829,-0.3157082969595788,0.7476461778620788,-0.009004548343102357,-0.5249432794628288,0.003143132640669779,0.8510837750616271,-0.015040257604032947,-0.8583256133156533,0.9873750834675497,0.03804740693816898,-0.8370016389226537,0.8940791059578089,0.036927213924864366,0.6503472458358729,1.0160872997225239,-0.022565213071121464,0.7017518261119885,0.964560486635632,0.0,0.0,0.0,0.0
0.017138869168720126,-0.31790367122331126,0.7481908394929162,-0.008727847212498646,-0.5250581467263757,0.002813983184132557,0.851016949735984,-0.008671697531099056,-0.8662090616347062,1.0086710586215386,0.03190919784761682,-0.8422479487175684,0.8934239078374879,0.027448845309240147,0.6523764978063306,1.031745041988355,-0.010516419743113473,0.715391030589465,0.9629150446095746,0.0,0.0,0.0,0.0
0.020127940572283096,-0.32005759266434464,0.7487364858782753,-0.00843578167423952,-0.5251643521055369,0.0024725353252492495,0.8509554203565435,-0.0023063251312618683,-0.871865667266279,1.0257808062362839,0.026782463992914726,-0.8482443698710039,0.8937106013406647,0.020778854673616967,0.6541054521255636,1.0453720521676804,0.0017748686525481672,0.7280469571692909,0.9612618260667524,0.0,0.0,0.0,0.0
0.022653335761332428,-0.32212972331547735,0.7492994961343674,-0.008155644624679619,-0.5252401911690376,0.002148182592575476,0.8509122236476672,0.0038629706086144647,-0.8754654686535245,1.0388132355437136,0.022306084457519727,-0.8546422117773503,0.8941518617492886,0.015578172665411272,0.6554562693512898,1.057626182934038,0.014298759847191029,0.7395630498025446,0.9594944735481125,0.0,0.0,0.0,0.0
0.024724169189818568,-0.32408727037890683,0.7498773201667797,-0.00790092855255456,-0.5252810710794417,0.0018538587936088532,0.850890083912849,0.009699010675271255,-0.8773290565319762,1.0482331520346972,0.018118617646748672,-0.8612205340046951,0.8942942078254006,0.011080356083885353,0.6564503735217254,1.0689263134774871,0.026844707683793073,0.7498658562424176,0.9576234390771801,0.0,0.0,0.0,0.0
0.02638286427434497,-0.32590757995778546,0.7504582410080745,-0.007676729139911335,-0.5252891828416071,0.0015932262460202466,0.850887656420892,0.015115712244238588,-0.8778272985687638,1.0546434122779136,0.013968557005344632,-0.8677991476431486,0.8939015001841718,0.006857082312008158,0.6571484160014006,1.0795017702019583,0.03913182078851727,0.7589421752037824,0.9557072072910449,0.0,0.0,0.0,0.0
0.02768342690250163,-0.3275793079365714,0.7510233349692791,-0.007484577701143023,-0.5252691564851771,0.0013672249849998614,0.8509021242409884,0.020067947856618418,-0.8773240030310903,1.0586417193602222,0.009726524690357629,-0.8741373312680402,0.8929048723486781,0.0026636667940131593,0.6576364819441978,1.0893924215474775,0.05092930665625156,0.766804319789384,0.9538698240669545,0.0,0.0,0.0,0.0
0.028674924205656063,-0.32910100981018703,0.7515463295159016,-0.00732384760520433,-0.5252234451252762,0.0011746038567183555,0.8509320268110558,0.024546744157034277,-0.8761461388549896,1.0607296542190043,0.005367290130853909,-0.879825726608468,0.8913954456508575,-0.0016887559244316034,0.6580191527477034,1.0983909329869526,0.06207813221568732,0.7734271148251602,0.9523216812932127,0.0,0.0,0.0,0.0
0.029390000258444102,-0.3304804977217332,0.7519941617505165,-0.007194231862304436,-0.5251516189183831,0.0010146161117638144,0.8509776675856179,0.02857030494287449,-0.8745540266592207,1.0612412026796931,0.0009338895606607672,-0.8841902975389189,0.8896594945415244,-0.006412117463858086,0.6584413653208535,1.1059172768133008,0.07253138432445103,0.7787192308251578,0.9513797138413911,0.0,0.0,0.0,0.0
0.029839828289002737,-0.33173440566482043,0.7523320383614688,-0.007096593476198976,-0.5250496261389205,0.0008868978918294279,0.8510415629477464,0.032181903844372584,-0.8727150061773022,1.060308286997599,-0.003494867510957317,-0.8863116040349932,0.8881911655925493,-0.011814805920957393,0.6591875103348956,1.1108185695098673,0.08235191267094215,0.7825239363888635,0.9514294210208215,0.0,0.0,0.0,0.0
0.03002255561161433,-0.3328882876454703,0.7525394950084051,-0.007031922918045415,-0.5249130925159418,0.0007897164040075986,0.8511264146490968,0.03545277112108652,-0.870665900640075,1.057891374842192,-0.007827110936502799,-0.8853326319274784,0.8875777451263984,-0.01828455750144664,0.6609218974419533,1.1112021434910275,0.09168490588358165,0.7847227439877148,0.9527625875781592,0.0,0.0,0.0,0.0
0.029939256389068126,-0.33397201286019634,0.7526263562723924,-0.006997288191929499,-0.5247383377400823,0.0007204827402417192,0.8512345127920715,0.03846518751133579,-0.8683264138333586,1.0538933542162252,-0.011979983557043371,-0.8812721763112465,0.8878338067722403,-0.025794970512813244,0.6636174564398175,1.1070582611609838,0.10068549367652359,0.785355401908803,0.9553806305738443,0.0,0.0,0.0,0.0
0.02959550017426813,-0.3350201642004896,0.7526322842630537,-0.006986493384183129,-0.524521730340343,0.0006762745478612359,0.8513681259970337,0.041311856271569136,-0.8655106680056373,1.0481738390450972,-0.015896771522605914,-0.8750322872373018,0.8884200765387686,-0.03394201978026362,0.6665718623405518,1.1002697409067863,0.10952368372487895,0.7846208657965374,0.9589963468205116,0.0,0.0,0.0,0.0
0.028987789436620524,-0.33607481427022723,0.7526092783412525,-0.006995318208167301,-0.5242584071552225,0.0006542142171874294,0.8515302461181243,0.04410445140518488,-0.8619365851011205,1.0404634466174825,-0.01956305444539404,-0.8675811786586781,0.8889065069889313,-0.04247388122189238,0.6694781350263215,1.0920156978163607,0.11844093596642088,0.7827525835405651,0.9632349228710961,0.0,0.0,0.0,0.0
0.028097422563916345,-0.3371811585567144,0.7526027028684754,-0.007024143338222151,-0.5239395279057789,0.0006547457958323014,0.8517262493408175,0.04695439310244231,-0.857295087003286,1.0303717157237877,-0.023024353471955566,-0.8596382735351227,0.8890867577211472,-0.0513580522474248,0.6721857089107632,1.0829663574663384,0.1277469681883055,0.7799049754834567,0.9678086777610879,0.0,0.0,0.0,0.0
0.02689856236701959,-0.3383812954966725,0.752641100696829,-0.007079032698949656,-0.52355239185121,0.0006833606524382268,0.8519637981165297,0.049953020605112176,-0.8513326094084241,1.0174880350630404,-0.026395961870066965,-0.8516465168839085,0.8889719075158774,-0.06082629344660868,0.6746256445353908,1.073525793571157,0.137781947973316,0.7761327525875052,0.9725764222948674,0.0,0.0,0.0,0.0
0.025374598786741785,-0.33970539165612196,0.7527277815234972,-0.0071736407091948775,-0.5230809354335233,0.0007532903610204168,0.8522524898283358,0.05314437106224901,-0.8439711083685404,1.0015633540738034,-0.029870534031481148,-0.8438472025700595,0.8887632621490517,-0.07150580711254477,0.6768568317816037,1.064030878685353,0.14888127274237692,0.7714132633007506,0.9775637255537443,0.0,0.0,0.0,0.0
0.02354216160906644,-0.34115752970169305,0.7528306576490655,-0.007333106361451624,-0.5225059128870364,0.0008907052998567176,0.8526036612595825,0.05648139696946897,-0.8354969020240892,0.9828049786423295,-0.0337024025139245,-0.8363722593156773,0.8888410699582004,-0.0847178957254142,0.6792135892439467,1.0549311547890179,0.1613500717093353,0.7656943351137384,0.9829767933031015,0.0,0.0,0.0,0.0
0.02148590031995112,-0.3426923867951429,0.7528697547477946,-0.007601386926462235,-0.5218025016668212,0.0011447962524294426,0.8530316861714936,0.05975248197679175,-0.8268776657415515,0.9623735922916308,-0.038138462237267495,-0.829337172807936,0.8897378935312801,-0.10305844046029078,0.682596896156969,1.046962930244987,0.17545786066718957,0.7589742264334207,0.9892053796741117,0.0,0.0,0.0,0.0
