zhuoxili-jackie/tripod-support-walk/examples/pcbB样数据/trajectory_trotting_acc_01.csv
root_pos_x,root_pos_y,root_pos_z,root_rot_x,root_rot_y,root_rot_z,root_rot_w,FL_hip_joint,FL_thigh_joint,FL_calf_joint,FR_hip_joint,FR_thigh_joint,FR_calf_joint,RL_hip_joint,RL_thigh_joint,RL_calf_joint,RR_hip_joint,RR_thigh_joint,RR_calf_joint,FL_foot_joint,FR_foot_joint,RL_foot_joint,RR_foot_joint
0.0,0.0,0.72963,-0.009919430704566214,-0.5230949929384007,0.0038044909978256812,0.8522081665329894,0.0,-0.81,0.872,0.0,-0.81,0.872,0.0,0.65,1.0,0.0,0.65,1.0,0.0,0.0,0.0,0.0
0.0015390682711705328,-0.0003703662794235291,0.7300416266332186,-0.009827786536573744,-0.5235363365968899,0.003767232050401566,0.8519383351142135,0.0010025888829679438,-0.8132098467597799,0.8830777365509979,0.0010025888829679446,-0.8154058214937783,0.8862785436671944,0.0016998480328645784,0.657716150692225,0.9946587136608662,0.0016998480328645827,0.657588525279539,0.9971070359978745,0.0,0.0,0.0,0.0
0.0043467189018279034,-0.001256488244096445,0.731105708474593,-0.009677842698642051,-0.5242794884741298,0.0035652243786850842,0.8514837910971264,0.0037648668263938435,-0.8175835666516763,0.9019677547283743,0.0037680195711375947,-0.8250571339102762,0.9126507545937353,0.005621756194228221,0.6733926912445986,0.9811145880958465,0.005640909373652518,0.672684290036819,0.98930426125964,0.0,0.0,0.0,0.0
0.007329061245169586,-0.0020047717110501318,0.7318800395923677,-0.00939446084995512,-0.5244479870795363,0.0033658957594819993,0.851384004841116,0.006067676704807816,-0.8268851145567448,0.9258833407069286,0.005846532194912028,-0.8270737098668532,0.9070108774105087,0.010047598207829014,0.6661442751717758,0.9988117554238223,0.007982561587994869,0.6854026691328495,0.981813457051781,0.0,0.0,0.0,0.0
0.010744836752940693,-0.0026451535881474955,0.732399465483128,-0.009119157056625887,-0.5245711922054799,0.003138810390965974,0.8513119599488943,0.008191123809910612,-0.8391585818185728,0.954157321316099,0.008435587267134859,-0.8317867537538423,0.9029177971780845,0.014900108049127883,0.6620059450382859,1.0134809931443833,0.00946313810711207,0.6981318620319,0.9753678633466513,0.0,0.0,0.0,0.0
0.014069334489163664,-0.0032691761074501086,0.7327712113849637,-0.008860359315304493,-0.5247503005270524,0.0029220123014128425,0.8512050739825758,0.010278611874275308,-0.8506014462669297,0.980519890590616,0.011199170041416249,-0.8381249134572887,0.9015547563758989,0.02020807585744957,0.6597354726685106,1.0262118005876042,0.01103264036200692,0.7102385485068369,0.9701005621776075,0.0,0.0,0.0,0.0
0.01704604204144014,-0.0038801200452732356,0.7330861633756378,-0.008618749631049121,-0.5249602797523473,0.002718684848935919,0.8510787452344388,0.012325690336146571,-0.8600309832581317,1.0029213981801657,0.013795897038908295,-0.8452816816481762,0.9018721371098386,0.02571859954049409,0.6581421567664177,1.037721543233856,0.012765041804313542,0.7212897124982749,0.9655183877035726,0.0,0.0,0.0,0.0
0.01955581230830928,-0.004454753614845597,0.7333928913524987,-0.008395673698173494,-0.5251706415766509,0.0025303211303608136,0.8509517655919752,0.01426018602404397,-0.8671904924026834,1.0208532842276508,0.016152060058399965,-0.8528338036748597,0.9028674413936223,0.031260145017834154,0.6566063238106835,1.0483476033736128,0.014504960132833547,0.7309967150006124,0.9613005574695921,0.0,0.0,0.0,0.0
0.021569804919988726,-0.004960197423762909,0.7337147990629618,-0.008194630305743958,-0.5253643100025803,0.0023609447987190655,0.8508346582910937,0.01597835989217681,-0.8722272200277486,1.0345396845529042,0.018297504968606777,-0.8605705877066581,0.9038644769052127,0.03673104373478174,0.6548382772137851,1.0583092645235024,0.016026285279563245,0.7392599176154742,0.9572384278175768,0.0,0.0,0.0,0.0
0.023111473439056437,-0.0053630253650593625,0.7340571967362558,-0.008020067089700824,-0.5255337327294767,0.0022157977586406306,0.8507320756428504,0.01737339774054056,-0.8754727253311541,1.0445355534837526,0.020271587351469392,-0.8683689018550136,0.9044512308360463,0.04206043754421818,0.6527325924347569,1.0677511110218973,0.01709728587663478,0.7460975490541072,0.9532098621172045,0.0,0.0,0.0,0.0
0.024229186124523617,-0.00563369832788332,0.7344109271428385,-0.007876354730995704,-0.5256768793827159,0.002100054848480737,0.8506452675988001,0.018351167396349788,-0.8773269898743202,1.0515022860527121,0.022094459765906366,-0.8761056056147473,0.9044093237336095,0.047188758161025766,0.6502900944248178,1.076739715847968,0.0175151179290632,0.7515734653728623,0.9491833279477632,0.0,0.0,0.0,0.0
0.024977019416105167,-0.0057476631371617725,0.7347543117451759,-0.007767308998911591,-0.5257942534336464,0.002018176816196333,0.850573923259706,0.018834875856550897,-0.8781954381462918,1.0560784009604962,0.02376990277562475,-0.8835702540436695,0.9036773376744555,0.052050271837596286,0.6475761814917618,1.0852270350594966,0.017118033918015318,0.7557357040712221,0.9452315592715077,0.0,0.0,0.0,0.0
0.025401237429547693,-0.005684801701056561,0.735054151304923,-0.007696279296988848,-0.5258868604674775,0.0019737756537250555,0.8505174198582363,0.01876351178280114,-0.878452275927004,1.0587990196268091,0.025294815120606336,-0.8903653377761798,0.9023557889041538,0.056543043776567325,0.6447030750903954,1.0929708272919556,0.0157855292042959,0.7585671922886248,0.9415469103383308,0.0,0.0,0.0,0.0
0.025531169693757988,-0.005428977477994615,0.7352672051579158,-0.007666721894348099,-0.5259551739146618,0.001969813528247453,0.8504754530510897,0.01808953972548534,-0.878412742391409,1.0600398175466084,0.026662144885520454,-0.8958226563152099,0.9007426579972029,0.06047658013258168,0.6418492436112558,1.0993963788977854,0.013440898559120167,0.759956322043054,0.9384472617648335,0.0,0.0,0.0,0.0
0.025375992908909482,-0.0049689113569031315,0.7353457746483226,-0.007682975810151853,-0.5259993049828597,0.002008962330871256,0.8504479214570414,0.016779934174415267,-0.8783040287618354,1.0599870700518934,0.027856482821722938,-0.8990275885785072,0.8993518598884214,0.06350810778177293,0.6393650450074527,1.1033881602209419,0.010066419297782032,0.7597137230149449,0.9363368764152756,0.0,0.0,0.0,0.0
0.024933622725244096,-0.004299447985230659,0.7352546213057095,-0.00774954353444736,-0.5260212872062361,0.0020923748505510555,0.8504335200051718,0.014822353198780041,-0.878230129835735,1.058672037512541,0.02885802989185889,-0.899129907542545,0.898797485466179,0.0651625801172194,0.6380068149899955,1.1031051418301656,0.0056985701014829705,0.7576862535147408,0.9355371451477669,0.0,0.0,0.0,0.0
0.024206875325402343,-0.0034151199494132888,0.7349870293800607,-0.00786563823158741,-0.526023462931143,0.00221840374341561,0.8504307889922432,0.012208694852450906,-0.8781999247826253,1.0561033410319072,0.029655461098724387,-0.8961658303298579,0.8991135915188273,0.06543330734022372,0.6377974214323783,1.098560636106115,0.0003236369792797454,0.7538672101708057,0.9360721833295159,0.0,0.0,0.0,0.0
0.023206204048649925,-0.002311277556471484,0.734565317889752,-0.00802475237043648,-0.5260083711275654,0.002382321120992178,0.8504381937561336,0.008938937659727756,-0.8781340270667776,1.0522843263295256,0.030257295892776613,-0.8910642793191443,0.8997747211442894,0.0647934053574426,0.6380232561000202,1.0916142839788834,-0.006115865922488772,0.748409675043818,0.9376601565659318,0.0,0.0,0.0,0.0
0.021938240246327352,-0.000993558123660451,0.7340260528498401,-0.008219566032740305,-0.5259809192181264,0.0025771572846725772,0.8504527439035153,0.005047200680041479,-0.8778415964059527,1.047103822066685,0.030692635874575623,-0.8848281245728434,0.9003901953891391,0.06361512057682851,0.638368788493001,1.0833911839233197,-0.01359922501826305,0.7415413505993064,0.9399184458454828,0.0,0.0,0.0,0.0
0.020401707798517525,0.0005196470546844454,0.7334042590745039,-0.008442174038695228,-0.5259472061806605,0.0027944562698569344,0.8504707267286828,0.0006068000855331442,-0.8770585726442378,1.0403240143554522,0.0310167675908788,-0.8782350448314836,0.9008445177796982,0.062174519231711474,0.6386852680240828,1.0744659268785022,-0.022005891723374398,0.7334714278750327,0.9425349817746032,0.0,0.0,0.0,0.0
0.018595998241685386,0.0021942530180377702,0.732729098555208,-0.008682415553212364,-0.5259157635954687,0.0030230392770749714,0.8504869702091183,-0.004259261029339882,-0.8754826765239359,1.0316408329119324,0.03132216689192511,-0.871827679660024,0.9013235673578829,0.060762331677355834,0.6388887249440431,1.065074284300953,-0.031126351961308578,0.7243912338868217,0.9453116517463044,0.0,0.0,0.0,0.0
0.016536177551557927,0.003976552011565817,0.732023452430995,-0.008925639644266622,-0.5259005704001846,0.003246947845235444,0.8504930219228088,-0.009364245019981786,-0.8728126405124285,1.0207837877161088,0.031727059761560095,-0.8660086438312805,0.9023470932396164,0.05982598700743847,0.6389432082658949,1.0552647832194542,-0.040684809618190376,0.714512628423386,0.9481683064440117,0.0,0.0,0.0,0.0
0.01427289346171071,0.00578973071831331,0.7313016023619436,-0.00914934087876533,-0.5259256596308387,0.003440997071715048,0.8504743674223838,-0.014440869610684675,-0.8688093559604151,1.007660711127614,0.032325063256469506,-0.8611518603711442,0.9048585264243714,0.060149357863324045,0.6388820550473404,1.0450115938671838,-0.050400974566219295,0.7041003170401511,0.9511624268178214,0.0,0.0,0.0,0.0
0.011915836213167715,0.007534298997932999,0.7305559310308274,-0.009312836712243571,-0.5260204835776737,0.0035389577516645445,0.8504135451103265,-0.019067747079035604,-0.863435593795896,0.9925987014794742,0.03316824934324645,-0.8577681057296063,0.9103351894772338,0.06286485967172957,0.6388926649918294,1.0343187245036929,-0.060314432571640215,0.6933408316607875,0.9545520233268727,0.0,0.0,0.0,0.0
0.009620320343553989,0.009104166236876534,0.7297536336987942,-0.009371876940319164,-0.5262656201948961,0.0035265523638525493,0.8502612706409259,-0.02296034680148775,-0.8567460761425801,0.9761725730495349,0.03517594613529822,-0.8569092754645045,0.9211529740848635,0.07082828758805072,0.6392049861713256,1.0230663923022818,-0.07018989808745604,0.6826568270146857,0.9589856911840541,0.0,0.0,0.0,0.0
0.007972035451916156,0.010437023954395464,0.7288142250404586,-0.009265647595209491,-0.5267108342674595,0.0032963456972298485,0.8499876345835642,-0.02574524613859164,-0.8512092301087021,0.9633302757533161,0.03786944922552591,-0.8599188814801169,0.9400046247944503,0.08632578791247925,0.6409045961713393,1.0116474865438387,-0.08110593822035674,0.6730580270714387,0.9647547830024452,0.0,0.0,0.0,0.0
0.007272322264386441,0.011234812632693443,0.7278886120839428,-0.008980552057953527,-0.5274938635150384,0.0028187780281003286,0.8495066969301306,-0.026600944355331096,-0.8465370888960841,0.9552553984257068,0.04209239249847933,-0.8704838356080663,0.9710198709442872,0.10885253264249788,0.6440844813099572,1.0007528302327278,-0.09171753413270438,0.6663710173336721,0.971622223559422,0.0,0.0,0.0,0.0
0.007238348711660855,0.011362314503043602,0.7278386920548583,-0.009109722707824215,-0.5275380330340794,0.0028053649933257297,0.8494779376664088,-0.026791532436549543,-0.8465883424705059,0.9551722376883574,0.04209936648807795,-0.8704978590632908,0.9710314953027436,0.10886419847096752,0.6440982173608878,1.0007550769994096,-0.09175036004121266,0.6663135969342758,0.9715907799032159,0.0,0.0,0.0,0.0
0.007238348711660855,0.011362314503043602,0.7278386920548583,-0.009109722707824215,-0.5275380330340794,0.0028053649933257297,0.8494779376664088,-0.026791532436549543,-0.8465883424705059,0.9551722376883574,0.04209936648807795,-0.8704978590632908,0.9710314953027436,0.10886419847096752,0.6440982173608878,1.0007550769994096,-0.09175036004121266,0.6663135969342758,0.9715907799032159,0.0,0.0,0.0,0.0
0.00800639710019395,0.012522028191058047,0.728082704883127,-0.009239050904098794,-0.5271157545760621,0.0029003572319517908,0.8497383180391639,-0.03002602358968961,-0.854737347708564,0.9684021535106928,0.038991756399138676,-0.8732829501340831,0.9763218428402103,0.10251588631040957,0.6466682974653968,1.0010056185358231,-0.09801422739056764,0.6688286681802652,0.9631392836643345,0.0,0.0,0.0,0.0
0.009943108023303927,0.014793082110626674,0.7296181229138179,-0.009781678168487528,-0.5272641496427232,0.0036001122564930303,0.849637495915455,-0.03749307714407606,-0.8646030685636128,0.9920951016306498,0.03160740000050058,-0.8706739441121628,0.9833319662011328,0.09602058064492061,0.6586450637885077,0.9925486992351279,-0.10603435972163935,0.6844636112130486,0.9388405842570094,0.0,0.0,0.0,0.0
0.01143007094086736,0.017055067042186758,0.7310303305084884,-0.009768682366152812,-0.5263739943221172,0.003451872465600077,0.850190023184635,-0.03457295265941425,-0.8501655547113938,0.9559991497132808,0.02626410250664339,-0.8739151531097347,0.992780283191811,0.07924298069208531,0.6695655716831751,0.9845279026838228,-0.08336637507921582,0.6704535147570684,0.9700542659375837,0.0,0.0,0.0,0.0
0.013621324292666869,0.019280419088008673,0.7321119516346697,-0.009949497594615567,-0.5258712743892849,0.0036020752627947726,0.8504983452797573,-0.031038756578922105,-0.8438792226049064,0.9329234306437514,0.020282454670500764,-0.8784907129415058,1.0063519680603854,0.06630862409839322,0.680838965286655,0.9786008234549358,-0.06518996768526553,0.6638127060605369,0.9937022767233323,0.0,0.0,0.0,0.0
0.0159493287782371,0.021471263159362423,0.7330264428167493,-0.010257264110116479,-0.5256929816972996,0.0039176420957178675,0.8506035090496558,-0.027835332005153597,-0.8435531480207615,0.920411681523351,0.01395359409313733,-0.8816987290320256,1.018992305686301,0.055418040859125405,0.6920376983444823,0.9740680604693958,-0.054274846663765065,0.6604983167135848,1.0118127980004414,0.0,0.0,0.0,0.0
0.01818282078757989,0.023549427622096587,0.7338444892608239,-0.010594209574504366,-0.5256507300676841,0.004273885870790135,0.8506237750041822,-0.02497715517086733,-0.8464884432054633,0.9137811890722872,0.007779861124683274,-0.8838521291810207,1.0300870168969267,0.045459556966787086,0.7028119662386999,0.9701210563417293,-0.04818925406117014,0.6587695511278941,1.026432594341896,0.0,0.0,0.0,0.0
0.020191553152688477,0.025480228040992516,0.7345972608431187,-0.010910960242222741,-0.5256571347738787,0.004612390270844475,0.8506140449486467,-0.022447707805213397,-0.8512029265334944,0.9102788250266084,0.001997106479321554,-0.8850703048295382,1.0392517717372065,0.035936146558781176,0.712875507400986,0.9664773166372643,-0.04473498036146829,0.6577722830044717,1.0389350395360026,0.0,0.0,0.0,0.0
0.021919156431066115,0.027246403429299036,0.7352993623654204,-0.011187451600811507,-0.5256739364108963,0.004909433749654441,0.8505984075726983,-0.020125269422926313,-0.8568940743169631,0.9082814244306447,-0.0032830982951718617,-0.8854609664171419,1.04640494468929,0.026719301876650104,0.722056239125221,0.9630390973275809,-0.04255489110801625,0.657045505558531,1.0501598977987519,0.0,0.0,0.0,0.0
0.023356303433751127,0.028839152815288305,0.735957151345511,-0.011419272740599347,-0.5256874454908288,0.005159352125345976,0.8505854989059297,-0.017853079661641322,-0.8631101062123087,0.9068361942453763,-0.008013854693721793,-0.8851494698292112,1.0516743996160245,0.017881056202790097,0.7302777929420187,0.9597728370240137,-0.04090325853085413,0.656358094790751,1.060602333133563,0.0,0.0,0.0,0.0
0.02451832911047263,0.030255080935137103,0.7365700759050159,-0.011609016737268055,-0.5256949455567788,0.005364408533527306,0.8505770265340669,-0.015500024732636095,-0.8695419248336794,0.9054030878408553,-0.012183184326810835,-0.884277237815238,1.0552905855305146,0.009568736800496734,0.7375128447706742,0.9566933538685014,-0.03938371027292683,0.6556251299488058,1.070516338620823,0.0,0.0,0.0,0.0
0.0254277134508825,0.031494866631130554,0.7371297821398312,-0.011761505251618213,-0.5256971987146623,0.005529292611967395,0.8505724832023337,-0.012988184398034711,-0.8758662737803483,0.9037211656932556,-0.01579850244646506,-0.8829885952036112,1.0574930956593516,0.0019274453000292608,0.7437308159423396,0.9538842876119096,-0.037770709438757856,0.6548525904112218,1.079940900456095,0.0,0.0,0.0,0.0
0.026100527070273393,0.03256275634569541,0.7376190794190347,-0.011880953278771535,-0.5256943146172419,0.005658105130731765,0.8505717585099011,-0.010292414645876003,-0.8816113534425956,0.9017572047887118,-0.018878309639436583,-0.8814122451766382,1.0584521739166648,-0.004947926619701105,0.7488518701771785,0.9515253963253321,-0.03589072623174969,0.6541037971389885,1.0886573091094927,0.0,0.0,0.0,0.0
0.026536428962305483,0.03346707163142748,0.7380123565035246,-0.01196889795277288,-0.5256832442561806,0.005752631746643235,0.8505767334097966,-0.007423135596084325,-0.8860616498692343,0.8996986206718294,-0.021449208225810354,-0.8796395229343139,1.058204879784457,-0.011048247712473931,0.7527170292830321,0.9499067385236865,-0.03352348010862733,0.6535055451035764,1.0960748922635921,0.0,0.0,0.0,0.0
0.026714348249586854,0.03422186915676257,0.7382806199408574,-0.012022779327486393,-0.5256564049664679,0.005811646731234352,0.8505921592968293,-0.004404682972067002,-0.8882784887272732,0.8979290693017296,-0.023548001592917436,-0.8776993293684064,1.0566192265450218,-0.016477297789915715,0.7550986339639917,0.9493926846383673,-0.030313210102425277,0.6533439119986977,1.101042989683294,0.0,0.0,0.0,0.0
0.026600603601214825,0.034848418800514876,0.7384076675270708,-0.012037634999662905,-0.5256045079418997,0.00583318026223416,0.8506238713925189,-0.0012697376633963283,-0.8873894160248584,0.8968797769542098,-0.02522857852378811,-0.8755158993065197,1.053417156072246,-0.021426265340110197,0.7558037709062844,0.9502588671779079,-0.025775286575133033,0.6542959624085067,1.1016892101358844,0.0,0.0,0.0,0.0
0.026165465039340738,0.03537008376799599,0.738405296368579,-0.012013057288470816,-0.5255217061287114,0.005816509236765198,0.8506754910437062,0.0019166288227587288,-0.8834030485174235,0.8965154117813882,-0.026547617504569618,-0.8728981298953146,1.048270126494598,-0.02605647472380646,0.7547932040222951,0.9525031054373669,-0.019962957780222005,0.6562898418122455,1.0979642952471822,0.0,0.0,0.0,0.0
0.02538550372996473,0.035813698497440385,0.7383127929585425,-0.011952692175296379,-0.5254046720574996,0.005761927575114347,0.8507490017158603,0.0050690962672506655,-0.8772187136515924,0.8963468146858866,-0.027567961550300196,-0.869550983308534,1.040814095911761,-0.03051161407925605,0.7521865700653253,0.9558472519213013,-0.013441463376210005,0.6585119827608242,1.0916495722531365,0.0,0.0,0.0,0.0
0.02423173477314667,0.03621544311885411,0.7381803747762125,-0.011856533265774797,-0.5252468084259254,0.005668554513041678,0.8508484473436085,0.008134227297972063,-0.8698127450957023,0.8959353878614053,-0.02837468783140115,-0.8651079158166566,1.0305852361782162,-0.03503880415286561,0.7481511163252909,0.9599293286419031,-0.0065977453355799374,0.6605375195392911,1.083832756080384,0.0,0.0,0.0,0.0
0.02266782090616894,0.036617576679595726,0.7380503730702769,-0.01171877449026489,-0.5250362770803235,0.005531910911938732,0.8509811843018283,0.011112519999651847,-0.8619380919421337,0.8950297284905048,-0.0290631512743013,-0.8592042378293355,1.0170458680049923,-0.039991843134784946,0.7428043057281204,0.9644746483334057,0.000387801509352065,0.6620911609563992,1.0750924871290575,0.0,0.0,0.0,0.0
0.020664002850173547,0.037061863140116114,0.7379469190334372,-0.011529719044582977,-0.5247592485724324,0.005345162215181637,0.8511558176135215,0.014059233941753943,-0.8540724489023964,0.8935793416191657,-0.02972513249539366,-0.8515563222833392,0.9997069825528179,-0.04574491434124665,0.7362037533524554,0.9693507343635348,0.007501302527683197,0.6629669172050358,1.0657290946724933,0.0,0.0,0.0,0.0
0.018221524696927414,0.03757935304871697,0.7378666488067287,-0.011280137433903778,-0.524406831797799,0.005102391338230928,0.8513778238043899,0.01707870540047545,-0.846438408942582,0.8917163774840846,-0.030429733935179924,-0.842068396967763,0.9783369237075348,-0.052552958645000036,0.728374801978873,0.974591545226084,0.014881749669497617,0.6630825167202004,1.05596326510844,0.0,0.0,0.0,0.0
0.015406461762673556,0.03817461316192597,0.7377660215189246,-0.01096971601631846,-0.5239871073657929,0.0048053522486701805,0.8516419935834051,0.020300027961987693,-0.8390061914722583,0.8897431241984668,-0.03119790560130898,-0.8309806391202408,0.9532726729761956,-0.06034600615445243,0.7193489149346928,0.980442737939217,0.02287224180373766,0.6626588333225892,1.0461328685151106,0.0,0.0,0.0,0.0
0.01239346531265521,0.03880329685688043,0.7375433063291823,-0.010620672498402973,-0.5235423769558616,0.004474867930590932,0.8519216844311993,0.0238067120006202,-0.8314482405778578,0.8880771817927248,-0.031971629233142965,-0.8190873503120362,0.925882300591273,-0.06847040005422309,0.7092061157969707,0.9874581679564624,0.03226039965892634,0.6625851760165286,1.0369105064817863,0.0,0.0,0.0,0.0
0.009585520131630497,0.03928851786800596,0.7370107736471662,-0.01025874460851452,-0.5230324654999455,0.004124992337912748,0.8522410355235881,0.028076136852549238,-0.8225065305172101,0.8855255310696588,-0.03237340412306298,-0.8094768818557768,0.9009680699130902,-0.07547515742099276,0.6980257135501527,0.9962312169250033,0.045524368073560535,0.6653829096481028,1.0287087682404057,0.0,0.0,0.0,0.0
0.007241878519365703,0.03962944506046032,0.736246508744754,-0.009952202354101174,-0.5225498204088503,0.003825875939929044,0.8525420819714845,0.0325340333523081,-0.8130936145655343,0.8821879363189529,-0.03255614437057891,-0.8025840521052364,0.8805386677630629,-0.0807053711268382,0.6870246820242065,1.00590879086227,0.06419992656558139,0.6712276713364148,1.0222770453009147,0.0,0.0,0.0,0.0
0.005699681177275731,0.039812202899036184,0.73552783303537,-0.00980436663354363,-0.5221504029066942,0.0036650906843657335,0.8527891874605161,0.03596694195877736,-0.8051058551027394,0.8769602023365425,-0.032654897448995183,-0.7988973883142659,0.8674516078865285,-0.08305547855709076,0.6783612237028485,1.0136983656360339,0.0867462152616031,0.6786975043870769,1.0179210732076278,0.0,0.0,0.0,0.0
0.005694197386153946,0.03978109126096953,0.7355020733478207,-0.009755637649053997,-0.5221397438119217,0.003656484806681775,0.8527963095516652,0.035990166722081336,-0.8051186518159575,0.876968153781933,-0.03258477663653077,-0.7989491659382251,0.8673121103549186,-0.0830636667906909,0.6782952440129567,1.013637387506859,0.08674462938218135,0.6787303681898046,1.0179330806846885,0.0,0.0,0.0,0.0
0.0056941973861539125,0.03978109126096954,0.7355020733478208,-0.009755637649053833,-0.5221397438119217,0.003656484806681849,0.8527963095516652,0.03599016672208122,-0.8051186518159583,0.8769681537819345,-0.032584776636531095,-0.7989491659382257,0.8673121103549195,-0.08306366679069051,0.6782952440129544,1.0136373875068627,0.08674462938218087,0.6787303681898045,1.0179330806846887,0.0,0.0,0.0,0.0
0.0056941973861539125,0.03978109126096954,0.7355020733478208,-0.009755637649053833,-0.5221397438119217,0.003656484806681849,0.8527963095516652,0.03599016672208122,-0.8051186518159583,0.8769681537819345,-0.032584776636531095,-0.7989491659382257,0.8673121103549195,-0.08306366679069051,0.6782952440129544,1.0136373875068627,0.08674462938218087,0.6787303681898045,1.0179330806846887,0.0,0.0,0.0,0.0
0.007088484885392981,0.039683203256481545,0.7358039567559665,-0.00970784831218967,-0.5225555118425143,0.003634238347747837,0.8525422494139439,0.036348001675893776,-0.808596020179871,0.8876894608915016,-0.032352346406898075,-0.8031217272932999,0.8789793873939998,-0.08384888666236114,0.6854710658741057,1.0100362876382771,0.08811932956563077,0.6857790237869108,1.0149730350595216,0.0,0.0,0.0,0.0
0.009608515917787773,0.039498497651295233,0.7365764492920002,-0.009661697892491475,-0.5232425901793071,0.003577425365924451,0.852121496879427,0.03709519418616508,-0.8143759373699183,0.9068071649851176,-0.03182771430347625,-0.8102756854227494,0.9000243742920289,-0.08502434073454149,0.6993334244419275,1.0012632018420446,0.0908095759466352,0.6994938968242248,1.0073167739120121,0.0,0.0,0.0,0.0
0.012428153998351617,0.03966031294523167,0.7371586930288799,-0.009127317912733164,-0.5235769251272087,0.0030137562448906835,0.8519241825510963,0.03804934976620269,-0.8232631956965369,0.9305739996160992,-0.027181755083331257,-0.8153542641484148,0.8992125445218849,-0.06049207663742091,0.6882407941614883,1.0139116302165654,0.08352710562632179,0.7099556883273637,0.9983259145912872,0.0,0.0,0.0,0.0
0.015620663500432962,0.04001028073353247,0.7375544935574889,-0.008696335743702014,-0.5238292372199711,0.0025847470868407773,0.8517749838194787,0.03825565359708217,-0.83541636551391,0.9588653738660224,-0.021911555668849458,-0.822170457789352,0.8979514175226656,-0.0401706923011336,0.6808167179307131,1.0247548657612677,0.0762037045920523,0.720897515859122,0.9896052354713863,0.0,0.0,0.0,0.0
0.018635687912214094,0.04032413007487683,0.7378359308577125,-0.008379059148515286,-0.5241219239716982,0.0022927492038686097,0.8515989334663819,0.03823645686300783,-0.8466042602697077,0.9846523383952177,-0.01698702083569996,-0.8300868723191593,0.8982193842894639,-0.025182016326128265,0.6760873699280766,1.035117186745648,0.0706064868139242,0.7314690013554921,0.9821292130190802,0.0,0.0,0.0,0.0
0.021259856121234058,0.04057695054125416,0.7380555660992948,-0.008141100878368612,-0.5244145342169065,0.002086916100949352,0.851421613279661,0.03815914870577708,-0.8559218118827284,1.0063109533416554,-0.012849637017221867,-0.8383613424181351,0.8993265976808233,-0.01383716693793646,0.6727878757799413,1.0451636306575618,0.06634212453248407,0.7409287424439089,0.9757619757465178,0.0,0.0,0.0,0.0
0.02340808082168826,0.04078477177219188,0.7382619164972586,-0.00795360395267183,-0.5246875045861145,0.0019318317172873612,0.8512555613572086,0.03805654374403412,-0.8630872020805612,1.023471942680382,-0.009365496803402469,-0.8466804369579252,0.9006576603061479,-0.004558744991809348,0.6700218587169441,1.0549033559027976,0.06287455419411432,0.7489849023868037,0.9701803236988413,0.0,0.0,0.0,0.0
0.025074267969091197,0.04098149970350954,0.7384865148236053,-0.0078014199827125515,-0.524931538163559,0.0018113349165810564,0.8511067718878245,0.037875730594160516,-0.8682053254628606,1.0364392483666525,-0.0062713383716982065,-0.8549414465241729,0.9017645951101436,0.003613619671682335,0.6672834354778444,1.064324620730975,0.059748261036168315,0.7556077488376899,0.9650604856083742,0.0,0.0,0.0,0.0
0.026295027943341525,0.041206211978909446,0.7387407081768941,-0.007678747810434903,-0.5251438720878165,0.0017204858529135932,0.8509770798142031,0.037527354755089136,-0.8715796266570838,1.0458145952302427,-0.0033588032239386173,-0.8631115252564289,0.9023601836432782,0.011180853972133243,0.6643362005012493,1.0734179868407385,0.05660266295876941,0.7608823756773025,0.9601700940183452,0.0,0.0,0.0,0.0
0.0271244620569628,0.041496905413929884,0.7390175411986485,-0.007584801861357118,-0.5253253755737689,0.0016595365092737667,0.8508660097204359,0.036914699152916494,-0.8735961090911346,1.052282483919442,-0.0005153647757180882,-0.8711345510868836,0.9022928113253453,0.018371863113708413,0.6611088233129359,1.082152352404529,0.05315585278795863,0.7649128418352836,0.9554016920885442,0.0,0.0,0.0,0.0
0.02761699967740452,0.041888189477157146,0.7392947301225214,-0.007521164448480595,-0.5254782576942182,0.0016307146217451026,0.8507722218936219,0.0359464169998541,-0.8746548668269933,1.0564869284668195,0.0022973930879614276,-0.8788449905389453,0.9015350412622557,0.02525813443032765,0.6576271758229191,1.0904196285058954,0.04918606248313162,0.7677596767886015,0.9507829014217636,0.0,0.0,0.0,0.0
0.02781566091028249,0.04241095734421015,0.7395370622958719,-0.007490574539423767,-0.5256044355525202,0.0016367947940490856,0.8506945336155559,0.03454003399827142,-0.8751287523699416,1.0589560947409289,0.005077759600939036,-0.8858726909642812,0.900201809027063,0.03179826427235034,0.6539790312262502,1.0979406600322166,0.044517171286979455,0.7693973120045889,0.9464805720679369,0.0,0.0,0.0,0.0
0.027744468925467808,0.043092217381989054,0.7396988812460723,-0.007496697073916418,-0.5257047202605967,0.001680590630136607,0.8506324248721322,0.03262303409018949,-0.8753331941989927,1.0600513655886876,0.007805843463238941,-0.8915642619129323,0.898593054703842,0.03782715352659532,0.6503235457676086,1.1041165168606701,0.03901614639179968,0.7696926142058831,0.9427966515106655,0.0,0.0,0.0,0.0
0.02740659447780965,0.04395370172923592,0.7397301541852543,-0.0075443739593735555,-0.5257791229888296,0.0017648584102381566,0.8505858460646111,0.030136581232614812,-0.8754966285448861,1.0599425123176,0.010449764743376184,-0.8950117844062575,0.897216796856546,0.04301548679216619,0.6469933057704477,1.1078134479159991,0.03260915526836082,0.7684287178484185,0.9401228909637044,0.0,0.0,0.0,0.0
0.02679450788206745,0.045009880130261255,0.7395934518929344,-0.007638654365476154,-0.5258293749710946,0.0018908284044541848,0.8505536691737551,0.027044536186180534,-0.8757252651809289,1.058646030784452,0.0129723429715373,-0.8953680477175601,0.8966788741081684,0.046896660792273746,0.6447326918269028,1.107177171684991,0.02528394111176155,0.7654255719750196,0.9387705942230979,0.0,0.0,0.0,0.0
0.025906964825125493,0.046273034456078325,0.739280236683781,-0.0077793527911400005,-0.5258577730228222,0.0020569914236281753,0.8505344513938939,0.02332108278041051,-0.876027557159776,1.056156172362307,0.015341159333658393,-0.8926700852503908,0.8970101026789089,0.049451422782350415,0.6435741230793259,1.1022239753161271,0.01699780013348788,0.7606573039174573,0.9387582001930861,0.0,0.0,0.0,0.0
0.024751990178025474,0.047752159561486734,0.7388113845573384,-0.007960386511684426,-0.5258669783028767,0.00225863431589727,0.8505265733345511,0.018955115454248224,-0.8763218385547066,1.0524642452574497,0.017544701015641682,-0.8878463229253382,0.8976863886180799,0.05112929228831974,0.6428285938034778,1.0948284158961736,0.007682727515324516,0.7542666668285238,0.9398007146551048,0.0,0.0,0.0,0.0
0.023335235370873536,0.049444189743529904,0.7382223617186018,-0.008174387935677407,-0.5258618348825372,0.002488498182145835,0.8505270820924198,0.013974768721568005,-0.8764156012709723,1.0474518286996504,0.019603242011282072,-0.8818986359668358,0.8983182447232003,0.05229253624889974,0.6422023972579697,1.0861260212190078,-0.0026393182969238365,0.7464780758414357,0.9415112466667401,0.0,0.0,0.0,0.0
0.021655588639547703,0.05133108394298758,0.7375477050336057,-0.008412861113322697,-0.5258481891008983,0.002737626328260868,0.8505324280644924,0.008453629428089773,-0.8760411723219835,1.04087511929883,0.021578060215449654,-0.8756027024170328,0.8987905398916879,0.05322407357899715,0.6415630235953776,1.0766936666371707,-0.013832930410379479,0.7375049836389728,0.94357247919543,0.0,0.0,0.0,0.0
0.019713565273152694,0.05337613116391456,0.7368169028057302,-0.008664478261784818,-0.5258341828046168,0.0029941475592466984,0.8505376970429032,0.0025233689209050968,-0.8748878268407125,1.032421485515545,0.02357991264901781,-0.8694981294245271,0.8992898080269461,0.05423913808151131,0.6408369184657237,1.0667606918329873,-0.025657517569450197,0.7275504051079413,0.9457824228698749,0.0,0.0,0.0,0.0
0.017526089969091413,0.05551929249657136,0.7360540724517634,-0.008912724957965967,-0.5258332086483877,0.003241033540979642,0.8505348292209738,-0.003609771260494791,-0.8726390156230969,1.021806167847007,0.025746852688814544,-0.8639822676298766,0.9003376181313754,0.055833079543151976,0.63999032213051,1.0563587669004426,-0.03779182748168618,0.7168424053801533,0.9480619189053453,0.0,0.0,0.0,0.0
0.01514597804010794,0.05767317790185877,0.7352752606893702,-0.009132162947002613,-0.5258681985924957,0.003450855152735528,0.8505100428023809,-0.009644944858130193,-0.8690332555539736,1.0089143615415976,0.028170129688312683,-0.8594181628310084,0.9028774762085108,0.058869423591441934,0.6390443257680645,1.0454320160120907,-0.04990657599168337,0.7056566609352175,0.9504812008368286,0.0,0.0,0.0,0.0
0.012684025775065123,0.05972388489199172,0.7344725990061923,-0.009275525065601472,-0.5259641221103339,0.003544181936306912,0.850448790734554,-0.015089508738025474,-0.8640071061542762,0.9940398704624972,0.030863135853782146,-0.8563147195478015,0.9083713813035968,0.0645260822797157,0.63816228768901,1.0339485362877172,-0.062080818468877856,0.6941263582241841,0.9533325386976583,0.0,0.0,0.0,0.0
0.010302406033917473,0.06156473621064502,0.7336118126336805,-0.009297312655708451,-0.5261995887322507,0.0035207319407025107,0.8503029796737125,-0.01969675931696296,-0.8576867997920442,0.9778481851552838,0.034851657005423246,-0.8557173622633281,0.9190971294981316,0.07602767158336461,0.6375450919798598,1.0216592754819187,-0.07400577925566798,0.6827100095910912,0.957287288996266,0.0,0.0,0.0,0.0
0.00858884553852527,0.06310536534618494,0.7326153733422811,-0.009129464110788195,-0.5266260882045405,0.0032553006831873292,0.850041774929265,-0.02297282484883311,-0.8524417165221627,0.9651803799937145,0.03938918754884187,-0.8590806296109712,0.9378051555323326,0.09566960502294937,0.6381430018623464,1.0089248268495592,-0.08678053968533281,0.6723701203276368,0.962707475178869,0.0,0.0,0.0,0.0
0.007852618744623886,0.06402614780271851,0.7316287904017771,-0.008767679948893232,-0.5273820459192848,0.0027284672160214716,0.849578637264941,-0.02406694894363851,-0.8480257439036601,0.9572565512326082,0.044885978015761004,-0.8701157320841305,0.9686971783039254,0.12227146231960993,0.6402723464805615,0.9965013341862182,-0.09886867857544339,0.6649438120915732,0.9695144980066125,0.0,0.0,0.0,0.0
0.007816236183359967,0.06416631726498294,0.7315723790506802,-0.00890379410828436,-0.5274316754384297,0.0027124341492989878,0.8495464630587746,-0.024275938812952733,-0.8480808079013613,0.9571707257133946,0.04489614049031543,-0.8701302626818461,0.9687086551509331,0.12228433600121298,0.6402859364653706,0.9965031115226395,-0.09890297777981373,0.6648791774086829,0.9694792256415644,0.0,0.0,0.0,0.0
0.007816236183359967,0.06416631726498294,0.7315723790506802,-0.00890379410828436,-0.5274316754384297,0.0027124341492989878,0.8495464630587746,-0.024275938812952733,-0.8480808079013613,0.9571707257133946,0.04489614049031543,-0.8701302626818461,0.9687086551509331,0.12228433600121298,0.6402859364653706,0.9965031115226395,-0.09890297777981373,0.6648791774086829,0.9694792256415644,0.0,0.0,0.0,0.0
0.00860719391219653,0.06537568969504147,0.7318422326353482,-0.009075736266156539,-0.5270417846900933,0.0028268508551731464,0.8497862067109297,-0.027655795988772085,-0.8562579367914347,0.970636016792669,0.04163909032540156,-0.8726057664776427,0.9738317787511986,0.1161471190580979,0.6429835660117512,0.9967641359826256,-0.10506911998477256,0.6678029480464209,0.9606150912208214,0.0,0.0,0.0,0.0
0.01058410616445209,0.0677583605721004,0.7334475612197109,-0.00962547225887144,-0.5271874071454257,0.003521675583359471,0.8496872282388164,-0.03539252398495646,-0.8663573295667364,0.994995381201399,0.033992962524853926,-0.8698314769042664,0.980895004726106,0.1091611828565174,0.6553716860906507,0.988131623308192,-0.1137950291108478,0.6839099593883607,0.9350708519080064,0.0,0.0,0.0,0.0
0.012086416439580087,0.0701560227254739,0.7349003142427429,-0.009641625469433191,-0.5263427871687731,0.0033733739580562743,0.8502111089616824,-0.032776980010382525,-0.8514277656754058,0.9583080370013805,0.02832585148305615,-0.8724710246793689,0.9897824499875854,0.09192346759767735,0.6666191522631819,0.9803895542394502,-0.09004517433007295,0.6699699938178829,0.9673796680851863,0.0,0.0,0.0,0.0
0.014293858053735389,0.07253455513193995,0.7360051485670493,-0.009827177099183787,-0.5258564382769921,0.003511563161484236,0.8505093190771399,-0.0295530559629912,-0.8449362529247058,0.9348986013538874,0.021995863269939856,-0.8766925092877812,1.002974937588621,0.07815447045678978,0.6781238778430664,0.9749097008969252,-0.07113006385186826,0.6633154539026376,0.9917265270670319,0.0,0.0,0.0,0.0
0.016645814321336626,0.07487592541474547,0.7369339250124746,-0.010130372178466763,-0.5256768827682782,0.0038104498241998946,0.8506154659743079,-0.026606247850482906,-0.8445132268197241,0.9222026339074357,0.015330075246388398,-0.8797298004472797,1.0154229778709867,0.0663173451120312,0.6895154012331111,0.9708421206000261,-0.05989393161930408,0.6599504738718363,1.0101887630522082,0.0,0.0,0.0,0.0
0.01890991329423341,0.07709216346389942,0.7377640936291017,-0.010464391775775062,-0.5256315841088177,0.004153522676204357,0.8506378092592617,-0.023972864213238153,-0.8474040332050751,0.9155148465141537,0.008839598258846285,-0.8817645024022351,1.0264087368109642,0.055479720861577146,0.7004861597732904,0.9672995827109698,-0.05377492124353024,0.6581726626673225,1.02497149344744,0.0,0.0,0.0,0.0
0.02095412404024921,0.07914320270242384,0.7385278357521683,-0.010782164093735114,-0.5256377418149789,0.00448411799912742,0.8506283571589153,-0.02163755684600748,-0.8521002855156564,0.9120363253714433,0.002771631005056398,-0.8828833525871231,1.0355187295435044,0.04521246539144118,0.7107529973991288,0.9639819926517673,-0.05044076634463213,0.657153850548332,1.037540692482023,0.0,0.0,0.0,0.0
0.02271975688790208,0.08100989172997965,0.7392392008056726,-0.011062814163500667,-0.5256577804206019,0.004777539042471032,0.8506107730018282,-0.019476763718193298,-0.8577875898196127,0.9101073902567912,-0.002754138070245166,-0.8831903993974315,1.042659780861737,0.035399082395503635,0.7201357177852269,0.9607992502391445,-0.048443169086461305,0.6564402507939876,1.0487877291528747,0.0,0.0,0.0,0.0
0.02419467713976772,0.08268359172363862,0.739904055946913,-0.011300888197829614,-0.5256762918074473,0.005027554545203399,0.8505947624179251,-0.017336149554415387,-0.8640109292703898,0.9087470530638508,-0.007689550185235114,-0.8828151299947156,1.047951305395461,0.02611080421480589,0.7285408706062109,0.9577284008020058,-0.046974538656025466,0.655793278552733,1.0592343959988029,0.0,0.0,0.0,0.0
0.02539166415491545,0.08416298091576374,0.7405218226499519,-0.011496754988792619,-0.5256898924627267,0.00523365755612434,0.8505824888956036,-0.015084216367015036,-0.8704552061919975,0.9074004381153896,-0.012021330702254886,-0.8818978425699527,1.0516090668836575,0.017454803870774763,0.7359393961042671,0.9548013915261881,-0.04562097686669348,0.6551154507471396,1.0691475590303574,0.0,0.0,0.0,0.0
0.026330944283572577,0.08545086653867459,0.7410845008213809,-0.011654220991095076,-0.525697720851135,0.005399662420989661,0.8505744700323142,-0.012646911527645542,-0.8767953687730985,0.9057952480862962,-0.015760401312188532,-0.8805821129123474,1.0538608147711912,0.00955412813767424,0.7422928142887061,0.9521104876263737,-0.04414267115322835,0.6543992724143011,1.0785716256225475,0.0,0.0,0.0,0.0
0.02702711838671056,0.08655345176047889,0.7415753998077039,-0.011776831729937732,-0.525698726935751,0.00552907042699247,0.8505713280570588,-0.010002357568081524,-0.8825573829800274,0.903891545036176,-0.01892898219241309,-0.8789949346145415,1.0548678441883304,0.0024859986821024645,0.7475169535906634,0.949840866155525,-0.04236191984131605,0.6536976617911786,1.0872905661960346,0.0,0.0,0.0,0.0
0.02747934763327469,0.08748052576895209,0.7419692115926345,-0.011865741601883162,-0.5256895392853587,0.005623186054798332,0.8505751537875873,-0.007163045973114198,-0.8870233985378468,0.9018748570970441,-0.02155631906610807,-0.877225823422036,1.0546625378760004,-0.0037531578195290696,0.7514525754620727,0.9482875423685276,-0.040059464201508334,0.6531330088661563,1.0947165074667395,0.0,0.0,0.0,0.0
0.02766698804905429,0.08824685449082144,0.7422368660608215,-0.011918463051858159,-0.5256630354974406,0.005680710171892249,0.8505904142900041,-0.004154911297811384,-0.8892529599004392,0.9001303003887391,-0.02368072419503069,-0.8753024154739742,1.0531130852255137,-0.009269498649321199,0.7538733905041177,0.9478200357812046,-0.03687924151051755,0.652993854888895,1.0997031163245021,0.0,0.0,0.0,0.0
0.027557456650082062,0.08887370320748819,0.7423617134238093,-0.011930241982262484,-0.5256109721676828,0.005699619570434889,0.850622295498972,-0.001011158069966041,-0.8883720186297749,0.8990923096171093,-0.025355725662353782,-0.8731493484322885,1.0499461212107757,-0.014251881085435065,0.7545899407032559,0.9487199413702261,-0.032334137790535906,0.6539640944561776,1.1003831868540983,0.0,0.0,0.0,0.0
0.027122577617337284,0.08938368214396243,0.7423548382710349,-0.011900585993237766,-0.5255285865481854,0.005678754272614667,0.8506737521068787,0.002205948940105833,-0.8843886131479965,0.8987289440075586,-0.02663494578057026,-0.8705809760575379,1.0448446087405345,-0.01886052001674979,0.7535686892298458,0.9509903603963692,-0.02648265911526408,0.6559755356085619,1.0967095645703415,0.0,0.0,0.0,0.0
0.026340617716470144,0.08980165218214396,0.7422545953507138,-0.011834038963366504,-0.5254122321248432,0.005619852576386995,0.8507469418766211,0.005412392096977427,-0.8782073183328347,0.8985504933384116,-0.02757971418365369,-0.8673149280302623,1.037465230589236,-0.023206448135704234,0.7509222415797324,0.9543514941269413,-0.019887480025590078,0.6582143348671883,1.0904623203304278,0.0,0.0,0.0,0.0
0.025184685158224515,0.09016175993434584,0.7421100790701944,-0.011731425782944458,-0.5252564795356506,0.005522843825216885,0.8508451695526021,0.008558791875573575,-0.8708068095498309,0.8981221198037654,-0.02827182165595204,-0.8629926417870983,1.0273621272816107,-0.02751189516988533,0.746818422486104,0.9584444286822559,-0.012940116916408773,0.6602623125059637,1.0827297460827243,0.0,0.0,0.0,0.0
0.023620680007773814,0.0905046049651456,0.7419623056146442,-0.011588152209776895,-0.5250520142960627,0.005384043039901023,0.8509742117670516,0.011650184477937288,-0.8629413951509934,0.8972023501289065,-0.02880413626888884,-0.8572499174210226,1.0140091553944124,-0.03211026430544655,0.7413797695668666,0.9630035522792758,-0.0058319254918686595,0.6618589963225869,1.0740929855025185,0.0,0.0,0.0,0.0
0.021620392006451723,0.09087098368395434,0.7418342755535209,-0.011396909909717593,-0.5247868629283389,0.005199149842345071,0.851141485173446,0.014741583440922012,-0.8550935919016742,0.8957522481806804,-0.029271981772180464,-0.8497980417747072,0.9969215927644103,-0.037341905206954185,0.7346601591615076,0.967905088168493,0.0014154517911925584,0.6628138871762418,1.0648529899639645,0.0,0.0,0.0,0.0
0.01918523799086547,0.09129341799624616,0.7417220698304566,-0.011150468814741497,-0.5244535704210926,0.004964182179763175,0.8513515586484032,0.017933431979085045,-0.8474916297350417,0.8939210973376617,-0.029753092866126343,-0.8405272124908099,0.975855848238015,-0.04345895671940742,0.7266842231965742,0.9731970511882456,0.008920080805963371,0.6630532452834855,1.055224584229687,0.0,0.0,0.0,0.0
0.016379354044080745,0.0917816532755635,0.7415824519221497,-0.010848974289879833,-0.5240592444254305,0.004681373510879398,0.8515998431371133,0.021344303422835886,-0.8401165706582163,0.8920330856997137,-0.03028368011521201,-0.8296614189623167,0.9511212509969681,-0.05043811489227451,0.7174825230985129,0.9791427167849964,0.01698860772882582,0.662786135232469,1.0455257157026059,0.0,0.0,0.0,0.0
0.013373594220198237,0.09230073496120886,0.7413151438343287,-0.010511201081168998,-0.5236397612540835,0.004368310130842345,0.8518637408366425,0.025047643917823492,-0.8326565899318371,0.8905209410032665,-0.03082407084458693,-0.8179996174273685,0.9240628043740399,-0.057743443123684624,0.7071331579140535,0.9863079691809649,0.026331948469993524,0.6628533029299638,1.0363797299733872,0.0,0.0,0.0,0.0
0.010549360273241791,0.09269675906185297,0.7407365673513302,-0.010159186090986962,-0.5231519105796396,0.00403663697087013,0.8521693346728729,0.029445137785614903,-0.8239448667849175,0.8883074741283603,-0.031048203880021812,-0.8084840659280793,0.8992135599227068,-0.06411151126191036,0.6956824653691128,0.9953290251140309,0.039167809992282414,0.6656018770943644,1.0281481300350608,0.0,0.0,0.0,0.0
0.008189218671127369,0.09297119347310731,0.7399205790810108,-0.009855485682960106,-0.522682356629708,0.0037487887287237834,0.8524622983176647,0.033993947412409166,-0.8148586714484544,0.885520153022624,-0.031098229592845788,-0.8017184228405116,0.8788338364578903,-0.06896011089624743,0.6844037991334324,1.0053516388955441,0.05689734159121803,0.6712783067752398,1.0215353805555434,0.0,0.0,0.0,0.0
0.0066382394976895135,0.09312430641974997,0.7391539471467825,-0.009697117594166596,-0.5222923430053183,0.0035841365366614886,0.8527038338800091,0.03745697973765529,-0.8073528164282538,0.8812193018900615,-0.031124383671741054,-0.7981637927843088,0.8657870159105383,-0.07135731245837071,0.6755700528486137,1.0135400380959512,0.07793691054552412,0.6785060852279909,1.0168577786524968,0.0,0.0,0.0,0.0
0.006631715366176102,0.09309038057879103,0.739127208790458,-0.009646521565409795,-0.5222824169861648,0.0035761885591663782,0.8527105208710439,0.03748023619642911,-0.8073661439056442,0.8812275718678559,-0.03105088982584855,-0.7982162129349029,0.8656464577014038,-0.07136475331312749,0.6755033772583401,1.013478827640647,0.07793480769729229,0.6785390204969963,1.0168696654009757,0.0,0.0,0.0,0.0
0.006631715366176103,0.0930903805787911,0.739127208790458,-0.009646521565409407,-0.5222824169861651,0.003576188559165775,0.8527105208710438,0.03748023619643074,-0.8073661439056421,0.8812275718678543,-0.03105088982584698,-0.798216212934905,0.8656464577014056,-0.0713647533131094,0.6755033772583348,1.0134788276406506,0.07793480769728835,0.6785390204969933,1.0168696654009794,0.0,0.0,0.0,0.0
0.006631715366176103,0.0930903805787911,0.739127208790458,-0.009646521565409407,-0.5222824169861651,0.003576188559165775,0.8527105208710438,0.03748023619643074,-0.8073661439056421,0.8812275718678543,-0.03105088982584698,-0.798216212934905,0.8656464577014056,-0.0713647533131094,0.6755033772583348,1.0134788276406506,0.07793480769728835,0.6785390204969933,1.0168696654009794,0.0,0.0,0.0,0.0
0.008018633546702573,0.0929805937502029,0.7394304768705783,-0.00959585402828898,-0.5226978584093896,0.003550403109807244,0.8524566047825914,0.03787805353885766,-0.8107323993669994,0.8917631832788777,-0.0307782548331385,-0.8024042500139663,0.8773225328141412,-0.07194959117843099,0.6826210017764266,1.009829210799462,0.07923092610417883,0.6855368323219673,1.013915957908633,0.0,0.0,0.0,0.0
0.010526487636207239,0.09276607564180193,0.7402087324949039,-0.009549043499976683,-0.5233818839039985,0.003492070546573441,0.8520375724183967,0.03870854534390007,-0.8163210584492023,0.9105558288679835,-0.030169658064439265,-0.8096051384721896,0.898427786359092,-0.07263268210209813,0.6963620193053339,1.0009075093961737,0.08191475639854845,0.6991997781630727,1.0062714523642424,0.0,0.0,0.0,0.0
0.013329622781277532,0.09288528365524214,0.7407983252841397,-0.009056478649269176,-0.5236953361646879,0.002977900684052153,0.8518522801409559,0.03967320011829358,-0.8252050540520296,0.9341170486493522,-0.025494875361089814,-0.8149126522241927,0.8980407942963087,-0.05049643325347698,0.6858557375278695,1.0137320001941692,0.07542506452543123,0.7097683417374192,0.9973240508976605,0.0,0.0,0.0,0.0
0.016498275977432267,0.09319278720580076,0.74119838554817,-0.008655931289669867,-0.5239267831009572,0.0025836205043397132,0.8517154018262676,0.039924760372448596,-0.8372901009325925,0.9621036570807315,-0.02018819368478918,-0.8218653410877867,0.8970204693925111,-0.03189258472074982,0.6788141806351573,1.0247202621166298,0.06872539349292388,0.7207316250742278,0.9886698836477318,0.0,0.0,0.0,0.0
0.019486692876691775,0.09346691895633433,0.7414864389701104,-0.008356055867104355,-0.5242050278789022,0.0023117255199495224,0.8515479557851957,0.03997482740131009,-0.8483336834240601,0.9875283209419974,-0.015214006437023612,-0.8298657346981047,0.8974307143287998,-0.0178465495522855,0.6742506179481914,1.0351542599079901,0.06356063201846879,0.7312900460543611,0.9812451668909665,0.0,0.0,0.0,0.0
0.022085902712513615,0.09368622901386453,0.7417143094396377,-0.008127000552605528,-0.5244868739732506,0.002116581766543457,0.8513771144289768,0.03997019309849055,-0.8574926892214768,1.0088505539420662,-0.011023428637034961,-0.8381879360168792,0.8986116481514133,-0.006967709013495756,0.6709914412114909,1.0452136461086092,0.05957955563770921,0.7407212786559454,0.9749023573628537,0.0,0.0,0.0,0.0
0.024212426918108397,0.09386763682404504,0.7419293900506306,-0.007943546933775246,-0.5247514599135713,0.001966770336937256,0.8512161518645709,0.03993219457037378,-0.8645127523106297,1.0257287681446803,-0.007486951696789225,-0.8465308966475708,0.8999742554434208,0.0020995907241888843,0.6682019972360617,1.0549315080883737,0.0562903538114537,0.7487444067888974,0.9693216954508492,0.0,0.0,0.0,0.0
0.025860220388172973,0.09404478358986296,0.742162284517719,-0.007792813319256432,-0.5249886575932831,0.0018485823737705762,0.8510715388274838,0.039802879758378575,-0.8695091033010973,1.038469932548565,-0.0043444077988644934,-0.8548002104101459,0.9010871136244645,0.01018731506345863,0.6654096638483638,1.0643118288257947,0.053270553073009826,0.7553334510324012,0.9641864716535289,0.0,0.0,0.0,0.0
0.02706525193996972,0.09425601645639646,0.7424238004844049,-0.00767030611079833,-0.5251951676602026,0.0017584818994763392,0.8509454212885498,0.039491574102254345,-0.8727869249796935,1.0476689984880225,-0.0013897462519247596,-0.8629685018637148,0.9016729342092856,0.01772913631802694,0.6623941354828824,1.0733542504710096,0.0501826707235581,0.7605740652837432,0.9592704708817138,0.0,0.0,0.0,0.0
0.027880772765316704,0.09453847059737565,0.7427067852875672,-0.007575964939664171,-0.5253714974424951,0.0016974978053577023,0.8508375361556776,0.038902166706793306,-0.8747300322964483,1.0540007935123359,0.001488133847112081,-0.8709833070647943,0.9015859316189182,0.024920839804676055,0.6590914853858674,1.0820326943549812,0.046760681842544345,0.7645697515877061,0.9544702974494361,0.0,0.0,0.0,0.0
0.028360410479471194,0.09492592913424779,0.7429889782646556,-0.007511753105873967,-0.5255195998077247,0.0016682638826229557,0.8507466959552786,0.03794477293418536,-0.8757349493971167,1.0580999209568085,0.0043269997257586595,-0.8786815961548538,0.9008019832633652,0.03181844777171984,0.6555312429905154,1.0902418735785608,0.04279358277500702,0.7673802665818736,0.9498157219321822,0.0,0.0,0.0,0.0
0.02854656061581563,0.09544856662372594,0.7432352937553108,-0.007480585081005402,-0.5256412115375556,0.0016737344699491216,0.8506718263778933,0.036538644681939215,-0.8761709335412221,1.0604868013972544,0.007124901321867581,-0.8856950360683686,0.8994378218712017,0.03837351267961486,0.6518038312003113,1.0977044620976901,0.038112497781506556,0.7689794482199208,0.9454744463605483,0.0,0.0,0.0,0.0
0.02846284341374126,0.0961327817310873,0.7434002236781059,-0.007486184347930322,-0.5257370408994234,0.0017167713063727412,0.8506124696749445,0.03461297354750744,-0.8763503460547563,1.0615170937576772,0.009861726572896348,-0.8913717246209537,0.8977943610601524,0.044416828608619945,0.6480717130348613,1.1038233161766278,0.032589702350570585,0.7692340220791749,0.9417487147440236,0.0,0.0,0.0,0.0
0.028112221301279258,0.09699974985649111,0.7434338723862585,-0.007533404705880881,-0.5258070926586097,0.0018001362130446435,0.8505685796178062,0.03211051226626652,-0.8764989910691754,1.061356383004551,0.012505286464858916,-0.8948050152847626,0.8963803328624782,0.04961415161848241,0.6446724632418313,1.1074670425116568,0.026156476612653204,0.7679277429248548,0.9390306695164261,0.0,0.0,0.0,0.0
0.027487061246528777,0.098063379902381,0.743298963522313,-0.007627304984004824,-0.5258531446154988,0.0019250926221251788,0.8505389988325452,0.0289965702273354,-0.8767205894788912,1.060017692145557,0.01501838297656446,-0.8951483618495202,0.8958020913413537,0.05349202291345046,0.64235659389328,1.1067838204212457,0.01880635126367379,0.7648819456896448,0.9376320398192572,0.0,0.0,0.0,0.0
0.026586122365774713,0.09933552591737708,0.7429870357151291,-0.007767600138285742,-0.5258774361967405,0.0020900541797745425,0.8505223207892667,0.025246636424816175,-0.8770222696257175,1.0574935036077953,0.017369524893999972,-0.8924389751182401,0.8960903120361695,0.056030584203583936,0.6411577158788441,1.1017901682156244,0.010499652184424947,0.7600712954724836,0.937571287630463,0.0,0.0,0.0,0.0
0.025417500612436777,0.10082485887756368,0.7425189742755501,-0.007948003484786846,-0.5258824498909583,0.002290149057347842,0.8505170388384847,0.020850778937051846,-0.877322098125759,1.053774728408206,0.01954905952887783,-0.8876046888418289,0.8967200057288256,0.05768549146503514,0.6403827848948456,1.09435807294417,0.001169223722485251,0.7536383068659883,0.9385630350116438,0.0,0.0,0.0,0.0
0.023986914567634497,0.10252789770308614,0.7419302894039861,-0.008160955061133686,-0.5258728446080081,0.0025180578282864895,0.8505203169243786,0.015838246161879288,-0.8774271562765736,1.048742311642385,0.021579497575574327,-0.8816455521022739,0.8973003410229866,0.058824640890244376,0.6397345633694879,1.0856196632132071,-0.009160564841431199,0.7458077830998758,0.9402202081306938,0.0,0.0,0.0,0.0
0.022293359946598777,0.10442610998557914,0.7412555732775382,-0.008397764184507495,-0.5258542679949557,0.002764858708074658,0.8505287308166108,0.010283662941154157,-0.8770695311695847,1.0421520332863747,0.023524480778196993,-0.8753343530854625,0.8977140485682537,0.05973765614751959,0.639077946063082,1.076147855319013,-0.020351120427023243,0.7367938934690905,0.9422258091185446,0.0,0.0,0.0,0.0
0.02033751156495636,0.1064822919404051,0.7405244091148501,-0.008646854254528819,-0.525834556232737,0.003018785715628694,0.850537558439264,0.004319547114640781,-0.8759388821095527,1.0336916301397672,0.02549740135137451,-0.8692064238103961,0.8981434778118624,0.06075182760176013,0.6383362021343456,1.066166437906018,-0.03215992750621359,0.7268000469277004,0.9443779807569315,0.0,0.0,0.0,0.0
0.01813648879737678,0.10863601846209354,0.7397610974791894,-0.00889130306449977,-0.5258265623968673,0.0032629222164347604,0.8505390786708851,-0.001847332969226745,-0.8737200437282145,1.0230779330863573,0.0276394045847592,-0.8636530941950915,0.8991017696937416,0.062386701623654464,0.6374686839632077,1.0556981298585455,-0.0442677991146685,0.7160534782993009,0.9465963726569888,0.0,0.0,0.0,0.0
0.015743297195390655,0.1107997495819145,0.7389819345351798,-0.009104893200491106,-0.5258522991093458,0.0034698020329992554,0.8505200884841431,-0.007915914440257577,-0.870154271528555,1.0101991872427292,0.03004497474803943,-0.8590299363534198,0.9015160094912837,0.06555420737616478,0.6364800509686702,1.0446720631825888,-0.05635507144023001,0.7048261348673335,0.9489479130836279,0.0,0.0,0.0,0.0
0.013268861610144659,0.11285967824927708,0.7381790426487568,-0.009238731032217206,-0.5259357469988845,0.0035594872468038027,0.8504666753778067,-0.01339288499849973,-0.8651796019145834,0.995350493836048,0.03273042791418751,-0.8558393148967409,0.9068214413335026,0.07152736044292309,0.6354982414009287,1.0330349545636885,-0.06852031465452647,0.6932423503875219,0.951722059363514,0.0,0.0,0.0,0.0
0.01088153688901192,0.1147125125208194,0.7373155764480429,-0.009245207790993097,-0.5261516562248351,0.0035305603167681454,0.850333167604683,-0.018038723062022588,-0.8589836158540548,0.979283153723728,0.036691008251233684,-0.8551026281627238,0.9172156254760082,0.0836585762508516,0.6346877233261428,1.0205048198167213,-0.08051181451591355,0.6817441002751609,0.9555848025717188,0.0,0.0,0.0,0.0
0.00916285233326489,0.1162660094751246,0.7363124601630688,-0.009053470091481722,-0.5265509965487419,0.0032573336437285876,0.8500890967953669,-0.021352607200725553,-0.8539017926135968,0.9667692301275604,0.041177671679386546,-0.8583004409058188,0.9353908432073527,0.10441028256385668,0.6348979650903579,1.0074072400074414,-0.09344755700779742,0.6712542307303234,0.9609222518557107,0.0,0.0,0.0,0.0
0.008421203900957366,0.11719901957814902,0.7353119789603563,-0.008661308649396056,-0.5272748710049472,0.0027247909396618127,0.8496462603069181,-0.022489555418773063,-0.8496787073083247,0.9590034523674734,0.046566084899696325,-0.8691580860888876,0.9655435785479392,0.13239260398792638,0.6364878259249078,0.9945466450191236,-0.10576402139518361,0.6636029985429924,0.9677087875778739,0.0,0.0,0.0,0.0
0.008384607968902327,0.11733964916715613,0.735254791657438,-0.008796586810629774,-0.5273249593297737,0.0027082966446970165,0.8496138372564443,-0.022699490787246906,-0.8497345398080967,0.9589183588642077,0.04657653471435761,-0.8691723846565059,0.9655549570340269,0.13240601647895053,0.6365014122231079,0.9945485047658776,-0.10579847473142459,0.663536923966298,0.9676727031852861,0.0,0.0,0.0,0.0
0.008384607968902327,0.11733964916715613,0.735254791657438,-0.008796586810629774,-0.5273249593297737,0.0027082966446970165,0.8496138372564443,-0.022699490787246906,-0.8497345398080967,0.9589183588642077,0.04657653471435761,-0.8691723846565059,0.9655549570340269,0.13240601647895053,0.6365014122231079,0.9945485047658776,-0.10579847473142459,0.663536923966298,0.9676727031852861,0.0,0.0,0.0,0.0
0.009194578741984191,0.11856594295354551,0.7355329857208763,-0.008993633631418588,-0.5269562843758268,0.002829125177579017,0.8498400937597944,-0.026122044754991306,-0.8579370530197679,0.9725309161725227,0.043279161751740715,-0.8715424383998973,0.9706848256879838,0.12647424523337397,0.6392572734528247,0.9948489357995679,-0.11186214919134321,0.6666851010545958,0.958660687139968,0.0,0.0,0.0,0.0
0.011209004040408291,0.12100596465007613,0.7371779357246673,-0.009540987598279288,-0.5271040780141836,0.0035093416324879895,0.8497399278707418,-0.03397142494518536,-0.8681880979323016,0.997352155971403,0.03553322305770268,-0.8687820898979074,0.9779616835538972,0.11920896884872692,0.6519382801532079,0.986140193106586,-0.12107473898068667,0.6830849804022692,0.9323782728861444,0.0,0.0,0.0,0.0
0.01273084941692868,0.12347998351254924,0.738654832606555,-0.0095687743127319,-0.5262985792436943,0.00334664700351377,0.8502394039316542,-0.031478063569254304,-0.8527532562782111,0.9601016649415821,0.02972335291916492,-0.8710963873722257,0.9866044555029103,0.10168275800087156,0.6634594850806315,0.9786152471943674,-0.09626949949537308,0.6693239506612522,0.9654676043128021,0.0,0.0,0.0,0.0
0.01496097644262412,0.12594998679313466,0.7397695364579635,-0.009749599410707866,-0.5258314915380095,0.0034641274919260294,0.8505258300833447,-0.02841067436624739,-0.8460136679209267,0.936388045148055,0.02322132144405243,-0.8751752801524272,0.9996957418685629,0.08735962317926321,0.6751659709522078,0.9734953789687519,-0.07660989813643682,0.6627564047076896,0.9903433050531547,0.0,0.0,0.0,0.0
0.01734348245035848,0.1283833730916093,0.7406997823091467,-0.01004330881550576,-0.5256571975824393,0.0037419522172481737,0.8506289675125204,-0.02559523072919835,-0.8454519715853042,0.9235202539533222,0.016378422672856937,-0.8782138547601273,1.0121920091550516,0.07489703312733513,0.6867192469448723,0.9698153021467543,-0.06501103574628862,0.6594283147853208,1.0090942763661097,0.0,0.0,0.0,0.0
0.01964275315562582,0.13068630827909108,0.7415306157877908,-0.010370514123665495,-0.5256148473478202,0.0040686866387878405,0.8506497107936815,-0.023083224200948257,-0.8482692091821803,0.9167714884363635,0.009710208996902392,-0.8802752207094522,1.0232694763653425,0.06347486932175153,0.6978522501060701,0.9666141816543764,-0.05879588814205697,0.6576652697517545,1.0240305300202623,0.0,0.0,0.0,0.0
0.021724061425288384,0.13281487237574152,0.7422959957691289,-0.010685567541596733,-0.5256246186994891,0.004388658869506817,0.8506381830935276,-0.020858134134324784,-0.8529301957040055,0.9133006665136484,0.0034725038716373136,-0.8814147450519731,1.032481757374286,0.052708462804697306,0.7082849734175338,0.9635714104249649,-0.05550903159583335,0.6566631407548232,1.0366788400282119,0.0,0.0,0.0,0.0
0.023526481532287116,0.1347479857452169,0.7430097114428269,-0.010966890198582708,-0.5256493724177956,0.00467633422316648,0.8506177734413871,-0.018793207639611353,-0.8586052097522299,0.9114166063894947,-0.0022072591640410295,-0.8817327606404259,1.0397252277950038,0.0424926370578097,0.7178297030867907,0.960600686642057,-0.05361857124062902,0.6559791050375442,1.047966099072182,0.0,0.0,0.0,0.0
0.02503593259743517,0.13647659537038706,0.7436770674664603,-0.011207543463859493,-0.5256733677480162,0.004923777186649838,0.8505984116068998,-0.016731501479930924,-0.8648288364803072,0.9101170692874654,-0.0072753426149439766,-0.8813620894389577,1.0451142052882245,0.03288868242547962,0.7263861188781928,0.9576906279979569,-0.05227202392368427,0.6553742421576096,1.058433894494036,0.0,0.0,0.0,0.0
0.026263460921089957,0.1379997478079775,0.7442970796799656,-0.011406835288707175,-0.5256921209933062,0.0051295054080659555,0.8505829566882492,-0.014542300323457423,-0.8712809709353874,0.9088323107553654,-0.011716910367417049,-0.8804479156561431,1.0488611781502053,0.0239951944467824,0.7339154718967701,0.9548832043281439,-0.05102797117305803,0.654744751007565,1.0683593711081474,0.0,0.0,0.0,0.0
0.027228029047661237,0.13932121100048345,0.7448615881472854,-0.011567458721485468,-0.5257041138649741,0.005296043685599506,0.8505723546444767,-0.012152086682063003,-0.8776321796544432,0.9072814132676951,-0.015542232595505946,-0.8791363839479671,1.051189837811518,0.01591802110146742,0.7403755233874236,0.9522803455491881,-0.0496375243725894,0.6540756515309463,1.0777922993623419,0.0,0.0,0.0,0.0
0.027943522365373882,0.14044825457459323,0.7453538072615696,-0.011692089641468664,-0.5257080082985814,0.0054257662919590215,0.8505674259638089,-0.0095395788734998,-0.8834053994094963,0.9054204973953035,-0.018773583100270146,-0.8775557970622387,1.052258435324513,0.008717126838183192,0.7456815915067995,0.9500755363136018,-0.047921828504423974,0.6534142625582409,1.0865198853004039,0.0,0.0,0.0,0.0
0.028408970255531834,0.14139138715205296,0.7457483034416917,-0.01178150404140195,-0.5257003581378255,0.005519469458838695,0.8505703175359327,-0.0067181849811930395,-0.887881085272837,0.9034336676589612,-0.021440823246531193,-0.8757968997683985,1.0520991977196832,0.002380623387384582,0.7496742097952119,0.9485693602824181,-0.04566141737702218,0.6528805586205191,1.0939571651328026,0.0,0.0,0.0,0.0
0.028604179780927424,0.14216561083200308,0.7460158159148245,-0.011833216520142251,-0.5256744149252227,0.005575749653985302,0.85058526644635,-0.003714509049296432,-0.8901173509967124,0.9017069309854441,-0.02358251269317036,-0.8738880924406403,1.050582764808789,-0.003197891137016901,0.7521281879542304,0.9481349760557315,-0.04249952964992656,0.6527648188568625,1.0989613637928421,0.0,0.0,0.0,0.0
0.028497420999626953,0.1427919189083319,0.7461394645291982,-0.011842692674507781,-0.5256225205934646,0.005592732156329896,0.8506170923642539,-0.0005620613512331875,-0.8892388511929433,0.9006763827727131,-0.025251684681521412,-0.8717554336182224,1.0474410730720902,-0.00820130158819376,0.7528559011910225,0.9490556866112466,-0.037945548869268986,0.6537553595823415,1.0996688761779825,0.0,0.0,0.0,0.0
0.028061628253350117,0.1432920774261248,0.7461299426564987,-0.011809721165291664,-0.5255401731736572,0.0055696114736248775,0.850668581936957,0.0026777569197918827,-0.8852546295745565,0.9003112719595845,-0.02650061864315978,-0.8692187531365001,1.0423676673936997,-0.012778260225476226,0.7518238976501516,0.9513347605141393,-0.032056248632962296,0.6557859804562483,1.0960334521813442,0.0,0.0,0.0,0.0
0.027276462341883405,0.14368973946157967,0.7460251381112181,-0.011738940785637397,-0.5254242265198813,0.005508149402423851,0.8507415822359786,0.0059244690574964285,-0.8790703967773602,0.9001238061451657,-0.027387680596169573,-0.8660028395123164,1.0350328306556738,-0.01703094888444089,0.7491475735948512,0.9546925972187076,-0.025400085370420922,0.6580436050092177,1.089833947635629,0.0,0.0,0.0,0.0
0.026116600380321448,0.14401755387946957,0.7458737045165745,-0.011631803037212311,-0.5252699797005993,0.005408940289028204,0.8508389347863585,0.009131761459688043,-0.871666557131843,0.8996820875758719,-0.02799243753385866,-0.8617544554157062,1.0250042159359105,-0.02116293343926447,0.7449962968532752,0.9587691075208259,-0.018371019588987878,0.6601149371614151,1.0821579895616549,0.0,0.0,0.0,0.0
0.02454957418117367,0.14431468715846846,0.7457162919636146,-0.011485014809426866,-0.5250692228274877,0.005269725517716533,0.8509657076916397,0.012306651330037605,-0.8638000879265537,0.8987501693231662,-0.028407445451069227,-0.8561103641177789,1.011766173598299,-0.02548073940500348,0.7394932268445189,0.963297232204921,-0.011162673087232032,0.6617490522529533,1.0735867685731628,0.0,0.0,0.0,0.0
0.022548543930068454,0.14462137970579658,0.7455758155926121,-0.011292746156116655,-0.5248116154308211,0.00508758968528091,0.8511282856446141,0.015505421613711481,-0.8559562348764849,0.8972991293733571,-0.028729870217505227,-0.8487759757937735,0.9948368020244402,-0.030307387478407114,0.7326967345823305,0.968153886617041,-0.003807292670383383,0.6627668366521606,1.064420227865519,0.0,0.0,0.0,0.0
0.02011541506848578,0.1449712658504315,0.7454487963682013,-0.011049204751836442,-0.524490826351291,0.004859897877367485,0.8513305289605874,0.018825981482231278,-0.8483687859248008,0.8954924995986785,-0.029043638469338242,-0.839629688983209,0.9739649349399243,-0.03589361738091234,0.7246366374902171,0.9733891595915762,0.003794891436008108,0.6631008546568986,1.054867345248143,0.0,0.0,0.0,0.0
0.0173134898514848,0.1453777850002742,0.7452932633311077,-0.010754933778867496,-0.5241134804938405,0.004589231050545664,0.8515681592934352,0.022379344317350353,-0.8410283674779786,0.8936729441564975,-0.029395746577747735,-0.8288818994607083,0.9494421237024941,-0.04224799573542245,0.7153501221918452,0.9792685547424597,0.011917140130847555,0.6629514223077402,1.0452302786976149,0.0,0.0,0.0,0.0
0.014311679916198233,0.1458126730963577,0.7450110475174739,-0.010426363441778708,-0.5237115970204598,0.00429080220730622,0.8518210158877728,0.026230780959219373,-0.833635899817555,0.8922910481695576,-0.029759186114819494,-0.8173313933894053,0.9225987186178369,-0.048916944905977956,0.704923549502251,0.9863569391670572,0.0211989021006776,0.663123398722428,1.0360974772557228,0.0,0.0,0.0,0.0
0.011479504417432632,0.1461367890636398,0.7444216899863697,-0.010083007891822298,-0.5232398112871369,0.003974392040020833,0.8521165630616312,0.030734961605500155,-0.8250798008270445,0.8903483822207802,-0.02984005054906462,-0.8078382849847184,0.8978164782128425,-0.054758942131137876,0.6933903032624452,0.9953119738286934,0.033657056574406215,0.6658499219894144,1.027792954392199,0.0,0.0,0.0,0.0
0.009114079103226938,0.14635498484282253,0.7435958392836287,-0.009782473637241922,-0.522780901375602,0.0036959269412900715,0.852402940216946,0.035368356642409365,-0.8162174561716361,0.88800536210478,-0.029774927079747705,-0.8011180554427715,0.8775164069008193,-0.0592668310006678,0.6820600714063165,1.0052942411384422,0.05055970550632472,0.6714093004040306,1.0209836040489355,0.0,0.0,0.0,0.0
0.007564160487437721,0.14647933449780826,0.7428205606950479,-0.009616682729882203,-0.5223988108557731,0.003528571855080435,0.8526397545331853,0.03887539765159019,-0.8090460717979623,0.884431904986373,-0.029728994332723666,-0.7976274070229925,0.864558931450587,-0.06164676420397321,0.6732480384133138,1.0135058262990577,0.07031147592921944,0.6784630011269723,1.015982751599479,0.0,0.0,0.0,0.0
0.007556629307768857,0.14644326946306133,0.7427935226333844,-0.009564705007729957,-0.5223893716937292,0.0035211432554498163,0.8526461530492708,0.03889876107640203,-0.8090599273754854,0.8844403710889057,-0.02965300720135156,-0.797680044745733,0.864417646473504,-0.06165371241924669,0.6731807900823551,1.0134442042555694,0.07030888370324535,0.6784959996480777,1.015994568049961,0.0,0.0,0.0,0.0
0.007556629307768831,0.14644326946306138,0.7427935226333844,-0.009564705007729704,-0.5223893716937291,0.0035211432554493505,0.8526461530492708,0.0388987610764034,-0.8090599273754838,0.8844403710889044,-0.029653007201350223,-0.797680044745735,0.8644176464735058,-0.06165371241923214,0.6731807900823511,1.013444204255572,0.07030888370324245,0.6784959996480749,1.0159945680499642,0.0,0.0,0.0,0.0
0.007556629307768831,0.14644326946306138,0.7427935226333844,-0.009564705007729704,-0.5223893716937291,0.0035211432554493505,0.8526461530492708,0.0388987610764034,-0.8090599273754838,0.8844403710889044,-0.029653007201350223,-0.797680044745735,0.8644176464735058,-0.06165371241923214,0.6731807900823511,1.013444204255572,0.07030888370324245,0.6784959996480749,1.0159945680499642,0.0,0.0,0.0,0.0
0.008939152436145048,0.14632423738871583,0.7430983654620773,-0.009511833022185844,-0.5228045027112346,0.003492606448914166,0.8523923853939627,0.039328300047403085,-0.8123457122607632,0.8948452213064582,-0.02934884019358431,-0.8018863225133789,0.8761143439595297,-0.06207825336477517,0.6802579093025739,1.0097509016891426,0.07153584893057487,0.6854599119149728,1.0130356715917777,0.0,0.0,0.0,0.0
0.011439956539932654,0.14608616791641502,0.7438799820922322,-0.009464978831818089,-0.5234862710146971,0.0034334740199432933,0.8519746178678064,0.040224907029666364,-0.8178012637385461,0.9134099886855112,-0.028674351431715202,-0.8091378344322648,0.8972907267726657,-0.062365320849527714,0.6939039240440938,1.000717026870739,0.07420991534724732,0.6990864214051703,1.0054029185631521,0.0,0.0,0.0,0.0
0.01423248778932534,0.14617158401450037,0.7444744206926067,-0.009006634088983776,-0.52378218185569,0.00295970982527066,0.8517994755989405,0.041197041873605504,-0.8267074793832037,0.9368424528507496,-0.023990953846659245,-0.8145904257570221,0.8971835439882812,-0.04220188026220145,0.6839090510849264,1.0136572616680783,0.06835302891921997,0.7097457784353279,0.996489425145998,0.0,0.0,0.0,0.0
0.017374337333989177,0.14643929992479188,0.7448797110555422,-0.008629977266505157,-0.5239998193468114,0.002592947864844016,0.8516707048139315,0.04150081136132719,-0.8386624240518337,0.9644704006084537,-0.018641953780410968,-0.8216541050912258,0.8963451568456318,-0.024984128721665756,0.6771586393931129,1.0247498152334384,0.062179505370392685,0.7207219921575556,0.9878985011861986,0.0,0.0,0.0,0.0
0.020337238792559435,0.14667845875740196,0.7451733629449505,-0.008344026130878065,-0.5242665461587493,0.00233718050818733,0.8515101311164626,0.04161561037970653,-0.8495646846127572,0.989559599883422,-0.013626049973247758,-0.8297156033650462,0.8968485403559506,-0.011708483709783158,0.67272774073844,1.0352280563473877,0.057374035411761524,0.7312606130858069,0.9805217651601269,0.0,0.0,0.0,0.0
0.02291449155016883,0.14686905273565057,0.745407514858228,-0.00812211045724889,-0.5245395534445487,0.002150615871530773,0.8513446206121742,0.041675231414531735,-0.8585882963668853,1.0105951785062295,-0.009391253320777844,-0.8380689215614414,0.89807502229529,-0.0012094894540309806,0.6695043114343634,1.0452917281713725,0.053625162189752405,0.7406620159528551,0.9742045403202787,0.0,0.0,0.0,0.0
0.025022965779991406,0.14702808489883432,0.7456290914995309,-0.007941869257652086,-0.5247971666014455,0.0020050154399551576,0.8511878996748453,0.04169324508786279,-0.8654911076485013,1.0272427835403704,-0.0058101344609483956,-0.8464249882563284,0.8994547364630944,0.00768790946261062,0.6666990729560857,1.0549892432129344,0.0504804547687885,0.7486541283825038,0.9686293050102656,0.0,0.0,0.0,0.0
0.02665606247710968,0.14718866687930127,0.7458681417133034,-0.007792238515415648,-0.5250286452507302,0.0018886369601189869,0.8510467882176247,0.041608397166369264,-0.8703922027206015,1.039804652938658,-0.002625485277311045,-0.8546966281961296,0.9005673767129284,0.015709630449398042,0.6638650470663712,1.0643350000365535,0.047546257309131465,0.7552134334679763,0.9634850977376662,0.0,0.0,0.0,0.0
0.027848868908039708,0.14738841378122047,0.7461351122760841,-0.007669782002157794,-0.5252302739633093,0.0017990711249158257,0.8509236728987823,0.04132932494321458,-0.8735960918247472,1.0488667879307112,0.0003661991412996033,-0.8628607799115605,0.9011423095645903,0.023233753363183212,0.6607948829987316,1.0733350508455113,0.04450468656516426,0.7604253805876394,0.9585509149832352,0.0,0.0,0.0,0.0
0.028653728296679705,0.1476637099928221,0.7464227128385948,-0.00757502996166433,-0.5254022665672556,0.001737972857387812,0.8508184628094393,0.04076057583729201,-0.8754839024354728,1.0550945285915516,0.0032744586568130745,-0.8708675408370141,0.9010376382308499,0.030428776912833973,0.6574309597396045,1.0819670567114923,0.04110279950742245,0.7643924416887315,0.9537268451764355,0.0,0.0,0.0,0.0
0.029123488787645698,0.14804765502077868,0.7467087022400185,-0.007510258740199725,-0.5255463607579471,0.0017083066524000569,0.8507300984425755,0.03981351454693879,-0.8764489054206366,1.0591141001863447,0.0061364185987126275,-0.8785554502230858,0.9002314041520155,0.037338037417770704,0.6538061269059855,1.0901279064563363,0.03713822653843349,0.767173313150172,0.9490445036394158,0.0,0.0,0.0,0.0
0.029299967395637345,0.14856984134700582,0.7469580921889721,-0.007478528262319388,-0.5256641379606309,0.0017131740975283578,0.8506575989854249,0.0384088201824204,-0.8768573372317671,1.0614393467901653,0.008949985544220202,-0.8855572610967144,0.8988414580155087,0.043907309826168944,0.650013245348739,1.09754174104928,0.032447762193014804,0.7687410633765013,0.9446723006781004,0.0,0.0,0.0,0.0
0.02920642211758893,0.1492561749588751,0.7471254914777883,-0.0074836121906562475,-0.5257562176534033,0.0017554797238396426,0.8506005604502658,0.03647708274752116,-0.8770190530954085,1.0624211933370815,0.011694951099901553,-0.8912219910909168,0.8971692926187931,0.04996399052325255,0.6462176841378925,1.1036128771210123,0.0269078512256812,0.7689621775433783,0.9409126826244502,0.0,0.0,0.0,0.0
0.028845631007533595,0.1501273758603644,0.7471611184017636,-0.007530376707352432,-0.5258225973109416,0.0018379923520153861,0.850558940560814,0.03396236621706023,-0.8771576988450352,1.062221787466129,0.014338932724522711,-0.8946438296407774,0.89572409677928,0.05516971763605067,0.6427612567875141,1.1072118579923635,0.020453905153908276,0.7676209096514739,0.9381580447401492,0.0,0.0,0.0,0.0
0.028209870184146682,0.15119688435593376,0.7470278296843132,-0.007623890434576128,-0.5258650901559372,0.0019620067308956765,0.8505315595435113,0.03083118749215264,-0.877374922684707,1.0608512651588133,0.016844740636244377,-0.8949766133495124,0.8951125433349649,0.05904531980304407,0.6403996160261005,1.1064888721345427,0.013084295187197718,0.7645397924390975,0.9367204025481043,0.0,0.0,0.0,0.0
0.02729791162908016,0.15247619203560675,0.7467172231169887,-0.00776378587685504,-0.5258858836683284,0.002125873892312124,0.8505170437136658,0.02706014030212066,-0.8776768260628235,1.0583007397955124,0.01918168129576179,-0.8922576674648358,0.895365157308329,0.06157050321939351,0.6391673694926053,1.1014606228404291,0.004761936882606815,0.7596939608175629,0.9366182673956674,0.0,0.0,0.0,0.0
0.026117931165380748,0.15397368910219986,0.7462501773732148,-0.007943607082570433,-0.5258873064247712,0.002324591835316327,0.8505139836126245,0.022640299233235545,-0.8779813955323743,1.0545609688544835,0.021341694083260823,-0.8874144158299273,0.8959562487820831,0.06320618980608571,0.6383681033078387,1.093996972096305,-0.004579479654887213,0.7532257277134581,0.937566077752583,0.0,0.0,0.0,0.0
0.02467571646448256,0.15568552781205058,0.7456622308876396,-0.00815563623220177,-0.5258738541531419,0.002550797957255501,0.8505196461843484,0.017601871829807814,-0.8780954501742392,1.0495124203049802,0.023349194739453294,-0.8814454577386993,0.89649392227378,0.0643251760044615,0.6377016248759005,1.0852272033746715,-0.014913269516404242,0.7453602401072861,0.9391767713047984,0.0,0.0,0.0,0.0
0.022970357185352102,0.15759273836123142,0.7449880194714429,-0.008391026676609728,-0.5258509954850706,0.0027956146584659706,0.8505307200550454,0.012020370659857874,-0.8777508958946809,1.0429104490622552,0.02526985043640618,-0.8751212429535725,0.8968592407657917,0.0652229266097133,0.6370306299051613,1.0757208962869265,-0.02609771713892435,0.7363123176773767,0.9411337971200912,0.0,0.0,0.0,0.0
0.021002659952520368,0.15965767418531632,0.7442572029923408,-0.008638007688728003,-0.5258262904978309,0.0030473907065166413,0.8505426564578299,0.006029019330219316,-0.8766377342667289,1.0344429606457095,0.027219360521920016,-0.8689736341682325,0.897231259663571,0.06623705449978183,0.6362756426384126,1.0656971552945607,-0.03788809144625706,0.7262857726460097,0.9432356168346294,0.0,0.0,0.0,0.0
0.01878990642320255,0.1618195564145079,0.743494222506933,-0.008879342063127387,-0.5258121089181769,0.0032893487851951486,0.8505480371996132,-0.00016502096658016756,-0.8744420851301746,1.0238280321505364,0.029341663664453156,-0.8633891102838827,0.898116393226414,0.06790752825841756,0.63539005649154,1.0551711625283984,-0.0499661676790732,0.7155072345236436,0.945401147015358,0.0,0.0,0.0,0.0
0.016385274650581448,0.1639906967370419,0.7427155464483226,-0.009088208603424155,-0.525829645330567,0.003494069253303181,0.8505341733498801,-0.006260643683486085,-0.8709079055984181,1.0109566486282435,0.03173427663298985,-0.8587173479378106,0.9004284801027423,0.07118672858008596,0.6343644442666068,1.044059464192161,-0.06201937301095099,0.7042456415244749,0.9476948935067798,0.0,0.0,0.0,0.0
0.013899846509193833,0.16605737049205493,0.7419132123473213,-0.009214444487196325,-0.5259019644079428,0.0035813207710770124,0.8504877377047795,-0.011764289631165102,-0.8659755256662118,0.9961259270403741,0.034416261896802795,-0.8554559002658699,0.9055810098980606,0.07742640130639718,0.6332967402199131,1.0322907568311508,-0.07416149271576096,0.6926179854667801,0.9504043507564082,0.0,0.0,0.0,0.0
0.011506950603150906,0.16791903462425822,0.7410480890594878,-0.009208824854593874,-0.5261005488881498,0.0035489763836375724,0.8503651067459278,-0.01644271196928359,-0.8598837387521552,0.9801573891831993,0.03835840817851091,-0.8546082311568339,0.9157065839161057,0.09008565339909622,0.63231926109952,1.0195553877819015,-0.08618568585557533,0.6810522024419224,0.9541924281158203,0.0,0.0,0.0,0.0
0.009783279929150282,0.1694820109520769,0.740039567480721,-0.008998444152602808,-0.5264758371220671,0.003271272147982924,0.8501361771551572,-0.01979016434742016,-0.8549439363373176,0.9677712057402642,0.04280744044697943,-0.8576780237397051,0.9334510971341383,0.1117604702996115,0.63219854105322,1.0061501848663548,-0.09922406436161015,0.6704391607804975,0.959465567662223,0.0,0.0,0.0,0.0
0.009036673172152931,0.17042400136793356,0.7390273044139841,-0.00858311060208111,-0.5271712486152381,0.0027371446258271422,0.8497113114965227,-0.020967399965262604,-0.8508940972772896,0.9601429839379685,0.04810727735372246,-0.8684044774241877,0.9630116255721791,0.14088206398284375,0.6333306476525207,0.992920708702597,-0.11168846103559255,0.6626058390903001,0.9662414764693201,0.0,0.0,0.0,0.0
0.008999842248235957,0.170564969424316,0.7389694947630016,-0.00871766929375385,-0.5272216438862852,0.002720302065822142,0.8496787277651467,-0.021178114469460885,-0.850950680537036,0.9600583531291307,0.04811797440894368,-0.8684185823956236,0.9630229247281926,0.14089594169026565,0.6333442386624789,0.992922640795864,-0.11172296764710403,0.6625385160354983,0.9662046307254666,0.0,0.0,0.0,0.0
0.008999842248235957,0.170564969424316,0.7389694947630016,-0.00871766929375385,-0.5272216438862852,0.002720302065822142,0.8496787277651467,-0.021178114469460885,-0.850950680537036,0.9600583531291307,0.04811797440894368,-0.8684185823956236,0.9630229247281926,0.14089594169026565,0.6333442386624789,0.992922640795864,-0.11172296764710403,0.6625385160354983,0.9662046307254666,0.0,0.0,0.0,0.0
0.00982500856753475,0.17180513051042484,0.73925454746606,-0.00893481562880226,-0.5268703607470588,0.0028459811157324657,0.8498939301038879,-0.02463413576378264,-0.8591742848797976,0.9737928188441098,0.04478873377485318,-0.8707034311353209,0.9681586355825222,0.13512997588808068,0.6361465891878548,0.9932575396428492,-0.11771271606077406,0.6658672296891186,0.9570680428881915,0.0,0.0,0.0,0.0
0.01187066666623486,0.17429328084468387,0.7409339075626382,-0.009480120618016726,-0.5270223262958773,0.003513317245684623,0.8497912987908742,-0.03257477487199295,-0.8695398011969939,0.9989957586132222,0.03696119004280608,-0.8679401171858182,0.975604064671006,0.1276377123576647,0.6490827084598613,0.9844830067948672,-0.12733950104340097,0.6825234229346965,0.9301515446746605,0.0,0.0,0.0,0.0
0.013408344457218025,0.17683299081105688,0.7424319798735273,-0.009514649811436427,-0.5262496550716895,0.0033354661301885206,0.8502703373878145,-0.030199520100033093,-0.8537240835678761,0.9613672212357829,0.031034457631355407,-0.869982701675796,0.984039520403398,0.1098344803456253,0.6608445490836272,0.9771479544225415,-0.1016476068096967,0.6688990144448577,0.9639063778212463,0.0,0.0,0.0,0.0
0.015656887581297362,0.17938108043420412,0.7435557887666068,-0.009689801694447674,-0.5258007266772263,0.003433245375876611,0.8505456580307796,-0.02727648232224237,-0.8468041293512101,0.9374653661057788,0.024390805700529296,-0.8739298421333576,0.9970320841588309,0.09502717180915127,0.6727321770935963,0.9723394256936949,-0.08135610756656642,0.6624033546496066,0.9892321169456216,0.0,0.0,0.0,0.0
0.01806431102983097,0.18189256352418856,0.7444878962237625,-0.00997479272716594,-0.5256332461811469,0.003692001042644972,0.8506447925823216,-0.02457926641658182,-0.8461440476316401,0.924495416502169,0.017401424787205896,-0.8769543832845221,1.0095529211275138,0.08203178164133845,0.6844305432889346,0.9689921414347608,-0.0694500295390481,0.6591074077866619,1.0082292980616745,0.0,0.0,0.0,0.0
0.020392320704466976,0.18426873707839922,0.7453197414334414,-0.010295826600968677,-0.525595082194468,0.004004116893390861,0.8506631369558089,-0.022172498667020295,-0.8489109360473444,0.917719573571383,0.010586120975279726,-0.8790273023755705,1.0206956088294188,0.07011509601211183,0.6957057679808957,0.9660821928781396,-0.06315409093170761,0.6573571614483338,1.023295807193508,0.0,0.0,0.0,0.0
0.022503903917478866,0.18646257588976864,0.7460868641011255,-0.010608282482904489,-0.5256087945197935,0.004314619030139375,0.8506493070171968,-0.020040838520310005,-0.8535492285266624,0.9142681384809684,0.004207759717340544,-0.8801776771555262,1.0299857588786239,0.05892778424436984,0.7062806582318614,0.9632718076192908,-0.05990710145689502,0.6563680584591114,1.0360102022161053,0.0,0.0,0.0,0.0
0.024336295776224155,0.188451533783832,0.7468028922011067,-0.010889822238479197,-0.5256379108397056,0.004596973677985783,0.8506262788632197,-0.018055902797200978,-0.8592172177001148,0.9124282928042471,-0.001599475357015763,-0.8805011247794062,1.0373093821834956,0.048371066823998415,0.7159630487033354,0.9604791582502638,-0.05810794408436867,0.6557066256962951,1.0473299158136826,0.0,0.0,0.0,0.0
0.025873800942659772,0.1902261454688072,0.7474726352892043,-0.011132550276364608,-0.5256662830927415,0.004842294327321206,0.8506042424826328,-0.016060648450527626,-0.8654433999105079,0.911182043980324,-0.0067781485347258655,-0.88013305226841,1.0427766601835413,0.038504427157562665,0.7246442859994805,0.9577019763390701,-0.05686136613623636,0.6551343234089303,1.057813659186882,0.0,0.0,0.0,0.0
0.027126206387106368,0.19178603317321322,0.7480947388210122,-0.011334370230841112,-0.525689375448782,0.005047270292919463,0.8505861141908737,-0.01392317365665433,-0.8719021308819966,0.9099509083215225,-0.01131034643767205,-0.8792204575614839,1.046595342950975,0.029407391069956212,0.7322840045794957,0.9549945582596622,-0.055710671320546926,0.6545432838419621,1.0677479055951393,0.0,0.0,0.0,0.0
0.02811145181885068,0.19313555557791554,0.7486609097159648,-0.01149744923992351,-0.5257048000611542,0.005214049362697448,0.8505733863358766,-0.011571854081423144,-0.8782623521317696,0.9084463885802292,-0.01520689126266201,-0.8779124410211843,1.0489872365271473,0.021180767600134903,0.7388332787504138,0.9524647380884397,-0.054393831597844694,0.6539126324191584,1.0771871789764342,0.0,0.0,0.0,0.0
0.028842902456418937,0.1942828587112582,0.7491542934291257,-0.011623719356770305,-0.525711109977437,0.0053440028190823875,0.8505669636357127,-0.008985589508288285,-0.8840444400128238,0.9066217990520965,-0.01848988705081794,-0.8763381319782637,1.0501082039436538,0.01387014270667215,0.7442077403006431,0.9503130840343955,-0.05273188501400823,0.653285276928357,1.0859216539575278,0.0,0.0,0.0,0.0
0.029319497684685773,0.1952390580085018,0.7495493413756199,-0.011713664058898596,-0.5257048080895687,0.005437534130545743,0.8505690319124041,-0.006178660829464413,-0.8885277771164191,0.9046602466898398,-0.021189787328941036,-0.8745892853765472,1.0499904383879493,0.007457260341721194,0.7482476130282126,0.9488449468589395,-0.05050498448703226,0.6527792247529669,1.0933688613749486,0.0,0.0,0.0,0.0
0.02952140420164197,0.19601944270194924,0.7498166240030083,-0.011764723423017886,-0.5256795186984119,0.005493019489907294,0.8505836006182281,-0.0031781740222563797,-0.8907693047905142,0.902948805896913,-0.02334527669224356,-0.8726947133531788,1.048506174983585,0.001833281914525928,0.7507292994813154,0.9484372250107187,-0.04735667376456276,0.6526860216077024,1.0983889441542813,0.0,0.0,0.0,0.0
0.029417543853526372,0.19664485728066003,0.7499390963428795,-0.011772517461502168,-0.5256280284072079,0.0055086731943160975,0.85061521154104,-1.805826792949071e-05,-0.8898925873177985,0.9019248210227814,-0.0250091101028099,-0.8705815164344323,1.0453913158982666,-0.003180858164567856,0.7514667597448715,0.949374701907294,-0.04279374683747048,0.6536971534383017,1.0991211076111047,0.0,0.0,0.0,0.0
0.02898167917916249,0.1971363747755705,0.7499271604813281,-0.011737208665919527,-0.5255458052608254,0.005484265428847711,0.8506666605305448,0.003240174293167461,-0.8859081127866324,0.9015577970583906,-0.026233168927956907,-0.868074282055554,1.0403481450714427,-0.007720999878791985,0.7504246563655342,0.9516598840017902,-0.03686961026559778,0.6557475222520754,1.0955195599569112,0.0,0.0,0.0,0.0
0.02819464254074971,0.1975169870147775,0.749818327265163,-0.01166307222180164,-0.5254307033154352,0.005420724150842061,0.8507391871246303,0.006520544953619419,-0.8797206731040409,0.9013635201903335,-0.027072186805801746,-0.8649018111337757,1.0330557537149416,-0.01189508849860102,0.7477262329722446,0.9550162890686112,-0.030163754969144196,0.6580252980195125,1.0893622454726217,0.0,0.0,0.0,0.0
0.027032216541319834,0.19781784876763894,0.749660986784861,-0.011552663442890207,-0.525277675420243,0.005320354330355344,0.8508358205331277,0.009776678029250422,-0.8723143120040939,0.9009095563825419,-0.027606065929460816,-0.8607172398751871,1.0230948999029768,-0.01587523760423127,0.7435343309879872,0.9590783661034945,-0.023063825210474995,0.6601195490668876,1.081735438672612,0.0,0.0,0.0,0.0
0.025463278731438922,0.19807721700183523,0.7494955508652918,-0.01140332191438008,-0.5250798269685434,0.00518129998886325,0.8509608062011005,0.013018669557983933,-0.8644460308368976,0.8999655011918638,-0.027925971493323643,-0.8551570012933064,1.0099569733877458,-0.019957750840223172,0.7379775242263561,0.9635796310874889,-0.01577110707095211,0.6617869298009416,1.0732201707062665,0.0,0.0,0.0,0.0
0.023462058440252242,0.19833490620816993,0.7493448420291523,-0.01121043904069894,-0.5248279079560915,0.005001874397494604,0.8511198354752747,0.01630330847135219,-0.8566036558655933,0.8985098388929127,-0.028130925510683587,-0.8479226970275064,0.9931630122611602,-0.024450652624797037,0.7311164825059976,0.9683973144673946,-0.008325342917924701,0.6628568699690103,1.064115008299507,0.0,0.0,0.0,0.0
0.02103089385936891,0.19862542082841395,0.7492056998664696,-0.010969402773230245,-0.5245163802331102,0.0047805910037910185,0.8513162661547167,0.019726607305850456,-0.8490251971417803,0.8967164702878175,-0.028309938551351697,-0.8388841292388033,0.9724568064691945,-0.029602476263602632,0.7229844989343871,0.9735829741331911,-0.0006421402697213792,0.6632667525313303,1.0546237142797124,0.0,0.0,0.0,0.0
0.01823253955864771,0.19896512889393939,0.7490370728826845,-0.010681128707643277,-0.5241516000303933,0.004520323280106566,0.8515459942672227,0.023394398287569923,-0.8417085093998626,0.894942020225535,-0.02851854225545606,-0.8282410877908267,0.9481165029171582,-0.03544636480965038,0.7136241527817931,0.9794045858593725,0.007522239562314961,0.6632107700351586,1.0450353009558049,0.0,0.0,0.0,0.0
0.015234489454935822,0.19933111956953087,0.7487423480769678,-0.010360323634679943,-0.5237628782933517,0.004234421673282537,0.851790573256796,0.027366880518898094,-0.8343642123519042,0.8936504665420425,-0.028739759333601112,-0.8167910307415105,0.9214602628459785,-0.041593162192944524,0.7031290581643185,0.986427884920386,0.016744430070512305,0.6634668534642942,1.035909410253623,0.0,0.0,0.0,0.0
0.012396760371857326,0.1995961926387899,0.7481435227259318,-0.010024694745786544,-0.5233036092570308,0.003931239968008181,0.8520782730395915,0.03196236545125399,-0.8259257635724808,0.8919067902666133,-0.028705561206805914,-0.8073249530127085,0.8967453794982264,-0.046998340312092525,0.6915233342547024,0.9953296259738854,0.028871957447237376,0.6661776404208004,1.0275380546414563,0.0,0.0,0.0,0.0
0.01002808716908405,0.1997681157280969,0.7473085859173413,-0.009727632159525183,-0.5228535745242006,0.0036610825094802882,0.8523591433513774,0.03667464501242254,-0.817231898936089,0.8898933652392992,-0.02854751239543271,-0.8006480638431606,0.8765210471663218,-0.05121948141454156,0.6801470055558774,1.005284609489971,0.04505275929141375,0.671644643205864,1.0205542472255968,0.0,0.0,0.0,0.0
0.00847980035542133,0.19986856248338844,0.7465251913635,-0.009556750614932667,-0.5224784305677654,0.0034920558344646003,0.8525917919234137,0.040231127331558016,-0.810310936765214,0.8868632015196743,-0.02844291834891545,-0.7972131480505878,0.8636432612190863,-0.053573176277257745,0.6713482952185672,1.013522679041027,0.06368841570732646,0.6785574066433789,1.0152658460627562,0.0,0.0,0.0,0.0
0.008471476911743407,0.19983079418994026,0.7464978928152108,-0.009503722857661852,-0.522469393391057,0.003485065845675116,0.8525979512862302,0.04025457602011671,-0.8103251827869893,0.8868718170316673,-0.028364992700231798,-0.797265933979843,0.8635015083760063,-0.05357972540666058,0.6712805950953399,1.0134607627817873,0.06368540423459007,0.6785904463737285,1.0152775988398468,0.0,0.0,0.0,0.0
0.00847147691174325,0.19983079418994018,0.7464978928152108,-0.009503722857661755,-0.522469393391057,0.0034850658456753378,0.8525979512862302,0.040254576020116804,-0.8103251827869912,0.8868718170316684,-0.028364992700231986,-0.7972659339798447,0.8635015083760077,-0.05357972540665302,0.671280595095336,1.0134607627817893,0.06368540423459086,0.6785904463737266,1.0152775988398484,0.0,0.0,0.0,0.0
0.00847147691174325,0.19983079418994018,0.7464978928152108,-0.009503722857661755,-0.522469393391057,0.0034850658456753378,0.8525979512862302,0.040254576020116804,-0.8103251827869912,0.8868718170316684,-0.028364992700231986,-0.7972659339798447,0.8635015083760077,-0.05357972540665302,0.671280595095336,1.0134607627817893,0.06368540423459086,0.6785904463737266,1.0152775988398484,0.0,0.0,0.0,0.0
0.009850502331689225,0.1997040381094586,0.7468037880555465,-0.009449014704799441,-0.5228841262250218,0.0034542320884823827,0.8523443992563585,0.040710980261574416,-0.8135473538412592,0.8971724898773877,-0.028034264477891264,-0.8014889913347832,0.8752169233108495,-0.05387283505727801,0.6783240815783675,1.0097313085008075,0.06485257515292986,0.6855257404779128,1.0123133358696896,0.0,0.0,0.0,0.0
0.012345704447521831,0.1994460787219311,0.7475874154495804,-0.009402228156668798,-0.5235641409487122,0.003394539571689243,0.8519276175353298,0.0416637945279415,-0.8188963464841398,0.9155528409573263,-0.027304007491664433,-0.8087841955851546,0.8964535644353667,-0.05383225970459175,0.6918901571015005,1.0006071189461077,0.06751861903543975,0.6991215540169403,1.004693726970605,0.0,0.0,0.0,0.0
0.01512949294996848,0.19950297233270162,0.7481852461579348,-0.008971738513175755,-0.5238462754812722,0.0029537374656503227,0.8517604493092141,0.0426454735828125,-0.827817394959499,0.9388755346142422,-0.022617143621033533,-0.8143380311644834,0.8965467290379724,-0.03528786752007228,0.6823237883141758,1.013633868459516,0.06217743947576536,0.7098555352807954,0.9958125223822246,0.0,0.0,0.0,0.0
0.01824908064275752,0.1997369416627508,0.7485939959701018,-0.008614486597497186,-0.5240533701180334,0.0026093307379962535,0.8516378615830162,0.042996554577302865,-0.8396609213355125,0.9662029210366596,-0.01723566262312541,-0.8214842980834283,0.8958414595758751,-0.019209019110348023,0.6758161171366045,1.0248089196356376,0.056434002640095564,0.7208410742510207,0.9872807258465849,0.0,0.0,0.0,0.0
0.021190893278195892,0.199946342841005,0.7488913807607827,-0.008339843866728983,-0.5243111194223786,0.0023666459926127786,0.8514826457662401,0.04316870665522327,-0.850445104414264,0.9910133205568942,-0.012186803508833392,-0.8295921753180867,0.8964113806016638,-0.006565541760862381,0.6714946548624204,1.0353220660422282,0.05192230887887199,0.7313614410309474,0.9799498464619496,0.0,0.0,0.0,0.0
0.02374998723015332,0.20011236301015004,0.7491299667893673,-0.008123699596516891,-0.5245771206424946,0.0021870147979871565,0.8513213652725794,0.043284943458398506,-0.8593562445841307,1.0118107396584723,-0.007915489540842103,-0.8379695164325287,0.89766917131929,0.0036230970511339413,0.6682995531284421,1.0453884127744046,0.04836362659834856,0.7407362283181721,0.9736587797538083,0.0,0.0,0.0,0.0
0.025843485489052187,0.20025210418203238,0.749356340461128,-0.007946014478982428,-0.5248291075293886,0.00204478433849265,0.8511680724750044,0.043352367448012595,-0.8661615611668305,1.028266155346165,-0.004296354637069709,-0.846335773379089,0.8990591734531537,0.012383148974821425,0.6654798195133479,1.0550684879512209,0.045337738354125426,0.7487008564000179,0.9680918601563713,0.0,0.0,0.0,0.0
0.02746433348344527,0.2003982716601414,0.7496000855934454,-0.00779721020938979,-0.5250558922036135,0.0019298142086620173,0.8510298404828929,0.043306948351930004,-0.8709831879148107,1.0406779507594515,-0.0010751822820731808,-0.854609092217302,0.9001692731973416,0.020353069476472065,0.6626100050821392,1.064385058315662,0.04247442309772967,0.7552338811656945,0.962943037605225,0.0,0.0,0.0,0.0
0.028646901521797788,0.20058789528598178,0.7498713243605116,-0.007674719703832113,-0.52525345419443,0.00184061524009407,0.8509092311579568,0.04305673934048917,-0.8741251482119446,1.0496249590687952,0.0019489954425726372,-0.8627696955215974,0.9007337145526878,0.027865041090978267,0.6594935460613169,1.0733493769633677,0.03947166077261594,0.7604205576396793,0.9579957916718329,0.0,0.0,0.0,0.0
0.029442792680195378,0.200856745274035,0.7501626223107445,-0.007579560883947539,-0.5254217897946163,0.0017793552838928908,0.850806280513139,0.042506851704469634,-0.875966456292274,1.0557648891551672,0.004884171990794155,-0.8707696923530573,0.9006134300812724,0.03506499909920269,0.6560780006833613,1.0819421672939724,0.036087065949693325,0.7643624619934141,0.9531532439546442,0.0,0.0,0.0,0.0
0.029904217497329643,0.20123735238844037,0.7504517272133685,-0.007514269143561349,-0.525562474651193,0.0017492698646506231,0.8507200250685844,0.04156972966762482,-0.8768977837759485,1.0597171896364785,0.007766825773459558,-0.8784488871169754,0.899788016862493,0.04198576594216561,0.6523989005406757,1.0900621197158002,0.03212522540334322,0.7671173714657388,0.9484486528733016,0.0,0.0,0.0,0.0
0.03007251827642577,0.20175881813131333,0.7507037108952779,-0.007482024319747991,-0.525676972082927,0.001753581371273989,0.8506495549203436,0.04016729044832282,-0.8772829218544335,1.0619903534545772,0.010594703790970453,-0.8854409214721114,0.8983761145596356,0.04856831608875758,0.6485510702772572,1.0974346033375881,0.02742751654266571,0.7686576975343179,0.9440510911919178,0.0,0.0,0.0,0.0
0.02997065375621719,0.20244662823926624,0.750873267196325,-0.0074866407219531805,-0.5257658345655193,0.0017952274093958488,0.8505945065499023,0.038231344531480575,-0.877429657856362,1.062931413152253,0.013347506972530397,-0.8910955661096415,0.8966796197463796,0.05463721501631585,0.6447022556344542,1.1034651589214346,0.021873782658073663,0.7688497272804151,0.9402632049940771,0.0,0.0,0.0,0.0
0.029601245202225786,0.20332111014859394,0.7509107074521977,-0.007532993485213375,-0.5258290579314545,0.0018769813338208802,0.8505548381998326,0.035707099832473374,-0.8775597933888993,1.0626996100166317,0.0159926788353833,-0.8945076748166639,0.8952080592542356,0.059850681022500477,0.6411977783902993,1.1070259379261733,0.01540289822025904,0.7674781655154534,0.9374775965747882,0.0,0.0,0.0,0.0
0.02895648433972401,0.20439529718515642,0.7507790056353735,-0.007626157596244957,-0.5258684848708632,0.002000164046420974,0.8505293514533918,0.032562125877239334,-0.8777731589790948,1.0613025519707444,0.018493021982010006,-0.8948313362293768,0.8945683106340987,0.06372480490527978,0.6387975668508745,1.106268775353955,0.008017377016695778,0.7643665883056642,0.9360065003244541,0.0,0.0,0.0,0.0
0.028035153806230926,0.20568036371156107,0.7504698078722336,-0.007765695233011179,-0.5258862565105075,0.002163073302206951,0.8505167019552302,0.028773981650709195,-0.8780749852092503,1.0587301779571638,0.020818531761789494,-0.8921039777673567,0.8947907710768281,0.06623899985323317,0.6375370640589023,1.101210529154455,-0.00031760527421855443,0.7594905223980012,0.93586851337602,0.0,0.0,0.0,0.0
0.02684550445445541,0.20718445153963863,0.7500039782512458,-0.00794500805972651,-0.5258845693134608,0.002360598408489101,0.850515563749471,0.02433461932007469,-0.878383244122137,1.0549731628559875,0.022962539440352914,-0.8872527540852897,0.8953492284684447,0.06785870256898947,0.6367170709293538,1.0937193124693485,-0.009667535933775322,0.7529920815425931,0.9367780418602951,0.0,0.0,0.0,0.0
0.02539338357675125,0.20890338881103002,0.7494170744135563,-0.008156247318034889,-0.5258677747712984,0.0025853455460751007,0.8505232948456952,0.019275073574469528,-0.8785045554853856,1.0499115395810572,0.024951118691467156,-0.8812750854013297,0.8958509436738035,0.06896095872548727,0.636034954565066,1.084922026486198,-0.020003552849586693,0.7450966836625589,0.9383481694995613,0.0,0.0,0.0,0.0
0.023677954220327188,0.21081781904710248,0.7487437675191762,-0.008390440178974945,-0.5258411799916978,0.0028284854832836574,0.8505366856334963,0.01367160941342146,-0.8781706590480054,1.0433001822822632,0.02685170554319141,-0.8749394727211413,0.8961756520984195,0.0698463199725397,0.6353515824938388,1.0753854295346803,-0.031180962978980174,0.736019697650279,0.9402628768271505,0.0,0.0,0.0,0.0
0.021700123281755718,0.21288970210856303,0.7480137775221221,-0.008635662740795347,-0.5258120954464022,0.003078483610249786,0.8505513438646444,0.00765803061218241,-0.8770718413426394,1.0348269689885676,0.028782044561110984,-0.868774886156978,0.8964997540227788,0.0708612601284757,0.6345851482213481,1.065324651575947,-0.042952707658100525,0.7259652812926601,0.9423210930931032,0.0,0.0,0.0,0.0
0.019477297333456614,0.21505793854704955,0.7472516477494909,-0.00887443316411414,-0.5257924581053914,0.0033187155930591316,0.8505601222502253,0.0014417837532831618,-0.8748953815029491,1.0242108795681029,0.03088859902866227,-0.8631638015347938,0.8973241797824811,0.07256304740877698,0.6336839384687313,1.0547484799406859,-0.055000760451526985,0.7151595605911605,0.9444413975338954,0.0,0.0,0.0,0.0
0.017062794089117407,0.21723469402526613,0.74647395416722,-0.00907946049321818,-0.5258027343925895,0.0035218614387089752,0.8505507888388761,-0.004676088557402194,-0.8713877845331472,1.0113452161139225,0.0332716816406525,-0.8584511466689541,0.8995518696226632,0.07593798523789536,0.6326264853586715,1.043562784472363,-0.06701773874079328,0.7038689420525919,0.9466866295629974,0.0,0.0,0.0,0.0
0.01456783944203263,0.21930630659867406,0.7456725957806193,-0.009199586351072538,-0.5258651365130546,0.003607537634562673,0.850510559301465,-0.010202017471707753,-0.8664920558089667,0.9965292952117103,0.03595285838459319,-0.8551308915059871,0.9045782059892072,0.08240314728364444,0.6314852626352788,1.0316808270685716,-0.07912940813811786,0.6922041302431112,0.9493429932016582,0.0,0.0,0.0,0.0
0.01216962788649614,0.22117441018000317,0.7448064449804511,-0.009184344199528257,-0.5260484192354752,0.003573232139819512,0.8503975190777294,-0.014908101864945855,-0.860488705446158,0.9806405029640706,0.03988373705709873,-0.8541934597076003,0.9144830861619203,0.0955074484986066,0.6303637739089164,1.018769270814188,-0.0911638436832452,0.6805810306572191,0.9530721044877091,0.0,0.0,0.0,0.0
