zhuoxili-jackie/tripod-support-walk/examples/trajectory_tripod_lowstep_left_v0.20.csv
root_pos_x,root_pos_y,root_pos_z,root_rot_x,root_rot_y,root_rot_z,root_rot_w,FL_hip_joint,FL_thigh_joint,FL_calf_joint,FR_hip_joint,FR_thigh_joint,FR_calf_joint,RL_hip_joint,RL_thigh_joint,RL_calf_joint,RR_hip_joint,RR_thigh_joint,RR_calf_joint,FL_foot_joint,FR_foot_joint,RL_foot_joint,RR_foot_joint
0.0,0.0,0.72963,0.0,-0.5231245161092812,0.0,0.852256264656019,0.0,-0.81,0.872,0.0,-0.81,0.872,0.0,0.65,1.0,0.0,0.65,1.0,0.0,0.0,0.0,0.0
6.042584894778188e-05,8.283847777583307e-05,0.7296160458721944,2.3934694244768843e-06,-0.5231406052372812,-9.910024793438756e-06,0.8522463886975608,-0.00018446767514831102,-0.8104510492192262,0.8728479440314928,-0.00018446767514831156,-0.8100891736106868,0.8722446037642122,-0.0006399577552499506,0.650219672673686,1.0004033546436584,-0.0006399577552499507,0.6500868818162127,0.9998108180515153,0.0,0.0,0.0,0.0
0.00013603981839911306,0.00021124784040604184,0.7295972979411318,-4.352094795667849e-06,-0.5231608119009985,-1.1266616288312323e-05,0.8522339847396434,-0.0005020539317808434,-0.8111088135849304,0.8740284097193768,-0.0005019895113243596,-0.8101134910040544,0.8724319610033384,-0.0014797289331098047,0.6504594698819457,1.0009913531413293,-0.0014781452762850393,0.6502196450273472,0.9995131515614014,0.0,0.0,0.0,0.0
0.0002229224096406708,0.0003934669330339167,0.7295762857073266,-1.74986730815783e-05,-0.5231784988018706,-6.7029989894086515e-06,0.8522231269100172,-0.0009683965238255453,-0.8119954206064266,0.8755594066325088,-0.0009680819467097119,-0.8100722720976695,0.8725323815175585,-0.0026105315554479816,0.6507177869070734,1.0017616741801638,-0.002604381059791431,0.6503672463940872,0.9990414726609139,0.0,0.0,0.0,0.0
0.00032338428893350756,0.0006566116953361134,0.7295537520380566,-4.120753466770702e-05,-0.5231915610889311,1.0696107331019054e-05,0.8522151069963848,-0.00166879653820839,-0.8132134942051579,0.8775886485952756,-0.001667789026156605,-0.8099060448480541,0.8724641090882125,-0.004148909310769324,0.6509902139120597,1.0027856065153333,-0.004132282360946882,0.650545617401317,0.9982957691724594,0.0,0.0,0.0,0.0
0.00045374822668105367,0.0010408325028301853,0.7295426610645079,-0.0001294956308957568,-0.5232735929892804,0.00020562778272674104,0.8521647069834477,-0.003122032621750418,-0.8147732203024206,0.8802079242783358,-0.003118862911926766,-0.8087952397629048,0.8715555692597489,-0.004980684641584366,0.6511142953911093,1.0040423858030836,-0.00495386313882068,0.6515277714088883,0.9973318206844516,0.0,0.0,0.0,0.0
0.0007326811670041074,0.0013903935402371323,0.7294965201698118,-0.0001495633366320919,-0.5232073381537312,0.00019731289465894496,0.8522053860428934,0.0055296879876944776,-0.8133146464447274,0.8741375538951468,-0.0039711388669894645,-0.8099678794854548,0.8735112542036925,-0.007311686433990345,0.6517128875114938,1.0052742895775832,-0.007257686803139895,0.6518040355523296,0.9961450428304739,0.0,0.0,0.0,0.0
0.0011319960311847144,0.001856435013875815,0.7294244792036,-0.00021069653563026284,-0.5231800343787026,0.0003060507118708243,0.8522221034257627,0.0168858334665771,-0.8134129594745388,0.8692887014722628,-0.0054153407803615725,-0.8111067434585351,0.8758815945713228,-0.009452594517868573,0.65236277053648,1.0069794104457042,-0.009358702968320622,0.652710856646143,0.9948815000491977,0.0,0.0,0.0,0.0
0.001597860591875876,0.0024313052276905616,0.72933968230963,-0.00029904049991393656,-0.5231759503896583,0.00046629025446633967,0.8522245115473128,0.0281849459354269,-0.8145183352707949,0.8653892013260709,-0.007262345876854792,-0.8121035324866996,0.8782850766552388,-0.011863158477030263,0.6531130187244929,1.0090894574667113,-0.011713276345231104,0.653932922657224,0.9933888444657386,0.0,0.0,0.0,0.0
0.0021099791737723868,0.0030909393527117543,0.7292455223119573,-0.0004044147085462693,-0.5231800557101957,0.0006459984431865697,0.8522218305358245,0.03847050820246312,-0.8161397394334493,0.8620540529999303,-0.009370616371498917,-0.8130451474807819,0.8807265237630452,-0.014656656568769685,0.6539696195179806,1.0115065853203171,-0.014426802798814496,0.6553052152895581,0.9916669633745049,0.0,0.0,0.0,0.0
0.0026712298460021032,0.003820151178370342,0.7291399507163742,-0.0005238427189221007,-0.5231865022947528,0.0008346684166712512,0.8522176439936119,0.047668004226460094,-0.8179460573589409,0.8590625089125818,-0.011675612041951264,-0.8140407540795298,0.8833380010386854,-0.017825901949425488,0.6549455411583388,1.0141885898170135,-0.017484274746678588,0.6567881878999344,0.9897566184355412,0.0,0.0,0.0,0.0
0.003295482572226522,0.004617468215026467,0.7290187189251884,-0.0006594414190114229,-0.5231924877686349,0.0010333069067561603,0.8522136575743892,0.055996250151871846,-0.8196811170358062,0.8563085140335216,-0.014176364578189455,-0.8151870558249334,0.8862755297727403,-0.02135371508800103,0.6560559560976512,1.017142888595023,-0.020860453661756755,0.6584018942860542,0.9876791840182284,0.0,0.0,0.0,0.0
0.004000330347194818,0.005493190611391861,0.728877164269992,-0.0008168644202386162,-0.5231947893880815,0.0012491217160773278,0.852211819200261,0.06368397117486489,-0.8210594606155459,0.8537756724518568,-0.01691724622191299,-0.81655766642298,0.8896744471695474,-0.025244438743071317,0.6573120199559854,1.0204072176285193,-0.024550178659276854,0.6601901267606074,0.9854193621880569,0.0,0.0,0.0,0.0
0.004803190433480853,0.006465222398552473,0.7287115311902421,-0.0010042149756889498,-0.5231888679559494,0.0014927994467683085,0.8522148623141151,0.07088303670732013,-0.821692623146057,0.8515313150351956,-0.019970792912674035,-0.8181978839126887,0.8936311799173492,-0.029520329268833922,0.6587203225561555,1.024027155098182,-0.028563759752080236,0.6622070930558204,0.9829252912709284,0.0,0.0,0.0,0.0
0.005719707784121028,0.007555050182718187,0.7285207450237793,-0.0012315726194352084,-0.5231698595462789,0.001777793057296664,0.852225686507427,0.07768871255721232,-0.8211008077638975,0.8496980892167177,-0.023425903667539633,-0.82011503979605,0.8981942013408769,-0.03420120176948455,0.6602897744351656,1.0280303621676947,-0.032906669098893594,0.6645238784101049,0.9801082613886416,0.0,0.0,0.0,0.0
0.006764088893111524,0.008785962572861138,0.7283086798996818,-0.0015114800522073944,-0.5231345058890017,0.0021211274293329013,0.8522461528189789,0.08420417969715088,-0.8188946488036066,0.8483210422658317,-0.02738511456535231,-0.8222626944470961,0.9033572607552108,-0.03928261392285706,0.6620444802667206,1.0324028596520447,-0.037558961527970634,0.6672498333128659,0.9768317983449099,0.0,0.0,0.0,0.0
0.007948828809178984,0.0101864051097017,0.7280807163657556,-0.0018575854182335265,-0.5230697050227451,0.0025404085829697754,0.8522840954682094,0.09062882085246453,-0.8152677452400908,0.8469441251591298,-0.03196668082993575,-0.8246147027457663,0.9091169733379656,-0.044784585951034406,0.6639862215024338,1.0371115815748257,-0.0425212475025057,0.6704762821351804,0.9729033010031009,0.0,0.0,0.0,0.0
0.009276356522516002,0.011767006389398989,0.7278499865469673,-0.0022824286945897555,-0.5229658388095383,0.0030532966148724664,0.8523451175065601,0.09732440029151004,-0.8104499704016006,0.8449336257192358,-0.0372447663476085,-0.8270840215232312,0.915398711508707,-0.05059868929532672,0.666120167933119,1.0420113928882422,-0.047674339389918274,0.674322650243407,0.9681346035129892,0.0,0.0,0.0,0.0
0.010725592594361434,0.013493074237759292,0.7276308269663725,-0.0027915980628022002,-0.5228192064758206,0.003670140799593662,0.8524311200248148,0.10483526889941577,-0.8044542093778753,0.841485952231568,-0.04316059765772043,-0.829557244297228,0.922055055834226,-0.056355977210676284,0.6683869919480847,1.0468488926658177,-0.05267123611731233,0.678853780985737,0.9625190902029939,0.0,0.0,0.0,0.0
0.01222479339331078,0.01523895453946038,0.7273943190707589,-0.003374513366328415,-0.5226394483177377,0.004379227353303294,0.8525358890331006,0.11380128195101159,-0.7969845795387046,0.8354332290642745,-0.049368480939727497,-0.8320287054706599,0.9288590182509818,-0.06122495547743592,0.6703962162670282,1.0515829522887927,-0.05677971883265112,0.6837565782470041,0.9568606710574531,0.0,0.0,0.0,0.0
0.013615723410898718,0.016746667937813136,0.7269872891626867,-0.003997271176021055,-0.5224398230057339,0.005123625967351105,0.852651395130407,0.1246649879083375,-0.787403879818719,0.824659367665383,-0.055072430545384576,-0.8349307560536138,0.9355770351018535,-0.0637802290130032,0.6709394615982442,1.057027933113385,-0.05879561564498035,0.6877285041697485,0.9537286090727424,0.0,0.0,0.0,0.0
0.014774337288851469,0.017802208468095958,0.7264718086174772,-0.004637362899981,-0.5221792152573189,0.005819686600097105,0.8528033145259586,0.13667660296519216,-0.774344592889542,0.8056157804018088,-0.05949446296311636,-0.8384945104899205,0.9422486676687539,-0.06290417736641218,0.6697619771857451,1.0621576389700311,-0.057820275267998496,0.6904200589703466,0.9534143897590607,0.0,0.0,0.0,0.0
0.015420844903041072,0.018232133705230847,0.7260085558406832,-0.005263331586776815,-0.5218172319429331,0.0063518768430589,0.8530174250556629,0.1474705982928887,-0.75680223401198,0.7744438318608754,-0.06184032025906707,-0.8418934777888881,0.9472586319188371,-0.058028124557401105,0.6666472936284322,1.0654549336995234,-0.05339578185380198,0.6914006536277431,0.9552843170160331,0.0,0.0,0.0,0.0
0.015452118257426792,0.01827107291590118,0.7259952555234939,-0.005308034751354784,-0.5218026949375569,0.006353319509521367,0.8530260298807952,0.1474865828577585,-0.7567739303305243,0.7744418775112271,-0.061938986126262516,-0.8419098166103178,0.9472955788705181,-0.05804703639140984,0.6666343776439079,1.065585014148351,-0.053361812413630284,0.6914635529077129,0.9551813517378951,0.0,0.0,0.0,0.0
0.015452118257426792,0.01827107291590118,0.7259952555234939,-0.005308034751354784,-0.5218026949375569,0.006353319509521367,0.8530260298807952,0.1474865828577585,-0.7567739303305243,0.7744418775112271,-0.061938986126262516,-0.8419098166103178,0.9472955788705181,-0.05804703639140984,0.6666343776439079,1.065585014148351,-0.053361812413630284,0.6914635529077129,0.9551813517378951,0.0,0.0,0.0,0.0
0.015450401589158643,0.018846857626434267,0.7270822955341459,-0.004436223878671489,-0.5216593471682925,0.005454117740214763,0.853124901775423,0.1477949072157453,-0.7526790117339954,0.7737688853110198,-0.06145416867252615,-0.8408063052951429,0.946750901980386,-0.07524809684653376,0.6756541873418002,1.0585754537809866,-0.03280485078692075,0.6834821275397526,0.9794576666634491,0.0,0.0,0.0,0.0
0.01547478467075405,0.019714943649116405,0.72837989080787,-0.0038458996667438436,-0.5215236866267009,0.0048205299618708595,0.8532145192353062,0.14682566875944641,-0.7501673399865533,0.7757010311004,-0.06224309651338377,-0.8374172575581204,0.9441555306367513,-0.09089350103925403,0.6847655270004581,1.0501516312075778,-0.0135748458237607,0.6787420781778816,0.9975629129335387,0.0,0.0,0.0,0.0
0.01552527879413029,0.020777893140056767,0.7296255111952957,-0.003499303101497091,-0.5214028566139813,0.004440273322803807,0.8532919195477023,0.14487335847401614,-0.749541110973844,0.7798801933270568,-0.06406859959553314,-0.8328486789426072,0.9402453613028631,-0.10451478115704137,0.6928505399483791,1.0423430940191427,0.0012167132164516946,0.6757185456901534,1.0110749336292626,0.0,0.0,0.0,0.0
0.015591628075348384,0.021954450162596856,0.7307663412433935,-0.003309489684775629,-0.5212871908472201,0.004226577059762232,0.8533644285901529,0.14232352011618402,-0.7503017645007866,0.7855106972317126,-0.06653990727324952,-0.8277706650582436,0.9355982503192829,-0.11670151286831776,0.6999282328660147,1.035504954929745,0.01299313255985141,0.6737784389576547,1.0217998869137037,0.0,0.0,0.0,0.0
0.015659659816580598,0.02318087773795907,0.7318004323077542,-0.0032110589147890936,-0.5211647447523591,0.004103072243804428,0.8534401928231505,0.13949119154686754,-0.7519213576862463,0.7918691883114103,-0.06932493236719825,-0.8225936225001106,0.9305986179391432,-0.12796764141852648,0.7061654607681666,1.0295731598308535,0.022972653409938336,0.672556787190523,1.0307647716318935,0.0,0.0,0.0,0.0
0.015667773453501406,0.02438993171972706,0.7327332338260719,-0.0031521650484483935,-0.521028788190519,0.00401825877630123,0.8535238246988969,0.1366229838336819,-0.7536431293623397,0.797760014577585,-0.07213787734997916,-0.8173993194134296,0.9251272889321994,-0.13846994626461379,0.7115123381418553,1.0244364425240722,0.032160308933709594,0.6717001490925572,1.0384080194542107,0.0,0.0,0.0,0.0
0.015571296204562742,0.02555454086922831,0.7335712389898612,-0.00310279647474207,-0.5208707129776043,0.003941600820074105,0.8536208390141454,0.1338339229175232,-0.7550598186493032,0.8025215040291126,-0.07484207724791996,-0.8121816094894498,0.9190083493119565,-0.14836152521921098,0.7159135174254628,1.0200412322184338,0.04114185447860184,0.6710271786152437,1.0447438888040643,0.0,0.0,0.0,0.0
0.015358074395924704,0.026700184594113996,0.7343216692320943,-0.0030519002027694533,-0.5206767583489496,0.0038626687619022194,0.8537397021401884,0.1310820299676663,-0.7562299930871668,0.806233863150903,-0.07748194722984686,-0.8069060565425946,0.9121154204730516,-0.15794441695441688,0.7193752303386356,1.0164064637358312,0.050313342457252025,0.6706145364746424,1.0494229295697444,0.0,0.0,0.0,0.0
0.015012404733918192,0.02787098293125838,0.7349950051681778,-0.0029907331086496286,-0.5204281727064224,0.003773065965030518,0.853891876376717,0.12827506950837195,-0.7572737038962077,0.809057135852627,-0.08015234771475177,-0.8014738712286352,0.9042120916831669,-0.16762433805456287,0.7218975240633205,1.0135584846729229,0.060118629816844155,0.6707850626522837,1.051578885298748,0.0,0.0,0.0,0.0
0.014522961420001161,0.029119296384540333,0.7356166945982076,-0.002910863540141706,-0.5201008799064915,0.003665151475150168,0.8540920139297687,0.1252991843887819,-0.75833894314179,0.8112359204623034,-0.08296963591546003,-0.7957563768203614,0.895056319168516,-0.17783686960472528,0.723544934727903,1.0113818590429087,0.07110797473694491,0.6722487407281017,1.0497768280513855,0.0,0.0,0.0,0.0
0.01390526543910007,0.030495470280315247,0.7362394347526189,-0.0028095897303102657,-0.5196714246097612,0.0035335725558133376,0.8543542769335221,0.12204737775466848,-0.7596273507786591,0.8132380004164058,-0.08604709748833912,-0.7896468737317749,0.8845961787156272,-0.1889276988591099,0.7245736420427173,1.0094562088249592,0.08343055597039187,0.6742620225845718,1.0457707422670928,0.0,0.0,0.0,0.0
0.013151928761561333,0.03201204820013929,0.7369199476441393,-0.0026652708736052415,-0.5191092243874055,0.003350811716590381,0.8546971870480893,0.11854578379003804,-0.7610365945126528,0.8150424193261404,-0.08935297417845191,-0.783127948512089,0.8728089864473093,-0.20116282325503013,0.7251968562338863,1.007229365530866,0.09782597319696097,0.6764224168608801,1.0408250416069857,0.0,0.0,0.0,0.0
0.012261493396714932,0.033662386379126004,0.7376837470834464,-0.0024374513715388246,-0.5183649187040656,0.0030717766514058143,0.8551505329916732,0.11491162552670398,-0.7625753944264086,0.8166852893672593,-0.09278343544427486,-0.7765409184256931,0.8600256730111954,-0.2148572456885794,0.7254880671521431,1.004331589158367,0.11621019549887271,0.6787076636112341,1.03595482641608,0.0,0.0,0.0,0.0
0.011222621732195804,0.035366785172235723,0.7384879639032005,-0.0020516923500189235,-0.5173771576399422,0.0026158508813583455,0.8557510295845876,0.11152090001828907,-0.7641290595628275,0.8177879836560554,-0.09599427264625555,-0.7708223257328943,0.8471332342755433,-0.23018628712859035,0.7251950724551702,1.000815316049199,0.14230376607539755,0.6814958600845606,1.0321952641262624,0.0,0.0,0.0,0.0
0.010074115448198464,0.03694301386429899,0.7391423635192778,-0.001406400667725084,-0.5160637817193982,0.0018325974195014122,0.8565470429703982,0.10920663824178635,-0.7659540673114356,0.8182043823951803,-0.09825824558478943,-0.7682936185523234,0.8366039304921504,-0.24731334536281965,0.7236188194781789,0.9977658220754613,0.18119421583406814,0.6858680652170113,1.0304900590844754,0.0,0.0,0.0,0.0
0.00885234416352853,0.038184558332384634,0.7391390024672091,-0.0005183241978250623,-0.514400944448462,0.0007415690148738828,0.8575493278907939,0.10851905190087643,-0.7694658550307714,0.8183369779067599,-0.09918140856715858,-0.771566330590089,0.8308861657316429,-0.26443235473422827,0.7181798844457106,0.9992241944299918,0.23473873717128385,0.6916111866889063,1.0321099095108215,0.0,0.0,0.0,0.0
0.007790851988106005,0.039052783191926135,0.7381796070007648,0.00027123303416263004,-0.5125355548865248,-0.00030510102717348856,0.8586659061143435,0.10893670791690943,-0.7771896622548097,0.8212363473487722,-0.09939662925046104,-0.7808354945753868,0.8311484546506236,-0.27720007425451193,0.7075031020802584,1.0077702763296355,0.2892352180171832,0.6942709913984756,1.0389770292743323,0.0,0.0,0.0,0.0
0.007797911703256333,0.0390780428773661,0.7381632791945955,0.0003057537956214838,-0.5125377116661224,-0.0003344257251196307,0.8586645962156036,0.10894489767776995,-0.7771903907607253,0.8212743499063678,-0.09939210407964251,-0.7808756746738134,0.8310776909953058,-0.27723224025637383,0.7074493882064753,1.0077033256106,0.28925858473737853,0.6942713207310778,1.038977774530336,0.0,0.0,0.0,0.0
0.007797911703256333,0.0390780428773661,0.7381632791945955,0.0003057537956214838,-0.5125377116661224,-0.0003344257251196307,0.8586645962156036,0.10894489767776995,-0.7771903907607253,0.8212743499063678,-0.09939210407964251,-0.7808756746738134,0.8310776909953058,-0.27723224025637383,0.7074493882064753,1.0077033256106,0.28925858473737853,0.6942713207310778,1.038977774530336,0.0,0.0,0.0,0.0
0.007915306593605754,0.03940032112160818,0.7384530249982083,0.0002802099446018388,-0.5136647489003945,-0.0002948756139086256,0.8579908858885704,0.10776625514708986,-0.7713616053102277,0.8171030772858484,-0.10001475387788325,-0.7727546096285922,0.8234454654012786,-0.28265093377131006,0.7133294772917494,1.0080572908833811,0.2911009579587386,0.7000688043578349,1.0379104943834685,0.0,0.0,0.0,0.0
0.008069718560172448,0.039857098521974096,0.7386104404458836,0.00019860995053014215,-0.5143982521138631,-0.00019445296380321794,0.8575513751165785,0.10626113227727348,-0.7691071272421549,0.8166931322420122,-0.10120688584097264,-0.766916730994807,0.8177900727764477,-0.28754633632365856,0.7173177252543076,1.0090826428822794,0.29163000967980623,0.7041040163763425,1.0368231412988944,0.0,0.0,0.0,0.0
0.008347345380285998,0.04048841308130192,0.7386011132608618,7.08512417647705e-05,-0.5148807725636309,-4.855806470002756e-05,0.8572617935417945,0.10434808796819535,-0.7702548286798964,0.8203714466628975,-0.10302027640913355,-0.7630392988114266,0.8141353777980171,-0.2929137796266826,0.7201119987102909,1.0114317818591883,0.2909687236540293,0.7069536821823018,1.0361757813143517,0.0,0.0,0.0,0.0
0.008772907408881075,0.041383877773966016,0.7382915483054207,-0.00010703429883054163,-0.5152588123511835,0.0001406696509679309,0.8570346113490143,0.1017920296588601,-0.77475852699887,0.8281556648463638,-0.10565742994904988,-0.7605334050643798,0.8116494220682274,-0.30016389098593127,0.7218522185080565,1.0168433333305251,0.28909998686590466,0.7086164424809961,1.0372472021767936,0.0,0.0,0.0,0.0
0.009416208908116402,0.04259068624654256,0.7373894493809647,-0.00023704158658104435,-0.5157163257082942,0.00028011257851251595,0.8567593225323937,0.09865003957194596,-0.7825575861916573,0.8399282527575156,-0.10907063630342174,-0.7598131502145973,0.810505985521769,-0.31247765887900947,0.7227613135486427,1.0284518823356028,0.28530354330057384,0.7084052493855746,1.0428227671873491,0.0,0.0,0.0,0.0
0.010448112066154057,0.04417268492777276,0.7378784962333542,0.0007476341214806475,-0.5168230483398822,-0.0009288744149644011,0.8560914173966547,0.09717112358907402,-0.7805700364261823,0.8473248261411304,-0.11037842622348899,-0.756319237490353,0.8094667206161429,-0.2417965761485939,0.7093263796925454,1.0239163213672113,0.26068155887383415,0.7123798333485032,1.0350205595855408,0.0,0.0,0.0,0.0
0.011610756301245037,0.046033872956798685,0.7377304607008367,0.001652842032143974,-0.5179342382764853,-0.0020255066002837344,0.8554164425922534,0.0948274408482484,-0.7823904793864154,0.8585291035227831,-0.11274222050608933,-0.7542900337128204,0.8090200434515414,-0.17825934009459912,0.6980638093214477,1.022804883766564,0.23525216129053897,0.7139273947873126,1.0318440542406992,0.0,0.0,0.0,0.0
0.012779065146247522,0.047832707115510395,0.73736440388,0.0022077851231252286,-0.5188144363347089,-0.002712373330041418,0.8548797280123485,0.0918519744492983,-0.787395136490678,0.872178564557204,-0.1158788522274009,-0.7531016268671517,0.8093471362781188,-0.1355486748111719,0.690845796357269,1.0247899927291717,0.21486838686899162,0.7150561052941266,1.0302628456974166,0.0,0.0,0.0,0.0
0.013810947856620358,0.04945432136604834,0.7369685714251296,0.002521392098489013,-0.5194735779186963,-0.003112501320049843,0.8544771247738389,0.08873272796830936,-0.79339815551972,0.885521506152415,-0.11919378682380175,-0.7521166119138799,0.8095604346654144,-0.10766828116705043,0.6860535438282813,1.0286209876781163,0.19878491852701738,0.715935029765378,1.029138683674941,0.0,0.0,0.0,0.0
0.0146725075329118,0.05087329718511809,0.7366125414165753,0.0027078635230902673,-0.5199683730956739,-0.003355427393680422,0.8541746306010172,0.08577419332657359,-0.7991910669359849,0.8973519654464318,-0.12232983094309836,-0.7511407263141034,0.8094154477080602,-0.08811764383836974,0.6824249298850082,1.0333365730862576,0.18571120625946985,0.7165727034855052,1.0280950131729734,0.0,0.0,0.0,0.0
0.01537770791557707,0.05211210337145513,0.7363055277311777,0.0028362591280108786,-0.5203487406226459,-0.0035211940534469457,0.8539418861720176,0.08308116577073764,-0.8043696816288589,0.9074776064501211,-0.12516776794217616,-0.7501477684296098,0.8089091677419087,-0.0727889486642967,0.6793128701231642,1.0382499342397888,0.17461166260187294,0.7169393712149993,1.0270776367539867,0.0,0.0,0.0,0.0
0.015952182524888982,0.053208557745368514,0.7360215077329512,0.002941280366916282,-0.5206502639741932,-0.0036524934841022606,0.8537571731966617,0.0806533802253102,-0.8089447156527456,0.916112238805976,-0.12771202736874476,-0.7491848829257501,0.8080942596599596,-0.059534351746317916,0.676489620530467,1.0427601654253598,0.1647791753807033,0.7169454306290116,1.026255167929342,0.0,0.0,0.0,0.0
0.016414037107659592,0.054203093006586725,0.7357112422770635,0.0030371628627257,-0.5208942381295014,-0.0037698323692054183,0.8536074956847202,0.07844160282395934,-0.8131144243082604,0.9235569362062717,-0.1300226373427715,-0.7483232272068615,0.8069705713693245,-0.047419942698595036,0.6740097141603364,1.0461172332731496,0.15573791925325228,0.7163985529232844,1.0259763038870036,0.0,0.0,0.0,0.0
0.01673994392570208,0.05515911896776091,0.7353162781740703,0.0031226170402629525,-0.52109279664187,-0.0038722476275065395,0.8534855313648181,0.07628556717974719,-0.8170773015562454,0.929915179754947,-0.13225379356495415,-0.7473434470445461,0.8049778236816385,-0.036243608844419614,0.6721366906528121,1.0471341640839809,0.14702322308279406,0.7149429735289835,1.0266451267977372,0.0,0.0,0.0,0.0
0.016928275990772887,0.05611482369070828,0.7347911930172307,0.0031968907789183525,-0.521249570977769,-0.003962170044163096,0.853389105773785,0.07410025144675848,-0.8210590879019452,0.935393501396989,-0.13449554855925525,-0.7462333152242494,0.8019402100748629,-0.026092741835382696,0.6716339953311284,1.0441110583740727,0.1383510261644186,0.7123439152685578,1.0285667583091749,0.0,0.0,0.0,0.0
0.016986977784849804,0.0571098139425565,0.7341256564241743,0.003267170298563736,-0.5213731977207194,-0.004046423173873422,0.8533129207718642,0.07179900428612407,-0.8251667849755924,0.9401844544790106,-0.13683276440265077,-0.7449015102991354,0.7976980360191287,-0.016501547376938777,0.6718000747837775,1.038505867633172,0.12932665515135755,0.708544127363011,1.0317091745105813,0.0,0.0,0.0,0.0
0.01692537887847049,0.058168147651994066,0.733327963100609,0.0033458204471221507,-0.5214674565374091,-0.004138133283277443,0.8532545769645017,0.06934683067200158,-0.8294147067020549,0.9444011543733389,-0.13929834051121268,-0.7433010970077812,0.7921984345791803,-0.007019850237926926,0.672338213051066,1.031118489930533,0.1195825355685682,0.7035479169396692,1.0358923460753953,0.0,0.0,0.0,0.0
0.016750132361719877,0.059284436492201845,0.7324109685889825,0.0034536380590651254,-0.5215353804964942,-0.0042605972017600215,0.8532120290912559,0.06680525419461572,-0.8336802604458095,0.9479754580314301,-0.14183050297395758,-0.7414934875621921,0.7855461888187611,0.002789847600603492,0.6732172330647352,1.0221966056912364,0.10886078767436719,0.6973591372612405,1.0409697869671568,0.0,0.0,0.0,0.0
0.016558427582678645,0.06035226290654026,0.7313881048794424,0.0036368616149040573,-0.5215711671400513,-0.0044668318918243,0.8531883369213441,0.06457392275991719,-0.8379548157464962,0.9512312113762689,-0.14409073723065266,-0.7405474090192085,0.7795378965765509,0.013874340713951194,0.6748143913110096,1.0115674307212152,0.09739451790863031,0.6902479669377317,1.0469355998691763,0.0,0.0,0.0,0.0
0.016354898017010792,0.06131197968567963,0.7302822566805707,0.003953521934874932,-0.5215643579067037,-0.004840265663193156,0.8531890541105107,0.06299725223075996,-0.8418502545810631,0.9538014037122243,-0.14575443141789637,-0.7409908237891293,0.7748758156377133,0.026935949512048786,0.6773241428049419,0.9984237973077561,0.08459473491471706,0.6820235311568427,1.053644695126354,0.0,0.0,0.0,0.0
0.016150511251719415,0.06209234522791741,0.7291548169782148,0.004485357662201669,-0.5214840997427819,-0.005495224829939311,0.8532315147638246,0.06252296852631085,-0.844884489125114,0.9553262335209097,-0.14640241829978382,-0.7435533157806946,0.7725834869347428,0.042649101641291515,0.6811715049395483,0.9812380631949691,0.06957842164391696,0.6725073471515308,1.0605743897551783,0.0,0.0,0.0,0.0
0.01596852073042202,0.06261427718829292,0.7282298689143272,0.005277018441183093,-0.5213201342261533,-0.006448309548432675,0.8533205083851931,0.0633597569805499,-0.8462185209336812,0.9553887049660212,-0.145800770024003,-0.7481494585075017,0.7732487396582854,0.05842068053834447,0.6876129545918064,0.9586331532759556,0.0526321051567101,0.6627085853438826,1.0659272226149779,0.0,0.0,0.0,0.0
0.015974181325068587,0.06262635666580378,0.7282139835109449,0.005290267270539615,-0.5213280124371092,-0.0064564317574993335,0.8533155518385566,0.06334533260891516,-0.8462328831999293,0.9554136643738671,-0.14581166420801142,-0.7481484884077084,0.7731939878712064,0.058425600153936885,0.6876104522542434,0.958625680584332,0.05262088820150953,0.6626706796899959,1.0659223718846245,0.0,0.0,0.0,0.0
0.015974181325068587,0.06262635666580378,0.7282139835109449,0.005290267270539615,-0.5213280124371092,-0.0064564317574993335,0.8533155518385566,0.06334533260891516,-0.8462328831999293,0.9554136643738671,-0.14581166420801142,-0.7481484884077084,0.7731939878712064,0.058425600153936885,0.6876104522542434,0.958625680584332,0.05262088820150953,0.6626706796899959,1.0659223718846245,0.0,0.0,0.0,0.0
0.015284937711388473,0.0629026906125647,0.7286562872702823,0.004571101280020242,-0.5220331100503226,-0.005677702336811473,0.8528940735756405,0.060726398649616105,-0.8408806415465641,0.9479643155436263,-0.1321188892808533,-0.7674497760495441,0.808782826395011,0.06635475720904789,0.6863735269131366,0.9567457522271385,0.06152512223721217,0.6676997035697252,1.0640744965219033,0.0,0.0,0.0,0.0
0.014027959005859913,0.0639265976171856,0.7291819069979062,0.0039309036363068236,-0.5225034828359267,-0.004894292127680137,0.8526140418298876,0.05610429070205805,-0.8356550817338899,0.9391707462192815,-0.1171959306641666,-0.7817858837628946,0.8298677662838957,0.06818569366654022,0.6837018450313436,0.957252008148491,0.06364763680224021,0.669614333813746,1.0594577908462681,0.0,0.0,0.0,0.0
0.012528047780128396,0.065561820723106,0.7296253364824037,0.0033274157641589035,-0.5227711461201232,-0.004131438776176866,0.852456560947374,0.049996388029084224,-0.8320157171587552,0.9314587113337132,-0.10428358508236636,-0.7918460174526555,0.8411762853997803,0.06521285462192819,0.6797981049876679,0.9607887147664305,0.06018724276522425,0.6690091254855258,1.0535271600032776,0.0,0.0,0.0,0.0
0.010909562110518009,0.06752213096513032,0.7299316455815406,0.0027599958060062946,-0.522948896596306,-0.0034402963080178584,0.8523526255800294,0.043279125182320154,-0.8292059664913161,0.9241869160676918,-0.09428775270390931,-0.7993753065485775,0.8472267681357035,0.05930618870518214,0.6750570495975036,0.9667890644668334,0.05340500656047921,0.6666775291308504,1.0475757587344214,0.0,0.0,0.0,0.0
0.009305615540113488,0.06952571478796227,0.7301889148930543,0.002249162993123825,-0.5230660383734006,-0.0028419176237658894,0.8522844503277097,0.03671504148904696,-0.826624301399067,0.9171349239359767,-0.08655912434145514,-0.8053563269855908,0.8503944734455176,0.052204234782199696,0.6703657788062481,0.973216376899448,0.04544863034582321,0.6637859522750231,1.0415503647771165,0.0,0.0,0.0,0.0
0.007815282246708898,0.0713816633802333,0.7304598607643679,0.0018120139991888826,-0.5231374917952017,-0.0023435299430319204,0.8522431514250485,0.03079590601445868,-0.8239896527695629,0.9103393177563132,-0.08007492904367644,-0.8103359108340895,0.8520062810605183,0.04508702511668336,0.6663195974050675,0.9787059711570112,0.037687362831453526,0.6611063715007882,1.035413312552712,0.0,0.0,0.0,0.0
0.006473874770545875,0.0730198595662292,0.7307278206421505,0.0014480938656147736,-0.523176462525384,-0.0019321385591238448,0.8522209566328266,0.02565871972549745,-0.8213622554810042,0.9039139385795818,-0.07402247215921752,-0.8145262718729599,0.8528447974891304,0.03853087826739444,0.6628861686901906,0.9831768393451302,0.03070804377972014,0.6587686620530283,1.0295666387319737,0.0,0.0,0.0,0.0
0.005298797802126699,0.07443984244953779,0.7309731086691323,0.001148900255175888,-0.5231937838850855,-0.0015904656120165667,0.8522114848741168,0.02125464833657354,-0.8189269378275659,0.8981062553614056,-0.06789169601898265,-0.8177816241508402,0.8534757280314077,0.032697752254282716,0.6599737130566073,0.9868423994839113,0.024616444421222607,0.6567732025180453,1.0242494122700185,0.0,0.0,0.0,0.0
0.004297798722125534,0.07567765220506757,0.7311855108484414,0.0009024626208451888,-0.523195329336507,-0.0013017075782245835,0.8522113226653719,0.017445845690479318,-0.8169019377311101,0.8932172728120961,-0.061445268185976974,-0.8197139724946823,0.8543443163492112,0.027509079098151284,0.6575160003317373,0.989950180119252,0.019274167238176293,0.655100916183433,1.0194956392545218,0.0,0.0,0.0,0.0
0.003431764148600158,0.07676195993699574,0.7313687507281177,0.0006977382494118223,-0.5231921443332331,-0.0010524201659369954,0.8522138145331387,0.014121201225340866,-0.8151496750152857,0.8889809652026818,-0.05452072584978647,-0.8201026012312359,0.8558818044003023,0.022902280162965687,0.6554014382922171,0.9926413076909482,0.014583617063549378,0.6536769815384245,1.0152811156862915,0.0,0.0,0.0,0.0
0.002678097005386273,0.07771897075166943,0.7315248593903465,0.000525923602256593,-0.5231829553141778,-0.0008311069621418812,0.852219823715868,0.011184170871927938,-0.8136685030179778,0.8853301539718779,-0.04706713836119039,-0.8192939889886907,0.8579273699007512,0.018811458397114494,0.6535372666174332,0.995013521277569,0.010456175657361894,0.6524417677174632,1.0115515285365497,0.0,0.0,0.0,0.0
0.00202300920687989,0.0785700693477186,0.731658623303849,0.0003803225493619082,-0.5231693856286856,-0.0006294450525947495,0.8522284042993332,0.008559127005295845,-0.8124493565982497,0.8822298108727591,-0.03905311284120625,-0.8177313002515103,0.8602841534402755,0.015176576794567818,0.6518875321881235,0.9971166977356722,0.006816257055620457,0.6513837630502525,1.0082308165401517,0.0,0.0,0.0,0.0
0.0014537111048408473,0.07932661002816606,0.7317767775288265,0.00025668054045176333,-0.5231542076487818,-0.00044260440378844764,0.8522378853558537,0.0062046815758402644,-0.8114374748974664,0.8795934129158479,-0.030454664243231316,-0.8157742306287182,0.8628369373494287,0.011970749337146553,0.6504400535702968,0.9989495575247151,0.003626801668803222,0.6505051482000191,1.0052522935721948,0.0,0.0,0.0,0.0
0.0009618317385774833,0.07998611158003509,0.7318865389220174,0.00015365551755101885,-0.5231399896489368,-0.0002704749691404169,0.8522467098577636,0.004126278461319477,-0.8105533255952454,0.8773135658193346,-0.021340807664302262,-0.8136806455123978,0.8655433247109974,0.009214678045778659,0.649207433674045,1.0004570729947388,0.0009009731219217893,0.6498171007372422,1.0025797204484699,0.0,0.0,0.0,0.0
0.0005493659995607852,0.08052841437094391,0.7319941288327034,7.314835837076054e-05,-0.5231295761504429,-0.00011997037425872859,0.8522531471417896,0.0023917789255899504,-0.8097148824752581,0.8753076318924471,-0.012079162090376403,-0.8116786530565959,0.8683945341795608,0.006985677526442605,0.6482427497532898,1.0015301651878272,-0.0012912048559700767,0.6493450569998399,1.000229145308353,0.0,0.0,0.0,0.0
0.00023609501188759645,0.08091565186245643,0.7321007696480684,2.1520404984951286e-05,-0.52312436843663,-1.458209879654261e-05,0.8522563549026851,0.001156594165934321,-0.808886631180261,0.8736020191299418,-0.0036703323252981254,-0.8100759763252231,0.8713380058600503,0.005348861304846433,0.6476629408116897,1.0020430650737893,-0.0028931027427072696,0.649099378323018,0.9982873176614052,0.0,0.0,0.0,0.0
5.358552154200352e-05,0.08110747036760318,0.7321931486044796,3.5956445776909584e-06,-0.5231292325213042,1.845983103666568e-05,0.8522533694436046,0.0005934131087291045,-0.8081137636718944,0.8723365201676497,0.00209260873290972,-0.8094044637212104,0.8741565565143737,0.004372444073229499,0.6475643641430474,1.0019935846042896,-0.003844831582044446,0.6490575871257748,0.996976174910378,0.0,0.0,0.0,0.0
5.371909048800822e-05,0.08110877951210503,0.732192332530989,4.493243595762227e-06,-0.5231286788786856,1.94197485904375e-05,0.8522537092540725,0.0005883031182549521,-0.8081161596263119,0.8723351132419348,0.0021017727052766782,-0.8093996397870562,0.8741586172684258,0.0043687912668014806,0.6475590798566265,1.0019982246141441,-0.003842056644497702,0.6490612308007635,0.996971584790788,0.0,0.0,0.0,0.0
5.371909048800822e-05,0.08110877951210503,0.732192332530989,4.493243595762227e-06,-0.5231286788786856,1.94197485904375e-05,0.8522537092540725,0.0005883031182549521,-0.8081161596263119,0.8723351132419348,0.0021017727052766782,-0.8093996397870562,0.8741586172684258,0.0043687912668014806,0.6475590798566265,1.0019982246141441,-0.003842056644497702,0.6490612308007635,0.996971584790788,0.0,0.0,0.0,0.0
5.371909048800822e-05,0.08110877951210503,0.732192332530989,4.493243595762227e-06,-0.5231286788786856,1.94197485904375e-05,0.8522537092540725,0.0005883031182549521,-0.8081161596263119,0.8723351132419348,0.0021017727052766782,-0.8093996397870562,0.8741586172684258,0.0043687912668014806,0.6475590798566265,1.0019982246141441,-0.003842056644497702,0.6490612308007635,0.996971584790788,0.0,0.0,0.0,0.0
0.00022455102224079078,0.08134118467050945,0.7321336673124378,2.1906999248940326e-05,-0.5232101877790222,-9.513597564570234e-06,0.8522036721546178,6.786509205596806e-05,-0.8092059398362833,0.8745162275825071,0.001580764961622399,-0.8095182500270183,0.8746943787456809,0.0025158014472015607,0.6481962037987703,1.0033836517368837,-0.005700035064931845,0.6492960020068026,0.9966844197527038,0.0,0.0,0.0,0.0
0.0004359433157809823,0.08169438998749255,0.7320636559732929,1.146437119915196e-05,-0.523289125079483,-1.3450327734940676e-05,0.8521552037400265,-0.0008098195548789561,-0.8109302711368576,0.8776643530607638,0.0007032913750719186,-0.8095361123657931,0.8751520175109291,0.00015832595666321735,0.6488546316146284,1.0052115287593852,-0.008050890985485587,0.6496336798449146,0.9960690846168347,0.0,0.0,0.0,0.0
0.0006445530843926846,0.08217983972508186,0.7319970058117035,1.4669308953523134e-05,-0.5233204854851907,-2.3324895323010093e-05,0.8521359449714024,-0.0020174868028066525,-0.8131948155253611,0.8815135929796799,-0.0005027491362468199,-0.8095282674223613,0.8753794243090454,-0.003248395964881179,0.6495074664087482,1.0073693833915223,-0.01141800545670872,0.6497614409715121,0.9948512573571884,0.0,0.0,0.0,0.0
0.00089492571630056,0.08287717601176073,0.7319223888897229,7.910662058035756e-06,-0.5233034812942078,-7.413843990510394e-06,0.8521463878629182,-0.003830238074616819,-0.8165408013801198,0.8868898477636914,-0.002311046540266086,-0.8094963917881817,0.8754807192630216,-0.007910775150998773,0.6501604892993044,1.0101488335367326,-0.01598193024068184,0.6498354847265726,0.9928463846681237,0.0,0.0,0.0,0.0
0.001290135628414348,0.08389929285907081,0.7318296268874575,-0.00021814977979740387,-0.5234885953102973,0.00042070522986488657,0.852032549846445,-0.007459856248860586,-0.8211469896319044,0.8944421557030248,-0.005928045558362275,-0.8073356120030994,0.8739256157213959,-0.01082556740771368,0.6505317474609713,1.014001686945549,-0.018816614835283456,0.6519693164097294,0.9906068407189755,0.0,0.0,0.0,0.0
0.0021346800850998156,0.08470163320017655,0.7316569762818529,-0.0003103507763777191,-0.5233537161622565,0.00046059949406254707,0.8521153556354081,0.010186129563438923,-0.8149758475144732,0.8808728114720352,-0.00802211357858572,-0.8110233134132993,0.8803128019619701,-0.015638405811685838,0.6521087674486423,1.0171500444636643,-0.0234610997534948,0.6531520349002926,0.9883471590164495,0.0,0.0,0.0,0.0
0.0031198154846275262,0.0857074482976591,0.7314431405454919,-0.0004869134943490161,-0.5233358000809137,0.0006976608017952637,0.852126115395089,0.03217963696850121,-0.8115787236986726,0.8710698887699256,-0.01112980317704782,-0.8139063226933264,0.8863120828878939,-0.02015663181643485,0.6537725108352482,1.0212083518909405,-0.027779204989917747,0.6553735817061027,0.9860388207654438,0.0,0.0,0.0,0.0
0.0042053199054481365,0.08693629822185037,0.7312019748461887,-0.0007240443593739318,-0.5233492061441585,0.0010630000767064766,0.852117335945515,0.05401721649540287,-0.8099960136547356,0.8636283789177274,-0.015131672827609455,-0.8163126796317357,0.891997361932623,-0.02512626935981699,0.6554877795211338,1.0260257296423725,-0.03248320898123616,0.6581579708858112,0.9832449632127204,0.0,0.0,0.0,0.0
0.0053559948151262705,0.08834895084549697,0.7309444063665992,-0.0009844981655912795,-0.523346726727251,0.0014675960526240057,0.8521179968461294,0.0738279011871423,-0.8094845000851882,0.8574875399728619,-0.019712681125624784,-0.8185674900692846,0.8975330988508698,-0.031127869126588957,0.6573600453521011,1.0313810116185393,-0.03809172458226711,0.6610825703636797,0.9798171098100409,0.0,0.0,0.0,0.0
0.006576728040874516,0.08991793283143006,0.7306686126238886,-0.001265528969428491,-0.5233208139702596,0.0018941186334765006,0.8521326988307247,0.09142590147562789,-0.8095103801923667,0.8520771563665439,-0.02476138219701544,-0.8208241469185403,0.9031129257157885,-0.038152968549339195,0.6594350058296289,1.0371766722413633,-0.04455014742063891,0.6641025377924519,0.9758110107425031,0.0,0.0,0.0,0.0
0.007889983568949209,0.09164322632214131,0.7303688428049002,-0.001575887356625198,-0.5232685311084602,0.002349731492443865,0.8521631532121927,0.10723754884289609,-0.8096864768924728,0.8471040104037583,-0.030297278145736885,-0.8231857676279098,0.9089308545730348,-0.046155929450184825,0.6617455509089746,1.0434056745514177,-0.05176708617864465,0.6672857792028536,0.9712378189357707,0.0,0.0,0.0,0.0
0.009320911966151708,0.09355389951056238,0.7300397343759413,-0.0019261597447408944,-0.5231747157972203,0.002850945709065272,0.8522185041218593,0.12173861186520196,-0.8096678716180835,0.842425767602496,-0.0364415467503465,-0.8257395065426449,0.91513490003222,-0.05523111707386626,0.6643008246171671,1.0501101131252664,-0.05977360886239338,0.6706979702195988,0.9659741200502069,0.0,0.0,0.0,0.0
0.010894552396740096,0.09570080659544644,0.7296743825638244,-0.002332596406474122,-0.5230223914834917,0.0034256996181840325,0.8523088651322475,0.13523745461965242,-0.8090838288207388,0.8380857201203381,-0.04340239010199163,-0.8284865949223581,0.9217524030879375,-0.0655313280110875,0.6670866512283765,1.0573901689721226,-0.06863757109030547,0.674428635114247,0.9598271884310875,0.0,0.0,0.0,0.0
0.012732681494555306,0.09809234989429158,0.7292562938080671,-0.002850621786612838,-0.5228255604767753,0.004128200535240138,0.8524249323124684,0.14810164374886572,-0.8071094950325419,0.833909758569147,-0.05133550149399728,-0.8317341729188552,0.9296265056849566,-0.07649391805021884,0.6702901390147554,1.065207408842147,-0.07778695090490559,0.6790300574061686,0.9528298644900451,0.0,0.0,0.0,0.0
0.01488544587007434,0.10078218366127646,0.7287852249626265,-0.0035153270324957647,-0.5225700270224558,0.0050085067685338575,0.8525744097693491,0.1606531596444603,-0.8033096670024723,0.8297688985835152,-0.06051916512362119,-0.8354191586869102,0.9388314854738894,-0.08803030345007014,0.6739649565029227,1.0735323510644184,-0.08708878979607615,0.6848084182082976,0.9446789704148154,0.0,0.0,0.0,0.0
0.017381056404788854,0.10381823568334654,0.7282797327074518,-0.004349451931598923,-0.5222202214541927,0.006100449172238901,0.8527777594966496,0.1733483400108571,-0.7978600018497184,0.8248919577586136,-0.07118736100022202,-0.8394465688076312,0.9493220638640585,-0.10018477173878931,0.678183140761654,1.0821384893666934,-0.09651510883519748,0.6920127540324545,0.9348454345367714,0.0,0.0,0.0,0.0
0.020261758218466725,0.10718661618122818,0.72775335732858,-0.005390927291151467,-0.521780125697555,0.007447539014739385,0.8530304639886017,0.1869420325232416,-0.790853844339758,0.8181410409669791,-0.08343456218993679,-0.8436486506983957,0.9611337206556462,-0.11233593758722972,0.6830410352523834,1.0906952293787797,-0.10549042943478143,0.7010947599640704,0.9231320780357913,0.0,0.0,0.0,0.0
0.023569026357684063,0.11073900742388622,0.7271807301510033,-0.0066902336650855425,-0.5213364987384231,0.009096587053759006,0.8532764780307975,0.2025492179749332,-0.7819332930569637,0.8080461086368834,-0.09700002036126279,-0.8478078058511472,0.9744011966794112,-0.12262000478833185,0.6885132485340457,1.098960641081507,-0.11252790662564666,0.7125712307949224,0.9104129128536623,0.0,0.0,0.0,0.0
0.02722083251856789,0.11404361522169978,0.7262807988013492,-0.008254898233536844,-0.5210669803702762,0.011008371194837031,0.8534048713164185,0.22139904664293883,-0.7701656500324149,0.7921892371977831,-0.11067430043961293,-0.8524806917661332,0.9894236912658814,-0.12767491502168896,0.6932775783608504,1.1084812502072865,-0.11517712079273829,0.7252034446240988,0.9015129875800753,0.0,0.0,0.0,0.0
0.030858909743678626,0.11679711493219284,0.7250449946398909,-0.009954579948857843,-0.5208628765776397,0.012919610529059967,0.8534845363596728,0.24273721694782002,-0.7536384547845977,0.7659009470625394,-0.12301795444360376,-0.8582565800114709,1.0054369263139749,-0.12704256598324265,0.6961408363428537,1.118949920439867,-0.11339890649369062,0.7368069028664519,0.8978885214891449,0.0,0.0,0.0,0.0
0.03404263914329403,0.11878360520084622,0.723656078164743,-0.011686290334797086,-0.5206426433956092,0.014577082366107743,0.8535702532105575,0.2656588000746539,-0.7300307823066985,0.7229368777657643,-0.132729653922072,-0.8646157641518841,1.0205479104978104,-0.12048155531040335,0.696306629319411,1.1290051762637456,-0.10724567092315442,0.7460348116492306,0.8991203131251645,0.0,0.0,0.0,0.0
0.03598347301203812,0.11972404301275778,0.722488062450056,-0.01320528176769499,-0.5202444873626243,0.015543240153841325,0.8537738000124834,0.28652279359044025,-0.6963581006764773,0.6563408788417913,-0.13777449764492813,-0.8704748666573658,1.0312241430692435,-0.10976501271036385,0.6928857138492104,1.1363112036879095,-0.09822510238732297,0.7504008895905014,0.9035275134009911,0.0,0.0,0.0,0.0
0.03608185953831265,0.11981755463608419,0.722425173061617,-0.013309048975907416,-0.5201930570351284,0.015535601501215295,0.8538036646172233,0.286564850509593,-0.6962948975509095,0.6563312000034051,-0.1380622741347939,-0.8705455211281802,1.0312677453161108,-0.10985029164410526,0.6928930220008042,1.1366318053992082,-0.0980720198894961,0.7505525098570824,0.9033038498047309,0.0,0.0,0.0,0.0
0.03608185953831265,0.11981755463608419,0.722425173061617,-0.01330904897590741,-0.5201930570351283,0.015535601501215293,0.8538036646172235,0.286564850509593,-0.6962948975509095,0.6563312000034051,-0.1380622741347939,-0.8705455211281802,1.0312677453161108,-0.10985029164410526,0.6928930220008042,1.1366318053992082,-0.0980720198894961,0.7505525098570824,0.9033038498047309,0.0,0.0,0.0,0.0
0.035459959305805436,0.12114072508703659,0.7248021875050782,-0.011277059169678996,-0.5190581033782086,0.013910966043979832,0.8545513432659407,0.28593977587471053,-0.6890854594186993,0.6542861748243519,-0.13818346753815744,-0.8696270374998124,1.0285468986343678,-0.15213061557939744,0.7086225961788785,1.121424129338894,-0.05528605668505796,0.7309806101768529,0.9474536134049846,0.0,0.0,0.0,0.0
0.03473650754877851,0.12300034503976046,0.7276025960592006,-0.009856525816264287,-0.5180798905339747,0.012684731219896281,0.855181368785018,0.2831552714860065,-0.6842673236586018,0.6563675357482102,-0.1401494993739622,-0.8626741020389924,1.019729329061491,-0.18959209055226806,0.7237967422802726,1.1032821839821763,-0.016625517897936835,0.7185067498212325,0.9773756578933375,0.0,0.0,0.0,0.0
0.034034652557589834,0.12513365897315445,0.7302291792290561,-0.00898590923033661,-0.5173524978774889,0.011875724410318289,0.855642807218618,0.2789468320722244,-0.6823493069947276,0.6618582722991703,-0.14351700727169617,-0.852289799447558,1.0071046472453011,-0.2205427001699029,0.7367593037882356,1.0864864492798765,0.01300072170114706,0.7110490694763761,0.9974235752977152,0.0,0.0,0.0,0.0
0.03337670146483006,0.12738667106140003,0.7325573626871023,-0.008478297936083403,-0.516776193325771,0.011366675243033529,0.8560030859580775,0.2739692432274451,-0.6828384532921943,0.669722787870516,-0.14774352313858996,-0.8404519307787793,0.9925346684650537,-0.24654438904683895,0.7475185275931606,1.0719260733557923,0.03698058309414816,0.7069345293126925,1.0116936204416345,0.0,0.0,0.0,0.0
0.03269161565925293,0.1296301115706832,0.7346040412644843,-0.008161648789938592,-0.5162581864852673,0.011008786063772273,0.8563233495621702,0.2687904227006198,-0.6843276658476124,0.677795712433087,-0.15220875993421193,-0.828278823320208,0.9769110467574684,-0.269130707395887,0.7562359594409555,1.059440561418088,0.05784386687144627,0.7046216030508664,1.0222763134932702,0.0,0.0,0.0,0.0
0.031894256300404995,0.1318050994312799,0.7364298980602103,-0.007918662724001668,-0.5157421075632674,0.010704644091004906,0.8566404052236547,0.2636755246205364,-0.6856677255825315,0.6844013831265578,-0.15656423366927702,-0.816107845821587,0.9603355529491416,-0.2893122888082341,0.7630518109075094,1.0485880081857792,0.07731286723639608,0.7029646718617175,1.0302119965336602,0.0,0.0,0.0,0.0
0.03096402265654665,0.13395912155356385,0.7381066628253764,-0.0076973297837576215,-0.5151812002352082,0.010411883427296934,0.8569834740074669,0.25858098174642374,-0.6868319379627715,0.6897151117870582,-0.1608524849355227,-0.8039045521522207,0.9426956405555835,-0.3080539048119788,0.7682701402492901,1.0388793863510826,0.09633103561006781,0.7013658486802982,1.0359804464244764,0.0,0.0,0.0,0.0
0.02988847140891555,0.1361712160135302,0.7397086393736443,-0.007465629224031149,-0.5145315993968576,0.010101898384172305,0.8573794079935888,0.2533702838364265,-0.6880126471606992,0.6942500374477544,-0.16521621442141074,-0.791463058725461,0.9236793721187383,-0.32624970630912514,0.7721921319249162,1.0297918493549474,0.11552827164213031,0.6995775995611371,1.0395012900181033,0.0,0.0,0.0,0.0
0.028656477640355435,0.1385330413330206,0.7413052321364969,-0.0071958669171947485,-0.5137439299254823,0.009746179854479375,0.8578580336758963,0.24788345129126846,-0.6894938397972254,0.6986256297025147,-0.16982626341079357,-0.7785538422780144,0.9028941516559551,-0.34474603496680095,0.7750632919547276,1.0208013527369135,0.13555010278028262,0.697697877857625,1.040083597012615,0.0,0.0,0.0,0.0
0.027272787502499642,0.14113758483514377,0.7429618837788492,-0.006861780476495265,-0.5127616039144881,0.009315762789702557,0.8584530680726699,0.24197064045859523,-0.6916873885137165,0.7036546885815086,-0.1748594620563509,-0.7650337565682296,0.8800627032721889,-0.36424949179602967,0.7771084471629257,1.0113211166051583,0.15722818693105062,0.6962886348539602,1.0364646934833743,0.0,0.0,0.0,0.0
0.025726752001578753,0.14400818207838254,0.7447454093484897,-0.006422076886195288,-0.511539167372564,0.008756909178967843,0.8591913370803287,0.23568064018882875,-0.6944176917522432,0.7092466010850853,-0.18025453393820098,-0.7509126763157503,0.8550851523972554,-0.38497317599458886,0.7784981233091668,1.000573956145177,0.18118286249758783,0.6945062127144499,1.0305212008409486,0.0,0.0,0.0,0.0
0.024021771221456392,0.14711371766888567,0.7466542805431702,-0.00582436754909067,-0.5100239989346699,0.008012408185726932,0.8601031325186569,0.2292159976388871,-0.6975870907165522,0.7152067475020358,-0.1858457841509156,-0.7367346064280778,0.828453573365091,-0.40669582487708944,0.7790867186188924,0.9881908904576546,0.20924160119013446,0.6922595156553151,1.0238547722993574,0.0,0.0,0.0,0.0
0.02212491808304918,0.15021910648346185,0.7485146746333965,-0.00497078776767254,-0.5081618632777067,0.006946253343388031,0.8612192296643099,0.2234513812068141,-0.7003264609818751,0.7195791581562762,-0.19084535353926096,-0.7244800427119028,0.8021075568252265,-0.4285453354812154,0.7779053910216078,0.9750394889561586,0.24504091847314174,0.6906414164819926,1.0175453260641207,0.0,0.0,0.0,0.0
0.019949255167946694,0.1529714212973923,0.7497186724115151,-0.0037620752582677728,-0.5058501446348554,0.005375023455751484,0.8625964219062684,0.21976921889321183,-0.7026857424549078,0.7202266370158783,-0.19419279565291656,-0.718299933160511,0.7797033393001896,-0.4495876046162875,0.7717541501353691,0.966025852663172,0.29412895963542984,0.6919050234411263,1.0118017764370804,0.0,0.0,0.0,0.0
0.01762041145540748,0.15520584181656452,0.7500322588894252,-0.0022871596752059944,-0.5030966110700086,0.0034778605391455283,0.8642201532691557,0.2183031294773331,-0.7061789248797061,0.7186379040558295,-0.19599866615355832,-0.7198218114264278,0.7639204519441738,-0.4669630097244244,0.7593872112140073,0.962998390267184,0.36024909907188307,0.6953459024691199,1.009026222192982,0.0,0.0,0.0,0.0
0.015502871119726657,0.15687048012405302,0.7491558701786011,-0.0007647169261496931,-0.4997970387140843,0.0013280502115820437,0.8661411961010113,0.2195134909413696,-0.7148825095141819,0.7204863091842736,-0.19638726894421113,-0.7323480663257951,0.7599361722900723,-0.48001947843788867,0.7402674046722401,0.9683346162731251,0.4424983504977635,0.7006288878429354,1.0099797700417967,0.0,0.0,0.0,0.0
0.013826296456241251,0.1578689530044596,0.7472628168581213,0.00037080708481028164,-0.49624800640317457,-0.0006013884035214666,0.8681805209603407,0.2227571724126832,-0.7293425975630269,0.7273731885112529,-0.19589010518866012,-0.7531863602452237,0.7667788147192646,-0.4848323056552977,0.7161622325802428,0.9807386083132247,0.5272277350570579,0.702490443440433,1.0166493142553712,0.0,0.0,0.0,0.0
0.013838105533674424,0.15790981299896784,0.7471939229170831,0.0004474117759603724,-0.4962348419935871,-0.0006474776545800714,0.8681879762971779,0.22281845884490753,-0.7294187910415982,0.7274065009290985,-0.19590558188382745,-0.7533611575553781,0.7665417937571061,-0.48491941530032623,0.7160541279043855,0.9805130317662245,0.5273024243299766,0.7024761652785378,1.01664688977827,0.0,0.0,0.0,0.0
0.013838105533674424,0.15790981299896784,0.7471939229170831,0.0004474117759603724,-0.4962348419935871,-0.0006474776545800714,0.8681879762971779,0.22281845884490753,-0.7294187910415982,0.7274065009290985,-0.19590558188382745,-0.7533611575553781,0.7665417937571061,-0.48491941530032623,0.7160541279043855,0.9805130317662245,0.5273024243299766,0.7024761652785378,1.01664688977827,0.0,0.0,0.0,0.0
0.01378216674294544,0.15860318037923554,0.7481685890110402,0.0005726898032176229,-0.49827148987810094,-0.0006282953961678954,0.8670206454554251,0.21971534849084834,-0.7167100388633376,0.7169033093795052,-0.196568417839917,-0.7355486245329731,0.7477853701080832,-0.4990408203424929,0.7285773814414779,0.9769560955361952,0.5320134769642214,0.7144085849644978,1.0115166768823616,0.0,0.0,0.0,0.0
0.013840151942572682,0.15964228475964817,0.748743150909404,0.0004882425500146322,-0.4995856558861573,-0.00041529142656051096,0.8662642562088323,0.2159991380333174,-0.7124116992985915,0.7158672734927829,-0.1988822469573149,-0.7212987118325505,0.7316397295685724,-0.5112320277755084,0.7368101845155501,0.9761201822145622,0.5340457670478185,0.7226133577431395,1.0075770615233213,0.0,0.0,0.0,0.0
0.014152066543949283,0.161034294547916,0.7487301495447621,0.00025898104855356187,-0.5003919782769817,-5.9762015540358146e-05,0.8657989359160513,0.21171112158118693,-0.7165937802303927,0.7250386938111398,-0.20274936020729542,-0.7111500191235899,0.7192712482104276,-0.5236294622434507,0.7413013040044565,0.98022429971963,0.5344556696996676,0.7274551696691169,1.0071209099185559,0.0,0.0,0.0,0.0
0.014669657451152854,0.1628374654526013,0.7477700719582718,-5.942399350140527e-05,-0.500919645883214,0.0003222551185855625,0.8654937324953099,0.20688976658960373,-0.7285083056106004,0.7428748838110004,-0.20801488487466002,-0.7049166251700149,0.7096154323776764,-0.5397431050966683,0.7416158880726192,0.9933975010607766,0.533563816809396,0.7279212199571042,1.0140948080515304,0.0,0.0,0.0,0.0
0.015556202163141278,0.16527329508061792,0.7459524349218248,3.5802227102115702e-06,-0.5019903506931357,8.469226471734232e-05,0.8648732165036589,0.20195157849042447,-0.7419000644127568,0.764246606114801,-0.2135930683382661,-0.699996961543535,0.7000853799526244,-0.5755955429566239,0.7445871500320157,1.0166017353281904,0.5276060920541926,0.726924274474774,1.0289971347274607,0.0,0.0,0.0,0.0
0.017663124608130295,0.16814380897970913,0.7469099288079991,0.0019091026792835502,-0.5043089484336392,-0.0023443322387987227,0.8635180044232265,0.1995286643095572,-0.737741594143427,0.7796232479262967,-0.2152225382947405,-0.6931479928733607,0.6971939579276996,-0.46211791724078705,0.7280059288207885,1.0087507009757308,0.4954303744195143,0.7410662108164219,1.0186192732358794,0.0,0.0,0.0,0.0
0.020135901219890034,0.17139351971561642,0.7468634553224092,0.0039192561379603145,-0.5070288406863083,-0.004967707500132607,0.861905862624113,0.19674930983649894,-0.7368254132380108,0.7992878822583439,-0.21762662423287132,-0.6884100631594742,0.6957384558582843,-0.3563889824929182,0.7151946974813633,1.0072580953323653,0.45948759772463804,0.7522547560120479,1.0162501484620285,0.0,0.0,0.0,0.0
0.022856341193309017,0.17489405071043343,0.7460179424815977,0.005354250159026326,-0.5093896196989252,-0.006917717690885366,0.8604915412310387,0.1924515923431841,-0.7451285460404984,0.8283305239529716,-0.22241310669863834,-0.6858437701389245,0.6961597920738675,-0.27822079888534373,0.7090930196719514,1.0108189393948013,0.42600746689248437,0.7600546368767527,1.0184838358346826,0.0,0.0,0.0,0.0
0.025543003695092516,0.1783681436736299,0.744812409075197,0.006201087587084286,-0.511241661673036,-0.008093243301205564,0.859376523588699,0.1869135661918929,-0.7595131684464237,0.8618214127838794,-0.22898841926749883,-0.684073969976101,0.6968877794675324,-0.2246728756643338,0.7078237625768636,1.0167735768420965,0.3973857850727048,0.7656397071290846,1.0220926036921927,0.0,0.0,0.0,0.0
0.027932484995525773,0.18146353928246037,0.7434608278190991,0.006711887667275246,-0.5126974093126923,-0.008830186528890492,0.8584977255962072,0.1814460943260922,-0.7747153308449518,0.8927471345793998,-0.23561960431994874,-0.6830364220161667,0.6975672098992608,-0.18672172573781537,0.7081103641991843,1.0238190039067199,0.37340755452162955,0.7691689733280314,1.0267698655444422,0.0,0.0,0.0,0.0
0.029981970407151844,0.18414279601295216,0.7421750604299671,0.007054882219808047,-0.5138598354825221,-0.00932286304395806,0.8577944872400401,0.17641158694867337,-0.7886833872658416,0.9194379126093921,-0.24173140815738417,-0.6822311872072336,0.6978669535216431,-0.15700345051090778,0.7084558712799002,1.030901687490838,0.35281368158074744,0.7714320933529888,1.0312525834838988,0.0,0.0,0.0,0.0
0.031720602831638745,0.18645404896310308,0.7409941681701667,0.00732277497454946,-0.5148111109075212,-0.009691454316867137,0.8572175760949259,0.1719217000280333,-0.8009609627554739,0.942050440988336,-0.2471625796362254,-0.6815750905378968,0.6978057644396936,-0.13143004306013284,0.7084383356933791,1.0372702981838622,0.33454310390504355,0.7727025304931524,1.0354183101200012,0.0,0.0,0.0,0.0
0.033191622565813234,0.18847775725801844,0.7398755850143902,0.007559883705938185,-0.5156103227042963,-0.009999458450107978,0.8567314947577384,0.16793105258801666,-0.8117678032436787,0.9612953525596412,-0.2519726755246332,-0.6810653876623368,0.6973439194345847,-0.10799577456232509,0.7081207681430042,1.0421122201553774,0.3177655593499582,0.7729633530301302,1.0396413681760253,0.0,0.0,0.0,0.0
0.034420571947857234,0.19030822960634242,0.7387415340361557,0.007782059996981329,-0.5162953173376493,-0.010270020740868694,0.8563136758871724,0.16427942664707212,-0.8215781926428288,0.9779166591559347,-0.2563452763787371,-0.680585431620248,0.6961267398854804,-0.08587149562625788,0.7078690577233329,1.044201182261799,0.3017910873761424,0.7719844943571135,1.044496834979678,0.0,0.0,0.0,0.0
0.0354272563539056,0.19202369434709107,0.7375114322121736,0.00799482744958021,-0.5168866890756886,-0.010514169993182871,0.8559519178200248,0.16082116266175503,-0.830885449634911,0.9925511520664322,-0.2604558848571913,-0.6800890693637843,0.6938697347521908,-0.06483744357601037,0.7084949904846829,1.0417605533628096,0.2860724772129626,0.769480969722045,1.0505485834479322,0.0,0.0,0.0,0.0
0.03622232117251485,0.19370252664897686,0.7361307897949788,0.008209710303264691,-0.5174033218733705,-0.010742128016473956,0.8556348577850341,0.15738921522201413,-0.840031709937267,1.0056554322460531,-0.2644775619725959,-0.6793942564286557,0.6901236161979488,-0.04420025903395092,0.7094261022406765,1.0360999617621105,0.26986513634955495,0.7651963250490317,1.0580969966198306,0.0,0.0,0.0,0.0
0.03680674230420459,0.19540723667428792,0.7345582399337376,0.008445020586224483,-0.5178516077719031,-0.01097093636207575,0.8553584234171617,0.15386502629165066,-0.8492482903963589,1.0175107798688225,-0.2685315373290863,-0.6783803967476806,0.6845032741876566,-0.02323014715374686,0.7105497544893337,1.0277620043740168,0.252312980738004,0.7588064805393091,1.0673203702175675,0.0,0.0,0.0,0.0
0.037167538819063914,0.19717316387273506,0.7327596159809859,0.008734480443617689,-0.5182235308150975,-0.01123434805760934,0.8551268153815749,0.15023093705647347,-0.8586036876412563,1.0281391658621823,-0.2726417420973792,-0.6770938806064062,0.6767972254360927,-0.0010241021926852903,0.7120659171651201,1.0164766378522165,0.2324385664209544,0.7498521490939992,1.0783587101646142,0.0,0.0,0.0,0.0
0.03729482218206895,0.19897923687904295,0.7307191594878084,0.009143457236051873,-0.5185009400657637,-0.011603985590898059,0.8549494253223976,0.14669604787227047,-0.8678620934799953,1.037234016367104,-0.2766292383679216,-0.6760262878814635,0.6674520025060807,0.0237504281201343,0.7143970215497326,1.0011753199810067,0.20921247626085962,0.7378360477298123,1.0912586675909617,0.0,0.0,0.0,0.0
0.0372542862932558,0.2006459814775444,0.7284511932734306,0.009796556687943119,-0.5186375976152908,-0.012268073331232324,0.854850024386523,0.14418857701065263,-0.87632820865229,1.04423167469803,-0.2797406802147799,-0.6774247517814025,0.6596697501073331,0.05278037373715453,0.7183114714839397,0.9800234961142186,0.1817216391786278,0.7223595453733069,1.1059452601878934,0.0,0.0,0.0,0.0
0.03708780134267419,0.20204747306596296,0.7260948898775778,0.010856566978486935,-0.5185584033240667,-0.013473783285821881,0.8548671092394438,0.143627521434842,-0.8829585625428542,1.0485007576019807,-0.281186516561418,-0.6833079878808165,0.6563953385033839,0.08769477941232642,0.7247092997045947,0.949681915898411,0.14757170155169522,0.7029213236193924,1.1210923701574111,0.0,0.0,0.0,0.0
0.036839329497330126,0.20306482359432798,0.7241055757054765,0.012423372442840365,-0.5182272911267981,-0.015303387470126132,0.8550157547557041,0.1454262217665634,-0.8860248796564327,1.04929888035196,-0.2804549832697256,-0.6938852876683803,0.6592429465598113,0.12363177501366165,0.7360042420970219,0.9069258162111618,0.10712163803134993,0.6812602189617529,1.1329428726946453,0.0,0.0,0.0,0.0
0.03687279815348549,0.20310477507466193,0.7240428540735812,0.012484477280750174,-0.5182676670807219,-0.015341422050275928,0.8549897097949236,0.14540276240012856,-0.8860245194285385,1.0493796001170113,-0.2804792121212045,-0.6939405102590995,0.6591102953579092,0.12364100011095669,0.7360027823256526,0.9069150099325529,0.10712875390998766,0.6811708459587158,1.1329174165180447,0.0,0.0,0.0,0.0
0.03687279815348549,0.20310477507466193,0.7240428540735812,0.012484477280750174,-0.5182676670807219,-0.015341422050275928,0.8549897097949236,0.14540276240012856,-0.8860245194285385,1.0493796001170113,-0.2804792121212045,-0.6939405102590995,0.6591102953579092,0.12364100011095669,0.7360027823256526,0.9069150099325529,0.10712875390998766,0.6811708459587158,1.1329174165180447,0.0,0.0,0.0,0.0
0.03496452876027078,0.2036742822891328,0.7251062545452024,0.010832525816101793,-0.5199072216430194,-0.01347258646115221,0.8540477894602424,0.1384846169808999,-0.8750467280143762,1.0329806244774022,-0.2549220721236454,-0.7299264256319598,0.7353268934313748,0.1437630366853398,0.7311963980273849,0.9026663369972139,0.13328160549504509,0.6932478710903455,1.1294431041022113,0.0,0.0,0.0,0.0
0.031718246560829416,0.205693787788893,0.7266191621949221,0.00933969350726105,-0.5210141158626075,-0.011613073816444674,0.8534179501941763,0.12756159360156266,-0.8634018792781372,1.0129724287152435,-0.22623318087550498,-0.7548143907997084,0.7814660705175129,0.14971714830636304,0.7243418475498572,0.9019044091795688,0.14192534320220812,0.6971542396278905,1.11947383843589,0.0,0.0,0.0,0.0
0.027891959532402415,0.20883244116244376,0.7280193388391507,0.007954327228334467,-0.5217020359912053,-0.009870692205683174,0.853033577156466,0.11423001733180346,-0.853816390763206,0.9935791708016035,-0.20102267122106046,-0.7710081881022796,0.8072145089381633,0.1451853537729669,0.7153216447316437,0.9073063584203573,0.13538064213591833,0.6941673736102217,1.107209295488206,0.0,0.0,0.0,0.0
0.02397822019997437,0.2127512047535419,0.7291814691530341,0.006639256210703894,-0.5221388662142277,-0.008227175161958237,0.852794956747719,0.09943793727414757,-0.8468502962439288,0.9767229432510794,-0.18049466733566955,-0.7816986904843628,0.8215437838178197,0.13424799417021024,0.7050677000338588,0.9176285610673349,0.1201577254798061,0.6879007232811308,1.0938758180464048,0.0,0.0,0.0,0.0
0.02015052587050781,0.21704151404489067,0.7299449237485173,0.005418270378389502,-0.5224746741853944,-0.006744004623322842,0.8526109168798,0.08436726545656163,-0.8416236950723224,0.9614856354393795,-0.16434953183972573,-0.7896211626868134,0.8296322993304132,0.11978154054095734,0.6936815329107491,0.9324386771464154,0.10130633333908746,0.6798351593689166,1.0817604925883568,0.0,0.0,0.0,0.0
0.016730046172362976,0.22119758301225326,0.7305753612936643,0.004360705946568892,-0.5227212669210972,-0.005505785466155456,0.8524747196711766,0.07046310294184173,-0.8371551643931399,0.9481362327891535,-0.15117133225910387,-0.7959453738886333,0.8343338779506048,0.10425381610071316,0.6837523147862725,0.9466456570018159,0.08244126533782883,0.6725147066073945,1.0696209547082614,0.0,0.0,0.0,0.0
0.013731248014528496,0.22496130586010007,0.7311774978360528,0.003474880024049523,-0.5228971226068406,-0.004481060489328129,0.8523769380240153,0.05822327126950444,-0.8327502854780645,0.9359545644480609,-0.13919008662938367,-0.8012828271304557,0.8373455313312926,0.08941151912289134,0.6756612623802487,0.9584337396439166,0.0655097418735717,0.6666248199002408,1.0575033917503864,0.0,0.0,0.0,0.0
0.011128799562384972,0.22828916767270252,0.7317643856913626,0.0027378794948211414,-0.5230091658484803,-0.003627987647667588,0.852314938364908,0.047611160806275796,-0.8284979160421435,0.9249548633891922,-0.1274208520758048,-0.8056265139124648,0.839706452603626,0.07585827266721863,0.6691498501275152,0.9677917009706613,0.050790810232901155,0.6620720479120714,1.0456793902062342,0.0,0.0,0.0,0.0
0.008883331370724848,0.2311943764138101,0.7323016402917154,0.002128728222926009,-0.5230757797687263,-0.0029146090249750714,0.852278535567876,0.038480122830511596,-0.8245520757236358,0.9151377805295832,-0.11524700616186569,-0.8087480638944163,0.8421743936887308,0.06377893515927471,0.6637918013117766,0.9753485775864765,0.0381521450869782,0.6585114333313278,1.0346667901863176,0.0,0.0,0.0,0.0
0.00695998131005547,0.23371224004005972,0.7327487739610757,0.0016294050949255717,-0.5231216000814529,-0.0023161243268644055,0.8522533497354877,0.030652743950828242,-0.8210423605465728,0.9065064135969799,-0.10226128047538607,-0.8104598022476865,0.8452740751692464,0.05315363100861004,0.6592273769358385,0.9818146398046891,0.02733657783650566,0.6556033171194121,1.0249514769900445,0.0,0.0,0.0,0.0
0.005348545545954179,0.23590960833159544,0.7330988495186453,0.001217290192574568,-0.5231530856869571,-0.0017994749940092548,0.8522359585411474,0.023860445752729824,-0.8182730179924647,0.8994336543191982,-0.08823612170572381,-0.8110285700709131,0.8488861758687262,0.04381959953949578,0.6552991635590525,0.9875854978431235,0.018021494348588962,0.6532293458289072,1.0165504828354084,0.0,0.0,0.0,0.0
0.0040355850659784765,0.23786394679750816,0.7333797082618775,0.0008717652490946315,-0.523170228595927,-0.0013399572101416143,0.8522267048449672,0.017833133350853625,-0.8164349515701146,0.8942329669664294,-0.0731029688440377,-0.8107601467588638,0.8527793392830861,0.03547767082479912,0.6520345046157332,0.992743193618247,0.009809472550976927,0.6514211430940648,1.0090837003227573,0.0,0.0,0.0,0.0
0.002914672850609843,0.2395761025587865,0.7336250018016991,0.0005812718268432336,-0.5231865273657351,-0.0009222746736789064,0.8522175010614793,0.012516541999909855,-0.8148904426330343,0.8898397583740011,-0.056696543044709544,-0.8101986875230348,0.8570350684486137,0.028230243769308203,0.6492587293653476,0.9971449259922379,0.002776409535378321,0.6500481647234354,1.0024396392158976,0.0,0.0,0.0,0.0
0.0019379582136726512,0.24102622686844527,0.733854564232222,0.00034258344655239704,-0.5231999359572312,-0.0005444950823955697,0.852209723704228,0.007952059692341551,-0.8133288888336784,0.8857300409074523,-0.03923588070221038,-0.8095996076242309,0.8616116482864933,0.022218023328077017,0.6468972781118989,1.000613172365917,-0.00297350519987367,0.6490355553401222,0.9965840134852577,0.0,0.0,0.0,0.0
0.0010987915654391616,0.24214581281191017,0.734060442192272,0.00016828577829266212,-0.5232002956281281,-0.00024404612876310122,0.8522096941340337,0.004405293628373911,-0.8115862912543327,0.8816247160928553,-0.021582818936527106,-0.8091282922512377,0.8664210959411094,0.01758008101195365,0.6449391272368115,1.0030362638841543,-0.0073441579282330655,0.6481844994338988,0.9918026497268426,0.0,0.0,0.0,0.0
0.00035345558360509765,0.2428219231885752,0.7341754710782893,6.944982775140181e-05,-0.5231991426706143,-4.089764207728159e-05,0.8522104497205126,0.002205841855075385,-0.8092873065324591,0.8766837583662443,-0.005056418685866541,-0.8093363532512886,0.8714625602052397,0.014876434333839492,0.6429684966993927,1.0047412439183645,-0.009820354965099231,0.6470158942671989,0.989178076094207,0.0,0.0,0.0,0.0
-0.00018355551643957704,0.24307424510975126,0.7342219307846116,4.071477882670444e-05,-0.5232144389260143,3.613909669304746e-05,0.8522010607454139,0.0013817399953445731,-0.8068961370766516,0.8720224669579774,0.006860866358212307,-0.8106025451207621,0.8766498303430563,0.01382401437075944,0.6415449520002658,1.0055806084194692,-0.010733338736058334,0.6459089198156414,0.9883864825804098,0.0,0.0,0.0,0.0
-0.00018177686275153908,0.2430796472056579,0.7342186672977162,4.1733877638738785e-05,-0.5232129554866353,3.817899712446727e-05,0.852201971372742,0.0013679877723255345,-0.806902349680705,0.8720159635491914,0.006879963306178885,-0.8105990495777576,0.8766512839384113,0.013811711907867518,0.6415320876344843,1.0055985228225826,-0.010722855856733531,0.6459256651100277,0.9883681620270485,0.0,0.0,0.0,0.0
-0.00018177686275153908,0.2430796472056579,0.7342186672977162,4.1733877638738785e-05,-0.5232129554866353,3.817899712446727e-05,0.852201971372742,0.0013679877723255345,-0.806902349680705,0.8720159635491914,0.006879963306178885,-0.8105990495777576,0.8766512839384113,0.013811711907867518,0.6415320876344843,1.0055985228225826,-0.010722855856733531,0.6459256651100277,0.9883681620270485,0.0,0.0,0.0,0.0
-0.00018177686275153908,0.2430796472056579,0.7342186672977162,4.1733877638738785e-05,-0.5232129554866353,3.817899712446727e-05,0.852201971372742,0.0013679877723255345,-0.806902349680705,0.8720159635491914,0.006879963306178885,-0.8105990495777576,0.8766512839384113,0.013811711907867518,0.6415320876344843,1.0055985228225826,-0.010722855856733531,0.6459256651100277,0.9883681620270485,0.0,0.0,0.0,0.0
-1.3976081910186956e-05,0.2433272724976399,0.7341624097992415,5.5785572086712044e-05,-0.523294025155443,1.0356436982671076e-05,0.8521521929898019,0.0008109226866190437,-0.8080005205670107,0.8742080725579192,0.006320474790018989,-0.8106602055685487,0.8771028103318659,0.011926781429656155,0.6421607428437534,1.0070111015931844,-0.012611844827033043,0.6461782363073187,0.9880036736577451,0.0,0.0,0.0,0.0
0.00019039717852585472,0.24370113543965888,0.7340952873009919,4.43194510159938e-05,-0.5233696055012775,5.698531285382431e-06,0.8521057763216665,-0.00011460678024563563,-0.8097427132483038,0.8773708317864931,0.0053945440457720956,-0.8106137758667277,0.8774440931368481,0.009477620293622832,0.6428013850472005,1.0088872504593547,-0.015051634950325438,0.6465062287978673,0.9872848813503013,0.0,0.0,0.0,0.0
0.0003906938295619395,0.24420983091654072,0.7340305009588226,4.6222673987521e-05,-0.5233984598236887,-4.86078331229127e-06,0.8520880530168391,-0.0013770740575884453,-0.8120268387304993,0.8812347065740558,0.004133901636212958,-0.8105302596111302,0.8775345460937634,0.00596623324274727,0.6434301894844473,1.0111198982419383,-0.018499909068197627,0.6466283677898508,0.9859604321727913,0.0,0.0,0.0,0.0
0.0006337908165311382,0.24493248727716754,0.7339560455098711,3.7107486454367994e-05,-0.5233814351842233,1.092050833934811e-05,0.8520985106243758,-0.003250653926211433,-0.8153978187160522,0.8866381443729197,0.0022657296631032843,-0.8104185199200882,0.8774982596453584,0.0012026837909339932,0.6440567834682195,1.0140051116233468,-0.023121881490118807,0.6467133666717736,0.983854159476151,0.0,0.0,0.0,0.0
0.0010215346888443502,0.24598070831922544,0.7338634246997572,-0.00019031209924065233,-0.5235670765474271,0.0004386254240201694,0.8519843236495744,-0.0069418067816333,-0.8200270322992723,0.8942174540675698,-0.001413954827455093,-0.8081937640422431,0.8758265427767532,-0.0018241204148881657,0.6443956469985473,1.0179672679966643,-0.026090166168458943,0.6488300912622941,0.9815222491263511,0.0,0.0,0.0,0.0
0.0018658570867684625,0.24680596616083825,0.7336889213454039,-0.00028272081296540065,-0.5234326609575755,0.00047692013027700683,0.8520668647817512,0.010631647044866398,-0.8140005880806116,0.8808491264432412,-0.0035513538196768296,-0.8118570938856788,0.8821636343285038,-0.006722027751752505,0.6459561012982585,1.021231395687722,-0.03081411306077251,0.6500080363801235,0.9792051779953819,0.0,0.0,0.0,0.0
0.002850770216632854,0.2478334830936896,0.7334728259183332,-0.00045833027828394917,-0.5234160968383632,0.00071077716924088,0.852076800704998,0.03257004997521461,-0.8107105220131037,0.8711747506344644,-0.006695775453645797,-0.8147296014024118,0.8881314493568294,-0.0113239613191428,0.6476025605973312,1.025407785378993,-0.03524607603001461,0.6522053237649714,0.9768560278732694,0.0,0.0,0.0,0.0
0.003936235791046295,0.24908403617448416,0.7332285900530029,-0.0006937892088325523,-0.5234310950052723,0.0010714394423367917,0.8520670510327439,0.05435789440266989,-0.8092004222707656,0.8638118566200808,-0.010730522336905274,-0.8171404240001942,0.893802903894748,-0.016383764676259564,0.649299665784295,1.0303531882449803,-0.0400780555423207,0.654957701383998,0.9740262712270903,0.0,0.0,0.0,0.0
0.005087305185888101,0.25051906506657995,0.7329668243125232,-0.0009525683227820274,-0.5234311879841895,0.00147061160993726,0.8520661484653308,0.07412420768586038,-0.80873762983571,0.857725172267981,-0.015343706892474681,-0.8194051090318717,0.8993318750511733,-0.022478335695034702,0.6511541801780268,1.035852185172765,-0.04580625313562493,0.6578551667953588,0.9705647000147399,0.0,0.0,0.0,0.0
0.006308474664573336,0.2521116672843569,0.7326857091741131,-0.0012314355279214584,-0.523407934082024,0.0018905913428842204,0.852079247353732,0.09168352329099298,-0.8087990245297118,0.8523554379093217,-0.020424561727104662,-0.8216789327585571,0.904910049999544,-0.029610276400276924,0.6532113522805119,1.0418072006453194,-0.052384724865761956,0.660847390754575,0.9665231300899297,0.0,0.0,0.0,0.0
0.0076215716589159346,0.253862409704808,0.7323794466646655,-0.0015382439266445095,-0.5233571691475146,0.002337894952719686,0.8521088202540283,0.10746127561298568,-0.8090080512532071,0.8474148833005886,-0.025992781499556254,-0.8240702959260963,0.9107318879783073,-0.037749412938168865,0.655502510108589,1.0482118158353584,-0.05973711191036513,0.6639926159738906,0.9619089067960158,0.0,0.0,0.0,0.0
0.009051309485915038,0.2558007203958114,0.7320419193357557,-0.0018833178088676252,-0.523264267768227,0.002829312604158377,0.8521636897810185,0.12192632584731389,-0.8090346411578613,0.8427770726004485,-0.03217118813654001,-0.8266636780642281,0.9169392694163925,-0.046994740429122564,0.6580342486924352,1.0551169260645483,-0.06789577136556936,0.6673538081122573,0.956605012450811,0.0,0.0,0.0,0.0
0.010634407733561757,0.2579708893994717,0.7316638840706795,-0.002287183123655162,-0.5231182957164464,0.0033958393921117136,0.8522502483161283,0.13539626803603036,-0.8084774239107141,0.8384765297363442,-0.03915697770065945,-0.829497746647056,0.923660641924509,-0.05740737363981001,0.660816785099724,1.0626176310665003,-0.07684711139104737,0.6710743792350767,0.9504683246080183,0.0,0.0,0.0,0.0
0.012499194502631292,0.26037697315151637,0.7312280582598213,-0.00280765115107689,-0.5229360400784652,0.004092785406618209,0.8523574744141587,0.1482489229745829,-0.80648759950849,0.8343239989109835,-0.04709601016192819,-0.8329040524740674,0.9317987231281991,-0.06836970020565158,0.6640522776013605,1.070663842509737,-0.08599921661877241,0.6757229750981285,0.9435640918968973,0.0,0.0,0.0,0.0
0.014676762398066001,0.2630828996735181,0.7307386235220942,-0.00347231580584286,-0.5226958827112741,0.0049660142028918955,0.8524976808898445,0.1607819060125782,-0.8027064562414608,0.8302357830906635,-0.056285648607005676,-0.8367480064444905,0.941255484310072,-0.07994509940990079,0.6677665206175497,1.0792301772912762,-0.0953535614389821,0.6815296858197334,0.9355051002601917,0.0,0.0,0.0,0.0
0.017195002047434238,0.2661365872152622,0.7302148252602937,-0.004303920293970577,-0.5223608845616476,0.006049647554145008,0.8526921978736212,0.17345972125739795,-0.7972988516967469,0.825418825147173,-0.06696077402505396,-0.8409408604808569,0.9519917714346512,-0.09218152734740122,0.6720304896749483,1.0880826269715667,-0.10487695140192203,0.6887482097958634,0.9257482012650746,0.0,0.0,0.0,0.0
0.02009612754319451,0.26952410050643416,0.7296706729638931,-0.005341107086163431,-0.5219359502208084,0.007388268206358277,0.85293595887095,0.18703192534912738,-0.790357893777721,0.818741073455368,-0.07921843875068345,-0.845305738124313,0.9640351599907927,-0.10445106935870468,0.6769416806610687,1.0968870199244827,-0.11399871178740432,0.6978335703337227,0.9140963451250842,0.0,0.0,0.0,0.0
0.023423613262069733,0.2730932959908661,0.729085466001081,-0.006633173381358923,-0.5215083589197111,0.009028254153195001,0.8531726221666445,0.20262648560907842,-0.781510844414867,0.8087495195486758,-0.09278796093896234,-0.8496271744323661,0.9775435111335351,-0.11487098716359043,0.6824991184295026,1.105345633946945,-0.12126274807522945,0.7093074462970461,0.90140861868158,0.0,0.0,0.0,0.0
0.02710059977911969,0.2764043994508215,0.7281733737887874,-0.00818942227324556,-0.521260609199482,0.010931187986710078,0.8532882395703193,0.2214947790066085,-0.7698133422463137,0.7930459461700703,-0.1064406940884847,-0.8544796211223691,0.9928557710385857,-0.1199902907808594,0.6873752568209598,1.1150035420510835,-0.12424197369880702,0.7218763595078752,0.8926474155308793,0.0,0.0,0.0,0.0
0.030764872786316153,0.27915841337786007,0.7269320696248954,-0.009881915234059107,-0.5210847023396874,0.012838143191360634,0.8533511954747965,0.242858604778134,-0.7533376324998157,0.7669884331872736,-0.11875610846666229,-0.8603756856443808,1.0091177972071805,-0.11933533965238932,0.6903838398064089,1.125511536232747,-0.12285862983278815,0.7334040418939677,0.889198003936524,0.0,0.0,0.0,0.0
0.03396937452214375,0.28114018077109987,0.7255382729519169,-0.011612506203423384,-0.5209034656890741,0.014503586135177503,0.8534133670865524,0.2657714317431078,-0.7297395952992026,0.7243279170437481,-0.12845088306119828,-0.8667279481469068,1.0243364207887458,-0.11258060524187175,0.6906627783827355,1.135577256754764,-0.11705137732625816,0.7425647202173683,0.8906964943792894,0.0,0.0,0.0,0.0
0.0359202270828405,0.2820732695682855,0.7243640385579833,-0.013142208881503975,-0.5205524670941528,0.01549554958800662,0.8535878978118606,0.286537007360257,-0.6960627723373644,0.6580637563579644,-0.1335102067988474,-0.8724074872060897,1.0349103643345603,-0.10146075806379111,0.6872691063510401,1.1429014655170044,-0.10812409311814969,0.7469516937585093,0.8954193821176871,0.0,0.0,0.0,0.0
0.036019079808064694,0.2821661884730551,0.7243000995573862,-0.013244746256344725,-0.520503646554939,0.015488178707452616,0.8536162175942665,0.28657859483177256,-0.6960003374642747,0.6580545688133438,-0.13379641832926917,-0.8724769731710268,1.0349558961555565,-0.10153519042844562,0.6872820682045241,1.1432244665892923,-0.10798037078848728,0.7471082400596935,0.8952031559980855,0.0,0.0,0.0,0.0
0.036019079808064694,0.2821661884730551,0.7243000995573862,-0.013244746256344725,-0.520503646554939,0.015488178707452616,0.8536162175942665,0.28657859483177256,-0.6960003374642747,0.6580545688133438,-0.13379641832926917,-0.8724769731710268,1.0349558961555565,-0.10153519042844562,0.6872820682045241,1.1432244665892923,-0.10798037078848728,0.7471082400596935,0.8952031559980855,0.0,0.0,0.0,0.0
0.03538724221542898,0.2835079952694177,0.7267628852650801,-0.011186948111670376,-0.5193267445901442,0.01382688270231513,0.854390661149855,0.285981468343698,-0.6886433296152072,0.6560302375604746,-0.13387972812522253,-0.8715258655553472,1.0322710771004495,-0.14452140991610188,0.7034371872604247,1.127518639156237,-0.06280349024616236,0.7273261702798524,0.9412336067343816,0.0,0.0,0.0,0.0
0.03466721604375659,0.28538792285580994,0.729656079452484,-0.009753714343561318,-0.5183303407021048,0.012585569396896482,0.8550322370572352,0.28316451064615844,-0.6836803322390616,0.6581999108096482,-0.13586630750559217,-0.864398289455459,1.0234522017122105,-0.18242705341593807,0.7190653101566893,1.1087993850338504,-0.022274389375216377,0.7149463339088462,0.9724118382869172,0.0,0.0,0.0,0.0
0.03397727189134411,0.2875422705026055,0.7323610794277797,-0.008881304083593642,-0.5175979962559258,0.011774404684437663,0.8554968147830547,0.27889821454846114,-0.6816851335310482,0.6638558907817864,-0.139290117499424,-0.8538175203348668,1.010828584290084,-0.21364604316250674,0.7324305854801898,1.091501841017719,0.008414845985684032,0.7076168864525493,0.9932137666155895,0.0,0.0,0.0,0.0
0.03333630509564522,0.2898156641404765,0.7347496547544738,-0.008377685656814179,-0.5170257565623684,0.011269838925485628,0.8558546442969973,0.27385541074824776,-0.6821466563518734,0.6719214558665583,-0.14358799210857492,-0.8418014879412146,0.9962732036902235,-0.2398473886077241,0.7435443713018712,1.0765613167719381,0.03295780531756371,0.7036398717715675,1.0079288639618902,0.0,0.0,0.0,0.0
0.03267294313978465,0.29207659138637826,0.7368389866538178,-0.008069102404625649,-0.5165141997254523,0.010921918507804445,0.8561709424901479,0.2686139511191717,-0.6836815314117005,0.6802542393877486,-0.14813215608160948,-0.82950801269405,0.9807160943312053,-0.26256868695527746,0.7525513851954788,1.0638152683471886,0.05412514845307811,0.7014679883377137,1.0187852247867717,0.0,0.0,0.0,0.0
0.03189696049246548,0.294259859273738,0.7386917988973107,-0.007835018579511858,-0.5160066981508947,0.01062945287767072,0.8564827579576786,0.2634568127363906,-0.6850636217906791,0.6870598760081044,-0.15254856705730094,-0.8172788784696655,0.9642557625913919,-0.2828216443881851,0.7595892807440894,1.052810031708656,0.07378151121149103,0.6999477009096171,1.0268994254505237,0.0,0.0,0.0,0.0
0.03098769439282663,0.29641261892951815,0.7403812536707174,-0.007623164051110708,-0.5154564836422273,0.010349573464155066,0.8568193433683381,0.2583417242554704,-0.6862626313295858,0.6925141779141006,-0.15687824174307186,-0.8050803011884076,0.946787140614159,-0.3015816153305175,0.7649702864999595,1.0430539917550776,0.09292727989891549,0.6984874628911817,1.0327988646680202,0.0,0.0,0.0,0.0
0.029929694963900733,0.29861157234259583,0.741982561176297,-0.007401157843715546,-0.5148205546913324,0.010053260009125927,0.8572070644208843,0.2531358947541246,-0.6874351291504802,0.6970730708785772,-0.16125656512493453,-0.7926986839346682,0.9279874405867701,-0.31973279231086715,0.7689904654779802,1.0340265737482215,0.11221702545150523,0.6968424926583395,1.0364247885720226,0.0,0.0,0.0,0.0
0.028712369135434925,0.3009492467473115,0.7435661848136181,-0.007141914137659288,-0.5140503958702651,0.009712716281845562,0.8576752571401965,0.24767560669837008,-0.6888682228380592,0.7013671492279134,-0.16585838299414626,-0.7798980208159781,0.9074655282942551,-0.33813818656563194,0.7719068367780184,1.0252068443884248,0.13228957695120025,0.6951178822068164,1.0371014177618607,0.0,0.0,0.0,0.0
0.027341060210181352,0.3035197181496222,0.7451983925522352,-0.006820904376109969,-0.5130902898937023,0.00930168009223058,0.8582571342131391,0.24180260231449144,-0.6909853544886009,0.706228504664048,-0.17086912962355405,-0.7665228166580612,0.8849404255596175,-0.3574999991269642,0.7739479285896211,1.016014094656373,0.15396914454962354,0.6938837764016965,1.033571546930496,0.0,0.0,0.0,0.0
0.02580715587858982,0.3063496018095977,0.7469467964786902,-0.00639910420066875,-0.5118954527806506,0.008769420633209627,0.8589791581579145,0.23555260773020115,-0.6936449346632787,0.7116240481017742,-0.17624219385781914,-0.7525668696287806,0.8603063180516538,-0.3780517840287797,0.7752955494315016,1.0056822025281718,0.17785363040803592,0.6922992466417313,1.027699198635991,0.0,0.0,0.0,0.0
0.02411156075239532,0.3094077507387321,0.7488136232726852,-0.005824690224411092,-0.510414950373252,0.008058921059383849,0.859870749130716,0.2291252146168318,-0.6967161097096012,0.7173187855156244,-0.18180851649085122,-0.7385401437751205,0.8340173802502483,-0.399589610519954,0.7758184681491536,0.9938280831970243,0.20571151625631792,0.6902483511813351,1.0210460920792497,0.0,0.0,0.0,0.0
0.022226026948920504,0.3124731837957153,0.7506358534550527,-0.005003690477083993,-0.5085963130195575,0.007044406304794752,0.86096174700409,0.2233368792786555,-0.6994103581001909,0.7215190160443797,-0.18683389464708103,-0.7263087551286572,0.8079057181980415,-0.4212690166188192,0.7746058668851786,0.9812451823395486,0.24112173661511416,0.6887517952705388,1.0147117506479932,0.0,0.0,0.0,0.0
0.02008218029276146,0.31518772461806394,0.7518392834676352,-0.0038306797642247573,-0.5063333139017696,0.005530353067721556,0.8623116120757869,0.21961016834357486,-0.7017263323152367,0.7221740906134545,-0.1902137107389757,-0.7200600480367761,0.7857912061603097,-0.44224106904161936,0.7687053281039287,0.9724475003214301,0.28964801164186865,0.6901183856461687,1.0088770228094341,0.0,0.0,0.0,0.0
0.01778248966587022,0.31739952401675575,0.7521526058747785,-0.002387666712511306,-0.5036314628314469,0.0036954024777874133,0.8639073982172245,0.2180396055006087,-0.7052229290508698,0.7206708602657732,-0.19209553401729162,-0.7214038475579856,0.7701252892356628,-0.4597418977931136,0.7566258523916137,0.9696570720152076,0.3552581034049463,0.693736164677221,1.0057810448527509,0.0,0.0,0.0,0.0
0.015691176046929718,0.31905267926497205,0.7512810798434764,-0.0008944822266463588,-0.5003928807140983,0.0016205836304396984,0.8657964763966698,0.2190691199873779,-0.7139253634114651,0.7226146846031927,-0.1926062569520064,-0.7335623311729648,0.7660003821485353,-0.472954561202078,0.7378367422691262,0.9751768437294634,0.4366520288816266,0.699258590236306,1.0060767468038998,0.0,0.0,0.0,0.0
0.014035439060005931,0.3200483037924397,0.7494053181626738,0.00022715623931088722,-0.49690523686951377,-0.00023300375165268036,0.8678047474408902,0.22208235071758947,-0.728326810486689,0.7295435736561017,-0.1922556272974456,-0.7539285517840351,0.7725374542845462,-0.4779363725554304,0.7140927117801175,0.9875969667369355,0.5203724015486663,0.7015579203921172,1.011591098221151,0.0,0.0,0.0,0.0
0.01404729082240687,0.3200886569024999,0.7493390723678894,0.00030155777101248653,-0.49689303130406787,-0.00027860596201146866,0.8678117001303239,0.2221402973064853,-0.7283993017319721,0.7295766086352264,-0.19227117824755943,-0.7540959373181253,0.7723091689660009,-0.4780202972682523,0.7139871194813951,0.9873792832063333,0.5204451249453038,0.7015440054293925,1.0115884170269356,0.0,0.0,0.0,0.0
0.01404729082240687,0.3200886569024999,0.7493390723678894,0.00030155777101248653,-0.49689303130406787,-0.00027860596201146866,0.8678117001303239,0.2221402973064853,-0.7283993017319721,0.7295766086352264,-0.19227117824755943,-0.7540959373181253,0.7723091689660009,-0.4780202972682523,0.7139871194813951,0.9873792832063333,0.5204451249453038,0.7015440054293925,1.0115884170269356,0.0,0.0,0.0,0.0
0.014004691985872496,0.3207486278229669,0.7502696472402135,0.00040568115813166024,-0.49892740513986455,-0.0002538684370988282,0.8666436495896199,0.2191485740910575,-0.7158349951049235,0.7191452157093652,-0.19289092403441757,-0.7366237047966396,0.7540344292155896,-0.4918517217264975,0.7263391260603371,0.9842212041300717,0.5254861789464716,0.713326516327558,1.0068937377730953,0.0,0.0,0.0,0.0
0.01405986327323747,0.3217687019196286,0.7508128641656838,0.0003253462521028138,-0.500239232508681,-5.729141655438134e-05,0.8658871757490323,0.21553186425719595,-0.7114951446584473,0.7179647118965286,-0.19514079183573865,-0.7226718876729891,0.7382393641475162,-0.5041126743697013,0.7344723426720269,0.9836878304759793,0.5274445388275787,0.721329583657969,1.003266812378382,0.0,0.0,0.0,0.0
0.014369600233514343,0.3231484003579432,0.7507874649037795,0.00011247229614192766,-0.5010472369067923,0.0002734757660951163,0.8654198859218897,0.21132977161676172,-0.715525372831482,0.7269217043926127,-0.1989359115923501,-0.7127795874775575,0.7261969675349197,-0.5167876254341672,0.7390198390218966,0.987901546539724,0.5275999196614223,0.7260302354773776,1.0029588980805733,0.0,0.0,0.0,0.0
0.014879389571005956,0.32493866378833675,0.7498165494839818,-0.00018278327279358243,-0.5015854418122945,0.0006306064739577818,0.8651078623430234,0.20658168039747507,-0.7271829539427447,0.744404824453598,-0.2041217517243713,-0.7067532045037301,0.7167947669735908,-0.5332995204145934,0.7394755936160198,1.0011354609433345,0.526424513263294,0.7263373054314971,1.0101210255564528,0.0,0.0,0.0,0.0
0.015743522427484936,0.3273387943842993,0.747974807258968,-0.0001300269245333541,-0.5026525241401577,0.00041656027623445015,0.8644884322800759,0.2016735521458553,-0.7404761998170933,0.7654294929692947,-0.20967039996004003,-0.7019992314776392,0.7074671107177088,-0.5688422986288755,0.7424125392895364,1.024420147607786,0.5207309072525864,0.7250782715327271,1.0253783121156663,0.0,0.0,0.0,0.0
0.017806931898860415,0.3301729174014381,0.7488951878605418,0.0017394073940571963,-0.5049158558577486,-0.0019877265311860743,0.8631645277168148,0.19932055345492775,-0.7364897651738207,0.7806007231155094,-0.21128025181730503,-0.6953772178784414,0.7046968647073617,-0.4552119321774036,0.7265785397050789,1.0146296675813191,0.4888253799453668,0.7387106977680857,1.0153170533233769,0.0,0.0,0.0,0.0
0.020223676079637688,0.3333758571796728,0.7488007426017217,0.003694240392525524,-0.5075652536886831,-0.004554110504594024,0.8615933645945615,0.1965724600053205,-0.7358966277193647,0.800108922223568,-0.21370703420458176,-0.6908525269335071,0.7033147868116625,-0.3489685655228454,0.714005244226487,1.0119403570880388,0.4536194823521037,0.7493120822983886,1.0134517136562782,0.0,0.0,0.0,0.0
0.022872193609992125,0.3368321973965764,0.7479177842774961,0.005083404902173454,-0.5098602430267117,-0.006452079414794185,0.8602180318073832,0.19229735982589044,-0.7443713472141714,0.8287955930225916,-0.21849601665073867,-0.688396868039575,0.7036288643579611,-0.2706818577459051,0.7078609903543096,1.01469575735028,0.4209279273823627,0.7565560822421381,1.0161935735592547,0.0,0.0,0.0,0.0
0.02548095160877462,0.3402544327555798,0.7466803898291917,0.0059076875966400915,-0.511663675426506,-0.007603575853172363,0.8591318688714467,0.18684466409230732,-0.7586629562987608,0.8616521356227034,-0.22498413899828634,-0.6867614029996979,0.7042632791828547,-0.21725932365662526,0.7064113036422155,1.0201053664771702,0.39298541531297077,0.761625263819704,1.0203540674558949,0.0,0.0,0.0,0.0
0.02781120647495601,0.3433200225025771,0.7453378852588686,0.006413784768611219,-0.5130888105483139,-0.008334326657416012,0.8582710963642116,0.18143043529929095,-0.7736643656122449,0.8920685321292335,-0.2315382207734666,-0.6857211936888481,0.7048000334051563,-0.1793780860446709,0.7065093321185439,1.026792639641442,0.36933810229788006,0.7648870846503509,1.0251771014946853,0.0,0.0,0.0,0.0
0.029817008431612606,0.34598759202875634,0.744072874315729,0.00676105154443858,-0.5142319584862971,-0.008830944689004314,0.8575790316170635,0.17642247092237603,-0.7874390671595864,0.9184042341760064,-0.23759576965373663,-0.684864009342144,0.704948135017011,-0.14972636778154383,0.7066917460275377,1.0336310522214538,0.34882576558156175,0.766983178485266,1.029647486813565,0.0,0.0,0.0,0.0
0.03152254645121896,0.3483000607812944,0.7429125204443452,0.00703643503744344,-0.5151703203743058,-0.009207422460636357,0.85700948242072,0.17193623824397677,-0.7995675954149215,0.9407857691570304,-0.24299760964447045,-0.6841358929929372,0.7047266728817636,-0.1242264857449444,0.7065279357807708,1.039815604700923,0.33049025324350306,0.7681210779713569,1.0337537845382596,0.0,0.0,0.0,0.0
0.032967827719473215,0.3503322805486098,0.7418110781140047,0.007281221116405752,-0.5159595206556231,-0.009523687616983193,0.8565290749519526,0.16793368696547234,-0.810273843013341,0.9598890874098714,-0.24779791022075037,-0.6835538315279149,0.7041114792518216,-0.10086365553817996,0.7060706423322218,1.0445006917157587,0.3135921410877498,0.7682653683636435,1.037910453412411,0.0,0.0,0.0,0.0
0.03417243696848455,0.35217711081311903,0.7406911996673097,0.0075097417786412655,-0.5166351179205424,-0.009800870872656318,0.8561166402072692,0.1642523291004546,-0.8200180662873104,0.9764120075103045,-0.25217901177015756,-0.6829801353416393,0.7027025777838096,-0.07880647691469164,0.7056738495345564,1.0464326210152304,0.29747023505526693,0.767166281874558,1.0426989061580394,0.0,0.0,0.0,0.0
0.035153271122216015,0.353911378713126,0.7394748810695234,0.007727211490738987,-0.5172162418913633,-0.010049553910223665,0.8557608636719476,0.16074770620063736,-0.8292780840267653,0.9909644361047937,-0.2563126292387022,-0.6823595537324212,0.7002011667892075,-0.05782582765358221,0.706149555342492,1.0438161172147697,0.28159385626751443,0.7645372541236731,1.0486677256251133,0.0,0.0,0.0,0.0
0.03591845317305303,0.3556142142824872,0.7381115390678654,0.007945477216781587,-0.5177197175707174,-0.010280785131343513,0.8554516169178578,0.15725165150484316,-0.8383843713828312,1.003989146132615,-0.26037057708892564,-0.681497858115221,0.6961387284455093,-0.0372151621953922,0.7069144191647023,1.0379485345466462,0.2651988239251378,0.7601178507574244,1.0560825585005424,0.0,0.0,0.0,0.0
0.03646740659254334,0.35735059511237777,0.7365652236964902,0.008184010817480677,-0.5181493395289842,-0.010513832947913132,0.85518637923517,0.15364339534276822,-0.8475594210686714,1.0157669988370726,-0.26447424189300633,-0.6802624237691511,0.6901122938336104,-0.016225114340767382,0.7078366914785102,1.0293581320999783,0.24737683146102674,0.7535799722138835,1.0650662270474422,0.0,0.0,0.0,0.0
0.0367873568860101,0.3591589024321114,0.73480852820867,0.00847884900809006,-0.5184941438044902,-0.01078638829475266,0.8549711023113596,0.14990563585706243,-0.8568637597845766,1.026331987159508,-0.268646237196959,-0.6786973571024503,0.6819101233979884,0.006084783576725424,0.709085152842819,1.0177613524647016,0.2270804491208663,0.7444649160342185,1.0756863413932216,0.0,0.0,0.0,0.0
0.03687150591095733,0.36101885352831264,0.7328322843742622,0.008898767328959797,-0.5187344380120936,-0.011174914013842595,0.8548160714780025,0.14625566044734137,-0.8660485038115792,1.0353934393801032,-0.2727001944333827,-0.6773114114027183,0.6720166581950162,0.031121316341184417,0.7110392314005353,1.002092142800126,0.203250004420172,0.7322965602424432,1.0879240013702822,0.0,0.0,0.0,0.0
0.03680479337866375,0.3627339215471883,0.7306514549696117,0.009573804970320543,-0.5188233465332657,-0.011876199946942542,0.854745361628382,0.14369043868157289,-0.8744230567464006,1.0424521990986224,-0.2758349895236949,-0.6785652773860784,0.6639995818971588,0.06076106163787461,0.7144486527911388,0.9805610259817931,0.17513437409497087,0.7167625998941537,1.10171635656493,0.0,0.0,0.0,0.0
0.03661791821215448,0.3641889625785644,0.728392994930485,0.010667294250004783,-0.5186886922601893,-0.013133169971628533,0.8547957470655166,0.14308722689253145,-0.8809656129613992,1.0468439487425774,-0.2772917537454574,-0.684367987305608,0.6605766269753828,0.09678631592562326,0.7201322118195687,0.9498298485808306,0.14041004287031178,0.697323210045194,1.115841604706457,0.0,0.0,0.0,0.0
0.03635259147257544,0.36524580586192434,0.7264784739567985,0.012269589647385783,-0.5183277129650271,-0.014997465298232258,0.8549625226739226,0.1448279925236511,-0.883891519355914,1.0476592409581302,-0.27657475326741715,-0.6947924819722217,0.663203476249283,0.13425692867808953,0.7306781446540749,0.9067765634443237,0.10017123949926998,0.675911681150144,1.1269370391539957,0.0,0.0,0.0,0.0
0.03638559712211266,0.3652880772558227,0.7264163775811517,0.012333602507271777,-0.5183679892022861,-0.015037957011655383,0.8549364712471254,0.14480216156623316,-0.8838871340891702,1.047742798051283,-0.2765991664565666,-0.6948500375511134,0.6630689087666448,0.13426293597117178,0.7306808403159716,0.9067691493529825,0.10018516702869085,0.6758168866087482,1.1269074185284913,0.0,0.0,0.0,0.0
0.03638559712211266,0.3652880772558227,0.7264163775811517,0.012333602507271777,-0.5183679892022861,-0.015037957011655383,0.8549364712471254,0.14480216156623316,-0.8838871340891702,1.047742798051283,-0.2765991664565666,-0.6948500375511134,0.6630689087666448,0.13426293597117178,0.7306808403159716,0.9067691493529825,0.10018516702869085,0.6758168866087482,1.1269074185284913,0.0,0.0,0.0,0.0
0.03450607637430839,0.3657962591391597,0.7274398404840292,0.0106407512836655,-0.520000131799372,-0.013050909406777073,0.8540001821454203,0.13778916518978052,-0.8732969463252563,1.0315749991535645,-0.2513518223065829,-0.7303870922302037,0.7383400229092382,0.1556140236913964,0.7253850483638559,0.902358026042809,0.1275720389931399,0.688193486332584,1.1239046565361688,0.0,0.0,0.0,0.0
0.031307650476957966,0.367764782871266,0.7289158410784773,0.009155129962241406,-0.5211018522520866,-0.011180840535224341,0.8533721532717978,0.1270060041757411,-0.8618097074663695,1.011754291735272,-0.22274058680694017,-0.7550951506239575,0.7838375487362547,0.16168260482407704,0.7185302273610202,0.9015939796914297,0.13674991747806048,0.6923506058793413,1.1141050497739855,0.0,0.0,0.0,0.0
0.027534786602596863,0.37087232563485095,0.7302873600519436,0.007805100068034791,-0.5217777367148062,-0.009499799134239722,0.8529928649749137,0.11393372539481389,-0.8523001278410269,0.9925939044450877,-0.1975259861782298,-0.771234246489235,0.809128125599727,0.1565821983012126,0.7097768194421012,0.9071344048214053,0.13008183225754838,0.6894936232762949,1.1017684699069807,0.0,0.0,0.0,0.0
0.023670495719500195,0.37477467929089303,0.7314293171143845,0.0065331948632885335,-0.5222040149708328,-0.007941739028203054,0.8527585900443504,0.09941317665009428,-0.8453770533025138,0.9759879013019193,-0.17699414014906642,-0.7819153216063441,0.8231556661524256,0.1448799159389054,0.6998660993759146,0.917660530743457,0.11455621104296533,0.6833556608195636,1.0882291502326584,0.0,0.0,0.0,0.0
0.01988084710380975,0.3790671223068294,0.7321811525030252,0.0053519097302229274,-0.5225311723478512,-0.006536453458275559,0.8525783282275051,0.08453879928049257,-0.8402153621563373,0.9610225362922625,-0.16078226603489765,-0.7898056270977811,0.831020054694322,0.1296549318768404,0.6887859401493379,0.9326979910403073,0.09542908299813053,0.6754476407989441,1.0758112630315695,0.0,0.0,0.0,0.0
0.016490997715023825,0.38325228570312203,0.7327830194377368,0.004323215892806444,-0.5227761478071895,-0.005360468211603421,0.8524421824785374,0.07072306761498824,-0.8359350550317246,0.948041376249982,-0.14761377137781118,-0.7960988777938227,0.8355646353336351,0.11339804684147406,0.6790062199898792,0.9474022223342761,0.07628976297273635,0.6682300821579517,1.063482060826945,0.0,0.0,0.0,0.0
0.013518077438941983,0.3870445915929137,0.7333505194444486,0.0034587955157562612,-0.5229548581104178,-0.004380774147753559,0.8523421038117027,0.05852727681784681,-0.8317380030114196,0.9362056913134471,-0.13564345334563796,-0.8014280219768324,0.8384690407590796,0.09798118456255148,0.6709803135710117,0.9597131606698012,0.05922974099679924,0.6624424670590873,1.0512717725454466,0.0,0.0,0.0,0.0
0.010939190658091288,0.39039571526660977,0.7339067117992888,0.0027372919131492318,-0.523071124204453,-0.003558531036641113,0.8522772102510622,0.04793486300456882,-0.8276833888702333,0.9255225966382017,-0.12387706362720409,-0.8057700284502911,0.8407516070352173,0.08399911369988465,0.6645098883818519,0.9695082526457197,0.04449514530125301,0.6580160875624366,1.039375515794006,0.0,0.0,0.0,0.0
0.008715430334723401,0.3933182939785193,0.7344187471977814,0.002139477523411538,-0.5231417064011851,-0.0028662585647213,0.8522382074405156,0.038812690888135465,-0.8239176749571622,0.9159915980423573,-0.1116989249827047,-0.808887642897992,0.8431563893719741,0.07160448508270637,0.6591841893371564,0.9774094800991784,0.03190550815181374,0.6545931280753441,1.028295873570986,0.0,0.0,0.0,0.0
0.0068119001755431174,0.39584925893187567,0.7348445066004342,0.0016484471168404966,-0.5231914449207727,-0.002281807962080751,0.8522105302894591,0.03098638738495709,-0.8205715414668353,0.9076178524180262,-0.09869633313919444,-0.8105898534774958,0.8462022217760518,0.0607500683051092,0.6546419783472575,0.984155488264671,0.02117054199999407,0.651818462728247,1.0185283100513443,0.0,0.0,0.0,0.0
0.005218807765354483,0.3980599393851316,0.7351782851308711,0.00124226494935465,-0.5232243747575752,-0.0017753453715982333,0.8521922075366282,0.024184981016049833,-0.8179659641384784,0.9008024074677133,-0.08466373627045282,-0.8111250737204365,0.8497472387473334,0.051221401374153236,0.650736795339326,0.9901480035425466,0.01191843633611837,0.6495663375905709,1.0100555322930729,0.0,0.0,0.0,0.0
