zhuoxili-jackie/tripod-support-walk/examples/trajectory_tripod_lowstep_v0.05.csv
root_pos_x,root_pos_y,root_pos_z,root_rot_x,root_rot_y,root_rot_z,root_rot_w,FL_hip_joint,FL_thigh_joint,FL_calf_joint,FR_hip_joint,FR_thigh_joint,FR_calf_joint,RL_hip_joint,RL_thigh_joint,RL_calf_joint,RR_hip_joint,RR_thigh_joint,RR_calf_joint,FL_foot_joint,FR_foot_joint,RL_foot_joint,RR_foot_joint
0.0,0.0,0.72963,0.0,-0.5231245161092812,0.0,0.852256264656019,0.0,-0.81,0.872,0.0,-0.81,0.872,0.0,0.65,1.0,0.0,0.65,1.0,0.0,0.0,0.0,0.0
3.944950968371583e-06,3.56461633719014e-05,0.7296328750842387,1.690794959187005e-06,-0.523119092469515,6.571282246412304e-05,0.8522595911885281,-0.0002718803173050034,-0.8102209032230651,0.8722569883264022,-0.00027188031730500324,-0.8098692147985012,0.8718800843599941,0.00016529943520217076,0.6498676504002319,1.0000167669730406,0.00016529943520217076,0.650154973797327,0.999901494163958,0.0,0.0,0.0,0.0
1.1425345430334459e-05,8.03479023074676e-05,0.7296338630508787,-1.024791709638545e-05,-0.5231174881596501,0.00012765216744812182,0.8522605688294177,-0.0005473873027366887,-0.810481393400827,0.8725840711020991,-0.0005473279802301216,-0.8097017227347753,0.8717224302369052,0.0003302181985235681,0.6497402460159799,1.0000874483827629,0.00033045628768570037,0.6503278071916158,0.9997929168409521,0.0,0.0,0.0,0.0
2.2654573719707704e-05,0.00012699681179814584,0.7296324658692677,-2.4382125319766122e-05,-0.523118166963738,0.00018959524274226875,0.8522601403630552,-0.0008264351859666034,-0.8107635344352104,0.8729502821465523,-0.0008262471974982975,-0.8095395578913089,0.8715818834949429,0.0004956365309570071,0.6496160853409396,1.00018745292835,0.000496278448297825,0.6505085781811322,0.9997012010280147,0.0,0.0,0.0,0.0
3.803807830261304e-05,0.00017404274299556507,0.7296288030470727,-3.795063255901864e-05,-0.5231203270175129,0.00025270220504280125,0.8522587976444921,-0.001110107921938777,-0.8110675085072012,0.8733548265925313,-0.001109726747041279,-0.8093958983228363,0.8714767240167479,0.0006622307855597249,0.6494952930623322,1.000307775002629,0.0006634347054347352,0.6506965113105213,0.999629139909304,0.0,0.0,0.0,0.0
5.7728098115852005e-05,0.00022129486755248861,0.7296228792068807,-5.030367472262686e-05,-0.5231233753466684,0.00031750002787924673,0.8522569042426006,-0.0013998044586676433,-0.8113969568920727,0.8738013629964383,-0.00139916928488832,-0.8092759064387055,0.8714133912424532,0.000830609888465277,0.6493763446645937,1.0004459615568209,0.0008325422595395152,0.6508909798897169,0.999576368392002,0.0,0.0,0.0,0.0
8.093755829201315e-05,0.0002686417430154985,0.7296147096825485,-6.08976689762799e-05,-0.5231263856600297,0.00038450655154401495,0.8522550281884288,-0.0016970324472144786,-0.8117528181262791,0.8742862992759353,-0.0016960842287345964,-0.8091813417411012,0.8713901241039629,0.0010014306928374005,0.649254028877152,1.000599860085191,0.0010042749336250977,0.6510878541185877,0.9995423021846584,0.0,0.0,0.0,0.0
0.00010471666307933671,0.0003154473945780346,0.7296046834457632,-6.835005035062321e-05,-0.5231274477227226,0.0004545384824584354,0.8522543412398371,-0.0020033436065164533,-0.8121270873318065,0.8747859801307154,-0.0020020269183592607,-0.8091093442577173,0.8713913238328932,0.0011755128416513628,0.6491162297146311,1.0007618764781456,0.0011794826952615882,0.6512755722909048,0.9995247601902938,0.0,0.0,0.0,0.0
0.00012187658124851618,0.000359812937690784,0.729594336668332,-6.928166618168714e-05,-0.5231226236404845,0.0005291011167642306,0.8522572592166963,-0.0023202871531395448,-0.8124925883365935,0.8752361173173236,-0.0023185600779979565,-0.8090482977945704,0.8713756958084524,0.0013540122737500837,0.6489391926041015,1.000908953027322,0.0013593805889475666,0.6514295752264136,0.9995153002206869,0.0,0.0,0.0,0.0
0.00011775416730823068,0.0003970384583567249,0.7295885929282364,-5.5901854892992625e-05,-0.5231049766861646,0.0006111825723937773,0.8522680368857047,-0.0026492586672057492,-0.8127781710016038,0.8754921338235866,-0.002647120578452719,-0.8089657871977809,0.8712547875640789,0.0015386598828571608,0.648687126735932,1.0009775024797742,0.0015458264861757064,0.6515100863966219,0.9994852675408439,0.0,0.0,0.0,0.0
6.744075634167537e-05,0.00041578419538636934,0.7296116041466784,-1.0675321212058363e-05,-0.5231044270864997,0.0007056878016295909,0.8522683029734645,-0.0029860895366993863,-0.8125448426067399,0.8750211811797091,-0.002983656460008334,-0.8085187487281897,0.8706301021864713,0.0017277748520740188,0.6484898825904832,1.0007914699654308,0.0017374044409590702,0.6516302765028897,0.999338666679499,0.0,0.0,0.0,0.0
9.670226612329473e-05,0.0002999237504126713,0.7296200040198859,-8.641866286451996e-05,-0.5231167415522538,0.0005382098899415357,0.8522608623946551,-0.002181909907313466,-0.812210064582997,0.874786892654641,-0.004589735757696615,-0.8093106427383322,0.8700677557498342,0.0019237866844769433,0.6488977986810223,1.0004660888330104,0.0019320661186137693,0.6515390396978579,0.9995112875375444,0.0,0.0,0.0,0.0
0.00015861757705288722,0.0001287935499693803,0.7296240221212771,-7.975895145434011e-05,-0.5231299477438098,0.00039335303134594595,0.8522528361263817,-0.0013541848993301284,-0.8118257444024278,0.8745601576781638,-0.006221163095744639,-0.8109007722255542,0.8697051536873621,0.002123813668173263,0.6494227951171115,0.9999584799013838,0.0021317277691890956,0.65148677572002,0.9998917877063026,0.0,0.0,0.0,0.0
0.00023722732784867565,-5.5396558167062926e-05,0.7296243678526464,-4.7829850673041224e-05,-0.5231393849985794,0.0002601184985173518,0.85224709674717,-0.0005420915842538856,-0.8115082220922732,0.8744479809453967,-0.007853533364068067,-0.8125873531484575,0.8690952870338547,0.0023284611584520427,0.6499722290275904,0.9994098624514728,0.002336520564078544,0.6514546926456135,1.0003336107210146,0.0,0.0,0.0,0.0
0.0003248067629998805,-0.00024032317029018765,0.7296208488874174,-9.82949650481107e-06,-0.5231467991233629,0.00013269311771903043,0.8522425763026025,0.00025185838471530886,-0.8112580882954343,0.8744348692075222,-0.009486009414839191,-0.8142200576608524,0.8683731049813883,0.0025371468058304697,0.6505189012127576,0.9988763711633405,0.002545697291452569,0.6514317243974412,1.0008047091642303,0.0,0.0,0.0,0.0
0.0004163928347522467,-0.00042293103207420666,0.729614116455495,2.8731910411381255e-05,-0.5231530394855712,8.859994462133356e-06,0.852238755498121,0.001029714941529411,-0.8110547063504507,0.8744830776069366,-0.011119178388085372,-0.8157698396820734,0.8676145335890958,0.002749466993342352,0.6510523189042384,0.998369804038865,0.002758782584102579,0.6514097354968825,1.001293743104111,0.0,0.0,0.0,0.0
0.0005091153662851972,-0.0006029867152912798,0.7296050966374781,6.66088785496932e-05,-0.5231583769296184,-0.00011240822554007217,0.8522354695599189,0.0017945618323667535,-0.8108793876780565,0.8745625283362207,-0.012753770321704983,-0.817249229864339,0.8668439007298496,0.0029650700225912693,0.6515699812574425,0.9978864550380173,0.002975390606533201,0.6513845626240877,1.0017938443539287,0.0,0.0,0.0,0.0
0.0006015858738023617,-0.00078101999057692,0.7295946112587245,0.000103726450871677,-0.5231629845075713,-0.00023180644028728266,0.8522326132856735,0.002549709133261575,-0.8107190246235413,0.874654448467871,-0.01439052699737402,-0.8186818954796897,0.8660653757696027,0.0031835890002725803,0.6520735518177702,0.9974193317458695,0.0031951373448174682,0.6513551242931589,1.0023002947824864,0.0,0.0,0.0,0.0
0.0006933859456234661,-0.0009577127109181452,0.7295832457360123,0.0001402555152169224,-0.523167052375791,-0.0003499555633984465,0.8522300705607145,0.003298476950054391,-0.8105656466179466,0.8747492732897928,-0.016030185925911895,-0.8200899024331981,0.8652776739344274,0.0034046327745926182,0.6525665790433836,0.9969622026268801,0.003417622235890727,0.6513220148207512,1.0028102429660857,0.0,0.0,0.0,0.0
0.0007847436550903437,-0.0011337585003434346,0.7295713411282427,0.00017639693786745654,-0.5231707828188937,-0.00046746396654874175,0.8522277174360302,0.004044159033281378,-0.8104153411086175,0.8748442110065683,-0.017673482346084207,-0.8214902644529044,0.8644787447301766,0.0036277913096353772,0.6530533898917605,0.9965104432125472,0.0036424299506679137,0.6512866008441086,1.0033225467142601,0.0,0.0,0.0,0.0
0.0008763629885903839,-0.00130986293983427,0.729559025288532,0.00021237635833446582,-0.5231743673999529,-0.0005849319266259231,0.8522254361649755,0.004790044030842217,-0.8102673834878251,0.8749415878737155,-0.019321155736005066,-0.8228953784733749,0.8636662631393097,0.003852640398869244,0.6535386801926598,0.9960608590619027,0.0038691344379311356,0.6512506080883965,1.0038375844461742,0.0,0.0,0.0,0.0
0.0009693368434244116,-0.0014867812001409665,0.7295462401382978,0.0002484953860035974,-0.5231779563889084,-0.0007029410168018572,0.8522231339694407,0.005539451794834286,-0.8101237113812512,0.8750478740337557,-0.020973957251676438,-0.8243134593342967,0.8628370106441966,0.004078743914291776,0.6540273415877303,0.9956113207963863,0.004097302089952923,0.6512158881694947,1.0043571439282177,0.0,0.0,0.0,0.0
0.0010650718134257065,-0.001665364105462606,0.729532747253683,0.00028519697216598523,-0.523181603575589,-0.0008220383932178614,0.8522207769091542,0.006295767517274313,-0.8099886411590654,0.8751729505261947,-0.02263265662490538,-0.8257460432596827,0.8619869201503908,0.004305656047372356,0.6545241589230776,0.995160503596834,0.0043264959472876915,0.6511840466459156,1.00488447790146,0.0,0.0,0.0,0.0
0.001165155609654615,-0.001846596246389821,0.7295181102305567,0.0003231211866153497,-0.5231851708119178,-0.0009427211614472994,0.8522184484696483,0.007062462598329876,-0.8098686277380192,0.8753291012107333,-0.024298048727901395,-0.8271802186644976,0.8611132907715076,0.0045329262251378784,0.6550331104431929,0.9947078331717009,0.004556283092387212,0.6511556922900859,1.0054245141037712,0.0,0.0,0.0,0.0
0.0012711116736629133,-0.002031594913436165,0.7295016700928437,0.00036310377770073664,-0.5231882063474791,-0.0010654340000362948,0.8522164242403134,0.00784309020841264,-0.8097717701888556,0.8755292463598302,-0.02597096242461587,-0.8285742145599652,0.8602208266175592,0.004760107530387943,0.6555561982563013,0.9942536829943908,0.004786244660619379,0.651129278772745,1.005984042846229,0.0,0.0,0.0,0.0
0.0013840374599917596,-0.002221514085452091,0.7294825568968283,0.0004060298179705538,-0.5231898695525087,-0.001190607549285213,0.8522152181175124,0.008641245478003275,-0.8097067097073354,0.8757842378971346,-0.02765227819836175,-0.8298378227601435,0.8593328594972295,0.004986764665238845,0.6560921602996861,0.9937997880832858,0.005015981452564557,0.651099957705678,1.0065714480521362,0.0,0.0,0.0,0.0
0.00150425517266976,-0.002417295221949472,0.7294598192681221,0.0004524460444832582,-0.5231890674794258,-0.0013187730774858002,0.8522154984510407,0.009460499312110012,-0.8096806003841343,0.8760998136716719,-0.029342965955294637,-0.8308158788399648,0.8585068576129015,0.005212469244949078,0.6566362443905384,0.9933495728625498,0.0052450985423909266,0.6510596770596845,1.0071952562482749,0.0,0.0,0.0,0.0
0.001631342111831359,-0.002619310380901819,0.7294327770856749,0.0005019880919100412,-0.5231850544099956,-0.0014507525478342934,0.852217719932536,0.010304375321615688,-0.8096960651353419,0.8764750873163503,-0.031044154505451043,-0.8312956461564859,0.8578460795097882,0.005436760436104658,0.6571833584655472,0.9929074614920314,0.005473145840575647,0.6510007289414961,1.0078608781775886,0.0,0.0,0.0,0.0
0.0017651191028311194,-0.0028273533776863938,0.7294015200866165,0.000553315819449555,-0.5231785519047022,-0.0015877344295632532,0.8522214358767818,0.011176547146900246,-0.8097481517431392,0.8769054951871148,-0.03275719981224476,-0.8310768820529753,0.8574786532557678,0.005659057339959603,0.6577364380143387,0.9924758112543189,0.00569952089806173,0.6509239466887653,1.0085674079122298,0.0,0.0,0.0,0.0
0.0019072559944992447,-0.0030424229870617443,0.7293656671912171,0.0006068148499248201,-0.5231697001156081,-0.001730502522291252,0.8522265555694113,0.012081538798564662,-0.8098415502109242,0.8774021751593504,-0.034483794619622025,-0.8301619607458611,0.8574060657288073,0.0058787662296228334,0.6583011088727561,0.9920541204412151,0.005923659063779979,0.6508309786926784,1.0093194198612647,0.0,0.0,0.0,0.0
0.002061426915525083,-0.0032667718729206875,0.7293243516621296,0.0006646705269056982,-0.5231580661703052,-0.0018794206605990042,0.8522333388174964,0.013024789544196988,-0.8099910901076243,0.8779930731297005,-0.03622599047881872,-0.8287556077995736,0.857503591035473,0.0060952598510112315,0.6588861683843462,0.9916388140417491,0.006145032284710219,0.6507247104814425,1.0101270738116201,0.0,0.0,0.0,0.0
0.0022319362548438625,-0.0035021749578410997,0.729277431038928,0.0007282262583330027,-0.5231447204072825,-0.0020352052843175925,0.8522411214767529,0.014012045402648861,-0.8102054106002207,0.8787054262114768,-0.03798612281345329,-0.8270739325595202,0.8576710202503729,0.006307747551890642,0.659509629432929,0.9912239244208595,0.006362940138167451,0.6506175779058674,1.0109945601750563,0.0,0.0,0.0,0.0
0.002422905313253908,-0.0037499763075331542,0.7292249803792628,0.0007980839637198387,-0.5231311426574039,-0.0021988561959557533,0.8522489869019354,0.015049233860739596,-0.810490673797689,0.8795642842932511,-0.03976677148455561,-0.8252736078075708,0.8578526317261775,0.006515348767155482,0.6601909616142279,0.9908040018541607,0.006576580351961832,0.6505238550794334,1.0119234059375186,0.0,0.0,0.0,0.0
0.0026383760574856573,-0.004011508972237059,0.7291669640277461,0.0008747600536455998,-0.5231186324806171,-0.002371453166564731,0.8522561277904293,0.016142561658233613,-0.8108538936496122,0.8805948914928552,-0.04157071919417207,-0.8234432801824926,0.8580244602632754,0.0067171140321341995,0.6609485513203214,0.9903742649874306,0.0067850904740820546,0.6504565907303097,1.0129156115184081,0.0,0.0,0.0,0.0
0.0028827011076072977,-0.004288440476939201,0.7291031778248007,0.0009592138028505639,-0.5231081596894182,-0.00255400713672762,0.8522619375654272,0.017298656638135113,-0.8113045388228738,0.8818254235828399,-0.04340094268239299,-0.8216178738776346,0.8581769770657997,0.0069120111592169105,0.6618004629063475,0.9899291814082779,0.006987557062091105,0.6504278962756471,1.0139746698995564,0.0,0.0,0.0,0.0
0.003160764591210479,-0.0045830071367350894,0.7290333924066627,0.001053202801934677,-0.5231003899330432,-0.0027473636569286656,0.8522659941642003,0.018524676823427153,-0.811853989564357,0.883287318103888,-0.045260625812873996,-0.8197946762163026,0.8583007805650983,0.007098905260550315,0.6627660657320176,0.9894601030413196,0.007183017509621675,0.6504502371717423,1.0151048674879772,0.0,0.0,0.0,0.0
0.0034777817073316274,-0.004898212111502365,0.7289576754786727,0.0011595862925712016,-0.5230957022592867,-0.002952114722217672,0.8522680485951358,0.019828368852456993,-0.8125123927512713,0.8850113106769787,-0.047153183496160066,-0.8179429800121817,0.858375319445401,0.007276551069990033,0.6638672225228216,0.9889517467129506,0.007370476166567961,0.6505373377376424,1.016309213235429,0.0,0.0,0.0,0.0
0.0038385089632840632,-0.00523806255281794,0.7288769310663626,0.0012826939241538527,-0.5230941023803505,-0.003168480886139639,0.8522680772386506,0.021218071862323096,-0.8132822084859177,0.8870175970369528,-0.04908229053454888,-0.8160062954410604,0.858357649416118,0.007443607847861743,0.6651285019461082,0.9883768777574518,0.00754895007611865,0.6507040584487751,1.0175859110823815,0.0,0.0,0.0,0.0
0.004245685007322054,-0.005607870690909954,0.7287937247762883,0.001428798501279187,-0.5230949963348688,-0.0033961502949168645,0.8522664193240518,0.022702645454008616,-0.81414746860694,0.88929840079378,-0.05105191243682269,-0.8138997341308242,0.8581667422134003,0.0075986827402958305,0.6665761050048796,0.9876886142715398,0.007717553857972938,0.6509648866608029,1.0189229983018655,0.0,0.0,0.0,0.0
0.004697451893605124,-0.00601449859836625,0.7287134033009582,0.0016065093177036,-0.5230968451264582,-0.003634124834949691,0.8522639866163784,0.024291239651128515,-0.8150579448797426,0.8917912735263368,-0.05306633365982987,-0.8115069073568006,0.857657657564962,0.0077404043096577484,0.6682347157645238,0.9868110674620052,0.007875620165447213,0.6513303888704398,1.0202910456728436,0.0,0.0,0.0,0.0
0.005183397794356976,-0.00646597781657592,0.7286451473715385,0.0018262191298495194,-0.523096884290909,-0.003880817052708113,0.852262432486518,0.025992654007364717,-0.8159090643517912,0.8943427832161099,-0.0551301667842005,-0.8086810854852984,0.8565792124623575,0.007867518107026615,0.6701194679339982,0.9856345265458212,0.008022806215514789,0.6517995681284174,1.0216360877984574,0.0,0.0,0.0,0.0
0.005678658851403333,-0.006968557620885818,0.7286011063693522,0.0020956511644305846,-0.5230916291946278,-0.004135228328158392,0.8522638415416796,0.02781353747056102,-0.8165248899284676,0.8966676202980332,-0.057248275884189535,-0.8052532727338219,0.8545104604569086,0.007978972604859394,0.6722128032995902,0.9840414533707736,0.008158982491872491,0.6523406640312988,1.022884953850941,0.0,0.0,0.0,0.0
0.006134678987878288,-0.007515093095384012,0.7285858092269817,0.0024023984323322616,-0.5230802932419584,-0.004401710680492524,0.8522686549714029,0.029753040712766063,-0.8166755147492452,0.8983249393408967,-0.05942524962302676,-0.8010398576329921,0.8507690086569504,0.008073960995894849,0.6743851124638874,0.9820633581481779,0.008283249823616836,0.6528287536688092,1.024018137301741,0.0,0.0,0.0,0.0
0.00645938519337439,-0.008045732262943603,0.7285414988362015,0.002656149185180288,-0.5230697650138196,-0.00470500259641001,0.8522727431699675,0.03178412839487163,-0.8162905472014274,0.8988098785839402,-0.061662260023151276,-0.7958201565180835,0.8441838678818118,0.008152789378800885,0.676050334615817,0.9805604371126976,0.008390877633775686,0.6527659207646579,1.0254591401776219,0.0,0.0,0.0,0.0
0.00656615312312908,-0.008418144750133088,0.7284273891536053,0.0026505969064098424,-0.5230739652478279,-0.005094403692922058,0.8522679439395614,0.033814128209045696,-0.8156008389281333,0.8981162212538278,-0.06392946460018754,-0.7888421252342851,0.8326189320039906,0.008220426455955058,0.6766614596774073,0.9805510899567811,0.008472929697919403,0.6518251937036039,1.0272238603580421,0.0,0.0,0.0,0.0
0.006577950863352616,-0.008442064216298829,0.7284232515903669,0.002659840768657831,-0.5230663238237284,-0.005110441446189829,0.8522725089528823,0.0339148926600076,-0.8156064206932958,0.8981391068984372,-0.06405977478063019,-0.7888046432838625,0.8326260523526385,0.008221094151603695,0.6767033497407833,0.9804900902551262,0.008476608609475855,0.6517840551086894,1.027291332748687,0.0,0.0,0.0,0.0
0.006577950863352616,-0.008442064216298829,0.7284232515903669,0.002659840768657831,-0.5230663238237284,-0.005110441446189829,0.8522725089528823,0.0339148926600076,-0.8156064206932958,0.8981391068984372,-0.06405977478063019,-0.7888046432838625,0.8326260523526385,0.008221094151603695,0.6767033497407833,0.9804900902551262,0.008476608609475855,0.6517840551086894,1.027291332748687,0.0,0.0,0.0,0.0
0.006626899598298287,-0.008537266154616604,0.7288252583168017,0.0024316740103255833,-0.5229244654925161,-0.0049713984859583145,0.8523610593803354,0.03392094180877346,-0.8157903523459527,0.8990332846427591,-0.0640536505486449,-0.7883041189578192,0.833274530986237,0.005238892981401335,0.6710026207748665,0.9912316425294414,0.01152681532479515,0.6542025884806477,1.023877126557412,0.0,0.0,0.0,0.0
0.006737044779259329,-0.008702526213423493,0.729342406370523,0.00230558306405672,-0.5228237086983888,-0.004813920614236976,0.8524241198358461,0.03397950356580569,-0.8153625969034677,0.8997015368558388,-0.06398933003842482,-0.7878784484158249,0.8346462619205767,0.0022622759654561115,0.6670821211100987,0.9992026731194994,0.014527905340905096,0.6573979943014618,1.0196553011615201,0.0,0.0,0.0,0.0
0.006868009260940782,-0.008911600437549391,0.7298552518503564,0.0022432933441214487,-0.5227510878450397,-0.004649035725739637,0.8524697380309876,0.03408602809457467,-0.8146784337585493,0.9001373876637095,-0.06387770339482177,-0.7876293440291872,0.8363755382579297,-0.0007088751649024353,0.6645440553894054,1.005328335831489,0.01748424716088624,0.6606723594273125,1.0156160871474635,0.0,0.0,0.0,0.0
0.006999003998425636,-0.009143788388686434,0.7303290736136878,0.002213202549579873,-0.5226975871782132,-0.004485175199943951,0.8525034998731527,0.03423365348473765,-0.8138861113816384,0.9003631414390486,-0.06372594898294032,-0.78750492398259,0.8382020434954032,-0.0036783396281672674,0.6628916777436955,1.010408070035397,0.020402239607815315,0.6637866635150379,1.0120120582711654,0.0,0.0,0.0,0.0
0.007120743564770526,-0.00938764910775416,0.7307595171738388,0.0021976513024541526,-0.5226558807870137,-0.004326422684632925,0.8525299306618258,0.034416488743643656,-0.8130482804149054,0.9004082535490667,-0.06353944921310876,-0.7874567345228367,0.8399997929131977,-0.006649853938816878,0.6617638715089411,1.0149049070321543,0.02328780865877526,0.6666785536037699,1.0088472844242122,0.0,0.0,0.0,0.0
0.007221844266856836,-0.009634068620214493,0.7311509267293039,0.002182378112394436,-0.5226211819533071,-0.004175640063191293,0.8525519933878317,0.03462813306110308,-0.8121648101831084,0.9002409738746797,-0.06332223451285673,-0.7873936751654764,0.841609938312847,-0.00962723701910486,0.6608959961108352,1.0190647504292445,0.026146716258695014,0.6693268249694951,1.0060605272876522,0.0,0.0,0.0,0.0
0.0073015573908417584,-0.009880301566558865,0.7315108642696087,0.002162925734220988,-0.5225901567278595,-0.004033024114941653,0.8525717474558419,0.03486483260435189,-0.8112426069976936,0.8998818567286369,-0.06307766882278913,-0.7872944244976015,0.8430157998902265,-0.012614244700828378,0.6601450180917254,1.0230338423970928,0.02898411364392164,0.6717585796144904,1.003572676037348,0.0,0.0,0.0,0.0
0.007365032382852958,-0.010127112265516979,0.7318473670365754,0.0021403168348612333,-0.5225610280056276,-0.003897416098601448,0.8525902891783969,0.03512457151700756,-0.8102916634397651,0.899377497543906,-0.06280843601272987,-0.7871753095842526,0.8442757455478302,-0.015614648362992136,0.6594440927643689,1.0269084774829742,0.03180472469176664,0.6740236223702569,1.0013072938091465,0.0,0.0,0.0,0.0
0.0074176472865471205,-0.010375745983014256,0.7321668745270032,0.0021163805434465215,-0.5225328966564853,-0.0037675463611665017,0.8526081740398661,0.035405770022555495,-0.8093203037468946,0.8987703647489348,-0.06251683008339183,-0.7870555307705994,0.8454500768197658,-0.018632242442092085,0.6587646634802361,1.0307467325210211,0.03461312526966101,0.6761672337937036,0.9992043728005333,0.0,0.0,0.0,0.0
0.0074622182230389055,-0.010626270577271817,0.7324733311059043,0.0020911545318217824,-0.5225054224993929,-0.0036426892516867393,0.8526256161683571,0.035706524786078706,-0.8083333652388486,0.898085038684414,-0.062205004886249235,-0.7869390666156784,0.8465641665194265,-0.021670838515911083,0.6580952808522705,1.0345758745160343,0.03741386583605571,0.6782173962959223,0.9972258201971247,0.0,0.0,0.0,0.0
0.007500953151260102,-0.010878740398470251,0.7327684502363283,0.0020646844619214458,-0.5224783987380986,-0.003522178828251818,0.8526427471024701,0.03602515373356043,-0.8073387581253223,0.8973424642796473,-0.06187497957492479,-0.7868328220856237,0.8476393750055582,-0.024734273228300144,0.657436801741425,1.038405469567077,0.0402114330969763,0.6801899811255387,0.9953544927647306,0.0,0.0,0.0,0.0
0.007535039563003231,-0.011132930070406307,0.733051897058023,0.0020366010714597408,-0.5224518824420117,-0.003405520350505055,0.8526595365208886,0.03636005756654833,-0.8063452818631602,0.8965566625986604,-0.0615286264434246,-0.7867418626355414,0.8486860520752374,-0.027826428187865508,0.6567950693166805,1.042230096865318,0.04301026544562148,0.6820887870666459,0.993592595548144,0.0,0.0,0.0,0.0
0.007565574970259788,-0.011388543769591454,0.733321317872759,0.0020064723629160427,-0.522426184824585,-0.0032923098912116234,0.8526757978117273,0.03670984941671563,-0.8053663740479965,0.8957426424713781,-0.06116775460510124,-0.7866755037352477,0.8497147973582905,-0.030951224292939613,0.6561835815888939,1.0460257667699562,0.04581473492160717,0.6839082930822586,0.9919613163809482,0.0,0.0,0.0,0.0
0.007593543823158571,-0.011645428775558499,0.7335718975435631,0.001974145334551646,-0.5224016871277538,-0.003182145606198207,0.8526913005218333,0.03707345829438377,-0.8044215511485562,0.8949165834100118,-0.06079410000443919,-0.7866507890816987,0.8507395298431532,-0.03411263817379632,0.6556248898266489,1.0497356007649195,0.04862918212303552,0.6856307939744983,0.990505436181453,0.0,0.0,0.0,0.0
0.007617047895608711,-0.01190251268068892,0.7337955028473977,0.0019380315140485934,-0.5223788214819701,-0.0030750378768207567,0.8527057845722724,0.03744958261059635,-0.8035301116344297,0.8940767184182686,-0.06040932801561054,-0.7866753681932501,0.8517429891353403,-0.03731472071241927,0.6551499945979307,1.0532354467213807,0.0514580558240479,0.6872144332448475,0.9893007500600399,0.0,0.0,0.0,0.0
0.007631442303810903,-0.012158556268713127,0.7339804627732132,0.0018962170657182305,-0.5223575414736645,-0.0029710721938661323,0.8527192832089863,0.03783697220663181,-0.802712441174879,0.8932034359550505,-0.060014956338557135,-0.7867557715541562,0.8526869276626365,-0.04056160842405071,0.6548170890238192,1.056283734826799,0.054306027812191564,0.6885906653323313,0.9884575799080547,0.0,0.0,0.0,0.0
0.00762918095525506,-0.012412750771221667,0.7341126896156626,0.001847270509705222,-0.5223367973814819,-0.002870128420280704,0.8527324434169089,0.038234570847279145,-0.8019862721301539,0.892255475437268,-0.059612188065151575,-0.7868988624161312,0.8535159024735852,-0.04385754383667677,0.6547493667023572,1.0584419288838716,0.05717815175090134,0.6896674896000612,0.9881114546823991,0.0,0.0,0.0,0.0
0.0076022338865929595,-0.012665161479986064,0.7341809408976686,0.0017908138975162402,-0.5223146152995044,-0.0027717123324315666,0.8527464765338297,0.038641633511270417,-0.8013597297645962,0.8911826848026091,-0.05920172458512885,-0.7871092616162214,0.8541763739184876,-0.04720687565448802,0.6552030473313986,1.0590007045524674,0.06007982158590504,0.6903622971029157,0.9883729383569831,0.0,0.0,0.0,0.0
0.007548702450529264,-0.012916012778745175,0.7341863259906191,0.001726616107371205,-0.5222903267343086,-0.0026753883674260925,0.8527617930545847,0.03905746750947586,-0.8008239065349226,0.8899682721064863,-0.058783886447181716,-0.78737748039526,0.8546521077246658,-0.05061338673649088,0.6561689558805227,1.057952123000842,0.06301577591189633,0.6906743859806765,0.989233650748399,0.0,0.0,0.0,0.0
0.007472367809038419,-0.013165762611083239,0.7341425507337943,0.0016547177426834635,-0.522264343182113,-0.0025807253316190906,0.8527781409056582,0.039481393488833026,-0.8003507998871404,0.8886247548073644,-0.0583585779910025,-0.7876781593407051,0.8549605924474206,-0.05408031983611543,0.6573739659235359,1.05598908129559,0.0659902043631767,0.69068411298209,0.9905640699007204,0.0,0.0,0.0,0.0
0.007375140964261868,-0.013415992014513926,0.734066999419632,0.0015764742710595691,-0.5222353595341251,-0.0024867193359360187,0.852796318125307,0.0399129156624946,-0.7998969516492036,0.8871438745129449,-0.057925104195768504,-0.7879788076131018,0.855111098307482,-0.05761106439113392,0.6586799956527594,1.0535316098179988,0.06900790959985525,0.6904785562246532,0.9922025394387869,0.0,0.0,0.0,0.0
0.0072534683945603366,-0.013669063202073967,0.7339761590160354,0.001493875878127292,-0.5221996900239123,-0.002391825693213418,0.852818580498598,0.040351444376085725,-0.7994056534399443,0.8854741395102355,-0.05748230586170673,-0.7882374977813245,0.8550762715848145,-0.06120916577234915,0.6600161320976471,1.0507983254586437,0.07207450827117291,0.6901165245454727,0.9939998465406386,0.0,0.0,0.0,0.0
0.007097825980475693,-0.013928047202485836,0.7338853035314019,0.001409292479576188,-0.5221510301308783,-0.0022939239477029554,0.8528487870313773,0.0407961659448774,-0.7988072427337313,0.8835180620513243,-0.05702866336858003,-0.7884019691196495,0.8547880637283534,-0.06487832424672256,0.6613429812985809,1.0478863331952075,0.0751964406373966,0.689624698266789,0.9958221966161138,0.0,0.0,0.0,0.0
0.006892382251732372,-0.014196817967826186,0.7338093424624874,0.0013253911468210794,-0.5220797665883867,-0.002190178218181886,0.852892820802647,0.04124591451188864,-0.7980184972250999,0.8811307410710509,-0.056562411749290026,-0.7884090445667169,0.8541369466549052,-0.06862239670983697,0.662638227306569,1.044821520357349,0.07838103837745287,0.6889987425112775,0.997542493355993,0.0,0.0,0.0,0.0
0.006613726467302764,-0.014480062914870197,0.7337635286870443,0.0012447645656921043,-0.5219716238122579,-0.0020768667694010447,0.8529594135246957,0.04169893762040065,-0.796942137115985,0.8781135744524974,-0.05608172178295538,-0.7881825580168301,0.852964376364578,-0.0724454064477439,0.6638871648947546,1.0415819029084172,0.08163673998325277,0.688199320122154,0.9990319770174948,0.0,0.0,0.0,0.0
0.00622671953366477,-0.01478186162433646,0.7337637556639676,0.0011670089844866608,-0.5218059274493199,-0.0019497350805658374,0.8530611998572557,0.042152041933799914,-0.7954618282097785,0.8741909732999494,-0.055584985069124876,-0.7876117867546365,0.8510175269056656,-0.0763515693052363,0.6650593367740663,1.0380978277552182,0.08497338473241482,0.6871374264551307,1.000152602364286,0.0,0.0,0.0,0.0
0.005684315379277204,-0.015104620532134534,0.7338286561630095,0.0010864744826255164,-0.5215550397718093,-0.0018043110400122015,0.8532150400241992,0.04260018030864957,-0.7934420788662351,0.8690131132428063,-0.05507109902782963,-0.786539478380951,0.8479364013986109,-0.08034533417739692,0.666074997147889,1.03426191682758,0.08840223738534773,0.6856840178214111,1.0007309822940431,0.0,0.0,0.0,0.0
0.0049574338025393,-0.015460777322310623,0.733984914342073,0.0010116527372468346,-0.5211813701408029,-0.0016313230894922657,0.8534437853554693,0.04304261462804524,-0.7908256589986239,0.8623835906482331,-0.054540118563223335,-0.7849781994265925,0.8436493223920333,-0.08443138690250422,0.6668336804948026,1.0299722431123064,0.0919352949823935,0.6837736560713981,1.000507123045602,0.0,0.0,0.0,0.0
0.004013866895273796,-0.015861102921350186,0.7342616299140111,0.0009451854011460038,-0.5206350293890816,-0.0014210727917119673,0.8537776369463588,0.04347788585566147,-0.7876134315065477,0.8541476399103111,-0.05399458996249672,-0.7829707135956538,0.8380947321014631,-0.08861475035400061,0.6670819673972012,1.0250722452101526,0.0955856956965997,0.681317087290263,0.9991599071519388,0.0,0.0,0.0,0.0
0.0028300340406799043,-0.0163141226447169,0.7346839493761607,0.0008829606307107215,-0.519849098521281,-0.001163716771705542,0.8542568588606189,0.04390568063270813,-0.7839772030423326,0.8443525553437584,-0.05344203054069389,-0.7806989968737544,0.8313764827509014,-0.09290081386381534,0.6663628738622234,1.0193400026693906,0.09936658737211766,0.6781998492344808,0.9963329746191641,0.0,0.0,0.0,0.0
0.0014130281586466117,-0.016821112773949234,0.7352575042474964,0.0008081392731531565,-0.5187393044236677,-0.0008522943695803133,0.8549316665975546,0.04432987735626071,-0.7804532553840259,0.8335411510849221,-0.052898417214653465,-0.7786396856395652,0.8239977171429704,-0.09729549845123928,0.6640239397595996,1.0125743897954926,0.10328772744488506,0.6742837126445002,0.991727789732106,0.0,0.0,0.0,0.0
-8.953366373835306e-05,-0.017386430831197834,0.7359324194082294,0.0007171676676623622,-0.5171933008283577,-0.0004810482338761599,0.8558681813465209,0.04477588370046188,-0.7786673598604607,0.8239746015981304,-0.05240099661911959,-0.7784302979964014,0.8182647346651949,-0.10180432448758332,0.659745082935344,1.0046738637314547,0.10734817816924531,0.6695308744568959,0.9853421141662744,0.0,0.0,0.0,0.0
-0.0014477381783180544,-0.017918119212382358,0.736493356335277,0.0004610551501144244,-0.5150267494108622,-8.834256866346026e-05,0.8571739770985934,0.045277599267075724,-0.7821767940015814,0.8202589622698995,-0.05203072982961657,-0.782722395959358,0.8174894816142708,-0.1064371969648288,0.6537076867946346,0.9950873968206183,0.11152936845099401,0.6632176160489971,0.9781628284070356,0.0,0.0,0.0,0.0
-0.0024257138333262074,-0.018305028686317268,0.736717750308633,-0.00010997036624301154,-0.5122011117498383,0.0002676642603994131,0.8588654943497218,0.04586299435641818,-0.793768943210068,0.8263283560565184,-0.05184740163372262,-0.7933104429949144,0.8241065249960324,-0.11118474934539435,0.6449269877922412,0.9853677876377024,0.11575882575384389,0.6549662090489091,0.9715335888231991,0.0,0.0,0.0,0.0
-0.0024331643677713666,-0.018327332215080254,0.736692031930684,-0.00014207382176520302,-0.512192602045777,0.00028503485760280505,0.8588705589201061,0.045891694870712756,-0.7938458178854753,0.8262423912627391,-0.05182566876704268,-0.7933567597022307,0.8240858205980199,-0.11147162723980981,0.6449042792485629,0.9853532211979324,0.11596220752687218,0.6549996544848163,0.9715105120326927,0.0,0.0,0.0,0.0
-0.0024331643677713666,-0.018327332215080254,0.736692031930684,-0.00014207382176520302,-0.512192602045777,0.00028503485760280505,0.8588705589201061,0.045891694870712756,-0.7938458178854753,0.8262423912627391,-0.05182566876704268,-0.7933567597022307,0.8240858205980199,-0.11147162723980981,0.6449042792485629,0.9853532211979324,0.11596220752687218,0.6549996544848163,0.9715105120326927,0.0,0.0,0.0,0.0
-0.0024008687560533024,-0.01839566543310998,0.7368754270889477,-0.00011805608817698986,-0.5134144116782942,0.00018654841718647707,0.8581407769961052,0.04617981872306098,-0.7856014186378975,0.8184460020772724,-0.05124344922342866,-0.7859274137515104,0.8172368871355195,-0.11305511434186613,0.6495377084248576,0.9863844976313638,0.11690352511377698,0.6592663057929636,0.9726455508576481,0.0,0.0,0.0,0.0
-0.0023728679509998187,-0.018477384714310915,0.7369781874217675,-7.369637271081868e-05,-0.5142369616354543,9.515132566212948e-05,0.8576481404416418,0.04651204900005636,-0.7799182257548651,0.8129606553382133,-0.05071992351975051,-0.7811773763313931,0.8128822334860893,-0.11427365606876241,0.6526971329094822,0.9871466085020898,0.11750171397088113,0.6620004375155935,0.9736811679988581,0.0,0.0,0.0,0.0
-0.0023843512235002854,-0.018557339309778237,0.7370455745376061,-3.217295739297995e-05,-0.5147608735126877,4.320096675156186e-06,0.8573337984978151,0.04686850570047034,-0.7759555296406976,0.80892113859113,-0.05023590789558846,-0.7781242907635189,0.8099485502487245,-0.11515286245489965,0.6547259366807359,0.9875634390012515,0.11777690663357344,0.6635912158383971,0.9743978081738001,0.0,0.0,0.0,0.0
-0.002468043642368563,-0.01863432829958343,0.7371107061034109,4.69280196866715e-06,-0.5150557271381297,-8.671781851750946e-05,0.8571566895266057,0.047237785996435654,-0.7730167131587894,0.8055322491938272,-0.04977519392565809,-0.7760616477677217,0.8076227306079207,-0.11571642882523267,0.6558622928142855,0.9875301139026333,0.11774899310370436,0.6642898634305426,0.9746614314755114,0.0,0.0,0.0,0.0
-0.002652767486352234,-0.018709442375951634,0.7371967002352664,3.8498171773012985e-05,-0.515162500921409,-0.000177961989996949,0.8570925063794573,0.04761332747622536,-0.7706100671812471,0.8021878934763594,-0.04932604215971796,-0.774510874232917,0.8053157589780857,-0.11597571447399838,0.656240700945529,0.9869475945938927,0.11742651697693872,0.6642346832673869,0.974368915343499,0.0,0.0,0.0,0.0
-0.0029528003028404188,-0.01878557029504252,0.7373205017536709,7.359457428155764e-05,-0.5150979106733198,-0.00026873849139985893,0.8571312996171838,0.0479934563911034,-0.768480534529687,0.7985761070444038,-0.04888136359147447,-0.7732479435898185,0.8027593673917532,-0.11593444269270216,0.6559503196949966,0.9856947879072129,0.1168109731807626,0.6635134017447156,0.9734115523737253,0.0,0.0,0.0,0.0
-0.0033490263002776198,-0.01886892952430397,0.7374929629260516,0.00011955905998975027,-0.5148506260979382,-0.0003568991925751013,0.8572798207908305,0.048383825927356044,-0.7667364975031254,0.794907619649118,-0.048440870318383955,-0.772443795408179,0.8002531982849099,-0.11559498014477779,0.6550821993066354,0.9836009435906407,0.11590288382029747,0.6622099040258732,0.9716552077767062,0.0,0.0,0.0,0.0
-0.0037483731212706816,-0.01897301957627496,0.7376957715716727,0.00019752461950156534,-0.5143573068721004,-0.0004368139507227033,0.8575758456514951,0.0488058075593796,-0.7662906442934609,0.7925355451634034,-0.04801909283740932,-0.7731401906650595,0.7993327708247472,-0.11496596080680649,0.6536762962171411,0.9805643518990858,0.11470938345573006,0.6603455833914779,0.9690866534114762,0.0,0.0,0.0,0.0
-0.0037733463674206546,-0.019114659639513882,0.7378245130641612,0.00033493598888373967,-0.5133980176314283,-0.0005001184674641615,0.8581504024304373,0.049330790228166894,-0.7709194856955095,0.7970750541671289,-0.04768569042809005,-0.77925474473562,0.8057984971817085,-0.11410526490479816,0.6517871845369075,0.9767110720828678,0.11328523584336654,0.6579491375537408,0.9659486566058657,0.0,0.0,0.0,0.0
-0.003403629134380101,-0.019315717681115868,0.7375758752480522,0.0005685260764015274,-0.5119153015232791,-0.0005346758166204174,0.8590355725848621,0.04998690275269225,-0.7819226456966828,0.8093743589341611,-0.04746615602255086,-0.7922694193611276,0.8207361817015845,-0.11308565458183843,0.6478724859715651,0.9746664687838201,0.1117041142956166,0.6534325324447574,0.9650533740708257,0.0,0.0,0.0,0.0
-0.001935519428907535,-0.019733092294849965,0.7372977883796112,-5.082037571544036e-05,-0.5150001606435566,-0.0001576337007061396,0.8571900647499461,0.05025674354548503,-0.7725845619339919,0.8063432140873856,-0.046852375299694875,-0.7818684222088319,0.818301585476669,-0.1088954038044106,0.657850081059568,0.9821612329367642,0.10672019908978349,0.6611349303924573,0.9816441773678828,0.0,0.0,0.0,0.0
-0.0001668162277973877,-0.020207488239418103,0.7365822956604532,-0.0004376120242480979,-0.5172944383372452,0.00021106706379583453,0.855807354497357,0.050691595058810705,-0.770596029203805,0.8114037295036466,-0.04637046969159177,-0.7799144046400558,0.8252292922660399,-0.1047985839695171,0.6649595972334716,0.9908719770378626,0.10186004613913521,0.6661929399696369,0.9955480215725513,0.0,0.0,0.0,0.0
0.0016149036812318472,-0.020681616079084763,0.7358290826906572,-0.000674668964161167,-0.5188779889123313,0.0005389583601624346,0.8548478735821767,0.05121974154159811,-0.7728134188881219,0.8206763542174382,-0.045959671915799326,-0.7827697331488881,0.836927664981982,-0.10080234788310195,0.6703518404605228,0.9978939485937418,0.09713196155369445,0.6694110289962439,1.005852459737471,0.0,0.0,0.0,0.0
0.003165309866458445,-0.02113981953921582,0.7352146335477459,-0.0008118725300562041,-0.5199855913335243,0.0008247451675582032,0.8541742477176004,0.05177548863636517,-0.7759447241416427,0.8298604190178297,-0.04556063148998189,-0.7869026401992055,0.8488056145873828,-0.09689699212126213,0.6745908845650044,1.0026396476311703,0.0925269984033115,0.6707682044501253,1.0137547738942674,0.0,0.0,0.0,0.0
0.004430002590806565,-0.021566475535859227,0.7347710846117087,-0.0009006763139427883,-0.520756653386022,0.0010690171888302498,0.8537040201021769,0.05232999739671432,-0.7788893871348082,0.837678059675993,-0.04515628704910226,-0.7909618038867984,0.859280908316766,-0.09307937293684812,0.6779119542293427,1.0054023183014849,0.08803840182723231,0.6708567526115278,1.0199998153023988,0.0,0.0,0.0,0.0
0.005418355629717744,-0.02195713304999959,0.7344808496032607,-0.0009717298588158798,-0.5212890512800035,0.0012766971513345098,0.8533786678849309,0.05287003414269358,-0.7812681933408931,0.8438134532570015,-0.04474218969055798,-0.794437220620182,0.8679022780003812,-0.08934696762951605,0.6804639717297273,1.0066507778256417,0.08366001362907612,0.6702344660417868,1.0251294111357898,0.0,0.0,0.0,0.0
0.006165007277822626,-0.02231441439158781,0.7343144942748816,-0.0010396788720885913,-0.5216528902591043,0.00145454709362686,0.8531559443881982,0.05339052294710295,-0.7829941956940027,0.8483294570234362,-0.04431856716088134,-0.7971943174703304,0.8747063447190653,-0.08569681094778255,0.6823843243325564,1.0067951754449345,0.07938612929318015,0.6692611751771927,1.0295088442926912,0.0,0.0,0.0,0.0
0.006710203429800644,-0.02264450482567516,0.7342421390181102,-0.0011088139982485781,-0.5218978018959066,0.0016095955926266885,0.8530057819908178,0.053890651033832976,-0.7840971776126812,0.8514138461642983,-0.043887186679304656,-0.7992641578220754,0.8799134993127222,-0.0821252784571787,0.6837902507903316,1.006159154579831,0.0752114276137804,0.6681151355404537,1.0333638098534017,0.0,0.0,0.0,0.0
0.007089293682064078,-0.0229565162651232,0.7342374196375888,-0.0011749531455554423,-0.5220596178193675,0.001749069605115019,0.8529063932712183,0.054371603558980186,-0.7846217195879216,0.8532353263836944,-0.043449390626018526,-0.8007335514373398,0.8837744112323038,-0.07862802887580615,0.6847714524964141,1.0049882741185818,0.07113091504570711,0.6668495609813817,1.0368299682812043,0.0,0.0,0.0,0.0
0.0073481977902420175,-0.023253526019735092,0.7342814013823199,-0.0012414904221900382,-0.52216516112572,0.0018770492738157992,0.8528414154425817,0.054835521664927854,-0.784718125579839,0.8541398879303677,-0.04300922212138967,-0.8017425275052877,0.8866368488299501,-0.07520141779106301,0.6854587202861391,1.003446630198534,0.0671398323067955,0.6655049054880949,1.0400225588561636,0.0,0.0,0.0,0.0
0.007532815735993641,-0.023535577540837023,0.734360270332683,-0.0013146425176537879,-0.5222345243824346,0.0019957328062294726,0.8527985637351116,0.05528481326021656,-0.7845672144174467,0.8545148966085606,-0.04257150176371721,-0.8024398196969658,0.8888543091037232,-0.07184197512076765,0.6859863500000316,1.0016469773185883,0.06323361877105312,0.6641207036335112,1.0430382079888716,0.0,0.0,0.0,0.0
0.007670546035018897,-0.023806469286426143,0.7344607014613441,-0.0013923864177959888,-0.5222817986125207,0.0021082093058451324,0.8527692182247532,0.05572164868593069,-0.7842620557371396,0.8545597095651705,-0.04213841120833302,-0.8029331466370891,0.8906543062245734,-0.06854528574126297,0.6864182281899508,0.9996934032162724,0.05940792063235568,0.6627051743398299,1.0459246894053003,0.0,0.0,0.0,0.0
0.0077790798972413875,-0.02406977113496066,0.734569605435787,-0.0014717619371020492,-0.5223162021658704,0.0022170040743938017,0.8527477374726691,0.056147892581643176,-0.7838710869792207,0.8544014457293159,-0.041711339128555625,-0.8033099609881431,0.8921956198126186,-0.06530664566507619,0.6867744857483409,0.9976907650773306,0.05565855004345868,0.6612700499753604,1.0486901226705596,0.0,0.0,0.0,0.0
0.00786936630142287,-0.024328357496346303,0.734673825195406,-0.0015501154370750325,-0.5223438317762957,0.0023240476443749953,0.8527303896015055,0.05656502173008441,-0.7834478442416335,0.8541202011446467,-0.041291277194790275,-0.8036405540435018,0.8935852123889493,-0.062121275412584324,0.6870440036861557,0.9957493339127315,0.051981475815064876,0.6598382771377828,1.051299848367677,0.0,0.0,0.0,0.0
0.007946673436361702,-0.024584486671945682,0.7347591714948336,-0.0016252273437459834,-0.5223685531062839,0.0024308122842152786,0.8527148084285667,0.056974093934386225,-0.7830345257989637,0.8537561555192078,-0.04087900018545921,-0.8039812757616275,0.8948854453400683,-0.0589844050505173,0.6871858463280431,0.9939938145965898,0.048372821742725995,0.6584488751896642,1.053650157649285,0.0,0.0,0.0,0.0
0.00801078160073752,-0.024839881334980853,0.7348094505445159,-0.0016953210442351538,-0.5223923882274178,0.002538408362136391,0.8526997567090064,0.05737570010598318,-0.782663682657722,0.8533103884127244,-0.04047518307282686,-0.804376477515572,0.8961155954841403,-0.05589131890396446,0.687126546123813,0.992572360763273,0.04482887111885783,0.6571708323726969,1.0555185865620604,0.0,0.0,0.0,0.0
0.008056475896725814,-0.025095664463114224,0.7348069317500083,-0.0017592361472145359,-0.5224156063686943,0.0026475987320669263,0.8526850705457212,0.05776989568474901,-0.782359159668519,0.8527490747486582,-0.04008051270781479,-0.8048585622390516,0.8972550001960129,-0.05283738889948124,0.6867643024214505,0.9916518051028602,0.04134607410665407,0.6561403931481514,1.0564867919586824,0.0,0.0,0.0,0.0
0.008077434112499513,-0.02535204726473726,0.7347375560571328,-0.0018169976290502796,-0.5224373107000511,0.002758741695815512,0.852671299066862,0.058156145261611183,-0.7821379547473152,0.852033828532034,-0.039695899767704046,-0.8054458893000626,0.8982680450533799,-0.0498181171668133,0.6860076411015036,0.9913669972886381,0.03792105181775226,0.6556308223561784,1.0558717659423502,0.0,0.0,0.0,0.0
0.008074116674086135,-0.025609198079056136,0.734600592102098,-0.001868714438586591,-0.5224578331902708,0.0028722726974397352,0.8526582378034154,0.05853371905516085,-0.7820027903247386,0.8511677360696603,-0.03932217374259874,-0.8061408602610651,0.8991585591598078,-0.04682865179007666,0.684853379946332,0.9917240906296959,0.034549872129303924,0.6556482578332479,1.053679448310073,0.0,0.0,0.0,0.0
0.008054041013686938,-0.025867279957019717,0.7344084274645967,-0.0019144603853443905,-0.5224787956187736,0.0029887268835468795,0.8526448911955107,0.05890173164457995,-0.7819437043560394,0.8501979253750243,-0.03896011176401913,-0.8069316598221119,0.8999725134569629,-0.04386375738096054,0.6833869415115192,0.9926017907074605,0.031228023913531355,0.6559312501081183,1.0506038636906878,0.0,0.0,0.0,0.0
0.008024415060760619,-0.02612570255684467,0.7341764919680266,-0.001955226935544795,-0.5225009991499923,0.00310834446029906,0.8526307648505339,0.05925880066906753,-0.7819475943830959,0.8491733820484669,-0.03861079131554904,-0.8077968525930566,0.9007484039091931,-0.04091828347207998,0.6817050640240592,0.9938514014615981,0.027951123204802503,0.6563542147209327,1.0470750237252504,0.0,0.0,0.0,0.0
0.007988860403757521,-0.02638363334080799,0.7339175187885418,-0.001992230297356333,-0.5225242123296497,0.003231269726221648,0.8526159964741911,0.05960315467398101,-0.7819984303969634,0.8481183920658517,-0.038275438084838416,-0.8087107624882727,0.9014981554807333,-0.03798712023634274,0.6798775869947696,0.9953519831217874,0.02471489783459227,0.656857405275959,1.0433293239809953,0.0,0.0,0.0,0.0
0.007947699791230793,-0.02664030065130288,0.7336404502415781,-0.0020265556898447275,-0.5225475586614811,0.003357701682401472,0.8526011188406768,0.05993275679966921,-0.7820786456223884,0.8470329117478927,-0.037955390787086006,-0.809647342704942,0.9022111863031117,-0.035065168707244646,0.6779441690827761,0.9970200827035499,0.021515165832477097,0.657408705245163,1.0394875196542932,0.0,0.0,0.0,0.0
0.007898790103299582,-0.0268951748148383,0.7333507848325364,-0.002058937435252902,-0.5225697725099596,0.0034879874542862455,0.8525869032415672,0.060245398377737513,-0.7821699985006232,0.8458977136307363,-0.03765208584247064,-0.8105824296797678,0.9028616144074839,-0.03214731263426159,0.6759193227329535,0.9988053755944571,0.01834781547018711,0.6579879828350786,1.0356046290216865,0.0,0.0,0.0,0.0
0.007837987581345603,-0.027148098714451292,0.7330511094016208,-0.0020895796445545467,-0.522589259746766,0.003622687142824144,0.8525743225033824,0.06053874184277292,-0.7822532352632263,0.8446768960492766,-0.03736703536129011,-0.8114945087479548,0.90341237190531,-0.029228383282195194,0.6737967092603457,1.000684671828751,0.01520878949008308,0.6585812769490386,1.0316975415834535,0.0,0.0,0.0,0.0
0.007759153142151588,-0.027399426399493228,0.7327414360517033,-0.0021179487623924852,-0.5226040160647157,0.003762641684260665,0.8525646011966636,0.060810321341167296,-0.7823067202944541,0.8433167078069935,-0.037101798933541714,-0.8123646598003965,0.9038159383590701,-0.02630311937539226,0.6715507237168176,1.0026578820534284,0.012094073536134167,0.6591789779250865,1.0277568876475531,0.0,0.0,0.0,0.0
0.007653919381501216,-0.027650201279963576,0.7324193540472941,-0.002142503100791956,-0.5226114862654521,0.0039090647136552845,0.8525593019356148,0.0610575155860876,-0.7823045221504041,0.8417422128842054,-0.0368579625160481,-0.8131763765008583,0.9040135391070514,-0.023366132412644413,0.6691363355513796,1.0047456668030474,0.008999688451076425,0.6597761849521139,1.0237475950514499,0.0,0.0,0.0,0.0
0.007511824267996994,-0.02790228303419909,0.7320803109620466,-0.0021605062356073713,-0.5226085487696038,0.004063625856236947,0.852560334469435,0.06127750371827506,-0.7822154925678997,0.8398570567741306,-0.03663717489313758,-0.8139157911739113,0.9039366383023353,-0.020411915709359678,0.6664909880002912,1.0069859059383754,0.005921686974656635,0.660376580673843,1.0196017650783988,0.0,0.0,0.0,0.0
0.007322610351381217,-0.028157754038043818,0.7317187255439526,-0.0021689625536427276,-0.5225922303551297,0.00422823453246036,0.8525695152928179,0.06146719961571669,-0.7820103625780658,0.8375650082533762,-0.036441462801799336,-0.8145726540579878,0.9035198001548689,-0.017435050616244837,0.6635486427845584,1.0094242178361432,0.0028561593037195305,0.661006775117132,1.0152115913062385,0.0,0.0,0.0,0.0
0.007086890371513381,-0.02841403738944905,0.731330451563998,-0.0021721585529948105,-0.5225612963772566,0.004402948375970469,0.8525875833609942,0.061623240189422994,-0.7817252933317482,0.8349015755032692,-0.03627521848775407,-0.8151554715766914,0.9027624716921252,-0.01443108201628348,0.6602855746744257,1.0121000714179027,-0.00020077334405644654,0.6617639618759537,1.0104347931214932,0.0,0.0,0.0,0.0
0.0068326663088655,-0.028655418055683175,0.7309148168507995,-0.002194601215350131,-0.5225150803137452,0.004582129763949137,0.8526149064243789,0.061742829222622704,-0.781593897244397,0.8322717178365531,-0.03614851475205008,-0.8157393616830396,0.9018437903547568,-0.011397680365867698,0.6567721056060477,1.0150385780986513,-0.003253190047292766,0.6628989708109383,1.0050602500830355,0.0,0.0,0.0,0.0
0.006577228428815564,-0.028870110419068132,0.7304758550024548,-0.0022544164250724646,-0.5224560182118251,0.004761580191118886,0.8526499598281295,0.06182246329461511,-0.7817414512080579,0.829919866591207,-0.03606838554277592,-0.8163311144256331,0.9008398260111451,-0.008331946477686671,0.653078700031907,1.0182271507749527,-0.0063049683635731215,0.6646999176430994,0.9986617352982055,0.0,0.0,0.0,0.0
0.006357704855484391,-0.029035811742177432,0.730039448355675,-0.0023857886354542216,-0.5223899266461128,0.004932027089138174,0.8526891272087663,0.06185878310495441,-0.7823641610678074,0.8283228009252785,-0.03604343241265309,-0.8169053360170052,0.8999098041912924,-0.00523209438849698,0.6494421380191452,1.0214807499823786,-0.00936010488645204,0.6676189564237247,0.9905199524283496,0.0,0.0,0.0,0.0
0.00624033356460278,-0.02912251472217792,0.7296950330652703,-0.0026330762154944563,-0.5223346212148388,0.005080818950161057,0.8527214056588411,0.061845245145065,-0.7835823974458673,0.8281549510568678,-0.03608225935680183,-0.817285627262714,0.8993033952465119,-0.0020981604933716183,0.6465128676577747,1.0240708633330842,-0.012418142762309724,0.6720704298948015,0.9799383721828069,0.0,0.0,0.0,0.0
0.006243835724540162,-0.029132634487625892,0.7296904210351192,-0.0026419745399693696,-0.5223404475970725,0.005090281738304511,0.8527177527215232,0.061850151655518416,-0.7835781146928893,0.8281355108234062,-0.03607677758765545,-0.8172769142945876,0.8993224959039443,-0.001921918863294784,0.6464789940953792,1.0240625720036745,-0.012605740750306682,0.6720742580378469,0.9799383286772768,0.0,0.0,0.0,0.0
0.006243835724540162,-0.029132634487625892,0.7296904210351192,-0.0026419745399693696,-0.5223404475970725,0.005090281738304511,0.8527177527215232,0.061850151655518416,-0.7835781146928893,0.8281355108234062,-0.03607677758765545,-0.8172769142945876,0.8993224959039443,-0.001921918863294784,0.6464789940953792,1.0240625720036745,-0.012605740750306682,0.6720742580378469,0.9799383286772768,0.0,0.0,0.0,0.0
0.0062182504290754425,-0.02950793217687646,0.7297824883940971,-0.002686290677319655,-0.52260640850365,0.004660867421988876,0.8525570960048292,0.05936853145532513,-0.7912936665785225,0.8424005398742348,-0.03388275631855415,-0.8168651172513381,0.8993061279510308,-0.0018191772364686597,0.6483401182936359,1.0229378703373717,-0.01255941095968171,0.6722632203247026,0.9805847838907668,0.0,0.0,0.0,0.0
0.005966448564837674,-0.030072244701017114,0.7297972628407171,-0.002424098075421895,-0.5228000804387694,0.00433426380264797,0.8524408564815661,0.05692604349129161,-0.7970956081315977,0.8506865358425318,-0.03169785367257013,-0.8167749318471137,0.8987219815700178,-0.0016921367661072789,0.6490479739843577,1.0219336631023734,-0.012472376837476025,0.6710946803595962,0.982745854534656,0.0,0.0,0.0,0.0
0.0055562440768907075,-0.030663111015080353,0.7297850683561142,-0.0020900454063435426,-0.522925579082652,0.004052433586891551,0.8523661468132672,0.054555010052099055,-0.8016711437054984,0.855342137771221,-0.02961688344292407,-0.8164556169756689,0.8971509333350075,-0.001551551848432849,0.6489494657336664,1.0210765247743423,-0.012350382050355624,0.6691665579997363,0.9852952493935999,0.0,0.0,0.0,0.0
0.0050866790934365,-0.03120686806969218,0.7298139242308058,-0.0017944365892263825,-0.5230036748545026,0.0037849565315885604,0.8523201336294168,0.05225410791875707,-0.8052992189113797,0.8579101076396116,-0.027669669744073776,-0.8157568024928246,0.8949099653848454,-0.0014021748315552979,0.6486777206871559,1.0199444590924294,-0.01220158568814994,0.6672176374821186,0.9872734073911809,0.0,0.0,0.0,0.0
0.004612451546082011,-0.031693609484356795,0.7298746199947765,-0.0015538233903835857,-0.5230503793505783,0.0035261977203870257,0.8522930553651862,0.05001823968787273,-0.808231396638575,0.8592733190947136,-0.025857419248682068,-0.8148531508356329,0.8924041460870246,-0.001243710973170975,0.6483940695945944,1.0186299733225896,-0.0120329621096036,0.6654126387033131,0.9887073503951305,0.0,0.0,0.0,0.0
0.0041637207175069055,-0.032129532317911026,0.7299508997816351,-0.0013606257189060752,-0.5230783095873245,0.003276966663282127,0.852277239063914,0.04784179420666249,-0.8106816331846343,0.8599553148733706,-0.02417279376009221,-0.8139075236638337,0.8899257268082246,-0.0010753640388596584,0.6481517287450911,1.0172548322251904,-0.01184951080232703,0.6637878557252821,0.9897653716718788,0.0,0.0,0.0,0.0
0.0037548368066558304,-0.03252324637122436,0.7300314213229553,-0.0012036552201124269,-0.5230960579203984,0.0030389514989581576,0.8522674639900536,0.045719356937702314,-0.8128218198799383,0.8602595168766842,-0.02260604245669504,-0.813020692857256,0.8876419650093018,-0.0008969262118683982,0.6479693196014487,1.015897836233542,-0.01165459285254994,0.6623438306184319,0.9905867729893522,0.0,0.0,0.0,0.0
0.003390195404478321,-0.03288233025788578,0.7301099111007786,-0.001073330122031953,-0.5231090059675281,0.0028133247725265513,0.8522604654927025,0.04364585901193654,-0.81478062032781,0.8603579668894119,-0.021147036672585377,-0.8122401262326363,0.8856255478671967,-0.0007087531353595486,0.647850130904554,1.0145996148655019,-0.011450459476542352,0.6610682600083925,0.9912637060716155,0.0,0.0,0.0,0.0
0.0030684430970427255,-0.033212814019892116,0.7301834988213756,-0.0009624378174069948,-0.5231203035504471,0.002600575262633661,0.8522543392292227,0.04161659422715951,-0.8166480642376898,0.8603465081965481,-0.01978597900930433,-0.8115784174865532,0.8838890771447597,-0.0005115475581578069,0.6477896154078415,1.0133763957141824,-0.011238663444474654,0.6599436062811989,0.9918522422046894,0.0,0.0,0.0,0.0
0.002785397137587452,-0.03351937083214532,0.7302512634726713,-0.0008658092398427636,-0.5231316501362065,0.002400635732527977,0.8522480647958136,0.03962720027996258,-0.8184833280718044,0.8602768783087309,-0.01851366143896399,-0.8110291296822176,0.8824127574505174,-0.00030617624053310913,0.6477795842086814,1.0122308493014598,-0.01102033279320741,0.6589508064845984,0.9923850555938999,0.0,0.0,0.0,0.0
0.0025359444596589208,-0.033805595894236234,0.7303132491068061,-0.0007798628784566478,-0.5231438355970253,0.0022130386829190816,0.8522411756953023,0.037673631109399426,-0.8203220158249642,0.8601749220058862,-0.017321557658426856,-0.8105779179865119,0.881163610206581,-9.355083868911642e-05,0.6478107946231637,1.011159220514024,-0.01079634240376066,0.6580714210036276,0.9928807562579846,0.0,0.0,0.0,0.0
0.002315146020009667,-0.03407423256072461,0.7303698541426722,-0.0007022373388608992,-0.5231570675738246,0.0020370382001175134,0.8522335595279312,0.03575212790972279,-0.8221795443911719,0.8600517204824647,-0.016201842547067934,-0.8102094583502153,0.8801072623524651,0.00012543885906939227,0.647874266445951,1.010155739721679,-0.010567415582476057,0.6572886405802456,0.9933500086772096,0.0,0.0,0.0,0.0
0.0021187244394736964,-0.03432734588222713,0.7304214704849862,-0.0006315136879737636,-0.5231711252527024,0.001871697857678081,0.852225364348781,0.03385919107893069,-0.824048044743181,0.85991236826808,-0.015147366554857686,-0.8099111640823522,0.8792138506957811,0.00034995540875648915,0.6479614473874686,1.009215229993883,-0.010334176836495224,0.6565872266904819,0.9937994157801391,0.0,0.0,0.0,0.0
0.0019430735737091377,-0.03456648842936059,0.7304682922552379,-0.0005669582787300588,-0.5231853940413692,0.0017159657315199337,0.8522169779356051,0.03199155558869523,-0.8258856109248369,0.859765708950928,-0.014151589311548949,-0.8096744933703258,0.8784594260737258,0.0005792219958507946,0.6480634640801838,1.008334405870546,-0.010097169514673215,0.6559525440153156,0.9942340094572685,0.0,0.0,0.0,0.0
0.0017849307193756364,-0.034792921204394596,0.7305102705702275,-0.0005081872807209644,-0.5231988739838642,0.001568767647020194,0.8522090230546576,0.03014617536781814,-0.8275998230398429,0.8596368563694272,-0.01320847036501247,-0.8094943603208276,0.8778241314496059,0.0008125221054760172,0.6481700609728379,1.0075118922986954,-0.009856850149709273,0.6553691991646019,0.9946588358575443,0.0,0.0,0.0,0.0
0.0016409338062902262,-0.035007939523246455,0.7305472450807973,-0.00045467092117815926,-0.5232103239989541,0.0014291473671094142,0.852202269225485,0.028320226820721,-0.8290339574422387,0.8595813208405232,-0.012312326624968605,-0.8093669625817793,0.8772887288304023,0.0010492058913611386,0.6482694919782024,1.00674662622745,-0.009613576963748897,0.6548204889398861,0.9950796625994252,0.0,0.0,0.0,0.0
0.0015074649823406758,-0.035213246642139,0.7305793029513814,-0.0004051556976921287,-0.5232187813683788,0.001296438775293542,0.8521973139588924,0.026511142665347393,-0.8299757886257482,0.8596924995596362,-0.01145771207420556,-0.8092863052100643,0.8768317607635251,0.0012887183744276927,0.6483513792535133,1.0060344999616693,-0.009367624956145964,0.6542907633651543,0.9955022719208834,0.0,0.0,0.0,0.0
0.0013813408429570553,-0.03541096136561124,0.7306072369272675,-0.00035763171105099046,-0.5232245870322415,0.0011702929988873336,0.8521939532986585,0.024716660731518122,-0.8302248550353266,0.8600772298338965,-0.01063947790366011,-0.8092402501305214,0.8764299966695058,0.001530643810155618,0.6484136383398644,1.0053656314252486,-0.009119277356127033,0.6537723680697286,0.9959297943612929,0.0,0.0,0.0,0.0
0.0012611931715022701,-0.03560199581493607,0.7306313559544505,-0.0003117876643162223,-0.5232276588062398,0.0010499748183532616,0.8521922420448771,0.022934904294243295,-0.8297790048357199,0.8607338133660122,-0.009853427212866098,-0.809225112721848,0.8760745273876439,0.0017745228676903236,0.6484552338659061,1.0047360841072748,-0.00886890799735284,0.653260594781983,0.9963629562375131,0.0,0.0,0.0,0.0
0.0011473639428497457,-0.035786096494088517,0.7306515131983593,-0.0002689541350946008,-0.5232274780969748,0.000934370635145897,0.8521925021844942,0.02116434772575976,-0.8288347459191445,0.8615525098639508,-0.009096242940917166,-0.8092453724603583,0.875770115449746,0.0020198528518805443,0.6484759602368332,1.004147610094054,-0.008616989303303397,0.6527534096643663,0.9968000776332315,0.0,0.0,0.0,0.0
0.0010402669180657699,-0.03596352295832891,0.7306683395837024,-0.00022958092565261652,-0.5232248055773835,0.000822695011788019,0.8521942696909112,0.019403704819079486,-0.8276008598552113,0.8624372027418349,-0.008364747424627117,-0.8092979087231396,0.8755168528521357,0.002266252964097849,0.6484831428086196,1.003595587637601,-0.008364008870754844,0.6522558376235182,0.9972368778903229,0.0,0.0,0.0,0.0
0.0009394389763597573,-0.03613508816613095,0.7306828160778212,-0.0001932173515683343,-0.5232206499894664,0.0007144648640922108,0.8521969277295086,0.01765185680459227,-0.8262314204352921,0.863329912174892,-0.007655775326185003,-0.8093746725510256,0.8753072775392118,0.0025133940808726852,0.6484841588577135,1.0030715051387609,-0.008110370632492247,0.6517723320947025,0.9976692420844891,0.0,0.0,0.0,0.0
0.0008434904015928617,-0.03630184923109417,0.7306959339501843,-0.00015900580792862929,-0.5232157531375509,0.0006093421075521105,0.8522000229336153,0.01590778935815972,-0.8248175598475965,0.8642041702437946,-0.006966219144114693,-0.8094652599000622,0.8751274413423766,0.0027609528480154154,0.6484831408826266,1.0025661138244144,-0.007856381559630672,0.6513038461967733,0.9980941576890833,0.0,0.0,0.0,0.0
0.0007504258993819704,-0.03646486919502154,0.7307085583638501,-0.00012605029133920778,-0.5232104776093973,0.0005070241990287455,0.852203334397098,0.014170557970648713,-0.8234022849320238,0.8650524950279612,-0.0062930960979883654,-0.8095587060005329,0.8749595900315877,0.0030085966919193145,0.6484808292871063,1.0020709823957892,-0.007602275347272423,0.6508479953719885,0.9985095579611046,0.0,0.0,0.0,0.0
0.0006579940181163008,-0.0366251126555202,0.7307214179941196,-9.357364747735758e-05,-0.523204876363562,0.00040720011719000643,0.852206830987306,0.012439272151272298,-0.8219987822912675,0.8658764784199058,-0.005633588232878693,-0.8096445172071332,0.8747847200665505,0.003255984815753582,0.6484756666872843,1.0015787897666084,-0.007348242022301513,0.6504002953440736,0.9989138608968926,0.0,0.0,0.0,0.0
0.0005639478886093578,-0.036783435627932265,0.7307351474086916,-6.092982868012033e-05,-0.5231988080186792,0.0003095486637528895,0.8522106005882665,0.01071308866537783,-0.8206042225182254,0.8666813286724208,-0.00498505325455491,-0.8097131926223803,0.8745844593374772,0.0035027740588583784,0.6484650630518084,1.0010829824184326,-0.0070944516587465156,0.6499554447822038,0.9993055484502208,0.0,0.0,0.0,0.0
0.0004662375721156775,-0.036940621454166496,0.7307503405620607,-2.7546743205960855e-05,-0.5231920423633513,0.0002137560439274693,0.8522147853429884,0.008991208161835544,-0.8192076187510823,0.8674741695362007,-0.004345017407219528,-0.8097566000571663,0.8743425645069963,0.0037486252127579217,0.6484465185130415,1.000577209387124,-0.006841071601630609,0.6495084005276618,0.9996828544103036,0.0,0.0,0.0,0.0
0.000363221214647357,-0.03709742662022681,0.7307676009846421,7.145426618761703e-06,-0.5231843528646641,0.00011953719730864828,0.8522195248745383,0.007272873111993194,-0.8177934485721093,0.8682646289304885,-0.0037111640284538177,-0.8097685817458521,0.8740467489028636,0.003993210027199076,0.6484187591953371,1.000054708310035,-0.006588282050990661,0.6490554507506745,1.0000434759584635,0.0,0.0,0.0,0.0
0.0002540130735323358,-0.03725459745814384,0.7307875929929659,4.37425242765966e-05,-0.5231756185267458,2.6645234426188405e-05,0.8522248937667686,0.005557367525993037,-0.8163442619698165,0.8690659064590079,-0.003081335495047389,-0.8097461085292051,0.8736916851745593,0.004236220914026068,0.6483832837460439,0.9995076842703597,-0.006336297759726668,0.6485957408670239,1.00038407299892,0.0,0.0,0.0,0.0
0.0001390975987588188,-0.03741276607662623,0.7308111072545687,8.271441821700666e-05,-0.5231659585963533,-6.516894052999323e-05,0.8522308188966725,0.003844021677098186,-0.8148465705921275,0.8698937677187482,-0.002453585618811635,-0.8096911084988369,0.8732838154674011,0.004477383565579599,0.6483467569458526,0.9989268251251565,-0.006085406664863224,0.6481338212187442,1.0006990481997806,0.0,0.0,0.0,0.0
2.1310307702779053e-05,-0.03757195311935534,0.7308391360581666,0.00012366347806576497,-0.5231558961833699,-0.00015636173287663047,0.8522369791008413,0.0021322346566807512,-0.8133054733979391,0.8707594459349844,-0.0018263853282451262,-0.809612412447669,0.8728474285367952,0.004716464837192955,0.6483243110644676,0.9983018787936472,-0.005836042701281646,0.6476836677299481,1.0009775980871183,0.0,0.0,0.0,0.0
-9.284965423127249e-05,-0.03772986739099624,0.730872817428158,0.00016278641343973015,-0.5231465474122987,-0.00024829809928062326,0.8522426894841804,0.00042159698689400553,-0.8117756778775564,0.8716528466896976,-0.0011993230008050782,-0.8095247039819398,0.8724270697144018,0.004953252850245745,0.6483423510247313,0.9976274967342441,-0.005588931254005787,0.6472739582250797,1.0011974954436855,0.0,0.0,0.0,0.0
-0.0001917605506615871,-0.03787653442585234,0.7309124481019588,0.00018504687237221997,-0.5231405903896399,-0.0003452702641521344,0.8522463078435006,-0.0012870435383083763,-0.810434440243934,0.8725488085100764,-0.000575983589207219,-0.8094310940941171,0.8720665527775774,0.005187517880168764,0.6484363547156771,0.996932035306203,-0.005345438302551137,0.646954119258527,1.0013160460352686,0.0,0.0,0.0,0.0
-0.0002546106966638592,-0.037977404944356315,0.7309509377787756,0.0001445078054114635,-0.5231471928907969,-0.0004558211616328406,0.852242210826853,-0.002972625102969321,-0.809932446835028,0.8738869096607883,9.901186035765662e-06,-0.8092656249687004,0.8717351380852959,0.0054199148566771525,0.6486254594905851,0.99639995035665,-0.005107897820444527,0.6468052896691282,1.0012810886035997,0.0,0.0,0.0,0.0
-0.0002537326597030587,-0.03797616380990319,0.7309505934632158,0.0001429535745057545,-0.5231466658189043,-0.00045565663201334246,0.8522425347187694,-0.0030788614415758913,-0.8099260249218618,0.8738859899867653,7.175348311985155e-06,-0.809267923635942,0.871738878652199,0.005421986676476141,0.6486232744570251,0.9964045734725976,-0.0051057545971440275,0.6468070691664779,1.0012782272287581,0.0,0.0,0.0,0.0
-0.0002537326597030587,-0.03797616380990319,0.7309505934632158,0.0001429535745057545,-0.5231466658189043,-0.00045565663201334246,0.8522425347187694,-0.0030788614415758913,-0.8099260249218618,0.8738859899867653,7.175348311985155e-06,-0.809267923635942,0.871738878652199,0.005421986676476141,0.6486232744570251,0.9964045734725976,-0.0051057545971440275,0.6468070691664779,1.0012782272287581,0.0,0.0,0.0,0.0
-0.0002537326597030587,-0.03797616380990319,0.7309505934632158,0.0001429535745057545,-0.5231466658189043,-0.00045565663201334246,0.8522425347187694,-0.0030788614415758913,-0.8099260249218618,0.8738859899867653,7.175348311985155e-06,-0.809267923635942,0.871738878652199,0.005421986676476141,0.6486232744570251,0.9964045734725976,-0.0051057545971440275,0.6468070691664779,1.0012782272287581,0.0,0.0,0.0,0.0
-0.0002491714448317392,-0.03790246956892107,0.730954251682087,0.0001446542222141729,-0.5231422747544112,-0.0003140385269913554,0.8522452938090885,-0.0036552951123285066,-0.8103366940137997,0.8743464072133811,-0.0005693491922819647,-0.8089322821377196,0.8714074920470813,0.005806907116859049,0.6483295490347467,0.9964706856390633,-0.004719003261081213,0.6471400104549072,1.0011201873486126,0.0,0.0,0.0,0.0
-0.00024070821385344408,-0.03781061900081907,0.730953919593453,0.00011788927510393727,-0.523143398664699,-0.00018145884849312617,0.8522446465706621,-0.004234288062545079,-0.810821839398982,0.8749264960788428,-0.0011481089030984117,-0.8085197115044487,0.8709796897728033,0.006189068448278672,0.6480308677059671,0.9966476576122116,-0.004335127279496855,0.6474907748988227,1.0009404217323095,0.0,0.0,0.0,0.0
-0.0002282160504307534,-0.037715394169157215,0.7309497419008294,8.64221386994915e-05,-0.5231463634877953,-5.001413996614331e-05,0.8522428482535335,-0.004815814574580512,-0.8113422996911994,0.8755606104232271,-0.0017290525360497393,-0.8081148955346685,0.8705672171895875,0.006570363520991622,0.6477276023737779,0.996872007009744,-0.0039519652286618325,0.6478423597203687,1.0007837780961144,0.0,0.0,0.0,0.0
-0.00021153370441653473,-0.03761993378772606,0.730942021079987,5.585436731271551e-05,-0.5231498416452633,8.267882948115997e-05,0.8522407131972966,-0.005402179640286702,-0.8118931167571333,0.8762387701094159,-0.002314514680570235,-0.8077389251315967,0.8701984389983625,0.0069522451534446816,0.6474192213325803,0.9971258354609405,-0.0035679084563779847,0.6481923921154753,1.000656713364882,0.0,0.0,0.0,0.0
-0.00019060039441517202,-0.03752443301387183,0.7309302642271017,2.7206011083845457e-05,-0.5231530915519463,0.00021761180456658142,0.8522386958502743,-0.005996310724697921,-0.8124800005762132,0.8769650553377317,-0.002907439069547635,-0.8073988834053539,0.8698806998316739,0.007336000748751749,0.6471005670090307,0.9974105013708287,-0.0031815715385222474,0.6485378187131864,1.0005636192999052,0.0,0.0,0.0,0.0
-0.00016590772605263012,-0.03742884774304991,0.730913521495955,1.1446629580498334e-06,-0.523154914820659,0.00035570392739099746,0.8522375306054027,-0.006601325824412864,-0.8131109077735253,0.8777425625142268,-0.0035109455397541373,-0.8071020579668691,0.8696175459932687,0.007722925726837915,0.6467612401006875,0.9977319151913872,-0.0027914642368193944,0.6488707861099349,1.000511735932342,0.0,0.0,0.0,0.0
-0.00013934235716771823,-0.037334448664184006,0.7308909262354882,-1.9592071594955203e-05,-0.5231526293851624,0.0004985764925849834,0.8522388617078094,-0.007220316367761181,-0.8137896812362866,0.8785609188297632,-0.004128135888188672,-0.8068624926644495,0.8694146946534665,0.008114446179750243,0.6463840684341254,0.9980885565289637,-0.0023956399981539733,0.6491751467589569,1.0005104927008333,0.0,0.0,0.0,0.0
-0.00011542019825300761,-0.037246758293920455,0.7308628837290256,-2.5612964195346338e-05,-0.523140223379508,0.0006500233553374933,0.8522463748799709,-0.007855944157242736,-0.8145048850729918,0.8793756495816052,-0.004761751051685554,-0.8067142311252088,0.8692942797259307,0.00851228875808679,0.6459443079898632,0.9984472484591681,-0.0019910608101403222,0.6494219573570436,1.0005686220734595,0.0,0.0,0.0,0.0
-0.000102627795224597,-0.03718426859336067,0.7308341593926981,1.2755183097628207e-05,-0.5231049503578924,0.0008203129072100309,0.8522678791525036,-0.008509070539099182,-0.8151977145906526,0.8800590619070876,-0.005412986889994078,-0.8067519992863272,0.869349522374961,0.008918737175764496,0.645417466076744,0.9986776786053483,-0.001572290114997359,0.6495660932225016,1.0006917471945105,0.0,0.0,0.0,0.0
-0.00011253162835493831,-0.037206237449096506,0.7308270454436515,0.00018688791174685654,-0.5230534082892585,0.0010361585875353755,0.852299257024949,-0.009162015526378473,-0.8154503154758446,0.8800752198032566,-0.006065609159082684,-0.8070556592897822,0.8697488607664242,0.009330296968695594,0.6449370853504731,0.9983887496848148,-0.00113867099770481,0.6496573455816007,1.0009126567588438,0.0,0.0,0.0,0.0
-3.353816447621381e-05,-0.037425211541704854,0.7308432183173815,2.3932792138177837e-05,-0.5231148443688741,0.0007073156590008377,0.8522619073575379,-0.00759470598421293,-0.8147401512800458,0.8796932658786079,-0.009221913249213206,-0.8072778203685744,0.8684622518783401,0.009760449362219032,0.645877102219243,0.9978358872820285,-0.0007243779666580234,0.6496537734515732,1.00128701664328,0.0,0.0,0.0,0.0
9.119717657893503e-05,-0.03775842268782642,0.7308535943948519,2.6867656166719862e-05,-0.5231512470436601,0.000421226161924064,0.8522397518089102,-0.0059654379004802065,-0.8139684547442615,0.8792655277029058,-0.012437735736910097,-0.8087906726317143,0.8680726367908155,0.010196087457241565,0.6469475398375524,0.9968393638567938,-0.0002994994287562623,0.649608310525723,1.0020219960179422,0.0,0.0,0.0,0.0
0.0002405865773079612,-0.03812289173848403,0.7308557101986298,8.720206776375007e-05,-0.5231673172056487,0.0001598200385303023,0.8522299719331625,-0.004363458443531965,-0.8133404444994614,0.8790206636580453,-0.015655718970070582,-0.8103429273455638,0.8672757952177769,0.010639675711991751,0.6480093596441365,0.9957302452422829,0.00013642318263413193,0.6495363041340626,1.0028856842277762,0.0,0.0,0.0,0.0
0.00040752027412216087,-0.03849271158493199,0.7308474229378619,0.00016471083214893346,-0.5231735149492266,-8.931332852565487e-05,0.8522261660786663,-0.002793319450816842,-0.8128688620084504,0.8789804790805711,-0.018874149297744787,-0.8117706828669181,0.8662508486636318,0.0110898670581597,0.6490412955827514,0.9946493720110952,0.0005802353056498541,0.6494504638562105,1.00383191359383,0.0,0.0,0.0,0.0
0.0005866792341662002,-0.03886045490365156,0.7308298024646632,0.00024641118875594147,-0.523175157662581,-0.000331277005293099,0.8522250782169023,-0.001250856818108532,-0.8125211118047677,0.8791035217097138,-0.022094488728555055,-0.8130729751610614,0.8651315249197981,0.01154566945319444,0.6500433241435227,0.9936309448115432,0.0010303145301391971,0.6493572750757289,1.0048385730969607,0.0,0.0,0.0,0.0
0.0007742470827825818,-0.039224800664297975,0.7308049627014088,0.0003285766857428687,-0.5231744272247486,-0.0005684753232150868,0.8522253736959635,0.0002698849204580589,-0.8122629650279382,0.8793445850559916,-0.025318479495010142,-0.814284133366683,0.8639705421124084,0.01200629439260443,0.651021075572692,0.9926699198538453,0.0014857597562216202,0.6492603385786858,1.0058881000085433,0.0,0.0,0.0,0.0
0.0009677892730789327,-0.039586343566229754,0.7307748988502731,0.0004104233530817188,-0.5231722897437698,-0.0008024309639128837,0.8522264622161648,0.0017752396008709384,-0.8120671973791208,0.87966835627392,-0.02854787683656658,-0.8154403898509068,0.8627851653197762,0.012471007260482102,0.6519818799072424,0.9917516137687608,0.0019458657619211303,0.6491623015864018,1.0069671632067705,0.0,0.0,0.0,0.0
0.001165973963675164,-0.03994620776763715,0.7307411075852135,0.0004920042943983734,-0.5231692585840518,-0.0010344052167925782,0.8522280298196224,0.003271548904378198,-0.8119144294950355,0.8800508202663909,-0.03178442675140386,-0.816569716687867,0.8615804132493883,0.012939076402470719,0.6529331104658943,0.9908619843323504,0.0024099370331429094,0.649065140077433,1.008066962373292,0.0,0.0,0.0,0.0
0.001368335738442602,-0.04030563840332916,0.7307045585283639,0.0005735820386172806,-0.5231656576886702,-0.0012655882912272081,0.8522298773835046,0.004765098396935165,-0.811792071186364,0.8804777813199749,-0.03502987780693546,-0.8176911845013811,0.8603573926630741,0.013409759076381119,0.6538817478464506,0.9899901339191214,0.002877235763796191,0.6489702970253984,1.0091827500790103,0.0,0.0,0.0,0.0
0.0015751219370098496,-0.040665918596229804,0.7306657751746636,0.0006554912571454776,-0.523161712604414,-0.0014971484343278539,0.8522318647777692,0.006262155045037099,-0.8116930415772232,0.8809431451057049,-0.03828600035228542,-0.8188174449525215,0.8591153484473562,0.013882296379809719,0.6548345092640635,0.9891282071097941,0.003346971664694361,0.6488789187574849,1.0103130897045212,0.0,0.0,0.0,0.0
0.0017871919394543514,-0.04102838886548589,0.7306249199159907,0.0007381555085684705,-0.5231575712076506,-0.0017302368764720137,0.8522338981141905,0.007769034315755333,-0.8116147469676638,0.881447525984346,-0.0415546071073091,-0.819956390142383,0.8578517831686532,0.014355909214706015,0.6557980498107941,0.9882706817244614,0.0038183048905513018,0.6487920123141273,1.0114592492655756,0.0,0.0,0.0,0.0
0.002005920199928456,-0.04139449774621109,0.7305818453162453,0.0008221523410182779,-0.5231532700610511,-0.001965977068722222,0.8522359503236896,0.009292168491354875,-0.8115583765634523,0.881997061637372,-0.04483757306359369,-0.82110929277642,0.8565628869319282,0.014829794605517057,0.6567788925222453,0.9874137332494931,0.0042903583672534535,0.6487102898089466,1.012624899787593,0.0,0.0,0.0,0.0
0.002233048201005204,-0.041765853108622526,0.7305361060661896,0.0009082819765561703,-0.5231486461989602,-0.0022054490912742286,0.8522381151992394,0.010838160924656408,-0.8115283748940133,0.8826020699658643,-0.04813685480425653,-0.8222633529140069,0.8552459464716858,0.015303123427966277,0.6577828709206526,0.9865548856607248,0.004762241957626323,0.6486335333556221,1.0138161120915365,0.0,0.0,0.0,0.0
0.0024704384613657617,-0.042144236300615506,0.730486947971902,0.000997581849582595,-0.5231432148241303,-0.002449685347144513,0.8522406823518971,0.012413813006909734,-0.8115318323694087,0.8832751619134969,-0.05145451200523516,-0.8233775118072183,0.8539054793868779,0.015775040169784257,0.6588140470479492,0.9856930280656938,0.005233086494442142,0.6485594965762329,1.0150414593840515,0.0,0.0,0.0,0.0
0.0027197304558756953,-0.04253151582305105,0.7304333186067127,0.0010911873215563841,-0.5231360936260003,-0.0026997096810647088,0.8522441835668905,0.014026114144897527,-0.811577442202114,0.8840286693472947,-0.05479273765870132,-0.8243631367199994,0.8525645639306714,0.016244663705790117,0.6598734855512233,0.9848287983658229,0.005702070877459022,0.6484827976200224,1.0163117705648808,0.0,0.0,0.0,0.0
0.0029820235851500195,-0.042929391705574214,0.7303739872486105,0.0011899246103980448,-0.5231261508960603,-0.0029566641839397674,0.8522493018272279,0.01568220789953302,-0.8116736433014233,0.8848719407366734,-0.05815390807047048,-0.8250677680184446,0.8512806022000965,0.016711083236005633,0.66095910276358,0.9839650501903379,0.006168399215778521,0.6483950792594905,1.0176387492163321,0.0,0.0,0.0,0.0
0.0032579394292574495,-0.04333901184827649,0.7303078983166575,0.0012936837188698984,-0.5231126367832939,-0.0032220315520121155,0.8522564837727802,0.017389414093293327,-0.8118256803019838,0.8858101660714035,-0.06154066268721974,-0.8252824891775623,0.8501573838930331,0.01717333561994134,0.6620689777939777,0.9831063302295588,0.006631163006448025,0.6482887000786818,1.0190316655978122,0.0,0.0,0.0,0.0
0.0035486086231337616,-0.043760950690166514,0.7302347196759543,0.0014013195774409566,-0.5230963227240648,-0.0034977502169345745,0.852265239933803,0.019155496321475354,-0.8120322971450032,0.8868471706017732,-0.06495597672736611,-0.8248112137778005,0.8493242457471184,0.017630344485450408,0.6632100264375838,0.9822554182705481,0.007089082166443675,0.6481651679547789,1.0204936641857845,0.0,0.0,0.0,0.0
0.0038571965228299306,-0.04419713962391735,0.730153724473869,0.0015135842878505955,-0.5230774323432718,-0.0037853638677228883,0.8522754131477468,0.02098942486878965,-0.8123013921985719,0.8880026730901255,-0.06840334510131102,-0.8236591070603462,0.8487838886974655,0.018080945073264056,0.6643931910065365,0.9814106944957393,0.007540850521643638,0.648027804664086,1.0220327899967119,0.0,0.0,0.0,0.0
0.0041891050137655775,-0.04465096270107329,0.7300638013044092,0.0016332718508147613,-0.5230556683689356,-0.004085992479170163,0.8522871610411877,0.02290150909630949,-0.8126501965630193,0.8893131966443213,-0.07188682988286127,-0.8220317457263178,0.8484124791344027,0.018523842711693734,0.6656343192799699,0.9805654283938953,0.007985130974582302,0.6478825089175033,1.0236619150985882,0.0,0.0,0.0,0.0
0.004550760844962741,-0.045125442541299306,0.7299645938476168,0.0017624297859567964,-0.5230323394263332,-0.004401175900309212,0.8522996511827052,0.02490281426809674,-0.8130901729426954,0.8908166609933975,-0.0754109409135835,-0.8201448964967551,0.8481103892856691,0.018957552244990974,0.6669603956159013,0.9797094405568306,0.008420163776974115,0.6477462638252922,1.025387573128076,0.0,0.0,0.0,0.0
0.004948870362447471,-0.045623370435174594,0.7298560352493414,0.0019025828588357806,-0.5230092810174827,-0.004732753516105593,0.8523117230169939,0.027005041377763033,-0.8136304985992329,0.8925509105147853,-0.07898061611992453,-0.8181533255175937,0.8478211116403795,0.01938043807691912,0.6684023195244054,0.9788312551379953,0.008843967586399451,0.6476398691278872,1.0272131352070475,0.0,0.0,0.0,0.0
0.00539052796137262,-0.046147876290109496,0.7297381710991988,0.002055619998831709,-0.5229882603086206,-0.0050825860631546526,0.8523222520412649,0.02922066762598868,-0.814280199479213,0.894554861041009,-0.08260119613513194,-0.816140293152411,0.8475164928990151,0.01979069579998486,0.669993278456082,0.9779161719224911,0.009254454070988348,0.6475855890477713,1.029140993988042,0.0,0.0,0.0,0.0
0.0058835502581407245,-0.0467029883777625,0.7296113561271095,0.002224652105523677,-0.522970811960632,-0.005452308904466949,0.8523302488401177,0.03156315187188602,-0.8150476273101795,0.8968688246874377,-0.08627843126790916,-0.8141283623905973,0.8471764307521227,0.02018630106833891,0.6717707912969174,0.9769415562343262,0.009649477950915628,0.6476083997384965,1.0311719289709964,0.0,0.0,0.0,0.0
0.006436545695604238,-0.04729419104799706,0.7294767940336958,0.0024148630096419584,-0.5229582076910386,-0.005843087430026723,0.852334875371474,0.03404710973738705,-0.815936604953165,0.8995308375464018,-0.0900185110749844,-0.8120903400426167,0.8467698395260272,0.020564945551384696,0.673780016086377,0.9758694174498254,0.010026908556500215,0.6477384453542402,1.033301869702586,0.0,0.0,0.0,0.0
0.007058391651744588,-0.04792911775445313,0.7293374719688163,0.0026345697873126836,-0.5229513263192614,-0.006255296792068209,0.8523355211446981,0.03668842137411257,-0.8169382390654408,0.9025662480474735,-0.093828106046365,-0.8099521789119716,0.8462352703774791,0.02092396370579822,0.6760770563912968,0.9746351243633224,0.010384802872928272,0.648013242033061,1.0355159789176795,0.0,0.0,0.0,0.0
0.007756822789002706,-0.048618498122283596,0.7291995998077807,0.002896677357228114,-0.5229502690384266,-0.006688062919089199,0.8523320334161538,0.03950422887250783,-0.8180170375215159,0.9059678275947426,-0.09771441543153406,-0.8075874082878507,0.8454554920348832,0.021260242056145167,0.6787315571201601,0.9731307935499125,0.010721749346992422,0.6484787123035956,1.0377795603321265,0.0,0.0,0.0,0.0
0.008535745383559582,-0.049377302604205295,0.7290745871361932,0.0032204438382486744,-0.5229536461289473,-0.007138681400927754,0.8523251445133954,0.04251270017725838,-0.8190901152995922,0.9096636525387192,-0.10168521690267925,-0.8048070610682263,0.8442177399546198,0.0215700956419333,0.6818273001357135,0.9711835363040162,0.011037428239192173,0.6491877538206511,1.040025721406379,0.0,0.0,0.0,0.0
0.00939069282093273,-0.05022543599136542,0.7289810696751748,0.003632568810903211,-0.5229576848745427,-0.007602191778146414,0.8523170014464458,0.04573220864759252,-0.8200003026225329,0.9134713254453368,-0.10574890869369785,-0.8013514402444238,0.8421502510400516,0.02184910658399127,0.6854565054150219,0.9685364693907126,0.011333328976027771,0.6501928465505,1.042143121182782,0.0,0.0,0.0,0.0
0.010301428697310676,-0.05118550853935775,0.7289444172246806,0.0041638517072253,-0.5229561385081806,-0.008072180633412123,0.8523111987034985,0.049178968429735515,-0.8204917949507547,0.9170426756813721,-0.10991450274221219,-0.7968898423800713,0.8386294767877142,0.022092006746008416,0.6896929558529395,0.9648687475282322,0.011613151026373836,0.6515214209299253,1.0439816657765861,0.0,0.0,0.0,0.0
0.011219268043335858,-0.05226981968076614,0.7289828748114736,0.004829692407558991,-0.5229445248980358,-0.008546120392004593,0.8523101910552644,0.052860307820598966,-0.8202251359255921,0.9198195468923083,-0.11419126840772759,-0.7910271969268791,0.8326594642838401,0.022293112856235694,0.6944861769000942,0.9599960231856307,0.011881050133720091,0.6530898326485697,1.0454560907236568,0.0,0.0,0.0,0.0
0.012038111788915519,-0.05343213835681739,0.7290320125297138,0.0055599647529530945,-0.5229329502707654,-0.00904394366429853,0.8523077046443122,0.056752690070023995,-0.8190136268088384,0.9210877250180053,-0.11858602244182713,-0.7833043140068862,0.8226480307439378,0.022450083607365633,0.6991915889099914,0.9548233681036932,0.012132952091637051,0.6543250705089877,1.047116715489806,0.0,0.0,0.0,0.0
0.012599993046470744,-0.05449593911090368,0.7288841050939808,0.0060961698863742095,-0.5229544229575277,-0.009633291216527225,0.8522844055373847,0.06076696920067774,-0.8173271599291594,0.9205265775474814,-0.12309517164373958,-0.7728740557061249,0.8058258774501749,0.02257322489442051,0.7022269674536279,0.9522349710759879,0.012342078640101808,0.6539624936688545,1.0504749532596822,0.0,0.0,0.0,0.0
0.01284868124051022,-0.05511521497466483,0.7284965779636572,0.005953925162638481,-0.5229579444300431,-0.010410627003292169,0.8522741096490378,0.0646285822154732,-0.8169167393228596,0.9201231547409588,-0.12762613026191902,-0.7567758435723673,0.7762336399988438,0.022707493013211823,0.7026967024697219,0.9539579900782048,0.012479417656787485,0.6516889417939874,1.054828399956206,0.0,0.0,0.0,0.0
0.012878761130956899,-0.055168181261186944,0.7284838516997757,0.0059782664786939095,-0.5229401200200066,-0.010442792177375959,0.8522844826083078,0.06484404829888832,-0.8169274419272565,0.9201718756032807,-0.12790305609884162,-0.7567101143916469,0.7762384177478737,0.02270316131919507,0.7027922235295369,0.953825731909384,0.01248880810653755,0.6516080904385004,1.054986334729242,0.0,0.0,0.0,0.0
0.012878761130956899,-0.055168181261186944,0.7284838516997757,0.0059782664786939095,-0.5229401200200066,-0.010442792177375959,0.8522844826083078,0.06484404829888832,-0.8169274419272565,0.9201718756032807,-0.12790305609884162,-0.7567101143916469,0.7762384177478737,0.02270316131919507,0.7027922235295369,0.953825731909384,0.01248880810653755,0.6516080904385004,1.054986334729242,0.0,0.0,0.0,0.0
0.013046737039675689,-0.05527837214726737,0.7291451509138583,0.005469292502724971,-0.5226125106036155,-0.010212938916482079,0.8524916107967243,0.06484582828212465,-0.8185392594418359,0.9233849642877785,-0.12797290813386444,-0.7564823745380157,0.7783120622989175,0.017036579936142424,0.6922507487172579,0.9737583586863369,0.01821010928636622,0.6557524832619553,1.0490923967720993,0.0,0.0,0.0,0.0
0.013319693724181092,-0.05551698173986532,0.7299652204646562,0.005149731103007317,-0.5223890102378385,-0.009952253883778158,0.8526336580823742,0.06493536515834247,-0.8189463900076837,0.9259690783411155,-0.12793188430154256,-0.7564652851958644,0.7817125139866093,0.01139107020826426,0.6853794510252571,0.9874679571002666,0.02380614899427696,0.6611309401475944,1.0422051494488682,0.0,0.0,0.0,0.0
0.01361249612462225,-0.055843082008997805,0.7307487220080171,0.004965267640244771,-0.5222334851964839,-0.009676185312314782,0.8527331965477808,0.06510987129602944,-0.8187230132005521,0.9278171807828964,-0.12780201856918263,-0.756774784199315,0.7856752001523885,0.0057671865330780605,0.6812651910712981,0.9970514544765197,0.029293453761483956,0.6665201700889039,1.0359322913539848,0.0,0.0,0.0,0.0
0.013889151409782696,-0.05622183153736129,0.7314466796039311,0.004863241688835254,-0.5221200685842287,-0.009398163927091379,0.8528063422469815,0.0653592282496575,-0.8181593364330361,0.9290215346568527,-0.12759642570020271,-0.7573216376626248,0.7897548270085488,0.00015897360863558266,0.6789322757034771,1.0042849045677786,0.034688787376339736,0.6715265720487786,1.0306123393509856,0.0,0.0,0.0,0.0
0.014098420632971903,-0.05661274617307111,0.732051709093033,0.004779997129614757,-0.5220288274982052,-0.00913234706777903,0.8528655551288981,0.06566061619425002,-0.8173405408040461,0.9294835848571615,-0.1273215298884747,-0.757735528763021,0.7932050200294899,-0.005439893353327962,0.6775656710768325,1.0100997924303419,0.04000934167819271,0.6759194835757438,1.0262291913694517,0.0,0.0,0.0,0.0
0.014242030139842782,-0.05700801535931426,0.732578887911912,0.004701294653460655,-0.5219478732823086,-0.008880453897538922,0.8529181982718097,0.0660083757765965,-0.8163424654994205,0.9293255544042454,-0.12698459590842306,-0.7580101915489956,0.7960417913444793,-0.011035469902418028,0.6767183486910722,1.0150951630343545,0.0452660487718527,0.6797432135984895,1.0226168971319867,0.0,0.0,0.0,0.0
0.014333256197683364,-0.05740759732239497,0.7330487322393425,0.004625178837304367,-0.5218718669414342,-0.008641428991462254,0.8529675772975023,0.06640035231182627,-0.8152027932124433,0.9286816054466748,-0.12659119299821642,-0.7581868278250735,0.798413516221,-0.01663391544326557,0.6761302077033455,1.0196461779759454,0.050467591597852975,0.6831194943198472,1.019576135739022,0.0,0.0,0.0,0.0
0.014384603580570006,-0.057812272103356876,0.7334786329547861,0.004551441014359232,-0.5217980399056769,-0.008413996145811828,0.8530154128760773,0.06683471474052703,-0.8139440630911738,0.9276601175068337,-0.12614590769187695,-0.7582985798811076,0.8004507975052418,-0.022241417516628805,0.6756533383561137,1.023965264179083,0.0556219880449952,0.6861615150417014,1.0169384675567583,0.0,0.0,0.0,0.0
0.01440587991110927,-0.058222599526939554,0.7338809060841752,0.004479933840808285,-0.5217248409901581,-0.008197025826365695,0.8530626760409683,0.06730963994492815,-0.8125842609795373,0.9263438748911775,-0.12565273111097802,-0.7583700771410937,0.8022515670573018,-0.027864178144369107,0.6752100887037669,1.0281663926798166,0.06073692565532891,0.688954808593896,1.014582953872828,0.0,0.0,0.0,0.0
0.01440434111865878,-0.058638804296475666,0.7342632847816989,0.0044102895548721885,-0.5216514382903653,-0.00798957220137089,0.8531098950379572,0.06782330612818822,-0.8111400897475749,0.9247952322721382,-0.12511522279652598,-0.7584200057311061,0.8038856903904114,-0.033508415954480196,0.6747652637506588,1.03230802254452,0.06581986065397599,0.6915581147876886,1.0124319382269351,0.0,0.0,0.0,0.0
0.01438518626748235,-0.05906081175836881,0.7346298513142817,0.004341890696626075,-0.5215774758709804,-0.007790861006195706,0.853157305034668,0.06837392671721317,-0.8096280322243649,0.9230611215036113,-0.1245365944880662,-0.7584629860253771,0.8054013932361619,-0.03918037396075375,0.6743081617823184,1.0364164451718927,0.07087806737640712,0.69400827874812,1.010442608320979,0.0,0.0,0.0,0.0
0.014351988412918081,-0.05948827733887109,0.7349817447634543,0.00427386022568775,-0.5215029584483721,-0.0076002845020173215,0.8532049191863905,0.06895978549138247,-0.8080649070935721,0.9211768348599767,-0.12391975965068364,-0.7585107595410235,0.8068300847641737,-0.044886330905838594,0.6738417836664923,1.0404952405630763,0.0759186702833505,0.6963244117342433,1.0086004420473111,0.0,0.0,0.0,0.0
0.014306923367595,-0.05992058775961223,0.7353175044911459,0.004205030097175339,-0.5214281935842561,-0.007417408039389522,0.853252564435243,0.06957926310072542,-0.8064683036669033,0.9191681477243878,-0.12326735850969332,-0.7585728306053774,0.8081888439622048,-0.05063261532417152,0.6733771602847124,1.0445237459375898,0.08094867751374035,0.698509966110605,1.0069160106036845,0.0,0.0,0.0,0.0
0.014250690677166408,-0.06035686211315416,0.7356330905862848,0.004133912425166156,-0.5213537070130818,-0.007241968948742531,0.853299933691269,0.07023084706706308,-0.8048566897554879,0.9170510957778494,-0.12258175139728969,-0.7586565652628016,0.8094802336195012,-0.05642562198351347,0.6729318380730421,1.0484438044117468,0.08597504342767809,0.7005523009895327,1.005424950693787,0.0,0.0,0.0,0.0
0.01418201568965728,-0.06079600760250269,0.7359217136426658,0.004058724020876891,-0.5212800175364205,-0.007073832448504555,0.8533467237712007,0.070913115988969,-0.8032487133565126,0.9148284983257032,-0.1218649663777419,-0.758766668394342,0.8106891849984946,-0.06227183038894077,0.6725336517856523,1.0521304678384136,0.091004797149967,0.7024196584360992,1.004190038363575,0.0,0.0,0.0,0.0
0.01409673053120873,-0.06123689665825842,0.7361737951220146,0.003977517986455515,-0.5212071477179511,-0.006912862557322258,0.8533929346143246,0.07162469228717948,-0.8016611473934906,0.9124830332820779,-0.12111859230881841,-0.7589039997308645,0.8117776036623584,-0.06817782380574078,0.6722349053937055,1.0553391738172373,0.09604526921507489,0.7040566815340504,1.0033023768073095,0.0,0.0,0.0,0.0
0.013987024115284689,-0.061678725038643474,0.7363780095281757,0.003888470286569059,-0.5211338756040385,-0.006758688761591176,0.8534393262692838,0.07236419242217391,-0.8001050137702773,0.9099706429172826,-0.12034363032817696,-0.7590640419321409,0.8126816703075325,-0.07415030256523861,0.6721491356744502,1.0576229237352799,0.10110438339103525,0.7053847859876033,1.0028723450398607,0.0,0.0,0.0,0.0
0.013843445493429063,-0.06212162899462047,0.7365261442243176,0.0037905404944717884,-0.5210575807074267,-0.006610455110180437,0.8534875109064687,0.07313034395197189,-0.798578025110335,0.9072292764044994,-0.11954026991078347,-0.759235755705657,0.8133301740230646,-0.08019607605892254,0.6725196169968116,1.0582596085448264,0.10619066139623465,0.7063306208554263,1.002983731496808,0.0,0.0,0.0,0.0
0.013660880874385318,-0.06256656990552324,0.7366220563755759,0.0036834679888836804,-0.5209766246624128,-0.006467071740886001,0.8535384968482866,0.07392173693316241,-0.7970509385010363,0.9042091518899735,-0.11870766466274695,-0.7593904996161711,0.8136776010317996,-0.08632141977013774,0.6733271493413562,1.0572297376665316,0.1113121102700351,0.7068935291192006,1.0036076508192402,0.0,0.0,0.0,0.0
0.013437575621375005,-0.06301564435488785,0.7366823249361264,0.0035680955833232893,-0.520889642942536,-0.006326984319537108,0.8535931219489329,0.07473668687902177,-0.7954637423542934,0.9008644580103154,-0.11784382520611342,-0.759479735314433,0.8136985224388139,-0.09253211044096102,0.6742930316521702,1.0552154467759314,0.11647653114109938,0.7071433986676968,1.0045970770361239,0.0,0.0,0.0,0.0
0.013167240988486652,-0.06347289709015548,0.7367286363866484,0.0034468402205994216,-0.5207916593627488,-0.006187367606618038,0.8536544285088603,0.07557321926054264,-0.7937321791126344,0.8971069255442508,-0.11694566042037441,-0.75944226170005,0.81334464310825,-0.09883408680792316,0.6752752843995123,1.0526204111352242,0.12169314918184744,0.7071487423477179,1.005761934530417,0.0,0.0,0.0,0.0
0.01283475338510218,-0.06394443177733028,0.7367840735508221,0.003323229441814257,-0.5206724285646818,-0.006043722429456722,0.853728675691422,0.0764286358534371,-0.7917487491976858,0.8927789346614543,-0.11600909432141768,-0.7592016414062819,0.8125146718946523,-0.10523347736635981,0.6762046132416615,1.0496364945327692,0.12697316044236728,0.706940822302206,1.0069057733849245,0.0,0.0,0.0,0.0
0.01241278831105781,-0.06443816410330473,0.7368724785890467,0.0032005074896635636,-0.5205143294651277,-0.005889547013038476,0.8538266233898182,0.07729887451814825,-0.7893828225204215,0.8876353717512098,-0.11502929288578892,-0.7586582899377299,0.8110273516402585,-0.11173662548725175,0.6770492333476514,1.0463072054174005,0.13233027487826207,0.7064943963693421,1.0078301612556182,0.0,0.0,0.0,0.0
0.011848933651382284,-0.06495749276701174,0.7370189300010448,0.0030696065899592046,-0.5202911452599943,-0.0057180050405612175,0.8539642885377482,0.07817387321208176,-0.7864556216896131,0.8812674695935779,-0.11399986206263629,-0.7575846863926105,0.8084353140357768,-0.11835009426237154,0.6777637423090296,1.0425587763449908,0.13778180819182487,0.7056900687796599,1.0083217054159714,0.0,0.0,0.0,0.0
0.011104363257023263,-0.06552049943052583,0.7372606904712531,0.0029409770610455033,-0.5199666549380283,-0.005515496949681638,0.8541636890549035,0.07905027852901299,-0.7828043515469648,0.8733302719934648,-0.11291612516795851,-0.7559143692042551,0.8045727356787188,-0.12508072651718333,0.6783605610271208,1.038322005608833,0.14334639712531824,0.7044745168350321,1.008057905212057,0.0,0.0,0.0,0.0
0.010127461094198004,-0.06614750803437319,0.7376436343963962,0.002821611150214242,-0.5194903234696557,-0.005264960878373583,0.8544554537943208,0.07992271338291328,-0.7782535310677727,0.8634010248031748,-0.11177430279576073,-0.7535581403607261,0.7991995152818139,-0.13193569284077625,0.6788118317853117,1.0334811106987887,0.1490464054358795,0.7027592462615408,1.0066180765448574,0.0,0.0,0.0,0.0
0.00885601628478685,-0.06686261418462473,0.7382215311979512,0.0027153102197500843,-0.5187915841139796,-0.004944516232893239,0.8548821387198009,0.08078504464095661,-0.7726532750283153,0.8510166533478427,-0.11057392541744825,-0.7504518882700125,0.7920592180368687,-0.13892258702651133,0.6789871808568304,1.027855001278718,0.15490839184903782,0.7004150974409002,1.0034672936386757,0.0,0.0,0.0,0.0
0.0072240642723003096,-0.06769314756738683,0.7390540038049981,0.0026202035870528037,-0.5177757330051727,-0.004527218836942655,0.8555003969220125,0.08163204845780282,-0.7659439327804308,0.8357617818527302,-0.10932121242812412,-0.7466144197751216,0.7829631276634812,-0.14604952313139977,0.6785389576060684,1.0211870793595919,0.16096258936031171,0.6972871600033792,0.9979337985756435,0.0,0.0,0.0,0.0
0.00517640308381517,-0.06866499984759111,0.7401971864910761,0.002521657654172306,-0.5163225788203158,-0.003983193047028733,0.8563812060152673,0.0824622981114778,-0.7582867759175183,0.8174613267895482,-0.10803458431129344,-0.7422395224966466,0.7719287082885226,-0.15332518367418538,0.6767624260421959,1.0131491738691896,0.1672404098722619,0.6932180518747564,0.989224754078735,0.0,0.0,0.0,0.0
0.002700322114419489,-0.06979133226765856,0.7416736817834834,0.002381146679635343,-0.5142933689332231,-0.003286610159952453,0.8576047218885063,0.08328501724325693,-0.7503369951737003,0.7966006060652745,-0.10675407534996928,-0.7378907339093204,0.7594718856071605,-0.16075874675524296,0.6725564410287809,1.0034206755219583,0.17376716771707618,0.6880592157149479,0.9766038885780279,0.0,0.0,0.0,0.0
-0.0001075902444116132,-0.07105806027613068,0.7433757908186238,0.00213494011200995,-0.5115457845456519,-0.002429035351398479,0.8592499357762869,0.08414241207608644,-0.743904497339059,0.7752692041235667,-0.10556107375644048,-0.7351118103777677,0.7474238321535648,-0.16836008690154966,0.6648438815238676,0.9917954870944315,0.1805461929921949,0.681471989548116,0.9602011617508915,0.0,0.0,0.0,0.0
-0.002899270029263758,-0.07239948120442256,0.744780210829174,0.0016942201600285568,-0.5078831285392964,-0.0014421627081283779,0.8614231117922883,0.08518113187295773,-0.7441861471111894,0.7599490379229965,-0.10465118447054082,-0.7385527907396863,0.7414660996054682,-0.17614936852463223,0.6542511187496676,0.9769005982181904,0.18754207846637927,0.6717343585017232,0.9435748958240052,0.0,0.0,0.0,0.0
-0.005461032654386648,-0.07374624346364025,0.7452221969979381,0.0009937089853515458,-0.5031931247235452,-0.0003707811047775606,0.8641733357925245,0.08653594268529546,-0.7558137595864527,0.7559135648408436,-0.10418489942224698,-0.7522192002041168,0.745804216674053,-0.18414193256062447,0.639874949724389,0.9572275939970674,0.19467295434657575,0.6559821101340373,0.9323520849711472,0.0,0.0,0.0,0.0
-0.00748540298759877,-0.07474507307406227,0.7447577964690385,-0.0003891510333002926,-0.49770253530491226,0.0005947729012183975,0.8673474973490912,0.08817786230150494,-0.780624570489268,0.7676470455149723,-0.10424364997127196,-0.7745854927888377,0.7596399842170181,-0.19223549721878733,0.6218785497319406,0.9382512147427353,0.20166675978223883,0.6360652632086992,0.9253170370938734,0.0,0.0,0.0,0.0
-0.0074946152103013515,-0.0748005013333415,0.7446468481513848,-0.0004761583202890043,-0.49768391301700354,0.0006416659657260761,0.8673581061257951,0.08825142292978257,-0.780886591930437,0.7673499225841535,-0.1042366954963019,-0.7747713376470334,0.759557028121621,-0.1927638195348242,0.6218790249213785,0.9382552909494131,0.20202175704988434,0.6361476687173565,0.9251903877882518,0.0,0.0,0.0,0.0
-0.0074946152103013515,-0.0748005013333415,0.7446468481513848,-0.0004761583202890043,-0.49768391301700354,0.0006416659657260761,0.8673581061257951,0.08825142292978257,-0.780886591930437,0.7673499225841535,-0.1042366954963019,-0.7747713376470334,0.759557028121621,-0.1927638195348242,0.6218790249213785,0.9382552909494131,0.20202175704988434,0.6361476687173565,0.9251903877882518,0.0,0.0,0.0,0.0
-0.007723736229117709,-0.07493376258316117,0.7453556278938744,-0.0004404976244874394,-0.49958551341080154,0.0004172575837465093,0.8662643630255245,0.08866180757741328,-0.7645983720069817,0.7504291708942443,-0.10271621199698323,-0.7604377109219655,0.7448683865173269,-0.1958516728821904,0.6302283302354681,0.9365121252006613,0.2036962639593825,0.6440394691691795,0.9231351107663406,0.0,0.0,0.0,0.0
-0.008012476266433064,-0.07508684590081109,0.7458791824678916,-0.00037600115791863514,-0.5009338471000174,0.00020225772953753177,0.8654854698633111,0.08919237767509036,-0.7516389554458683,0.7359990781923925,-0.1013593398356377,-0.749639092434079,0.7330435435950253,-0.19820445412241003,0.6360997055953613,0.9349234518391527,0.2046945285831479,0.6492349699044694,0.9217238252851324,0.0,0.0,0.0,0.0
