zhuoxili-jackie/tripod-support-walk/examples/trajectory_trot_sideways_v0.05.csv
root_pos_x,root_pos_y,root_pos_z,root_rot_x,root_rot_y,root_rot_z,root_rot_w,FL_hip_joint,FL_thigh_joint,FL_calf_joint,FR_hip_joint,FR_thigh_joint,FR_calf_joint,RL_hip_joint,RL_thigh_joint,RL_calf_joint,RR_hip_joint,RR_thigh_joint,RR_calf_joint,FL_foot_joint,FR_foot_joint,RL_foot_joint,RR_foot_joint
0.0,0.0,0.745913,-0.00590261038931276,-0.5534150365010598,-0.008528410562500121,0.8328410549308913,-9.86e-07,0.349071,-0.872662,2.4067e-06,0.349062,-0.872669,2.38753e-06,0.610854,0.872668,-3.27e-06,0.610866,0.872669,0.0,0.0,0.0,0.0
0.0008998160888307442,-0.0001292965525924312,0.745915563033837,-0.005889577665927531,-0.5537256248860002,-0.008414594730408023,0.8326358386564012,-9.673661468114705e-06,0.3540914602254001,-0.879366493045954,-6.277677832339507e-06,0.3546077020748231,-0.8800633757670823,0.0009719621893384031,0.6131057627551204,0.8738441718078885,0.0009662956833653644,0.6133458444089627,0.8749383416641489,0.0,0.0,0.0,0.0
0.002567557131222356,-0.00035901948792966664,0.7458790686173113,-0.005881152081961283,-0.5540052665786065,-0.008354810247049912,0.8324504632703928,0.0003181757080363699,0.36364295343310893,-0.8935780212207671,0.00032167938282959247,0.36496973325767085,-0.8956649590326765,0.0021961832194698095,0.6166733969267765,0.8756827174719374,0.0021940922442979117,0.6169353173611423,0.8783773504500633,0.0,0.0,0.0,0.0
0.004934917316862677,-0.0008246090207050737,0.7457968716840603,-0.005846739540388668,-0.5542806452739422,-0.008372021411849624,0.8322671993830639,0.0013475593763993337,0.3768493414265517,-0.9135638643411533,0.0013516666241607498,0.37978907471154427,-0.9188642385946485,0.004143837466855471,0.62163255437857,0.8776799001621077,0.004151798061381361,0.6214788948627377,0.883443372211546,0.0,0.0,0.0,0.0
0.007986930599000394,-0.0016864345783989378,0.7459067228182117,-0.0057482306401270555,-0.5546266492359989,-0.008506325347391493,0.8320359849374548,0.00354703002789992,0.39327076532419236,-0.9370152294998656,0.003554528566572671,0.39917123026305945,-0.9486016807346181,0.007322507417529448,0.6297506655810211,0.87690129231127,0.007358558111591613,0.6284553002640021,0.8882950865483752,0.0,0.0,0.0,0.0
0.011875743890206906,-0.003312853144205934,0.7471083936582212,-0.005461603507895334,-0.5554312935990123,-0.008939077246579032,0.8314964473021096,0.00815827897835391,0.4135355524481719,-0.9587091223011142,0.00818228212412009,0.42497534613701243,-0.9828245064892228,0.012254598414825943,0.6480971185768823,0.8639723048104602,0.012366965767521464,0.6438210481514348,0.885913565431829,0.0,0.0,0.0,0.0
0.015184783655752664,-0.004709115973452664,0.7479154570269158,-0.005159656518865562,-0.5551399258202916,-0.00905799449337658,0.8316916456479567,0.01153649725774443,0.43072109547943477,-0.9826156943143298,0.005936591498243197,0.40046671137677997,-0.9538066835097436,0.013107236349227626,0.637613087545475,0.8849082045165844,0.017882086855029723,0.654309280968402,0.8829379096702129,0.0,0.0,0.0,0.0
0.018575049285389965,-0.006220158619841181,0.7488261802642108,-0.0048625912450665455,-0.5549386498046254,-0.00922560168036806,0.8318259063247777,0.015363662170968866,0.44787929836888024,-1.0052612735054205,0.005233464389647903,0.38128389728614703,-0.9409700969554488,0.014902652015559004,0.6292948947298938,0.9024270408431644,0.024011998851252794,0.6658354361228759,0.8793069136122964,0.0,0.0,0.0,0.0
0.021780386093053612,-0.007790086219190747,0.7498161985692485,-0.004559731946113227,-0.5548865812060392,-0.00942832050876283,0.8318600829553232,0.019464894153149975,0.4636093574596929,-1.024315831378096,0.0052989273032827125,0.36733628039507815,-0.9385024277082233,0.01785953970731339,0.6227805779293145,0.9180465572830856,0.030507607391227543,0.67789100868596,0.8750583179296724,0.0,0.0,0.0,0.0
0.02462601332505233,-0.009375976383479683,0.750835209818292,-0.004262097571750526,-0.5549146365131211,-0.009639908731389896,0.8318405212944665,0.023672623342034505,0.47712504450355225,-1.0392320006137232,0.005698619801245838,0.35695775116330225,-0.9416160766780659,0.02166070245344414,0.6172984426445953,0.9324538407068677,0.03732130038973874,0.6896963348080536,0.8703588607078638,0.0,0.0,0.0,0.0
0.02703557394425416,-0.010943187345655869,0.7518494395791198,-0.003978322762386787,-0.5549754486746633,-0.009844322079264094,0.8317989622734294,0.027856084118975267,0.48815980829809175,-1.0500941391178367,0.006283168794832078,0.34880225281691646,-0.9475952101095572,0.02596238284376958,0.6123133036158844,0.946007626240425,0.04434675011577433,0.7007600252639252,0.8653904924588343,0.0,0.0,0.0,0.0
0.02900099622155993,-0.012460996432923888,0.7528420484854385,-0.0037132050579743287,-0.5550437173101308,-0.010033611582149786,0.8317523733788607,0.03190919018359103,0.4967878859504027,-1.0573104094086005,0.006995033349152294,0.3418731145048213,-0.9549404288709825,0.03050173992491394,0.6074649725868887,0.9589497826160851,0.05141322565542444,0.7108605984556805,0.860254969555085,0.0,0.0,0.0,0.0
0.030556197599272472,-0.013903273217202658,0.7538062474793348,-0.0034689987732655836,-0.5551078111839541,-0.0102046898237839,0.8317085717459397,0.03574868126058471,0.5032781971002553,-1.0614496965483038,0.007788890840324366,0.33547749975626967,-0.9628333681161554,0.035098120150801736,0.6025231743665942,0.9714653013008105,0.058328217597320715,0.7199587968381407,0.8549868036143576,0.0,0.0,0.0,0.0
0.03175685824124947,-0.015249920159340485,0.7547394652367482,-0.003246574686040577,-0.5551635744511573,-0.010357022529351523,0.8316703658540135,0.03931485995803558,0.5079870758023785,-1.063133647578083,0.008611729335346558,0.3291653337565862,-0.9708366314586357,0.03963183993667666,0.597355538251999,0.9837027871175702,0.06491799670173051,0.7281177224041353,0.8495918434391962,0.0,0.0,0.0,0.0
0.03266616899675063,-0.016487340459938903,0.7556403017849346,-0.0030456997485793476,-0.5552108276559024,-0.010491624802105566,0.831637893782926,0.04257093628224602,0.5112872705577218,-1.0629628922595065,0.009407126160052808,0.32266163574964696,-0.9787263838782598,0.04402269720191238,0.591905146432247,0.9957807199232344,0.0710460730545048,0.735446768096764,0.8440737930871143,0.0,0.0,0.0,0.0
0.03334574742405509,-0.017607864707357566,0.7565069788795482,-0.00286565266022849,-0.5552510136036628,-0.010610003921894545,0.8316102018035333,0.04549911382428523,0.5135257453848452,-1.0614777881244692,0.010122611462099263,0.31580537811371007,-0.9864019522674679,0.0482203665159016,0.5861714070217293,1.0077875864022916,0.07662249647976968,0.7420653919098718,0.8384496236216651,0.0,0.0,0.0,0.0
0.033850540500601746,-0.01860824585908602,0.7573366060498269,-0.0027053551504708784,-0.5552860212525011,-0.010713819440912034,0.8315860326677356,0.048095204466849846,0.5150026814275905,-1.0591406470577478,0.010715655377513162,0.3085068817700171,-0.9938302976578199,0.052195213399591024,0.5802011700157628,1.0197768265150073,0.08159615570914366,0.7480803665867615,0.8327557112188517,0.0,0.0,0.0,0.0
0.03422651032868041,-0.01948777190371259,0.7581240260332296,-0.0025637437210985635,-0.5553174638603712,-0.010804412967020496,0.8315643127324885,0.05036224220477558,0.5159637905718978,-1.056337212408903,0.011154999580171064,0.3007363134021415,-1.0010044840355963,0.05593134394314228,0.574087079073541,1.031754253428531,0.08594468946456184,0.7535689348669723,0.827057418847249,0.0,0.0,0.0,0.0
0.034509904970216956,-0.020246254219148167,0.7588598865196692,-0.002440193483930843,-0.5553460069306851,-0.010882481212617423,0.8315446047233794,0.052304457113885566,0.5165997268788604,-1.053390590770386,0.011418320178373938,0.29255452661163467,-1.0078974356157988,0.059412725752377805,0.567973110111364,1.043649702716822,0.0896625074952482,0.7585615799974486,0.8214657088138715,0.0,0.0,0.0,0.0
0.034726981937985686,-0.020882279620541972,0.7595277461456498,-0.0023350706705406944,-0.5553707514081891,-0.01094780557192206,0.83152752298311,0.05392248355410973,0.5170462463393821,-1.0505790572655138,0.011486986135523116,0.28419573993329694,-1.0143982018962607,0.06259362856337887,0.5620673088911048,1.0552592619724934,0.09275140513616784,0.7630207621961949,0.8161651779906319,0.0,0.0,0.0,0.0
0.03489322078676822,-0.021392235253449667,0.7601005537169861,-0.0022504764085869563,-0.5553888951505346,-0.010999007155367058,0.8315149621870908,0.05521092307482257,0.517379438315468,-1.0481468348034482,0.011338881907395206,0.27619546129840383,-1.0202275022764689,0.06534056642490017,0.556667951647394,1.066137109615064,0.09521813433721837,0.7668158365221514,0.8114528429236687,0.0,0.0,0.0,0.0
0.03501176499461255,-0.021770835497165106,0.7605381393199783,-0.0021911083995880616,-0.555396262033802,-0.011033366220222569,0.8315097449775991,0.05615980896219461,0.5176041070348634,-1.0462952578821496,0.01094182975521971,0.26951149201103297,-1.0248498187051343,0.06733857857213867,0.5522257864460285,1.0754099578595833,0.0970832456292625,0.7697049761118311,0.8077730768830312,0.0,0.0,0.0,0.0
0.035072856604478196,-0.022013843697337578,0.7607905559606927,-0.0021644785300848823,-0.5553899082315451,-0.011047154202904455,0.831513875561476,0.056761558183857,0.5176460692296658,-1.0451437696650148,0.01025385972082712,0.26548906491346913,-1.0274325565107,0.06799955683195599,0.5494913166444496,1.0814913204187697,0.0983985178416529,0.771360350944944,0.8056965828587903,0.0,0.0,0.0,0.0
0.0350600634426139,-0.022121915433813675,0.7608186976580718,-0.0021770181924953003,-0.5553755781990785,-0.011039330790705314,0.8315235179521515,0.05702331180269652,0.5173886019604242,-1.044655263872369,0.009240961623938466,0.2653768140718277,-1.0269680588303414,0.06656619044687558,0.5497564884275863,1.081812497225502,0.09922695314973108,0.7715195993817733,0.8057087857154281,0.0,0.0,0.0,0.0
0.034960104114231186,-0.02209674782617458,0.7606221584326902,-0.0022287030481819834,-0.5553542531200395,-0.01100942576435798,0.8315380201581556,0.05694729938674745,0.5167570367241715,-1.0447130660441468,0.007916671336363059,0.2691554174733217,-1.0234245415312604,0.06305603927533363,0.5529958230074844,1.0763506838922103,0.09957782321683273,0.7701484072608611,0.8078287414954697,0.0,0.0,0.0,0.0
0.03476456132364108,-0.021941569189712903,0.7602402382840506,-0.0023129637020779365,-0.555321417129207,-0.010957610878238683,0.8315604034827316,0.05653239547093791,0.5157279464445629,-1.0451333079562002,0.006348750802990033,0.27555497239932114,-1.0177819418550285,0.05825404261544759,0.557876334334552,1.0676259118027003,0.09940801821201231,0.7674513835732781,0.8115916917179714,0.0,0.0,0.0,0.0
0.03446051157141274,-0.021665374079732833,0.7597251352975501,-0.0024223411157642534,-0.5552801093408039,-0.010886617231969717,0.8315886086276244,0.05579458675761481,0.5142468148048673,-1.045589012769289,0.004614050622364517,0.28321920047558263,-1.0108594666491955,0.05277116459538922,0.5636160555239985,1.0571821167448687,0.09869300918573928,0.7637176244955926,0.8164172654158124,0.0,0.0,0.0,0.0
0.034023754194851964,-0.02127947752638921,0.7591211911843915,-0.0025522469002568927,-0.5552340063881178,-0.010798343236532294,0.831620153657489,0.054756310276030784,0.5121881009359325,-1.0456761259127334,0.0027738313274145443,0.2911833625186375,-1.0031774745260738,0.046943445756753195,0.5697402520578322,1.0458575460476873,0.09744800267066052,0.7591650339263785,0.8218310681147425,0.0,0.0,0.0,0.0
0.03341978841215691,-0.02079564016618721,0.7584610339910638,-0.002700395383642795,-0.5551852436570712,-0.010693997720472491,0.831653588643111,0.053442638461229555,0.5093628323268994,-1.0449498787623206,0.000873627111239362,0.2989106299949128,-0.9950065941376033,0.04092519231706907,0.5759318130398109,1.0340696778655383,0.0957116200402763,0.7539119564886252,0.8274974136960428,0.0,0.0,0.0,0.0
0.03260692791236256,-0.02022647010873779,0.7577677409886634,-0.0028656593996283833,-0.5551341426729328,-0.010574641542943393,0.8316886728765948,0.051882958777390215,0.5055351495204741,-1.0429386741707665,-0.0010497303398569347,0.306172631977089,-0.9864667409299472,0.03478244324743752,0.5819655799664187,1.0220025057876894,0.09353931875952967,0.7479975501494314,0.8331904625839872,0.0,0.0,0.0,0.0
0.031539838166039454,-0.01958696941796812,0.7570582770969511,-0.003047196204171412,-0.5550797362323526,-0.010441638904518637,0.8317260205118647,0.0501153129760796,0.5004383291553602,-1.0391477515468002,-0.00296434036164182,0.31292247276940865,-0.9776200894036354,0.02854848328856787,0.5876777587677015,1.0097199351182395,0.09100686819917013,0.741414290611167,0.838756115677184,0.0,0.0,0.0,0.0
0.030173983213594657,-0.018896136049591405,0.7563464487026107,-0.003243898042573091,-0.5550206005969038,-0.010296967195822116,0.8317665432710729,0.04819076009437542,0.4937942098497443,-1.0330688497334426,-0.004844800380536947,0.3192143129663529,-0.9685409082008366,0.022248470423784878,0.5929487519001524,0.9972341198659997,0.08821683718401865,0.7341407613588319,0.8440813465710307,0.0,0.0,0.0,0.0
0.0284723502489029,-0.01817771319364558,0.7556447868265398,-0.003454084277243631,-0.5549558474887527,-0.010143353253690446,0.8318107891970485,0.046175338085014124,0.48534489724303964,-1.0242133663346824,-0.00667665304384308,0.32517892700489703,-0.9593642059578136,0.015905279615051372,0.5976966242836329,0.9845540094655401,0.08530144896044553,0.726173457061716,0.8490746343195584,0.0,0.0,0.0,0.0
0.026416173439404604,-0.017459165715094038,0.7549650265113051,-0.003675400928857568,-0.5548863351743244,-0.009984148333426373,0.8318581388956146,0.04414700366259264,0.4749082589503084,-1.0121894447836077,-0.008459129766153364,0.3310497212176278,-0.950321992395135,0.009531623559023893,0.6018897166416917,0.9717361213654816,0.08241624539081704,0.7175592181329905,0.8536593068837779,0.0,0.0,0.0,0.0
0.0240216114801227,-0.016767925196803098,0.7543162890826474,-0.003905066438850737,-0.5548162099227838,-0.009822732323583369,0.8319057864883047,0.042184793447326764,0.4624715536315049,-0.9968514542437625,-0.010200018459400356,0.3372301589953063,-0.941779563058248,0.0030996536436725605,0.6055968378017406,0.9589585582427861,0.07972170495523431,0.7084271497988119,0.8577893435199878,0.0,0.0,0.0,0.0
0.021364361366271553,-0.01612432099815208,0.7536980073461996,-0.0041409891716216955,-0.5547542764020642,-0.009660936895106052,0.8319478417068052,0.04034839551089722,0.44833983083217316,-0.9785675293465037,-0.011895669813023391,0.34438292439755264,-0.9342898311603817,-0.003546882892292289,0.6091066609794856,0.9466337473602482,0.07735780745298702,0.6990055998680229,0.8615212934624367,0.0,0.0,0.0,0.0
0.01861219690737996,-0.015531501155953965,0.7530785008348626,-0.004384374501316973,-0.5547030432923761,-0.009495580203005002,0.8319826590614836,0.03864895017237079,0.43335217981089125,-0.9587264899813178,-0.013503919520561996,0.3534207837608434,-0.928646394353893,-0.010930964100078388,0.6131447622647636,0.9354952513106524,0.0754185851516662,0.6895403566939737,0.8652128086979206,0.0,0.0,0.0,0.0
0.01620613893357258,-0.014907348581041688,0.7524089580494661,-0.004644040041410166,-0.5546068558316942,-0.009320460620179057,0.8320473528414135,0.03689806361242834,0.4201657298569519,-0.9420211169590577,-0.015381569521787385,0.3652042490911606,-0.9258326107252942,-0.020553467276773565,0.6192098749123207,0.9265691735843048,0.0735761019250883,0.6806472733022076,0.8690855626588709,0.0,0.0,0.0,0.0
0.01436277731586429,-0.014351949017946923,0.7518185881740047,-0.0049030847313170514,-0.554561958206246,-0.009148008975617539,0.8320777056275173,0.03534458583901736,0.4099917489311259,-0.9293603461754936,-0.016978570088159662,0.38036038897494456,-0.9289657592525467,-0.03275840324557177,0.6267891939439718,0.9212859965377708,0.07233584883909276,0.6737046176300795,0.8725507451527869,0.0,0.0,0.0,0.0
0.01337968121979856,-0.01398615104121336,0.7514744213810962,-0.005106622960819102,-0.5546229324692837,-0.009005432404512403,0.8320373954146028,0.03428979666471277,0.40453156638202886,-0.9224060161469916,-0.01738151594005758,0.39810659282025823,-0.942347953817273,-0.04575488313215074,0.6340184907004646,0.9207143477619805,0.07198401762727556,0.6702743503115888,0.8746589988602158,0.0,0.0,0.0,0.0
0.013338416210827434,-0.013888559094076226,0.7514418420336182,-0.005209292680802911,-0.5546389510428088,-0.009016813436541822,0.8320259577268903,0.03417382809347363,0.40440509320958457,-0.9223694711148854,-0.017401718214043353,0.3981250616056764,-0.9423569737669235,-0.04574674370672122,0.634045100704118,0.9207237512940272,0.07197502298358102,0.6701960073309601,0.8746048715075905,0.0,0.0,0.0,0.0
0.013338416210827434,-0.013888559094076226,0.7514418420336182,-0.005209292680802911,-0.5546389510428088,-0.009016813436541822,0.8320259577268903,0.03417382809347363,0.40440509320958457,-0.9223694711148854,-0.017401718214043353,0.3981250616056764,-0.9423569737669235,-0.04574674370672122,0.634045100704118,0.9207237512940272,0.07197502298358102,0.6701960073309601,0.8746048715075905,0.0,0.0,0.0,0.0
0.013485970728661,-0.013727644115810874,0.7512605736902126,-0.005362382929854815,-0.5544189242611804,-0.008918157871791194,0.8321726790339629,0.03371416436595717,0.40561245630923803,-0.9264668740616001,-0.017923974936969796,0.3986035518493052,-0.9444536997434567,-0.04526283235895625,0.6324329300836339,0.9224439573433316,0.07239982425556149,0.6693455773523723,0.875470285253464,0.0,0.0,0.0,0.0
0.014078985329563434,-0.013487418498066147,0.7510977968559719,-0.00546705450802168,-0.5543185879847493,-0.008848082631125643,0.8322395843525786,0.03308421470133157,0.4095197574435048,-0.9341733125182247,-0.01865189052439451,0.4014093278167847,-0.949665743201894,-0.045875896421455675,0.6323055003415448,0.9248790616672242,0.07210649274708626,0.6697714332396145,0.8763898690740588,0.0,0.0,0.0,0.0
0.015223712189111813,-0.013090423170679053,0.7509839382814947,-0.005541302577871326,-0.5543324921947161,-0.008789453838611199,0.8322304533986691,0.032071835199915515,0.416877487297924,-0.9466556355245873,-0.019812948748520263,0.4069915581857979,-0.9585031827565453,-0.04788571081073594,0.6340079062601979,0.9280029217817748,0.07085692716838388,0.671947021138554,0.8768048445752054,0.0,0.0,0.0,0.0
0.017001595023887244,-0.012379203109411723,0.7510548415819317,-0.005610157624262076,-0.5544908419989462,-0.00871556893509535,0.8321252736991397,0.03024060348727787,0.4284570129381991,-0.9645701913659115,-0.021847376675516155,0.41553394261473026,-0.9703681590847868,-0.05201736575042682,0.6385075801170119,0.9310521774239949,0.06799923814720071,0.6770261045681589,0.8748403301526205,0.0,0.0,0.0,0.0
0.019622022710386672,-0.01110275062473484,0.7520962126959163,-0.005740435177403729,-0.5551263041694997,-0.0085726785174248,0.8317020758697931,0.02685365319297319,0.4462391529639752,-0.9865402159841052,-0.025449135203024352,0.4281458533100349,-0.9819018100518383,-0.05941719389032916,0.6513405044835431,0.9279805827865466,0.06274652709004105,0.6910605382728243,0.8623611612286054,0.0,0.0,0.0,0.0
0.021773185411555544,-0.010207087056930705,0.7530027373846248,-0.006321603515330924,-0.5548695499340761,-0.008169039950747805,0.8318732395450846,0.02471847756828521,0.4184183844038947,-0.9543011658972287,-0.02836455751903989,0.43910066042699575,-0.9946858084765552,-0.06009051003339018,0.6592795595267128,0.9216655131785737,0.045326546840746024,0.6714953431607398,0.8839572184561868,0.0,0.0,0.0,0.0
0.02424977823723862,-0.009339823291961607,0.7540415804802518,-0.0067995813036613156,-0.5546889647949751,-0.00784038463253703,0.8319930567003475,0.020571387339061303,0.39712165008350914,-0.9394512056613286,-0.031165416922786366,0.4518788897089415,-1.0095814502639766,-0.06170160167580221,0.6692123489614679,0.9142250300721539,0.02930975996657561,0.6563638225392509,0.9005059641676861,0.0,0.0,0.0,0.0
0.026690700757860612,-0.008471443636236644,0.7550917517390937,-0.0071710066794632025,-0.5546556493259288,-0.007600873028789438,0.8320143713081136,0.016175177702486387,0.38175801089802586,-0.9358338066780874,-0.033855007090550886,0.46424113816425205,-1.0232257438759202,-0.06452722192926555,0.6799160412248019,0.9069222418196163,0.016411433884879013,0.6452886561570482,0.9147068371294946,0.0,0.0,0.0,0.0
0.02891268654433906,-0.007630555245688045,0.7560963097169635,-0.0074737185458907535,-0.5546975371386264,-0.007412110744977522,0.8319854845114445,0.012241703698997932,0.3704023641285979,-0.9383612817145859,-0.03639980563288996,0.4752796136984922,-1.034723145499991,-0.06790487382622291,0.6903467635196774,0.8999445765215026,0.005821828584589553,0.6368499044521835,0.9277062943159942,0.0,0.0,0.0,0.0
0.03082232169204112,-0.006838760721480596,0.7570433349518033,-0.007736598103639732,-0.5547716484664897,-0.007248380186212202,0.8319351081017271,0.00880752112389285,0.3615691504199484,-0.9441037379492597,-0.03876640859181375,0.4845997551481303,-1.0436980139244385,-0.07131849714129238,0.6999851659954939,0.8932335422470886,-0.0034304925910479418,0.6298729425629578,0.9400038087628255,0.0,0.0,0.0,0.0
0.03239036012871499,-0.006112620696022593,0.7579387338113253,-0.007974693001915913,-0.5548552988860234,-0.007098522397030657,0.8318783640349146,0.005703574392921126,0.35416820594351295,-0.951432779222927,-0.040917103207502435,0.4921402412348249,-1.0501557273799842,-0.07444656806200158,0.7086483562704884,0.8866648918189215,-0.011956797647408387,0.6235552809684535,0.9518446494935422,0.0,0.0,0.0,0.0
0.0336289627972073,-0.005464484335130148,0.7587918939443493,-0.00819398857507865,-0.5549376561411833,-0.006959707847373806,0.8318224683274914,0.002762611348044072,0.34743705759667826,-0.9594590517506694,-0.04281851590024715,0.4980348229869685,-1.054342693469064,-0.07711387752325466,0.7163380652439854,0.8801283306721961,-0.020068547890447607,0.6174024193371365,0.9633720788960994,0.0,0.0,0.0,0.0
0.0345737148103729,-0.004902808661122522,0.7596100370519828,-0.008396008607928836,-0.5550144627512732,-0.0068325087111680135,0.831770262753534,-0.00011682451096754217,0.34087396309533957,-0.9677061498846258,-0.044447649198610904,0.5025148971283269,-1.056629381535201,-0.07924111086708821,0.7231445738807143,0.8735536930215064,-0.027907075543515777,0.6111373337091615,0.9746857124922715,0.0,0.0,0.0,0.0
0.03527045414678247,-0.0044325519961102644,0.7603968811545908,-0.008580691181537406,-0.555084897208491,-0.006718198585512814,0.8317223060839788,-0.0029721558154538574,0.33416740681795143,-0.9759276377304886,-0.04579339621889872,0.5058446277316283,-1.0574254993953103,-0.08080656693104211,0.7291894572021782,0.8669125974073042,-0.035533065020682784,0.6046262193404979,0.9858613852646716,0.0,0.0,0.0,0.0
0.03576644474448265,-0.004055947230429814,0.7611529114284509,-0.008747634677539104,-0.5551498882772635,-0.006617915796426162,0.8316779927494784,-0.005799003398260729,0.3271327894753737,-0.9840051685510504,-0.04685401942815843,0.5082810200657084,-1.057126437733989,-0.08182196314499536,0.7345938740013435,0.8602122932680494,-0.042975077928439825,0.5978284928821549,0.9969546476976572,0.0,0.0,0.0,0.0
0.0361049898098847,-0.0037738192234398307,0.76187563248625,-0.00889661195013252,-0.5552109001857483,-0.006532352104060833,0.8316363598272555,-0.008573333756823308,0.31966700993712,-0.9918879894894961,-0.04763291290030315,0.5100521413252541,-1.05608708712884,-0.08231160199420187,0.7394577243665175,0.8534901669749545,-0.05024909413354681,0.5907678798136875,1.0079958086838527,0.0,0.0,0.0,0.0
0.03632255454668347,-0.0035872207820675504,0.7625591157589183,-0.00902741774135294,-0.5552691739399813,-0.006462058764214819,0.8315965921030831,-0.011265191904485399,0.3117351223211364,-0.9995471254741574,-0.048133101353636666,0.5113472167575843,-1.0546157903882407,-0.0822989157044089,0.7438450197667547,0.8468156232988235,-0.05736393330047359,0.5835203288866331,1.018976036915838,0.0,0.0,0.0,0.0
0.03644732093656452,-0.00349917904340221,0.7631924086597242,-0.009139531070731198,-0.5553249895797556,-0.00640769987459887,0.8315585164631341,-0.01384414616417808,0.30339885360592445,-1.0069260089626548,-0.04835215806533338,0.5123127003280025,-1.0529813524599738,-0.08179496018189855,0.7477673006963294,0.840302916597295,-0.06431282616486815,0.576214110345009,1.0298181391152617,0.0,0.0,0.0,0.0
0.036498179104775194,-0.0035161310784608754,0.7637567594983797,-0.009231600990739983,-0.5553770701179639,-0.00637027832944476,0.831523004543073,-0.01627812526999583,0.29489430373803643,-1.013876182715032,-0.048278384576517924,0.5130484548239505,-1.0514237580101011,-0.08079161993882675,0.751162397471111,0.8341378982203673,-0.07104631025855478,0.5690410559236732,1.040319262202051,0.0,0.0,0.0,0.0
0.03648332436645601,-0.003648429384933298,0.7642221037839304,-0.009300729572979649,-0.5554224520931801,-0.006351374881436962,0.8314920662142994,-0.018528349712291302,0.2867497320575835,-1.0200784111452479,-0.047889493663366395,0.5135987374395137,-1.050157160147819,-0.0792637114202181,0.7538696712513315,0.8286174747263915,-0.07741394438058871,0.5622860242851855,1.0500461316264316,0.0,0.0,0.0,0.0
0.036398332255571195,-0.003909060877134647,0.7645445695930606,-0.009341495024588264,-0.5554575545375401,-0.00635360564606473,0.831468143270189,-0.02054442488902495,0.27989251303269996,-1.0249704869445326,-0.047155238880008846,0.5139364263741263,-1.0493523753561802,-0.07718719680901848,0.7556143049067824,0.824187364134926,-0.08306735111657172,0.5563984678072231,1.0581575916455201,0.0,0.0,0.0,0.0
0.036225491279842564,-0.004310052103728467,0.7646700939876606,-0.00934522056788913,-0.55548147289675,-0.006381224475702254,0.8314519108734945,-0.022265990805486125,0.2756078537431197,-1.0277321221884168,-0.046044827628358626,0.5139519888897923,-1.0490901706959777,-0.07457340722787664,0.7560383714768432,0.8214240372176042,-0.08736451914862335,0.5521513633521321,1.0631310101017315,0.0,0.0,0.0,0.0
0.035939771184151474,-0.00485887906461584,0.7645559987739768,-0.00930301604148415,-0.5555022334072616,-0.006437515506648902,0.8314380800553808,-0.02363857967654775,0.27508212483370753,-1.0274280758392356,-0.04453790182270605,0.5134898510817709,-1.049290644882418,-0.07146046882467758,0.7548554826744625,0.8208145227315773,-0.08947715139875544,0.5508770557597631,1.0624965066330898,0.0,0.0,0.0,0.0
0.03551724223731619,-0.005566840435330987,0.7642000258223166,-0.009213365189900262,-0.5555205130332777,-0.006523250508712439,0.8314261967871364,-0.024638621832676372,0.2782812812349355,-1.024009340089289,-0.042601399127954825,0.5124388582580114,-1.0498001677747988,-0.06778267972408625,0.7519969930270157,0.8223420555808595,-0.08935863664522622,0.5525659200814111,1.0562665912327658,0.0,0.0,0.0,0.0
0.03493648811576232,-0.00644892614308102,0.7636406478629643,-0.009082354941415594,-0.5555287979674165,-0.006636604915279315,0.8314212054866016,-0.025284945391660308,0.2839662883217046,-1.0183459402299795,-0.04019058498694913,0.5107399407062645,-1.050404463872783,-0.06337559928338386,0.7476208235483397,0.8254731543883208,-0.0877543860917218,0.5558625390324282,1.0469164336120633,0.0,0.0,0.0,0.0
0.03417023678130641,-0.007514469053476832,0.7629287804353436,-0.008916651805955097,-0.5555266868765889,-0.006773890682876487,0.8314233024720368,-0.025615953650703318,0.2908053072719767,-1.011206380581972,-0.03727702029745524,0.5082947478472448,-1.050737718715076,-0.05810912897534329,0.7419683218646408,0.8295602561098827,-0.08524048149168324,0.5599588985194509,1.0359561032687035,0.0,0.0,0.0,0.0
0.033179054982659384,-0.008768738741328958,0.7621065110990652,-0.008720690582164946,-0.5555152015669829,-0.006931778857591317,0.8314317535586634,-0.025665585852298552,0.29782523188362847,-1.0031021137313705,-0.03384406284574496,0.5049227449476027,-1.0503356048189076,-0.05190878781280603,0.7352096443328914,0.8340710823364004,-0.08211435876073847,0.5643638949074069,1.0242009020935978,0.0,0.0,0.0,0.0
0.031913061987113876,-0.010213884545626382,0.7612034527252247,-0.008497550048789717,-0.5554944040532741,-0.007106651734847485,0.8314464830701889,-0.02545786085469037,0.30445641775594856,-0.9943144749796852,-0.02988697901743121,0.5003697459296261,-1.0486701808099554,-0.044743888110819106,0.7274192166376461,0.8386182462717464,-0.078492524379994,0.5687494369415027,1.0120469668732268,0.0,0.0,0.0,0.0
0.030316248891204222,-0.011847485640624917,0.7602393312316319,-0.008250479998530626,-0.5554626225613468,-0.007293598407547636,0.8314685850585902,-0.0250122453973731,0.3104256174386608,-0.9849808810194899,-0.025419063592060462,0.494327552834542,-1.0451658578679008,-0.03662610680511625,0.7186010529455198,0.8429259022236422,-0.07441023359981368,0.5728785015710783,0.9996505042197402,0.0,0.0,0.0,0.0
0.0283318385691024,-0.013659380335207099,0.7592279251322346,-0.007983819368607014,-0.5554170994007491,-0.007486296233276267,0.8314998855623826,-0.02435006361846289,0.3156375072563988,-0.9751831856034726,-0.020480339053629802,0.4864547641914113,-1.0392059788063432,-0.027627063967866905,0.7087309459479874,0.8467919799408093,-0.06988886875341074,0.5765717229647294,0.9870353056516409,0.0,0.0,0.0,0.0
0.025909222925126776,-0.015628148764302987,0.7581806051754854,-0.007703442400934786,-0.5553551782080733,-0.007677429179686039,0.8315421457111151,-0.023500553970634615,0.32009721413796405,-0.965013692146454,-0.015145980633929766,0.4764040643935292,-1.030149632227206,-0.01789902613859805,0.6978004465848375,0.8500610838516657,-0.06497733652516416,0.5796907106165773,0.9741565529989489,0.0,0.0,0.0,0.0
0.02301397635224372,-0.01771887033541669,0.7571087775667869,-0.00741750531374656,-0.5552747450018342,-0.007858429990623802,0.8315967672232446,-0.02251054149300694,0.3238826634314171,-0.9546108714213072,-0.009532234262619968,0.4638680478781422,-1.0173850857513487,-0.007673664424052871,0.685853036783971,0.8526077099973856,-0.059773851767920085,0.5821356747641016,0.9609454060797091,0.0,0.0,0.0,0.0
0.019643524963894862,-0.01988306525016392,0.7560239910034265,-0.0071356716982994475,-0.5551758549730317,-0.008021407087127987,0.8316636996242651,-0.021455112126138716,0.3271759301338344,-0.9441644872755717,-0.0037918152123265917,0.44865857390013797,-1.0004486009753801,0.0027395911745752635,0.6730214389905679,0.8543520373600954,-0.0544605755274684,0.5838737646817107,0.9473565217864607,0.0,0.0,0.0,0.0
0.015850982798573852,-0.02206280088687025,0.7549327343902104,-0.0068678198195795525,-0.5550611484667674,-0.008160940393694973,0.8317411577922362,-0.02045056765131765,0.3303350363267924,-0.9338900546280384,0.0019021863178617857,0.4308418422888346,-0.9792666936635638,0.012988308920198853,0.6595378352840597,0.8553304334327267,-0.04933351457884278,0.5850246689503511,0.933436465307353,0.0,0.0,0.0,0.0
0.011779295506864733,-0.024199814291725612,0.753816377489226,-0.006623031547896634,-0.5549262791562215,-0.008266839885654062,0.8318320861287162,-0.019681005130087158,0.33395021047679324,-0.9240100875644612,0.007366026389765438,0.410956793528252,-0.9546394745596188,0.022790572492705014,0.645623953650074,0.8558917942439569,-0.044739798507200605,0.5860423154713712,0.919417529360628,0.0,0.0,0.0,0.0
0.0076996720245451206,-0.026273066462122244,0.7526016155479749,-0.006396340459599968,-0.554702535518796,-0.008374958677344776,0.8319819973923093,-0.019609097925881957,0.3383698357336148,-0.9142463326784477,0.01261431606766619,0.3903728162490737,-0.9293520994366941,0.03184299877497806,0.6313466338467492,0.8568391759110806,-0.04124535412391987,0.5880541906954132,0.9052369466205582,0.0,0.0,0.0,0.0
0.004050439066598251,-0.028180997770237515,0.7513433699022936,-0.0061909216822320715,-0.5544030343227537,-0.00846322499395089,0.8321822647984933,-0.01988481234498726,0.3439276239863741,-0.9050954224074208,0.017352197117472223,0.3715099248595314,-0.9069085570263932,0.039820549860728985,0.6177946772810203,0.8583585935044628,-0.03951835780056742,0.5913415206819017,0.8912890012521367,0.0,0.0,0.0,0.0
0.0011327424030398393,-0.029711149163676565,0.7501927117997943,-0.006010370155707648,-0.5540774918153403,-0.008542944006725915,0.8323995594796473,-0.02063170246258337,0.3499605216711275,-0.8975897626314101,0.021117138479193658,0.3560242121716674,-0.8891348467661615,0.04578351832129626,0.6062871499292314,0.8603427036733098,-0.04070766742441605,0.5953920568532375,0.8774903129279639,0.0,0.0,0.0,0.0
-0.0006349435174459652,-0.030633861064910225,0.749374551389892,-0.005875203950198727,-0.553783460789351,-0.008606298715246622,0.8325955153357102,-0.021451734740802624,0.3543650445146077,-0.8929269756352781,0.023380005203385987,0.3463892545537117,-0.878831298034445,0.04898359733470254,0.5986606223276848,0.8622362189420602,-0.04438915448943858,0.5995792726361295,0.8643990144273814,0.0,0.0,0.0,0.0
-0.0006696180163798388,-0.030763536631499513,0.7493054032012221,-0.005768057471191525,-0.5537986820419456,-0.008582718591437945,0.8325863836402763,-0.021438259841882516,0.35437886470114843,-0.8929459674915339,0.023524240217423196,0.34620182556041285,-0.8787701046238285,0.04900812839867198,0.5985649255150897,0.8621505759009067,-0.044405920995845415,0.5996203392490205,0.8644119809191714,0.0,0.0,0.0,0.0
-0.0006696180163798388,-0.030763536631499513,0.7493054032012221,-0.005768057471191525,-0.5537986820419456,-0.008582718591437945,0.8325863836402763,-0.021438259841882516,0.35437886470114843,-0.8929459674915339,0.023524240217423196,0.34620182556041285,-0.8787701046238285,0.04900812839867198,0.5985649255150897,0.8621505759009067,-0.044405920995845415,0.5996203392490205,0.8644119809191714,0.0,0.0,0.0,0.0
-0.0006696180163798388,-0.030763536631499513,0.7493054032012221,-0.005768057471191525,-0.5537986820419456,-0.008582718591437945,0.8325863836402763,-0.021438259841882516,0.35437886470114843,-0.8929459674915339,0.023524240217423196,0.34620182556041285,-0.8787701046238285,0.04900812839867198,0.5985649255150897,0.8621505759009067,-0.044405920995845415,0.5996203392490205,0.8644119809191714,0.0,0.0,0.0,0.0
0.000167400900900204,-0.03099443131915795,0.7492669658089337,-0.005746428834747034,-0.5540797814594096,-0.008469276109169973,0.8324006521475861,-0.021233532511682036,0.35879547545765567,-0.8989053815576343,0.023773045789652194,0.35143383642333886,-0.8859787580449655,0.050612378662554205,0.6004358557645725,0.8630424502478169,-0.04327556889677732,0.6014850432389864,0.8674312940190696,0.0,0.0,0.0,0.0
0.001761676922028952,-0.031363267870787054,0.7491777995566107,-0.005726043245663533,-0.5543387036929514,-0.008412899520677482,0.8322289571616828,-0.020631471153046917,0.36755765403573915,-0.9120629627565222,0.024508046650886618,0.3615245037509558,-0.9015512505035735,0.05284473450278546,0.6034603739811308,0.864668753444809,-0.04188278663476147,0.6042874150292652,0.8719375456420003,0.0,0.0,0.0,0.0
0.004063041948701256,-0.03200380749010917,0.7490561206958258,-0.005678081528712619,-0.5546001638394422,-0.008433734424274246,0.8320548598398293,-0.01926910766630821,0.37997312228456664,-0.9309125744718292,0.02608140653907327,0.37619328938343577,-0.924882231495638,0.056161178273912836,0.6079170104730585,0.8662156188039507,-0.03975510325060617,0.6080497622322649,0.8781583988702122,0.0,0.0,0.0,0.0
0.007070856493024115,-0.03310075526771741,0.7491698317149281,-0.005560784215010847,-0.5549487418193895,-0.008577258745080292,0.8318217370713575,-0.016595744615922413,0.3957256020939127,-0.9531559194815559,0.029027624751951298,0.3956623204737437,-0.9549289597808036,0.06114826497272918,0.6158579109147955,0.8643242908442915,-0.03631292182314108,0.6144475587349995,0.8840948635276854,0.0,0.0,0.0,0.0
0.010975941597286806,-0.0350962511738407,0.750571854068124,-0.005249684978899395,-0.5558181308463922,-0.009049439889528747,0.8312380849478271,-0.011095274219798114,0.4157968583688689,-0.9732135625746342,0.03481308943832307,0.42222745085114183,-0.9894948923163237,0.06872258190383135,0.6355604838185016,0.8478037860954367,-0.030840735503656284,0.6303879237849619,0.8816544855366943,0.0,0.0,0.0,0.0
0.01424212562731625,-0.03688210206228846,0.7515989686783733,-0.005054273184182317,-0.5554573892667959,-0.00904887762266557,0.8314804031636974,-0.007062157847305971,0.4324109308489764,-0.9958138709015316,0.031326089551986964,0.3970790904277331,-0.9581239108953271,0.06058053892977754,0.6256602379276607,0.8729139984933724,-0.022747856611470597,0.6418564801361549,0.8782097192309036,0.0,0.0,0.0,0.0
0.017631382769186014,-0.03878529907143116,0.7526856367656666,-0.004851369201470603,-0.5552122344445533,-0.00912236401019307,0.8316445282780516,-0.002512083454596967,0.44921444008227834,-1.017507344222537,0.029160113552609213,0.37769073019046034,-0.9437466032848987,0.05482175730649102,0.6183374110592503,0.8933227957618697,-0.014169355164535383,0.6541940653261931,0.8746068336726036,0.0,0.0,0.0,0.0
0.020874900207689753,-0.04074310489483007,0.7538186493274935,-0.004603117611704811,-0.5551332743636922,-0.009276710188007327,0.8316969409890758,0.002400912541696776,0.4647969979188893,-1.0358713497475083,0.02792105069620903,0.3637603843182475,-0.9403445642308831,0.0529992300483024,0.6125197475401593,0.9106826722092832,-0.005609207546071198,0.6668918603414404,0.8706642445961499,0.0,0.0,0.0,0.0
0.023784794136358835,-0.04270417136746811,0.7549645023915079,-0.004329326872885646,-0.5551457627197057,-0.009467110652350584,0.831687929982803,0.007453186852598092,0.4783064200589779,-1.0502449681449169,0.027321693364671478,0.3534802953656008,-0.9428487517000442,0.05403166297230902,0.6074491571552189,0.9260672227415775,0.003004145243017113,0.6792972080850892,0.8663380110277781,0.0,0.0,0.0,0.0
0.026274778299572,-0.0446297765944908,0.7560941497627021,-0.0040508459219012844,-0.5551965045976897,-0.009665169032948345,0.8316531827855823,0.012481804157606354,0.48942340925518,-1.0606697962908447,0.02717419484695632,0.34544675068383746,-0.9484023464766466,0.0566808745591533,0.6027264040468077,0.9401464781899085,0.01167984020952031,0.6909580986595112,0.8617406986104414,0.0,0.0,0.0,0.0
0.028329454526410686,-0.04648738795607219,0.7571910950420027,-0.003781287721503286,-0.5552566406389395,-0.009855588346729553,0.8316120683755537,0.01736185872868258,0.4981819087002965,-1.0675297675508428,0.027319859782972425,0.33864189169029224,-0.9554299663646648,0.06009708030862956,0.5980910014504571,0.9533643332627956,0.020321682218605683,0.7016539368383654,0.8569648767658965,0.0,0.0,0.0,0.0
0.029977400773943702,-0.04825048162364992,0.7582485030421503,-0.0035281221008593633,-0.5553128990291755,-0.010031468868085333,0.8315735121795323,0.021999978718425094,0.5048219484159374,-1.071371697290333,0.027618164469601074,0.33236708834686735,-0.9630698721082384,0.06378393553430982,0.5933625758965643,0.9660276000566033,0.028774285945752695,0.7113360355624715,0.85204983218851,0.0,0.0,0.0,0.0
0.03127052176476975,-0.04989950836868991,0.7592645821872228,-0.003294913311982117,-0.5553606249632899,-0.010190565586048231,0.8315406617596562,0.026331878685018885,0.5096804157068695,-1.0727950009499565,0.02795113466632506,0.3261714490455476,-0.9708579406631277,0.067469383329151,0.5884271551353666,0.9783551975888732,0.03687590150586514,0.7200591843277311,0.8470031138113172,0.0,0.0,0.0,0.0
0.032269524384123796,-0.051422057824757963,0.7602392999751599,-0.0030829454678173414,-0.5553993899470517,-0.010332977554136518,0.8315138259034247,0.03031929375695574,0.5131178906842342,-1.072382565016342,0.028227043585097093,0.31977991342806517,-0.9785545249267008,0.0710068631499942,0.5832294483783741,0.9905048979645922,0.04449226684755563,0.7279278764184453,0.8418260591193781,0.0,0.0,0.0,0.0
0.03303461550093617,-0.05281197205510988,0.7611725262575454,-0.002892189715152753,-0.555430658870699,-0.010459817121794866,0.8314920388379502,0.03394501444901847,0.5154747236279619,-1.0706606542783281,0.0283801200933225,0.31303125548636707,-0.9860487171511448,0.07431884404298994,0.577765768765974,1.0025865763349349,0.05152989263896962,0.7350601793328028,0.8365307731727057,0.0,0.0,0.0,0.0
0.03362020868603004,-0.05406765354060807,0.762062891124031,-0.0027219117625711057,-0.555456417825515,-0.010572492449519732,0.8314739812502905,0.0372065469697293,0.5170485888568416,-1.0680826803861334,0.028366928267564488,0.3058357880420959,-0.9933014181644181,0.07736683428420378,0.5720792208473097,1.0146652801691198,0.057934032122246806,0.741563788049229,0.8311494692975974,0.0,0.0,0.0,0.0
0.03407242641760496,-0.05519001986752734,0.7629064809803277,-0.0025711756661133704,-0.5554783505137841,-0.010672215158569899,0.8314585347386776,0.040109297193481434,0.5180858497848836,-1.065030641756079,0.028160720142900327,0.2981639909589813,-1.0003024718020619,0.08013382139748455,0.566260079621556,1.0267532710281786,0.06367945305728738,0.7475180399916712,0.8257447961485939,0.0,0.0,0.0,0.0
0.034428211744278375,-0.05618045371355319,0.7636948485025785,-0.002439360089085142,-0.5554971572993866,-0.010759637064857087,0.8314452405088917,0.0426603104055834,0.5187800831823285,-1.0618282747387628,0.027744640486580437,0.2900774548495288,-1.007023814204625,0.08260607431402414,0.5604521019706199,1.0387846715198785,0.06875927919095873,0.7529560304891657,0.8204271156037546,0.0,0.0,0.0,0.0
0.03471491562817456,-0.05703910737641899,0.7644121416441243,-0.0023267500714424186,-0.5555119705639062,-0.010834578026535417,0.8314346929935614,0.04486350847227149,0.5192714224803572,-1.0587574836833467,0.027104069203451275,0.28181130798166354,-1.0133554195885863,0.08474103615034292,0.5548660172686437,1.0505598337944524,0.07317606214769701,0.7578430767263614,0.8153827457297494,0.0,0.0,0.0,0.0
0.03494937936695481,-0.057764050073603676,0.765031673592558,-0.002235308754730884,-0.5555200276681307,-0.010895785464445454,0.8314287606965994,0.04671749650557332,0.5196409938843556,-1.0560675170295217,0.02621836079659566,0.27390153917404747,-1.0190207068345298,0.08640642650675973,0.5498065823239504,1.061638982650394,0.07693987387122994,0.7620516651409995,0.8109124290338805,0.0,0.0,0.0,0.0
0.03513621683946439,-0.05835196432207671,0.7655135567538788,-0.002169578420336029,-0.5555172372351114,-0.010940732988289514,0.831430208992809,0.04821739406642096,0.5198983872605709,-1.0539640357827071,0.02505441452650595,0.2673054973713317,-1.0234883165150475,0.08728283671052235,0.5457356517815156,1.0711582210039339,0.0800780011601514,0.7653437807376943,0.807465674090562,0.0,0.0,0.0,0.0
0.03526701421267345,-0.05880098225132277,0.7658082540770033,-0.002136925086014479,-0.5555008252661287,-0.010965898582507443,0.8314409273953892,0.04936199038452002,0.5199729871840781,-1.0525677166843403,0.023568752699018664,0.26336719706587564,-1.0259301228468125,0.08676915222884206,0.5434185351841597,1.0775441498364926,0.08265273450362558,0.7673967377189082,0.8056182804276436,0.0,0.0,0.0,0.0
0.035326262526911206,-0.05911435810661201,0.7658773506286699,-0.002143601497428707,-0.5554766855679448,-0.010970375322303261,0.8314569788199258,0.05016553014878088,0.5197500127358506,-1.0518390931764265,0.021728930960151934,0.26333435473090727,-1.0253407011780638,0.08409277275530533,0.5441587622471149,1.0782398516038638,0.08473930935549265,0.7679542393825741,0.8058584757997939,0.0,0.0,0.0,0.0
0.03530125290694755,-0.059295576091661834,0.7657208352357672,-0.0021892929673858696,-0.555445639304169,-0.010953718176864493,0.8314778198078332,0.05063512260918821,0.5191569586908444,-1.0516626905818596,0.01955665177474426,0.26718747701008444,-1.0216875771539393,0.07928518443177165,0.5479221265457175,1.0732083460375728,0.08635644453985183,0.7669854973610188,0.8082082204270595,0.0,0.0,0.0,0.0
0.03518385223537365,-0.05934902221793023,0.7653782677162642,-0.0022670791276583127,-0.5554028122277563,-0.010916019714288091,0.8315067149670686,0.05077270710012522,0.5181727405192595,-1.0518581080693263,0.0171327627490634,0.27365824976023134,-1.0159478794979035,0.07316873159143948,0.5533510119995267,1.0649359477433555,0.08746775984336895,0.7646967013607757,0.8122054372636653,0.0,0.0,0.0,0.0
0.034961146245039994,-0.059285239047134244,0.7649025907948086,-0.002369189793318115,-0.5553509840724412,-0.010859891374060937,0.8315417813849392,0.050598283742933556,0.5167437346322136,-1.0520971333255669,0.014547065143674789,0.2813930633833543,-1.0089366182689694,0.06638183415140192,0.5596426505091557,1.054940160387215,0.0880564227138578,0.7613799852262869,0.8172695858172325,0.0,0.0,0.0,0.0
0.034608920825445734,-0.0591174409352168,0.7643391633696954,-0.0024908088802389487,-0.5552937123970512,-0.010787133822664424,0.8315806194154087,0.05013911465332761,0.5147444760307996,-1.0519714666447817,0.01187083522008476,0.28942924739998066,-1.0011702368595825,0.05927501245462374,0.566309671969306,1.0440429631941155,0.08814706612769857,0.7572575626566607,0.8229252191653078,0.0,0.0,0.0,0.0
0.034092728642075645,-0.05885935717664885,0.7637216889095159,-0.002629498093202762,-0.5552330906333159,-0.01069886363898595,0.8316218101531417,0.04942508332669355,0.5119860899655366,-1.0510317927418014,0.009156200751535639,0.2972309116483457,-0.992915739839713,0.05200926707813081,0.5730287532783409,1.0326532865211882,0.08778770677971816,0.7524521475367458,0.8288358137378494,0.0,0.0,0.0,0.0
0.03337096237165585,-0.05852532735533889,0.7630742655136596,-0.0027840577363659347,-0.5551694295883576,-0.010596021524697494,0.8316651235929678,0.048489488076079404,0.5082332546844666,-1.048803286515993,0.006443607819516653,0.3045695289678077,-0.9842888763695016,0.04465321574934362,0.5795723152583171,1.020951739772489,0.08704089973443266,0.7470063261682398,0.8347750300401895,0.0,0.0,0.0,0.0
0.03239828633499353,-0.05813155118719606,0.7624147517338693,-0.002953670616833677,-0.555101760539324,-0.010479791669954983,0.8317111789813725,0.04737253142687224,0.5032202710766489,-1.04479004781574,0.003765768657289583,0.3113968455105857,-0.9753459358492915,0.037239659429239215,0.5857759385081936,1.0090023535769073,0.08598506783165902,0.740914218037531,0.8405883844877322,0.0,0.0,0.0,0.0
0.03112995617878549,-0.05769737395848912,0.7617576324963472,-0.003137377701611238,-0.555028640694374,-0.010351893571347867,0.8317609050500032,0.046124817424685736,0.49667032605028627,-1.0384852625219712,0.0011454660291468884,0.3177637943891463,-0.9661521980345243,0.029789512857925776,0.5915199554254268,0.996820117272133,0.08471895220703052,0.73415337503408,0.846162277134862,0.0,0.0,0.0,0.0
0.029528407889811634,-0.057245666623446864,0.7611157735695173,-0.0033337887586676195,-0.5549491024812553,-0.010214717076929431,0.8318149067327418,0.0448083715756891,0.4883269060841077,-1.0294048377860399,-0.0014103565684670024,0.3237944866493713,-0.9568287986105795,0.02231593885639888,0.5967222600324076,0.984419318668147,0.08336247570974598,0.7267156201351894,0.8514040318030884,0.0,0.0,0.0,0.0
0.027573825668913768,-0.056801360990096215,0.7605007419647366,-0.003540982064850565,-0.554863793018021,-0.010071205843538654,0.8318727086859673,0.0434925464878698,0.4780088465511327,-1.0171648866538943,-0.003915223210580166,0.32970921939248304,-0.9475863907763165,0.014814116575271314,0.6013505118528755,0.9718644273143939,0.08204858010494674,0.7186386308888135,0.8562344230194707,0.0,0.0,0.0,0.0
0.02528060353114677,-0.05638717239497132,0.7599208758285386,-0.0037567109754421788,-0.5547764038966411,-0.009924264959462588,0.8319318107676689,0.04224207003389002,0.4657032385260774,-1.0016310229407035,-0.006399254547641709,0.33588665198467654,-0.9387571685496995,0.007228300352017488,0.6054714450674059,0.959344360378685,0.0809033750383548,0.7100376886401643,0.860601247055184,0.0,0.0,0.0,0.0
0.022721618164925583,-0.05601590636836864,0.7593743788443148,-0.003979394680748562,-0.5546949866365516,-0.009775178675508655,0.8319868280808973,0.04109542556767811,0.45171263066102235,-0.9831833099171466,-0.008887629471059331,0.34294531880475654,-0.9308419891078868,-0.0006373361958251066,0.609367292511045,0.9472866588542309,0.08001954004362334,0.7011248771448705,0.8645451587114487,0.0,0.0,0.0,0.0
0.020060412709676914,-0.05567969494469005,0.7588289824719676,-0.004210512452110799,-0.5546232418882253,-0.009620011948322871,0.8320353276829054,0.04003419116568088,0.4368689323114152,-0.9632040806036182,-0.011363642910017785,0.35173531755215853,-0.9245544519365145,-0.009350511270521318,0.6137480945454187,0.9364614724399349,0.07943227959724058,0.6921418366485502,0.8683880700808667,0.0,0.0,0.0,0.0
0.017732651516204324,-0.05527753340796775,0.7582287578035501,-0.004459809119022979,-0.5544984512097223,-0.009449925883831787,0.8321191480848348,0.03882101778686967,0.4238232504160051,-0.9464493945716018,-0.014193037001693122,0.36300187704780135,-0.9207077718914686,-0.020523716738886144,0.6201460694178839,0.9279144797481804,0.07872802449945523,0.6836531078257245,0.8723276976104767,0.0,0.0,0.0,0.0
0.015943887292054783,-0.05488897876060003,0.7576992603399106,-0.004708404740493076,-0.5544142671531203,-0.009276141682140778,0.8321758254704117,0.037654002104309456,0.41375718941313355,-0.9338162258335367,-0.016771065983495696,0.37719987524928006,-0.922160465074626,-0.03455995272880676,0.6280058388829259,0.9231132549890323,0.07831457335386945,0.6770039388050754,0.8757167109236027,0.0,0.0,0.0,0.0
0.014975445930404268,-0.0546109607856446,0.757398585774665,-0.004893714771666623,-0.5544244971057729,-0.009128645567490521,0.8321695718991697,0.0367798233248701,0.40830446925413066,-0.926892151390295,-0.018023390616312463,0.39335249859266497,-0.93290908481056,-0.04945920937158514,0.635315556527981,0.923133170288261,0.07831216816458807,0.6736752072496662,0.8775824583645493,0.0,0.0,0.0,0.0
0.014937795100442292,-0.0545247934915658,0.7573696521854234,-0.004986978585533061,-0.554437133305225,-0.009138277231943047,0.8321604936225365,0.03667713427077281,0.40818399880336304,-0.926855160826376,-0.018044658712468655,0.3933706165411808,-0.9329169569582265,-0.04945167305300026,0.6353418484462636,0.923142815735829,0.07830612275013513,0.6735998150610509,0.8775297590682499,0.0,0.0,0.0,0.0
0.014937795100442292,-0.0545247934915658,0.7573696521854234,-0.004986978585533061,-0.554437133305225,-0.009138277231943047,0.8321604936225365,0.03667713427077281,0.40818399880336304,-0.926855160826376,-0.018044658712468655,0.3933706165411808,-0.9329169569582265,-0.04945167305300026,0.6353418484462636,0.923142815735829,0.07830612275013513,0.6735998150610509,0.8775297590682499,0.0,0.0,0.0,0.0
0.015122904755882665,-0.05440657187647518,0.7572089321594543,-0.005162689753761181,-0.5542459177311165,-0.009031777663317898,0.8322879527574211,0.03632287906031688,0.40952506289872154,-0.9309564033619603,-0.018462323388868093,0.39415969007134444,-0.935276745087908,-0.04857271587375474,0.6339637459251243,0.9245978939408175,0.0791740385286826,0.6730618055196725,0.8784365290690652,0.0,0.0,0.0,0.0
0.015750655370195165,-0.05420699303630765,0.7570561867413674,-0.005279979655733608,-0.5541688671968868,-0.008957424057409272,0.8323393256351702,0.03579627389932636,0.41353694488591697,-0.9386651775316542,-0.01909075243482265,0.39726658475447446,-0.9408263218121745,-0.048893219895855516,0.6340229625344953,0.9268556891208078,0.07925145572841685,0.6737181834434507,0.8794620772985741,0.0,0.0,0.0,0.0
0.016926066518437238,-0.05384352220288929,0.756938698481031,-0.005362316083011037,-0.5542011198349512,-0.00889652672210449,0.8323179777898557,0.03487426591131463,0.4209703189772381,-0.951169486535981,-0.020168225302873162,0.40311735129075055,-0.9500365269083382,-0.05070358917217631,0.6358389429740341,0.929932077151013,0.07831232355089382,0.6760356938682379,0.8800637480892411,0.0,0.0,0.0,0.0
0.01873058585549308,-0.053163346152665304,0.7569886347951291,-0.005437150353832602,-0.5543725607007659,-0.008823126761612576,0.8322040938208931,0.033135292585977194,0.4325860878958979,-0.9691240838337881,-0.02211893258170914,0.4118940082667313,-0.9623243806036559,-0.054698084207614614,0.6403608501879346,0.9330794039791174,0.07573757764240487,0.6811438009661753,0.8784234613577787,0.0,0.0,0.0,0.0
0.02137276748881845,-0.0519264089581421,0.7579790466619601,-0.0055700225888599166,-0.5550051700901889,-0.008689051834032409,0.8317828661373986,0.029878397332029048,0.4503395156906056,-0.9911983116224969,-0.025597647142525225,0.4246916501348461,-0.97443027916838,-0.06200794927635965,0.6530419719915775,0.9303142795617256,0.0707695136780102,0.694967690661538,0.8665549211638315,0.0,0.0,0.0,0.0
0.02353168033186929,-0.0510746556516761,0.7588183729701978,-0.006184423525467276,-0.5547552623929011,-0.008251512479443439,0.831949676539899,0.027899255962714115,0.42155961250049184,-0.9575712069103641,-0.028451700479193983,0.43575051683724403,-0.9875732186639111,-0.06207749600906932,0.6605691300562282,0.9244618747681387,0.05181638652672595,0.6753357245851708,0.8873704924399576,0.0,0.0,0.0,0.0
0.026003749106414155,-0.05024031331992148,0.7598051126581069,-0.006688915325735441,-0.5545872878883449,-0.007899271876986046,0.8320611756525048,0.023795675740908365,0.3996515255360449,-0.9418592560447232,-0.031198040068282716,0.4485549475661124,-1.0026374869072046,-0.06324143780144578,0.6701857375463706,0.9173977393884386,0.03467358702907181,0.6601050870405719,0.9034362547832607,0.0,0.0,0.0,0.0
0.028444413730661637,-0.04940270608589363,0.7608163894788716,-0.007075321381021493,-0.5545635121507938,-0.007647031787271833,0.8320761826438586,0.01943816329698965,0.38392311745008595,-0.9377460776020461,-0.033822866245119314,0.46097222738238075,-1.016486717538828,-0.0657597156922411,0.6806823541160995,0.9103597742231438,0.021187500516187285,0.6489956135359113,0.9174094663714824,0.0,0.0,0.0,0.0
0.03066812166272519,-0.048589721146803336,0.7617918680549445,-0.007385435586866566,-0.5546127178326105,-0.007452000465757727,0.8320424606043708,0.015554690507498121,0.37235076978059845,-0.9400012537888748,-0.03630142395598144,0.47207411742353034,-1.028188238736601,-0.06892466168131343,0.6909779569892728,0.9035682381855195,0.010343675392267274,0.6405731565266057,0.9303372972960139,0.0,0.0,0.0,0.0
0.03258090581774686,-0.047823214508914226,0.7627171107334352,-0.007651303155469299,-0.5546920850320659,-0.00728523853992548,0.8319886259211834,0.012182923301651542,0.36338969826213313,-0.9456065139179823,-0.038604824469059607,0.4814605852608097,-1.0373574053504053,-0.07218138139662318,0.7005264679431815,0.8969859087106856,0.00101280590776749,0.6336431618856163,0.9426504435580629,0.0,0.0,0.0,0.0
0.034153597574203456,-0.04712022306400381,0.7635961977513329,-0.007889867650961778,-0.5547792472011138,-0.0071338718605759984,0.8319295912129179,0.009149531593543526,0.3559154089281775,-0.9528793611657885,-0.040696887433999386,0.48907029597706336,-1.0440004137353112,-0.07518418755407123,0.7091290457185364,0.8905041797496992,-0.007507324043899893,0.627389792842233,0.9545545309974942,0.0,0.0,0.0,0.0
0.03539846746435363,-0.04649349157871489,0.7644371315967575,-0.00810822713570504,-0.5548637568772716,-0.0069941986743064875,0.8318723154076352,0.006282060660462296,0.3491447454772482,-0.9608975787882029,-0.04254458094357401,0.49503784026097875,-1.0483663861490535,-0.07774375449707964,0.7167775637227097,0.884024864270986,-0.015574117228327158,0.6213110223604502,0.9661711359375906,0.0,0.0,0.0,0.0
0.03635103456356635,-0.04595170850420164,0.7652460771682735,-0.008308550176867565,-0.5549417608234288,-0.006866400955288625,0.8318193689894892,0.0034749824363257418,0.3425631141073105,-0.9691648395293923,-0.04412480654484065,0.4995946502149563,-1.0508273287703735,-0.07977349184941263,0.723556100422957,0.8774872762231275,-0.02335062425150981,0.6151258083893784,0.9775883400846663,0.0,0.0,0.0,0.0
0.03705686543271839,-0.04549992505071622,0.7660259435844419,-0.008491182016837897,-0.5550127706179273,-0.0067515670541380265,0.831771086670655,0.000688360871742504,0.33585062709267516,-0.9774225998839373,-0.045426309971741,0.5030038257421111,-1.0517927714530406,-0.0812480366151301,0.729581823457698,0.8708702701510196,-0.030907202084394732,0.6086981505646257,0.9888759782137004,0.0,0.0,0.0,0.0
0.03756280015624471,-0.04514035808877594,0.7667766036030562,-0.008655972611580064,-0.5550779602483776,-0.006650769131003434,0.8317266975723541,-0.0020745655379672536,0.3288171309741209,-0.9855450989616,-0.04644724679407823,0.5055204022024244,-1.0516564878545975,-0.08217778874209049,0.7349725781655617,0.8641865558131936,-0.038276758914293024,0.6019862218678395,1.0000864791551234,0.0,0.0,0.0,0.0
0.03791162574755058,-0.0448737273131391,0.7674951051644878,-0.00880284974462421,-0.5551389503364933,-0.00656469370429542,0.8316851329994055,-0.004790030670024819,0.321355732248951,-0.9934769238386714,-0.04719101480183594,0.5073698406337177,-1.0507706801917294,-0.08258713025164033,0.7398256062207833,0.8574775981654498,-0.045477366940663955,0.5950129267306278,1.011248379324993,0.0,0.0,0.0,0.0
0.038139246192908045,-0.04470088509525958,0.7681751960094638,-0.008931685905534177,-0.5551970922399736,-0.006493945005483137,0.8316455028637075,-0.007427978976818249,0.31342894074126226,-1.0011860085652189,-0.04766078642826505,0.5087383069929875,-1.0494400410189881,-0.08250085406497425,0.744202931346396,0.8508158759072518,-0.05251935330946352,0.5878533609033972,1.0223514219334162,0.0,0.0,0.0,0.0
0.038273244618137046,-0.044624565940138375,0.7688057217730152,-0.009042055190497604,-0.5552527086895821,-0.006439174248864468,0.831607604442027,-0.009958257465617775,0.3050965096422819,-1.008613406789116,-0.047854642666307554,0.5097688264757156,-1.047928696154095,-0.08193115858309029,0.7481142758593865,0.8443175697852574,-0.05939698254080944,0.5806342273646279,1.0333165236282877,0.0,0.0,0.0,0.0
0.03833188823309136,-0.04465079357801148,0.7693678925267365,-0.00913268100567552,-0.5553046218141768,-0.006401402844236035,0.8315722417030816,-0.012349854671833046,0.29659353720957926,-1.0156083227211177,-0.04776163183738547,0.5105574698184329,-1.046470383947753,-0.08087197663600575,0.7514967761354414,0.8381692376971541,-0.06606277310665389,0.5735444291546699,1.0439375105319324,0.0,0.0,0.0,0.0
0.03832272334479927,-0.04478941432401751,0.7698318069378663,-0.009200769765230989,-0.5553500295835064,-0.006382208873500043,0.8315413146003154,-0.014566393534018594,0.2884483768009124,-1.0218486822097463,-0.04736046401265299,0.5111444507265867,-1.0452712953376813,-0.07930026047321655,0.7541904029938937,0.8326665259009287,-0.0723700049650858,0.5668636410109607,1.0537751962907242,0.0,0.0,0.0,0.0
0.03824068302504265,-0.045052893020847175,0.770153978672733,-0.00924105404734964,-0.555385540089331,-0.006384169302473634,0.831517135819878,-0.016561352768204064,0.2815898789228193,-1.026768680104872,-0.046621982987839455,0.5114987319675565,-1.0444931997265279,-0.07719358755521441,0.755922476019242,0.8282511258773146,-0.0779770481851627,0.5610333231758187,1.061978590783817,0.0,0.0,0.0,0.0
0.03806752352675811,-0.0454528444599576,0.7702808841933605,-0.009245037042095504,-0.5554103274198299,-0.006411483691402324,0.831500324932205,-0.018278950900769923,0.27730582904463175,-1.0295440141433823,-0.045516288907059436,0.5115077827340855,-1.0442089597487512,-0.07456407518457135,0.756338367283097,0.825492730057019,-0.08225174670031925,0.55681653659202,1.067010411932921,0.0,0.0,0.0,0.0
0.03777801786969932,-0.045996580927372216,0.7701702998057675,-0.009203928480839459,-0.5554321596643513,-0.006467427822650651,0.8314857642127572,-0.019667888744249712,0.27678445308794825,-1.0292364425591694,-0.04402342301651177,0.511015193858698,-1.0443361563940996,-0.07144995808404861,0.7551543975540728,0.8248713399562461,-0.08437377221682983,0.5555377471513843,1.0663839189534376,0.0,0.0,0.0,0.0
0.03734872081846105,-0.046695463493033204,0.7698200498128832,-0.009116085180152306,-0.5554517454591338,-0.00655288716914583,0.8314729791924319,-0.020703991056388316,0.27999259508838564,-1.0257977383605759,-0.04211026536293775,0.5099124253985675,-1.0447247942575832,-0.0677865373034618,0.7523035462905223,0.8263700928386545,-0.08429699612773392,0.5571880560683828,1.0601114894118318,0.0,0.0,0.0,0.0
0.03675931165161262,-0.04756482235601345,0.7692682745742033,-0.008987460876715519,-0.5554616797978529,-0.006665928431182972,0.831466844330721,-0.02140257281036023,0.2856898354165086,-1.0201023183046234,-0.039732013308866006,0.5081462948019463,-1.045170464238242,-0.06340705746176233,0.7479421259978323,0.8294618555054108,-0.08275779430251687,0.5604209866126599,1.0506852091032473,0.0,0.0,0.0,0.0
0.035983906002551275,-0.04861456714163733,0.7685654199577246,-0.00882441996576539,-0.5554615091993954,-0.0068029528935130345,0.8314675948238309,-0.021797187624284908,0.2925428277025955,-1.0129239963551213,-0.03685932982340624,0.5056259618390292,-1.0453215983664408,-0.05818001728593001,0.7423096312997429,0.8335066078823036,-0.08032262423043987,0.5644395332802207,1.0396302331850145,0.0,0.0,0.0,0.0
0.03498450753313656,-0.049850764424349894,0.7677531988212046,-0.008631106941066459,-0.5554521049738559,-0.006960698530642557,0.8314746007840828,-0.02191771859494665,0.2995780731732748,-1.0047790456485153,-0.03347410989502427,0.502178956576482,-1.0447290288947524,-0.052027916844020757,0.7355750203110127,0.8379771806329003,-0.07728211116357271,0.5687616722647157,1.0277723906956466,0.0,0.0,0.0,0.0
0.03371260712302735,-0.051276579639320474,0.7668610284462959,-0.008410408307870801,-0.5554332506719354,-0.007135437278663891,0.8314879762299296,-0.021785467110258794,0.30622651981963134,-0.9959528949415398,-0.029569804936986105,0.4975592308258024,-1.0428796561355593,-0.04491382087187038,0.727811915316086,0.8424875519800953,-0.07374756637340803,0.5730657331230649,1.015514593235664,0.0,0.0,0.0,0.0
0.03211349185636522,-0.052890736284698786,0.7659086090115738,-0.008165219247874066,-0.5554031310599337,-0.007322361543495209,0.831508914098269,-0.021417271564007755,0.31221771765869116,-0.9865869413470837,-0.02515703574390768,0.4914663969072708,-1.0392116274712873,-0.03684484973331928,0.7190256143166325,0.8467612293198418,-0.06975217202747397,0.5771196943759767,1.0030173572261851,0.0,0.0,0.0,0.0
0.030131538982451446,-0.05468436148783062,0.7649098757758996,-0.00789934951634749,-0.5553588746835031,-0.007515438140566792,0.8315393188400937,-0.02083085778899499,0.3174610473208409,-0.9767675756471661,-0.020272289044839006,0.48356634225497974,-1.0331211130520588,-0.02788955722513422,0.7091948101282936,0.8505931952811159,-0.06531801477118422,0.5807484778791971,0.990307458740336,0.0,0.0,0.0,0.0
0.027716872915336414,-0.056637689614115395,0.7638766153235107,-0.007618846089566645,-0.555296626659851,-0.007706420652317691,0.8315817582686522,-0.020052188949001407,0.3219627735967996,-0.9665925230529262,-0.014988315347482496,0.4735183911848485,-1.0239807682057995,-0.018183774559048578,0.6983086715353775,0.8538166470588043,-0.060485892535771114,0.5838167139507047,0.9773422880324407,0.0,0.0,0.0,0.0
0.024835517058541333,-0.058716996215940176,0.7628208542513442,-0.007330895569460806,-0.5552142630293108,-0.007887588426558718,0.8316376410719889,-0.019119734863077706,0.3258096146299932,-0.9562098172622493,-0.009416684375786102,0.4610188433257635,-1.0111860472271612,-0.007965058527578171,0.6864178302225434,0.8562987894827636,-0.05535861906472762,0.5862288377080528,0.9640553483649748,0.0,0.0,0.0,0.0
0.021484438131919702,-0.06087488784041932,0.7617553718853065,-0.007044853431419454,-0.555110958181669,-0.008050879534455558,0.8317075071715301,-0.018099688623778223,0.3291896157768254,-0.9458224083915755,-0.003707381462240418,0.44587986314873934,-0.9942748193774582,0.002460009254870667,0.6736595379954547,0.8579419474773433,-0.050111715683192636,0.5879530524499429,0.9504042168791983,0.0,0.0,0.0,0.0
0.017715248058499014,-0.06305385360371625,0.7606889095021176,-0.00677023854081594,-0.5549889646204419,-0.008191044433526326,0.831789829109925,-0.0170981205508303,0.3324699357413814,-0.9356634065119245,0.0019683260489205615,0.42816285821500183,-0.9731617068049964,0.01273423944048242,0.6602782023880643,0.8587553119508021,-0.045027620097902135,0.5891059887680186,0.9364415759281273,0.0,0.0,0.0,0.0
0.013668250119221632,-0.06519550999539421,0.7596068780561686,-0.0065163288678237435,-0.5548436070542757,-0.008297400663012289,0.8318877702619051,-0.016292394944393218,0.33625293136466555,-0.9259783368029468,0.007425898391255649,0.4083987968624657,-0.9486209812382259,0.0225743655544791,0.6465170969287676,0.8590383632080913,-0.04040742496447028,0.590135480765099,0.9224118073811163,0.0,0.0,0.0,0.0
0.00959323867276211,-0.06727137885755095,0.7584449508276037,-0.006278769642970458,-0.554616663753833,-0.008409307725779856,0.8320397928476206,-0.016218712116282077,0.340925169367654,-0.9165427597305144,0.012670887563918135,0.38782733654410206,-0.923148163534744,0.03161910462970205,0.632487424091364,0.8595394703493388,-0.036798957090568796,0.5921232729189696,0.9082737529388157,0.0,0.0,0.0,0.0
0.005949887161882144,-0.06918848387274648,0.7572524670365122,-0.0060611344480004554,-0.5543166422927029,-0.008504947707091424,0.8322403430446319,-0.016475842193828288,0.34686517915384457,-0.9078275302637151,0.0174290127000177,0.3690080070033944,-0.900516430329416,0.039591502135856035,0.6192920585236762,0.8604560493119855,-0.034695796792904555,0.5954378748516918,0.8945048579375026,0.0,0.0,0.0,0.0
0.0030404928505370276,-0.07073321003052013,0.7561794350059073,-0.005867054861230015,-0.5539974294295772,-0.008599501117782916,0.832453286637275,-0.01720764779201809,0.3535040232757683,-0.9009768667023739,0.02124447364354693,0.35360398181053276,-0.8825549973890723,0.04552541779505305,0.6082654923763444,0.8617093300914426,-0.03517901395466316,0.5995543907003298,0.881126893703304,0.0,0.0,0.0,0.0
0.001285677447339529,-0.07167193559512873,0.7554361636776329,-0.00572084418752558,-0.5537150172024181,-0.00868375173246244,0.8326413057986956,-0.01803924370689798,0.3588030019340502,-0.89738040598249,0.023579650292906398,0.34409390566807657,-0.8721336048747426,0.04867863692290726,0.6011531709998862,0.862897567437027,-0.03797455723266593,0.6037705623335932,0.8687510843001849,0.0,0.0,0.0,0.0
0.0012505910760261744,-0.07180238928966955,0.7553674292392673,-0.005612895832322223,-0.5537298551699711,-0.008660482764241488,0.8326324152542396,-0.018025331453753093,0.35881690402179295,-0.8973999887537782,0.023724716688060248,0.34390525361422347,-0.8720726751756452,0.0487029465089981,0.6010582446271139,0.8628117620817528,-0.03799085674138905,0.6038119452458481,0.8687643049440816,0.0,0.0,0.0,0.0
0.0012505910760261744,-0.07180238928966955,0.7553674292392673,-0.005612895832322223,-0.5537298551699711,-0.008660482764241488,0.8326324152542396,-0.018025331453753093,0.35881690402179295,-0.8973999887537782,0.023724716688060248,0.34390525361422347,-0.8720726751756452,0.0487029465089981,0.6010582446271139,0.8628117620817528,-0.03799085674138905,0.6038119452458481,0.8687643049440816,0.0,0.0,0.0,0.0
0.0012505910760261744,-0.07180238928966955,0.7553674292392673,-0.005612895832322223,-0.5537298551699711,-0.008660482764241488,0.8326324152542396,-0.018025331453753093,0.35881690402179295,-0.8973999887537782,0.023724716688060248,0.34390525361422347,-0.8720726751756452,0.0487029465089981,0.6010582446271139,0.8628117620817528,-0.03799085674138905,0.6038119452458481,0.8687643049440816,0.0,0.0,0.0,0.0
0.0020746648769265335,-0.07201020143979579,0.7553291955780922,-0.005598903008727807,-0.5540101097894065,-0.00854452027442341,0.8324472606174571,-0.017869856027647527,0.36317519310049046,-0.9032822582983875,0.02391758419834739,0.3490363534363872,-0.8790999640170941,0.05024868342206215,0.6028941815519402,0.8637474326737776,-0.03686436322004814,0.6057357783869709,0.871614378859813,0.0,0.0,0.0,0.0
0.0036458183060098163,-0.0723264699305861,0.7552470183341592,-0.005587430151272171,-0.5542687441980663,-0.008481529385698844,0.8322757977309461,-0.017390295198922136,0.37185143832440676,-0.9162966508864738,0.024515778639284357,0.35894715281679707,-0.8943140249481569,0.052296744948013,0.6058955485150191,0.8654292498526851,-0.03557408479211737,0.6086739091209082,0.8757231607593754,0.0,0.0,0.0,0.0
0.005911705876284482,-0.07290758408854242,0.7551231800673703,-0.0055460969658395615,-0.5545306833198863,-0.008498644502622107,0.8321013971306883,-0.016156712906294925,0.3840942720167832,-0.9348810776230224,0.025937666720192126,0.37337840241896886,-0.9172351529840876,0.05536828479462906,0.6102679725966224,0.8671312227024571,-0.033579648998091696,0.612522013347869,0.8815654298202207,0.0,0.0,0.0,0.0
0.008872829371512365,-0.07393682579478013,0.7552272542138803,-0.005433354601222912,-0.5548781662029117,-0.008641527730234765,0.8318689940895493,-0.013623705990918718,0.39960631081843545,-0.9567762826173745,0.028711907714374853,0.39255644605239803,-0.9468349861983519,0.06003995288076264,0.6180666897084524,0.8654839722430623,-0.030303919361524358,0.6189591669581408,0.8871163878931076,0.0,0.0,0.0,0.0
0.012717731754104695,-0.0758477890610605,0.756591156928303,-0.005121107569524194,-0.5557417791035072,-0.009120867834260015,0.8312891548589335,-0.008294000553616922,0.4193521506356699,-0.9764709092126589,0.03428652509079207,0.4187092955172278,-0.9809236904619247,0.0671385137130854,0.6374331888967693,0.8495550557130171,-0.02510467258593204,0.6347479315437835,0.8844378973616392,0.0,0.0,0.0,0.0
0.015958128665899365,-0.07755655416708983,0.7576017970634059,-0.004937222038051818,-0.5553843102770376,-0.009119130333685336,0.8315291535470078,-0.004422780950458658,0.43586683431921946,-0.9989709091624871,0.030935816370719172,0.3948502132852227,-0.9517989505102195,0.05906768234004377,0.6275592524475911,0.8745153042742098,-0.01719989931724316,0.6462338006901752,0.8807030817134714,0.0,0.0,0.0,0.0
0.019302173750051065,-0.07938567184198925,0.758675486753866,-0.0047400702445151745,-0.5551476342206134,-0.009195774775237489,0.8316874855855511,-2.295362536113097e-05,0.45246069694329477,-1.0203382231484768,0.02879197560124098,0.37622919015544776,-0.9387874973752922,0.05332889699232201,0.6201528486721352,0.8948410849821137,-0.008839086086959536,0.6585690509463457,0.8767812905146096,0.0,0.0,0.0,0.0
0.022491228579051423,-0.08127331448715001,0.7597944604347303,-0.004495739217755925,-0.5550743457034866,-0.009352919512817633,0.8317360049723224,0.004742602762256018,0.4677906151921133,-1.0383326792471306,0.02751658098017612,0.3626984219157711,-0.9361369663214779,0.05145360305595673,0.6142322145833138,0.9121500387102617,-0.0004932391232975522,0.6712205898404785,0.8725485027285333,0.0,0.0,0.0,0.0
0.02534556365806239,-0.08316955326481894,0.7609251262123832,-0.004225742496827606,-0.5550889118938622,-0.009545507788565558,0.8317255113761371,0.009654194597959718,0.4810480777863638,-1.05236949381882,0.026850482226211028,0.3526131606577615,-0.9390330471759917,0.05237842598520081,0.609075268424244,0.9275147631640217,0.007919747528330703,0.6835436467751711,0.8679804157493702,0.0,0.0,0.0,0.0
0.027783235828800018,-0.08503651981922208,0.7620399126624748,-0.003951245936985251,-0.555139184292801,-0.009745030787672661,0.8316909931538373,0.01455171400805752,0.4919338349391703,-1.0625091448549204,0.02662399803207206,0.344664868446604,-0.9447691272950355,0.054893723163824834,0.6042891980347633,0.9415989598834185,0.016413864345930198,0.6951047572620854,0.8631846841856923,0.0,0.0,0.0,0.0
0.029790931787324046,-0.08684225936333635,0.763123464598947,-0.003685623760708164,-0.5551977679783022,-0.009936340472938558,0.8316508424497697,0.019312801932802867,0.5004893005289913,-1.0691322865512458,0.026690307693403605,0.33788921787936044,-0.9518589681578584,0.058171173707154925,0.5996104424418717,0.954838941854229,0.024894719216206056,0.705698809532775,0.8582460206283976,0.0,0.0,0.0,0.0
0.03139803507775507,-0.08856045461973433,0.7641694465081402,-0.003436259298318053,-0.5552521177494009,-0.010112611024307005,0.8316134997431868,0.02384561748130685,0.5069559932102712,-1.072779811291681,0.026914901141369744,0.3316167432701847,-0.9594955965810482,0.06172721201679205,0.5948521108042859,0.9675348045692895,0.033209454831833206,0.7152864104107434,0.8531967159791051,0.0,0.0,0.0,0.0
0.03265654927714135,-0.09017133536078531,0.7651762502270463,-0.003206555344723046,-0.5552979013546916,-0.010271831806914192,0.8315818950802302,0.02808650432297037,0.511669747186794,-1.0740448130534601,0.02718240709680178,0.3254123560708287,-0.96724731430944,0.06529417139337453,0.5898956863218795,0.9799004812399187,0.04119558320565986,0.7239272173810091,0.8480372159398862,0.0,0.0,0.0,0.0
0.03362689257549973,-0.09166201355429592,0.766143755705804,-0.0029976697562553176,-0.55533490103083,-0.010414297222669235,0.831556194184415,0.0319969469989667,0.5149887719239893,-1.0735041989951084,0.02740172224924041,0.31900995053208847,-0.9748933492285288,0.06872648899696247,0.5846836111248579,0.9920907424024438,0.04871698830851813,0.7317277274954969,0.8427638038549629,0.0,0.0,0.0,0.0
0.03436877571127774,-0.09302570972650225,0.767071584874555,-0.0028094981795600397,-0.5553646731450845,-0.010541267380240893,0.8315353679937196,0.03555889685531079,0.5172505142528343,-1.0716793018023922,0.027506747563314404,0.31225321282499513,-0.9823335301938747,0.07194601384652798,0.5792113207844581,1.0042138077843854,0.05567779238983993,0.7388059961863602,0.8373851992961616,0.0,0.0,0.0,0.0
0.03493602966472043,-0.0942601643800939,0.7679580377822398,-0.002641291717020791,-0.5553892077510298,-0.010654228336104198,0.831518092954273,0.03876868347042664,0.5187496467062861,-1.0690197365322691,0.027453324065741833,0.3050548814866734,-0.9895347683768151,0.07491315517101788,0.5735216181198682,1.0163338663855523,0.062021016262036814,0.7452685033628683,0.8319316431917093,0.0,0.0,0.0,0.0
0.03537418826383629,-0.09536566803863367,0.7687988605803625,-0.0024921374678886585,-0.5554101786338294,-0.01075441326938115,0.8315032563472077,0.04163043324922755,0.519729691839192,-1.0659044197199325,0.027213965542546962,0.29738630341756644,-0.996490193988915,0.0776097680243501,0.567704689425647,1.0284626932974017,0.06771957617888388,0.751192936835695,0.8264648460024,0.0,0.0,0.0,0.0
0.03571964382159907,-0.0963430481538115,0.7695853201034805,-0.0023614467964599792,-0.5554282714865962,-0.010842471358745191,0.8314904086141187,0.04414998246501254,0.5203817165976936,-1.0626544966427007,0.026771277013352857,0.2893087780299824,-1.003173525523155,0.08002096836162048,0.5619040467771391,1.040533886118816,0.07276498555867864,0.7566107807504353,0.8210945815764209,0.0,0.0,0.0,0.0
0.03599925030368559,-0.09719199599614713,0.7703013516282972,-0.002249544917438969,-0.5554425847781552,-0.010918197577994688,0.8314801666451667,0.046330200038097534,0.5208437035504676,-1.059549734024718,0.02611037780352061,0.281056148655045,-1.009475835248679,0.08210332599257811,0.5563295792515282,1.0523467978068537,0.07715854994497345,0.7614859618946479,0.816006668190691,0.0,0.0,0.0,0.0
0.03622939907075629,-0.09791022787369012,0.7709201127743873,-0.0021584431572950545,-0.5554503036478909,-0.01098028185963057,0.831474434189582,0.04816882552796426,0.5211948870355302,-1.0568375877950287,0.025210709152793085,0.2731621988310271,-1.015121355533013,0.08372466023264621,0.5512842123431184,1.0634596404458712,0.08090968365573042,0.7656897839546042,0.8115016165528182,0.0,0.0,0.0,0.0
0.03641428248970454,-0.09849417965308191,0.7714015944274578,-0.002092726217756395,-0.5554472480762503,-0.011026113553677405,0.8314760368894579,0.049660306970980415,0.5214430992360174,-1.0547222320452287,0.024039646755920394,0.26658108839144773,-1.019579166422875,0.08456753296672787,0.54722662241123,1.0730047852539106,0.08404561935519227,0.7689830726205329,0.8080291305473777,0.0,0.0,0.0,0.0
0.03654509484691708,-0.09894183509020468,0.7716961452605857,-0.0020597714194890236,-0.5554304760952842,-0.011052092483993534,0.8314869781409633,0.05080298425466384,0.5215160815984772,-1.05332336675033,0.02255448866575128,0.26265248285285364,-1.0220205889400935,0.084035195056664,0.5449177176660718,1.0794027364939522,0.0866290149596103,0.7710417312676526,0.8061656546912278,0.0,0.0,0.0,0.0
0.036606056881276904,-0.09925641187700093,0.7717652416563798,-0.002065785308512833,-0.5554056508952289,-0.011057308107178025,0.8315034764943134,0.05161099710986131,0.5212978593842702,-1.0526013202218132,0.020723559283602797,0.262618801217859,-1.021437543907599,0.0813598022033815,0.5456573538256366,1.080088891333667,0.08873544209493461,0.7716079490811739,0.8064001999688881,0.0,0.0,0.0,0.0
0.03658458309255401,-0.0994415798581044,0.7716089340296308,-0.002110429600194517,-0.5553735929281259,-0.01104134129976712,0.8315249888892751,0.052091928024417,0.5207163107104967,-1.0524408533680762,0.018568766683994077,0.26646081425795215,-1.017797956192068,0.0765731444404155,0.5494113107645023,1.0750265848270744,0.09038454986258555,0.7706513488999333,0.8087549953902211,0.0,0.0,0.0,0.0
0.03647304284622432,-0.09950212467977645,0.7712670152436497,-0.002186786912949228,-0.5553296460460418,-0.011004333612613085,0.831554632496938,0.052248737834736325,0.5197522362602539,-1.052662184984249,0.01617057988174484,0.2729158508273774,-1.0120821625263408,0.07049325565283965,0.5548257411058677,1.0667102186135498,0.09154153777383887,0.7683804716210187,0.8127675502145101,0.0,0.0,0.0,0.0
0.03625911091779404,-0.09944907651670694,0.7707926687956067,-0.0022870506461584814,-0.5552767316429319,-0.010948990802744562,0.8315904282131239,0.0521026794587364,0.5183542040814318,-1.0529384172928387,0.013618395852497706,0.28063484218098456,-1.0051060108308878,0.06375460309664392,0.5611023764518197,1.05666357931708,0.09219132135782009,0.7650897212292851,0.8178568267519409,0.0,0.0,0.0,0.0
0.0359191317470187,-0.09929618784577646,0.770231503602757,-0.0024063479256126274,-0.5552184517590293,-0.010877195446157327,0.8316299459105554,0.05168232334193354,0.5163988585344278,-1.0528629475010018,0.010983415021483839,0.2886583869261113,-0.9973854951857002,0.05670607140759808,0.5677570952552509,1.0457124658045756,0.09236055330436171,0.761003176988835,0.8235470932427708,0.0,0.0,0.0,0.0
0.035419152398018884,-0.09905775786491033,0.7696174926761835,-0.002542180356386396,-0.5551568859807338,-0.010790112181807142,0.8316717758504939,0.05101882992069973,0.5136992544383482,-1.0519882506236804,0.008318115818687782,0.2964527601746893,-0.9891863584505258,0.0495086572731293,0.5744685558903995,1.0342679540522264,0.09209939321854725,0.7562450361092377,0.8295018268301808,0.0,0.0,0.0,0.0
0.03471797673973294,-0.09874870217747483,0.7689750101259436,-0.0026932908334502646,-0.5550922930705856,-0.010688691435725975,0.831715723209269,0.050146657118484574,0.5100217665827305,-1.0498413077103033,0.005663645027789991,0.30379057379539526,-0.9806221966750025,0.04223154422367756,0.5810104385505768,1.0225119672665655,0.09147244196418756,0.7508588731999432,0.8354950775888119,0.0,0.0,0.0,0.0
0.033770559156393036,-0.09838575644161238,0.7683221629421886,-0.002858807125385895,-0.5550236036911241,-0.01057409821569538,0.8317624751180247,0.04910693684345493,0.5051020345577706,-1.0459280680177165,0.00305359302288853,0.31062360395784233,-0.9717457329087466,0.034907810321185666,0.587219394072459,1.0105096623953294,0.090559699816153,0.7448389552424952,0.8413732426963451,0.0,0.0,0.0,0.0
0.03253225007356804,-0.09798869541631174,0.7676735996371358,-0.003037710667898706,-0.5549491992463833,-0.010448018070190124,0.8318130784545895,0.04795081966221441,0.4986639292199929,-1.0397435337352061,0.0005114948600441678,0.31700136016726044,-0.9626163804351374,0.027557607037141416,0.5929770229781229,0.9982774031377111,0.0894605281747599,0.7381615706494652,0.8470242632027835,0.0,0.0,0.0,0.0
0.03096525866160385,-0.09758063138553984,0.76704218125761,-0.003228535862817175,-0.5548678209512307,-0.010312810010716694,0.831868333198649,0.04674032631999288,0.4904503856915578,-1.0308050154418258,-0.0019556131391094355,0.3230441731339278,-0.9533458899209619,0.02019134147498808,0.5982027829986584,0.9858313064619676,0.08829398096211752,0.7308150871072026,0.8523578812003578,0.0,0.0,0.0,0.0
0.0290490181074125,-0.09718645890077164,0.7664392056686948,-0.0034292472417198623,-0.5547796511285888,-0.010171415050969962,0.8319280745790811,0.04554410541141697,0.4802774239756087,-1.0187285777528094,-0.004362693610741816,0.32896421587456787,-0.9441303792990067,0.012797986079815896,0.6028656353488736,0.9732379763788837,0.08719009578087442,0.7228306304032108,0.8572981776337534,0.0,0.0,0.0,0.0
0.026796329337800073,-0.09682848138750619,0.7658724266686177,-0.0036373965854366746,-0.5546876703506267,-0.010026806635973183,0.831990276899772,0.04442539645037868,0.4681253242809203,-1.0033758740565286,-0.006744036937799194,0.33512390028083544,-0.9352800105195321,0.00531015219500574,0.607031352337491,0.9606880734128553,0.08626943710480209,0.7143131600120628,0.8617961817930722,0.0,0.0,0.0,0.0
0.024277154639635617,-0.09651859675491466,0.76533932067619,-0.003850991839609877,-0.5545989977354104,-0.00988049381646225,0.8320501772217059,0.04342038382076135,0.45428306188343454,-0.9851132597536089,-0.009132852209183013,0.34211175195996496,-0.9272627593071024,-0.002486810609406787,0.6109739902374963,0.9486101473519176,0.08561553010754704,0.7054615459701838,0.8658919065639238,0.0,0.0,0.0,0.0
0.02165032879356172,-0.0962474343914997,0.7648076346711216,-0.004070684329814713,-0.5545186854561169,-0.009729001137825944,0.8321044426909204,0.04250747531909056,0.43955771459170223,-0.9652760440805598,-0.01152231476229905,0.35073771235747975,-0.9207469149533006,-0.011182345596411625,0.6153812897006301,0.9377902781186073,0.08525149573027227,0.6965132153229912,0.8698976789951213,0.0,0.0,0.0,0.0
0.019349979663626383,-0.09590582671830113,0.7642148793372311,-0.004306197535856926,-0.5543775313745049,-0.009562740418608747,0.8321992329758412,0.0414309723606243,0.4266012383895252,-0.9486784479871727,-0.014306968314411755,0.3616688923554211,-0.916429693041971,-0.022494542250708526,0.6218226518594417,0.9292698065474763,0.0847212712266079,0.6879872879922592,0.8740206650990376,0.0,0.0,0.0,0.0
0.017575520112298883,-0.09556651210675204,0.7636842180880872,-0.004536338108021303,-0.5542671345838265,-0.00939388138998214,0.8322734647633764,0.04037347701814063,0.4165671778773912,-0.9361894982976305,-0.01690489835685119,0.375243723490219,-0.9170024690594827,-0.036908448640628894,0.6297199312962095,0.9245299148651249,0.08438871444267877,0.6812043888617757,0.8775912575750073,0.0,0.0,0.0,0.0
0.016600994227845584,-0.09531576007124427,0.7633745271593481,-0.004694233853857362,-0.5542402670647992,-0.009254281199095077,0.8322920453854845,0.03955750283250941,0.4110595744302998,-0.929344613601941,-0.018269616228591325,0.3903534717558857,-0.9262472812933114,-0.05245763880137201,0.6370016791543451,0.9246566008679383,0.08428859868444026,0.6776354930139906,0.8795672917542947,0.0,0.0,0.0,0.0
0.016564694924800418,-0.09523398962031958,0.7633468817787088,-0.004783230668481109,-0.5542517562398945,-0.009263186151400846,0.8322837886152108,0.039459473573402924,0.41094228873525074,-0.9293084519633426,-0.01829062075539457,0.390371456809663,-0.9262543591692107,-0.05245036502423381,0.6370277698508751,0.9246662809637933,0.08428355339198633,0.6775613734995065,0.8795155952419843,0.0,0.0,0.0,0.0
0.016564694924800418,-0.09523398962031958,0.7633468817787088,-0.004783230668481109,-0.5542517562398945,-0.009263186151400846,0.8322837886152108,0.039459473573402924,0.41094228873525074,-0.9293084519633426,-0.01829062075539457,0.390371456809663,-0.9262543591692107,-0.05245036502423381,0.6370277698508751,0.9246662809637933,0.08428355339198633,0.6775613734995065,0.8795155952419843,0.0,0.0,0.0,0.0
0.01676171197626269,-0.09512183622555526,0.76319260645808,-0.004981888639227414,-0.5540860992704292,-0.009144933350013285,0.8323942248567624,0.039114150515554454,0.4123314124995105,-0.933379675553885,-0.018700313779614543,0.39123404602721995,-0.9285428324252659,-0.051356195086129965,0.6357281629758024,0.9260950649040126,0.08541241639519868,0.6772056957598606,0.8804623949576428,0.0,0.0,0.0,0.0
0.017401994693299158,-0.09492406648026289,0.763045342280238,-0.0051140115163290445,-0.5540283340645697,-0.009061981250473796,0.8324327795297735,0.03858887182980933,0.416399752325119,-0.9410879223720509,-0.01933095959931771,0.394426409524821,-0.9340886321559202,-0.051562003549486965,0.6358733975268286,0.9283260772684184,0.08567074526919335,0.6780243569803502,0.8814864200618061,0.0,0.0,0.0,0.0
0.018589296193752547,-0.09456047070528192,0.7629319462119858,-0.005207154783613367,-0.5540753184702742,-0.008994758984892999,0.8324016586431862,0.037668134622672274,0.4238852225210219,-0.9535984136914896,-0.02041322072316753,0.4003698758733263,-0.9433440523043215,-0.05331955969893737,0.6377786396119073,0.9313704553380177,0.08487690323819641,0.6804917590734716,0.8820605637351661,0.0,0.0,0.0,0.0
0.020404873434725395,-0.09388399226007493,0.7629830892317565,-0.005291049473441945,-0.5542570397728277,-0.008917174803506105,0.8322809757835723,0.03594601845253358,0.43553671198202404,-0.971551535226228,-0.02235486906844213,0.40925038016544535,-0.9557387605452632,-0.0572823540058767,0.6423849023791464,0.9344727551448477,0.08245602277136668,0.6857286789156846,0.880403794241557,0.0,0.0,0.0,0.0
0.023057982434369392,-0.09266299209065894,0.7639656726529988,-0.0054315207868496,-0.5548908014736501,-0.00878349889489201,0.8318590909336963,0.032745813083534386,0.4532961656132955,-0.9936355661442967,-0.02578348709899303,0.42215866271283736,-0.9680642370985408,-0.06455676824774009,0.6551083453938387,0.9316688172662112,0.0776939678346523,0.699605584707045,0.8686065949125145,0.0,0.0,0.0,0.0
0.02521951756509506,-0.09183443166532132,0.7647940159789157,-0.006075606823726282,-0.5546485012491208,-0.00831733185740776,0.8320210027725269,0.030816128184992138,0.42395882342994384,-0.9591729186365808,-0.02861625113332754,0.43329537373578336,-0.9812873535448686,-0.06418102208317779,0.6625344736845611,0.9257952107044628,0.05738152246111274,0.6796061109468897,0.8892472476531513,0.0,0.0,0.0,0.0
0.027685003969318656,-0.09101601403905882,0.7657758271624435,-0.0066041786609705175,-0.5544930289561274,-0.00794384156123511,0.8321242461583025,0.026695746886317973,0.4016832783958042,-0.9429435408951252,-0.03134512990018926,0.44611675711623894,-0.9963038019463962,-0.06501702720025108,0.6720987163891031,0.9186857556818098,0.039267116141194366,0.6640891810060797,0.9051778569906209,0.0,0.0,0.0,0.0
0.030122243287896387,-0.09019358226710528,0.7667824366180046,-0.007005029869970265,-0.5544781573851186,-0.0076789072532298525,0.8321333648657051,0.02233519823283833,0.3857273951104628,-0.9385316737608227,-0.03394291637854441,0.4585666406839051,-1.0101705774528722,-0.06731877136246743,0.6825733492260992,0.91160272215842,0.025276972128750415,0.6528267817994179,0.9190907023283668,0.0,0.0,0.0,0.0
0.03234452941567628,-0.08939499773156145,0.7677520880256031,-0.007322917134847681,-0.5545335538074302,-0.007476733875148091,0.8320955540302437,0.018470758623399565,0.3740195666882995,-0.9406232260426066,-0.03638959405571619,0.46970509852759573,-1.021928263567422,-0.07034170311698622,0.6928559670394293,0.904784100065003,0.014212096349029696,0.6443469941809994,0.9320151110829539,0.0,0.0,0.0,0.0
0.03425763535359161,-0.08864251327989643,0.7686706306865243,-0.007592522281372629,-0.5546168743775366,-0.00730582999884844,0.8320391223428899,0.015136450317373238,0.36498198951643135,-0.9461480829955516,-0.038659169846604606,0.4791303237599232,-1.0311783321964931,-0.07349679060041014,0.702391857223387,0.8981898288409854,0.004807963014118845,0.6374192343953028,0.9443615779295618,0.0,0.0,0.0,0.0
0.03583241964711364,-0.08795335717257381,0.7695427319630748,-0.00783230426008423,-0.5547064647192388,-0.007152126680448408,0.8319785093934867,0.012152426735579733,0.35746899542660027,-0.9533918761542246,-0.04071662162723721,0.48678177163646347,-1.037918655686144,-0.07642044314291056,0.7109817781783514,0.8917063979921975,-0.003715444561625694,0.6312030272871335,0.9563221078103357,0.0,0.0,0.0,0.0
0.03708110761760943,-0.08734030056442248,0.7703767878295406,-0.008050414883774752,-0.5547923414906852,-0.007011062669505116,0.8319203649651367,0.009339765701935223,0.35068252478740625,-0.9614130669874553,-0.04253006388497284,0.4927948140228916,-1.0423931982275545,-0.07891137347639487,0.7186174727801804,0.8852316333156244,-0.01175325476374457,0.6251807938277196,0.9680098839374319,0.0,0.0,0.0,0.0
0.03803905172234363,-0.08681190899805609,0.7711791951534245,-0.008249657055785847,-0.5548710464650907,-0.006882372521324417,0.8318669953193688,0.006588410060232565,0.3440983576982378,-0.9697033332288275,-0.044077250613149606,0.49740088839172136,-1.044969815928849,-0.08087729507646588,0.7253835198533434,0.87870254769555,-0.01948622957090103,0.6190624054919028,0.9795079513577054,0.0,0.0,0.0,0.0
0.03875153101607099,-0.08637303224455231,0.7719529760974504,-0.008430772329376914,-0.5549423968628502,-0.00676691436810985,0.8318185301566561,0.003855792437572202,0.33739059249556297,-0.9779964617714585,-0.04534760525063241,0.5008622707930515,-1.0460541820964078,-0.08229066984086122,0.7313975010277095,0.8720968656507713,-0.026992696018423558,0.6127068969516286,0.9908831874837745,0.0,0.0,0.0,0.0
0.03926501206093151,-0.08602565540024053,0.7726980435248053,-0.008593871248491425,-0.5550077604551694,-0.006665629426180604,0.8317740682395999,0.0011438934475847505,0.3303653595879212,-0.9861616516109473,-0.04633986811533765,0.5034325432514217,-1.0460363905103645,-0.08316144455593848,0.7367772768898596,0.8654267849510651,-0.0343090991897643,0.6060699100143266,1.002186244695493,0.0,0.0,0.0,0.0
0.03962186288213058,-0.08577025127786471,0.7734114527355589,-0.008739059805283512,-0.5550688587372848,-0.006579125938734913,0.8317324726110494,-0.0015239700041724254,0.32291344309165965,-0.9941400511982154,-0.0470579728059641,0.5053352989808895,-1.0452650477102416,-0.08351440489791488,0.7416197644224801,0.8587335538179508,-0.04145518985522946,0.5991731258106221,1.0134444509016394,0.0,0.0,0.0,0.0
0.0398575491797204,-0.08560740398646731,0.7740869641029084,-0.008866344841155671,-0.5551270712831604,-0.006507943428775457,0.8316928335209259,-0.0041179483432380575,0.31499577413249946,-1.001897115891303,-0.04750567196995294,0.5067545760686198,-1.0440411820110984,-0.08337507255417083,0.7459864537323307,0.8520894195262138,-0.048442101856997884,0.5920908655160042,1.0246464035376974,0.0,0.0,0.0,0.0
0.0399992214243352,-0.08553952196754472,0.7747134955536984,-0.008975341447729896,-0.5551827977199116,-0.006452786642548772,0.8316548959191752,-0.006608128167094971,0.30667141060615855,-1.0093718783620245,-0.04768157222809149,0.507831079750157,-1.0426247175463828,-0.08275796326774937,0.7498873112932667,0.8456102833447386,-0.05526543381943274,0.5849488407387552,1.035711386798727,0.0,0.0,0.0,0.0
0.04006469596403864,-0.08557227077960021,0.7752724082609309,-0.009064867134167353,-0.5552348954537808,-0.006414640084452316,0.8316194390746623,-0.008964549619896414,0.2981748859787576,-1.0164114838043754,-0.047575496203886236,0.5086584400894951,-1.0412445749266352,-0.08165833098460089,0.7532596489052573,0.8394816033002118,-0.06187888410558306,0.5779337098035501,1.0464304937138496,0.0,0.0,0.0,0.0
0.040061069578706046,-0.0857150913316512,0.7757340811129152,-0.009132182093060735,-0.5552806995697062,-0.006395127899573796,0.831588269683228,-0.011152781939214606,0.2900349838040526,-1.0226913617748885,-0.04716689481090419,0.5092743777732238,-1.040101145020965,-0.08005541426553958,0.7559448447747374,0.833997109743864,-0.06813896471955436,0.5713209391987908,1.0563597747615028,0.0,0.0,0.0,0.0
0.03998282575911245,-0.08598007701563354,0.7760554116347356,-0.009172147678357558,-0.5553169211013735,-0.006396788398333138,0.831563629521905,-0.013129550812729237,0.28318152648240097,-1.0276424623502507,-0.04642742201213959,0.5096455552784295,-1.0393501231885949,-0.0779276871103002,0.7576718798148687,0.8295951908132922,-0.07370942547906024,0.5655450304270063,1.064640442319168,0.0,0.0,0.0,0.0
0.03981134941504597,-0.08637857434896444,0.7761832670045705,-0.009176398419718615,-0.5553427537508463,-0.006423800237425919,0.8315461228091796,-0.01484290056305888,0.278903751928363,-1.0304366805437308,-0.04532774706212561,0.5096577577307091,-1.0390595741282762,-0.0752877363327257,0.7580879323981621,0.8268416604171299,-0.0779663911858009,0.561360002431225,1.069723664115305,0.0,0.0,0.0,0.0
0.03952128987308659,-0.08691782322927322,0.7760756041700411,-0.0091361952035303,-0.5553657519621192,-0.006479487189792205,0.8315307737723903,-0.016244143402606614,0.2783902905757194,-1.0301323854941415,-0.043848017543466095,0.5091542243433269,-1.0391464991353776,-0.07217412285476335,0.7569100305435899,0.8262139956724742,-0.08009645133537577,0.5600826499595096,1.0691095603798741,0.0,0.0,0.0,0.0
0.03908960716510672,-0.08760931442849812,0.7757301755486428,-0.00904981374151797,-0.5553866247973356,-0.006564791604721879,0.8315171082898137,-0.01730854306121937,0.2816082448571081,-1.02668206185281,-0.04195493286975804,0.5080286268525606,-1.0394646839315087,-0.06852191750016229,0.7540714425970109,0.8276965069032818,-0.08005345311634764,0.561704374998911,1.062810691572004,0.0,0.0,0.0,0.0
0.03849688914550811,-0.08846871949458204,0.7751848121357163,-0.008923014232547233,-0.5553981826859045,-0.006677819780984813,0.8315098587564511,-0.018047876815387495,0.28731727177239513,-1.0209648618528244,-0.03960321156619597,0.5062324365432223,-1.0398175677057149,-0.06416309200437026,0.749728235666727,0.8307667345685754,-0.07856686994598959,0.5648869395356061,1.0533328846438341,0.0,0.0,0.0,0.0
0.03771834518380606,-0.08950654349388407,0.7744894563205358,-0.008761941683632021,-0.5553999224527207,-0.006814991011659845,0.831509296649746,-0.01849137009900634,0.2941828126391721,-1.013759554897701,-0.03676251185727264,0.5036805259062952,-1.0398651784350783,-0.05896321129330239,0.7441180634355417,0.8347901509610522,-0.07619419898573183,0.5688429253958778,1.0422137247756897,0.0,0.0,0.0,0.0
0.03671710408466845,-0.09072962194397224,0.7736853159884042,-0.008570392576370644,-0.5553927118203694,-0.006973255291081745,0.8315147970653008,-0.01866492972930198,0.3012314500195858,-1.005586806201883,-0.03341289753676347,0.5002063808550875,-1.0391706586476925,-0.05284287897212436,0.7374088898347251,0.8392448437091267,-0.07322101685756546,0.57309808057152,1.0302878698256208,0.0,0.0,0.0,0.0
0.035445676143513696,-0.09214213566045198,0.772801384763832,-0.008351066509134267,-0.5553761028059794,-0.007148822028563209,0.8315266312414812,-0.01858727746591685,0.30789423599858107,-0.9967354897844328,-0.029545755059463562,0.4955699007653878,-1.0372334351664434,-0.045758692165020924,0.7296721968045293,0.8437473758839744,-0.06975423131369934,0.5773358222781715,1.0179641397326102,0.0,0.0,0.0,0.0
0.03385025664455582,-0.09374397422937501,0.7718570317297938,-0.008106575154523746,-0.5553480784106731,-0.007336923312712326,0.831546129087942,-0.018272956992826994,0.3139022749090439,-0.9873500612202738,-0.02516895682065492,0.4894762630665147,-1.0335035499905783,-0.03771180169844338,0.7209119224071737,0.8480224762431331,-0.0658252696462267,0.5813277006787614,1.0054070656379066,0.0,0.0,0.0,0.0
0.03187588940082079,-0.09552762850434919,0.7708659263901892,-0.00784068169711516,-0.5553051498737492,-0.0075311274202715306,0.831575610725806,-0.017738031445038504,0.3191656848436209,-0.9775199579743468,-0.020316391234687002,0.48159624018795244,-1.0273889807658487,-0.028759832861785784,0.7111030659261044,0.8518633318593604,-0.06145190797292774,0.5849014507047559,0.9926463206252621,0.0,0.0,0.0,0.0
0.029473164625666074,-0.09747448806683401,0.7698396094515091,-0.007558730908295689,-0.5552434280600196,-0.007723759618109614,0.8316176673932412,-0.01700450569866332,0.32369594681269914,-0.9673477164128989,-0.015056843586954792,0.471592115404278,-1.0182709428987486,-0.01904020690705306,0.7002355112431287,0.8551043118420871,-0.05667865691638687,0.5879254779655578,0.9796416671764896,0.0,0.0,0.0,0.0
0.026607898557168358,-0.09955202467130371,0.7687900361761635,-0.007267945724550102,-0.5551596523285526,-0.007906447064728187,0.8316744708635695,-0.01610783107009334,0.3275810330778563,-0.9569877816374026,-0.009499888259209062,0.4591606838131506,-1.005551560048681,-0.008780952930284625,0.688354378828518,0.8576070118081214,-0.05160265503957185,0.5903064708144743,0.9663282894996232,0.0,0.0,0.0,0.0
0.023276096804615915,-0.10171324984255084,0.7677301085735854,-0.0069771925076518,-0.5550524675667786,-0.008071368190839593,0.8317469146611061,-0.015109345331293567,0.33101417633567903,-0.9466540257401876,-0.003793758080879845,0.4441092739424268,-0.9887654564655407,0.0017055425157573283,0.6755960848238394,0.8592702346565924,-0.046398390247715665,0.5920136305382013,0.9526649933694692,0.0,0.0,0.0,0.0
0.01952713330095475,-0.10390000554172217,0.7666692387542254,-0.006695769015769005,-0.5549237562770025,-0.008213387638477714,0.8318337163521381,-0.014112047676667126,0.33436797322891637,-0.9365955189340016,0.0018893245761367914,0.4264869295484691,-0.9678082714378556,0.012051670660416436,0.6622057846633093,0.8600955840724582,-0.041338510919860356,0.5931595795992045,0.9387055885649509,0.0,0.0,0.0,0.0
0.015497609480243892,-0.10605172236697227,0.765594740081426,-0.006432900639557859,-0.5547702518385755,-0.008322928363974146,0.8319370855586216,-0.013292481490447846,0.33825494220468444,-0.9270750019697718,0.0073623986137644854,0.4068027292458308,-0.9434068990654467,0.021951921087056497,0.6484390913730204,0.8603696362392933,-0.0367036917091598,0.594182026884863,0.9246976448797815,0.0,0.0,0.0,0.0
0.011434019849241927,-0.10813485477732686,0.7644441964925722,-0.006185313532526271,-0.5545383118743801,-0.008437011453056108,0.8320924344072348,-0.013168929550774264,0.34309995149671046,-0.9179098478892002,0.012613760013580277,0.3862727741442796,-0.9179821664831848,0.03103195719760209,0.6344208291154595,0.8608403565364701,-0.03296783333321298,0.596150668947426,0.9106358240304241,0.0,0.0,0.0,0.0
0.007798960271749626,-0.11006026710034685,0.7632618745224213,-0.0059565771875372325,-0.5542362125319301,-0.008539150226203752,0.8322943126201718,-0.013378888070435678,0.3493006549904564,-0.9095404567584915,0.017391043462624135,0.3674819424982239,-0.895378703915306,0.03901127188458675,0.6212483361399506,0.8617370145468816,-0.03053278368583497,0.599507785902363,0.8970221578883981,0.0,0.0,0.0,0.0
0.004895454893107899,-0.11161241731636556,0.7621985939263252,-0.005751392342399431,-0.5539211950908812,-0.008645454640821452,0.8325043466728971,-0.014084596967394917,0.35635071175895117,-0.9031993596068217,0.021237148057810955,0.35209389004961134,-0.8774059348343228,0.04491375798237364,0.6102744929648771,0.8629819108154552,-0.030410546747447715,0.6037254660459437,0.8839467782369433,0.0,0.0,0.0,0.0
0.003146980642766802,-0.11255570842158628,0.7614648181550898,-0.005597910248974848,-0.5536488873943572,-0.008745246051669868,0.8326854709668775,-0.014927991098500105,0.3622538993976898,-0.9004033703273162,0.023610014457398305,0.3426055815524079,-0.8669577152431323,0.04801203742913104,0.6032490759757758,0.8641666258045917,-0.03246062460610948,0.6080369165325257,0.8720489170364719,0.0,0.0,0.0,0.0
0.003111565281888162,-0.11268687156644684,0.7613962150691124,-0.005489092253900653,-0.5536637198908412,-0.008722347490303263,0.8326765733447307,-0.014913939468551041,0.36226806006563406,-0.9004232479560309,0.023756378170264845,0.3424167048233713,-0.8668974898667953,0.04803618416793406,0.6031538362288656,0.8640808238114951,-0.032476426332189515,0.6080786056985025,0.872062291128435,0.0,0.0,0.0,0.0
0.003111565281888162,-0.11268687156644684,0.7613962150691124,-0.005489092253900653,-0.5536637198908412,-0.008722347490303263,0.8326765733447307,-0.014913939468551041,0.36226806006563406,-0.9004232479560309,0.023756378170264845,0.3424167048233713,-0.8668974898667953,0.04803618416793406,0.6031538362288656,0.8640808238114951,-0.032476426332189515,0.6080786056985025,0.872062291128435,0.0,0.0,0.0,0.0
0.003111565281888162,-0.11268687156644684,0.7613962150691124,-0.005489092253900653,-0.5536637198908412,-0.008722347490303263,0.8326765733447307,-0.014913939468551041,0.36226806006563406,-0.9004232479560309,0.023756378170264845,0.3424167048233713,-0.8668974898667953,0.04803618416793406,0.6031538362288656,0.8640808238114951,-0.032476426332189515,0.6080786056985025,0.872062291128435,0.0,0.0,0.0,0.0
0.003924278104805775,-0.11287676107487826,0.7613566197317442,-0.005481571689306194,-0.5539429758354654,-0.008604425668969217,0.8324920995140261,-0.014795716024327821,0.3665737695247262,-0.9062426002571061,0.023906510581706442,0.34745966893616914,-0.8737740297422482,0.04953884852247977,0.604953043505179,0.8650579639000724,-0.03134475089659373,0.6100418115529455,0.8747890642812236,0.0,0.0,0.0,0.0
