zhuoxili-jackie/tripod-support-walk/examples/trajectory_trot_sideways_left_v0.10.csv
root_pos_x,root_pos_y,root_pos_z,root_rot_x,root_rot_y,root_rot_z,root_rot_w,FL_hip_joint,FL_thigh_joint,FL_calf_joint,FR_hip_joint,FR_thigh_joint,FR_calf_joint,RL_hip_joint,RL_thigh_joint,RL_calf_joint,RR_hip_joint,RR_thigh_joint,RR_calf_joint,FL_foot_joint,FR_foot_joint,RL_foot_joint,RR_foot_joint
0.0,0.0,0.745913,0.00590261038931276,-0.5534150365010598,0.008528410562500118,0.8328410549308913,-2.4067e-06,0.349062,-0.872669,9.86e-07,0.349071,-0.872662,3.27e-06,0.610866,0.872669,-2.38753e-06,0.610854,0.872668,0.0,0.0,0.0,0.0
0.0009070685396959706,0.00018792673022355414,0.7459071812245561,0.005915873223986731,-0.5537263591849007,0.008382860131026118,0.8326354840167789,-8.24036515318974e-05,0.35476724121483233,-0.8803077636136137,-7.900836087665793e-05,0.3540212308250441,-0.8793249290401673,-0.001544475029884656,0.6133701019298292,0.8752997737796667,-0.001550127148283443,0.6130181578588404,0.8736779282334572,0.0,0.0,0.0,0.0
0.0025872520711468813,0.0005169527974591844,0.745853775858126,0.005911663688079126,-0.5540136015222428,0.008315317107391342,0.8324450955241409,-0.0006360121503094936,0.3653908863870494,-0.8964040300492866,-0.0006323956946565019,0.36344482014594187,-0.8933204891938442,-0.003355090135964406,0.6168865942930745,0.8793294305904298,-0.0033529850955289478,0.6165491779863761,0.875340762509434,0.0,0.0,0.0,0.0
0.004973593918924071,0.0010938326879991519,0.7457635870814232,0.005866995711275927,-0.5543001142058729,0.008338945916139972,0.8322544224776988,-0.0019448382581471971,0.3805278061598027,-0.9201763052974499,-0.0019400600597207218,0.37654623124994063,-0.9130323571679383,-0.005841197222399447,0.6214017155129907,0.8849230099698321,-0.005819917697107227,0.6215839172419104,0.8770553381747219,0.0,0.0,0.0,0.0
0.008051402426244273,0.002080752829791529,0.7458781502820165,0.005740788329244257,-0.5546593973435333,0.00849860053619689,0.83201428477929,-0.0044953926243351105,0.4002836682776891,-0.9505639386665135,-0.004485257123698887,0.3928891345151555,-0.9361358730383056,-0.009499030847064792,0.6284061933541413,0.8901925845522375,-0.009432728888822758,0.6299239870986455,0.8758368098867991,0.0,0.0,0.0,0.0
0.011982763993464844,0.0038592057009980626,0.7471401031316061,0.005389379788769873,-0.5554748415725745,0.009001487138645355,0.8314671540083278,-0.009618234432181197,0.4266327399508323,-0.9856046150076444,-0.009585233369425168,0.41317517739118975,-0.9573022537230322,-0.014728274647583677,0.6440426714746642,0.8876934734525649,-0.014558383021569563,0.648983914160444,0.8618240970781272,0.0,0.0,0.0,0.0
0.015314495723144687,0.00541672324916188,0.7479975025298405,0.005103023829005085,-0.5551618934134087,0.009101679425650759,0.8316768547224771,-0.006467809015494108,0.40139422193391483,-0.9552150533270493,-0.013339609101371866,0.43025559748712394,-0.9808835512856183,-0.021389419674986733,0.6548884270434,0.8847343917428584,-0.013641691767353283,0.6385153486419721,0.883505619122088,0.0,0.0,0.0,0.0
0.01874087581149967,0.007099802566411316,0.7489508382551694,0.004818291586608475,-0.5549339637531694,0.00926397911133767,0.8318288637877428,-0.004518465406644994,0.38187643557602097,-0.9413484612938225,-0.017603773985079677,0.4473595865427177,-1.00330623976505,-0.028700054654102646,0.6667350823466068,0.8811974237531106,-0.013442053039248652,0.6304478868310995,0.9015484561415988,0.0,0.0,0.0,0.0
0.02199060857853715,0.00885078328374111,0.7499798546819259,0.004514798236101452,-0.5548591258783012,0.009480458182845193,0.8318780487181388,-0.0033293835423889194,0.3677824023612644,-0.9381938340740182,-0.02220249400154628,0.46304936924289436,-1.0221005850846674,-0.0363126724409951,0.6790855972029411,0.8770850102534651,-0.014619840064463843,0.6242353835509893,0.9175261787480871,0.0,0.0,0.0,0.0
0.024884411767342504,0.010623660481884208,0.7510378927773564,0.004210883010682984,-0.5548666118924671,0.009712274738498523,0.8318719752405705,-0.0025860560647600964,0.35731402479970575,-0.9408333643169493,-0.026935279183571546,0.4765203744441248,-1.0367125854083812,-0.04425442867125279,0.6911972627451836,0.8725243406127804,-0.01689125925134328,0.6190484847221909,0.9321989212676178,0.0,0.0,0.0,0.0
0.02734409381241726,0.012381502421273125,0.7520914775435179,0.003920248642382656,-0.554907074891479,0.009936776331422858,0.8318437535752153,-0.002148237024892825,0.3490855153371498,-0.9464577878984589,-0.03165248148919919,0.4875011248592054,-1.0472456374743204,-0.052459430182900946,0.7025869316136609,0.8676889134959119,-0.019822418929285896,0.6143555227724203,0.9459821891873913,0.0,0.0,0.0,0.0
0.029360988074240285,0.014091912544442135,0.7531230627253682,0.0036499455540271878,-0.554954629829716,0.010143368700886661,0.8318107650177493,-0.0019259492434951424,0.3420981241419224,-0.9535099852203613,-0.0362380380316587,0.4960660336065002,-1.054123081327215,-0.06076618240476178,0.7130302934516487,0.862685046779901,-0.023071978403755446,0.6098104948690496,0.9591536600293609,0.0,0.0,0.0,0.0
0.030968906023271313,0.01572758650779014,0.7541252488711027,0.0034026959169601192,-0.5549978750816117,0.010328544020966954,0.8317806811256193,-0.001836035564207031,0.3356640605961399,-0.9611408354426172,-0.040604194184491856,0.5024863605200978,-1.0579221499914502,-0.06897250931417526,0.7224823705946125,0.8575529241337265,-0.026411354639846264,0.6051932874417544,0.9719175408376437,0.0,0.0,0.0,0.0
0.032223608279109826,0.017267671578053354,0.7550952586252251,0.0031789499341835373,-0.5550332822167136,0.010492346049593175,0.8317558900202833,-0.001796534001813249,0.3293348250912635,-0.9688991992083945,-0.0446898481688318,0.5071215939994407,-1.059267435457702,-0.0768872347759752,0.7310016162450549,0.8523015522885935,-0.0296952082847568,0.6003769288467448,0.9844307389494191,0.0,0.0,0.0,0.0
0.03318843927730092,0.018698124934498645,0.7560317843691844,0.002977859783799486,-0.5550609617892615,0.010636654715681567,0.8317363299899478,-0.0017329976636540222,0.32283188539952923,-0.976557620592458,-0.048458475025755655,0.5103479908358662,-1.058762202317756,-0.08435639226816384,0.7386937540467072,0.8469345715127692,-0.032830320819149175,0.5953053535212147,0.9968136702991902,0.0,0.0,0.0,0.0
0.033925239740798356,0.020011127007148997,0.7569333129736832,0.0027980573867467124,-0.5550825902328704,0.010763828055577969,0.8317208840114679,-0.001584037482559679,0.3159892260384647,-0.9840150970186482,-0.051893497809045695,0.5125159277172101,-1.0569483786197345,-0.09127582174137024,0.7456764764039098,0.8414677714653599,-0.03575993580236987,0.5899779778183698,1.0091537834460207,0.0,0.0,0.0,0.0
0.03448923120649181,0.021203546027461176,0.757797244502755,0.0026379390458432486,-0.5551000669605355,0.010876231049585721,0.831708280911135,-0.0013039309061085166,0.308714015402853,-0.9912377230129212,-0.05499257301045762,0.5139287400597823,-1.0542903730592834,-0.09758507694346985,0.7520558245553076,0.8359362599714399,-0.03845153233425734,0.5844409073295728,1.021502224772521,0.0,0.0,0.0,0.0
0.034926661867802564,0.02227502639712538,0.7586187210792886,0.0024960596950843986,-0.5551148467693241,0.010975735108306123,0.8316975470813298,-0.0008613211441748047,0.30097808998180525,-0.9982137740279668,-0.05776102350890573,0.5148348603420623,-1.051176258883176,-0.10325731608896857,0.7579092338194136,0.8304042634810928,-0.040888188747705605,0.5787849910770979,1.0338614154203432,0.0,0.0,0.0,0.0
0.035273963220654625,0.023225968040386704,0.7593887218697019,0.0023715589388663815,-0.555127385504289,0.011063357430500244,0.8316883813627175,-0.00023536759935061569,0.2928499778343375,-1.0049051832802125,-0.060205663237160756,0.5154266942174481,-1.047930382120985,-0.10828709321420119,0.763268349943863,0.8249818227723077,-0.04305423317196585,0.5731498844448798,1.0461556129789418,0.0,0.0,0.0,0.0
0.03555728134458473,0.024055765193783076,0.7600912286141789,0.0022647028652220025,-0.5551366258136959,0.011138958913324414,0.8316815023766273,0.000589766653448654,0.28457491913375693,-1.0111841202522995,-0.062329855558512066,0.5158399085876395,-1.0448292375910717,-0.11268049259293249,0.7680977842098732,0.8198524921574218,-0.04490626095893606,0.5677348007158406,1.0581709988357377,0.0,0.0,0.0,0.0
0.035791487818317994,0.02476182316548691,0.760699746216717,0.0021775943056117305,-0.5551396967316453,0.011200989024173255,0.8316788521061584,0.0016310028117234366,0.2766941508995203,-1.0167546940376047,-0.06413097972891567,0.5161477492172323,-1.0421105522402747,-0.11645193822459662,0.7722697287667428,0.815311785027656,-0.046317649524198895,0.5628235222864667,1.0694452255297682,0.0,0.0,0.0,0.0
0.0359785846413125,0.025340110803221884,0.7611746944395267,0.00211490715699055,-0.5551323399389333,0.011246408691724852,0.8316833114913275,0.002910365391341081,0.27015155983377304,-1.021080847096211,-0.06560206947247325,0.516349228356205,-1.0399647203739093,-0.11963136327180492,0.7755445070201715,0.8118028716785144,-0.04699030791654343,0.5588480820017545,1.0790812869473247,0.0,0.0,0.0,0.0
0.03610753296319603,0.0257879691460123,0.7614663798609713,0.0020837633338761786,-0.5551112082252235,0.011271443297906443,0.8316971558200034,0.0044512301339632784,0.2662482841936308,-1.0233716281929714,-0.06673962423776846,0.5163631401774237,-1.0385001374604745,-0.12227760844026343,0.7775924541941327,0.80989862106868,-0.04636891957985952,0.5565415330278158,1.0854660279364772,0.0,0.0,0.0,0.0
0.03616149933169283,0.026108062667964088,0.7615352869574854,0.0020892324302138987,-0.5550810988392627,0.011276130437117598,0.8317171741052449,0.006259356276775859,0.26618229142157096,-1.0227260003333465,-0.06755745643310514,0.5160690428282217,-1.0376754750000652,-0.12445114036126453,0.7781429079545937,0.8100927978205231,-0.043735229631807676,0.5571898256100055,1.0860146653606453,0.0,0.0,0.0,0.0
0.036128284692103455,0.026304489433373515,0.7613815026067033,0.0021309964059391963,-0.5550427836323639,0.01126011312578558,0.8317428551207093,0.00831124200098686,0.2699340853445715,-1.0191142682187053,-0.0680638957800724,0.5153955148812767,-1.0373760826699416,-0.1261722184852174,0.7771659243259541,0.812407911587298,-0.039120291543435125,0.5607607653251497,1.0806962091920007,0.0,0.0,0.0,0.0
0.03600199704907181,0.026383541005759712,0.7610458663305809,0.0022033441667709155,-0.554992343687685,0.011222636001493234,0.8317768307447084,0.010549774880053011,0.2762857962005734,-1.0134144813105257,-0.06826387025937494,0.5143284070237623,-1.0374240977582425,-0.12742405623993716,0.7748837686028891,0.8163773790828485,-0.03329196509061154,0.565917955922558,1.0720330653780326,0.0,0.0,0.0,0.0
0.035773068144313774,0.026358033273125143,0.7605816703723222,0.0022988637038159564,-0.5549329266240592,0.011166487399838682,0.8318169700921453,0.012902308541338028,0.2839278651298798,-1.0064099187320528,-0.06818237596844304,0.5128243610026577,-1.0375023432903052,-0.1282013190067134,0.7715974714340348,0.8214244712143715,-0.02684421553436489,0.5718925114595421,1.0615869169832048,0.0,0.0,0.0,0.0
0.03542037344575805,0.02624349720043106,0.760034197002062,0.002412775173067548,-0.5548680046890665,0.011093773248850624,0.8318609283308366,0.015305393772625466,0.2919119355915821,-0.9986263146098632,-0.06785149451915556,0.5107664020679369,-1.0372141001813333,-0.1285360341059425,0.767532819404018,0.8270806287974549,-0.020108814366131843,0.578226705298471,1.050214974962275,0.0,0.0,0.0,0.0
0.034911621620987904,0.026055929037349147,0.7594371952548017,0.002542704850634181,-0.5547994059525243,0.011005646288217786,0.8319074645395048,0.017707888416251538,0.29969705609735725,-0.9903530234982659,-0.06730490626748764,0.5079696134269034,-1.0361157173912092,-0.1284822342467236,0.762813986055202,0.8330144321353716,-0.013244026127796845,0.5846170923304197,1.0383496748090684,0.0,0.0,0.0,0.0
0.03420628936193394,0.025811878111249163,0.7588150986619456,0.0026877031897701896,-0.55472701721516,0.010902736254841243,0.8319566352673032,0.020067085994132688,0.3070442171509942,-0.9817248958430745,-0.06657859467224553,0.5041974686419892,-1.0337306954616021,-0.12810833072999106,0.757483799702317,0.8390013689148597,-0.006321583480495584,0.5908466093507735,1.0261862925918606,0.0,0.0,0.0,0.0
0.03325915422594953,0.025529647221336525,0.7581863213984561,0.0028474557936924564,-0.5546491399261938,0.010785603893781035,0.8320095518221428,0.022348262488715923,0.31389768704584825,-0.9728073001539119,-0.06571434318907872,0.49917832140412527,-1.0295557198171477,-0.12749875507284453,0.7515348771565082,0.8448857172155717,0.0006234082716408676,0.5967552644980562,1.0137995056554494,0.0,0.0,0.0,0.0
0.032024750884426266,0.025230397707832194,0.7575659410220364,0.0030218234747876843,-0.5545630923678538,0.010655062286719965,0.832067974875825,0.024530672762311287,0.3203067883611537,-0.9636627000289344,-0.064762965574092,0.49262538898787417,-1.0230736590318426,-0.1267584011452425,0.7449405251797008,0.8505502334817471,0.007574196220849554,0.6022260473769803,1.0012162476517557,0.0,0.0,0.0,0.0
0.030464053936641745,0.02493815388875379,0.7569672069078057,0.003210682056924706,-0.5544659392331812,0.01051228173051463,0.8321338267873827,0.026618339926825198,0.3263989178233166,-0.954397044715458,-0.06378463955697714,0.48426906570064937,-1.013790926966261,-0.1260136885350507,0.7376846468200936,0.8558967129619798,0.0145378835479053,0.6071821457121186,0.9884697667836452,0.0,0.0,0.0,0.0
0.0285550934218013,0.024677721340454442,0.7564015750611482,0.003414106783083118,-0.5543553937701724,0.010358515316702873,0.8322085931022489,0.028650999076009827,0.33239814212437935,-0.9451927732880764,-0.06284364320761417,0.4739134119004291,-1.0013203206024652,-0.12540589018560358,0.7297930211757061,0.8608386054301727,0.02157725811339199,0.6116034874038521,0.9756573014449659,0.0,0.0,0.0,0.0
0.026309434278873303,0.024469493689769813,0.7558765377696552,0.0036331643415196263,-0.5542309305825418,0.010194092325764818,0.8322925904897454,0.030707197119350917,0.33867762519616457,-0.9363397875998605,-0.061994627669200046,0.46153188525655575,-0.9855390391087135,-0.1250758645950596,0.7213664116541725,0.8653132112193443,0.028891372838172547,0.6155808185521021,0.9630231556207439,0.0,0.0,0.0,0.0
0.023796488455772376,0.02432038833204752,0.7553888527760725,0.0038720456967029316,-0.5540946096007334,0.010015903867586998,0.832384437951148,0.032887765217843,0.34582301949589217,-0.928280985493937,-0.061258124462658846,0.44742072316439624,-0.9668689166099084,-0.12514780394683003,0.7126056172747687,0.8693408453440212,0.037001640248100064,0.6194386464692201,0.9510850236720051,0.0,0.0,0.0,0.0
0.021176223192955042,0.024210902929812882,0.7549057894408193,0.004143380142182783,-0.5539429783780137,0.009811054646106368,0.8324864877662723,0.035277643046990034,0.35460624737986424,-0.9216564705542686,-0.060583609880348034,0.4324279784885024,-0.946788461533995,-0.1257322657243166,0.7037682053183026,0.8731939728142705,0.04714647723169406,0.6239563475386016,0.9407664398195215,0.0,0.0,0.0,0.0
0.018869711224509717,0.024017943351760353,0.7543652511039868,0.004480121037616663,-0.5536899773774966,0.009550183399132134,0.8326560703341077,0.03832887707651353,0.3655655486071472,-0.9171172644070489,-0.05967900282465779,0.41922165321895816,-0.9302900681840928,-0.12657071961891644,0.6953787767674631,0.8770214108835909,0.06220381168318579,0.630816800123201,0.9332383418109247,0.0,0.0,0.0,0.0
0.017075755509736747,0.023796099025654542,0.7539005885948225,0.004873475195753103,-0.5534146673410812,0.009235077801822932,0.8328404220192911,0.0414710733054439,0.3789763109315796,-0.9173525282210111,-0.05867254702361456,0.4090121496717142,-0.9183988910870947,-0.128093185860794,0.6888377056586037,0.8799507176801555,0.08363019254928161,0.6394581073252397,0.9301461949490919,0.0,0.0,0.0,0.0
0.016073175143173492,0.023608051192626964,0.7536734771039466,0.005239080557837115,-0.5531783096182455,0.008912673860815052,0.8329987239170656,0.0435215721710288,0.3937402707184419,-0.9261950220686904,-0.05775365821983741,0.40347292082907726,-0.9126785873140999,-0.13008785098436268,0.6856400504247798,0.8808375065845019,0.10833111293212197,0.6473191333509124,0.9325399917547499,0.0,0.0,0.0,0.0
0.016036901122507698,0.023533995876170433,0.7536479850086599,0.005325659214444449,-0.5531873510043591,0.008918741295210482,0.8329921056627252,0.043546801999268366,0.39375927297005553,-0.9262011492521012,-0.057664250108550044,0.4033541256820225,-0.9126446472747369,-0.13008825994923423,0.6855635794676964,0.8807835956839227,0.10832840786821803,0.6473461050746434,0.9325506988971359,0.0,0.0,0.0,0.0
0.016036901122507698,0.023533995876170433,0.7536479850086599,0.005325659214444449,-0.5531873510043591,0.008918741295210482,0.8329921056627252,0.043546801999268366,0.39375927297005553,-0.9262011492521012,-0.057664250108550044,0.4033541256820225,-0.9126446472747369,-0.13008825994923423,0.6855635794676964,0.8807835956839227,0.10832840786821803,0.6473461050746434,0.9325506988971359,0.0,0.0,0.0,0.0
0.016175216377727834,0.023545085777120976,0.7535262514435501,0.005494271513694528,-0.5531507509440925,0.008789609163275147,0.8330166879968716,0.04370592389675277,0.3944814028179455,-0.9275899854635953,-0.05756606512773608,0.4040846892872367,-0.914846584440701,-0.13194273041125826,0.6855623127292754,0.8821354558010326,0.10667281057049835,0.6464674749475913,0.9335739960777412,0.0,0.0,0.0,0.0
0.016748496217889975,0.023536216785977136,0.7534040629754255,0.005590702496851361,-0.5531744495945585,0.00871576685664136,0.8330010850950013,0.043906242555525166,0.3976337338171616,-0.9327263791773328,-0.05750991249513715,0.4073785347501897,-0.9206754794785605,-0.13328812954033956,0.6865531899222623,0.8837360198025215,0.10623326177672789,0.6469621782737113,0.9351171156745909,0.0,0.0,0.0,0.0
0.017861356044833437,0.023442431218646226,0.7533047989805167,0.005622424530676903,-0.5532824809616119,0.008695204156060066,0.8329293355549705,0.044317942812074,0.40364298980445096,-0.9420135005757373,-0.05734558844479597,0.41394588161219076,-0.9310863884687837,-0.13388009956038172,0.6890128558531285,0.8852184120765033,0.1074407639524227,0.6492703365050425,0.9372559757205408,0.0,0.0,0.0,0.0
0.01959112527378551,0.02316929555044076,0.7533508352499194,0.005588399080460389,-0.553544197726499,0.00874041529131224,0.8327551837722654,0.045147395240596314,0.4127296132575935,-0.9549146501364114,-0.056862700105049006,0.4243986294001384,-0.946234761154832,-0.13314403491691235,0.6940042078837917,0.8851622823919287,0.11109870034621391,0.6545049725802327,0.9392674988905526,0.0,0.0,0.0,0.0
0.022119769694670097,0.022591329884453778,0.7542181855344832,0.005489626055724105,-0.5543386870383679,0.008930435910510674,0.832225168672995,0.046491768324674186,0.425880215794763,-0.9684982302429119,-0.055873388655108214,0.44021495450213655,-0.9638578504487201,-0.13014361221873172,0.7066811067555381,0.8770651434394585,0.11898765573099891,0.6680580486007938,0.9359648984208405,0.0,0.0,0.0,0.0
0.02422101750531,0.02243268219025606,0.7549089163240937,0.006290623146556011,-0.5540893059386123,0.008178018689143408,0.8323932899268319,0.04828357794350796,0.4379009678436081,-0.9833267184771984,-0.051192568446865996,0.41568003400334164,-0.9389920112294782,-0.09903367910664031,0.6847164919589014,0.894812280489614,0.11222782532437267,0.6739444182140979,0.9289310769886068,0.0,0.0,0.0,0.0
0.026516351468296354,0.02228583144686928,0.7557772658567059,0.006921126871759592,-0.5540033873103236,0.00764645602671817,0.8324505249933739,0.04968533496212693,0.4509379751010958,-0.9987310069139089,-0.044022024564225846,0.39624910320673346,-0.9290002640793917,-0.07172321357062189,0.6673141726607346,0.9087698139054715,0.10774763731881087,0.6823402106584558,0.9206700067094231,0.0,0.0,0.0,0.0
0.028775555332514097,0.02213063941820581,0.7566642871944158,0.007335093376551069,-0.5540771928304271,0.007358910655112967,0.8324004488371454,0.05070363867870836,0.46354580850091065,-1.013201934600116,-0.03718463014612472,0.38194113851684336,-0.9283430273312453,-0.05152958028830697,0.6549133153033312,0.9215143157285914,0.10605750959666396,0.6919963752242816,0.9126806249473373,0.0,0.0,0.0,0.0
0.030818947912123473,0.021974092166168805,0.7575038764915923,0.0076248630190202515,-0.5542184709651216,0.007192395531642143,0.8323052428956219,0.05151268858105247,0.47480018891074993,-1.0257176187628836,-0.03138681153943363,0.3711934444770852,-0.9327011153778558,-0.036324906387960786,0.6457514586238121,0.9337768558507584,0.10573388374367587,0.701520041761333,0.9052086051298659,0.0,0.0,0.0,0.0
0.032552867666592065,0.021830305339039513,0.7582902515671407,0.007857638197742245,-0.554375546429948,0.007068584845032163,0.8321995230416431,0.052190965206968684,0.4843027073000331,-1.035763155454348,-0.026478324097467455,0.3626970128470838,-0.9396145577664763,-0.02393537851884421,0.6383033870120931,0.9457215481668051,0.10573720688807238,0.71023997738408,0.8980974505929998,0.0,0.0,0.0,0.0
0.033948576756092454,0.021714653072897515,0.7590364404793065,0.00806646763919042,-0.5545256791872216,0.006954266801550187,0.8320984565512841,0.05274346667867476,0.4919997501318672,-1.0432613448424872,-0.022097343361062578,0.355457708201459,-0.9477348743919782,-0.013000691345620102,0.6315636104077509,0.9573842380322843,0.10551014941999089,0.7179460947176348,0.8911336457657878,0.0,0.0,0.0,0.0
0.0350195061120176,0.021641009917736615,0.7597553170152017,0.008263113741847381,-0.5546614515072364,0.006841224237457945,0.8320069668062328,0.053144584455880495,0.4980357193269832,-1.0484258448583852,-0.017936199636348318,0.3487724811430874,-0.9563377970785817,-0.002800604098270284,0.6249517641209622,0.9687895683938461,0.10481901948511826,0.724661122236026,0.8841632738024757,0.0,0.0,0.0,0.0
0.03580261908346303,0.021620500026548667,0.7604540773257825,0.00844908761990664,-0.5547827633291753,0.006731822713393034,0.8319251053996333,0.05336417691796401,0.5026507793370497,-1.051623395975229,-0.013812046985656704,0.34218253429726603,-0.9650415665811106,0.007018877729482592,0.618168259293822,0.9799741801554891,0.10361090431887057,0.7305063215658049,0.8771104799396184,0.0,0.0,0.0,0.0
0.03634447577492714,0.02166151633387556,0.761134179001454,0.008623345489695289,-0.5548910698796345,0.006629380574875385,0.8318519037626789,0.05338173221647924,0.5061145570279751,-1.0532754014770143,-0.009648217621867424,0.33540232833633954,-0.9736516868741317,0.016615525926164824,0.6110792121593457,0.990982214863678,0.10189380023619023,0.7356174486865639,0.8699570790565012,0.0,0.0,0.0,0.0
0.03669262578209872,0.021769371873866905,0.7617932256803769,0.008782864016094348,-0.5549904374003898,0.0065392205811177955,0.8317846561989408,0.05318252567765898,0.5086851204329726,-1.0537868533788528,-0.005440234817552977,0.32827293558523507,-0.9820778811414255,0.026076458711433995,0.6036530801543031,1.0018533598645456,0.09973360812833691,0.7401330292407516,0.8627338971181229,0.0,0.0,0.0,0.0
0.036889751917002035,0.021948150285149525,0.7624258018424683,0.00892575990861061,-0.5550838809336612,0.006464370208789024,0.8317213643134836,0.052759246162412135,0.5105883782338952,-1.0535209452785077,-0.0012153631561554077,0.32070292253668575,-0.9902851002979682,0.035441291799206034,0.5959187529254787,1.0126099067633705,0.09718139788195326,0.7441550695223728,0.8554979819198988,0.0,0.0,0.0,0.0
0.03697101716121092,0.022202170323539324,0.7630234922298392,0.009050586858650457,-0.5551736112937613,0.006406973048625254,0.8316605671167245,0.05210489039456171,0.5120088467983079,-1.0527898955475268,0.0029878123099771666,0.31265870324128014,-0.9982559641242744,0.04472866994327034,0.587953733385193,1.0232387741566515,0.0942723327155698,0.747743587432516,0.8483335853685139,0.0,0.0,0.0,0.0
0.036962784439025356,0.022537842172135232,0.7635733312437836,0.009156045842176512,-0.5552602979496467,0.0063685128705959744,0.8316018340463316,0.051207597406308474,0.5130868043357644,-1.0518633052713207,0.007129620777352705,0.3041929364410744,-1.0059466591938366,0.05393265128185201,0.5798856457774642,1.0336612145230697,0.09101408861141426,0.7509011206522168,0.8413636682347471,0.0,0.0,0.0,0.0
0.03688185218307106,0.022965265424869142,0.7640549028935921,0.009240490053700203,-0.5553423986255814,0.006349992005460942,0.8315462171364162,0.05004667201715429,0.5139158769757971,-1.05098177946651,0.011170221195028005,0.29552544458700564,-1.0132239409789559,0.0629975787392787,0.5719052268086771,1.043675965209068,0.0873803976134196,0.7535518861152065,0.8347765268256983,0.0,0.0,0.0,0.0
0.03673436664898375,0.023498869494330433,0.7644366498988311,0.009301024896147378,-0.555416207979013,0.006352417039089231,0.831496225877097,0.0485906243492984,0.5145354639346806,-1.0503626914172848,0.01506411020074888,0.28717104165646273,-1.0197810718811289,0.07176168643689342,0.5642969534420601,1.0528552297305724,0.08331736726525411,0.7555189290415313,0.8288666932078772,0.0,0.0,0.0,0.0
0.036514114315950766,0.02415630753236529,0.7646732326970505,0.009332337994414559,-0.5554771726296706,0.006377487920093078,0.8314549571701009,0.0467990459400422,0.5149159061877446,-1.0501842932808707,0.018752800772964897,0.28006134079428197,-1.025050781137362,0.07985803518434743,0.5575101311248697,1.060366762173211,0.07876539926131879,0.7565102423911327,0.8240738765481345,0.0,0.0,0.0,0.0
0.03620198460131855,0.024954730423649322,0.7647092510367247,0.009324579113774607,-0.5555249394251489,0.006430360050185466,0.8314227230300243,0.04462652908228744,0.5149464803339849,-1.0505343147467263,0.02215821648782446,0.2755208081681804,-1.0281661059949418,0.0866261585315311,0.5523180911240055,1.0646968191333357,0.07371949729067301,0.7561624514408448,0.8209705199882896,0.0,0.0,0.0,0.0
0.03577152374205526,0.025907147516666822,0.7645011906083257,0.009265056723283399,-0.5555707370478357,0.006518896138599228,0.831392096939328,0.04203066667080922,0.514468845311366,-1.0513327218285629,0.025189213914386697,0.2747916678894065,-1.0280824668902688,0.09123093575891933,0.550051955413467,1.0633789228466755,0.06824059018628378,0.754205149261548,0.820042483881843,0.0,0.0,0.0,0.0
0.03519628623530397,0.027031171493468408,0.764045913378322,0.009151842173596821,-0.5556150633237591,0.006643425811247769,0.8313627427820272,0.03896317092979963,0.5133661682578244,-1.052424129892306,0.02780001990164609,0.27783769475485126,-1.0247496317125369,0.09358727345346245,0.5507194272770658,1.056452616865628,0.0622235071811762,0.7505587526576837,0.8212537469730998,0.0,0.0,0.0,0.0
0.03445129622137928,0.02834922770108324,0.7633806520325841,0.008994430832434936,-0.5556464051421055,0.006796206875890772,0.8313422786306226,0.035370959338589046,0.5115718566112248,-1.0535950310922964,0.030007330671498147,0.2833559302325722,-1.0191421664797249,0.09438008733544924,0.5529919050281517,1.046431679050392,0.05540193654384388,0.7453419786375406,0.8240322875073114,0.0,0.0,0.0,0.0
0.033505880790017345,0.02987856509995027,0.7625551172330033,0.0088009941142321,-0.5556624593162262,0.006970580330327034,0.8313321747767874,0.03121151938361669,0.5089798790833562,-1.054477658529327,0.03183706528898714,0.2899641285772329,-1.0120674970662344,0.09415036486841794,0.5560722875607966,1.0348433808061088,0.04758354197682973,0.738776587402544,0.8276947942051333,0.0,0.0,0.0,0.0
0.032318156151281426,0.03163203779195802,0.761610009530201,0.008576876435483669,-0.5556635509563052,0.007161409353664486,0.8313321655904511,0.026453845731762207,0.5054045944921928,-1.0546065764398322,0.033307708997501816,0.2966735814415791,-1.0040345087950728,0.09317014297616279,0.5594723292564614,1.0225083469734157,0.03865601189221634,0.731025383863666,0.8316772530364253,0.0,0.0,0.0,0.0
0.03083713246894017,0.033618256960677065,0.7605734490522286,0.008326789115061729,-0.5556488803049153,0.007362472113091712,0.8313427574733006,0.021084217010845487,0.5005903973666008,-1.0534557155323494,0.034431814498882544,0.30291870410967925,-0.9953073343971173,0.09153025967546632,0.5628653819099737,1.0098235192708416,0.028559779337359887,0.7221601706479357,0.8355601475857003,0.0,0.0,0.0,0.0
0.029007337420148417,0.03583888933593582,0.7594637398988787,0.008055976099108202,-0.5556164998401008,0.007566283815460223,0.8313652372475949,0.015114022385320888,0.494230140427216,-1.0504494301838254,0.035222686629264734,0.30843935519701593,-0.9860087840884055,0.08925033964432962,0.5660199532976784,0.9969439173652244,0.017302562029239053,0.7121934428222005,0.8390400026865399,0.0,0.0,0.0,0.0
0.02677404384815223,0.03828450881327395,0.7582936043138707,0.007771452673171777,-0.5555638338872337,0.0077636931970818755,0.8314013207036711,0.008591412397318768,0.4859843597147867,-1.044964859456316,0.035704458169807225,0.3131513037894002,-0.9762158123095765,0.08634700819304963,0.5687670271648507,0.9838893312274275,0.004976541787894339,0.7011199603587973,0.8418917552047747,0.0,0.0,0.0,0.0
0.02408988991978238,0.04092989259357931,0.7570740653100627,0.007482318076078857,-0.5554891955011564,0.007944741828400447,0.831452133123108,0.0016117163289939684,0.47550604961893533,-1.0363425680026261,0.03592214123425513,0.3170649102951371,-0.966027796405447,0.08288168023196754,0.5709815587262149,0.9706052255566581,-0.008216382360775569,0.6889615566946639,0.8439457101153718,0.0,0.0,0.0,0.0
0.020924351926722592,0.0437303327845612,0.7558172989636746,0.007199907634760978,-0.5553928199049065,0.008099514888950525,0.8315175132170642,-0.005675588720970473,0.4624826436657882,-1.0239317922491775,0.03595668432223743,0.32025896379520397,-0.9556032224995892,0.07899585410697006,0.5725755950008646,0.9570025955089879,-0.021957993171236,0.6758041957170181,0.8450788042851933,0.0,0.0,0.0,0.0
0.017278349114257116,0.046620275799564945,0.7545372396020609,0.006937183122099622,-0.5552775530630687,0.008219723197093555,0.831595545145105,-0.013068813164013947,0.44670997356362613,-1.0072022401108902,0.03594553478939979,0.3229113109707541,-0.9451652059937417,0.0749551386467861,0.5735157469351767,0.9429972136734692,-0.03582676966673039,0.6618249709262141,0.8452338100985318,0.0,0.0,0.0,0.0
0.013206850363643583,0.049515431641180066,0.7532442141094972,0.006706401713473795,-0.555149131067286,0.008301691937245784,0.8316823602567712,-0.020329650323707975,0.428217126384557,-0.9859741165139473,0.036103079016821346,0.32538292963863774,-0.9349793522598641,0.07121854308927195,0.5738911813921665,0.9285651107607162,-0.049327181319192,0.64729140917775,0.8445092338590834,0.0,0.0,0.0,0.0
0.008851935332784496,0.052318476652552674,0.7519218370873841,0.0065164351382033464,-0.5550112016459086,0.008341286915058404,0.8317755256397334,-0.0271926472759833,0.4074637009643951,-0.9608628089112261,0.036749835307306494,0.32830837731988183,-0.9253343464671059,0.06847918843743266,0.5740670050680754,0.913845327871874,-0.06198291447735614,0.6324324136302034,0.8434280485321326,0.0,0.0,0.0,0.0
0.004588151111327839,0.054999776233358444,0.750482348457983,0.006359896302427671,-0.5547736898059299,0.008371266390099295,0.8319348692759321,-0.03366050850745531,0.3863911650807843,-0.9357232597813238,0.03824953608931511,0.33211187255205915,-0.915871221907982,0.06768553752142095,0.5753074284258753,0.8986823436071211,-0.0735539196719655,0.6173266361138593,0.8430349892979854,0.0,0.0,0.0,0.0
0.0007867416050629291,0.05738378655953524,0.7489999808291972,0.006221697251878245,-0.5544848348075438,0.008403553999037333,0.8321281384089485,-0.03934870717729737,0.3669418579123813,-0.9131172823258351,0.04052671400517404,0.3371941819609314,-0.9073044850782295,0.0705050672435042,0.5774499597105253,0.8832084440237581,-0.08326333552799559,0.6030414486627275,0.8438403620216229,0.0,0.0,0.0,0.0
-0.0022370207348883066,0.05922039771864462,0.7476194472090804,0.006081582281400498,-0.5541970438930165,0.008470369035616989,0.8323201930420749,-0.043753459504575924,0.3508258900132241,-0.895018532432304,0.04343783422448222,0.3429628229360132,-0.9007340411059207,0.07857542814929504,0.5798898178323141,0.8671202493106192,-0.0900102077174472,0.5907878654697412,0.8461735191130574,0.0,0.0,0.0,0.0
-0.004048152078915413,0.06026405553175754,0.7465898296013852,0.005931592228169224,-0.553969296424365,0.008578194588649606,0.8324717709390103,-0.046341642766854055,0.340680803901465,-0.8844561248478473,0.04591425637713577,0.34745847607442365,-0.8972923111037251,0.09021084310419758,0.5824695578400684,0.8511024298507569,-0.09299467328512032,0.5824813375463556,0.8495116816651801,0.0,0.0,0.0,0.0
-0.004079121735904926,0.060406828886025485,0.7465087222386805,0.005818536615537238,-0.5539880284928237,0.00855107301201037,0.8324603822817223,-0.04649987503150971,0.34048289085814243,-0.8843945073039349,0.04590808784894355,0.34747293391747275,-0.8973114790268313,0.09023190976711351,0.5825084969934146,0.8511126431688509,-0.09302697384423246,0.5823813171185687,0.849422162489145,0.0,0.0,0.0,0.0
-0.004079121735904926,0.060406828886025485,0.7465087222386805,0.005818536615537238,-0.5539880284928237,0.00855107301201037,0.8324603822817223,-0.04649987503150971,0.34048289085814243,-0.8843945073039349,0.04590808784894355,0.34747293391747275,-0.8973114790268313,0.09023190976711351,0.5825084969934146,0.8511126431688509,-0.09302697384423246,0.5823813171185687,0.849422162489145,0.0,0.0,0.0,0.0
-0.004079121735904926,0.060406828886025485,0.7465087222386805,0.005818536615537238,-0.5539880284928237,0.00855107301201037,0.8324603822817223,-0.04649987503150971,0.34048289085814243,-0.8843945073039349,0.04590808784894355,0.34747293391747275,-0.8973114790268313,0.09023190976711351,0.5825084969934146,0.8511126431688509,-0.09302697384423246,0.5823813171185687,0.849422162489145,0.0,0.0,0.0,0.0
-0.0032102281785951563,0.060774135942128306,0.7464293911284983,0.005812822672917164,-0.5542675220740536,0.008398818017091681,0.8322759067294796,-0.04703274486881479,0.34609827226658174,-0.8924129431637656,0.045492863837245684,0.3518676004519437,-0.903427784975035,0.0885806265103493,0.5839494892980387,0.8554122874349807,-0.0956742788552985,0.583974591165441,0.8501138979271731,0.0,0.0,0.0,0.0
-0.0015570993154156634,0.06138606844746191,0.746284400956483,0.005786539125361947,-0.5545314786303639,0.00833020399673278,0.8321009331050805,-0.048405123808821386,0.35688120547993957,-0.909464619896806,0.04442036230181258,0.36060614231857774,-0.9167004217489472,0.08653308678932513,0.5860606555282363,0.86189307879927,-0.09940761700706303,0.5867368269831328,0.851379167418452,0.0,0.0,0.0,0.0
0.0008319942121297313,0.062335376017296946,0.7461278713975843,0.00571790431043595,-0.5548067259658013,0.008352059618872264,0.8319176915377673,-0.05084662571933397,0.3724659423322611,-0.934582856965333,0.042441527894394405,0.37311411058684596,-0.93570471690205,0.08372925245597851,0.5891548342568431,0.8702580592427704,-0.10456464650623565,0.5911384250834626,0.852135900093047,0.0,0.0,0.0,0.0
0.003960244103678241,0.06383770827154961,0.7462655304650561,0.005555729926980175,-0.5551920001154355,0.008522192770896561,0.8316599960940627,-0.054989504710820314,0.393134387777232,-0.9666084848077181,0.03888840853032745,0.3891112200830517,-0.9579311855928572,0.07955972531030975,0.5951273903364175,0.8782855622222644,-0.1117908705422158,0.5995873900471846,0.8484848904837362,0.0,0.0,0.0,0.0
0.008062560637511835,0.06643795286875984,0.7479890495680961,0.005154440072599272,-0.5561502279449346,0.009114181391218234,0.8310158165774603,-0.06267286480328235,0.42179369330609284,-1.0032765244489164,0.031799959308353665,0.410037921887121,-0.9772471829572016,0.07328650035944681,0.6122037025141881,0.8759995051542185,-0.12221555735114566,0.6222493721182166,0.8263303731078835,0.0,0.0,0.0,0.0
0.011408554708791655,0.06882688253679013,0.7493354912839222,0.005048175214921745,-0.5557329285054508,0.008980608085956465,0.8312970448522967,-0.05733790623830568,0.39499729023865404,-0.9674637635403095,0.026653670961014914,0.42671748356240796,-0.9990436347702082,0.06177463878323166,0.6252918721914226,0.8723920582568079,-0.10541257007272614,0.6125382485104532,0.8565906932260493,0.0,0.0,0.0,0.0
0.015016323769425887,0.07132393445417065,0.7506618178244686,0.004933311685712292,-0.5554259724073967,0.008971274921837687,0.8315029572030314,-0.05235266326478277,0.37504764024543746,-0.950160078464954,0.02089209250164211,0.4443294648121967,-1.0213920824905411,0.04999862829777908,0.638988090241128,0.8693101944471777,-0.09117383353072071,0.6065642067137176,0.8808336310155797,0.0,0.0,0.0,0.0
0.0184989320616277,0.07389268325874226,0.7519945588699491,0.0047294771227735545,-0.5553149992905203,0.009097638634747902,0.8315768855496082,-0.048408073421544115,0.361095985857936,-0.9450374919361066,0.014592468594476004,0.4607065882818191,-1.0402283215104036,0.0384963902270439,0.6528367277450672,0.8662516863696991,-0.08327689975643866,0.6019954068539527,0.900682083299074,0.0,0.0,0.0,0.0
0.021649305630090328,0.07646668301422,0.7533258197407782,0.0044675184126168384,-0.5553095071584219,0.009288961411618377,0.831579886562077,-0.04555183713134072,0.35096955545782005,-0.9464995392439951,0.008068588649735003,0.4749385037187325,-1.0548250170341844,0.027060218058130213,0.666358915238594,0.8628248980132085,-0.08027541615214248,0.5978844765998376,0.9176072476939883,0.0,0.0,0.0,0.0
0.024371157272262172,0.07899747061870728,0.7546314459553326,0.004182738945740694,-0.555346908674723,0.009501099616908397,0.8315539939332924,-0.04359516444805916,0.34313334954078084,-0.9513880701773483,0.0015398115436754496,0.48667669898656063,-1.065252463315758,0.0155726754298286,0.6791424123363268,0.8590537829419034,-0.08010836103728972,0.5939236632319262,0.9326532464300101,0.0,0.0,0.0,0.0
0.026644933297780844,0.08144526513346406,0.7558930516221972,0.0038989948493190294,-0.5553937451179906,0.009709981104907943,0.8315216786049056,-0.042243414278259506,0.33653272141536483,-0.9579549237750626,-0.004830499694390653,0.4959478776503097,-1.0719500198335183,0.00407932231548439,0.6909562799373131,0.8550363107304927,-0.08130028348763906,0.5899665104328181,0.9465244743070685,0.0,0.0,0.0,0.0
0.028498200921776618,0.08377846939050201,0.7571017127203513,0.0036293837186699863,-0.555435049449616,0.00990486582914966,0.8314930108242834,-0.041206125336387914,0.3304626844939617,-0.9652412600112319,-0.010924450036026098,0.5029986151063842,-1.0755150073867106,-0.007267055340322282,0.7017318425271408,0.8508330651587583,-0.0829926821211249,0.5859058143739794,0.9596915470354698,0.0,0.0,0.0,0.0
0.029983385827789807,0.08597465908866692,0.7582552010764181,0.0033800296937897475,-0.5554659975916691,0.010082347210003662,0.8314712545803961,-0.04025159247758405,0.32447103078557393,-0.9727303791497314,-0.01666380881340046,0.5081790059940707,-1.0765836534712034,-0.01828213707708545,0.7115092633959083,0.8464652397644413,-0.08473241377061065,0.5816622428232179,0.9724694923810484,0.0,0.0,0.0,0.0
0.031162428447048248,0.08802053253756834,0.7593545032799875,0.00315314146371341,-0.5554866299380506,0.010242500015201475,0.8314564046613722,-0.0392195381102902,0.3182794888478834,-0.9801554379042924,-0.022004091684582668,0.5118647881872445,-1.075763275472652,-0.02880278385981285,0.7203864436500999,0.8419389164062875,-0.0862912672757141,0.5771919268652518,0.9850691061427042,0.0,0.0,0.0,0.0
0.03209711762261376,0.08991056514706036,0.7604012964941634,0.0029488475193885,-0.5554988976411462,0.010386809750251547,0.8314471680154973,-0.03801182101231996,0.3117223019341299,-0.9873916761599137,-0.02692733407888822,0.5144111813056808,-1.073596876646055,-0.038710330060992434,0.7284809495749521,0.8372655193331949,-0.08755809738595444,0.5724916987573354,0.9976275563924953,0.0,0.0,0.0,0.0
0.03284364524769599,0.09164486397788572,0.7613961830436912,0.0027662771393762746,-0.5555051347088975,0.010517076326584976,0.8314419908378327,-0.036575572037500045,0.3047075162946213,-0.9943916089410891,-0.03143391797929587,0.5161294543018601,-1.0705503596827821,-0.04793323399234134,0.7359037651041846,0.8324756906150417,-0.08848337065754107,0.5676016112008712,1.0102226423629002,0.0,0.0,0.0,0.0
0.03344999009617183,0.0932267251991219,0.7623370682332963,0.0026042613775700647,-0.5555071866110258,0.01063482860612385,0.8314396453541884,-0.03488643385906629,0.2972087985102925,-1.0011365010284186,-0.03553446047125137,0.5172779279219479,-1.0670158457162433,-0.05643826248365379,0.7427395202894683,0.827631523484366,-0.08904948866955065,0.5626081495867229,1.0228710378086556,0.0,0.0,0.0,0.0
0.0339548732947627,0.09466031422251836,0.7632170933726633,0.0024619221379638266,-0.5555057881340639,0.010740950852154957,0.8314396492011495,-0.03293445568831817,0.28929764040237965,-1.0075857209917778,-0.03924267308462455,0.5180600757733629,-1.063324744412657,-0.06421818658867208,0.7490276975580533,0.8228440646538254,-0.08924710948271247,0.5576506244203291,1.0355056165286523,0.0,0.0,0.0,0.0
0.03438713126723999,0.09594884603022713,0.7640218090867283,0.002339301796156333,-0.5555000554583159,0.010835398790268687,0.8314426078725881,-0.030712704128785177,0.28122296339262454,-1.0136122484071555,-0.04257009471145274,0.5186230777682831,-1.0597627901669275,-0.07128173389508143,0.7547406435050654,0.818301129855115,-0.08904073672975238,0.5529335394842869,1.04792028488531,0.0,0.0,0.0,0.0
0.034764576669066405,0.09709376023919726,0.7647258063227804,0.0022381526000127927,-0.5554872587228579,0.010916920566684949,0.8314503694838582,-0.02820841176968122,0.2735296220881518,-1.0189240065958975,-0.04552375405801949,0.5190512090254563,-1.0565771369610313,-0.07765128226647255,0.7597582741908429,0.8143057708575083,-0.08830783757332347,0.5487533357032336,1.0596634018832103,0.0,0.0,0.0,0.0
0.03509218071053271,0.09809554575952707,0.765290351527244,0.0021627468656168344,-0.5554633424717301,0.010982931644694357,0.8314656775289144,-0.02539905825112465,0.2671643684924978,-1.0229913699582467,-0.04810834279588585,0.5193528010122821,-1.0539646529187405,-0.08337136895531426,0.7638494450123438,0.8113110616597016,-0.08674335482794598,0.5455633113601779,1.0698547190720258,0.0,0.0,0.0,0.0
0.03536151089278988,0.09895672297161225,0.7656667579313534,0.002119822688009687,-0.5554253065647373,0.011030147729099035,0.8314905718168506,-0.02225970077781106,0.2634308923853364,-1.0250310436365226,-0.05033426472022552,0.5194528442852514,-1.052033439191349,-0.08852260515038943,0.7666951731321378,0.8098993426532408,-0.08376858873681947,0.5441240106665467,1.0769043140543144,0.0,0.0,0.0,0.0
0.035557417703105054,0.09968540873197806,0.7658169945084641,0.002114066210138074,-0.5553782297672953,0.01105888395550335,0.8315216495739983,-0.018788966907861162,0.26353095090073947,-1.0241475458009923,-0.0522301624318515,0.5192334856927531,-1.0507348802551477,-0.09319086927865136,0.7680369908257649,0.8105691009342688,-0.07863882505320703,0.5457416001641817,1.0782468927989943,0.0,0.0,0.0,0.0
0.03566844265165182,0.10028926331188551,0.76574199783096,0.0021446107023219228,-0.5553224917793322,0.011068799043040334,0.8315586644709282,-0.015026963560459475,0.2674446249658863,-1.0203090025867017,-0.053814037227337644,0.5186254660726143,-1.049953476981516,-0.09741514438556514,0.7678514848982284,0.8133473990101154,-0.07141349018065549,0.5503657468288427,1.0738216562462635,0.0,0.0,0.0,0.0
0.03568864150872477,0.10077664489440209,0.7654831269549871,0.0022050986309284613,-0.5552533104536044,0.011058943638429523,0.8316048331605241,-0.01105664032677513,0.2739514513623863,-1.0143854498445577,-0.055096324163512005,0.5176164815498577,-1.04951473360039,-0.10119065238080162,0.7663626665215082,0.8177717935307833,-0.06293313219296567,0.5566119465510057,1.0660845632884588,0.0,0.0,0.0,0.0
0.035607865725616666,0.1011630938288057,0.7650950539478564,0.002287559360960851,-0.5551731620016916,0.01103183189592481,0.8316584791548954,-0.006976425120917885,0.28174211303671876,-1.0071523560571005,-0.05610920149558601,0.5161622792734964,-1.049096188655789,-0.10452590925862447,0.7638757255727093,0.8232645638089395,-0.05384589351626583,0.5636700328008357,1.056544730954695,0.0,0.0,0.0,0.0
0.03540444788660334,0.10146750420956785,0.7646248888145307,0.0023867841998977727,-0.5550851354887244,0.010989402904489033,0.8317175173365355,-0.0028698057416214197,0.28986862036322003,-0.9991296849030149,-0.05689357233659887,0.5141435242372586,-1.0482901099534423,-0.1074699499068665,0.7606230427067358,0.8293544013827224,-0.044511586254448114,0.5710564692213124,1.0460269618083675,0.0,0.0,0.0,0.0
0.035045795431791656,0.10170937303916112,0.7641082620873404,0.002500089466823026,-0.5549908387661305,0.01093272245129828,0.8317808569678239,0.0011990353139272121,0.2977894880767896,-0.9906025165408527,-0.05749210812581335,0.5113730768697027,-1.0466411545385643,-0.11009403857091556,0.756735851276002,0.8357071851341213,-0.035100543887736584,0.5784544516713481,1.0349468233928099,0.0,0.0,0.0,0.0
0.03449127317371508,0.10190834759172984,0.763571348428704,0.0026263671969747365,-0.5548900385326828,0.0108623094263103,0.8318486386155064,0.00518070299625756,0.3052643326343771,-0.9817014353833777,-0.05794830009441603,0.5076131371777848,-1.0436634184215026,-0.11248035381114652,0.752262984042547,0.8420959908242874,-0.025688413769744387,0.5856410922339974,1.0234931721707392,0.0,0.0,0.0,0.0
0.03369557841831906,0.1020849040771234,0.7630340615166082,0.0027653599059833936,-0.5547809896624987,0.010778487823955383,0.831922009862654,0.009039865686125016,0.31223506149750896,-0.9724858896709899,-0.05830837053401577,0.5025919708773705,-1.0388480169419632,-0.11471992599558525,0.7472007789069187,0.8483624683532627,-0.016308632005675575,0.5924541898968141,1.0117412645045745,0.0,0.0,0.0,0.0
0.032613033396531425,0.10226088734243075,0.7625126289320644,0.002917282112158088,-0.5546610161869454,0.010681627893622706,0.8320027340177948,0.012762334473583777,0.31874674455598256,-0.9630089959651009,-0.058622858748082006,0.4960239815651078,-1.0316773761239648,-0.11691331819770047,0.7415227867515448,0.8543857889965885,-0.006969754559330282,0.598775672599276,0.9997238846498233,0.0,0.0,0.0,0.0
0.03120414448936719,0.10245882584843718,0.76202093950884,0.0030827392943276175,-0.554527198692581,0.010572193410759151,0.8320927300217731,0.01636818141611713,0.3249186454351531,-0.9533616424548782,-0.05894508240989544,0.4876423145818702,-1.0216644859521802,-0.1191676721076177,0.7352084707784562,0.8600622562351417,0.0023529650966422743,0.6045277366280971,0.9874850898156003,0.0,0.0,0.0,0.0
0.02944614365969608,0.10269897476267831,0.7615703696719484,0.0032629709205557163,-0.5543771804960133,0.010450417397524987,0.8321935373110512,0.019925217123214926,0.33095921299444775,-0.9437019037668732,-0.059323679061403956,0.47725611017865266,-1.0084388015889887,-0.12158589066632143,0.7282735094492591,0.8652963814263306,0.011753795925232275,0.6096896093480736,0.9751387676488464,0.0,0.0,0.0,0.0
0.02734942145642935,0.1029930258656828,0.7611674337223829,0.003460668512077158,-0.5542100949832711,0.010315213460178684,0.8323057075157866,0.02355265370766749,0.33721241862711165,-0.9342797337526975,-0.05978634007030384,0.46484773379169486,-0.9919088426607108,-0.12424775775238843,0.7208028681014453,0.8700100040780704,0.021483161315526748,0.6143528835489603,0.9629538296260741,0.0,0.0,0.0,0.0
0.024981762076886828,0.10333368755673608,0.7608070917618925,0.003682075156082556,-0.5540270967781836,0.010161494614445847,0.8324284728343226,0.02739945655474406,0.3442116933039881,-0.925471122152601,-0.060312401664223685,0.4507287383196964,-0.9725483526624757,-0.12719130928031477,0.7129783634422692,0.8741943776798236,0.0321420572909158,0.6188456629684481,0.9514847371126722,0.0,0.0,0.0,0.0
0.022500943207275435,0.10368006518060206,0.7604549574848146,0.003942178053400806,-0.5538237276145616,0.009973493985990919,0.8325648727763012,0.03158924013845977,0.3526450234056626,-0.9178035682306981,-0.0607923248258603,0.43577291591559336,-0.9519098389749868,-0.13041597622135712,0.705046738480964,0.8780639806957179,0.04508803701854074,0.6239547880315709,0.9417153565499409,0.0,0.0,0.0,0.0
0.020317243326537244,0.10388049993612972,0.7600443929497558,0.004277662553958225,-0.5535070826456275,0.009715501707548426,0.8327768128921287,0.03655416384210629,0.3629017679424549,-0.911729477274075,-0.060854542842141805,0.4226373185356292,-0.9350494527044158,-0.13354485215907536,0.6974869245642185,0.8816978948141792,0.06338439364098555,0.6313773223872867,0.9348731493125417,0.0,0.0,0.0,0.0
0.018614214248971552,0.10395361104485838,0.7597041791544379,0.004679940958639499,-0.5531513133902483,0.009384221766114378,0.8330148012065041,0.04158933226947836,0.37503254804781655,-0.9096199231356792,-0.060534794966203835,0.41252273077376944,-0.9230485611430483,-0.1368421908357615,0.6916475745054912,0.8841358100861639,0.0885906274899105,0.6404803778837794,0.9326746344538109,0.0,0.0,0.0,0.0
0.017647111261759385,0.10392180280412136,0.7595759775883083,0.005052971669906801,-0.5528211380506927,0.009030444758240615,0.8332356856670917,0.04516851446346435,0.38771100978837353,-0.9149659796424738,-0.05992812517785113,0.40702407787172634,-0.9174101974495538,-0.13980259837811218,0.6888638612452324,0.8842956869764572,0.11705376991809062,0.6484369421143705,0.9362040476603749,0.0,0.0,0.0,0.0
0.017618099191830834,0.10386706848407683,0.7595552475449764,0.005124622522785593,-0.5528244318811623,0.009033313241580241,0.8332330316370977,0.045196368061675915,0.3877296987676093,-0.9149705610580529,-0.05986212495210943,0.40691312456622064,-0.9173748789474552,-0.13980820572482497,0.6887905852804034,0.8842425009215868,0.11705232715707353,0.6484634643617561,0.9362151811873275,0.0,0.0,0.0,0.0
0.017618099191830834,0.10386706848407683,0.7595552475449764,0.005124622522785593,-0.5528244318811623,0.009033313241580241,0.8332330316370977,0.045196368061675915,0.3877296987676093,-0.9149705610580529,-0.05986212495210943,0.40691312456622064,-0.9173748789474552,-0.13980820572482497,0.6887905852804034,0.8842425009215868,0.11705232715707353,0.6484634643617561,0.9362151811873275,0.0,0.0,0.0,0.0
0.017798236185025577,0.10394180176581916,0.7594702052791474,0.0053029368769055485,-0.5528426949575421,0.008912165095118506,0.8332211031928313,0.045173558661139195,0.3888301488217706,-0.9165995484064767,-0.05994062357902854,0.40774271917965216,-0.9192864781483031,-0.14216163561387304,0.6892531860146587,0.885562423407341,0.11508159812631691,0.6480400088426187,0.9368545795636902,0.0,0.0,0.0,0.0
0.018408062089914887,0.10401056284683942,0.7593635492276459,0.005401161635327588,-0.5529050617699021,0.008847201398255218,0.8331797808094171,0.0451651892175058,0.3923805797157365,-0.9221954861071829,-0.06009620936915054,0.4110587476175119,-0.9248346348499239,-0.14406505632478656,0.690545797369781,0.8873334066682202,0.11430658325133922,0.648843804064462,0.9381216731491167,0.0,0.0,0.0,0.0
0.01954999858876088,0.10399524970944238,0.7592528535202505,0.005432302358505558,-0.5530401245160261,0.00883460789934166,0.8330900674414795,0.04537162953019948,0.39875250578567323,-0.932056078019453,-0.060147298817505745,0.4175807571219991,-0.9350093909702109,-0.14524641504424793,0.6931335834754615,0.8892173389018418,0.1152100560790732,0.6512867933349304,0.9401941762026857,0.0,0.0,0.0,0.0
0.02130032721163337,0.10380386666008937,0.7592552589778456,0.005398672300445028,-0.5533187201711363,0.008885005922118537,0.8329047394002101,0.04599372839584745,0.4081493906881252,-0.9456255083155963,-0.05988801017413228,0.42790634778995573,-0.9499641851286154,-0.14518422630706915,0.6980614774010617,0.8898640439740755,0.11856456084426605,0.6564527834468092,0.9423899555420554,0.0,0.0,0.0,0.0
0.023837961998499607,0.10332302543722606,0.7600296183695086,0.005305454361324764,-0.5541103597118927,0.009074709007346983,0.8323768443862484,0.047102263693699936,0.4215306974920552,-0.9600434337077427,-0.05915583968740517,0.4434668203375065,-0.9674811037215083,-0.14307999995434206,0.7103630144083948,0.8829820945970901,0.12606303225637705,0.6696024187777924,0.9396248280927237,0.0,0.0,0.0,0.0
0.02594369410382972,0.10325449365162448,0.7606025918303762,0.006151329364245165,-0.5538853293131082,0.008269439519455244,0.8325291703530852,0.0487574456492658,0.43370569068322373,-0.9754160078167025,-0.05466335953155246,0.418201203196372,-0.9416120248445722,-0.10936609045953019,0.6884062127243383,0.8994407642226724,0.11821236206014371,0.6747829284534267,0.9334835717435965,0.0,0.0,0.0,0.0
0.02824883357515715,0.10319489614462068,0.7613726745495419,0.00681379254975916,-0.5538251537076659,0.007702314378495478,0.8325694840101839,0.0500008568712959,0.4469312111733001,-0.9913791351169579,-0.04762492652523359,0.39832054257634014,-0.9310266169270541,-0.08020613343227355,0.6709903561949211,0.9126642203084171,0.11285625869568565,0.6826383968620402,0.925955839297659,0.0,0.0,0.0,0.0
0.030518296103021432,0.10312004683453309,0.7621854510217054,0.007245685846677035,-0.5539192907470613,0.007394035025641408,0.8325060045554767,0.05085454849957275,0.45973122614166684,-1.0063788620198053,-0.040905401719536945,0.3837309870649719,-0.9300395768032379,-0.059063617276609796,0.6586265613732445,0.9250894835396081,0.11050461538074453,0.6919156462753319,0.9184857744119337,0.0,0.0,0.0,0.0
0.032570482060025906,0.10303359638202884,0.7629711640244261,0.007543627663893905,-0.5540764667323038,0.007216966797668257,0.8324003111996991,0.05150746817582354,0.47115851043328216,-1.0193499094833565,-0.035225844488531353,0.3728053945147729,-0.9342237251112989,-0.04345585718736204,0.6495404374517955,0.9372697700726585,0.10968796011144645,0.7011843299024982,0.9113649400734622,0.0,0.0,0.0,0.0
0.03431196732025734,0.10294924969837722,0.7637192173334709,0.007779029649463955,-0.5542454772219402,0.0070880006771831825,0.8322867281911545,0.052047173011066566,0.4808114384134875,-1.0297756043846331,-0.030437104115634567,0.3641968169012987,-0.9410566233109632,-0.030949814247476885,0.6421873578932005,0.9492596789500704,0.10931238868142282,0.7097319828185995,0.9044841591429716,0.0,0.0,0.0,0.0
0.03571520690016171,0.1028831231299146,0.7644387012048041,0.00798679191378851,-0.554405078030298,0.0069723068015377565,0.8321794323023192,0.052479774650515856,0.48864150357042024,-1.0375914575756287,-0.02617570707172686,0.35689395093938464,-0.9491526462817194,-0.020029117603645223,0.635553643699227,0.9610338739774555,0.1087984248007384,0.7173274735159706,0.8976702675807274,0.0,0.0,0.0,0.0
0.0367945109317194,0.10285062981799228,0.7651393128203734,0.008180509335586091,-0.5545481168428783,0.00685958060190167,0.8320831758466181,0.052779828822556864,0.4947997128518817,-1.0430286775300501,-0.022129144664461475,0.3501778228381809,-0.9577651597974126,-0.009900909272461253,0.6290539946106014,0.9725846864985604,0.10788178524459087,0.7239723083670652,0.8907951343403064,0.0,0.0,0.0,0.0
0.03758737046762281,0.1028643670031433,0.7658259468529138,0.008362549781275671,-0.5546751609310596,0.006751420905767874,0.8319975672578689,0.05291496404651193,0.49953107704379907,-1.0464668866414946,-0.01811157324392067,0.3435802587521123,-0.9664988986151005,-0.00017400878033189566,0.622387367940383,0.983932131971916,0.10649370445030655,0.7297763870462931,0.8838016645185663,0.0,0.0,0.0,0.0
0.038140328404750144,0.10293418324975032,0.7664983054054475,0.0085328432107395,-0.5547876626366682,0.006650004275694779,0.8319216413917939,0.05286301329467887,0.503107876846737,-1.0483370601680193,-0.01404381166016756,0.3368058075532474,-0.9751509342780349,0.009320962602691238,0.6154179317249033,0.9951123030305414,0.10462126542820725,0.734863005744884,0.8766825404624298,0.0,0.0,0.0,0.0
0.03850070507522811,0.10306640640654592,0.7671527436458251,0.008688516031772786,-0.5548902953074074,0.0065607238086956236,0.8318522866266161,0.052606374840688475,0.5057886088714394,-1.049048265725392,-0.009921642176201576,0.32969120530405216,-0.9836260610309957,0.018679265539029564,0.608114129059254,1.0061611345636838,0.1023258153279742,0.7393663012531065,0.8694781786109619,0.0,0.0,0.0,0.0
0.03871069017000444,0.10326592436877033,0.7677828705020316,0.008827920282194746,-0.5549862904817804,0.006486442760137317,0.8317873594020792,0.05213577500239388,0.5077980941116118,-1.0489654358421432,-0.005772969187095391,0.32214044140873005,-0.9918860410149453,0.027941745506681718,0.6005042548919272,1.0170993099221255,0.09965195380747045,0.7433828187908631,0.8622519778487062,0.0,0.0,0.0,0.0
0.038804864427141594,0.10353752059765861,0.7683795564928072,0.008949584600035313,-0.5550781924860582,0.006429499444666297,0.8317251749819699,0.05144243986968719,0.5093185498420651,-1.048399713313771,-0.0016377985344686137,0.3141174546184452,-0.9999113309594975,0.037129080497083244,0.5926652023332271,1.0279126967186758,0.09663426059962264,0.7469697003726822,0.8550936939234786,0.0,0.0,0.0,0.0
0.03880886290235314,0.10388787173306582,0.7689293053674083,0.009052493719496011,-0.5551665218231417,0.006391028255971887,0.8316654015660894,0.0505142326956874,0.5104871081603792,-1.0476182495856816,0.0024441115867608167,0.30567093689733743,-1.00765614350325,0.04623345329312955,0.5847222597992864,1.0385209471019445,0.09327446595774076,0.7501241270908288,0.8481288018044681,0.0,0.0,0.0,0.0
0.03873876471510843,0.1043269062073989,0.7694114191605697,0.009134960472784741,-0.5552500212500232,0.006372236257688138,0.8316088990649905,0.049330247905556755,0.511393183126408,-1.0468555544009186,0.006433247209512414,0.2970197274295624,-1.014985309368982,0.05520206109952441,0.5768628681674446,1.0487192048688936,0.08954899173949517,0.7527693285708061,0.8415483988507673,0.0,0.0,0.0,0.0
0.0385999338507386,0.10486860913581252,0.7697943171212397,0.009194177040312113,-0.5553252225848537,0.006374183639975988,0.8315580160473217,0.04785971127921883,0.5120712244132519,-1.046320257133792,0.01028657146896436,0.28867829988432103,-1.021589526422271,0.06387752614238729,0.5693651569897442,1.058072408903015,0.08540605346866495,0.754728219030081,0.8356472286163221,0.0,0.0,0.0,0.0
0.03838538994841257,0.10552999419873609,0.7700329674396605,0.009224933202179915,-0.5553878979180277,0.00639869122023369,0.8315156283584079,0.04606326601379899,0.5124864447543259,-1.046179695868501,0.013949857354020559,0.281580054333555,-1.0268980101666147,0.07190312009261689,0.5626682585462806,1.0657352270155989,0.08078958884419185,0.7557114348217828,0.830861778061233,0.0,0.0,0.0,0.0
0.03807537664922447,0.10632763358568444,0.7700725811418099,0.00921768695273501,-0.5554376784017299,0.0064507607606759,0.8314820547339229,0.04389695502327641,0.5125241564895616,-1.046511935994841,0.01735067232232713,0.27705193898554364,-1.0300395195842698,0.07863315982349658,0.5575319446101923,1.070173343340107,0.07569472469479094,0.7553591570284169,0.8277557478646225,0.0,0.0,0.0,0.0
0.037643222648278435,0.10727417188188529,0.7698703318820648,0.009160104504905559,-0.5554852725382282,0.006537941803281026,0.8314502148629024,0.041319827942684205,0.5120250081355928,-1.0472334193701007,0.020402373615974138,0.2763378418061578,-1.029966185635191,0.08324623339192087,0.5552761410439695,1.0688951088650935,0.07018037634950844,0.753404177070497,0.8268038313469368,0.0,0.0,0.0,0.0
0.03706306479529538,0.10838684944966337,0.7694233781663989,0.009050186845071298,-0.5555311493636452,0.0066606072927047205,0.8314197931943098,0.03828483924947632,0.5108747925052525,-1.0481913562030247,0.023059522914870782,0.279402780022561,-1.0266283191252321,0.0856586318721146,0.5559092970811284,1.0619378362153724,0.064143906339789,0.7497692879644586,0.827969327898411,0.0,0.0,0.0,0.0
0.036311248217668166,0.10968770347195499,0.7687687959672723,0.00889697579955958,-0.5555642837778514,0.0068113597653413245,0.8313980850291707,0.03473999351262752,0.50901276841754,-1.0491803132651027,0.025335405917813435,0.28494429074092625,-1.0210048210240388,0.08654460595504095,0.5581152423647079,1.0518370492633673,0.05732506358378337,0.7445738254311488,0.830691120581585,0.0,0.0,0.0,0.0
0.035358729045420235,0.11119384326522241,0.7679560785480563,0.008708229472774293,-0.5555824556798293,0.006983740654113394,0.8313865100220812,0.030643627553142167,0.5063409050822706,-1.049845727331545,0.02725187948842112,0.291579449791917,-1.0139084370844083,0.08643304071192986,0.5611116478241429,1.040138564774359,0.049534739396343716,0.7380386071694355,0.834296531567785,0.0,0.0,0.0,0.0
0.034165323605446885,0.11291813151541655,0.7670258875626119,0.008488620785122967,-0.5555862929118666,0.007173240439650547,0.8313846035783985,0.02596435396337335,0.5026820581375353,-1.0497354166844959,0.028823414084964118,0.29832207027612884,-1.0058529910868945,0.08559252371992317,0.564422336649689,1.0276751071826893,0.04066703817706266,0.7303289847580916,0.8382301465653187,0.0,0.0,0.0,0.0
0.032681515836381264,0.11486966540364314,0.7660066078819138,0.008242763871836976,-0.5555745400142221,0.007373316693360082,0.8313931810717948,0.0206883918581788,0.49778950364069374,-1.0483374736028406,0.030061042190547296,0.3046072848558357,-0.9971060924618856,0.0841077335728032,0.5677279311777239,1.0148507368365247,0.03065504642149324,0.7215161073898739,0.8420723536137851,0.0,0.0,0.0,0.0
0.030853152449102576,0.1170508814712302,0.7649170394461857,0.007975669492926241,-0.5555448719617897,0.007576317894006879,0.8314137858733563,0.014825863741170349,0.49136472183590035,-1.0450894886670232,0.030976394732116618,0.3101777373350014,-0.9877938181886515,0.08199491168897509,0.5708019551128023,1.0018245574661895,0.01949927874103486,0.7116138946671318,0.8455160073710313,0.0,0.0,0.0,0.0
0.02862668828114357,0.11945335154638771,0.7637705552465475,0.007693614332441796,-0.5554947719937618,0.0077736306558932895,0.8314480965475404,0.00842155225161451,0.48307627446455575,-1.0393803724520079,0.03158968935814173,0.31495564224362455,-0.9779974521209117,0.0792727277142642,0.5734799879853245,0.9886191128261388,0.007290928048057008,0.7006226078277173,0.8483317453372221,0.0,0.0,0.0,0.0
0.025955555650852422,0.1220534727410635,0.7625791531594697,0.007405362523713851,-0.5554218036052573,0.007955037344235277,0.8314977438734438,0.0015670213957075909,0.47258496725376975,-1.030563544395457,0.03194080024101276,0.31895550869204786,-0.9678220429628116,0.07599791658346904,0.5756403611334819,0.9751824312639781,-0.005779626946881658,0.6885668343293901,0.8503366952466759,0.0,0.0,0.0,0.0
0.022809611070824104,0.12480850816015737,0.7613563885147806,0.007121642498629217,-0.5553255254719143,0.008110696615258055,0.8315630220060769,-0.005593784399354659,0.45958464082310513,-1.0179985914997252,0.03210145956079354,0.32226216923192047,-0.9574352883659202,0.07230840536644063,0.5771978342986542,0.9614290854759805,-0.0194018760342845,0.6755392227272421,0.8513888223451554,0.0,0.0,0.0,0.0
0.019189489995433417,0.12765515524259474,0.7601183070887747,0.006854749058467954,-0.5552081424883029,0.008232527092609267,0.8316424450613997,-0.012865892609488547,0.44387513757653846,-1.0011598574354694,0.0321963017582593,0.32506060389218827,-0.9470744339703628,0.06846242493721609,0.5781195024418594,0.9472812383541617,-0.0331596807894829,0.6617289461216901,0.8514015240899329,0.0,0.0,0.0,0.0
0.015148998410554691,0.1305116195405066,0.758878754359859,0.006616454521987963,-0.5550750272700357,0.008317098752641448,0.8317323863473554,-0.020018485523766723,0.42548684274047355,-0.9798616525983147,0.032425130060193846,0.32772068543027005,-0.9370238846432533,0.06489937616474273,0.5784909784454286,0.9327283336072578,-0.046561611895328245,0.6474262048707977,0.8504249220975703,0.0,0.0,0.0,0.0
0.010828135645668494,0.1332838266932358,0.7576274657727659,0.006416196067262135,-0.5549287592534092,0.00835913182479262,0.831831130396449,-0.026792560685822323,0.40488166119564806,-0.954705791981879,0.03309828545068017,0.3308872243569801,-0.9275965125201302,0.06224742613009194,0.5786718852906956,0.9179351782577958,-0.059147852827235566,0.6328972700528449,0.8488917781324959,0.0,0.0,0.0,0.0
0.00657407645186271,0.13593736024799377,0.7562898181482296,0.0062479023463357175,-0.5546924098188217,0.00839607167011234,0.8319896635092106,-0.033189467752110166,0.38384677954115715,-0.9291914558527826,0.03467147514433673,0.3350186819417276,-0.9184748386166864,0.06141139341634499,0.5798768940862047,0.9027843017767679,-0.07062698830351735,0.618294265909716,0.8477352623867824,0.0,0.0,0.0,0.0
0.0027852702741346107,0.13831027076137503,0.754936313159304,0.006097532594605787,-0.5544059229766888,0.00843749149616559,0.832181291187128,-0.038851872013281476,0.36450505169257963,-0.9062227563064945,0.03698250962762409,0.3405799683169396,-0.9103579177604347,0.063851431885847,0.5820293718469709,0.8875347657454966,-0.08029662425661452,0.6047183787355525,0.8474223186143914,0.0,0.0,0.0,0.0
-0.0002223296866306428,0.14015514610211313,0.7537100295177194,0.0059455190292195155,-0.5541244348394004,0.008518955238725435,0.8323690220803684,-0.043290543857313395,0.3485794768955393,-0.887796520809048,0.03990207790310413,0.34708971971665614,-0.9044615856034742,0.07111569160661028,0.5845033494558598,0.8720373115075377,-0.08704179131707543,0.5933960506280492,0.8482897012251316,0.0,0.0,0.0,0.0
-0.0020134541609134176,0.14122170130423783,0.7528294304880061,0.005787586018651614,-0.5539037445364925,0.008645492376685975,0.832515706217062,-0.04596194662240109,0.3386888589043404,-0.8770458477330906,0.04238807290422208,0.352657155746594,-0.902150572084484,0.08169870424083658,0.5870380566878428,0.8570627113350954,-0.09005472930252013,0.5860489212810527,0.8501303764744178,0.0,0.0,0.0,0.0
-0.002045127284256842,0.14136483708133601,0.752749702682792,0.005674305060432253,-0.5539216013296089,0.008618631835521912,0.8325048834858608,-0.04611983749678653,0.33848988291828475,-0.8769840434641643,0.0423811229023637,0.35267151473393127,-0.9021704329242836,0.08171917388183392,0.5870772494499537,0.8570733068212925,-0.09008632600747901,0.5859510944323459,0.8500410599276507,0.0,0.0,0.0,0.0
-0.002045127284256842,0.14136483708133601,0.752749702682792,0.005674305060432253,-0.5539216013296089,0.008618631835521912,0.8325048834858608,-0.04611983749678653,0.33848988291828475,-0.8769840434641643,0.0423811229023637,0.35267151473393127,-0.9021704329242836,0.08171917388183392,0.5870772494499537,0.8570733068212925,-0.09008632600747901,0.5859510944323459,0.8500410599276507,0.0,0.0,0.0,0.0
-0.002045127284256842,0.14136483708133601,0.752749702682792,0.005674305060432253,-0.5539216013296089,0.008618631835521912,0.8325048834858608,-0.04611983749678653,0.33848988291828475,-0.8769840434641643,0.0423811229023637,0.35267151473393127,-0.9021704329242836,0.08171917388183392,0.5870772494499537,0.8570733068212925,-0.09008632600747901,0.5859510944323459,0.8500410599276507,0.0,0.0,0.0,0.0
-0.0011880658612555555,0.14171592199299593,0.7526731530951138,0.0056779397468997225,-0.5542011795485557,0.008461240739712432,0.8323203836218146,-0.04660621165796045,0.3440360987384904,-0.8848561401145478,0.04200167202476929,0.35699786136896466,-0.9081760957888098,0.0799895452969503,0.5886276228501522,0.861179338911595,-0.09272273316877604,0.5875277209230815,0.8507342809082878,0.0,0.0,0.0,0.0
0.00044272218736199115,0.14229350271405278,0.7525285212935791,0.0056583759661435725,-0.554467154452614,0.008388951065041027,0.8321440878325551,-0.04788613024746907,0.35469078870099935,-0.9016629040026294,0.040999530696255684,0.36560535724550536,-0.921223477743577,0.07793101358658436,0.5908712787576765,0.8673530215036058,-0.09633386183807487,0.5902514405724255,0.8520777701033442,0.0,0.0,0.0,0.0
0.002799769137671714,0.14319130850772743,0.7523690910888288,0.005594517424858195,-0.5547450633113644,0.008408923010040812,0.8319590771908582,-0.050191027237717685,0.37009501209554874,-0.9264606674586309,0.03912371046003897,0.37793054168140167,-0.9399184426177026,0.0751740826838507,0.5941103091958978,0.8753127231666876,-0.10126293800489099,0.59458418271961,0.8529992763934111,0.0,0.0,0.0,0.0
0.005886436751372914,0.14462411904632222,0.7524953965091378,0.0054346364280981945,-0.5551312133761169,0.008580475710350217,0.8317007731744864,-0.05415075773014282,0.3905220471907959,-0.9581153768652546,0.035708577896016405,0.39369713999798134,-0.961791433717729,0.07111597766682501,0.6001965071116071,0.8828815038432399,-0.10813995758603484,0.6028961640222287,0.8496610510274593,0.0,0.0,0.0,0.0
0.009934482098241843,0.1471267064184077,0.7541697071772681,0.005026508295900393,-0.5560849735024616,0.009186201292855054,0.8310594745052395,-0.06158925721852606,0.418787026001592,-0.9943777633221533,0.028810370492409455,0.41430833537760725,-0.9807720728735353,0.06512787588667356,0.6171453523109358,0.8803055367357372,-0.11796528214114241,0.6251670645797649,0.8283324717080223,0.0,0.0,0.0,0.0
0.013266293428991714,0.14942005705663186,0.7554973434188075,0.004931039215896679,-0.5556639191537343,0.009057242925061855,0.8313430460126313,-0.05631388295109089,0.3932590237850418,-0.9608090133533499,0.02385703337278182,0.43096255495888447,-1.0026169761762604,0.05381332658721921,0.6303052937318256,0.8762483000207171,-0.10137488581472853,0.6153939754978227,0.8584715804275824,0.0,0.0,0.0,0.0
0.016803098589326583,0.15182889197635452,0.7568160376584155,0.004819070533789632,-0.5553678587179796,0.009050576147172746,0.8315415835264048,-0.051408103823234755,0.37402113395401604,-0.9448528814266077,0.01827587416697375,0.44821766373884275,-1.024359064622904,0.04221126628682334,0.6440565304928914,0.87263860351108,-0.08733935095132651,0.6092198574894447,0.8825866743202428,0.0,0.0,0.0,0.0
0.02021130372138498,0.15431131779715165,0.7581358002614884,0.004616686188848783,-0.5552602362404416,0.009182284982435073,0.8316131564022685,-0.047439930127587064,0.360422449129309,-0.9404663742071515,0.012154621600097096,0.464240456315623,-1.0426611563616448,0.030907804240613193,0.6578851385855086,0.8691106237476144,-0.07947190362256595,0.6044807595855126,0.902352390704696,0.0,0.0,0.0,0.0
0.023290803786216504,0.1568038640470719,0.7594497247170292,0.004356775423937465,-0.5552543640573933,0.009378361437708638,0.8316162913506858,-0.04450236378910073,0.3504573170329405,-0.9422999163451239,0.005805330725931655,0.4781472595221545,-1.0568203542031336,0.019667472694110805,0.671334278877325,0.8653073545140678,-0.07637424600617121,0.6002538066938352,0.919243381263572,0.0,0.0,0.0,0.0
0.025948434744478083,0.15925972149572773,0.7607364071454438,0.00407500940659072,-0.5552890706256133,0.009594127970748378,0.8315920845285625,-0.042439664834371976,0.34268121271176755,-0.9473498841338455,-0.0005572848165605604,0.4896003740895456,-1.066903364322257,0.008361673936824895,0.6840164269345257,0.8612382784459098,-0.0760413004760919,0.5962198837018201,0.9342934094060442,0.0,0.0,0.0,0.0
0.028165759975935026,0.16164014660442483,0.7619797068471608,0.0037949331643967656,-0.5553320147944232,0.009805588832447611,0.8315622660115677,-0.04097759179748525,0.33608837787009177,-0.9539600124910259,-0.006774008975076027,0.49862827327028897,-1.0733333471036781,-0.0029689864118706104,0.6957204940346962,0.8569812522473813,-0.07704202568923035,0.5922164985663482,0.9481939168294967,0.0,0.0,0.0,0.0
0.029970431424805197,0.16391404813537302,0.763172040891918,0.0035292240393278783,-0.5553690370354574,0.010002263482406326,0.8315363684200574,-0.03983672605928517,0.33000093639788736,-0.9612261580890237,-0.01272986721908367,0.5054749708761306,-1.076690057982923,-0.014173718376324829,0.706390763541757,0.8525805021202499,-0.0785439962578291,0.5881247957082638,0.9614046111722729,0.0,0.0,0.0,0.0
0.03141444302337957,0.16605902781066773,0.7643117471481367,0.0032836637814275087,-0.5553958144403652,0.010181021597123543,0.8315173201163839,-0.03879023543583935,0.3239821026686772,-0.9686638494162607,-0.018348120041821507,0.5104861761471822,-1.0775949198777595,-0.025068582924404757,0.716074461572377,0.8480458794491427,-0.08010624779734839,0.5838589760996351,0.9742328528075199,0.0,0.0,0.0,0.0
0.03255906422505432,0.1680614290942444,0.7653998528122209,0.0030602333665498936,-0.5554126471175721,0.010342168251507723,0.8315049404239586,-0.03767913507812459,0.3177625005239269,-0.9760248670492049,-0.023584502393081318,0.5140327528982714,-1.0766440429887378,-0.03548983376461793,0.7248723713496154,0.8433761985718765,-0.08150487934007987,0.5793723270635224,0.9868846372227723,0.0,0.0,0.0,0.0
0.03346532585336505,0.16991511428842093,0.7664377863155949,0.0028589261964859646,-0.5554215763258291,0.01048736862205769,0.8314978738349963,-0.03640481578887629,0.31118135807221653,-0.9831948940518447,-0.028420338327741962,0.5164652602164388,-1.0743724040122988,-0.04531742360762828,0.7329023247735823,0.8385782840254798,-0.08262923151525906,0.5746608033929905,0.9994943703047926,0.0,0.0,0.0,0.0
0.03418866234768619,0.17161944593532732,0.7674257810755932,0.0026788062144632013,-0.5554249295976563,0.010618549108352046,0.8314945688298495,-0.03491327159861205,0.30414920933987805,-0.9901320950929217,-0.03285472807610114,0.5180908357023224,-1.0712402852708238,-0.05447800281545808,0.7402741953988383,0.8336798092515033,-0.08342866681379273,0.5697643790035278,1.012138338913011,0.0,0.0,0.0,0.0
0.03477634441406912,0.1731769524960255,0.7683613569235817,0.0025186884151990304,-0.5554245014317587,0.01073731528437313,0.8314938300904183,-0.033178937486657206,0.296640479899249,-0.9968207129546061,-0.03689675732582762,0.5191642914537471,-1.06763586504789,-0.06293645858315523,0.7470709563539683,0.8287408866331335,-0.08388393474040141,0.56476953073425,1.0248323073975858,0.0,0.0,0.0,0.0
0.035266456112403866,0.1745910885834014,0.7692373079793482,0.002377712757707704,-0.5554209627094817,0.010844581204619922,0.8314952168974941,-0.031190906342409477,0.28872612121876406,-1.003221735227976,-0.04055859757746372,0.5198861783862503,-1.063887705308142,-0.07068394319242528,0.7533303841561438,0.8238712303026977,-0.08398403054917697,0.5598151448388708,1.037508284251111,0.0,0.0,0.0,0.0
0.03568726671873,0.17586446234732125,0.7700389003376638,0.0022559556085994417,-0.5554133596981206,0.010940293186504255,0.8314993809487362,-0.028941754165769926,0.2806534127370037,-1.0092091337962699,-0.043850393531504106,0.5204012314797167,-1.0602793715277723,-0.07772797474228249,0.7590232768413521,0.8192577720513818,-0.08369222823049596,0.5551044491285638,1.04995876737652,0.0,0.0,0.0,0.0
0.03605607612725156,0.17699803101429276,0.7707404998839494,0.0021552144256594265,-0.5553988766801774,0.011023146859182865,0.8315082279006609,-0.026418825889626286,0.27296453719090574,-1.0144914954777045,-0.04677798804122337,0.5207916144855154,-1.0570563240960529,-0.08409033592698231,0.7640281703609391,0.8152031314248951,-0.08288611692330464,0.5509312289902969,1.0617294589377175,0.0,0.0,0.0,0.0
0.03637738300609285,0.17799191569475262,0.7713031871759563,0.002079801743907585,-0.5553733186329868,0.01109047369219685,0.8315245954080803,-0.02360032219611691,0.26660242810553914,-1.0185393421582305,-0.04934509833596835,0.5210638005037583,-1.0544143062684175,-0.08981550231268182,0.7681125030425425,0.8121604051909854,-0.08126347550677095,0.5477442299694041,1.071935392689319,0.0,0.0,0.0,0.0
0.03664234553954889,0.1788483586677622,0.7716780948839629,0.0020364578150454354,-0.5553334437413564,0.011138921043987346,0.8315506860918996,-0.020462353469363117,0.2628655564690588,-1.0205683324064865,-0.051561382639273026,0.5211412816017484,-1.0524612809356246,-0.09498414084633235,0.7709555374834189,0.8107123703609156,-0.07825218410724742,0.5462976921344438,1.078979330201799,0.0,0.0,0.0,0.0
0.03683558879171519,0.17957530216793066,0.7718270130734765,0.00202977949042119,-0.5552840521829484,0.011168849717245192,0.8315832839725066,-0.017004342709369985,0.262949348987331,-1.0196796925337024,-0.05345513083739638,0.5209054620549614,-1.0511495253250436,-0.09968154210505803,0.7722969718703727,0.8113581465205355,-0.07311516775731139,0.5478923774988048,1.0802875322888796,0.0,0.0,0.0,0.0
0.03694584642570435,0.180180588559003,0.7717509409050023,0.002058852871505392,-0.5552255173087183,0.0111799888588221,0.8316221461115837,-0.0132665148056074,0.26683415853310494,-1.015842389334455,-0.05504491554095997,0.5202877362627316,-1.0503640543206711,-0.10394751831152275,0.7721139881129109,0.8141247186120182,-0.06591181936633542,0.5524782886345339,1.075800471141598,0.0,0.0,0.0,0.0
0.036967760113622766,0.1806731188606231,0.7714915280204336,0.0021173289553782703,-0.5551532989706313,0.01117146532324239,0.8316703252627516,-0.009331274891525165,0.27330613775359136,-1.0099310746963388,-0.05634264676052888,0.5192776641385907,-1.04993042917006,-0.10777995862088542,0.7706336243134301,0.8185487609311121,-0.05747467785443647,0.5586770944033524,1.0679844431703676,0.0,0.0,0.0,0.0
0.036891895952834125,0.18106908198578306,0.7711037181454086,0.002197179539241065,-0.5550700372731081,0.011145944124902897,0.8317260330501067,-0.005296319634882877,0.2810612421762398,-1.0027231406051136,-0.0573823098553384,0.5178332460368716,-1.0495270784365252,-0.11119010418214006,0.7681639704638837,0.8240517392562257,-0.048445018363407845,0.5656854423569402,1.0583570010918257,0.0,0.0,0.0,0.0
0.0366972826805755,0.18138810000340186,0.7706348829718629,0.00229311352416972,-0.5549788494351126,0.011105502786171681,0.8317871639535622,-0.0012448448216334147,0.2891552485289514,-0.9947388077500965,-0.05820675842254694,0.5158372978670086,-1.0487477265080245,-0.11423013189261969,0.764939765350992,0.83016182387372,-0.03917982299633117,0.5730246023768951,1.0477482896943213,0.0,0.0,0.0,0.0
0.03635194681954904,0.18165048398708927,0.770120929452683,0.002402364337408604,-0.554881283273344,0.01105129624123529,0.8318526666242682,0.0027585713066878323,0.29704919719937717,-0.9862622782363876,-0.05886069755401312,0.5131044629265545,-1.0471384286486833,-0.11697492288757023,0.7610941200925556,0.8365447529042122,-0.029849362558236867,0.580380678183562,1.036576959785636,0.0,0.0,0.0,0.0
0.03581576211388619,0.1818767661625625,0.7695883156064006,0.002523753389655931,-0.5547769805379736,0.010983872378110052,0.8319227650939589,0.006663547275938093,0.3045040777178136,-0.9774221034846784,-0.059389656636047,0.5093982045691395,-1.0442143702568363,-0.11951060512015986,0.7566771462448983,0.8429739514484874,-0.020530253908655025,0.5875325737874079,1.0250337251610055,0.0,0.0,0.0,0.0
0.0350437789705199,0.18208832336036537,0.7690572059507497,0.0026569717464041106,-0.554663994510514,0.010903528041910875,0.8319987420489399,0.010433470215004466,0.3114618954389789,-0.9682739977451016,-0.059841747869347275,0.5044473751983878,-1.0394674767746563,-0.12193204489139432,0.7516854387953738,0.8492920498740446,-0.011256609358454914,0.5943195105085188,1.0131953027849248,0.0,0.0,0.0,0.0
0.03399043675282914,0.18230782078613636,0.768543973679809,0.002802207133403712,-0.5545393340683843,0.010810553035371408,0.8320825719537958,0.0140530663054711,0.31796612540216435,-0.9588646307293452,-0.06026899751909745,0.4979660113360833,-1.032380820357648,-0.12434285063504924,0.7460910605889607,0.8553800694831045,-0.002036243783542807,0.6006250246898104,1.0010961130929417,0.0,0.0,0.0,0.0
0.032615990656187706,0.1825583923226479,0.7680624413045828,0.002960066285469175,-0.5543995894990595,0.010705281356831079,0.8321765017842855,0.01754227912615882,0.3241317041275578,-0.9492742464032963,-0.060725472543495036,0.48968543798780834,-1.0224678832156004,-0.12685152234702807,0.7398692162339731,0.861137330598896,0.007159253406745392,0.6063733819286664,0.9887823120618867,0.0,0.0,0.0,0.0
0.03089684590282461,0.1828605137792795,0.767623579666415,0.003131815982508632,-0.5542416452453507,0.01058777630092134,0.8322825778528469,0.02097086963202996,0.3301577552125414,-0.9396439827344817,-0.06125944552761278,0.47941067170326956,-1.0093580855089528,-0.1295595863015508,0.7330273182937206,0.866472638405993,0.01643327815896718,0.6115460398263564,0.976370220296158,0.0,0.0,0.0,0.0
0.02884167387070053,0.18322550627698583,0.7672330699557526,0.0033201797961984513,-0.5540634684081627,0.010456762280373759,0.8324021296850757,0.024463551476726644,0.3363695273211672,-0.9301974686219417,-0.0618967418069184,0.4671162784045381,-0.9929580907621663,-0.13254155619552374,0.7256369616049146,0.8713125249562387,0.026055096594032993,0.6162353942916872,0.9641307602076621,0.0,0.0,0.0,0.0
0.0265151840031616,0.18364484573405662,0.7668847476692477,0.0035313557053582505,-0.5538645426510522,0.01030700595512529,0.8325355028760419,0.028179729824276717,0.3432653431481363,-0.9212704040043256,-0.06261293697233473,0.4531002766330036,-0.9737341785066148,-0.13582481568047725,0.717861856710519,0.8756494872251945,0.036660751932324626,0.6207647110543135,0.9526194620433243,0.0,0.0,0.0,0.0
0.024070276587310972,0.18407521012856723,0.7665436992409618,0.003779883280248156,-0.5536404050370951,0.010122872749304429,0.832685740144534,0.0322564369147984,0.3514816994132832,-0.9133322265434604,-0.06329243890405827,0.43821398796274486,-0.9532057991196504,-0.13939184279217107,0.7099369017108786,0.8796893195631136,0.049667129969292366,0.6259055941197255,0.9428341505438153,0.0,0.0,0.0,0.0
0.02191412827388716,0.18435570679630192,0.7661369919623827,0.004103947786364042,-0.5532900581294838,0.00986634145511761,0.8329201189153317,0.03715880329048055,0.3613067859949952,-0.9067024295443705,-0.06354098897760885,0.42511490101937593,-0.9364988094439439,-0.14282749149909132,0.7022898233936026,0.8835168558441663,0.06832190597989687,0.6333967558758935,0.9359911624437004,0.0,0.0,0.0,0.0
0.02022338416012371,0.18449533300640472,0.765791176311593,0.004493231950577623,-0.5528837279174474,0.009534448001982514,0.8331917477820107,0.04221198079926145,0.3726425922476628,-0.9035560770021515,-0.06337116403142382,0.4149819616637116,-0.9246892792237326,-0.14633197309465185,0.6962356253635307,0.8861398395901092,0.09432655775424095,0.6425805652535443,0.9338101794406235,0.0,0.0,0.0,0.0
0.019245991446556202,0.18450133514510877,0.7656497051690339,0.004845388504498171,-0.5524874066011871,0.009181423086085775,0.8334565910876518,0.04592357698054369,0.38401210445641665,-0.9071389921360515,-0.06284365090542841,0.40939209577237523,-0.9192310548957868,-0.14925695486274915,0.6931011496260977,0.8863962447048006,0.1239897772295029,0.6505391224333981,0.9373849715199553,0.0,0.0,0.0,0.0
0.01921905496273257,0.18445235037994664,0.7656300859872728,0.004911891486056577,-0.5524890335545802,0.009183220150552748,0.833455103524852,0.04595125878104121,0.3840307538560581,-0.9071425418773141,-0.06278411094559061,0.40928403815845815,-0.9191968265661605,-0.14926379685206512,0.6930287726015866,0.8863437669300055,0.12398886661848046,0.6505654085311581,0.9373960968539581,0.0,0.0,0.0,0.0
0.01921905496273257,0.18445235037994664,0.7656300859872728,0.004911891486056577,-0.5524890335545802,0.009183220150552748,0.833455103524852,0.04595125878104121,0.3840307538560581,-0.9071425418773141,-0.06278411094559061,0.40928403815845815,-0.9191968265661605,-0.14926379685206512,0.6930287726015866,0.8863437669300055,0.12398886661848046,0.6505654085311581,0.9373960968539581,0.0,0.0,0.0,0.0
0.019415468776174342,0.18453316378198628,0.7655533992120226,0.00510626722319248,-0.552553631236898,0.009057836299710974,0.8334124826540162,0.04590750510382453,0.38521187281636254,-0.9086261302031098,-0.06287956938121596,0.4101699979222985,-0.9209705297714547,-0.1518861627459613,0.6937502761124555,0.8877172088835882,0.12193162068137128,0.6503306500692441,0.938065586213145,0.0,0.0,0.0,0.0
0.020039255138785912,0.18460781551000555,0.7654541179032588,0.0052144190480448984,-0.5526493567480287,0.008990243046613233,0.833349070828032,0.04588188606180502,0.38885776302350755,-0.9141788433804414,-0.06305378242085286,0.41353123655089996,-0.9264111176458911,-0.15402329994276662,0.6952655537928347,0.8894982912270836,0.12112239410053398,0.6512985352826864,0.9393282732146105,0.0,0.0,0.0,0.0
0.021191477474689614,0.18460284956692125,0.7653495730920903,0.005253577853641908,-0.5528066964120614,0.008974698098280179,0.8332446286150085,0.046063720230659015,0.3953402599310472,-0.9240856220508065,-0.06313577099085863,0.4200698278227158,-0.9364779355307923,-0.15547356113798222,0.6980530248075993,0.8913701159289142,0.1219935917512467,0.6538786562001806,0.9413480118138846,0.0,0.0,0.0,0.0
0.022947983983047607,0.18443412752170682,0.7653544224081705,0.005229252333302305,-0.5530970666034907,0.009018807441907946,0.8330515896071349,0.046638558393326056,0.40486927917539,-0.937804164900778,-0.06293448247317543,0.4303633018024623,-0.9513038804043785,-0.1558068730042038,0.7031561796842946,0.892037475406965,0.12524762796534805,0.6591359775913335,0.9434377311488242,0.0,0.0,0.0,0.0
0.025487720084037158,0.18399815695639957,0.7661172149399653,0.00515109482840076,-0.5538900209910268,0.009194150034994422,0.8325231399028874,0.04766027722432797,0.4183930592302079,-0.9524918588600375,-0.06230223914543251,0.44581203995865953,-0.9686728557030642,-0.15437634524132277,0.7155733498853428,0.8853501910623043,0.13249528256162046,0.6722663682156844,0.9405734167566858,0.0,0.0,0.0,0.0
0.02759298225097852,0.18397347535991715,0.7666742502370321,0.006038591875957487,-0.5536918705907515,0.008345941941565793,0.832657908809481,0.04926564710028081,0.43067456612431726,-0.9678929907790836,-0.05783716330295761,0.42021250639998375,-0.9422630027721333,-0.11835458703420608,0.6931167071793197,0.9014993176180642,0.1238910689379436,0.6773160254149703,0.9344651040473547,0.0,0.0,0.0,0.0
0.029900698849892184,0.1839572769171178,0.767432379219491,0.006732520433717011,-0.5536601071362698,0.00774672738016521,0.8326794984562554,0.050444243818384235,0.4440252652020014,-0.9839231602240907,-0.05080948695535505,0.40010943561138645,-0.9313673172082201,-0.08759657854153345,0.6753381390170041,0.9145376625406556,0.11793276550168372,0.685110969084784,0.9269328732343373,0.0,0.0,0.0,0.0
0.03217344610214853,0.18392375697017221,0.7682335539145767,0.007184057196832121,-0.5537740322800955,0.007416867944640241,0.8326029669442261,0.0512254022253542,0.4569515460398955,-0.9990600827046952,-0.044120093698254315,0.38536119313482436,-0.9302088225225342,-0.06563816945975057,0.6627818930807349,0.9268987986760958,0.11513022310326451,0.6943458700042505,0.9194400820420783,0.0,0.0,0.0,0.0
0.03422894742188664,0.18387467308301458,0.7690075761223557,0.007492918403211414,-0.5539444832540366,0.007226357746086956,0.8324885256866588,0.051804956040599905,0.468492369670033,-1.0121981240843865,-0.0384933875165773,0.37433173371117284,-0.9343035619668622,-0.049677342083242176,0.6536281572744582,0.9390955519186057,0.11398097724500204,0.7035792342237636,0.9123008780074123,0.0,0.0,0.0,0.0
0.035974177610314906,0.18382307353080116,0.7697442564714163,0.007733243302719712,-0.554122860061415,0.007089969684132888,0.8323687795894656,0.052274331439374946,0.4782442006999519,-1.0227963474910693,-0.03377430243403869,0.36566608127843436,-0.9410985438041246,-0.0370516363247069,0.6462871335096282,0.9511516367230779,0.11336299117876249,0.7120984739000612,0.9054141634863373,0.0,0.0,0.0,0.0
0.03738215836400984,0.18378521386719768,0.7704530182245078,0.007942160425503279,-0.5542893009218764,0.006970729575270344,0.8322569927014741,0.052642433066297706,0.4861618542200817,-1.0307817005143882,-0.02959090589005166,0.35834027938352214,-0.9491907146743422,-0.026120427035576137,0.6397121114157662,0.9630219627110599,0.11266983009794866,0.7196711809836065,0.8986066188211961,0.0,0.0,0.0,0.0
0.03846763005143077,0.1837769161685144,0.7711437511852082,0.008134750777444605,-0.5544375836316554,0.006856863091525321,0.8321573019057298,0.05288511936808056,0.49240049768754784,-1.036383090692789,-0.025623784314475297,0.3516239788674413,-0.9578227722370569,-0.01602850312890307,0.6332969287302803,0.9746871302222697,0.11161822590953573,0.7262985687946204,0.8917481638056909,0.0,0.0,0.0,0.0
0.03926821153159043,0.18381131943255122,0.7718214005309845,0.008314526582258874,-0.5545687063802028,0.006748711721872219,0.8320690316563862,0.05297076484390916,0.49720842675067484,-1.0399801827683273,-0.021682169301060972,0.34503930014515394,-0.9665924503190179,-0.0063577143547414875,0.6267279316999222,0.9861605940775294,0.11012279518005386,0.7320887198447154,0.8847787826714083,0.0,0.0,0.0,0.0
0.039830383125120834,0.18389869911671955,0.7724856890057196,0.008481876148474832,-0.5546848013312887,0.006648143763070059,0.8319907638511237,0.05287648521692125,0.5008597040979301,-1.042003028632493,-0.017685077951010934,0.3382861659561554,-0.9752918608926794,0.003075884445192397,0.6198631018319082,0.9974748805658811,0.10816511036876783,0.7371663242799452,0.8776901311039165,0.0,0.0,0.0,0.0
0.04020111597589872,0.18404590146343727,0.7731329063481646,0.00863459115822731,-0.5547904850939098,0.00655972977875828,0.831919426044388,0.052584705927956006,0.5036134997724598,-1.0428606678176886,-0.013627030062216047,0.3311959594216669,-0.9838219924441928,0.012369637105766385,0.6126669075131439,1.0086640742537551,0.10579482388914738,0.7416622797303642,0.870519710914154,0.0,0.0,0.0,0.0
0.04042217690238668,0.18425815110119864,0.7737566166472283,0.00877129083965413,-0.5548891239308438,0.006486089098730511,0.8318527846010195,0.05208554916532573,0.5056941790519874,-1.0429166423788765,-0.009536181839101166,0.3236702779758765,-0.9921416606270734,0.02156609693305185,0.6051660941630888,1.0197477372033459,0.10305209607859889,0.7456720942983024,0.863329501272967,0.0,0.0,0.0,0.0
0.04052765721803764,0.18454041366586038,0.7743476616648527,0.008890679605637948,-0.5549833122135552,0.006429403932289117,0.8317891209589704,0.051369875907745284,0.5072826729935048,-1.0424798695115667,-0.0054529231654375345,0.3156713255994401,-1.0002290107525358,0.03068600524465586,0.5974368001731531,1.030710712207061,0.09996886974142202,0.7492517961685137,0.8562081589278433,0.0,0.0,0.0,0.0
0.04054269313972622,0.18489933442872425,0.7748925912017436,0.008991762782263551,-0.5550737250809601,0.006390886057514647,0.8317279991092125,0.05042529988733561,0.5085141664103761,-1.0418138828021202,-0.001417281602488437,0.3072471341305185,-1.0080362781711802,0.03972245713593012,0.589603528289792,1.041471013711212,0.09654786684658738,0.7523987489580996,0.8492806277663616,0.0,0.0,0.0,0.0
0.04048284509382841,0.18534464222177385,0.7753708835636763,0.009072881251938766,-0.5551592422284104,0.006371808918308467,0.8316701862188364,0.04923111742818703,0.5094757178203237,-1.0411483012461504,0.002531927600749802,0.2986161674474996,-1.0154261908980193,0.04862388523046156,0.5818515372370014,1.0518206565668389,0.09276704466542475,0.7550368591382014,0.8427367374607267,0.0,0.0,0.0,0.0
0.04035295639099951,0.18588998380676006,0.7757513279153507,0.009131253097360325,-0.5552365901890615,0.0063733421209341695,0.8316178988227139,0.04775701938370041,0.5101992479705005,-1.0406854634555396,0.006353632538800555,0.2902934095474095,-1.022086720450952,0.057236452912028266,0.5744542287807525,1.0613187139243732,0.08857693945235177,0.7569909944357579,0.8368686560313262,0.0,0.0,0.0,0.0
0.04014554896628135,0.18655199869926528,0.7759894610919988,0.009161751388198396,-0.555301708910041,0.006397380922789096,0.8315738980453977,0.045964272327702185,0.5106476997973064,-1.040585883178353,0.009997028398749367,0.28321372386218313,-1.02744332282497,0.06521094523872288,0.5678423226870773,1.0691096853891138,0.08392313829623413,0.7579747277944227,0.8321082127142247,0.0,0.0,0.0,0.0
0.03984046614302391,0.18734699759666423,0.7760311232751026,0.009155068774372369,-0.5553541209310381,0.006448806971446857,0.8315385727489106,0.04380967504912432,0.5107050319854436,-1.04092265585309,0.013394125666366491,0.2787054393243057,-1.0306200446706109,0.07191324635122785,0.5627636841469501,1.0736435265820616,0.07879956449496378,0.7576305569770748,0.8290124799964982,0.0,0.0,0.0,0.0
0.0394109294730808,0.18828753926322736,0.7758338341375379,0.009099180528793153,-0.5554040191366069,0.006534871439584182,0.8315051869326349,0.04125310337922402,0.5102120859675905,-1.0416122694591794,0.016461929216422783,0.27801180660926555,-1.030564598754769,0.07653251618964137,0.5605274293594733,1.0724097430136696,0.07326184276873875,0.7556911799594878,0.8280509105800927,0.0,0.0,0.0,0.0
0.03883156607642815,0.189390684920538,0.7753946903495545,0.008991955272243904,-0.5554519347967378,0.006656104735315947,0.831473384505298,0.03824800063177809,0.5090567447925939,-1.042505271910585,0.019154804987147684,0.2810986075916813,-1.0272280626061747,0.07898665353750962,0.5611422528494916,1.0654444566172168,0.06720981316068526,0.7520802267136412,0.829189548767637,0.0,0.0,0.0,0.0
0.038079767103780325,0.19067823637972292,0.7747503247163967,0.008841913205416956,-0.5554874535959573,0.006805640718940803,0.8314500542562684,0.0347425306833379,0.5071821638316939,-1.0434025587571987,0.021482292802479663,0.28666527334069075,-1.0215952147503058,0.07994249631055274,0.5633030837245195,1.055300514551553,0.06038973992913247,0.7469182811745796,0.8318775954794686,0.0,0.0,0.0,0.0
0.03712774860692829,0.1921673558291246,0.7739495488173385,0.008656375179725012,-0.5555085702466782,0.006977343465895395,0.8314364751617517,0.03069491146817281,0.5044955383724111,-1.0439603969026543,0.023461988586662534,0.2933286161928004,-1.014484850105245,0.07992008703799644,0.5662397897093597,1.0435389945454108,0.052615065329870016,0.7404246848401252,0.8354533712795681,0.0,0.0,0.0,0.0
0.035936580739141175,0.19387130957374446,0.7730324073556656,0.008439730350261288,-0.5555157972940029,0.007166762180561403,0.8314322626818558,0.02607315359559282,0.5008257101666119,-1.0437394319392577,0.025105245179474142,0.3001017905982795,-1.0064158464818997,0.07918163114849974,0.5694850436392775,1.0310030864312043,0.04377720556986174,0.7327620594095456,0.8393693730646492,0.0,0.0,0.0,0.0
0.034457928999312465,0.19579987642261898,0.7720268075111921,0.008196231304702322,-0.5555077982388896,0.00736752410937184,0.8314382884355752,0.020861801309588437,0.49593209592069115,-1.042240616882341,0.026420734278181136,0.30642075357045234,-0.9976599416114698,0.07780947583298597,0.5727249190228064,1.018103623500084,0.033805508286549706,0.7239997932732158,0.8432116708251621,0.0,0.0,0.0,0.0
0.03263867410395269,0.19795651235662545,0.7709511988990045,0.007930565625953815,-0.555481999239618,0.007572017636214395,0.8314562641525567,0.015068489272089848,0.48952230812810515,-1.038914729860042,0.027418372984157172,0.3120294054681801,-0.9883467694182693,0.07581801899837821,0.575736002887611,1.0050042803469836,0.022693430551705522,0.7141496205245563,0.8466757365094957,0.0,0.0,0.0,0.0
0.030426118431299776,0.20033413754245022,0.7698186734962111,0.007648688567695722,-0.5554354352708669,0.007771562488794688,0.8314881704661466,0.008734660969161919,0.48127073996359376,-1.033164306309812,0.02811632035785838,0.3168516785706154,-0.9785612809140218,0.07322380182565365,0.5783558749909937,0.9917311568341945,0.010523055917878386,0.7032089721270057,0.8495322902072435,0.0,0.0,0.0,0.0
0.02777429817198244,0.20291072924424947,0.7686409469960949,0.007358941355975238,-0.5553651074345921,0.007955929140080871,0.8315360164285136,0.0019476217426108305,0.4708431166980668,-1.024356205958923,0.02855065456636648,0.32090501612510725,-0.9684131925574809,0.0700819062773318,0.5804648050358314,0.9782356685861467,-0.0025233294091692744,0.6911994009885428,0.8515972916878342,0.0,0.0,0.0,0.0
0.024653281994901983,0.20564523644869454,0.7674312941479837,0.007071612906436285,-0.5552697958782145,0.008115197836098242,0.8316006190716482,-0.0051532941267135954,0.4579364664655153,-1.0118621805060508,0.02878655444023054,0.32427833100809694,-0.9580768153345441,0.06652722222552138,0.5819796113793237,0.9644362347678916,-0.01614178034508052,0.6782099105821943,0.852725779918756,0.0,0.0,0.0,0.0
0.02106332840219682,0.20847586749947888,0.7662055602208231,0.006798543876791956,-0.5551508789955785,0.008241238311395145,0.8316810466414915,-0.012377475818677286,0.44235086999746365,-0.9951644768571315,0.02893807540475187,0.3271626649261452,-0.9477988706590557,0.06281156695627438,0.5828691937337652,0.9502602936569656,-0.02991830444822758,0.6644266858497407,0.852826375142435,0.0,0.0,0.0,0.0
0.017057044407922196,0.21132185230444192,0.764977753704445,0.006551167575588599,-0.5550131272542976,0.00833060717208667,0.8317740749524151,-0.019497316250703195,0.4241130654183635,-0.974076661908906,0.029189921098421646,0.32993648401240167,-0.9378760391366979,0.05935728834484343,0.5832203061537797,0.9357062475456289,-0.04335808608518282,0.6501400358065801,0.851940201769478,0.0,0.0,0.0,0.0
0.012772166677623459,0.21408975251867282,0.7637388786171606,0.006339513682297085,-0.5548575944881758,0.008376463390823803,0.8318790148009079,-0.026252801630971143,0.4036794150370777,-0.9491932316700185,0.029836696950757895,0.3332524359345107,-0.9286396143054223,0.056732727326500754,0.5833948661675614,0.9209530158099344,-0.0560056688654334,0.6356181751307994,0.8504714972833657,0.0,0.0,0.0,0.0
0.008527247212905759,0.21673642448758534,0.7624217679625567,0.0061586279385403295,-0.554619182904394,0.008420491500392513,0.83203889847727,-0.0326331918689831,0.38266494436611764,-0.9236529876937025,0.031425834322926796,0.33759411021609553,-0.9198244444696348,0.05581844144933569,0.5845586910189877,0.9058957370943209,-0.06749843108654238,0.6210391892688144,0.8493176719742649,0.0,0.0,0.0,0.0
0.004745229763011419,0.21910823147609204,0.7610892512045626,0.005995943757613679,-0.5543311934292127,0.008469680403443295,0.8322314829202653,-0.03829567953668876,0.3633434607416365,-0.9006566472782797,0.03372332061908492,0.34346592918836205,-0.9121019451524451,0.05788884647370232,0.586731145426896,0.8908759898669635,-0.07718941208029866,0.6075063646238732,0.8489645086872224,0.0,0.0,0.0,0.0
0.0017423318811886162,0.22095603085130217,0.75988507832237,0.005833808717873973,-0.5540528984216317,0.008561637905098137,0.832416993328953,-0.04275297034135416,0.3474362924730158,-0.8821761157790988,0.03663066090827759,0.3504553994638037,-0.9067732408911526,0.06442704095661524,0.5892778344611735,0.8758389470349128,-0.08394455105483863,0.5962709152578476,0.8497468946998474,0.0,0.0,0.0,0.0
-4.354990276577483e-05,0.22202713799508217,0.7590254967093364,0.005673155123258421,-0.5538397226662409,0.008699535177556086,0.8325585234658422,-0.04545585918986816,0.33757703259688016,-0.8713706273213097,0.0391404967924672,0.35671137438788975,-0.9053492744504965,0.07410368022770451,0.5918451807597078,0.8616128785878703,-0.08696938189296444,0.5890461396131463,0.8514702848585904,0.0,0.0,0.0,0.0
-7.574949378002023e-05,0.2221711521810752,0.7589460778234796,0.0055589505396540905,-0.553857532603389,0.008672979116572504,0.83254772300489,-0.045615113967476306,0.3373779167327541,-0.8713094689982366,0.03913327243018064,0.35672604232854066,-0.9053694588407566,0.0741234578016192,0.591884730218982,0.8616237054114644,-0.08700063843173,0.5889480740906681,0.8513811024302675,0.0,0.0,0.0,0.0
-7.574949378002023e-05,0.2221711521810752,0.7589460778234796,0.0055589505396540905,-0.553857532603389,0.008672979116572504,0.83254772300489,-0.045615113967476306,0.3373779167327541,-0.8713094689982366,0.03913327243018064,0.35672604232854066,-0.9053694588407566,0.0741234578016192,0.591884730218982,0.8616237054114644,-0.08700063843173,0.5889480740906681,0.8513811024302675,0.0,0.0,0.0,0.0
-7.574949378002023e-05,0.2221711521810752,0.7589460778234796,0.0055589505396540905,-0.553857532603389,0.008672979116572504,0.83254772300489,-0.045615113967476306,0.3373779167327541,-0.8713094689982366,0.03913327243018064,0.35672604232854066,-0.9053694588407566,0.0741234578016192,0.591884730218982,0.8616237054114644,-0.08700063843173,0.5889480740906681,0.8513811024302675,0.0,0.0,0.0,0.0
0.0007716273966613725,0.22249544173163815,0.75887567909877,0.00557250684392528,-0.5541368836964224,0.008508939348967638,0.832363417772458,-0.0460270420670547,0.34284340069246727,-0.878993358600903,0.038819516920513025,0.36102420706286825,-0.9113287683996587,0.07236567978657385,0.5935659146904355,0.8654738049599497,-0.08958309645619622,0.5905211625743868,0.8520812897367124,0.0,0.0,0.0,0.0
0.0023826414667779735,0.22303656383417056,0.7587302471834176,0.005559247557554962,-0.55440475619626,0.00843304176713491,0.8321858836102143,-0.047210091094450526,0.3533639196224943,-0.895546183413893,0.03789539518592903,0.3695332803430936,-0.9242162388251078,0.07032468187320733,0.5959208045154225,0.871368410600652,-0.09305684857759892,0.5932024946891606,0.8535273941589362,0.0,0.0,0.0,0.0
0.004711477707961981,0.22388781802723662,0.7585672560695539,0.005499127965849107,-0.5546851158041453,0.008452040657139321,0.831999245736249,-0.04939296379334865,0.3685954562072117,-0.9200392992504653,0.03611266120995339,0.38171043111364417,-0.942666486410495,0.06762271153977578,0.5992759909582659,0.8789821302214532,-0.09776860307371113,0.5974743640493684,0.8546080788819144,0.0,0.0,0.0,0.0
