zhuoxili-jackie/tripod-support-walk/examples/trajectory_tripod_lowstep_left_v0.15.csv
root_pos_x,root_pos_y,root_pos_z,root_rot_x,root_rot_y,root_rot_z,root_rot_w,FL_hip_joint,FL_thigh_joint,FL_calf_joint,FR_hip_joint,FR_thigh_joint,FR_calf_joint,RL_hip_joint,RL_thigh_joint,RL_calf_joint,RR_hip_joint,RR_thigh_joint,RR_calf_joint,FL_foot_joint,FR_foot_joint,RL_foot_joint,RR_foot_joint
0.0,0.0,0.72963,0.0,-0.5231245161092812,0.0,0.852256264656019,0.0,-0.81,0.872,0.0,-0.81,0.872,0.0,0.65,1.0,0.0,0.65,1.0,0.0,0.0,0.0,0.0
3.214448648153128e-05,4.203962852846507e-05,0.7296238588981615,1.788623118451068e-06,-0.5231306082196548,-5.813048532884929e-06,0.8522525251982204,-9.184378716600219e-05,-0.8102444435285091,0.8724548111676287,-9.18437871660025e-05,-0.8100648480547523,0.8721518845265768,-0.00033333977313563325,0.6501177344179571,1.000191456283878,-0.00033333977313563406,0.6500447808053257,0.9998889274085044,0.0,0.0,0.0,0.0
7.856662309781516e-05,0.00010775821627548378,0.7296137828671461,-2.4274809628831083e-06,-0.5231417000017607,-5.969120203341984e-06,0.8522457167259596,-0.00025532506671253587,-0.8106216057727461,0.8731367416511278,-0.00025530864894597773,-0.8101137359459386,0.8723218375663983,-0.0007544121697899365,0.6502601937733299,1.0004909965162885,-0.0007539938514469827,0.6501376640292087,0.9997365622861016,0.0,0.0,0.0,0.0
0.00013565840212161702,0.0001986556546978112,0.7296008751705456,-1.0818779669567983e-05,-0.52315471736921,-2.4167376252344508e-06,0.8522377259728974,-0.0004901599439471575,-0.8111249674512818,0.8740256482258084,-0.0004900784379624209,-0.8101444947110065,0.8724881890943418,-0.0012976587581046218,0.6504224634762819,1.000892713466729,-0.0012961046433957383,0.6502570493671865,0.9995219841014469,0.0,0.0,0.0,0.0
0.00020081295264727771,0.00032444889941211723,0.729586467330553,-2.3123552035570917e-05,-0.5231661702880295,4.234468859908634e-06,0.852230695125168,-0.0008195691122542833,-0.8117791638093559,0.875148494689997,-0.0008193172989310651,-0.8101379510672952,0.8726066796692583,-0.0020352184310355012,0.6506008905789005,1.0014134436789448,-0.0020311450267369293,0.650386155688151,0.9991936902468971,0.0,0.0,0.0,0.0
0.0002697354949153627,0.0005013694714024363,0.7295729415024362,-4.1158859333372616e-05,-0.5231726625272894,1.775416006069273e-05,0.8522267087898883,-0.0012940026858446225,-0.8126207327652778,0.8765442182300601,-0.0012933546381239426,-0.8100366780117049,0.872581494199455,-0.003042995349711859,0.650781470422519,1.0020795502996784,-0.0030336744442002843,0.6505195598226081,0.9986744172265979,0.0,0.0,0.0,0.0
0.0003348877337481738,0.0007421707600187954,0.7295785787268221,-9.881247645355726e-05,-0.5232351305882933,0.00015390847314959087,0.85218833872949,-0.002241274820896737,-0.8134283457411589,0.8779524772024494,-0.0022395404438280996,-0.8091224205967648,0.8717446505571024,-0.0034575035109060573,0.6508599618545067,1.0027773036121268,-0.0034443258724461976,0.6512139281385706,0.9980089354599536,0.0,0.0,0.0,0.0
0.0005034189323551115,0.000983620853026876,0.7295536362448923,-0.00010894539868253929,-0.5231820220762091,0.00014576581996951938,0.8522209447434831,0.004365286474434649,-0.8126408584206206,0.873330919153458,-0.0028236018463022924,-0.809837726440149,0.8728927234937942,-0.0050986154183110186,0.651223176529042,1.0035781986506584,-0.005072445069202223,0.6513360002500583,0.9971321284836162,0.0,0.0,0.0,0.0
0.0007692753822026736,0.001311426962296794,0.7295090846588426,-0.00014997923350451543,-0.5231574180110731,0.0002260214988769121,0.8522360250543853,0.013064948286986207,-0.8131211958690852,0.86952326672044,-0.0038499949869110293,-0.8105753734996352,0.8744375381595506,-0.006579754812322985,0.6516366182108211,1.0047272919282861,-0.006534489156205525,0.6519509785989297,0.9961987314175896,0.0,0.0,0.0,0.0
0.0010807705184700364,0.0017131396744556045,0.7294567163008856,-0.00020947574803255702,-0.5231525537283399,0.0003414466053863997,0.8522389600702629,0.021726161204854204,-0.814396950144514,0.8663995293575103,-0.005149729426405054,-0.8111959733758899,0.8759908805345266,-0.008236786700498874,0.6521290112079693,1.006155193885798,-0.00816492452959978,0.652795875261612,0.9951134130920323,0.0,0.0,0.0,0.0
0.0014166534606649115,0.0021671514788022313,0.7293997902924322,-0.00027883559761298504,-0.5231555259558944,0.00046821602423998814,0.8522370554524578,0.02964685087498726,-0.8160701698617531,0.8636919666911698,-0.006608478912684585,-0.8117455417839597,0.8775145168449262,-0.010131881956882617,0.6526858902905568,1.0077756099848605,-0.01002262325537719,0.6537313245914237,0.9938875765342039,0.0,0.0,0.0,0.0
0.0017746246175504496,0.002658685923259458,0.7293376287115356,-0.0003542677122346339,-0.5231618344799432,0.0005969264023266917,0.8522330744091305,0.03679173528348247,-0.8179041943373877,0.8612377077245779,-0.008165652249646674,-0.8122951475078696,0.8790813052690938,-0.0122519257267489,0.6533093812007922,1.0095451741164814,-0.012091444015037863,0.6547135662342897,0.9925595124377362,0.0,0.0,0.0,0.0
0.0021619164372580694,0.0031829780590878717,0.7292677495854369,-0.0004355631959962298,-0.5231699436782022,0.0007264537565772472,0.8522279581082685,0.04334445690524726,-0.8197563235555786,0.8589465156219562,-0.009806606273216457,-0.8129124320740834,0.8807949604368013,-0.014577320403497475,0.6540083442816235,1.0114596502576862,-0.014348948131323543,0.6557470918251324,0.9911558740214533,0.0,0.0,0.0,0.0
0.0025899601215041506,0.003743898284342626,0.7291868524656808,-0.0005249913900836819,-0.5231786238263696,0.0008599000522891704,0.8522224548362279,0.04948985747781472,-0.8214912956613935,0.8567856790327256,-0.01154887321873345,-0.813656033875315,0.882758883088484,-0.017106060897822073,0.6547921048415083,1.0135430308006854,-0.016789861023696274,0.6568559047203376,0.9896816961654983,0.0,0.0,0.0,0.0
0.003071590544859081,0.00435117772554024,0.7290912501201001,-0.0006264830517019712,-0.5231858956198938,0.0010023712307906934,0.852217766416138,0.055338155279275304,-0.8229039025021062,0.8547854189288465,-0.013429643179328167,-0.8145762323925755,0.8850660730417461,-0.019854726750949257,0.6556673642574253,1.0158362924718751,-0.0194264402166613,0.6580693466527879,0.9881235044209332,0.0,0.0,0.0,0.0
0.003619685044041223,0.00501768846945301,0.7289773990238468,-0.0007451344515077914,-0.5231891138329899,0.0011601328543603534,0.8522154950674508,0.06092442367345933,-0.8236730634274236,0.85304937360465,-0.015496936653455756,-0.8157135900295878,0.8877952010867745,-0.022848731250197162,0.6566387385398831,1.0183852817526828,-0.022278421434846884,0.6594194526149935,0.9864540303567313,0.0,0.0,0.0,0.0
0.0042469617351032765,0.005757786782238759,0.7288430254539962,-0.000887204906445017,-0.5231861042584698,0.0013408840495676597,0.8522169413994685,0.06624151159848465,-0.8233894311586338,0.8517403922799923,-0.017806182010184468,-0.8170905645095601,0.8910057336939262,-0.02610931647200718,0.6577152660808384,1.0212268636244806,-0.02536015422733124,0.6609503935074079,0.9846301522955654,0.0,0.0,0.0,0.0
0.004967185122758781,0.006588495221681489,0.7286886594816167,-0.0010610269016350354,-0.5231768237036404,0.0015550982428690812,0.8522220761226142,0.07128032416613991,-0.8217319521155821,0.8509739005781582,-0.020426297056761793,-0.8186959586911565,0.8947301566792646,-0.029647604386326597,0.6589220701951559,1.0243794277984404,-0.028674856116134323,0.6627382644979041,0.9825778638244363,0.0,0.0,0.0,0.0
0.005795916934525115,0.007536683458848245,0.7285140552901342,-0.001276753321708552,-0.523152762450168,0.0018144735084379962,0.8522360381535158,0.0760803173399576,-0.8189217053398304,0.8504527869202504,-0.023454627469070764,-0.8205470303781912,0.8990196836771762,-0.0335263341113641,0.6602661124390786,1.0278777259533802,-0.03227270697633253,0.6648420242555165,0.9801742252833003,0.0,0.0,0.0,0.0
0.006744851472039701,0.00862605998775124,0.7283243988131979,-0.0015459125929844428,-0.5231068940755481,0.0021335540426360646,0.8522630083912098,0.0807787130406643,-0.8152426554078518,0.8497759398127788,-0.026988183324951058,-0.8226094016468315,0.9038688871384442,-0.03775965382544355,0.6617636414985244,1.0316976779543388,-0.03615486751410466,0.6673524419595667,0.9772634471442063,0.0,0.0,0.0,0.0
0.007814244372216572,0.009865778561252137,0.7281309692872514,-0.0018789802535985316,-0.5230316696085549,0.002527400924854763,0.8523074294315749,0.08565726510357435,-0.8108333704362408,0.8484735780173931,-0.0310892715756005,-0.824803902568334,0.9092028572335209,-0.04225510561596206,0.6634132660101054,1.0357213049882936,-0.040222409418024796,0.6703640923234275,0.9736929593331095,0.0,0.0,0.0,0.0
0.008984125743361422,0.011234172785811696,0.7279489067097029,-0.002280659330221142,-0.5229221397766529,0.0030044105602972954,0.8523721064427269,0.09116333656661474,-0.8056036868963724,0.8459364137172142,-0.03572586974457633,-0.8270135127774334,0.9148607536958974,-0.04676364433828309,0.6651745422101887,1.0397317288323558,-0.04423726513995896,0.6739278235784455,0.9694036232636324,0.0,0.0,0.0,0.0
0.010196325439880187,0.012646558079532789,0.7277769091918381,-0.002746354903478441,-0.5227779754196459,0.0035618564572133323,0.8524570130683766,0.0978450561115011,-0.7992237487644508,0.8412364739065781,-0.04067719707359365,-0.8291495560401578,0.9205895579529236,-0.0506764529740549,0.6668050953072661,1.043526599911395,-0.04764919996892175,0.6778961635299098,0.9647641639046437,0.0,0.0,0.0,0.0
0.01130341067071529,0.013898407736799762,0.727481713292731,-0.0032464145123543885,-0.5226035689345133,0.0041548067928534275,0.8525595041463307,0.10622100107294614,-0.7911711346036633,0.832636586997975,-0.04531492948158676,-0.8315017920981238,0.9260191009367853,-0.05291155034439027,0.6672242744418131,1.0478580846838073,-0.04951380827209518,0.6811061208242907,0.9619020545927736,0.0,0.0,0.0,0.0
0.012185675782105646,0.01482721407915338,0.7271118308837095,-0.0037716158842389233,-0.5223822180689804,0.0047463464690660415,0.8526898998781148,0.11582003439916647,-0.7804765671178125,0.8174168493376319,-0.04911384997291094,-0.8339521199567916,0.9307842555541408,-0.0524186207534929,0.6661477812691584,1.0519472405121804,-0.048940133351393876,0.6833445271120222,0.9610931780775837,0.0,0.0,0.0,0.0
0.01266487630028081,0.015209546111153655,0.7267611657793027,-0.004288906108374941,-0.522069209527961,0.005207814822570232,0.8528764414685268,0.12449591387920034,-0.7660166900171904,0.7919802050401366,-0.05114399216050494,-0.8364972053678885,0.9344816690462066,-0.04848027036072759,0.6634364792510378,1.0545503486700114,-0.045311105249071844,0.6841270982658729,0.9623332440180551,0.0,0.0,0.0,0.0
0.012688380277405664,0.015240518964660294,0.7267519512042001,-0.004324422245346896,-0.5220585479489929,0.005208965869025161,0.8528827812543811,0.12450656471719788,-0.7659920894527338,0.7919792667849878,-0.05121848089275781,-0.8365094304625097,0.9345142816444517,-0.0484918198126808,0.6634237719927,1.0546541477851794,-0.04528786763708416,0.68417691241398,0.962249455565357,0.0,0.0,0.0,0.0
0.012688380277405664,0.015240518964660294,0.7267519512042001,-0.004324422245346896,-0.5220585479489929,0.005208965869025161,0.8528827812543811,0.12450656471719788,-0.7659920894527338,0.7919792667849878,-0.05121848089275781,-0.8365094304625097,0.9345142816444517,-0.0484918198126808,0.6634237719927,1.0546541477851794,-0.04528786763708416,0.68417691241398,0.962249455565357,0.0,0.0,0.0,0.0
0.01270788442071842,0.015688926480437456,0.727653620170071,-0.0036138212471572948,-0.5219639228077528,0.004451514145640521,0.852948291284382,0.12488973058396388,-0.7624981784707132,0.7913356054202811,-0.05070767990838486,-0.8356071653541322,0.9342242745653223,-0.062207064906287315,0.6709572166735022,1.0487620507738353,-0.02934520997155911,0.677199212127774,0.9827984146271326,0.0,0.0,0.0,0.0
0.012775822033844458,0.016372780400739417,0.7287300026763996,-0.0031361065181104986,-0.5218785107647421,0.003922439019143053,0.8530050406123184,0.12421216791190118,-0.7603519078240731,0.7929685086786111,-0.05126300287454541,-0.8329537769717779,0.9325133598891339,-0.07455597663955775,0.6786544497521437,1.0416672054269858,-0.014485359204576052,0.6730091351247699,0.9982523178090152,0.0,0.0,0.0,0.0
0.012882045158363921,0.017218777999169134,0.7297608308761826,-0.002859429534946886,-0.5218060665929793,0.0036111372900241917,0.8530517054768546,0.12269405105541543,-0.7598163806792075,0.7965642952692314,-0.052702740671930884,-0.8294199776850608,0.929890957930849,-0.08523848954292121,0.6855365721380112,1.0351155650008825,-0.0031828407514991486,0.6702909845814597,1.0099429503664934,0.0,0.0,0.0,0.0
0.01301158721912149,0.018152948424760045,0.7307032688090142,-0.002710115048094552,-0.5217399237262954,0.0034364956143164123,0.8530933698982769,0.12069353314547146,-0.7604177583089292,0.8013743182724754,-0.05466167201685871,-0.825549625807452,0.9268055550266798,-0.09476425545582765,0.691623469368846,1.029383708461039,0.005627145440051296,0.6684807689308143,1.0193657323703416,0.0,0.0,0.0,0.0
0.013152599965815404,0.019118222230830206,0.731555109987733,-0.0026341545096644336,-0.5216729360702391,0.0033369001935505817,0.853134968278158,0.11847913325653799,-0.7617163285927081,0.8067966992383688,-0.05685874301891831,-0.8216717228207163,0.9235728886292549,-0.10350690770525496,0.6970496520847431,1.0244070842300694,0.012992543863399889,0.6672697565889639,1.0274352789091,0.0,0.0,0.0,0.0
0.013266772605141412,0.020057926387166115,0.7323188500129173,-0.002592306334848654,-0.5216005948032828,0.003272846313374409,0.8531795754269653,0.11625931505408431,-0.7631835479975272,0.8120099473082804,-0.05906371479131099,-0.8178990643301493,0.92019633891512,-0.1115580152509616,0.7018022699007967,1.0200849178515619,0.019710429821284133,0.6663809719583402,1.0346039034746723,0.0,0.0,0.0,0.0
0.013315221171506568,0.020933227718757483,0.7329962631925054,-0.002558535526451745,-0.5215214806986981,0.0032172269500483327,0.8532282511242517,0.11417449545405964,-0.7643953693744793,0.8163341459418891,-0.061117659567833355,-0.8142406516850033,0.9165545807479187,-0.11895669367639627,0.7058300560092354,1.0163672601276907,0.026244466820629586,0.6656201460057205,1.0410018734378483,0.0,0.0,0.0,0.0
0.01329498462661098,0.02175140673237468,0.7335871388037045,-0.0025247673460078307,-0.5214314115227602,0.0031618549424631283,0.8532836054328907,0.11222413516776056,-0.7653708222984981,0.8198016725207037,-0.06302350494702731,-0.8107196470709318,0.9126440891883202,-0.12585870739799745,0.7091451235302767,1.0132937268422242,0.032823826625255445,0.6649926934499698,1.0465369372330144,0.0,0.0,0.0,0.0
0.01319961443560202,0.022535196119121168,0.73408985191906,-0.0024869664327478633,-0.5213244604783709,0.00310287308753412,0.8533492802384617,0.11035998856949197,-0.7661850008852974,0.8225058158365766,-0.06483214954599288,-0.8072988469219273,0.9083589414360373,-0.13248188181840392,0.7117330832925075,1.0109560389853058,0.03966141386210778,0.6646258579502697,1.050801663385531,0.0,0.0,0.0,0.0
0.013012939356339783,0.023315700126778725,0.7345031878898197,-0.002440495433322524,-0.5211894056172066,0.0030359614750239115,0.8534321475034468,0.1085123750183055,-0.7669108795572627,0.824502314398252,-0.0666138689281766,-0.8038984702059797,0.9034885331444166,-0.13910375445395318,0.7135413975043762,1.0094643884054368,0.04704344520255427,0.664843890500558,1.052927379679623,0.0,0.0,0.0,0.0
0.012721654821114595,0.024130802214812203,0.7348400653077368,-0.002381630442214468,-0.521011523243269,0.002958497287490583,0.8535411927833155,0.10659084160856867,-0.7676350879986756,0.8259078093040786,-0.06845902372682883,-0.8004005863446578,0.8978075936259167,-0.14602072345558698,0.7145780339505149,1.0088023098755146,0.05531267220771813,0.6663135944187297,1.0515373713313934,0.0,0.0,0.0,0.0
0.012338364743143287,0.025021975417403336,0.7351415927135534,-0.0023148682532705433,-0.5207793710570148,0.002873298264903638,0.8536833325206197,0.10448989246472246,-0.7685055239569597,0.827079094410371,-0.07047562017515623,-0.7966673909620349,0.8912346809860149,-0.15346177332867092,0.7150500404755482,1.0086688621792546,0.06431098977361364,0.668380442240401,1.0481175247611942,0.0,0.0,0.0,0.0
0.01186361920797525,0.026016102251399612,0.7354605202300987,-0.0022359524885557057,-0.520476698194948,0.0027728018099761227,0.8538684434517279,0.102158582222654,-0.769511450767193,0.8281455197367139,-0.0727101891883601,-0.7925607577690544,0.8836628691695603,-0.16164396974597098,0.7151858203807806,1.0086188241133125,0.0741417527770376,0.670695742235528,1.0436834265682393,0.0,0.0,0.0,0.0
0.011288645100199663,0.02713137642820654,0.7358421797838745,-0.002129150101908013,-0.5200757437946132,0.0026376597097939694,0.8541134176370131,0.09959220605753273,-0.7706121542417117,0.8291332075312464,-0.07516453303560372,-0.7880477928495231,0.8750348025507911,-0.17084045248947657,0.7151455959979403,1.0082394366303034,0.0854675380252053,0.673114716582961,1.038932450514224,0.0,0.0,0.0,0.0
0.010607043526628203,0.028375742230026896,0.7363125138580219,-0.0019633171213373234,-0.519536354810517,0.002432688633296877,0.8544426273554563,0.09684831829427656,-0.7718249345078573,0.8300913589938671,-0.0777876343654032,-0.7833238677609028,0.8655045766815402,-0.18143159275154727,0.7150158242462119,1.0072408339187702,0.09989195887594467,0.6756734878739413,1.0344938189203552,0.0,0.0,0.0,0.0
0.009825668770055616,0.029729426118908858,0.7368573886791191,-0.0016845688103563742,-0.518803135338284,0.0020990451708369972,0.8548895033865254,0.09411050341224383,-0.7732874503109749,0.8311467347864167,-0.08042208207116847,-0.7790353974554226,0.85571229215708,-0.1938815321542908,0.7147542767818982,1.005580872971889,0.12052623153315964,0.6786885694550447,1.0311240206941685,0.0,0.0,0.0,0.0
0.008954126240717447,0.03109051673611899,0.7373761398741251,-0.0012090005724086608,-0.5178112469619139,0.0015440901849713912,0.8554926455691272,0.09184641929326699,-0.775124872540329,0.8321495429703162,-0.08265028474337531,-0.7765481630158899,0.8470322502672079,-0.20844605424931334,0.7139450766731109,1.0037728699883857,0.1522527561858974,0.6828416254702618,1.0297941749779558,0.0,0.0,0.0,0.0
0.008044057637407663,0.03223633891125197,0.73756717126354,-0.0004747110461544877,-0.5164965465891529,0.0006507928813786464,0.8562888931193299,0.09093697572938737,-0.7779682512285857,0.8331464549718341,-0.08370130656983076,-0.7784882923225264,0.8422175849921532,-0.22460486441567468,0.7113201022019215,1.0038318621432747,0.19834845743248453,0.688778754090879,1.03127421087355,0.0,0.0,0.0,0.0
0.0071556681376974685,0.03302071080928313,0.7368743667388818,0.00019057006944899618,-0.5150378025769126,-0.00018857798257877615,0.8571674224083288,0.0909669393933234,-0.7837469870697824,0.8350562136619915,-0.08405375585425025,-0.7850831241993562,0.8413847500886049,-0.236696507436474,0.7035586879320417,1.0105531526482556,0.24494052104682595,0.6917258447723402,1.03730647017698,0.0,0.0,0.0,0.0
0.007159958156899946,0.033038138208379766,0.7368645636917469,0.000213254987077129,-0.5150393724370493,-0.00020905992901607473,0.8571664690454864,0.09097144542362902,-0.7837464262168062,0.8350826301600707,-0.08404952440159431,-0.7851074353369119,0.8413399275280149,-0.2367208652368781,0.7035183582841741,1.0105086989652132,0.24495735355930764,0.6917260670305901,1.0373065037118065,0.0,0.0,0.0,0.0
0.007159958156899946,0.033038138208379766,0.7368645636917469,0.000213254987077129,-0.5150393724370493,-0.00020905992901607473,0.8571664690454864,0.09097144542362902,-0.7837464262168062,0.8350826301600707,-0.08404952440159431,-0.7851074353369119,0.8413399275280149,-0.2367208652368781,0.7035183582841741,1.0105086989652132,0.24495735355930764,0.6917260670305901,1.0373065037118065,0.0,0.0,0.0,0.0
0.007287431521521599,0.033279500693882774,0.7370591995648842,0.00019252291262249107,-0.5159431408681019,-0.0001889090437451967,0.8566227890031056,0.0901452425970259,-0.7792432259629118,0.832005517564579,-0.08452048128521908,-0.7789865722411957,0.8357966362922229,-0.24072325796813568,0.7081038299857567,1.011092106790884,0.24607987151498759,0.6961930561911448,1.0367271460008363,0.0,0.0,0.0,0.0
0.007419195935180544,0.033579975279420485,0.7371631727631907,0.00013908866204531957,-0.5165304669023474,-0.0001315963176960305,0.8562687896323188,0.08917499641333665,-0.7772225757000293,0.8313490645448416,-0.08528595855470508,-0.7747395495403027,0.8318699111781829,-0.244100249269725,0.711166019962556,1.0119805074191621,0.2464272157741086,0.6992461155453006,1.0361378495237865,0.0,0.0,0.0,0.0
0.007536352856745124,0.0338942205390013,0.7371946422458594,7.240097248014723e-05,-0.5169057317497846,-5.6818606185814324e-05,0.8560423213918602,0.08818268228759786,-0.7767117740841596,0.8320224462198744,-0.08616683015685067,-0.7718105113002017,0.8290399502614407,-0.2468798681293532,0.7130749596233544,1.0131373557143193,0.24629056951271494,0.7012107416961575,1.0357394928209602,0.0,0.0,0.0,0.0
0.007720260422570995,0.034300579729231645,0.7371336445679891,-1.40968858223861e-05,-0.5171623167926584,3.73523911607655e-05,0.8558873386700651,0.08696913085669986,-0.7779045836626486,0.8347426919001745,-0.08735876848005787,-0.7698939963078848,0.8272511878605857,-0.25000462904177423,0.7143982488708995,1.015071909750598,0.24553470684570863,0.7025726467187668,1.0356352345655273,0.0,0.0,0.0,0.0
0.008052759743823676,0.03491713002025251,0.7369007892151085,-0.00013601884727209917,-0.5173787459563881,0.00015780138212271504,0.8557565014828646,0.08523783814630381,-0.7814065571553163,0.8406016181823662,-0.0891719780256768,-0.7688145335972638,0.8264060759503472,-0.25473925410217035,0.7154387302216267,1.0189012841432983,0.24381742902741554,0.7035076914922053,1.0363199141254347,0.0,0.0,0.0,0.0
0.008515730115285893,0.03584996872588879,0.7362450941712316,-0.00024714007745196934,-0.5176619114642375,0.00028264940179813025,0.8555851824630262,0.08274351878963204,-0.787444865312446,0.8494889767677116,-0.09184844956370716,-0.7684360688056312,0.8256681544724188,-0.26310131012072974,0.7157113324961306,1.0274366706935867,0.24027369567788698,0.7030484220715665,1.0399925203454132,0.0,0.0,0.0,0.0
0.009322517152084419,0.03715132707519194,0.7366023803399773,0.0005633614532210605,-0.5184676229535731,-0.0006990196080890679,0.8550967886411058,0.08152325954090538,-0.7863249861951342,0.8557240123769216,-0.09298793514762789,-0.7661191314216816,0.8252104568639519,-0.20356794196957323,0.7035617735706842,1.023426734933729,0.2192480996405015,0.7053366366139463,1.0335261250576964,0.0,0.0,0.0,0.0
0.010188815986349244,0.038620469624529,0.7365186439539633,0.001298238496005921,-0.5192680320600971,-0.001575495377557331,0.8546090002285002,0.07969106781661775,-0.7877125674362548,0.8642297858899799,-0.09483961524408627,-0.7647200432163688,0.8249734663741773,-0.15083569969105895,0.6930519538050409,1.0223201574530358,0.19824144285619347,0.7059527068236615,1.0303456334365253,0.0,0.0,0.0,0.0
0.011046087396174251,0.04002522966469817,0.7363001516174337,0.0017418633978366095,-0.5198880180439571,-0.002116093604649683,0.8542300256687807,0.07735639783691466,-0.7914183416301649,0.8744465504117456,-0.09727434834663465,-0.7638126906950795,0.8251965520340566,-0.11604828611293107,0.6861844216125719,1.0238860197627175,0.18176597666818023,0.7065478750184404,1.0282493882527235,0.0,0.0,0.0,0.0
0.011794338600246663,0.04127764524270029,0.7360751843826171,0.001990981172678748,-0.5203461128537561,-0.0024291965614715093,0.853949681091352,0.07493219854684348,-0.7957752875056019,0.8843189252683252,-0.09981383458050762,-0.7629770825842382,0.8252817764024606,-0.09371004482830322,0.6815442803628301,1.0271463849573144,0.16902311599250786,0.7071605255021944,1.0264967350986525,0.0,0.0,0.0,0.0
0.01241510769784943,0.042360959089978154,0.7358919069878825,0.002139312877776409,-0.5206864539596467,-0.002619646290991221,0.8537412825069722,0.0726625973312053,-0.7998982363134811,0.8929986169137522,-0.10218390674132433,-0.7621165418479033,0.8251149894143056,-0.07824852535505364,0.678010126383167,1.0313054268583721,0.1588502855039961,0.7077437489340243,1.0248003662202303,0.0,0.0,0.0,0.0
0.012922993414556896,0.04329495701393213,0.73575875360379,0.0022424154473231843,-0.520945697515602,-0.002750736355407222,0.8535824419834603,0.07062702185629817,-0.8034945014054274,0.9003727108886306,-0.10429766419045329,-0.7612298728464855,0.8247283791278589,-0.0662098535134096,0.674983852295765,1.035821261748494,0.150353631071295,0.7082588427484865,1.0230707298151327,0.0,0.0,0.0,0.0
0.01333980205842976,0.04411188744960463,0.7356603599438043,0.00232792642955988,-0.5211500622423968,-0.0028555602576276146,0.8534571103218366,0.06881690750612579,-0.8065741276805282,0.9066225105717501,-0.10616649837270391,-0.760346238315277,0.8241677275753473,-0.055785601559720295,0.672208504152494,1.0402867843565735,0.14292807448384773,0.708645696274825,1.0213704622699014,0.0,0.0,0.0,0.0
0.013685435147083282,0.044843201468925634,0.7355646823186429,0.002407765002524429,-0.5213171068635146,-0.0029504837104003733,0.8533545402732805,0.06719349121467136,-0.8092864751611145,0.9120108480801808,-0.10783682065314706,-0.759529325195784,0.8234820485287399,-0.046153596903882856,0.6696348250117857,1.0442907539848003,0.13618671914477,0.7087977132250839,1.0199035243291763,0.0,0.0,0.0,0.0
0.013964455283653204,0.04552271433749397,0.7354278228419195,0.002484039918384644,-0.5214573197603262,-0.003040257693148868,0.8532683341406853,0.06568664310523287,-0.8118212322145385,0.9167376250702012,-0.10938427778426205,-0.7587916227099097,0.8225705932395505,-0.037058606063755786,0.6673585851355657,1.0472374380512155,0.12985231498464805,0.7085207108354653,1.0189833901518666,0.0,0.0,0.0,0.0
0.01416043855583176,0.04618928506592461,0.7352016486819485,0.0025522341022836516,-0.521575266728203,-0.003120685145587256,0.8531957504363891,0.0641915530625759,-0.8143498845309364,0.920876368114818,-0.1109127434193162,-0.7580353759269077,0.8211014701269904,-0.028596513293121142,0.665671535085017,1.0481406147281371,0.12369370095782574,0.7075393688801883,1.0189651309379286,0.0,0.0,0.0,0.0
0.014263483350105511,0.046870757156689445,0.7348513358357688,0.0026083698685220986,-0.5216709668709361,-0.0031899011660503165,0.8531368139173943,0.06263719317243839,-0.8170223020822792,0.9245130007048347,-0.11249400713046374,-0.7572179553864418,0.8188703736634516,-0.021008462665156564,0.6652497130413232,1.0455287144680316,0.11754104904822815,0.7056493668410851,1.0200941085344235,0.0,0.0,0.0,0.0
0.014280037349255812,0.04759560551697859,0.7343737544259616,0.0026561260925533152,-0.5217496868858769,-0.0032508352111545037,0.8530882963088287,0.06095656439438091,-0.8199142158822114,0.9277926473973652,-0.11419363766209345,-0.7562679944662098,0.8157725243245054,-0.013970885664176877,0.6654445824416881,1.0407832644157886,0.11113388908032053,0.7028357830310672,1.0223067952646383,0.0,0.0,0.0,0.0
0.014215618777532883,0.048385894454713384,0.733781223185015,0.0027017317263911098,-0.5218136100773513,-0.003309919518885939,0.8530488270998906,0.05910529926080655,-0.8230348951752053,0.930805761484128,-0.11605256577496817,-0.755105829253709,0.8117235155794471,-0.007187027460461568,0.6659477428186203,1.0347197400782804,0.10420725162516246,0.6991332780565361,1.0254050290598682,0.0,0.0,0.0,0.0
0.014069591225016208,0.04924931109271089,0.733087273855559,0.002754784556161369,-0.5218624756627036,-0.0033771747284893523,0.8530185005895806,0.057082513952441793,-0.8263222915478301,0.9335238511785388,-0.11806766358311957,-0.7536855186079834,0.8066681282992753,-0.00040856874145644463,0.6666607580498405,1.0276735163972395,0.09655942070348952,0.6945535975003301,1.0292191717811041,0.0,0.0,0.0,0.0
0.013866091158359567,0.05015230154385364,0.7323033788094038,0.002835478505371387,-0.5218954429195913,-0.003475394587223952,0.8529976719510272,0.05502388363588979,-0.8296955815501086,0.9359563132550031,-0.12011419517561141,-0.7522812877083574,0.8010716425888194,0.00673999320226646,0.6676908468306686,1.0196681948015194,0.08817402629129116,0.6891693478845041,1.0336803299205963,0.0,0.0,0.0,0.0
0.013658317955019369,0.05102070844556532,0.7314394169216538,0.002979069699122164,-0.5219082848484784,-0.003644324112153501,0.8529886202359401,0.05321001844051766,-0.8330819565161416,0.938202277712294,-0.12194222904842725,-0.7515556571675326,0.7960183440102409,0.014947792725894587,0.6693041240628389,1.010404034167587,0.07913720783501824,0.6830972875424293,1.0388031044762314,0.0,0.0,0.0,0.0
0.013451437093019533,0.051800876389653035,0.7305109174561429,0.00323409122496738,-0.521891863150231,-0.003950719406218792,0.8529963749323338,0.051930460216150755,-0.8361792848409418,0.9399691902654355,-0.12327737097499242,-0.7519552587172106,0.7920990806068596,0.024858365985879614,0.6716842280883402,0.9991212770304798,0.069027728986628,0.6761809265909063,1.0445139023070562,0.0,0.0,0.0,0.0
0.013260420069898485,0.05242799015096161,0.7295655475278149,0.003670133236849445,-0.5218223150480141,-0.004495046233910784,0.8530344636644581,0.05158497600431746,-0.8385991234630861,0.9409848935296018,-0.12374249044014163,-0.7541211076658718,0.7902178126228336,0.036979916644276876,0.6752188592070069,0.9845370707766726,0.05712494955003819,0.668277122701857,1.0504180386612416,0.0,0.0,0.0,0.0
0.013111514069391648,0.05284164493378963,0.7287916926127446,0.004323474155865677,-0.5216927639421385,-0.005289629531883469,0.8531060821732847,0.0523313994563773,-0.8396838325384688,0.9409811782788084,-0.12316268022739238,-0.7579597202276018,0.7908586408151029,0.0492391903415661,0.6809857618668027,0.9654818844050924,0.04361188936558304,0.6602643374357083,1.054978131648502,0.0,0.0,0.0,0.0
0.013114693438788946,0.052850288500419576,0.728780634813629,0.00433186779212395,-0.5216975033113476,-0.0052947734335699655,0.8531031094389618,0.05232003166960903,-0.8396972483818718,0.9409987003459013,-0.12317137100484649,-0.7579564825875774,0.7908151234248401,0.04924300850989933,0.6809835230589762,0.9654753895200361,0.04360080366088968,0.6602344983130455,1.0549750053117997,0.0,0.0,0.0,0.0
0.013114693438788946,0.052850288500419576,0.728780634813629,0.00433186779212395,-0.5216975033113476,-0.0052947734335699655,0.8531031094389618,0.05232003166960903,-0.8396972483818718,0.9409987003459013,-0.12317137100484649,-0.7579564825875774,0.7908151234248401,0.04924300850989933,0.6809835230589762,0.9654753895200361,0.04360080366088968,0.6602344983130455,1.0549750053117997,0.0,0.0,0.0,0.0
0.012604621398370354,0.053111006705561334,0.7291145649196865,0.0037380287743527603,-0.5222688970131786,-0.0046500760426174065,0.8527599915253516,0.05011769276654432,-0.8356573981392096,0.9354303965046425,-0.11218296294300215,-0.7738824147926664,0.8197659777221796,0.05553824764547177,0.6800151895235989,0.9642310327224907,0.05051929421421248,0.6643381772013356,1.0535191205437837,0.0,0.0,0.0,0.0
0.011652017903444827,0.05401402419882996,0.7294935514500248,0.0032052854847140306,-0.5226380919423622,-0.0039884782592126775,0.8525392911983495,0.04617477127755477,-0.8320266925129532,0.9291398920591829,-0.10027429696336865,-0.7856579714045387,0.8366441030130632,0.056835973666654487,0.6777679628560459,0.9651348323969503,0.05198070765855835,0.6659603570722618,1.0498008634997882,0.0,0.0,0.0,0.0
0.010470325915159326,0.05535920362520649,0.7298225024121403,0.0027156439944948266,-0.5228618688321192,-0.003379920031486992,0.8524063981104668,0.04124069106343475,-0.8291443760968322,0.9230261086712778,-0.09031964024815102,-0.7941557172835894,0.8457581748916341,0.05432199351153196,0.6746455906725993,0.9682084506686675,0.04913920969625997,0.6655659214187727,1.0450405043380462,0.0,0.0,0.0,0.0
0.009163955623150588,0.056946618373769894,0.7300292607266541,0.002258732929374438,-0.5230045377826607,-0.0028329312727916212,0.8523221961703819,0.035865968099023905,-0.8268316126008293,0.9169882446215727,-0.08287223413890284,-0.8006024860732301,0.8504973205525537,0.0495191687488126,0.67068813257164,0.9733106328860256,0.04376909852640519,0.6636201004532837,1.040441112566288,0.0,0.0,0.0,0.0
0.007880520608352027,0.05852807453650254,0.730235832492285,0.0018555511822480738,-0.5230951963709292,-0.0023694003736251788,0.8522689472257795,0.030729132445603352,-0.8245595147176212,0.9110639308122478,-0.0771982719654939,-0.8057652486813198,0.8529105901903052,0.043908119132387305,0.6670000384906345,0.9782536063079732,0.03761578278055526,0.6613993559053434,1.0355582563257302,0.0,0.0,0.0,0.0
0.0066956936550246066,0.059974627624429594,0.7304563913827264,0.0015140450471675415,-0.5231490366433444,-0.0019869176259752915,0.8522375521444027,0.026146195839336313,-0.8222711610216462,0.9054040872198555,-0.07247044691313513,-0.8101615261586762,0.854028842620158,0.038365682946885214,0.6638508471828595,0.9823885335505709,0.031661868268811746,0.659354703987596,1.0306310917958013,0.0,0.0,0.0,0.0
0.005640888750872842,0.06124157979981177,0.7306724832524454,0.001231511655955296,-0.5231786497614603,-0.001672957126274956,0.8522205025856102,0.022194048404932533,-0.8200647142415638,0.9001707784754606,-0.06805730616032393,-0.8140467458909004,0.8544517623466933,0.033303374420821714,0.6612041004002349,0.9857332610249903,0.026321969290759247,0.6575815386359989,1.025994396725808,0.0,0.0,0.0,0.0
0.004723443617418283,0.06232904624845929,0.7308697279775916,0.0010005210941694087,-0.5231928104356494,-0.001413355155938033,0.8522125817501112,0.01883243002113767,-0.8180434381706108,0.895487064508928,-0.06356742362781824,-0.8174239620880724,0.8545874495804417,0.028851236908783044,0.6589765523387684,0.9884459231093509,0.021694056655715634,0.6560741794544027,1.0218287828761774,0.0,0.0,0.0,0.0
0.003935243609865589,0.06325963286825563,0.7310414662298264,0.0008119735981633677,-0.5231966950508035,-0.0011952990868807844,0.8522107311263367,0.01596903416053128,-0.816274722368494,0.89140920921281,-0.05880501725200647,-0.8200762838172082,0.8547736076068544,0.024981425881990788,0.6570835847179113,0.9906967906544963,0.01771608369427047,0.6547918996802465,1.0181766012765765,0.0,0.0,0.0,0.0
0.003259060462963908,0.06406558244950479,0.7311872522484115,0.0006566818690186292,-0.523193864801072,-0.0010082579829626252,0.85221284431724,0.01349456788544496,-0.8147791095775626,0.8879245786186354,-0.05370527102262135,-0.8216470358890486,0.8553386599259005,0.021586610439115157,0.6554526485189971,0.99263321461014,0.014254936412329437,0.6536879048930205,1.0149889468814224,0.0,0.0,0.0,0.0
0.0026753882189158433,0.06477895840860612,0.7313112864626481,0.0005264332448685207,-0.5231892885957915,-0.0008440920700048169,0.8522159225661332,0.011307426042974371,-0.8135282031510379,0.8849664529282937,-0.048272318475285174,-0.8218618651738226,0.8565540339177867,0.01854263957891302,0.6540396418067763,0.9943599764825375,0.011170281039645166,0.6527359535579655,1.0121709037470066,0.0,0.0,0.0,0.0
0.0021680347012876552,0.06541916939375637,0.7314153561898268,0.0004155319871701386,-0.5231810871400113,-0.000696053513337568,0.8522211525781732,0.009341818450183881,-0.8125166652032607,0.8824814537668236,-0.04252541157038971,-0.8210173917992446,0.8582353939476554,0.01578870888839702,0.6527833084332066,0.9959391723106503,0.008394110807759612,0.6518963816365103,1.0096676559201099,0.0,0.0,0.0,0.0
0.0017235254482709538,0.06600021251580178,0.7315036064623839,0.00031961291656661296,-0.5231699511323196,-0.000559045220216646,0.852228131164556,0.00754979322981463,-0.8117098041363788,0.8803964611294501,-0.03647099043444437,-0.8195127012210219,0.8601830642683078,0.013284809623899954,0.6516524467013365,0.9973942837475244,0.0058818054089656525,0.6511562738358682,1.0074191568502566,0.0,0.0,0.0,0.0
0.001329834954063176,0.06653197097885362,0.7315813878363381,0.00023547924343902073,-0.5231572891966118,-0.00042942580972275585,0.8522360065753222,0.0058974519950473845,-0.81105644641697,0.8786250734820742,-0.03009198258620713,-0.8176566478407368,0.8622733910919651,0.01100371917316345,0.6506315038806173,0.9987237941328962,0.003602904081974982,0.6505136536834605,1.0053649818043915,0.0,0.0,0.0,0.0
0.0009772074210121426,0.06701816267478948,0.7316542763029167,0.00016144998956737602,-0.5231443079632586,-0.00030546741749218185,0.8522440458396884,0.00437111813295198,-0.8104964602867701,0.8770749370801801,-0.023360283499909568,-0.8156411755489436,0.8644577589138248,0.008939388986088787,0.649716445291211,0.9999015126560994,0.0015490279713019132,0.6499713800478794,1.0034577410331211,0.0,0.0,0.0,0.0
0.0006607426292653198,0.06745325907927956,0.7317276373450639,9.773298884606664e-05,-0.5231321846630678,-0.0001883952225532407,0.8522515311368757,0.0029876631753555827,-0.8099660430965482,0.8756615639988005,-0.01630342549400819,-0.8135941267316682,0.8667350109290143,0.007118771095210837,0.6489222968613334,1.0008695362410522,-0.0002549872053314406,0.6495407883917961,1.0016752207527713,0.0,0.0,0.0,0.0
0.0003846773641678195,0.0678199953819,0.7318060482110177,4.6528499998494436e-05,-0.5231229567330106,-8.393218255488014e-05,0.8522572164138008,0.0018048726973367757,-0.8094094468144765,0.8743379923457308,-0.009157056725494144,-0.8116631569839854,0.8691165977230283,0.005608054611102704,0.6482980237328411,1.0015350759915462,-0.0017457712460755028,0.6492502052340746,1.000031477538678,0.0,0.0,0.0,0.0
0.0001683162058476314,0.06808931618988397,0.7318906837383841,1.1702803002005456e-05,-0.5231204738982618,-4.305835901973379e-06,0.8522587457063507,0.0009271519577805955,-0.8088115397345126,0.8731536138854895,-0.002623882917870102,-0.8101031940127147,0.8715760871197132,0.004501967681912298,0.6479383469255324,1.0017932236648248,-0.0028328644468673322,0.6491469217985315,0.9985964416133157,0.0,0.0,0.0,0.0
5.048442885225414e-05,0.06822679195547811,0.7319670638114302,1.0179814421675135e-07,-0.5231241831863321,1.928366071763386e-05,0.8522564687896261,0.0005223878760652265,-0.8082943011083176,0.8723664097147206,0.0018130908028349112,-0.8093452845902,0.8738826671441545,0.0037925330332870427,0.6479574418083632,1.001656673957802,-0.003529290792498989,0.6491986736608755,0.9975563179031324,0.0,0.0,0.0,0.0
5.056139780769177e-05,0.0682273606833556,0.7319666450511463,8.912452571334802e-07,-0.5231238411448712,2.0050578425223734e-05,0.8522566787200999,0.0005189588337129092,-0.8082960947323188,0.8723662744678473,0.0018199797968762987,-0.8093405724681489,0.8738846780923324,0.00379073555412355,0.6479543333475561,1.0016587605748382,-0.003528258678978803,0.6492002014286009,0.997554716912294,0.0,0.0,0.0,0.0
5.056139780769177e-05,0.0682273606833556,0.7319666450511463,8.912452571334802e-07,-0.5231238411448712,2.0050578425223734e-05,0.8522566787200999,0.0005189588337129092,-0.8082960947323188,0.8723662744678473,0.0018199797968762987,-0.8093405724681489,0.8738846780923324,0.00379073555412355,0.6479543333475561,1.0016587605748382,-0.003528258678978803,0.6492002014286009,0.997554716912294,0.0,0.0,0.0,0.0
5.056139780769177e-05,0.0682273606833556,0.7319666450511463,8.912452571334802e-07,-0.5231238411448712,2.0050578425223734e-05,0.8522566787200999,0.0005189588337129092,-0.8082960947323188,0.8723662744678473,0.0018199797968762987,-0.8093405724681489,0.8738846780923324,0.00379073555412355,0.6479543333475561,1.0016587605748382,-0.003528258678978803,0.6492002014286009,0.997554716912294,0.0,0.0,0.0,0.0
0.00014752803405811398,0.06834314052993609,0.7319371067605804,8.360552281004457e-06,-0.5231682785228942,3.567911673010435e-06,0.852229401197097,0.0002661033684834326,-0.8088793682296532,0.8735531163412039,0.0015669022923235408,-0.8094416319112274,0.8742507244151055,0.0028612420653493643,0.6483187648648552,1.0023511401048368,-0.004461124551428854,0.649356901699543,0.9974100476198746,0.0,0.0,0.0,0.0
0.0002647178300774081,0.06851011879174809,0.7318993841370777,8.460161303614359e-07,-0.5232196711201572,5.827085550500642e-07,0.8521978501215897,-0.00014389687682471707,-0.809719680687399,0.875147780477605,0.0011569202610821835,-0.8094690414726503,0.8745647810573777,0.001759498043544617,0.6486924722576753,1.0032730744448446,-0.0055647070911395684,0.6495825370106897,0.9971757249156492,0.0,0.0,0.0,0.0
0.00038890818440656986,0.06873538959698279,0.7318607543635153,-8.33572698687755e-06,-0.5232610817688782,7.456591184173894e-08,0.8521724240061828,-0.0007078211478141049,-0.8108045960568214,0.8770960046038838,0.000593362029991069,-0.8094512739895632,0.8747845877172445,0.00028159639471268924,0.6490786974059548,1.0043725849419771,-0.0070379069433917215,0.6497801455962541,0.9967219200621719,0.0,0.0,0.0,0.0
0.0005147639257617909,0.06904711484097632,0.7318237971323176,-1.2174211671062001e-05,-0.5232776896197691,-2.9768251103734863e-06,0.8521622259811354,-0.001488281284171143,-0.8122346122657267,0.879513579932526,-0.00018614251217413647,-0.8093919482508675,0.8748475694421043,-0.0018435904960991676,0.6494728596271855,1.0057028668635992,-0.009143586581424857,0.6498734695410935,0.9958931908847223,0.0,0.0,0.0,0.0
0.0006620960806504697,0.0694998568683071,0.7317826722526655,-2.34616490190897e-05,-0.5232688420871408,1.0460115657650498e-05,0.8521676585278979,-0.002668131212511341,-0.8143113972271929,0.8828515556398991,-0.0013637715831755779,-0.8092398222750037,0.8747226172705204,-0.004792309824229111,0.649866562348712,1.0074607985879611,-0.012046801079204058,0.6499340454741823,0.9945531532799117,0.0,0.0,0.0,0.0
0.0009123023191526001,0.07018474184597513,0.7317351801148899,-0.0001884024826931799,-0.5234060016151044,0.0003288637323328664,0.8520833373716677,-0.005174471135047242,-0.8172791150334329,0.8877487596343685,-0.003863977327337329,-0.8075288405808375,0.8733934187041098,-0.006429772839523296,0.6500598815319859,1.00993065436341,-0.013659049341106205,0.6515218492380864,0.9930063527928603,0.0,0.0,0.0,0.0
0.0014383337299378558,0.0707414109239313,0.7316349941786314,-0.0002324666855270372,-0.523283210434486,0.00033487072418351423,0.852158738439157,0.00810915056754827,-0.8131768077572792,0.8777446367168035,-0.005267067277188396,-0.809962873098801,0.8774323428681486,-0.009979598791522205,0.6510440357452983,1.0119828368048511,-0.017125351292034737,0.652101776468152,0.9912465948163376,0.0,0.0,0.0,0.0
0.0020873084204738506,0.07144660322283457,0.7315026740856132,-0.00034646585763297414,-0.5232512767615453,0.0005025378641794153,0.8521782259507205,0.024987861692135113,-0.811088015325647,0.870319027280529,-0.007449435719211957,-0.8118743298409175,0.881373249461642,-0.013118015251936798,0.6520766745427398,1.014709474163187,-0.02017069029082077,0.6535608090145657,0.9894975195310928,0.0,0.0,0.0,0.0
0.0028061952608875386,0.07230318490193964,0.7313521786395799,-0.0005018225202594425,-0.5232495566048153,0.0007568508263841372,0.8521790169112643,0.04178857891491464,-0.8103523261163923,0.86459613161921,-0.010233625332687174,-0.8134372070837619,0.8850970369730868,-0.016534059877525143,0.6531515587154108,1.017985386237684,-0.02346576406759176,0.6554285777974511,0.9874493708791702,0.0,0.0,0.0,0.0
0.0035626825546006863,0.07327522823366568,0.7311920973139017,-0.0006704810276797841,-0.5232449549094521,0.0010330093423501214,0.8521814363788356,0.05710511240749262,-0.8103956465015878,0.859817874478367,-0.013370793523406078,-0.8148682546197542,0.888684293196032,-0.020591198445094556,0.6543224778808661,1.0216325029229274,-0.027345805654697342,0.6573838026163942,0.9850284004561469,0.0,0.0,0.0,0.0
0.004357005735024809,0.07433343279329752,0.7310210835685136,-0.0008467508239656381,-0.5232333786035147,0.0013136535094261854,0.8521880008792956,0.07083513028393566,-0.8108352678606627,0.8555751702820386,-0.016743967927195545,-0.816296408454944,0.8922908982170243,-0.02525630994301385,0.6556200526015802,1.0255656565617373,-0.03175981573943896,0.6593725926396136,0.9823149715239385,0.0,0.0,0.0,0.0
0.005205127421943368,0.07546524913452728,0.7308338365225854,-0.0010342962750054764,-0.5232187337397322,0.0016000377921097497,0.852196295916657,0.08333933859613636,-0.811431090550041,0.8516613237301064,-0.02032402021202602,-0.8178144451248106,0.8960931961909613,-0.030433450744790227,0.657073842422702,1.0297729071599862,-0.03659903381341519,0.6614409675004778,0.9793895875383943,0.0,0.0,0.0,0.0
0.006127912518586442,0.07667600725384506,0.7306246986462521,-0.0012404047199536879,-0.5232021914209573,0.0019012202036437155,0.8522055583309557,0.09500154650891733,-0.8119952290944059,0.8479821941122827,-0.0241472430739645,-0.8194934639498623,0.9002454912455756,-0.036079893359600934,0.65870756889137,1.034284273403815,-0.04180674141048976,0.6636581866053819,0.9762687600798807,0.0,0.0,0.0,0.0
0.007145653993023823,0.07798657370284964,0.7303892692118207,-0.001473581929165018,-0.52317819936993,0.0022291655568947777,0.8522191215182018,0.10606724344806442,-0.812302363404543,0.844523849784339,-0.028298062051528544,-0.8213867858308607,0.9048591819323877,-0.0422401775052486,0.6605361749635713,1.039149865580648,-0.047405642955851736,0.6660849233285031,0.9728874547601464,0.0,0.0,0.0,0.0
0.008276016020338143,0.07943024408332147,0.7301249987021617,-0.001742650665302579,-0.5231336468700912,0.0025972669285288397,0.8522449207156118,0.11663404251757871,-0.812033457775049,0.8413436133723285,-0.032898185532330496,-0.8235309225222256,0.9099975588696254,-0.04904280230624739,0.6625646566378036,1.0444247521666465,-0.05348862460098298,0.6687660123112075,0.9691009826594705,0.0,0.0,0.0,0.0
0.009534529032913353,0.08105024448976865,0.7298308896127271,-0.002058475094142913,-0.5230526719982093,0.003023047530406374,0.8522925120986629,0.12669994357693626,-0.8108073591588827,0.8385727043628355,-0.03810679930844965,-0.8259167276450063,0.9156544152736389,-0.05665680801934515,0.6647916044226446,1.05016813467889,-0.06017340095438774,0.6717547670976092,0.9647069273945332,0.0,0.0,0.0,0.0
0.010968575467322205,0.08288185833269529,0.7295045620978727,-0.002446368831299099,-0.5229310935863961,0.0035372054710634017,0.8523641092969204,0.13629725586330166,-0.808236997109757,0.8362267809008264,-0.04409330039324149,-0.8285913386246201,0.9220440958030928,-0.06502740033480173,0.6672883568360755,1.0563922557359238,-0.06736533700450395,0.6752841913735957,0.9595412855069001,0.0,0.0,0.0,0.0
0.012647561907569948,0.08496243866804588,0.7291409776116877,-0.0029408444086972347,-0.5227599937835994,0.004178153862102031,0.8524645936130365,0.1456086991964312,-0.8044069648656362,0.8338209964652777,-0.05105413250103728,-0.8316885481564128,0.9295566145950374,-0.07401128311723221,0.6701497306111452,1.0630855888711712,-0.07488970609447305,0.6796678698060487,0.9534167350978133,0.0,0.0,0.0,0.0
0.014629242278965528,0.0873234133991088,0.7287434019213475,-0.0035784666335997523,-0.522533951674455,0.004990325218324621,0.8525963643942226,0.15501635343042633,-0.7994711149184149,0.8307032746346614,-0.05919024714594634,-0.8352006303280834,0.9384007799395476,-0.08335928108846274,0.6734690362638375,1.070143387269174,-0.08248484713827554,0.685267222839342,0.9460954068096549,0.0,0.0,0.0,0.0
0.01696369243260757,0.08994759024671273,0.7283234077942842,-0.00439321417752352,-0.5222584343827453,0.006010773135237089,0.8527547701371073,0.16516821447121893,-0.7933391637399638,0.8259616560361791,-0.06856233302923835,-0.8390951452400014,0.9487977370771059,-0.09249414361581494,0.6773647811975656,1.0772645200751507,-0.08962949716232595,0.6924967098268288,0.9374480238819948,0.0,0.0,0.0,0.0
0.019629257334731406,0.09274408572757283,0.727883666046714,-0.005397477199321033,-0.5219561285510876,0.007249576486150766,0.8529244460962616,0.17693122553516494,-0.7856822872699551,0.8183847983801187,-0.0789740605977576,-0.843173668313163,0.960550089578581,-0.10051858005374523,0.681746980820842,1.0841467610674378,-0.09558886203135065,0.7014855900058717,0.9277953271856819,0.0,0.0,0.0,0.0
0.022439378554295154,0.09547478857714423,0.727266227156409,-0.006567194416815409,-0.52170623267878,0.008673397633083514,0.8530558310656488,0.19123944905179416,-0.7760291531933068,0.8062698045634012,-0.08973421228163363,-0.8472110689917767,0.9726230723985919,-0.1058203432330348,0.6854290519683208,1.0918080937216679,-0.09913966752816987,0.7110420295903808,0.9198882787938892,0.0,0.0,0.0,0.0
0.025208920615829397,0.09776638986521005,0.7263551342812402,-0.007847340703048291,-0.5215143592015378,0.010126761723694372,0.8531463186860102,0.20808568964435298,-0.7625167761460887,0.7857352319972207,-0.09948396133457799,-0.8520831082172072,0.9853161042754376,-0.10655860084644227,0.6873120348467612,1.1005441125251263,-0.09897357151976066,0.7196321713211365,0.9165158250750487,0.0,0.0,0.0,0.0
0.02761900951540889,0.09938015295538086,0.7252857287318986,-0.00916088904202906,-0.5212986793957889,0.011406683358672846,0.8532488807768347,0.22647473581909805,-0.7428208742450105,0.7512333771808508,-0.10703654983356398,-0.8577046990713557,0.9976268190950381,-0.10211206686246391,0.6868066845806178,1.1090320496951027,-0.09476852353406644,0.7262053823931995,0.9175843088515007,0.0,0.0,0.0,0.0
0.029066015264003844,0.10010077569668714,0.7243658310245397,-0.010353633037987944,-0.5209677527256175,0.012220962175380297,0.8534260665028005,0.24346204157539073,-0.7147375469081053,0.6969854347874733,-0.11094931786353697,-0.8626499252820772,1.0062651214476488,-0.09326617421310401,0.6833730980419315,1.1151558884537227,-0.08722752050060574,0.7292812279084862,0.9215957668754672,0.0,0.0,0.0,0.0
0.029136696395777602,0.10017462796285018,0.7243251167384349,-0.01043662964513146,-0.5209328588565609,0.012217831476210106,0.853446400144262,0.2434927857308482,-0.7146856175653985,0.6969781548471535,-0.1111576885178467,-0.8626978407707839,1.0063143087337387,-0.09332125452362307,0.6833689729068116,1.1154088659903496,-0.08712924685095733,0.7294021914487528,0.9214149409116413,0.0,0.0,0.0,0.0
0.029136696395777602,0.10017462796285018,0.7243251167384349,-0.01043662964513146,-0.5209328588565609,0.012217831476210106,0.853446400144262,0.2434927857308482,-0.7146856175653985,0.6969781548471535,-0.1111576885178467,-0.8626978407707839,1.0063143087337387,-0.09332125452362307,0.6833689729068116,1.1154088659903496,-0.08712924685095733,0.7294021914487528,0.9214149409116413,0.0,0.0,0.0,0.0
0.02877934420142421,0.10117382804870255,0.7261821838269973,-0.008788148804542715,-0.5201630936152685,0.010805400008118712,0.8539533756662873,0.243466872127164,-0.7085136707156198,0.6952107230628289,-0.11082903038696311,-0.8623108735633945,1.0050907094786827,-0.12613245588444338,0.6966445302211284,1.103335955275326,-0.05336082649021606,0.7140818573488626,0.9578447672843526,0.0,0.0,0.0,0.0
0.028414236987671402,0.10257458921532103,0.7283461661288718,-0.007662821651915949,-0.5195349361544779,0.009781557951309462,0.854358854582393,0.2416590085883963,-0.7044705821087823,0.6970529513866889,-0.1121328955218089,-0.8573698752406288,0.9995945037253896,-0.15478348256415375,0.7096368197536728,1.0891210134324372,-0.022571656276649553,0.7048372892714165,0.9830206474416849,0.0,0.0,0.0,0.0
0.028104574629071354,0.10418713638170718,0.7303551172132755,-0.006996404322363908,-0.5190925600313264,0.009143461895551798,0.8546404867259955,0.23862645443923974,-0.7030305631363041,0.70198701687202,-0.11470500558020502,-0.8499478660677862,0.9915209264360185,-0.1783368659644216,0.7208695961264,1.0761997668778556,0.000894930778053929,0.6995276789448849,1.0003584342913086,0.0,0.0,0.0,0.0
0.02785236746043461,0.10588712040666573,0.7321192604861594,-0.006627160946681475,-0.5187598449526281,0.008770954526846958,0.8548493284545529,0.23493891227591265,-0.703665193588665,0.7090257781719198,-0.11802924293793916,-0.8415862413390582,0.9822844038190656,-0.1981194517357081,0.7303562289167868,1.0651921724893991,0.01965478837030276,0.6967589670348964,1.013125978396596,0.0,0.0,0.0,0.0
0.02761106816956375,0.10757340605661293,0.7336494371614588,-0.006421167339070796,-0.5184714324666774,0.008539716048582112,0.8550281957782239,0.23107135296285586,-0.7053732826572511,0.7166724450886832,-0.12159657402249578,-0.8331593929681879,0.9726206219079708,-0.2153061212072164,0.7382771278435565,1.0559419703804525,0.035776623715442206,0.6954172489492715,1.0230978205753813,0.0,0.0,0.0,0.0
0.027280885827007856,0.10915495100967734,0.7349827779768776,-0.00627283928520371,-0.5181941954962297,0.008355848124194888,0.8551991622092731,0.22736155047367929,-0.7068150094737621,0.7228753868324403,-0.12497243068976586,-0.8249312556471502,0.9625094297656239,-0.2305078840075194,0.74464263305609,1.0481280376233446,0.050730066176195146,0.694580453434116,1.0311335146073006,0.0,0.0,0.0,0.0
0.026851185487568426,0.11065223335952801,0.7361626730674066,-0.00614713266512043,-0.5179036495913414,0.008190160141307662,0.8553776614904239,0.2238096604496136,-0.7079259356829012,0.7276840807462682,-0.12815534278192167,-0.8169196384291055,0.9519544499914663,-0.24430636349461282,0.7496689611673515,1.0414597774547096,0.06522990956958005,0.6938442378538857,1.0377270701916297,0.0,0.0,0.0,0.0
0.026318112664872086,0.11211236043626073,0.7372347068723126,-0.006029293278614032,-0.5175816155785989,0.008030541957418662,0.8555749115264413,0.22032244834426293,-0.708814008410978,0.7314135536747274,-0.13124122641047342,-0.8089742875442327,0.9407847871373974,-0.25722590404980833,0.7535772789240991,1.035653029978493,0.07965469622964146,0.6930413070532696,1.042994632499346,0.0,0.0,0.0,0.0
0.025668353375640544,0.11359297436813731,0.7382406953097218,-0.005908353962153442,-0.5172061874301405,0.007866656806475244,0.8558042806320412,0.21677698036648066,-0.7096045235364762,0.7343542043568213,-0.13435162179604948,-0.8008814032466127,0.928686070256889,-0.2697975704171625,0.756521205812277,1.0304649512524238,0.09428168822422336,0.6921840100710877,1.046612611270296,0.0,0.0,0.0,0.0
0.024879991641359085,0.11515986088126295,0.7392200534694604,-0.005771624268352459,-0.5167478114292994,0.007685463146742678,0.8560837116734288,0.2130360224629101,-0.710436924480192,0.7367744794813056,-0.13762062990808566,-0.7924076621995315,0.9152484524515501,-0.28258715502149595,0.7585933460462005,1.0256717550174006,0.10944451752007332,0.691505507937411,1.0477527894239678,0.0,0.0,0.0,0.0
0.023946593365934427,0.11689413412557609,0.7402197903626023,-0.005609909095061775,-0.5161685671093305,0.007477909559351656,0.8564359988445533,0.2089271754444296,-0.7116301575255325,0.7392498469795356,-0.14123153415317305,-0.7833327873876655,0.9001141299257962,-0.2961672995070081,0.7599299976732974,1.0209530093419399,0.1255809207141597,0.6916118915065886,1.045094983007803,0.0,0.0,0.0,0.0
0.022860454576644953,0.11884979360994598,0.7413093306645516,-0.005408986090311568,-0.5154346508516063,0.007223130772350146,0.8568813744928775,0.2043618833583236,-0.713237330349435,0.7420341093661529,-0.14526286125487559,-0.7734337358238875,0.882975860604763,-0.31090066952931494,0.7607547252616582,1.0156984618551568,0.14273248106838182,0.6917484137401292,1.04014443639877,0.0,0.0,0.0,0.0
0.02161016710346915,0.12105652511786208,0.7425556753444935,-0.005138856572306713,-0.5145017175668806,0.006882496340719463,0.8574463283599616,0.19934673771731462,-0.7151780556351666,0.7451559500997015,-0.14969907490757864,-0.7626609682349911,0.8636908047959507,-0.3270551431764276,0.7612470162997452,1.0092111532470631,0.16140846247873875,0.6914783204513865,1.0339935527741566,0.0,0.0,0.0,0.0
0.02018805017683266,0.12351159256072733,0.7439846744816405,-0.004751162832733962,-0.5133115909861852,0.0064000420702784834,0.8581652967071477,0.19401177600540823,-0.7173965107786389,0.7485423272188229,-0.15442859056597666,-0.7513579822773392,0.8424993278986056,-0.3447728345369965,0.7613869468692314,1.0010173302616308,0.1831444583561259,0.6906898789740797,1.0275554687756583,0.0,0.0,0.0,0.0
0.018583488237349007,0.12611017865041685,0.7455182225527527,-0.004167853284745842,-0.5118036386411251,0.005693781192436435,0.8590734807502989,0.18879528049196626,-0.7196617289902888,0.7515212073259121,-0.1590716517695979,-0.7406719970240873,0.8204752669800053,-0.3637337641019986,0.7606726175024788,0.9913314238620435,0.21132527694236866,0.6898949964884634,1.0218338051213225,0.0,0.0,0.0,0.0
0.016816829264047966,0.12853466146410997,0.7468432094671332,-0.003256598262427213,-0.5098716113855748,0.004533394806350133,0.8602324004606919,0.1850738383783694,-0.7217142394008593,0.752772926314599,-0.16247257239842838,-0.734182970667998,0.801395869634534,-0.38366707419723023,0.7577749889846528,0.9820458256093444,0.2516279145202169,0.6911570657435886,1.0172570670275527,0.0,0.0,0.0,0.0
0.014809116343938881,0.1305618422541843,0.7473831809219645,-0.0020055896153695074,-0.5074858401724913,0.0029581548310960684,0.861652684644289,0.18337005430794623,-0.7244880823572597,0.7514645695889997,-0.16432369005764094,-0.734451641015909,0.7872605911532558,-0.4024746039559794,0.7493600703835185,0.9780933931895676,0.30890592852743226,0.6949040776240946,1.0151152358881068,0.0,0.0,0.0,0.0
0.012966682242167224,0.13212275965903153,0.7467685689525373,-0.000684480830176401,-0.5046335864685496,0.0011544254578635224,0.8633325791349149,0.18385565693448544,-0.7322563724602269,0.7533976323534134,-0.16493189561265525,-0.7443387426221169,0.7828770233823411,-0.4178976390852644,0.7344950056761693,0.9824603734313658,0.3801094502211281,0.7002596503790234,1.0167846912132996,0.0,0.0,0.0,0.0
0.011466865647473018,0.13311426273331362,0.7451369240486811,0.00038229717079847544,-0.5015232694465249,-0.0005307970821023436,0.8651439084377807,0.18614411924536645,-0.7452921764075747,0.7596042341897269,-0.1646265008936695,-0.7621071399346067,0.7879439499732824,-0.42633996389859663,0.714320603092498,0.9939618534480369,0.45500103947435333,0.7021333451583406,1.0241676250931018,0.0,0.0,0.0,0.0
0.011479189712488848,0.13315630514741378,0.7450877767506455,0.0004500494010092354,-0.5015195516618607,-0.0005782959359519027,0.8651460005861631,0.18618138546680432,-0.7453279757049452,0.7596508854864498,-0.16463149606918515,-0.7622320120457702,0.7877645175505735,-0.42640338622099516,0.7142262412738306,0.9937958121442296,0.4550554028560613,0.7021259968405672,1.0241671951244176,0.0,0.0,0.0,0.0
0.011479189712488848,0.13315630514741378,0.7450877767506455,0.0004500494010092354,-0.5015195516618607,-0.0005782959359519027,0.8651460005861631,0.18618138546680432,-0.7453279757049452,0.7596508854864498,-0.16463149606918515,-0.7622320120457702,0.7877645175505735,-0.42640338622099516,0.7142262412738306,0.9937958121442296,0.4550554028560613,0.7021259968405672,1.0241671951244176,0.0,0.0,0.0,0.0
0.011382999492569424,0.1335492648756078,0.7458369925225236,0.0005371665618110306,-0.5032960644141469,-0.0005955689101874681,0.8641136663049538,0.1842647065827628,-0.7332422894616817,0.7487093934570727,-0.1647572879151393,-0.7476669744841221,0.7727090685968034,-0.4367627874927345,0.7244382256862705,0.9914488881943674,0.45943308843517716,0.7118319470728682,1.02078572161236,0.0,0.0,0.0,0.0
0.011297589925262757,0.13406421602665314,0.7464016900242151,0.0004863052003607066,-0.5044421836709176,-0.00047220258279452224,0.8634452060584326,0.18211509055896966,-0.7264671463552063,0.7431256881021747,-0.16573561538510165,-0.7362317066413671,0.7602114143782771,-0.44411239527719526,0.7312499937492025,0.9896649758215945,0.4620129937666401,0.7186801066064123,1.0173159444642668,0.0,0.0,0.0,0.0
0.01136321797075657,0.1347693055972711,0.7467103438991446,0.0003432974300930749,-0.5051598273094838,-0.0002528545707807396,0.8630257047644021,0.1796254221481906,-0.7250312169100073,0.743877866382681,-0.16761407852767823,-0.7278047407453487,0.7507338087590542,-0.4505119827639663,0.7356760535188669,0.9896101591823142,0.4630785619523718,0.7234478347659077,1.0147269378892305,0.0,0.0,0.0,0.0
0.0116416011791645,0.13581520922281481,0.7465846545263187,0.00011728618368973892,-0.5056205725787456,5.102269060662598e-05,0.86275594476409,0.17643332054694208,-0.7294064101428792,0.7518763128247304,-0.1707226118033776,-0.7218470402459164,0.7435099159572457,-0.45853037141877434,0.7379841407070421,0.9936235512208322,0.4627536915044424,0.7261923705731539,1.0147820115366504,0.0,0.0,0.0,0.0
0.012183072972853398,0.1372265192991368,0.74579121721079,-0.00017234505008492296,-0.5059550387347814,0.00037472589176510134,0.8625597536730863,0.17262948752680993,-0.7396514407666643,0.7670570603231873,-0.1749846043712326,-0.7187198385863899,0.7387539504190199,-0.47043221398560414,0.7381786844841369,1.0041988242905628,0.46153543207693226,0.726528984429716,1.0198620610801372,0.0,0.0,0.0,0.0
0.01299081469321585,0.13911500299639737,0.7440669732532298,-0.00021517364064392044,-0.5067057662456551,0.0003327025988994969,0.8621189647970218,0.16853773033855107,-0.7521089530948605,0.7854015212004863,-0.17976170604007186,-0.7171200146710294,0.7342656358957936,-0.49648288441031935,0.7390775849541895,1.025143293522898,0.4570655847039531,0.7245272735587587,1.0333210913897048,0.0,0.0,0.0,0.0
0.014879447926448143,0.1416343453222908,0.7448411702657236,0.0014028767129547195,-0.5086784533772739,-0.0017234922479534415,0.8609537110560033,0.16637982665683387,-0.7492574367966952,0.7994721508736619,-0.18146039632948788,-0.7117787468166602,0.7330842421572006,-0.3971729546846339,0.7243209699481584,1.0167299708175517,0.4256334970150678,0.7353452314433512,1.0235378896462344,0.0,0.0,0.0,0.0
0.01704558923699325,0.14445463960173585,0.7445707707036274,0.00307933191784892,-0.5109415015099417,-0.0038820527692714274,0.8596012037078604,0.16384833487215886,-0.7499760950156766,0.817409906697349,-0.18391439036600193,-0.7088579120292018,0.7333885711434852,-0.30432831343872147,0.7124111763083997,1.0144382722172838,0.3914220254373701,0.7425711187912002,1.0222100712571647,0.0,0.0,0.0,0.0
0.019324577594478847,0.1474544272141929,0.7436804386005427,0.004157825169950712,-0.5128116918108028,-0.0053012456415292815,0.8584746810632486,0.15965380735022877,-0.7586879883486555,0.8428489972850983,-0.1886107945586885,-0.7072642660266875,0.7344767135092839,-0.239088076606025,0.7064629203601528,1.016484780288798,0.361667062634816,0.7472512503915117,1.0244519625851936,0.0,0.0,0.0,0.0
0.021448372303288547,0.1502193054494898,0.7425881225038794,0.004774700033412084,-0.5142550244460989,-0.006153629143425199,0.8576019501609697,0.155004111917898,-0.7705464771942557,0.8691928574968719,-0.19402006178696407,-0.7065445254827307,0.7359973743768142,-0.19591862599840437,0.7038817393327776,1.021134929810276,0.3375810041809407,0.7503752630589929,1.0278107509407186,0.0,0.0,0.0,0.0
0.0232805813051973,0.1526178899159198,0.7415529390300925,0.005132178792013857,-0.515358224462905,-0.006664294440746576,0.8569335729208513,0.15052662409150494,-0.782297261273036,0.8927865796029614,-0.199256006854813,-0.7060079857648315,0.7371824302674361,-0.16579652784270518,0.7025536273479082,1.0269353554549587,0.31803465948619747,0.7525857785422437,1.0308603972179187,0.0,0.0,0.0,0.0
0.024805567893535024,0.154649021478002,0.7406584945245016,0.005364605375205634,-0.516212374650114,-0.006994040919819471,0.8564152548027566,0.14650229145717145,-0.7926790036742488,0.9126835123577896,-0.20393725665702384,-0.7054511081723052,0.7378642122045428,-0.14252400453026556,0.7014873001275702,1.0329980444503326,0.30175031678925973,0.7541443322071074,1.033259921704185,0.0,0.0,0.0,0.0
0.026062942012752582,0.15636995631721698,0.7399055977370724,0.0055452171769719266,-0.5168917437687652,-0.007237034206970835,0.856002220281018,0.14298443233630548,-0.8014733082247556,0.9291754083880661,-0.20799385796663372,-0.7048460516532284,0.7380878266432528,-0.12259383045372188,0.7003344050070212,1.038780111764619,0.2876649741807946,0.7551695030857185,1.035077512005684,0.0,0.0,0.0,0.0
0.027115392485741827,0.1578477198092045,0.7392545532659031,0.005709631789285895,-0.5174502788891587,-0.007444232090574118,0.8556618446506449,0.13993551919324593,-0.8089353465578873,0.9429988620886576,-0.2114906454369212,-0.7043124491605512,0.7380809242190285,-0.10424091373997409,0.6990663493889946,1.0438384527678437,0.27505112084523264,0.7557189203409429,1.0365833093037022,0.0,0.0,0.0,0.0
0.028003977388149418,0.15915492652932803,0.7386411921379261,0.005870054277597364,-0.5179238703646688,-0.007636915087286544,0.8553724828969012,0.13724212848482897,-0.8154687175620052,0.9548356955585042,-0.21456936638064608,-0.7038776846036459,0.7378068877462928,-0.08675244688048422,0.697788144582505,1.047562658956286,0.26334602885755587,0.7556763712782537,1.0382112162633315,0.0,0.0,0.0,0.0
0.028737759691785304,0.16036791117935456,0.7379917293614722,0.006025042461180969,-0.5183335484515315,-0.007815510008015334,0.8551215990818496,0.13472901087820746,-0.8214947443679006,0.9651827872144189,-0.2174184226599933,-0.7034040609343051,0.7368659635664992,-0.06999955363585819,0.696775533190165,1.0489338170487312,0.2520674906878441,0.7547656932147044,1.0404718852821822,0.0,0.0,0.0,0.0
0.029325553320811257,0.16154314290512406,0.7372435281357775,0.0061711078062323685,-0.5186896568089152,-0.007979174139131127,0.8549030881497335,0.13226710678048023,-0.8273863148454131,0.9744503935685415,-0.22018276110589455,-0.7028414102510865,0.7350090590530063,-0.05412331244909834,0.6966977084525966,1.0464537318510452,0.2408698432060758,0.7527427512974562,1.0437905479015361,0.0,0.0,0.0,0.0
0.02978079532893611,0.16273305216822345,0.7363647969031127,0.0063126776078396615,-0.5190051247955888,-0.008131304310865155,0.8547091390803885,0.1297350922264525,-0.8333796265895866,0.9829714361876608,-0.22298797635566703,-0.7020850631386955,0.732006119555253,-0.03873041986209842,0.6969613297474858,1.0414730224562596,0.22930422333622213,0.749490891071571,1.0483072784488774,0.0,0.0,0.0,0.0
0.0301094239160274,0.16398194724878273,0.7353371332233324,0.00645791165993712,-0.5192856411834091,-0.00827927007989743,0.854536232072504,0.12703634717747456,-0.8396283772784031,0.990966395649951,-0.22592962613885895,-0.7010302737624449,0.7276231006194555,-0.023423164121342224,0.6973554119518286,1.0347297428512177,0.21686218291065293,0.7448771326037481,1.0540451287904224,0.0,0.0,0.0,0.0
0.0303032232994503,0.16532089119122992,0.7341424721995724,0.006621955348839101,-0.5195277850800154,-0.008437634552888096,0.8543862338312592,0.12412049983908216,-0.846201779352636,0.998485390372234,-0.22905511051399052,-0.6996239511683497,0.7216321203759786,-0.0077693355718169745,0.6979189635425492,1.0263643578495745,0.2029866237796096,0.7386621966241274,1.0610462186651441,0.0,0.0,0.0,0.0
0.030345513456200474,0.1667575158322693,0.7327636188113233,0.006834941859154232,-0.5197208700315884,-0.008637724310784786,0.8542651172452974,0.12103182894167991,-0.8530376076143276,1.00538078776785,-0.23232227217923582,-0.6979675430712098,0.7139713227988037,0.008861888832083869,0.6988602434184377,1.0159772735900716,0.18705897730158602,0.7305086621339862,1.0693815239221642,0.0,0.0,0.0,0.0
0.030229284594384193,0.16824804567502197,0.7311919714552997,0.007154998011412469,-0.5198508284564944,-0.008947617687838534,0.8541802282271964,0.1180310556722183,-0.8598355815020374,1.0112687961082838,-0.23549622840382903,-0.6965774220535325,0.7051937424762782,0.027469443027582374,0.700549593408442,1.0026392309638554,0.16844410541556992,0.7200591463511881,1.0791217778688118,0.0,0.0,0.0,0.0
0.03005080434436638,0.16961332610278743,0.7294423242064987,0.007692142651029586,-0.5198833666985786,-0.009522418647330711,0.8541495416580708,0.11596368614661805,-0.8661290280890585,1.0159349811375775,-0.23788984259435655,-0.6975542165221522,0.6984367959524429,0.0497302595874108,0.7037202356635746,0.984798271609489,0.14674021009049515,0.7072120522486709,1.0902374850591514,0.0,0.0,0.0,0.0
0.02981103394263929,0.17076349627422682,0.727614167696235,0.008583951710020002,-0.5197618817135878,-0.010569873030475959,0.8542026573797988,0.11554951739351789,-0.8710168608190252,1.0186640270419574,-0.23884741619362712,-0.7022295577956827,0.6954756855345797,0.07677606726757474,0.7090411865692924,0.9596359791068715,0.11983600083249142,0.6913893441126775,1.10179098042317,0.0,0.0,0.0,0.0
0.029545299040435,0.17159103468115444,0.7260636119271595,0.009915497296606068,-0.5194610225000669,-0.012142800863409797,0.8543503270928955,0.11712217460739195,-0.8731298695039641,1.018816110090262,-0.23797080456378936,-0.710712703617047,0.6975200164779332,0.10466283190571388,0.7185737352073185,0.9243673861962851,0.08805553036007968,0.6740245873791153,1.1108608761169914,0.0,0.0,0.0,0.0
0.029565222168681647,0.17162057487057447,0.7260224735996013,0.009958551696828149,-0.5194861984308526,-0.01216928602600386,0.8543341415193353,0.11710011389943874,-0.87313314301364,1.0188748634533562,-0.2379885517273362,-0.7107434202639765,0.6974181473850899,0.10467045163097152,0.7185730689258795,0.9243583482676707,0.08805631237178438,0.6739528733317263,1.1108425106835609,0.0,0.0,0.0,0.0
0.029565222168681647,0.17162057487057447,0.7260224735996013,0.009958551696828149,-0.5194861984308526,-0.01216928602600386,0.8543341415193353,0.11710011389943874,-0.87313314301364,1.0188748634533562,-0.2379885517273362,-0.7107434202639765,0.6974181473850899,0.10467045163097152,0.7185730689258795,0.9243583482676707,0.08805631237178438,0.6739528733317263,1.1108425106835609,0.0,0.0,0.0,0.0
0.028148940433718062,0.17203918844352423,0.7268528474282927,0.008621310199141346,-0.5207637557195149,-0.010667895764562427,0.8535906394398383,0.11191456825185468,-0.8641714490201435,1.0057172880757297,-0.21726384173785562,-0.7408926176668716,0.7594401528009578,0.12088200540351271,0.7151207940332123,0.9206164664654766,0.10808805167687496,0.683572683174349,1.1080048919485463,0.0,0.0,0.0,0.0
0.0256646856599369,0.1736461723818066,0.7279111185337642,0.007448580082801357,-0.5216252113571971,-0.009225945718404354,0.8530923393495634,0.103618417150669,-0.8547724148420833,0.9894906430359696,-0.19459397688167165,-0.7616830208487703,0.7964575398342004,0.12558058188479612,0.7095652029190851,0.9207504937003013,0.11446239941559376,0.6865736473863218,1.1006311433987663,0.0,0.0,0.0,0.0
0.02275311091428002,0.1761976400894085,0.7289284423353671,0.006364422477293741,-0.5221437947333133,-0.00787832961142218,0.8527973286019134,0.09322552655795614,-0.8472596909361068,0.974316019453988,-0.17488340823407186,-0.7753085159606574,0.8170995143304366,0.12174326263216656,0.7026010080780802,0.9252926911634485,0.10943716632463547,0.6847431653910423,1.0907118750690878,0.0,0.0,0.0,0.0
0.019760373680796816,0.17939925030088139,0.7297482467938489,0.005337311583456056,-0.5224520943699489,-0.0066085809296417015,0.8526263242778817,0.08153709711118087,-0.8420952854242377,0.9614535977916262,-0.1590761857817965,-0.7842334945813743,0.8282228326802243,0.11257708190352932,0.6945403196941564,0.9339205308973811,0.097585169631059,0.6802059183556165,1.0799553712580312,0.0,0.0,0.0,0.0
0.01680331844665405,0.18284218439681518,0.7302794094971135,0.004391624541326503,-0.5226957578628311,-0.005496697043789875,0.8524902607465363,0.06977863545108973,-0.8379572939156653,0.9494402821977788,-0.1471688558781038,-0.7910458643364895,0.8344306434013763,0.10061307750515983,0.6857235284956218,0.945801159188909,0.08279580848629536,0.6740797296564256,1.0702289865938435,0.0,0.0,0.0,0.0
0.0140702963933322,0.18608540315533753,0.730804320939368,0.003576315803121563,-0.5228728551891869,-0.0045557458576204685,0.8523910091332877,0.0590517169149706,-0.8336350950348277,0.9378018628298733,-0.13727144087946255,-0.7966651286432509,0.8380105284311544,0.08838999704084716,0.6781349801381259,0.9561897390312665,0.06849795635825007,0.6686072963956491,1.0601708000606662,0.0,0.0,0.0,0.0
0.011691275361909583,0.1889746755780425,0.7313036600956584,0.0029000416817599327,-0.5229837858780148,-0.003786019000076406,0.8523292882020856,0.049740479497096236,-0.829572466185176,0.9273686482201856,-0.12834485784943372,-0.8015130633443296,0.840071748395424,0.07693093804860658,0.6719473101736844,0.9646658899229112,0.0557065396590502,0.6641441456033841,1.0503530109834156,0.0,0.0,0.0,0.0
0.009678076026945471,0.1914732555264022,0.7317563832245907,0.0023494915393004164,-0.5230523108044557,-0.0031593653451901173,0.852291486794419,0.04183559363722885,-0.8259375760407779,0.9183430113960217,-0.11960135428470553,-0.8057249818827195,0.8414741877661269,0.0667110541426337,0.6669772195089803,0.9714640018719185,0.04470847937831041,0.6606500581776961,1.0412599990369877,0.0,0.0,0.0,0.0
0.0079971512096469,0.1936017710506319,0.7321351096257658,0.0019052814883659093,-0.5230938377838871,-0.0026451270576061912,0.8522688602065804,0.035181800258145705,-0.8228550563583323,0.9107284357057138,-0.11051886285639823,-0.809204010912073,0.8427816890180154,0.057842306841459634,0.6628894096853412,0.9770880117660923,0.03542121394847182,0.6578645565791499,1.0332848086717152,0.0,0.0,0.0,0.0
0.0065993186799078495,0.1954270836836566,0.7324461429533122,0.0015438437642300337,-0.5231191982548147,-0.00221331082153918,0.852255256492372,0.029516382892267976,-0.8203595872654491,0.9044707288969664,-0.10087269085280287,-0.8116218431779977,0.8444406043541537,0.05014268161361373,0.6594924096197672,0.9818625840216321,0.027510640476804123,0.6556292834524425,1.0263569220109896,0.0,0.0,0.0,0.0
0.005421255468453857,0.19701994208050905,0.7327039578572097,0.0012440845342401854,-0.5231356206846988,-0.0018411680121825514,0.8522465516063162,0.02459291950454389,-0.8183552732425784,0.8993211759084379,-0.09061401692870429,-0.8127285307039167,0.8467627625993135,0.04335469040350996,0.6566190731682099,0.9860266386201061,0.020630794848751466,0.6537984038928177,1.020281910812135,0.0,0.0,0.0,0.0
0.004377719871818867,0.19842117693137815,0.7329235353979351,0.0009905109553488564,-0.5231474427639582,-0.0015104469283076123,0.8522402774849679,0.020255691727800684,-0.8165232626157631,0.8946469478987104,-0.07969108802372267,-0.8129169589112094,0.8496630866848043,0.03737051681653305,0.6540462443017063,0.9896979004273042,0.014639856682681123,0.6521936867687578,1.014938203647075,0.0,0.0,0.0,0.0
0.0034517222405063843,0.19968544245875886,0.7331128719850072,0.0007704817892482192,-0.5231532686471763,-0.0012074521630123874,0.8522374117115851,0.016333104857538017,-0.814952438842364,0.8905459195178721,-0.06815002968763101,-0.81251698898559,0.852881839632906,0.0319734142033735,0.6517257259641932,0.9930164187058362,0.009287389200715795,0.6507940312300959,1.010122177670808,0.0,0.0,0.0,0.0
0.002625915011350588,0.20084555948053162,0.7332796249390481,0.000575901827205539,-0.5231566714692789,-0.0009228473538596309,0.8522358322594937,0.01271836795593328,-0.8136269889553659,0.8869798971801549,-0.055938049360445934,-0.8118090606363583,0.8562903986425588,0.0270417666229689,0.6496294555565966,0.9960545804018562,0.004436133902150813,0.649595601459326,1.0057017289684342,0.0,0.0,0.0,0.0
0.0018853390563407409,0.2019112990545708,0.7334313799541916,0.0004030780710293172,-0.5231599112945327,-0.0006518596156850496,0.8522341930604561,0.009373752173870882,-0.8124768466082526,0.8838356467782954,-0.042975971475689094,-0.810974278077266,0.8598403902612741,0.02255438205413536,0.6477416594207729,0.9988001371956292,5.692045295181865e-05,0.6485972435862224,1.00160844129204,0.0,0.0,0.0,0.0
0.0012223468848705558,0.20286496694029021,0.7335752020966381,0.0002531003059421736,-0.5231641065299911,-0.0003963790324649934,0.8522318325799464,0.006347058998039933,-0.8113927469983627,0.8809589120863334,-0.0293240663169036,-0.8101368480211832,0.8635421947835672,0.01860564455065116,0.6460740871977955,1.0011463405851102,-0.003763811391214708,0.6478053091634196,0.9978546215465706,0.0,0.0,0.0,0.0
0.0006428950811116117,0.20365705331021045,0.7337156486139036,0.00013240495919247404,-0.5231698129299257,-0.0001695830161574267,0.8522284321409336,0.003794562324419974,-0.8102479153974738,0.8782012422235463,-0.015517284461182328,-0.8094339778336419,0.8674326942375247,0.015402375827240305,0.644685678606997,1.0028985239484316,-0.006833002959967615,0.6472296209637179,0.9945614025516458,0.0,0.0,0.0,0.0
0.00017164306693614366,0.20420831559528288,0.7338457093777139,5.7640676432115836e-05,-0.5231700361375985,-2.3501762956739444e-05,0.852228320001749,0.002047483229257071,-0.8089574558722902,0.8755065783550697,-0.003024614620591356,-0.809133975956698,0.8714917073755879,0.013044490159103219,0.6437117577051784,1.0038763950673144,-0.009069798985872169,0.6467577246025771,0.9919897305051645,0.0,0.0,0.0,0.0
-0.0001849672357879627,0.20444241310126202,0.7339332222556381,2.8682697593803467e-05,-0.5231944923158842,4.0632152136378866e-05,0.8522133070638215,0.0013001974297831805,-0.807308294907999,0.8725429445971037,0.006012664697869593,-0.8099292396530843,0.8758057355471034,0.012038335626269714,0.6430582671288132,1.0041739382563624,-0.009995558817506772,0.6463398842836413,0.9907716011097439,0.0,0.0,0.0,0.0
-0.00018446489610046438,0.20444519839384703,0.7339317115232364,2.955275328413227e-05,-0.5231936885382267,4.2160494092560034e-05,0.8522138004180011,0.0012913285500217283,-0.8073119123016076,0.8725397276063583,0.006026404704723452,-0.8099249115483539,0.8758075693011725,0.012032155705135073,0.6430499377378156,1.0041833473998252,-0.009990567187810277,0.6463477879417625,0.9907621720331443,0.0,0.0,0.0,0.0
-0.00018446489610046438,0.20444519839384703,0.7339317115232364,2.955275328413227e-05,-0.5231936885382267,4.2160494092560034e-05,0.8522138004180011,0.0012913285500217283,-0.8073119123016076,0.8725397276063583,0.006026404704723452,-0.8099249115483539,0.8758075693011725,0.012032155705135073,0.6430499377378156,1.0041833473998252,-0.009990567187810277,0.6463477879417625,0.9907621720331443,0.0,0.0,0.0,0.0
-0.00018446489610046438,0.20444519839384703,0.7339317115232364,2.955275328413227e-05,-0.5231936885382267,4.2160494092560034e-05,0.8522138004180011,0.0012913285500217283,-0.8073119123016076,0.8725397276063583,0.006026404704723452,-0.8099249115483539,0.8758075693011725,0.012032155705135073,0.6430499377378156,1.0041833473998252,-0.009990567187810277,0.6463477879417625,0.9907621720331443,0.0,0.0,0.0,0.0
-8.958641635229377e-05,0.20456902264019666,0.7339030565690604,3.50735058793243e-05,-0.5232374159972653,2.663480713404932e-05,0.8521869539959768,0.0010180995661439522,-0.8079028132393211,0.8737327185704602,0.0057521223727063035,-0.8099957182120556,0.8761258735873587,0.011086458202016338,0.6434042198629394,1.0048934334391442,-0.01094132632393391,0.64650890119365,0.9905799896734397,0.0,0.0,0.0,0.0
2.424279125967985e-05,0.20474717040561063,0.7338667714904158,2.629411533251466e-05,-0.5232869811761516,2.4114316934853544e-05,0.8521565196949848,0.0005802340700232114,-0.8087581500036091,0.8753421553791125,0.005314037433441668,-0.8099874143869493,0.8763776331829717,0.009941563191827612,0.6437660825396763,1.005841049226886,-0.01209200520618763,0.6467296341051327,0.9902923531185699,0.0,0.0,0.0,0.0
0.0001438362042360944,0.20498508287538103,0.7338295345435715,1.623803738932462e-05,-0.5233263384637699,2.366137614496069e-05,0.8521323504283645,-1.4653132057924055e-05,-0.8098570348070125,0.8773012883896236,0.004719631693482714,-0.8099283104900568,0.876522052154239,0.008407159065959034,0.6441376217253195,1.0069750637714534,-0.013621272204364626,0.6469180781446918,0.9897794572801799,0.0,0.0,0.0,0.0
0.0002642109519356988,0.20531053224251256,0.733793471914388,1.1605588181144028e-05,-0.5233414232008856,2.043632151500959e-05,0.8521230863025239,-0.000828320948200353,-0.8112977098771634,0.8797237203529882,0.003907302812580176,-0.8098215764049544,0.8764982017414897,0.006218866835916658,0.6445141694348094,1.0083526242667176,-0.015779416506616722,0.6470036993784127,0.9888901592032423,0.0,0.0,0.0,0.0
0.00040732159697998453,0.20577890674284774,0.7337524821141047,-1.2430394515882274e-06,-0.5233325305645792,3.412526038937465e-05,0.8521285473957525,-0.0020467448832978434,-0.8133922527541104,0.8830819102009171,0.002691776689412593,-0.8096202507041462,0.8762895199963083,0.003206771065541596,0.6448915293749852,1.0101754153167852,-0.018725115914171177,0.6470694425376852,0.9874873792670276,0.0,0.0,0.0,0.0
0.0006552363040732937,0.20648125799764877,0.7337050502981574,-0.00016795525163350333,-0.5234698544077914,0.0003533975096014365,0.8520441059167767,-0.004596971677900486,-0.8163937844141123,0.8880275219405165,0.00014726050366676473,-0.8078766624145413,0.8749046148127325,0.0015001838478186542,0.6450672732007053,1.0127149955111856,-0.020427493877449958,0.64865350995428,0.9858773442359801,0.0,0.0,0.0,0.0
0.0011819783221382718,0.2070538534192158,0.7336035123514482,-0.0002131122491698889,-0.5233469725752119,0.00035935611581272076,0.8521195759649649,0.008638179003887256,-0.8123570009857277,0.8780717374241545,-0.0012891303323793143,-0.8102959188816287,0.8789155264789985,-0.002105348746879269,0.6460393289541637,1.0148458146850006,-0.023939874453390218,0.6492387570319649,0.9840710410583956,0.0,0.0,0.0,0.0
0.0018319192610202028,0.20777420962709486,0.7334695487743071,-0.00032728380693957483,-0.5233150189447155,0.00052608618555027,0.8521390773022482,0.025476655998131134,-0.8103224152130938,0.8706731596415197,-0.0035007022563002766,-0.8122063393241153,0.8828462476177258,-0.005298548222430918,0.647057715696823,1.017651870885937,-0.027058613127828007,0.6506882862175435,0.9822857562375711,0.0,0.0,0.0,0.0
0.002551991972216684,0.2086453209578452,0.7333171138232045,-0.00048226524688388145,-0.523313719739626,0.0007784319347070004,0.8521396083953795,0.04223997027231424,-0.8096251907438414,0.8649673154750958,-0.006309742944057882,-0.8137771501268165,0.8865721352210648,-0.00876917741110959,0.6481192149572238,1.0210104085993466,-0.03043424422984317,0.6525430706295523,0.9802054260434236,0.0,0.0,0.0,0.0
0.003310107300119441,0.20963148582335786,0.733154581433654,-0.000650592108170015,-0.5233104806489804,0.0010522460104500832,0.8521411915587553,0.05752376121781574,-0.8096933894180564,0.860203284791885,-0.009469456043978024,-0.815219079429145,0.8901677784248688,-0.012875231604905711,0.6492778647288385,1.024746184243543,-0.034385269574817676,0.6544901532448153,0.9777561982132246,0.0,0.0,0.0,0.0
0.004106452921516741,0.2107036422940172,0.7329806157372496,-0.000826571312417245,-0.5233009445333676,0.0013301849541542206,0.8521465066749605,0.07122582212383444,-0.8101484570913208,0.8559738876001914,-0.0128634872468077,-0.8166605973037926,0.8937874565724137,-0.01758574393756097,0.6505641319457193,1.0287736595454253,-0.03886247415550185,0.6564742857169608,0.9750175590598567,0.0,0.0,0.0,0.0
0.0049568125794978175,0.21184956517646963,0.7327900262097841,-0.0010136808607861352,-0.523288641808726,0.0016133394632979548,0.85215337055067,0.08370591880967389,-0.8107542282136194,0.8520730796478826,-0.016463091809550044,-0.8181949036141989,0.897606400943987,-0.022809180293363703,0.6520074005090783,1.03308011985397,-0.04376424863809462,0.6585378538207077,0.972068390753289,0.0,0.0,0.0,0.0
0.005881825431013689,0.21307495571251767,0.7325772074741812,-0.0012190148487545168,-0.5232744775796929,0.001910591490980719,0.8521611847277794,0.09534679740573976,-0.8113259788134867,0.8484072119935672,-0.020304985495843496,-0.8198933759685991,0.9017775397795853,-0.02850749623959882,0.6536310355804261,1.037696021691143,-0.049040614111750105,0.6607468655323196,0.9689236992083917,0.0,0.0,0.0,0.0
0.0069015307177734825,0.21440107178154905,0.7323376865611669,-0.0014509030310372493,-0.5232527401810748,0.0022337584590544973,0.8521733832363798,0.10639311579855072,-0.8116411152152176,0.8449626925848555,-0.024474112197679677,-0.8218095873445471,0.9064107272655973,-0.03472999275272344,0.6554493009039237,1.0426735296371452,-0.054718856639750846,0.6631596944115358,0.9655172781828225,0.0,0.0,0.0,0.0
0.008033282339843857,0.21586162388673302,0.73206869614516,-0.0017179743215346873,-0.5232101923782587,0.0025961193798749197,0.8521979836398942,0.11694153991780909,-0.8113839028627414,0.841797088687442,-0.029092861423252084,-0.8239805548415777,0.9115675713986213,-0.0416105656818377,0.6574660103189656,1.0480713806122657,-0.06089441398933768,0.6658194992838309,0.9617035568736619,0.0,0.0,0.0,0.0
0.00929225039189872,0.2175003101426043,0.7317688125235604,-0.0020311113784833726,-0.5231315439717444,0.0030154401125561006,0.8522441958788775,0.12698585437291227,-0.8101799045238718,0.8390481001217025,-0.03432208001681106,-0.826393210933354,0.9172355690094409,-0.04932109622564245,0.6596785119021505,1.0539554709342642,-0.06768393021856281,0.6687803834943161,0.9572820888009149,0.0,0.0,0.0,0.0
0.01073179428073317,0.21934944263266062,0.7314346300476828,-0.0024171870298097474,-0.523014704502068,0.0035234463907427324,0.8523129480460854,0.13656501725222886,-0.8076262508125313,0.8367222335410683,-0.04032531577232788,-0.8291205817356366,0.9236867925576149,-0.057769783433313224,0.6621707687353081,1.0603339990029794,-0.07496458057403911,0.6722970248300363,0.9521094394219601,0.0,0.0,0.0,0.0
0.012420895943696462,0.22144650765087207,0.731060989682853,-0.002910307712255948,-0.5228510821902452,0.004158556613165386,0.8524089290759479,0.1458576326448333,-0.8038146909063023,0.8343440829892298,-0.04729926987274639,-0.8322942305792542,0.9313064071032685,-0.06681756639686974,0.6650379003521246,1.0671975675472196,-0.08257273519677877,0.6766785919106225,0.9460006556367813,0.0,0.0,0.0,0.0
0.014417534632618263,0.2238221356735656,0.7306517351474066,-0.003546758195401132,-0.5226353394217768,0.004964933748094511,0.8525344989656809,0.15524566495673975,-0.7988964785789251,0.8312610667481903,-0.05544220776401465,-0.8359091642324757,0.9403085423523557,-0.07621501161929506,0.6683780943596395,1.0744335632345183,-0.09025419432329822,0.6822867426714709,0.9387152296647304,0.0,0.0,0.0,0.0
0.016768184645243253,0.22646091908284005,0.7302200707548534,-0.004359317529983031,-0.5223714969985821,0.005979787119746113,0.8526859079521225,0.16538208517935396,-0.7927882738223372,0.8265702977636878,-0.06482046527976582,-0.8399151806402668,0.9508788518262412,-0.08540625769075957,0.672304995605202,1.0817327034245794,-0.09751735453411962,0.6895234582897565,0.9301042601364693,0.0,0.0,0.0,0.0
0.019449242328376335,0.22927105544143364,0.7297702660372869,-0.005359761781014754,-0.5220819049299512,0.007213037458403223,0.8528480108372112,0.17713236944751803,-0.7851594860934371,0.8190655318900033,-0.07523561836540796,-0.8441027187648237,0.962802451742151,-0.09349552857322306,0.6767294897482634,1.088776217488306,-0.10364115082086692,0.6985118380756511,0.920481832968739,0.0,0.0,0.0,0.0
0.02227344270477621,0.23201022028873006,0.7291422600501591,-0.0065240985289768206,-0.5218473877345814,0.008631247488805288,0.8529702466204578,0.1914330699442452,-0.7755409003027665,0.8070538207161408,-0.08598628435433564,-0.8482469063719992,0.9750423331707434,-0.09884264995451908,0.6804562576010078,1.0965814417888222,-0.10740487846527437,0.7080304407359809,0.9126582136750051,0.0,0.0,0.0,0.0
0.025056985462178497,0.23430615424018642,0.728225193649316,-0.007798843585624781,-0.5216733732835274,0.010081825514327786,0.8530500726452177,0.20827869362265145,-0.7620597235957745,0.7866707232172664,-0.09572235566552681,-0.8531949918989542,0.9878809554508494,-0.0995839557863646,0.682403701048802,1.105390654929835,-0.10749982497891028,0.7165659718457876,0.909390801874599,0.0,0.0,0.0,0.0
0.027480941974268716,0.23591862324952156,0.7271562551258569,-0.009110126091267021,-0.5214812301563213,0.011366377170816205,0.8531384047546223,0.22665548537907587,-0.7423789913789167,0.7523815528510259,-0.10326306722586669,-0.8588198381461998,1.0002816371735337,-0.09504025390615284,0.6819807898188893,1.113866628363158,-0.10352455802686528,0.7231196097601913,0.9105741663772955,0.0,0.0,0.0,0.0
0.02893981082530736,0.2366330488530442,0.7262422022226519,-0.0103088076723926,-0.5211818647459674,0.012197910492708946,0.8532961990562841,0.24358418240504626,-0.7143111386611197,0.6984001928801495,-0.1071807099417549,-0.8636464430671115,1.008899321395504,-0.08595139444607221,0.6786259493915832,1.1199154284383774,-0.09604412042924844,0.7262781223726003,0.9146952062936502,0.0,0.0,0.0,0.0
0.029010577522874597,0.23670632792057397,0.7262010425595484,-0.010390658840601271,-0.5211485101504263,0.012195090680872236,0.8533156182445828,0.2436146820968375,-0.7142597666063967,0.6983933300693137,-0.10738808426546291,-0.8636934203617961,1.0089494394091787,-0.0860012145290606,0.6786247538962051,1.1201695369381512,-0.09594987087441326,0.7264020334687771,0.9145190957933692,0.0,0.0,0.0,0.0
0.029010577522874597,0.23670632792057397,0.7262010425595484,-0.010390658840601271,-0.5211485101504263,0.012195090680872236,0.8533156182445828,0.2436146820968375,-0.7142597666063967,0.6983933300693137,-0.10738808426546291,-0.8636934203617961,1.0089494394091787,-0.0860012145290606,0.6786247538962051,1.1201695369381512,-0.09594987087441326,0.7264020334687771,0.9145190957933692,0.0,0.0,0.0,0.0
0.028649102553878415,0.23772339922761507,0.7281243574838999,-0.00872056070857063,-0.5203524995176446,0.010750737596895842,0.8538393582564524,0.24360835488453614,-0.7079590174185323,0.6966482365673095,-0.10703157805903098,-0.8632558933192288,1.0077333520222027,-0.11934142873013558,0.6922614280059313,1.107695544541983,-0.0601638305770328,0.710920380148674,0.952553166705915,0.0,0.0,0.0,0.0
0.028287055479752472,0.23914726389327362,0.7303597735885232,-0.007583057077687578,-0.5197128000183633,0.00971076034222661,0.8542521898573073,0.24176708303561384,-0.7038012426707657,0.698572904312495,-0.10836005784065045,-0.8581540422551379,1.0021896371578705,-0.1483894656378806,0.7056345271945557,1.0930329447853102,-0.027816020932886695,0.7017451136042091,0.978791415329392,0.0,0.0,0.0,0.0
0.027985387603981025,0.24078538671161998,0.732429215270415,-0.006912470587784719,-0.5192656122909368,0.009066905293625988,0.8545368528453807,0.23867640612864244,-0.7023161376851164,0.7036649351270478,-0.11098937402623632,-0.8505617847361698,0.9940660465563613,-0.17222926909312142,0.7171942946852822,1.0797289721165042,-0.003470963992006325,0.6965189914700625,0.996759814281784,0.0,0.0,0.0,0.0
0.027744684200464616,0.24251066756588638,0.7342406155054471,-0.0065446180620115,-0.5189333989235789,0.008695562459747137,0.8547453905401027,0.2349207836442396,-0.7029571634562547,0.710903016254645,-0.11438609066174783,-0.8420429794361146,0.9847883732734001,-0.19221459432520657,0.7269528328551476,1.068427999996876,0.015747036688165537,0.6938359932762285,1.0098945883887065,0.0,0.0,0.0,0.0
0.027520250408290346,0.24422159838301002,0.7358054093430794,-0.006342830130956022,-0.5186475827105758,0.00846916700210926,0.8549226436729213,0.23098448488774712,-0.7047368033985912,0.7188176691242761,-0.11803358085088432,-0.8335034019404707,0.9751297415481865,-0.20957287162946292,0.7351073545254301,1.0589718238227621,0.03209425171898895,0.6925861500910765,1.020089003120582,0.0,0.0,0.0,0.0
0.02720710844000364,0.2458203996600943,0.7371622253994693,-0.0061993490588252214,-0.5183752452292988,0.008291086023388699,0.8550905981808383,0.22722294545841684,-0.7062430245029229,0.7252425348866439,-0.12147321229728296,-0.8252037839465056,0.9650566984315238,-0.22489450413618772,0.7416604762608967,1.051024072079568,0.047177585607713055,0.6918405110738223,1.028269645489497,0.0,0.0,0.0,0.0
0.02679470192888929,0.24732703270850973,0.7383555713864564,-0.006078450242558665,-0.5180910799650528,0.008131482647075536,0.8552652011471379,0.22363882215702213,-0.707411476377278,0.7302307080852158,-0.1247015212440257,-0.8171684687131816,0.9545839274768932,-0.2387662442908663,0.7468327431189491,1.044287392275835,0.061765479274469265,0.6911965952845529,1.0349698380620849,0.0,0.0,0.0,0.0
0.026277231595637194,0.24878723417098494,0.7394319738480986,-0.005964493511897442,-0.5177768629887554,0.007977338358268997,0.8554577178583332,0.22014264099702782,-0.7083283730830964,0.7340640249503176,-0.12780906147966706,-0.8092453207581638,0.943535544522703,-0.2517122153621867,0.750843953282869,1.0384734999034377,0.07626261361393387,0.6904844245050363,1.0403257839065982,0.0,0.0,0.0,0.0
0.02564292943429839,0.2502600765707121,0.7404340605770324,-0.005847284273062237,-0.5174108725232539,0.00781906492004668,0.8556814012733542,0.21660722445781347,-0.7091345850869344,0.7370626273132134,-0.13092317541489756,-0.8012191241963658,0.9316044215786115,-0.2642700803404747,0.7538568489176162,1.03333756420682,0.09095232477236313,0.6897227737921241,1.0440304167579761,0.0,0.0,0.0,0.0
0.024870070852963666,0.25181148512162854,0.741401546542797,-0.0057146210995453715,-0.5169641293310729,0.007644185532124619,0.8559538530307604,0.2128936108387609,-0.7099695505820853,0.7394968551512427,-0.13417976630299772,-0.7928536251573971,0.9183818522257684,-0.27700666356120107,0.7559675847810314,1.0286579682187396,0.106168057223033,0.6891493982115562,1.0452636796953485,0.0,0.0,0.0,0.0
0.023950793279988884,0.2535210348159394,0.742381568025406,-0.005557342902773933,-0.5163998508508653,0.0074437874135400905,0.8562972030843071,0.20883149380825633,-0.7111307431510364,0.7419086133161492,-0.1377581973660536,-0.7839231972841766,0.9035042732561378,-0.2904891477607925,0.7573115413471618,1.0241184816176985,0.12233945567701812,0.6893718335792223,1.0427049197757554,0.0,0.0,0.0,0.0
0.022879862112464972,0.2554451056134356,0.7434433376300824,-0.005363207688749265,-0.5156848128850984,0.007199556284600783,0.8567313325379511,0.20432247308934576,-0.7127022427578816,0.7446016854366646,-0.14174926546488736,-0.7742003362222162,0.8866713039219264,-0.3050848793646415,0.7581185552714017,1.019119801946717,0.1394977584797069,0.6896444577888196,1.0378571195882322,0.0,0.0,0.0,0.0
0.02164531327398822,0.2576129874712886,0.744654102055452,-0.005103272423450243,-0.5147760205255933,0.006874351198764802,0.8572819539673059,0.19937001376790664,-0.7145963416245423,0.7475938737762972,-0.14613921538818808,-0.7636232640244851,0.8677305513456488,-0.3210593668292048,0.7585695366106904,1.0129733107876737,0.15813025562737099,0.6895324792458706,1.0317989518642343,0.0,0.0,0.0,0.0
0.02023961691931207,0.26002335671384214,0.7460414992365474,-0.004730667314349001,-0.5136162573353819,0.006414176889234693,0.8579829947745988,0.194096004728829,-0.7167609052109732,0.7508236988008773,-0.15082312998964012,-0.7525151321496972,0.8469066442507819,-0.33856437439009535,0.7586547105464327,1.0052035724320536,0.17973407027253963,0.6889234418927871,1.0254194694186631,0.0,0.0,0.0,0.0
0.01865191164113727,0.26257645710993555,0.7475347294856542,-0.004168538798083255,-0.5121449063183485,0.005738876020308775,0.8588697709888748,0.18892101103915385,-0.7189682654057091,0.7536463495662253,-0.1554347470405269,-0.7419723962112736,0.8252228770690195,-0.35731215170303454,0.7579051955036805,0.9959765899688747,0.207621449971796,0.6882957260109468,1.0196873667734998,0.0,0.0,0.0,0.0
0.016904412489823,0.26496806016968866,0.7488458003800667,-0.0032872509868183586,-0.5102590743742431,0.00462954632385271,0.8600019990096102,0.18515494759124343,-0.7209529765700796,0.7548122549378979,-0.15886937204700927,-0.7353888196203534,0.8062815784408209,-0.37702127907226135,0.7551065421555303,0.9869718016299527,0.2473526397279549,0.6895871075929809,1.0150688958113925,0.0,0.0,0.0,0.0
0.014924758282090764,0.2669743524394195,0.7493891605830987,-0.0020618080871463267,-0.5079192301536696,0.003101834050966779,0.8613966468549988,0.18338075549839383,-0.7236895718684828,0.7535579433522436,-0.16077146702986425,-0.7355111442363945,0.7922639532579349,-0.39586621361138136,0.7469606968027702,0.9831524903347799,0.3042965586798749,0.6934721834231315,1.0126995645339332,0.0,0.0,0.0,0.0
0.013107694113575274,0.26852217056169153,0.7487845958836938,-0.000767217817031384,-0.5051223578262999,0.0013595498565351324,0.8630463293618763,0.18373044282866952,-0.7313982052214063,0.7555304380714487,-0.161471434317631,-0.7450803421894145,0.7877882794295076,-0.4113180894264415,0.7324110767198252,0.9875911779961581,0.37480769847498246,0.6990033294954063,1.0139105668361614,0.0,0.0,0.0,0.0
0.011627781815101535,0.2695081829745164,0.7471733446376088,0.0002836178963811362,-0.5020695206732155,-0.00026214889953676693,0.8648271776776045,0.18583973147158855,-0.744317883200604,0.7617197401849019,-0.161279921456291,-0.7624274970381302,0.7926119622610655,-0.4198407380926331,0.7125917251907682,0.9990458369429329,0.44885149684688597,0.7012351771317118,1.0204612702496887,0.0,0.0,0.0,0.0
0.011639896831124897,0.2695492935082146,0.7471261536349149,0.00034921084183837334,-0.5020662006540945,-0.00030869618907370517,0.86482906572294,0.18587482265649502,-0.7443517349503502,0.7617652011999833,-0.16128511519041752,-0.7625470400223846,0.7924395499904259,-0.4199018117440988,0.7125001020652649,0.9988861858299797,0.448904323371003,0.7012279227310042,1.0204605147358015,0.0,0.0,0.0,0.0
0.011639896831124897,0.2695492935082146,0.7471261536349149,0.00034921084183837334,-0.5020662006540945,-0.00030869618907370517,0.86482906572294,0.18587482265649502,-0.7443517349503502,0.7617652011999833,-0.16128511519041752,-0.7625470400223846,0.7924395499904259,-0.4199018117440988,0.7125001020652649,0.9988861858299797,0.448904323371003,0.7012279227310042,1.0204605147358015,0.0,0.0,0.0,0.0
0.011555136764185512,0.2699085962599677,0.7478425384307357,0.00041829260364725145,-0.5038358091678179,-0.00032115581283994514,0.8637992818302478,0.18406085321489626,-0.7323981899592682,0.7508941907107581,-0.16135866472588584,-0.748282274840428,0.777800624690364,-0.4298796350031706,0.7225446840597222,0.9967813412175142,0.45358647556749054,0.7108171411145638,1.0174149239128143,0.0,0.0,0.0,0.0
0.011486592096319262,0.27040334122784754,0.748375377796452,0.0003692506180123627,-0.5049753591019499,-0.00021093223109955886,0.8631336546916889,0.18201319118510176,-0.7257478824960037,0.7454427333070401,-0.16228086593001723,-0.7372220201035814,0.765798878292457,-0.4372304903077564,0.729276272286536,0.995254104802022,0.4562020402719563,0.7175353513654437,1.0142407051480495,0.0,0.0,0.0,0.0
0.011558509098990684,0.27110139381621434,0.7486625495239654,0.00023718777757989333,-0.5056898712171665,-9.5272812790511e-06,0.8627153051844824,0.1795898099620246,-0.7243401170160161,0.7462167683586,-0.16411847155186013,-0.7290538700418748,0.7566351397399214,-0.44381921651442857,0.7336758899795646,0.9953948399376953,0.45710224934293414,0.7221683385154459,1.01184499523575,0.0,0.0,0.0,0.0
0.011836975199225,0.2721462939889691,0.7485272500040615,2.5787296650906543e-05,-0.5061536321508465,0.00027522729732949334,0.8624432875531327,0.17644177885554177,-0.7286382406480385,0.7541222473727297,-0.16719015354544303,-0.7232466149566601,0.7495885808886266,-0.452123066781351,0.7360397889489053,0.9995057045454585,0.4565254609967067,0.7248114510594018,1.0119960860912827,0.0,0.0,0.0,0.0
0.012381546872146956,0.27355588982398993,0.7477403441526911,-0.000248277597816082,-0.5065006048535764,0.0005846606660214087,0.8622393715280584,0.17266415479541714,-0.738715059074308,0.7691490162337523,-0.1714175560628407,-0.7201815158229182,0.7449629980926059,-0.4643318569522544,0.7364343819087394,1.0100092701563939,0.45510190846464743,0.7251533236838734,1.0170537714466041,0.0,0.0,0.0,0.0
0.013184874218380622,0.2754287177688162,0.7460157055672052,-0.00029786391588725535,-0.5072515263688769,0.0005608318666429687,0.8617978218475314,0.1685664207781886,-0.7511317961683596,0.7873818779374778,-0.1761972844013569,-0.7186413906753665,0.7406065504262733,-0.4901506160784035,0.7373950589646335,1.030850609172191,0.45078884022058585,0.7231011366758809,1.0305826455813167,0.0,0.0,0.0,0.0
0.015006343013806728,0.2779026241331688,0.7467617671846656,0.0012904282190624593,-0.5091606703148263,-0.0014741775324935821,0.8606692590072977,0.16649003045097882,-0.7482920912607047,0.8009567695496232,-0.17783715207802925,-0.7134598008806046,0.7393536338940148,-0.3907949417039017,0.7230027097434906,1.0210390334937594,0.41954450105040736,0.7333426551579214,1.0210477529874347,0.0,0.0,0.0,0.0
0.017098307375026267,0.2806746486767421,0.7464592605804324,0.002921279777343002,-0.511345722118023,-0.003588874371843481,0.8593626350830034,0.164005012323681,-0.7491791645119337,0.8185173531310698,-0.18027071918690626,-0.7106971973416045,0.7395689928839215,-0.2978145969960745,0.7111386653645823,1.0178391798561064,0.38587422756113104,0.7399614475864982,1.0200632666160738,0.0,0.0,0.0,0.0
0.019302245353581302,0.28362599020575824,0.7455409257234646,0.00396313029588643,-0.5131487419776605,-0.004968417733545459,0.8582761659455698,0.1598609476673591,-0.7579673377140804,0.8435020683979823,-0.18492909329770657,-0.7092377702986292,0.740551156189242,-0.2328073382757615,0.7051660029526007,1.0192547677104222,0.3567946394878124,0.7441213355870928,1.0226980543798487,0.0,0.0,0.0,0.0
