zhuoxili-jackie/tripod-support-walk/examples/trajectory_tripod_lowstep_p2_v0.15.csv
root_pos_x,root_pos_y,root_pos_z,root_rot_x,root_rot_y,root_rot_z,root_rot_w,FL_hip_joint,FL_thigh_joint,FL_calf_joint,FR_hip_joint,FR_thigh_joint,FR_calf_joint,RL_hip_joint,RL_thigh_joint,RL_calf_joint,RR_hip_joint,RR_thigh_joint,RR_calf_joint,FL_foot_joint,FR_foot_joint,RL_foot_joint,RR_foot_joint
0.0,0.0,0.745913,-0.00590261038931276,-0.5534150365010598,-0.008528410562500118,0.8328410549308913,-9.86e-07,0.349071,-0.872662,2.4067e-06,0.349062,-0.872669,2.38753e-06,0.610854,0.872668,-3.27e-06,0.610866,0.872669,0.0,0.0,0.0,0.0
2.1934489293450615e-05,-6.008145006402305e-05,0.7459139770341813,-0.005903017940650034,-0.5534129237673523,-0.008525467902106969,0.8328424860581461,0.00013646545425957226,0.3490976157118139,-0.8726820715365948,0.00013985872921364045,0.34932656759971425,-0.8731338054170443,0.0003250646835061149,0.6109194857390192,0.872442707474434,0.0003194145577238857,0.6108911732449401,0.8729026629498138,0.0,0.0,0.0,0.0
5.039311646834312e-05,-0.0001524792459444894,0.74591358797157,-0.005899492131332409,-0.5534143523893306,-0.008525557078151044,0.8328415608257055,0.000355538915663296,0.34909970273782154,-0.8726233260835261,0.00035896404544333,0.34969545720586437,-0.8737838236658433,0.0007794815059499884,0.6110209017335132,0.8721308277761946,0.0007741622986597375,0.6109061353130129,0.8732848998931986,0.0,0.0,0.0,0.0
8.600831404679152e-05,-0.000278775822872572,0.7459115308546262,-0.005893217049501266,-0.55341769725748,-0.008527477451542058,0.8328393629526339,0.0006581836002696093,0.34907946903630643,-0.8725006105254985,0.0006617177742058367,0.3501766784408816,-0.874638728426951,0.0013853226225188885,0.6111518596388124,0.8717232395137098,0.001380992776804691,0.6109099644925191,0.873821704896736,0.0,0.0,0.0,0.0
0.0001340918492474215,-0.0004580261960354742,0.7459082737549496,-0.00588276925536106,-0.5534218128815154,-0.00853217165131429,0.8328366539122408,0.0010911949759889739,0.34903537391525236,-0.8723012063219232,0.001095004734753114,0.35084406260807516,-0.8758357063980139,0.0022287409053906955,0.6113349358013683,0.8711456145979918,0.002226740216496002,0.6109031936084816,0.874579462613387,0.0,0.0,0.0,0.0
0.00020960300099979873,-0.0007308278093662604,0.7459102251182836,-0.00586178590367751,-0.5534286859267455,-0.008546335433264312,0.832832089445452,0.0017623729758157105,0.34898688059587935,-0.8719808994560009,0.0017668670549567333,0.3518770111948954,-0.8776703513894573,0.003454644162350884,0.611677775525795,0.870206342774246,0.0034579366254754366,0.6109237272221671,0.875653624162381,0.0,0.0,0.0,0.0
0.00034473522450212564,-0.0011492030783912287,0.7459610155542605,-0.005801599758604704,-0.5535074541658307,-0.00865979942691312,0.8327789907874642,0.0029834377117175766,0.3490230609668911,-0.8709772224649709,0.002989791862075629,0.35353381388581145,-0.880245072436239,0.004783542990699368,0.6128452741639897,0.8686064515174194,0.004795757836204917,0.6112373190789568,0.8769130136224317,0.0,0.0,0.0,0.0
0.0006558579382920471,-0.0015100607162577507,0.745935326022377,-0.005761662766070995,-0.553456155719419,-0.0086800324318448,0.8328131506979428,0.0038550580376360906,0.35029410854874077,-0.8731106932452442,-0.0033959635410097796,0.34952542798125313,-0.8766384094007609,0.006321053610770916,0.6134243552870127,0.8676659598443921,0.006347787674999079,0.6113719536982649,0.8785942147834515,0.0,0.0,0.0,0.0
0.0010175514969467836,-0.0019492147239269769,0.745915809532012,-0.0057133618483776885,-0.5534337898027453,-0.008750044730214271,0.8328276139263031,0.005025531970858536,0.3517164015142294,-0.8751928944809109,-0.011699631940158547,0.34558240304247273,-0.8748077533927392,0.00799909031560664,0.6143240666447753,0.8665532774451854,0.00804637828250094,0.6115895036878317,0.8805651861679825,0.0,0.0,0.0,0.0
0.0013934902038863378,-0.002453439156737033,0.7459062657004024,-0.005657287567572254,-0.5534286346192744,-0.008841371516078814,0.8328304579147776,0.006398179240294206,0.35309304662917373,-0.876995246441965,-0.01992516316354409,0.3419090132086946,-0.8740119088780333,0.009881323632159517,0.6154227985842148,0.8651708692197652,0.009957120151004998,0.6118731968246327,0.8827017524802222,0.0,0.0,0.0,0.0
0.0017717076085153184,-0.0030012897028883403,0.7459015854850055,-0.0055966146502412365,-0.553430953025846,-0.00893813560078018,0.8328282943496471,0.007886923203321156,0.3543910968573982,-0.8785714505305292,-0.027425278347426318,0.3384964088009413,-0.8737452851302798,0.011944684619061475,0.6166090193558751,0.8635901840372918,0.012058797454206878,0.6121886614620438,0.884953703277225,0.0,0.0,0.0,0.0
0.0021532342122494103,-0.00357872789976885,0.7458976798863535,-0.005533182877874352,-0.5534362106667916,-0.009033931118622107,0.8328241907501046,0.00944421421069993,0.3556427291210869,-0.8800319135177491,-0.034181221476055644,0.3352939933454099,-0.8737538100532752,0.01415449776021763,0.6178323446369535,0.8618848703106365,0.014318177307044098,0.6125230631193622,0.8873038279785921,0.0,0.0,0.0,0.0
0.0025436198076602243,-0.004183564683016095,0.7458919258237657,-0.005467210873829652,-0.5534420523488023,-0.009127892842160543,0.8328197199090981,0.011062781608148074,0.3568857340221841,-0.8814625875280687,-0.040379347645424474,0.33226186876148817,-0.8739122654171478,0.01650426710199908,0.6190804898932228,0.860086056377819,0.016730401460938644,0.6128706509117213,0.8897674487993104,0.0,0.0,0.0,0.0
0.0029487259464011603,-0.004825423308516379,0.7458821787787154,-0.005397371659948669,-0.5534472346776469,-0.009222020903734376,0.8328156945791073,0.012769524101254764,0.35813663034966525,-0.8828943713351679,-0.04619612629586319,0.3294245481358968,-0.874139210644636,0.019028030143092945,0.6203592664137506,0.8581810926544703,0.019332318177358386,0.6132219931237239,0.8923978161367161,0.0,0.0,0.0,0.0
0.0033903097503530173,-0.005517205465719448,0.7458660982442394,-0.005319608333762695,-0.5534496492383045,-0.009320477102594387,0.8328134942661249,0.014601886642525194,0.35950260252431687,-0.8845010247311403,-0.05175248755643551,0.3269217959097258,-0.874292109110722,0.021752803233964828,0.6217102682406684,0.8561601303762775,0.0221546082172696,0.6135899828284815,0.8952664789182977,0.0,0.0,0.0,0.0
0.0038902632461459965,-0.00627825537051095,0.7458414541573821,-0.005228401667627162,-0.553447805118096,-0.009428505046710467,0.8328140813642311,0.016614725466775976,0.36107686479826606,-0.8864220718227408,-0.05707517707698927,0.3250259508644508,-0.8741501531242294,0.024727565825942932,0.6231846321770095,0.853988199047065,0.02525176599219489,0.6139870634954502,0.898464835573947,0.0,0.0,0.0,0.0
0.004476458461853397,-0.007129219988633417,0.745807681620448,-0.005116261605584573,-0.5534409942089054,-0.009552902304897942,0.8328178863675988,0.01886849765162894,0.36298471577867186,-0.8888316404292594,-0.06214313046079215,0.32408921099019683,-0.8733697396834864,0.02799215948098343,0.6248628340572614,0.851614428933646,0.028670684020633722,0.6144471914075208,0.9020725733672467,0.0,0.0,0.0,0.0
0.005181536997611137,-0.008090406291719364,0.7457673728820539,-0.004973562955555676,-0.5534306172225016,-0.009702633983915736,0.832823915654457,0.021426785199701977,0.3653783976140439,-0.891916922015372,-0.06694915415074637,0.3243135980571171,-0.871528901692097,0.03156609980523478,0.6268648562741511,0.8489652982677459,0.03243908036400029,0.6150350902701679,0.9061379668975967,0.0,0.0,0.0,0.0
0.006025882512342124,-0.009190872320349125,0.7457181481657696,-0.004791606484428148,-0.5534108183596295,-0.00988635829729292,0.8328359781790418,0.024375972398342053,0.36831672789434194,-0.8957626664230322,-0.07154244858725195,0.32539713253090846,-0.8688622246531301,0.03552190181036683,0.6292483336116456,0.845945062141223,0.0366422006756077,0.6157512521354731,0.9107556047592376,0.0,0.0,0.0,0.0
0.00702628357710268,-0.010449354654628294,0.7456630489625017,-0.004560431767726525,-0.5533767467564776,-0.010114988886863767,0.8328571699944282,0.02778278112783152,0.37185533207321003,-0.90041983621372,-0.07609003862229319,0.32684706916192224,-0.8654515252169086,0.03986325888926744,0.6321013741483921,0.842438241615645,0.041296424760034325,0.6166243039973598,0.9159199016535958,0.0,0.0,0.0,0.0
0.008177388068409796,-0.011865472938327275,0.7456114326546944,-0.00427160055106745,-0.5533207002956511,-0.010399515986498489,0.8328924337033619,0.03166996941847206,0.37595704137365743,-0.905788181433263,-0.08088869648502658,0.3281492685841039,-0.8611175880511504,0.04450085617563609,0.6354939093935567,0.8383063883118511,0.04632039993638909,0.6176736793975135,0.9214693656013889,0.0,0.0,0.0,0.0
0.00939233055576188,-0.013421911904223678,0.7455764535473703,-0.003923841372288885,-0.5532382540004998,-0.01074690211155047,0.8329445010769735,0.03601427356780711,0.3801311685225899,-0.9110315128256932,-0.08625507689511598,0.3287528748628177,-0.8554746568395544,0.04930315041127099,0.6393484263030443,0.8333771585726821,0.05158341900083896,0.6187872837405766,0.9271174796081648,0.0,0.0,0.0,0.0
0.010605465901281455,-0.015004132247642559,0.745557332072776,-0.0035190842319691843,-0.5531253379316451,-0.011159298348570533,0.8330158741852038,0.04054420632653898,0.38420802869560744,-0.9159640677793007,-0.09270591287298435,0.32800948273842295,-0.8476284104834991,0.053665728574887224,0.6434727724592891,0.8280563650984885,0.0564339837931583,0.6198200727500829,0.9324261216265637,0.0,0.0,0.0,0.0
0.011721003713356212,-0.01633548323362692,0.7454081759404871,-0.0030742299514945792,-0.5529859445255856,-0.011613978678703028,0.8331039609596164,0.04454985362783131,0.388048290078106,-0.9211699404669265,-0.10085087282933951,0.32487632981538356,-0.836365301722469,0.056343277280105464,0.6465659277473814,0.8250038265875171,0.05948766370851886,0.6198137014881773,0.937915466049222,0.0,0.0,0.0,0.0
0.012605884365067736,-0.017272518116526865,0.7451626156817449,-0.0025767819650380397,-0.5527674912544253,-0.012097550834964766,0.833243727891659,0.04763278820435649,0.39123766875545446,-0.9262187968758815,-0.1099701805900603,0.3175078004397367,-0.819015475329151,0.05652488287921215,0.6483509803639351,0.8242859476353395,0.05980229271232924,0.6184979358010164,0.9426216089039785,0.0,0.0,0.0,0.0
0.013054608463610097,-0.017666301851311794,0.7448614276890255,-0.0020029121179758833,-0.5524263563396876,-0.01257588964667781,0.8334644300531959,0.04931331717343706,0.3929491362921784,-0.9299856557519315,-0.11792771608822802,0.3032747713732601,-0.7923717240014342,0.05337994648335852,0.6484517569845198,0.8258559980145153,0.05643810590577997,0.6154985526576824,0.9455299438219206,0.0,0.0,0.0,0.0
0.013075668878819405,-0.01769417090637467,0.7448559250755236,-0.001976816695221152,-0.5524186466104238,-0.012581510054558724,0.8334695175455478,0.0493836650467291,0.39297779935885274,-0.9300100547529411,-0.11794636878171089,0.3032748429802761,-0.792358227468531,0.05336243727577254,0.6485083457912844,0.8257804591994271,0.056444216308654045,0.6154762345428653,0.9456260805886153,0.0,0.0,0.0,0.0
0.013075668878819405,-0.01769417090637467,0.7448559250755236,-0.001976816695221152,-0.5524186466104238,-0.012581510054558724,0.8334695175455478,0.0493836650467291,0.39297779935885274,-0.9300100547529411,-0.11794636878171089,0.3032748429802761,-0.792358227468531,0.05336243727577254,0.6485083457912844,0.8257804591994271,0.056444216308654045,0.6154762345428653,0.9456260805886153,0.0,0.0,0.0,0.0
0.01316540852369065,-0.01814817157996536,0.7459015153675778,-0.0026870740617502592,-0.5523810775741187,-0.011868717554175026,0.8335028844069235,0.04936545521910458,0.39356529684685465,-0.9286302757104061,-0.11786795358445666,0.305655083330652,-0.7902407059745313,0.03873868503385562,0.6396364113673452,0.8492332264876767,0.06645364340136886,0.6234827934324298,0.9376627798188922,0.0,0.0,0.0,0.0
0.013283175406995655,-0.01894097493110262,0.7471337457705899,-0.003172710595917897,-0.5523629472005885,-0.011364956365329474,0.8335202134526604,0.0504670087317852,0.3937426218407366,-0.9249059767948018,-0.11667686487343656,0.30937336483295674,-0.7904367909554062,0.02429688093091906,0.6339264253236542,0.8662392684075768,0.07613897165056074,0.6320092929189783,0.9286384663128116,0.0,0.0,0.0,0.0
0.01338382628333991,-0.019959014211317048,0.7482902286338794,-0.0034620307308995957,-0.5523419219374653,-0.011048144107098729,0.8335372541916972,0.052394276419684985,0.39323821614140675,-0.9197208105510326,-0.11469087269753683,0.3136502770119771,-0.7926508234476923,0.013560980158794823,0.6296880030533224,0.8785154413108842,0.0851144767969766,0.6395482487055008,0.9206955444442773,0.0,0.0,0.0,0.0
0.013480732236242321,-0.021097688642107315,0.7493203097063509,-0.0036223044110746936,-0.5523072854845278,-0.0108669405843446,0.8335619058677058,0.05482676155481614,0.3923054187124945,-0.9139681553439549,-0.11223184255884888,0.31821260232355003,-0.7964090001385525,0.00543770848269225,0.6264136793795189,0.8880072656850665,0.09340054844354463,0.645979776204819,0.9140916192762879,0.0,0.0,0.0,0.0
0.013567501986792928,-0.022265401484563147,0.7502353694766196,-0.0037109352343108384,-0.5522649187724001,-0.01075558443813401,0.8335910303358567,0.05743188169774319,0.3911027434129166,-0.9080632767362852,-0.10961342349964266,0.32272492583641105,-0.8008158986368992,-0.0011962933775761736,0.6238474368755053,0.8958511391371534,0.10111614379372456,0.6515385897622915,0.9085486985126268,0.0,0.0,0.0,0.0
0.013636266529957261,-0.02340326045300608,0.7510467393825032,-0.0037638105911001704,-0.5522165245825316,-0.010679685690380693,0.8336238288469081,0.06001546637386539,0.3897256488869043,-0.9022426866149317,-0.10701807219887853,0.3269572328289254,-0.8052871452367072,-0.00717844255414644,0.621789826676108,0.9026834744104598,0.10829036785202506,0.6563689542742233,0.9038315543627325,0.0,0.0,0.0,0.0
0.0136814616816421,-0.024478697468841324,0.7517596335175286,-0.0038019402681305375,-0.5521632611462686,-0.010619255135357646,0.8336597085807166,0.062470316171242074,0.3882264371988766,-0.8966432902106365,-0.10454788004067012,0.33078038104685786,-0.8095003152507325,-0.012996695759532106,0.620122511421456,0.9087755354882454,0.11494948998463171,0.6605440469165919,0.8998264919452907,0.0,0.0,0.0,0.0
0.013698352628573144,-0.02548112805800501,0.7523717222002936,-0.0038370809838904484,-0.5521049839653857,-0.010564194960459548,0.833698843273122,0.06475879859172061,0.3866113563349878,-0.8913231901567641,-0.10223993519222374,0.334137252665585,-0.8133346967592622,-0.018955236547582518,0.6188421835105227,0.9141131750142637,0.12114629794093246,0.6640659200706373,0.896549299147518,0.0,0.0,0.0,0.0
0.01367324455715919,-0.026410298974399806,0.7528722887782955,-0.003877823521907359,-0.5520418869640558,-0.010507681650879683,0.833741150566662,0.06687290018549938,0.3848032176187104,-0.8862234529716312,-0.10010041426481998,0.3369399037417355,-0.8166699109912686,-0.02533394568211124,0.6180909285027316,0.9183791330314918,0.1269582026023362,0.6668604026983866,0.8941258725855112,0.0,0.0,0.0,0.0
0.013609852403553415,-0.02728995663433002,0.7532480659629388,-0.003927697570412755,-0.5519703632200822,-0.010447004828228584,0.8337890329145645,0.06886953577297586,0.3827754679558914,-0.8813634656540688,-0.0980794978783746,0.33928067808013557,-0.8197360698371398,-0.03240417383294011,0.6182850636090563,0.9208843198287908,0.13256041107956462,0.6688568128058536,0.8927753875217654,0.0,0.0,0.0,0.0
0.013505646379218465,-0.028144887216062082,0.7534954246179182,-0.003988721796487028,-0.5518884542970083,-0.010382168493653652,0.8338437711522816,0.07081122750363883,0.3804643435645247,-0.8766493919314295,-0.09611675523832255,0.3412159292761454,-0.8226653407666166,-0.04044627737506616,0.6201127195821838,0.9204418518583719,0.13810844402748992,0.6700235894205567,0.8926150806856554,0.0,0.0,0.0,0.0
0.013353353359981278,-0.02898905681203463,0.7536478685438364,-0.004060699354172797,-0.5517872849733376,-0.010309879165810443,0.8339112718113925,0.07272185187851116,0.37782704356037367,-0.8719149421877673,-0.09418383322913718,0.342770873005205,-0.8254124363009457,-0.04922081819100091,0.6228305821352547,0.918316901801387,0.1436742032423366,0.6705150678297659,0.8933172790461447,0.0,0.0,0.0,0.0
0.013147995345126114,-0.029837671517572224,0.753749819745954,-0.004143727433085164,-0.5516564274509632,-0.010228538478182407,0.8339984367944587,0.07463156119637897,0.3748373073304454,-0.8669803793515514,-0.09224546033849068,0.3439949578621534,-0.8279377818476147,-0.05864673097331862,0.625990314473832,0.9153549538547434,0.14932015053270942,0.6705463580862419,0.894434007351514,0.0,0.0,0.0,0.0
0.012885253824166039,-0.030702951440584117,0.7538419899031454,-0.004244031048755387,-0.5514810418980143,-0.010129538603343195,0.834115124593255,0.0765531944786856,0.3714795103006882,-0.8617401798487205,-0.09028544670321732,0.34493329996078204,-0.8302067803354145,-0.06905139346501504,0.629391123776875,0.91214398892158,0.15515468538099828,0.6703191577747654,0.8955381076617395,0.0,0.0,0.0,0.0
0.012562060838814226,-0.03159038145704262,0.7539577731098323,-0.004377730954491156,-0.5512392875426121,-0.009996469304536487,0.8342758260567347,0.07847580531817541,0.36776462828426165,-0.8562243443768205,-0.08831481323588261,0.34561933086183977,-0.8321957504025184,-0.08147905048460931,0.6330277581499207,0.9092225377295519,0.16133310506614756,0.6700002988886055,0.8962436370991054,0.0,0.0,0.0,0.0
0.012182226845608615,-0.03248841366730936,0.7541229587109806,-0.004575416568962501,-0.5508997002090117,-0.009799432594808316,0.8345013822598865,0.0803324526285455,0.3637949677099701,-0.8507391957531829,-0.08640704158924067,0.34608345849382244,-0.8338963260559608,-0.09801330272237807,0.6370892351767133,0.907242908809597,0.16805074679721702,0.6697406287172412,0.8961759945555643,0.0,0.0,0.0,0.0
0.01176602520819563,-0.03335489330582369,0.7543460571794454,-0.004879206274360199,-0.550419931278318,-0.009498072247399786,0.8348196686837746,0.08197493068636363,0.3598557568422716,-0.8460611680243053,-0.08472898835195139,0.3463733456542912,-0.8353927143242144,-0.12176591280995505,0.6418940831339881,0.9070876407397973,0.17543395052649147,0.6696300906931405,0.8950275206450192,0.0,0.0,0.0,0.0
0.01135793644582327,-0.034105692730421217,0.7545606578112777,-0.005303628584077096,-0.5497561418245765,-0.009071906794545209,0.8352590954650595,0.08318627952746556,0.35644123483016993,-0.8435721581527977,-0.08353718737826224,0.3465425508748709,-0.8371268559058471,-0.15463051167273723,0.6473189706124951,0.9097240808467957,0.1831273064398427,0.6693205057761706,0.8931287934132207,0.0,0.0,0.0,0.0
0.01101510144884786,-0.034551948230843586,0.7543622580607604,-0.005639277832850922,-0.5489623281376883,-0.008711564344438948,0.835782668806817,0.08380000913649949,0.35401898788038383,-0.8449277800051349,-0.08306397226442234,0.34621234289828334,-0.8403317751858561,-0.1879167110836787,0.6503014812209131,0.9158925305735532,0.18805944984737544,0.6662406617076794,0.8941642991037821,0.0,0.0,0.0,0.0
0.011014039606197776,-0.03455757037708841,0.7543598684995051,-0.005645428417322799,-0.5489581058058464,-0.008703543582589747,0.8357854841627413,0.08379872633877863,0.3539915742502744,-0.8449285144811932,-0.08306515526725411,0.3462117437456825,-0.8403432338200675,-0.18793547714639486,0.6503095256748643,0.9158978145620836,0.18808472419776137,0.6662227770490188,0.8941407526507082,0.0,0.0,0.0,0.0
0.011014039606197776,-0.03455757037708841,0.7543598684995051,-0.005645428417322799,-0.5489581058058464,-0.008703543582589747,0.8357854841627413,0.08379872633877863,0.3539915742502744,-0.8449285144811932,-0.08306515526725411,0.3462117437456825,-0.8403432338200675,-0.18793547714639486,0.6503095256748643,0.9158978145620836,0.18808472419776137,0.6662227770490188,0.8941407526507082,0.0,0.0,0.0,0.0
0.011084222828506256,-0.03472644525718914,0.7544790319253504,-0.005685983510009835,-0.5495409160153122,-0.008679640991388378,0.8354023671553943,0.08410107606999316,0.35351575019067566,-0.8409235950375226,-0.0826016319146424,0.34654782300591447,-0.8377168755072272,-0.18767403169249217,0.6526690155848737,0.9159627647456283,0.19035586326456194,0.6687089243893367,0.8951596446016788,0.0,0.0,0.0,0.0
0.011166196980496782,-0.03496640889191457,0.7545565478068547,-0.005688940608550912,-0.5499285133507232,-0.008683661369430868,0.8351472086906816,0.08463625839901034,0.3530905060145519,-0.8379346608305793,-0.08197405589302649,0.3473259082843048,-0.837027537327482,-0.18703414529378695,0.6543851817351815,0.9156889000458963,0.19245047381335947,0.6703971629863839,0.8962232409568756,0.0,0.0,0.0,0.0
0.01123998166105414,-0.03524388256071586,0.7545792742563306,-0.005668995396115661,-0.5501731783497229,-0.008706240884557138,0.8349859505916389,0.08530577829437073,0.35262715867371713,-0.8356857500489923,-0.0812588741351027,0.3482760582559785,-0.8375892053379879,-0.1861532929338728,0.6554419013162456,0.9154473618987027,0.19434368964018522,0.6713241608034355,0.8975232439820616,0.0,0.0,0.0,0.0
0.011336466464172574,-0.035607355643194415,0.7545425655623973,-0.005627987200642417,-0.5503328977853332,-0.008745172096410627,0.8348805599247544,0.08621835863810932,0.3521438942667788,-0.8339227361585867,-0.08034218379717101,0.34965316413954745,-0.8395875970448017,-0.18486775161325916,0.6560424476688608,0.9153413126992198,0.19645872620215568,0.6716970978706897,0.8994370724312568,0.0,0.0,0.0,0.0
0.011499254554636814,-0.03610723313263247,0.7544260048562199,-0.005565252040548791,-0.5504551062090455,-0.008796998168341133,0.8347998663400347,0.08748679568110566,0.3517290406715908,-0.8326138470293937,-0.07911588839777403,0.3517916242816251,-0.8434494620902252,-0.18300943592279734,0.6563068114359896,0.9155992324313624,0.19924421846831764,0.6716471063129922,0.9024800291262599,0.0,0.0,0.0,0.0
0.01180826801408017,-0.0367670854326633,0.7541669217290782,-0.0055767040852801545,-0.5506318498612889,-0.00877880391000918,0.8346834123736914,0.08906668343559565,0.3517219603135851,-0.832371267409305,-0.0776371883544897,0.35506386785239796,-0.8493331167390329,-0.17972506636869623,0.6560896786312489,0.9170524257271564,0.20413532979290813,0.6715395074282504,0.9077199774700373,0.0,0.0,0.0,0.0
0.012098967662276847,-0.03755193666731862,0.7543573581584776,-0.0060502605152177365,-0.5509105910567704,-0.008316370285160841,0.8345009005354386,0.09028402321137836,0.3515801926777322,-0.8309213234878197,-0.07642180066464302,0.3585705177860317,-0.8520164761207921,-0.17061862926144256,0.6573184709982183,0.9135428538357464,0.16220776544919674,0.6623522645016119,0.9033860985764477,0.0,0.0,0.0,0.0
0.012422973687968807,-0.038451615407215194,0.7543503153773294,-0.006561348506005858,-0.5512255051669264,-0.00782063768670396,0.8342938503821198,0.09174896372010155,0.3512167007360441,-0.8297630416951672,-0.07498861127142693,0.36239476836465007,-0.8558026911264999,-0.16057747851745766,0.6575219447285863,0.9117374202454225,0.12341996641013932,0.6530567077234736,0.9011991784626848,0.0,0.0,0.0,0.0
0.012758270117406219,-0.03939435153998036,0.7543339654328157,-0.006906235616982213,-0.5514778352249522,-0.007481745986222708,0.8341274031238878,0.09353949326329525,0.35081396388471436,-0.8283592980706344,-0.07324590629113414,0.3664854442670178,-0.8608668669879183,-0.15193170404886477,0.6579616164888469,0.9097735592948148,0.09660171573648152,0.6458764065146174,0.9013297597127035,0.0,0.0,0.0,0.0
0.013064272174489468,-0.04031186620899725,0.7543321981020015,-0.00712274332031501,-0.5516648330267581,-0.007267464356338738,0.8340038144343115,0.09544513725663444,0.3503121646839423,-0.8266815436490562,-0.07138785240200178,0.3704171653903976,-0.8662849045418397,-0.14467036479709575,0.658586024110573,0.9075766980756059,0.07857236579077306,0.6403580851877179,0.9030874896599839,0.0,0.0,0.0,0.0
0.013323183990853334,-0.04117829611778729,0.7543436620110305,-0.007267815548506355,-0.551804359970875,-0.007124097042953882,0.8339114907564282,0.09732634900785346,0.3496629750658856,-0.8247566037062063,-0.06954405534270684,0.37398253312779833,-0.8714593190654827,-0.13836796255107045,0.6592475701538798,0.9052562511593568,0.06544050500426596,0.6357936510639296,0.9057822861970016,0.0,0.0,0.0,0.0
0.013532370117502216,-0.04199651745868695,0.7543601698798508,-0.007378791888747903,-0.5519116164434111,-0.00701620501606874,0.8338404487264072,0.09913960814587251,0.3488358845757952,-0.8226038441670956,-0.0677551081592858,0.3771488376857348,-0.8761928296416112,-0.13264083347380293,0.659836249611771,0.9029119576515598,0.054669115738605265,0.6317116264379635,0.9088848413368833,0.0,0.0,0.0,0.0
0.013694870089301373,-0.04278292985147498,0.7543651029362521,-0.007474642331884771,-0.551996926131357,-0.006924545029580009,0.8337838892301032,0.10089667440053156,0.34779589437169656,-0.8202309670460154,-0.0660105389417442,0.37995566060004865,-0.8805224968472991,-0.12721145330600558,0.6602411646227554,0.9006850575412056,0.044950692288491675,0.6278984898971952,0.9119862178428826,0.0,0.0,0.0,0.0
0.013814590846056784,-0.043559152226930006,0.7543318602464502,-0.007562522991053117,-0.552067271496468,-0.0068406710543467706,0.8337372135199321,0.1026374043354503,0.34649312956037964,-0.8176391916059714,-0.06427393046263591,0.3824575314821172,-0.8846021539734593,-0.12189262481800708,0.6603192844907333,0.8987999028617077,0.03575833374475479,0.6243515952203715,0.9146933327607392,0.0,0.0,0.0,0.0
0.013894497630273601,-0.04434651204343255,0.7542240632917073,-0.007642691941056347,-0.5521276714821264,-0.006763089451237217,0.8336971178219905,0.1044116715865231,0.34486573624145195,-0.8148371563692367,-0.062499991458740085,0.3846960397132343,-0.8886334581276625,-0.1165727684246853,0.6598838395806771,0.8975805689197696,0.0270219251474884,0.6212714177472607,0.9164953890265161,0.0,0.0,0.0,0.0
0.013936299607944704,-0.04516019387783224,0.7539993941153522,-0.007712213506034871,-0.5521818558509303,-0.006692067877335052,0.8336611638186013,0.10625644716102314,0.3428553481982536,-0.8118652661478375,-0.06065688826474183,0.38668505739971243,-0.8928061931873711,-0.11120110606494284,0.6587136148161314,0.8974270847394531,0.01895965566222137,0.6191074635328345,0.9165978978553952,0.0,0.0,0.0,0.0
0.013943653622466235,-0.046009751422350774,0.7536273452069944,-0.007769562439460289,-0.5522339796987609,-0.0066254356582305714,0.833626636551344,0.10819044678667371,0.3404355739895231,-0.8087759694433871,-0.058729787128888426,0.388440851868875,-0.8972547229897075,-0.10573501915447456,0.6566536935044033,0.8986320367645951,0.011856344524719455,0.618613862530154,0.9137623183398382,0.0,0.0,0.0,0.0
0.013914863378933023,-0.046912775943755675,0.7531159037780945,-0.007818497917802801,-0.5522815551505472,-0.006561958517262701,0.8335951629125616,0.11025528667554459,0.33755465150883307,-0.8054574709193052,-0.05667439797924386,0.38999472472806496,-0.9020146159218412,-0.10003603307358902,0.6537361781758603,0.9010374045570214,0.005428415793024092,0.6191085711451388,0.9091522739621332,0.0,0.0,0.0,0.0
0.013851344864558204,-0.04787650007038009,0.7524851677795767,-0.007867039131589261,-0.5523226450605458,-0.006495278442368608,0.8335680037085039,0.11245942946917031,0.33421278190629394,-0.8018528424378182,-0.05447908825036644,0.39137771200151933,-0.907048350244123,-0.09397783630022735,0.6500582505991008,0.9043865166957648,-0.0006554630984923187,0.6202099382993078,0.9034223168443164,0.0,0.0,0.0,0.0
0.01375515379793802,-0.04889086303819117,0.7517510890004778,-0.007926510824726335,-0.5523544605991831,-0.006415484900019691,0.8335469763821525,0.11476575554132118,0.3304595611019356,-0.79802909987798,-0.05218011913347035,0.3925815613479802,-0.912254269075696,-0.08750143501576438,0.6456819450076996,0.9085138122611226,-0.006717843467756252,0.6217739088678594,0.8968145199538569,0.0,0.0,0.0,0.0
0.01362850953781241,-0.04992347938702177,0.7509220873894535,-0.008014528492909845,-0.5523729308324534,-0.006304976583383367,0.8335347382604308,0.11707330844237925,0.3264069692555826,-0.7942301601635818,-0.049881605341375784,0.3935443417044531,-0.9174456508508052,-0.08060562263897458,0.6406006930546818,0.9133923603029295,-0.01314036315696394,0.6238124026293416,0.8892410011638244,0.0,0.0,0.0,0.0
0.013474510784813385,-0.05091612724626606,0.7499996869992088,-0.008159936003496219,-0.5523699128567712,-0.006128602697167708,0.8335366428922019,0.11919145585837009,0.322251997575425,-0.7909530765095941,-0.04778398070285891,0.39415296749545736,-0.9223408059455603,-0.07328684719925571,0.6347140375301145,0.9191215182818181,-0.020427206818531517,0.6264374662312476,0.8802872321391515,0.0,0.0,0.0,0.0
0.01329373240791419,-0.05179156562817782,0.7489921723791649,-0.008406141714833549,-0.5523332351746749,-0.005833445923869997,0.8335606186784502,0.12085609426891177,0.3182484182752072,-0.7888498815893498,-0.0461648951369978,0.3942517581198646,-0.9265219896881028,-0.06547841273154661,0.6278936075804092,0.9257631572022282,-0.029272806143875833,0.629865188187492,0.8690988237628644,0.0,0.0,0.0,0.0
0.013077490824797006,-0.052462113550786976,0.7479604752144752,-0.008806390664445744,-0.5522622584510046,-0.0053730438109154165,0.8336066073240224,0.12179138526042735,0.3146452831783374,-0.7883153968236714,-0.04530119837463949,0.3936466115968816,-0.9292346647865137,-0.057154691834829886,0.620310911871715,0.9329213339441856,-0.04016948728429482,0.6345893643841375,0.854226050364293,0.0,0.0,0.0,0.0
0.01290259329327255,-0.05284085403581106,0.7471285650743684,-0.009385063096620544,-0.5521745002948463,-0.004723990882851108,0.8336623571476333,0.12174831974551527,0.31230163157685115,-0.7899203248783132,-0.045440311616771756,0.3927801415715292,-0.9300651932590908,-0.04859011697681781,0.6133388721067078,0.9387380857702156,-0.05016985099693,0.6420836795975315,0.834477940074749,0.0,0.0,0.0,0.0
0.012905521502689891,-0.05284808823250234,0.7471178887780501,-0.009388146269758488,-0.552178224337466,-0.00472124747035738,0.8336598713500994,0.12175867665498356,0.3122661958219047,-0.7898880617856829,-0.045428121676220415,0.39278478158316144,-0.9300950084668443,-0.04856987897805577,0.6133132097638027,0.9387397584509168,-0.05017481068911224,0.6420821888206276,0.8344713198428089,0.0,0.0,0.0,0.0
0.012905521502689891,-0.05284808823250234,0.7471178887780501,-0.009388146269758488,-0.552178224337466,-0.00472124747035738,0.8336598713500994,0.12175867665498356,0.3122661958219047,-0.7898880617856829,-0.045428121676220415,0.39278478158316144,-0.9300950084668443,-0.04856987897805577,0.6133132097638027,0.9387397584509168,-0.05017481068911224,0.6420821888206276,0.8344713198428089,0.0,0.0,0.0,0.0
0.012441783637375777,-0.05315164093592669,0.7474250171444177,-0.008833022841378841,-0.5526653419551375,-0.005249463998913298,0.8333399310226403,0.11178681887688832,0.3272244686245006,-0.8177857814966465,-0.0437847514484429,0.39075077310207407,-0.9251508080353092,-0.05260624187858804,0.6168145055241597,0.9363232621269176,-0.053939225799879954,0.6422519401776035,0.8328362255652453,0.0,0.0,0.0,0.0
0.011505853178618125,-0.054012160587432884,0.7476743006266844,-0.008381482197091525,-0.5529779595629063,-0.005739412216376441,0.8331339545002563,0.10037027324129075,0.3345507891505217,-0.8357582237671245,-0.04074743228489536,0.3872554110589063,-0.9191037831411125,-0.052470713753836294,0.6183908230714664,0.931812141436969,-0.053837447320445826,0.6407040885975808,0.8335087617249152,0.0,0.0,0.0,0.0
0.010328895803210964,-0.055321656059476074,0.7478321474019908,-0.00798515855932292,-0.5531445110120466,-0.006182089591750282,0.8330241106644548,0.09029059541007746,0.33732215834286683,-0.8471116139004281,-0.036682220071452616,0.3833333988325653,-0.9135502737731526,-0.04908988200445413,0.6185061080628712,0.9260589665516712,-0.050758423106633074,0.6377778994783689,0.8365576455001217,0.0,0.0,0.0,0.0
0.009039821613396434,-0.05693724995357722,0.7478527100264074,-0.007618657087762617,-0.5532500026104872,-0.00657294782818479,0.8329544927740788,0.08257050236580127,0.3376546878955951,-0.8548207536638617,-0.03198461298558902,0.37930429351211253,-0.9087009428695609,-0.043578005371593995,0.6174680079722585,0.9202389148614458,-0.045683351242650355,0.6336796143543816,0.8421065350768616,0.0,0.0,0.0,0.0
0.007746937868098678,-0.05857903498180604,0.7478703339266877,-0.007295781269151471,-0.5533194076332955,-0.006901037885010553,0.8329086266740916,0.07660873827873202,0.3366701199075083,-0.8602794711446989,-0.027354023856718243,0.3752599721400143,-0.9038205356495569,-0.03747442391108562,0.6162739622551638,0.9140583569741699,-0.03998183314966079,0.6296858763055734,0.8476317752347823,0.0,0.0,0.0,0.0
0.006501031328509126,-0.06008015584919615,0.7479075538733668,-0.007023058133617586,-0.5533668961200254,-0.007170258763080486,0.8328771471965186,0.07158791964873085,0.33497080953327285,-0.8644657961580481,-0.023183429998209635,0.3711432653986148,-0.8985585581512792,-0.03171638465646903,0.6151607563674507,0.9079409709927239,-0.03452250593295355,0.6261311710685051,0.8522847994456872,0.0,0.0,0.0,0.0
0.005414875464738296,-0.061410504654941675,0.7479512156426669,-0.006798400465991142,-0.5533947009430881,-0.007389307490538266,0.8328586223687814,0.06703964439757905,0.3329971712112155,-0.8678197492213543,-0.01953566004553231,0.3675612612933475,-0.8939411296957722,-0.02652719398090835,0.6142796502913762,0.9022538049544561,-0.02954102888598746,0.6231355409710015,0.8561931511639448,0.0,0.0,0.0,0.0
0.004503375676390366,-0.06256019003161725,0.7479908267266996,-0.006616395580101955,-0.5534121002856361,-0.007568981452380632,0.8328469133560754,0.06254568841149923,0.33113478774219113,-0.8706200903304511,-0.016408407544232992,0.36459148366768007,-0.8901243995734377,-0.02200816007650819,0.6136075541101659,0.8972301746413465,-0.02515886858691619,0.620647576524663,0.8594949541060447,0.0,0.0,0.0,0.0
0.003748752289982374,-0.06354263564764329,0.7480219106531045,-0.006470119696560873,-0.553422831924731,-0.00771885263180567,0.8328395559587523,0.05785417950475715,0.3297819684906478,-0.8729056660252011,-0.013745487817300466,0.36217149275809835,-0.8870519166068597,-0.01813117901062137,0.6130861520953604,0.8929132611393806,-0.021369648191936673,0.6185733723701053,0.8623109133943964,0.0,0.0,0.0,0.0
0.0031264535674248996,-0.06438587574769182,0.7480444099395531,-0.006352716111209188,-0.5534289103807793,-0.007846460110265921,0.8328352281312863,0.05284901720382221,0.32935378445924735,-0.8745028512872576,-0.011461459038696647,0.36022721114655526,-0.8846399763559641,-0.014789479354657348,0.6126767380384869,0.8892247010685906,-0.01808423763461037,0.6168303917780841,0.8647537174705839,0.0,0.0,0.0,0.0
0.0026132892700738777,-0.06512281191809641,0.7480618742305638,-0.0062582932467427415,-0.5534333812469564,-0.00795726011919508,0.8328319207971043,0.0475072768147443,0.3301037102926628,-0.8751385323763793,-0.009464776948651575,0.3586989773338795,-0.8828037435167067,-0.011846610820042354,0.6123735206242403,0.8860222090639023,-0.015178204087182862,0.615367779056043,0.866914440663451,0.0,0.0,0.0,0.0
0.0021772681758854082,-0.06577371553769461,0.7480728806831299,-0.00618067748522383,-0.5534340385602295,-0.008056787696683934,0.8328311067441877,0.041842197981955376,0.3318264444047148,-0.8751501605766706,-0.007695191123308687,0.3574431524580063,-0.8813587147414823,-0.009239536134986187,0.6121160396578502,0.8832283913822244,-0.012594058273800581,0.6140844567635081,0.8688569113203766,0.0,0.0,0.0,0.0
0.0017924887072322422,-0.06635484932252084,0.7480786784384168,-0.006115274335072556,-0.5534306361675282,-0.008148981094753791,0.832832953525573,0.035872294254318114,0.3341799611170429,-0.8748305888339154,-0.006105605026416709,0.3563418200017771,-0.8801334305073034,-0.006916178631124771,0.6118739072888465,0.8807577187999284,-0.010283441857195688,0.612917949261075,0.8706101880940439,0.0,0.0,0.0,0.0
0.0014408445739712325,-0.06687732080150903,0.7480822903507267,-0.006059156441451752,-0.5534238007391828,-0.00823629609890306,0.8328370469816929,0.029593658197370455,0.3368923920191069,-0.8743658008979023,-0.004664372405238075,0.35531223401715445,-0.8789936902517619,-0.004839584039771361,0.6116402553935175,0.878530329699822,-0.008211925675112376,0.6118399315077331,0.8721735020838763,0.0,0.0,0.0,0.0
0.001109406182769639,-0.06734361475670525,0.7480876624314778,-0.006011106765120281,-0.5534146177784974,-0.008319527194841761,0.8328426699514093,0.022991266064447808,0.3398021214762367,-0.8738562152298059,-0.0033636997251066166,0.3542841697304934,-0.8778095116819002,-0.0030032398422300197,0.6114176864626287,0.8764912260443782,-0.006374705427538043,0.6108467023181682,0.8735100208175557,0.0,0.0,0.0,0.0
0.0007949227507210546,-0.06774733685899455,0.7480997885768343,-0.0059715529392682975,-0.5534039532389553,-0.00839711057875142,0.8328492622491287,0.01611782670602305,0.3428163225611186,-0.873350258271785,-0.002222101678119292,0.35322827175973454,-0.8765029056344699,-0.0014291731737868596,0.6112240129331109,0.8746125151136575,-0.004795394202709497,0.6099680501369433,0.8745478244475349,0.0,0.0,0.0,0.0
0.0005013005644614948,-0.06807126547975878,0.7481253418685184,-0.005942188718811236,-0.5533933348757507,-0.008464359136329863,0.8328558470304069,0.009222791548176755,0.3458292857543208,-0.87290918129695,-0.0012908982585673316,0.35213717906865843,-0.8750090968192881,-0.00017570671307219426,0.6110904842158408,0.8728946676028425,-0.0035340682254203335,0.6092693437945225,0.8751681967612369,0.0,0.0,0.0,0.0
0.00023986900071599983,-0.06828880144856782,0.7481715540846479,-0.005925131394597924,-0.553385789827717,-0.008512489997069985,0.8328604912881631,0.002952336367911676,0.34862178251779735,-0.8726851298465875,-0.0006536030000085032,0.35102945676607905,-0.8732839765530369,0.0006702013751558006,0.6110568902377609,0.8713750837781759,-0.0026798111145302284,0.6088471942235383,0.8752266785776454,0.0,0.0,0.0,0.0
3.611802996599458e-05,-0.06837307451820869,0.7482350276286212,-0.005920552692247919,-0.5533911269891263,-0.008530468381790291,0.832856793653453,-0.0014215583556872226,0.3507567725584542,-0.8729860984320297,-0.00040177980655291913,0.3499969813427216,-0.8714112385926095,0.0010182810684424108,0.6111385726183508,0.8702349632620954,-0.0023253853202732156,0.6087781477240053,0.8747211622471514,0.0,0.0,0.0,0.0
3.6109961309222406e-05,-0.06837363848330522,0.7482345529318971,-0.005921093300412939,-0.5533905682962891,-0.008531246137916618,0.8328571530665821,-0.0014282675734109407,0.35076122199805004,-0.8729833043608947,-0.0003986683620964159,0.3499947332226911,-0.8714119013664144,0.0010178916280240986,0.6111390127273129,0.8702324850023294,-0.002324417886987681,0.608774191985365,0.8747227044478982,0.0,0.0,0.0,0.0
3.6109961309222406e-05,-0.06837363848330522,0.7482345529318971,-0.005921093300412939,-0.5533905682962891,-0.008531246137916618,0.8328571530665821,-0.0014282675734109407,0.35076122199805004,-0.8729833043608947,-0.0003986683620964159,0.3499947332226911,-0.8714119013664144,0.0010178916280240986,0.6111390127273129,0.8702324850023294,-0.002324417886987681,0.608774191985365,0.8747227044478982,0.0,0.0,0.0,0.0
3.6109961309222406e-05,-0.06837363848330522,0.7482345529318971,-0.005921093300412939,-0.5533905682962891,-0.008531246137916618,0.8328571530665821,-0.0014282675734109407,0.35076122199805004,-0.8729833043608947,-0.0003986683620964159,0.3499947332226911,-0.8714119013664144,0.0010178916280240986,0.6111390127273129,0.8702324850023294,-0.002324417886987681,0.608774191985365,0.8747227044478982,0.0,0.0,0.0,0.0
0.00010242252345067816,-0.06848826382223033,0.7482398074576813,-0.005928308972550679,-0.553420123215807,-0.008520079189522042,0.832837577576283,-0.0011747795392591349,0.3509375341911984,-0.8730632946461799,-0.0001454669319980777,0.35061954671379686,-0.8723002175214802,0.0016836161635572357,0.6113863071672536,0.8698836565626847,-0.0016590230316537709,0.6089737131834171,0.8752624967898961,0.0,0.0,0.0,0.0
0.00018283881355344494,-0.0686650501951524,0.748242494144802,-0.005928455292028778,-0.5534503140943763,-0.008514301772734458,0.8328175730086448,-0.000765113320691651,0.3510823388187359,-0.8730484436636374,0.00026413358351946045,0.3514610337702117,-0.8735990238703604,0.002608420263436545,0.6116913835020796,0.869349525668484,-0.0007334850034393722,0.6091463722843667,0.8760704157505065,0.0,0.0,0.0,0.0
0.0002705333961210679,-0.06891783824187625,0.7482405545152383,-0.005926498424168216,-0.5534760593815661,-0.00851036206247535,0.8328005175583448,-0.0001696803538435177,0.35113115174965726,-0.8728698971808778,0.0008598088752828037,0.3525069496810553,-0.8753176363402988,0.0039057981597231915,0.6120147998340664,0.8685700349887603,0.0005677158034525981,0.609264007838039,0.8772029779927857,0.0,0.0,0.0,0.0
0.00039252022278809455,-0.06929923568934936,0.7482326556537785,-0.005916183747766194,-0.5534914390909254,-0.008512200203024954,0.8327903506108981,0.0007411956031060225,0.35115620455461505,-0.8726361662967973,0.0017716212856630313,0.35403676320026245,-0.877985263144686,0.00579366053552713,0.612426623009374,0.8673704436602019,0.0024661608104352955,0.6093268440411503,0.878868412470514,0.0,0.0,0.0,0.0
0.0005617264851570103,-0.06987343952315594,0.7482243161326578,-0.005889739961099616,-0.5534965295011172,-0.008530828586306346,0.8327869642093592,0.0021415089329973195,0.35112040290806534,-0.8722022509729734,0.0031745210617094817,0.3562616448672063,-0.8819814575122337,0.008511457623073336,0.6130436642181455,0.8654700893756674,0.00520937658165154,0.6093465219577565,0.8812420437908924,0.0,0.0,0.0,0.0
0.000835956483482433,-0.0707244174633025,0.7482629624392672,-0.005770118169799652,-0.5536003007914573,-0.00876971290098934,0.8327163411603911,0.0046451542596808275,0.35118976217959785,-0.8706804180302912,0.005685145018047315,0.3596029464310626,-0.8877016544264434,0.0111986808958411,0.6149394594927085,0.8626873242808445,0.007933414776490585,0.6094986572250539,0.8842615423896186,0.0,0.0,0.0,0.0
0.001432773253425176,-0.07143064862625803,0.7482155406516763,-0.00569405691838937,-0.553520385978329,-0.008797418025165924,0.832769695328968,0.006327007005089176,0.35357189202751643,-0.8745850789500985,-0.006830550265460192,0.3528383739268155,-0.8787876926645805,0.014274059317508019,0.6161002956652645,0.8608123278209235,0.011067519338599167,0.6098572759297727,0.8875421412230627,0.0,0.0,0.0,0.0
0.0021853056825775915,-0.07227319623432103,0.7481703169403964,-0.005580891994147091,-0.5534928186839314,-0.008934904826888614,0.8327873202598612,0.00856491994289843,0.356611697888067,-0.8789984513668208,-0.023088634252973975,0.34704621333226987,-0.8728477277572458,0.01738361659085015,0.617966408720276,0.8588072795857282,0.014252489211530642,0.6104052424154308,0.891414346641858,0.0,0.0,0.0,0.0
0.0029712001118523236,-0.07328557597123309,0.7481262556011308,-0.005449244856296673,-0.5534836530562469,-0.00912736213495048,0.8327921966435959,0.01133347676270241,0.35949940839335265,-0.8828528845417472,-0.03920125825779561,0.3421287649094528,-0.8689349381671991,0.021048113159667522,0.6201472601546357,0.8562461100718484,0.018025566667475137,0.6109440375302656,0.8958648775178434,0.0,0.0,0.0,0.0
0.0037644049116621462,-0.07442885366385138,0.7480801161340463,-0.0053113605389235735,-0.5534750843582519,-0.009331727980091237,0.8327965173418757,0.014449468618764495,0.3621500324228602,-0.8862085555336576,-0.053831029455823284,0.3377830154668204,-0.8661424128114906,0.02532047587514158,0.6224402619050525,0.8531656451772534,0.022455396535099977,0.6114754990160549,0.900745986717286,0.0,0.0,0.0,0.0
0.004563418014703211,-0.07567630784756879,0.7480265352948855,-0.005171452072679871,-0.5534633453302028,-0.00953439024864158,0.8328029039706497,0.017820314535422464,0.36459890769841674,-0.8892024859254458,-0.06688583805762378,0.333807120339035,-0.8640262941752618,0.030144295786260343,0.6247660923831222,0.8496839891472624,0.027499348414056664,0.6120025021461496,0.906005496929919,0.0,0.0,0.0,0.0
0.005403274100856129,-0.07701378862254725,0.7479615266862077,-0.00502422490311013,-0.5534497769111862,-0.009736876789349725,0.8328104795398951,0.021410838818629062,0.3670772884577786,-0.8922164688282131,-0.07874628064928217,0.3300957116256142,-0.8623123060901446,0.035412857744827775,0.6271741507751913,0.8459253967522397,0.033061507428033335,0.6125808286914799,0.9116452052917776,0.0,0.0,0.0,0.0
0.0063147347841019065,-0.07845279103299664,0.7478808546807559,-0.0048634125498684495,-0.5534344751093425,-0.009946022555106251,0.8328191313929751,0.025261076604464607,0.36973939896189634,-0.8954878544155835,-0.08977941687716111,0.3266399107734507,-0.860849259612275,0.04112711186909995,0.6297256573576975,0.8419111008215308,0.039157720014330356,0.6132425118285822,0.9177445174895535,0.0,0.0,0.0,0.0
0.007339640775286924,-0.08001807973781107,0.7477793717764348,-0.004677508359688779,-0.5534173476269747,-0.010173782125579327,0.8328288266014394,0.02945233833383847,0.37277478502260153,-0.8992901706901678,-0.1002185116824468,0.3235693170734889,-0.8594636132629124,0.04731121731503116,0.6325202754019692,0.8376282486703913,0.045831844388903725,0.6140276711827657,0.9244306644614647,0.0,0.0,0.0,0.0
0.00855758661543698,-0.08172876825804733,0.7476509615141369,-0.0044446018371544875,-0.5533942880623542,-0.010438020120437153,0.8328421550272505,0.03406012102441628,0.37660390079853023,-0.9042685303884036,-0.11023139784491606,0.3211575464313707,-0.857792627493046,0.053888520676959074,0.635736430949896,0.8331161801063197,0.05302493485930436,0.6150314033904043,0.9318123581831778,0.0,0.0,0.0,0.0
0.009979850064921263,-0.08363885816452693,0.7474936332467987,-0.004153057773519407,-0.553357246132109,-0.010753415321190975,0.8328642592422539,0.03924910698530872,0.381163598729908,-0.9102789656446735,-0.11979532553151004,0.3196986284605442,-0.8555182864100008,0.06102969948920906,0.6394499631675803,0.8281367984202521,0.06094851352945224,0.6162482978355923,0.9400135193206367,0.0,0.0,0.0,0.0
0.011607394688913598,-0.08580883498870993,0.747310292472111,-0.0037891471406403068,-0.5532944347345139,-0.011138077211006818,0.8329026678380871,0.04520795656955707,0.3863142813171624,-0.9170338450442449,-0.12890908820512298,0.31928224137271904,-0.8522264476414484,0.06890886612223746,0.64376147903634,0.8223375458690446,0.06983523017984214,0.6176740396129471,0.9490949435642403,0.0,0.0,0.0,0.0
0.013453249802669428,-0.0882972265444366,0.747101655027833,-0.0033350591951109747,-0.553183730708039,-0.011613639508056259,0.8329716446779433,0.05212914421973578,0.39198821847453746,-0.9244001826359743,-0.13773305987896173,0.3194439862156938,-0.8480220096790634,0.07764839084514089,0.6487835740147397,0.8153556839733226,0.07988124586893897,0.6192961180037466,0.9590898601393657,0.0,0.0,0.0,0.0
0.015535930571129019,-0.09113755912816249,0.7468800364882725,-0.0027675883917672056,-0.5530096267369048,-0.012208490461718895,0.8330808159785275,0.0601583968670827,0.39819111306214494,-0.9322700400271362,-0.14662597640982214,0.3194588426036084,-0.8427462330420861,0.08718138495385136,0.6547421200966812,0.8068159891571717,0.09108892529719824,0.6211859748714152,0.9698357706001208,0.0,0.0,0.0,0.0
0.017876651631919174,-0.09429812493957374,0.7466708067613074,-0.0020620300888717006,-0.5527698700369205,-0.012953311677831056,0.833230718665518,0.06928701024997369,0.4050671029480567,-0.9406655754917066,-0.1562094637745615,0.3185244062984676,-0.8357761560081965,0.09708802860332671,0.6619541969948699,0.796507435378379,0.10305672880932935,0.6235120826060757,0.9808708204939729,0.0,0.0,0.0,0.0
0.020492520572392564,-0.09760197036999713,0.7464844048187363,-0.0011993830726593467,-0.5524902722873056,-0.013869834876329042,0.8334030766613759,0.07913223496062897,0.4130031523085106,-0.9500404783556133,-0.16743707896736995,0.31580231275520515,-0.8258972974761851,0.1062897117417424,0.6705643080940816,0.7851137432431788,0.11456422779071133,0.6263983340387965,0.9915398758972398,0.0,0.0,0.0,0.0
0.023276892118628437,-0.10059657143036574,0.7460654858281117,-0.00019214722237394184,-0.5522707401682667,-0.014930391887774308,0.8335310888212373,0.08854663973257333,0.42199737948657395,-0.9613040413963947,-0.18154292873582112,0.31023569443840016,-0.8118597138387882,0.11276267401195984,0.6785163404732443,0.7777692247307519,0.12312134447110074,0.6284897023833877,1.003150349425246,0.0,0.0,0.0,0.0
0.025949903281915338,-0.10307329217287733,0.7454566816337047,0.0009136156694647447,-0.5519843770084099,-0.01601847451131445,0.8337000787569692,0.09676997904762111,0.43103948654830904,-0.9737146319009244,-0.19776432867318283,0.2996123601911972,-0.789817533134859,0.11596198166356617,0.6848013558080968,0.7745259669327486,0.12783875996802918,0.629107238298512,1.0144470297194468,0.0,0.0,0.0,0.0
0.028198928117687767,-0.10482329191380559,0.7447092354713201,0.0021307409017839456,-0.5516013817408526,-0.017080699965570344,0.8339302280727554,0.10309184625480604,0.4389555702431384,-0.9856701080316614,-0.21530386843618832,0.2805829131008161,-0.754684095666759,0.11469305397318642,0.6887584525155008,0.7757734022936975,0.1270335462668966,0.6274187171058312,1.0244205151521422,0.0,0.0,0.0,0.0
0.029444805239771887,-0.10562763963737,0.7438993461630102,0.003443016698010221,-0.5510551717266942,-0.01799248218539462,0.8342677111899327,0.10656688059526627,0.4432290185013282,-0.9937840898253427,-0.23088270959526708,0.24880386892702444,-0.7002220607701649,0.10799105014795854,0.68910986508886,0.7813504969178438,0.11936019476686746,0.6220004464456448,1.0318281268280602,0.0,0.0,0.0,0.0
0.029513102916883024,-0.10569773226946376,0.7438709633185545,0.0035146953093862414,-0.5510273116760604,-0.018002127957379096,0.8342856058286886,0.1067652361805911,0.44328261441999567,-0.99383926999461,-0.2309283823927823,0.24879749750960806,-0.7001927611361286,0.10791399832606965,0.6892396201732384,0.781193010887652,0.11940166386995062,0.6219734633514409,1.0320715767766333,0.0,0.0,0.0,0.0
0.029513102916883024,-0.10569773226946376,0.7438709633185545,0.0035146953093862414,-0.5510273116760604,-0.018002127957379096,0.8342856058286886,0.1067652361805911,0.44328261441999567,-0.99383926999461,-0.2309283823927823,0.24879749750960806,-0.7001927611361286,0.10791399832606965,0.6892396201732384,0.781193010887652,0.11940166386995062,0.6219734633514409,1.0320715767766333,0.0,0.0,0.0,0.0
0.029525627955055665,-0.1066941367989557,0.7459369651165738,0.0018637208617861766,-0.5507380668294092,-0.016548698877735378,0.8345119824514257,0.10702983141931192,0.4434189086750708,-0.9910930704900908,-0.2303044375384,0.2530420117749216,-0.6952315525079449,0.07702050711707924,0.6735904336817116,0.8227894239026686,0.14370843936885314,0.63723871699109,1.0166073137673255,0.0,0.0,0.0,0.0
0.02949469506598896,-0.10825353834641073,0.7483008501398486,0.000722251785010984,-0.5505043797703512,-0.015505458917909169,0.8346879578320062,0.10914749983446896,0.4422449015766732,-0.9829717113669685,-0.22778463772853605,0.25956707557869807,-0.6948846062194529,0.04649551608334153,0.6644200343718251,0.8514541683898783,0.1661600649715633,0.6527611762470154,0.9990763673710058,0.0,0.0,0.0,0.0
0.02941810760005069,-0.11014214652431609,0.7504476480627925,1.9419905459469292e-05,-0.5503189260530646,-0.014835431563732732,0.8348227292191958,0.11257816179574101,0.4396702099426316,-0.9718017012745458,-0.22404479317537865,0.2671596213881592,-0.6987827144852484,0.02334131688972261,0.6584455695389467,0.8708493871920548,0.1859178657395964,0.6660908069528224,0.9836414042626879,0.0,0.0,0.0,0.0
0.029336317890173397,-0.11218187470944725,0.7522972226811435,-0.00039753224846336054,-0.5501539891694334,-0.014428559382927059,0.8349384688964834,0.11675937579350996,0.4362326476784504,-0.9594080337003444,-0.21966282459028563,0.27527644948636215,-0.7057781509644464,0.005241550317954268,0.6545692462025624,0.8848040975220431,0.20339822685904546,0.6771753380102079,0.9708514839804406,0.0,0.0,0.0,0.0
0.02925846598628723,-0.11423596034750004,0.7538796769864472,-0.0006479747593748098,-0.5499953324383838,-0.014169056200933814,0.835047275470723,0.12118095097950386,0.43234455128114524,-0.9468454797594129,-0.2151083460108198,0.28336018107800404,-0.7143068060137241,-0.010073592899862097,0.6521555054806933,0.8955829798634893,0.21911771384417067,0.6864473123620707,0.9603049974373119,0.0,0.0,0.0,0.0
0.029155664365510328,-0.11620125314822109,0.7552284157736021,-0.0008146357695351582,-0.5498326747132549,-0.013980898999996777,0.8351574107013497,0.1254803208136303,0.4281605832226357,-0.9345947585656298,-0.2106921102483832,0.29078115919745995,-0.7228596018383804,-0.0241547913613632,0.6506615873212704,0.9043964877689246,0.2333136234543117,0.6941566394124576,0.9515558153477063,0.0,0.0,0.0,0.0
0.02895286142329415,-0.11799692143941069,0.7563655740659544,-0.0009573925725241639,-0.5496676273357376,-0.013816268556381977,0.8352686355788421,0.12938997293408572,0.42351680250062895,-0.9225389769177076,-0.20660827890898073,0.2967295373484223,-0.7297677299296522,-0.038011011070452995,0.6495976782477741,0.9117701196755134,0.24600836060958495,0.7003312950522746,0.9442861990947033,0.0,0.0,0.0,0.0
0.028661421230379052,-0.11964493180364236,0.757323050449818,-0.0010947919565430428,-0.549489819695704,-0.01365926703053892,0.8353880319381785,0.1329486351979012,0.418495081029494,-0.910758172523078,-0.20283371937948033,0.3014291561330731,-0.7352930010515978,-0.05204901760111341,0.6488231528000794,0.9179070727389114,0.2575167149444915,0.7051843601488997,0.9382787249505101,0.0,0.0,0.0,0.0
0.028288818565565876,-0.12118961802960317,0.7581259795118375,-0.0012356707703932103,-0.5492899994511491,-0.013502286946844121,0.8355217877876727,0.13625786507802873,0.41308072511614946,-0.8991564910882786,-0.19928144609892645,0.30514102483705574,-0.7398228000202031,-0.06652894067616545,0.648398207149658,0.9226261991652938,0.2681992431183825,0.7088734461280275,0.9334104998374987,0.0,0.0,0.0,0.0
0.027831722433396582,-0.12268367153798321,0.758791239096972,-0.0013870699889142932,-0.5490562857138758,-0.013339372646647607,0.8356777682171056,0.13943882285584208,0.4071584013307946,-0.8875119424088217,-0.1958387493393706,0.30807069938370124,-0.7437063961942765,-0.08172428760119398,0.6486239943274736,0.9252672985381203,0.27843358517209665,0.7114743421437938,0.9296332826671457,0.0,0.0,0.0,0.0
0.027295793908541713,-0.12419206488772427,0.7593437273663538,-0.0015511989020675107,-0.5487728869621283,-0.013169945132459272,0.8358662960440654,0.14264961395490378,0.4006278343817787,-0.8755821775588054,-0.19236062465198675,0.31052562078115803,-0.7474691275458588,-0.09791479667636012,0.6501336952009584,0.9246643917111625,0.28860291925554993,0.7131055156848228,0.9268194462501982,0.0,0.0,0.0,0.0
0.026681620475586598,-0.12576503619334278,0.7598421737375326,-0.0017319525662213083,-0.5484153848406256,-0.012985318401647813,0.8361034311115012,0.14598967266548754,0.39341097576990613,-0.8630935857944537,-0.18874663229458954,0.31273805342695027,-0.7513845431842461,-0.1149262367153568,0.6521842392625657,0.9221508466381177,0.29897491027604256,0.7140294978535549,0.9244242654322309,0.0,0.0,0.0,0.0
0.02597434982960976,-0.1274285541703638,0.7603510919025447,-0.0019433740215426577,-0.5479548601258727,-0.012767896750054845,0.8364081990119583,0.14948482894646642,0.3853999471493814,-0.8497750509097801,-0.18495539172925946,0.31474792932131934,-0.7553574899021199,-0.13295503473505563,0.654320353808523,0.9186363051863735,0.3097008746240203,0.7144974872905453,0.9217530240327348,0.0,0.0,0.0,0.0
0.02516485861142239,-0.1291936181546399,0.7609257883811085,-0.0022117262667605366,-0.5473492381193072,-0.01248930908439461,0.8368081840874462,0.1531183811627982,0.37656400397195267,-0.8356235960817153,-0.18100092931012918,0.3165825399399939,-0.7593153009422844,-0.15301736158117682,0.6563780168457793,0.9148494404009937,0.32091620955400546,0.7147101287447025,0.9181174072232524,0.0,0.0,0.0,0.0
0.024258191808422445,-0.1310336017985187,0.7615967493783211,-0.002582060016942464,-0.5465410166885161,-0.012104185784449597,0.837340873676693,0.15677706103423772,0.36707533969427736,-0.8212201448035822,-0.17701889153008946,0.318226117406737,-0.7631898452547049,-0.17752425200893365,0.6585529198673425,0.911602427229337,0.33268232184976837,0.7147617831576442,0.9129362200825182,0.0,0.0,0.0,0.0
0.0232559879133677,-0.13281471065793624,0.7623228493705697,-0.0031294941137342573,-0.545461170103303,-0.011544445391781866,0.8380507406814481,0.16009055158913618,0.3574126740544885,-0.8081586459906855,-0.1734268008499898,0.3192462365435505,-0.7663975186497599,-0.21102315167770008,0.6615762550967127,0.9099689157838462,0.3446566379578206,0.7143570468716984,0.9060677964913527,0.0,0.0,0.0,0.0
0.022226774950325295,-0.13424187721267722,0.7628938733097234,-0.003942646183103558,-0.5439993855761782,-0.010661980398829173,0.8390086091380651,0.16220806451831785,0.3489972752515028,-0.8007244023377822,-0.17125082051005625,0.3190964246820183,-0.7687061533277421,-0.25939451401161473,0.6670770353829739,0.910662771352648,0.3561572012809756,0.7124580706937667,0.8987058199145092,0.0,0.0,0.0,0.0
0.02116461089410932,-0.13528772624909585,0.762643128695321,-0.0048178888067402885,-0.5421598036535246,-0.009694930356008033,0.8402056555244136,0.16352094288253943,0.3416457165392252,-0.8005375655913617,-0.17031348065848234,0.31756362105808894,-0.7731610488325753,-0.3207794510189333,0.6730095366217811,0.9147517337236213,0.3649311635638942,0.704853499341605,0.8977130677068907,0.0,0.0,0.0,0.0
0.020310660102913172,-0.13586712932547904,0.7616615532508544,-0.005389402242908389,-0.5401124923513083,-0.008948864483294058,0.8415279958349464,0.16417626887615286,0.33675848517195583,-0.8076572495875641,-0.1705271713919417,0.315910415199391,-0.7817370032765083,-0.3815867879533224,0.6748005344990992,0.9237871850695178,0.36774420536164093,0.6924280385101597,0.9026375573675951,0.0,0.0,0.0,0.0
0.020311634771730466,-0.13588362499583817,0.7616419270121328,-0.005413266575864529,-0.5400986483280372,-0.008925899389473926,0.8415369718195955,0.16418291587863926,0.3366400685725984,-0.8076653170798694,-0.17053870985408384,0.31589256463821463,-0.7817808192403342,-0.3816371119054295,0.6748135967847354,0.9237971094977216,0.36780377625779637,0.6923792748477366,0.9025461686791223,0.0,0.0,0.0,0.0
0.020311634771730466,-0.13588362499583817,0.7616419270121328,-0.005413266575864529,-0.5400986483280372,-0.008925899389473926,0.8415369718195955,0.16418291587863926,0.3366400685725984,-0.8076653170798694,-0.17053870985408384,0.31589256463821463,-0.7817808192403342,-0.3816371119054295,0.6748135967847354,0.9237971094977216,0.36780377625779637,0.6923792748477366,0.9025461686791223,0.0,0.0,0.0,0.0
0.02030857558789912,-0.13616076351889353,0.7620249438634542,-0.005584366860623785,-0.5415338021329837,-0.00880488395766268,0.840614317040016,0.16425939746558746,0.3344300618232062,-0.7963734848722953,-0.1695280883663871,0.3151033583735023,-0.7723156801810867,-0.3833712756034572,0.6811393977735972,0.9236777633638634,0.3755938678177736,0.6993916529864025,0.9033314178535835,0.0,0.0,0.0,0.0
0.020330253983942632,-0.13657463782823356,0.7623152283211431,-0.005624725362031263,-0.5424768288276348,-0.008795027506320115,0.8400058929203281,0.16494897903617087,0.3323102077882861,-0.7872724102947414,-0.16824603938451077,0.31547547925321723,-0.7678255007181777,-0.3840141633441999,0.6857782733873437,0.9227042957008806,0.38163983499720816,0.7042453034471318,0.9038999438045039,0.0,0.0,0.0,0.0
0.020440330586344795,-0.13713634820282633,0.7624786294795928,-0.005576674406491987,-0.5430674641251054,-0.008861729521815886,0.8396237847162106,0.16621443905772776,0.33057972700351107,-0.7804732409504896,-0.16669395609734755,0.3173517621834036,-0.7682493118766025,-0.38368953284456114,0.6890230823032375,0.9217171499432747,0.38681698442351786,0.7073725011162127,0.9050989230058906,0.0,0.0,0.0,0.0
0.02068396086651209,-0.13793751831887588,0.7624567952246241,-0.005459970695359064,-0.5434441596267326,-0.00898559118904261,0.8393794691547938,0.16822726050080453,0.3291162227539041,-0.7753712037349817,-0.16466783486141673,0.3211355225005653,-0.7738534202710023,-0.3822906477954958,0.6910712875506048,0.9215858363628919,0.3924934433902897,0.7090773996566453,0.9081560761686627,0.0,0.0,0.0,0.0
0.021108986037174322,-0.1390465482964269,0.7621101637758833,-0.005283173068368115,-0.5437187598813785,-0.009140117809564446,0.8392010822692096,0.1711028206179823,0.32784078406165834,-0.7718832081237305,-0.1620624453753446,0.3270994549094689,-0.785102964398563,-0.3798712137833656,0.6916285079004425,0.9239526722371719,0.39999583908029124,0.7092026410741415,0.9149947990289431,0.0,0.0,0.0,0.0
0.021704174009051277,-0.14050119650485912,0.7610578380366544,-0.005393667524311953,-0.5443273625256795,-0.009002238244904716,0.8388072427340245,0.1744744877121004,0.3260592813505975,-0.7695384812862863,-0.15911472914697705,0.33426730760316137,-0.7988175194069106,-0.3743595303731005,0.6892913107351105,0.9338831172544855,0.41579642114232523,0.7081272440911317,0.9308398340020431,0.0,0.0,0.0,0.0
0.02255316272450286,-0.14210236960822176,0.7616340859120994,-0.0063847974165446245,-0.5452189404435173,-0.007953906304005776,0.8382316366721702,0.1767051708044254,0.326160120912283,-0.7655019081745277,-0.15682499977576864,0.3432850257846808,-0.8047425250516332,-0.35736296165854464,0.6949242620124287,0.9275674332038162,0.33374095339718046,0.6961707852068646,0.9190908669379981,0.0,0.0,0.0,0.0
0.0235085646067779,-0.1439981208291339,0.7613979199459662,-0.007576996357862498,-0.5463726549338974,-0.006706303843222507,0.8374810663862435,0.17946656782007772,0.3254634278242189,-0.7626746436741441,-0.15418444168514794,0.3530647876724809,-0.8134661769903286,-0.3375726167704026,0.6966969626687736,0.9294034330042296,0.25581489149134606,0.6843170819700721,0.9123681043413856,0.0,0.0,0.0,0.0
0.0245922783075854,-0.14603001771776794,0.7609788354389033,-0.008389773740593723,-0.5473223309570701,-0.005826981756295714,0.8368595605093563,0.1831426157325612,0.32508328074307524,-0.7606182605214197,-0.15086062279012216,0.36431345273244986,-0.8275654236032473,-0.32020803792182717,0.697891986421856,0.9319593362853607,0.2014424908494634,0.6759908935714739,0.910322954700512,0.0,0.0,0.0,0.0
0.025634489207059047,-0.14801029676447258,0.7605657274530685,-0.008892333006396266,-0.5480363313821052,-0.005275961288212414,0.8363906205424784,0.18719693010901725,0.32464623089204403,-0.7584596390871721,-0.1472315634058443,0.37537862263993377,-0.8434170784844289,-0.3055435391893574,0.6989753483087593,0.9336822074110793,0.16492025980893288,0.6703272927174936,0.9112210639547208,0.0,0.0,0.0,0.0
0.026550484061889958,-0.1498366815302884,0.7602064011501779,-0.009217491929248612,-0.5485702904985005,-0.004921012079488543,0.8360391485241816,0.19116836557984304,0.32396209883850563,-0.755985579877018,-0.14365779432205208,0.3853185567722278,-0.858536539403514,-0.2929495330991219,0.6998956711811323,0.9345544368944677,0.13869085352711674,0.6660979019019119,0.9136751166263554,0.0,0.0,0.0,0.0
0.027323352515025573,-0.15148617095228725,0.7599027850610084,-0.009457815495626565,-0.548980348051129,-0.004663296724383509,0.8357687364596573,0.1948450764874078,0.3229994171671546,-0.7532325660230952,-0.14031421561563348,0.39392244063197246,-0.8719991260384247,-0.2817536565954577,0.7005759902053639,0.934824026800382,0.11763694422719158,0.662451681748793,0.9167637784073593,0.0,0.0,0.0,0.0
0.027969080767230352,-0.1529838786278676,0.7596350394300626,-0.009662995076178682,-0.5493074891462896,-0.004449644617244775,0.8355525773742409,0.1982082205380058,0.3217686811920237,-0.7502687682979664,-0.13722002097627337,0.4013496806250208,-0.8838165052797045,-0.2714353779980864,0.700953391884387,0.9347821789696923,0.09891778725704295,0.6589758997127219,0.9198526127466028,0.0,0.0,0.0,0.0
0.028514010637473487,-0.15437587340639725,0.7593664672107354,-0.00985494814378625,-0.5495797985226638,-0.004256582047156623,0.8353722562798859,0.2013385814007233,0.3202647975406538,-0.7471444408107629,-0.13431131775668545,0.40787223095390535,-0.894412164842601,-0.26162250958305383,0.700929474943065,0.9347875652926826,0.08118963868947915,0.6555830447740826,0.922427376769498,0.0,0.0,0.0,0.0
0.028986285023933696,-0.15570747440600888,0.7590442060801511,-0.01004016901052246,-0.5498147320788721,-0.004071816594183805,0.8352163646055443,0.20433252464442545,0.31848811439979036,-0.7439850337284725,-0.13151826265464592,0.41375111109842805,-0.9043406138960457,-0.25206320506630076,0.7003235565286855,0.935320183756925,0.06404808845999609,0.6524398071433748,0.923939873027635,0.0,0.0,0.0,0.0
0.02939746279336279,-0.1570303996043579,0.7586023793167618,-0.010216055828545529,-0.5500218676130315,-0.0038950421151716587,0.8350786825190198,0.20731779830063968,0.3163033542334698,-0.7407394794771324,-0.1287329980467636,0.41915052360314586,-0.9141292914918051,-0.24253279577432704,0.6988432126352575,0.9369416057538955,0.04757600044390663,0.6499744066529396,0.9235367745426062,0.0,0.0,0.0,0.0
0.029723509480663355,-0.1584124430245554,0.7579781670656905,-0.010378353976445901,-0.5502089993958867,-0.0037278524554499636,0.8349541603397082,0.21044749220301676,0.3132811523969079,-0.7368559488034053,-0.12579244029837028,0.42406352169325096,-0.9240531590056731,-0.2326445117911881,0.6961088857046402,0.9401128533878024,0.03212672048224446,0.6488897835536465,0.9198794706376086,0.0,0.0,0.0,0.0
0.029959873710484516,-0.15990150827376834,0.7571513270259516,-0.01053130402975267,-0.5503731909660261,-0.0035681955783821283,0.8348447222577511,0.21383215221682603,0.3092107934801414,-0.7320489881973821,-0.12258247092348415,0.42856209987696237,-0.9343524352954806,-0.22204100885380126,0.6919760788460944,0.9448739950552663,0.017407056730518098,0.6485725919104569,0.9140892795383682,0.0,0.0,0.0,0.0
0.03009242743055934,-0.16153425758702325,0.7561138367355572,-0.01068596150103336,-0.550510782193161,-0.0034070132088452527,0.834752706600504,0.2175410147494688,0.30385712469808474,-0.7259800511468903,-0.11901968512375191,0.4326323078107687,-0.9450553119950115,-0.21033502887031447,0.6863216150904515,0.951146081322459,0.0030819989361044325,0.6487244602344212,0.9067119070183848,0.0,0.0,0.0,0.0
0.030096376008858214,-0.1633242462748733,0.7548569960121019,-0.01086194127311605,-0.5506183912528189,-0.003227305144945443,0.8346801722500892,0.22157508517628438,0.29698988133737436,-0.7183660841750035,-0.11508336557613255,0.4361326599947374,-0.955947327469774,-0.1971917861179793,0.6789763480875369,0.958894987713058,-0.011210369520770416,0.6492979824525328,0.8977883160594545,0.0,0.0,0.0,0.0
0.030022030120898664,-0.16518913360907528,0.7533849856636723,-0.011097256950925673,-0.5506875355029385,-0.0029914820881592735,0.8346323383171665,0.22571777576630675,0.28924247183792395,-0.710451825284492,-0.11104021541007232,0.43910422646660535,-0.9669230945808139,-0.18278069105223355,0.6700004034679697,0.9681942591794945,-0.02630041804125395,0.6505934523395493,0.8869890137832697,0.0,0.0,0.0,0.0
0.029897477389819106,-0.167007328181487,0.7516995522625878,-0.011453338765678674,-0.5507039876711888,-0.0026255386113520815,0.8346179039184158,0.22959854666590634,0.28130829933276935,-0.7037827683571065,-0.10731552260724694,0.44138245851504304,-0.9774636164557217,-0.16712166824038716,0.6592735828987537,0.9792015508199531,-0.0432746234218062,0.6529805707522942,0.8734036242974413,0.0,0.0,0.0,0.0
0.02969663763867642,-0.1686544502864207,0.7498136896824096,-0.012021328769447368,-0.5506381789043221,-0.0020144413037992957,0.834655033899504,0.23275522789598752,0.2736220390868723,-0.6996683971414177,-0.10440638915844869,0.4425478896791525,-0.9865637696061573,-0.14974405530837367,0.6464219479536613,0.9918898827145912,-0.06352496961243828,0.6568795530503538,0.8552094281389991,0.0,0.0,0.0,0.0
0.02938739603019424,-0.16998289881800246,0.7478433428815913,-0.012919565260017975,-0.5504620867110819,-0.001035468878610524,0.8347595484517533,0.23465249790029752,0.26673483647159096,-0.6992923222925017,-0.10285771624432873,0.4422132520452307,-0.9927750203280516,-0.1301524365354102,0.6315475128167508,1.0053124953090717,-0.08809649041955628,0.663269243003473,0.8294270711974906,0.0,0.0,0.0,0.0
0.029066383587193795,-0.17081593126817557,0.7462326776513124,-0.014202496498510504,-0.5501974937499554,0.00035921233623654656,0.8349136948996435,0.2347722763680147,0.2621653785184078,-0.703668520270142,-0.10314949160667963,0.44094600811830265,-0.9947748857959866,-0.10903328185367067,0.6171233644002181,1.0158129355521153,-0.11075414516446183,0.6752639844414826,0.793405045578232,0.0,0.0,0.0,0.0
0.02908352888151706,-0.1708326024164288,0.7461979677236871,-0.014226438130936957,-0.5502161923417537,0.0003719417752120267,0.8349009592774251,0.23479323096538013,0.2620794896985836,-0.7036204359215691,-0.10312657069771382,0.44097271571378355,-0.9948298027077369,-0.1090100072067278,0.6170579501328409,1.015808845620115,-0.1107647829409932,0.6752605810006834,0.7933933965891237,0.0,0.0,0.0,0.0
0.02908352888151706,-0.1708326024164288,0.7461979677236871,-0.014226438130936957,-0.5502161923417537,0.0003719417752120267,0.8349009592774251,0.23479323096538013,0.2620794896985836,-0.7036204359215691,-0.10312657069771382,0.44097271571378355,-0.9948298027077369,-0.1090100072067278,0.6170579501328409,1.015808845620115,-0.1107647829409932,0.6752605810006834,0.7933933965891237,0.0,0.0,0.0,0.0
0.027865840074919285,-0.17139561599177525,0.7470041984320407,-0.012921819647925227,-0.5513354281194575,-0.0008646048968812696,0.8341831481969012,0.21571999756487137,0.2964942770905042,-0.7609439771057153,-0.09928868208861129,0.4359816655417224,-0.983482937978162,-0.12053750655718604,0.6252418426008517,1.0101001010417787,-0.12052503583945877,0.6755675875543474,0.7879102207660286,0.0,0.0,0.0,0.0
0.02555760132483552,-0.1729872641948598,0.7477666158263505,-0.011878495455832968,-0.5520990404246787,-0.001961690369985255,0.8336916112560729,0.19384249143094978,0.3155434876762685,-0.7966938259808279,-0.09286793446647615,0.4275091147725998,-0.9686337028064215,-0.12190547801443834,0.6283986858901025,1.0005498861650566,-0.1217602547851662,0.6726168901752755,0.7869685860441353,0.0,0.0,0.0,0.0
0.02277191677577668,-0.1754305053959395,0.7484096957627069,-0.01097929588779664,-0.5525570699685467,-0.002939957080714402,0.833397561876651,0.1741584749427479,0.32517495500871924,-0.8183958819807212,-0.08455595948760744,0.4182374055002918,-0.9544736710392685,-0.11548546575726643,0.6282908816926325,0.9884829876140959,-0.11668899385605655,0.6672914791545418,0.7906081752038345,0.0,0.0,0.0,0.0
0.01984648131431276,-0.1785146688526532,0.7488746331756,-0.010159667778711644,-0.5527972262206114,-0.0038423658352429446,0.83324500842082,0.15783971734741503,0.3294847992769349,-0.8315771674945087,-0.07491118049449626,0.40936645780463127,-0.9426786059170185,-0.10414146427475598,0.6262800257405435,0.9751615744220584,-0.10743447339434004,0.6600990399884002,0.7984165208859968,0.0,0.0,0.0,0.0
0.016977481534456846,-0.18196350579703252,0.7490941013818166,-0.009409559705879544,-0.5529799859453898,-0.0046346358122966716,0.8331285107838199,0.14521651923080292,0.33089685603933455,-0.8404713198048939,-0.06471082030177738,0.4011731224221012,-0.9329592713260227,-0.09022407392427387,0.6231540185659081,0.9623267837569691,-0.09569530016331196,0.651583121259112,0.8101251255707992,0.0,0.0,0.0,0.0
0.014387317953795628,-0.1853812178796254,0.7492452825834774,-0.008754800941521397,-0.5531170150755905,-0.005296721064619022,0.8330407348025106,0.13519946615634149,0.3306516282711927,-0.8467130230620415,-0.05495080922927462,0.39415407097903526,-0.9249988064158903,-0.07607949843181312,0.6203732725760014,0.9495983766878421,-0.08333128667508102,0.6437056544928795,0.821955125538154,0.0,0.0,0.0,0.0
0.012086631812813449,-0.18846797698242107,0.7493938425788572,-0.008211032657298837,-0.5532152003435082,-0.005835034734398964,0.8329774747382075,0.12628473045132382,0.329494794672897,-0.8514586366208491,-0.04630213529736551,0.38780762838361177,-0.9175490454684601,-0.0632855584844777,0.6182216547530984,0.9374025416510763,-0.07176480617917927,0.6370507533839488,0.8319943631108782,0.0,0.0,0.0,0.0
0.010065880920375638,-0.19116259923782727,0.7495464993342188,-0.007765096781111629,-0.5532810468802297,-0.006275341107488766,0.832934815294139,0.11763969185471694,0.32807858670776285,-0.8553667072367482,-0.038840767509901154,0.3820357566937087,-0.9104801714110867,-0.05219120367005775,0.6166420349135774,0.9260584192897222,-0.061457139479511425,0.631535484755841,0.8401070745203321,0.0,0.0,0.0,0.0
0.008304338260507796,-0.19347435795478518,0.7496820645582094,-0.0074024075280190865,-0.5533234713999879,-0.00663949389705371,0.83290711215684,0.10874079769295689,0.32697705178833675,-0.8587198104862827,-0.032485240707246565,0.3767929589249128,-0.9038735593153234,-0.04275817308745495,0.6154204262452845,0.9159186070770369,-0.05250553020907384,0.6268782733353542,0.846723127185902,0.0,0.0,0.0,0.0
0.006778765865682093,-0.19544567694524523,0.7497841197465184,-0.007108981244535061,-0.5533512855914947,-0.0069452167809611245,0.8328886966958853,0.09929147915573361,0.3267108425657927,-0.8614880979837043,-0.0270858629832477,0.3720763626881388,-0.8978584940741617,-0.034782090336737306,0.6143840058322512,0.9071506372203123,-0.044814947846033994,0.6228416703389281,0.8523031148372886,0.0,0.0,0.0,0.0
0.005471559315568144,-0.19714992774931792,0.74986339426113,-0.006869829632659618,-0.5533729793798852,-0.007208292685532295,0.8328740550945305,0.0892034436382954,0.32762071587061126,-0.8634243929482174,-0.022426778583373542,0.3679892931395434,-0.892632510953287,-0.027927198975414392,0.6135575522045831,0.8995156347508696,-0.03812956528172606,0.6193691722548951,0.8571073025075356,0.0,0.0,0.0,0.0
0.004374921071815547,-0.19865314272251292,0.7499196919604973,-0.006671770161868164,-0.5533891182354939,-0.007441606647388398,0.8328628901517675,0.07849028010292271,0.32955592121123545,-0.8648160540745052,-0.018320737324397502,0.3646600886722683,-0.8884945129069854,-0.02191272987641326,0.6129284766439308,0.8928549860351999,-0.03221451883008229,0.6163636183987767,0.8614344953771308,0.0,0.0,0.0,0.0
0.0034842462875729827,-0.2000138526211172,0.7499547181392222,-0.006504533628774682,-0.553396803382842,-0.007654263561547804,0.832857179411485,0.0671951843281551,0.3321921052613096,-0.8658707008190107,-0.014607239096555064,0.3622155764663751,-0.885730514436825,-0.016487296928325058,0.6125011973512597,0.886982807206799,-0.026845001380884637,0.6137590806246948,0.8655086808645973,0.0,0.0,0.0,0.0
0.002723050274408687,-0.20124726855767783,0.749977846380266,-0.006360687174205746,-0.5534037513110542,-0.007854006861796702,0.8328518141120541,0.055215257437321356,0.3352475974455667,-0.8668511953575495,-0.011226182074023318,0.36024399481494757,-0.883641501395304,-0.011610105644148425,0.6121998918364373,0.8817398154352063,-0.02198710953943118,0.6114485691992777,0.8692692765515792,0.0,0.0,0.0,0.0
0.0020358788795602446,-0.2023578720299091,0.7499982201066149,-0.006236078239659577,-0.5534105123397115,-0.008044215082595245,0.8328464484908319,0.04250850733180297,0.3385440583598047,-0.8678821898758253,-0.008156374492695679,0.35843343172967457,-0.8817018420790105,-0.00727153484528053,0.6119699762441243,0.8769877922760043,-0.017637634422151317,0.6093658304555329,0.8726083741987507,0.0,0.0,0.0,0.0
0.0013954180202418389,-0.20333039462670913,0.7500243272639485,-0.0061306936868003965,-0.5534151124625756,-0.008222362043552152,0.8328424344708777,0.0292097789756611,0.34199543129373333,-0.8690037446576018,-0.005438465642931295,0.35659844971701826,-0.8795768323554916,-0.0035261267790684023,0.6117856951824465,0.8726730805213093,-0.013857973865562485,0.6075112630537444,0.875366802398348,0.0,0.0,0.0,0.0
0.0007843912960285602,-0.20411336754309783,0.7500640882322207,-0.006049403761551331,-0.5534162489847355,-0.008375081230590777,0.8328407519377135,0.015843019994084363,0.34553071384095274,-0.8703158388765094,-0.003222962099745408,0.3545376456571705,-0.8768615682429238,-0.0005445943434208727,0.6116002443330868,0.8688810099931726,-0.010826912333373673,0.60593909307028,0.8772760856667161,0.0,0.0,0.0,0.0
0.0002215217525353175,-0.20463455196675706,0.7501212067991303,-0.005999509364475399,-0.5534193235883723,-0.008481812322702401,0.8328379896631136,0.003643149268394791,0.3489875307008396,-0.8720160344781253,-0.0017271745585367016,0.3522172116362721,-0.8733815888767579,0.0014374419405012878,0.6113967737644289,0.8658694570978799,-0.00879292562322684,0.6047825615296969,0.8780914614861727,0.0,0.0,0.0,0.0
-0.00015394873150986153,-0.204850107137443,0.7501596445143626,-0.005984876364001495,-0.5534271265435798,-0.008519892004277491,0.8328325211594823,-0.004864347029689896,0.35191689518197006,-0.8742722695518946,-0.0011129568173751012,0.35037503836804545,-0.8704016396206938,0.0023133122719008917,0.611150050741842,0.8643175474643678,-0.00788139370521309,0.6041541362199282,0.8781758381261469,0.0,0.0,0.0,0.0
-0.00015303531179866253,-0.2048520651642538,0.7501579368114507,-0.005986412150247567,-0.5534262440489472,-0.00852173407566612,0.8328330777027209,-0.0048788787101955566,0.3519206144988218,-0.8742694947775647,-0.001105143595102871,0.35037067584426707,-0.8704025593005853,0.002309662139110518,0.6111570047089618,0.8643094213394106,-0.00787731587430432,0.6041455261590984,0.8781833284331623,0.0,0.0,0.0,0.0
-0.00015303531179866253,-0.2048520651642538,0.7501579368114507,-0.005986412150247565,-0.553426244048947,-0.008521734075666117,0.8328330777027209,-0.0048788787101955566,0.3519206144988218,-0.8742694947775647,-0.001105143595102871,0.35037067584426707,-0.8704025593005853,0.002309662139110518,0.6111570047089618,0.8643094213394106,-0.00787731587430432,0.6041455261590984,0.8781833284331623,0.0,0.0,0.0,0.0
-0.00015303531179866253,-0.2048520651642538,0.7501579368114507,-0.005986412150247565,-0.553426244048947,-0.008521734075666117,0.8328330777027209,-0.0048788787101955566,0.3519206144988218,-0.8742694947775647,-0.001105143595102871,0.35037067584426707,-0.8704025593005853,0.002309662139110518,0.6111570047089618,0.8643094213394106,-0.00787731587430432,0.6041455261590984,0.8781833284331623,0.0,0.0,0.0,0.0
-8.95969613307637e-05,-0.2049763836345102,0.7501641423546099,-0.00599175446737655,-0.5534544751946174,-0.008511740931261547,0.8328143808987524,-0.004600889767779829,0.3520652346843771,-0.874291858701919,-0.0008283452414051773,0.3509969228951459,-0.8713033307884553,0.0030006175385172604,0.6114175578019774,0.8639017327283263,-0.007184774568819308,0.6043340454432076,0.878739552809544,0.0,0.0,0.0,0.0
-1.2908251467939346e-05,-0.20516510714690994,0.7501677482520683,-0.005990388484785525,-0.5534831538373064,-0.008507014358813599,0.8327953796526544,-0.004161338032509077,0.35217046177961014,-0.8742074666236175,-0.0003892706413001558,0.3518422365772539,-0.872621218678046,0.00396539371118064,0.6117324945189339,0.8633016149004388,-0.006218396024711057,0.604492128384675,0.8795752628837776,0.0,0.0,0.0,0.0
7.131709099517612e-05,-0.20543018628396945,0.7501662715818442,-0.005986933471141013,-0.553507817721257,-0.00850415368442717,0.8327790413544133,-0.003535182352303761,0.35218138282375727,-0.8739621703162304,0.0002369704921745874,0.35289521428139325,-0.8743646269813496,0.005302892026534747,0.6120650719385005,0.8624613296485659,-0.004875749542550735,0.604593033084531,0.8807453808178325,0.0,0.0,0.0,0.0
0.00018886979035738868,-0.2058258162037966,0.7501577437605785,-0.005975270953548141,-0.5535225524305982,-0.00850700646359758,0.8327693023453588,-0.002589184848317729,0.3521602602666509,-0.873650643241571,0.001184010380686136,0.3544304954247186,-0.8770577978743621,0.007238014623618909,0.6124813345470875,0.8612039452592737,-0.0029274715636145717,0.6046303669457416,0.8824699829288736,0.0,0.0,0.0,0.0
0.0003544215953704562,-0.20641522196091772,0.7501475581862498,-0.005947152046033673,-0.5535283849049538,-0.008526888122906872,0.8327654235533521,-0.001151553505249318,0.3520827264526827,-0.8731445197728435,0.0026245502981463286,0.3566669918703397,-0.8810890324441578,0.0099990760478677,0.6131049492634173,0.8592568600581433,-0.00013644166211353994,0.6046193223669099,0.8849262889802708,0.0,0.0,0.0,0.0
0.0006268409246508325,-0.20728203042895216,0.7501846172810235,-0.005825990381428685,-0.5536340433591758,-0.008766629816639218,0.8326935511167982,0.0013898526527841516,0.35212556169751685,-0.8715731730436063,0.00517282544057698,0.36003311279049693,-0.8868590775780256,0.012738050300025287,0.615013375195267,0.8564264219977259,0.0026375297305894886,0.6047447987063707,0.8880363538212674,0.0,0.0,0.0,0.0
0.0012209805575310562,-0.2080027433561386,0.7501346393976329,-0.0057499052349659395,-0.5535545175603822,-0.008794014594000745,0.8327466601467711,0.003101126780454595,0.3544756023153281,-0.8754312378045147,-0.007292311581232145,0.3533229457970907,-0.8781101325393799,0.01586717794161011,0.6161657854554176,0.8545232967619272,0.0058228579307403345,0.6050722146053558,0.8914073401183848,0.0,0.0,0.0,0.0
0.0019725302682187334,-0.20885777507395153,0.7500867231795185,-0.0056370966978748225,-0.5535269472472213,-0.008930712942405645,0.8327643028962822,0.005361997457546827,0.35750101739306145,-0.8798334066951485,-0.023519590716327417,0.3475576157380555,-0.872274153727712,0.01902636289407788,0.618018732380735,0.8525038279195845,0.00904822200882559,0.6055903227059997,0.8953649906399216,0.0,0.0,0.0,0.0
0.002756192102818761,-0.20988145475567901,0.7500397740355128,-0.005506144368778724,-0.5535184969068241,-0.009121794678527157,0.8327687246877389,0.008149593806654512,0.36037115499807637,-0.8836723825295031,-0.03960317411674829,0.34265298278402745,-0.8684260242375554,0.022735437808444017,0.6201850429113577,0.8499322789703272,0.012857224330797612,0.6060982806062132,0.8999014560200322,0.0,0.0,0.0,0.0
0.0035459543404087242,-0.21103536726540953,0.7499903072689066,-0.005369160172169928,-0.5535111056854551,-0.009324663818201144,0.8327722849894731,0.011283002790816548,0.36299958090983586,-0.8870064436901457,-0.05420549826603642,0.3383140519068874,-0.8656772921950965,0.02704603682023351,0.6224624553041872,0.846844785656665,0.01731908648414239,0.6065957075022523,0.9048717902365718,0.0,0.0,0.0,0.0
0.004343493308061274,-0.21229210062851558,0.7499330677550773,-0.005229729503829015,-0.5535010545334959,-0.0095260475021684,0.8327775735324596,0.014668091299380358,0.36544179033684016,-0.8900034022323998,-0.06723915913720031,0.33434355216291306,-0.8635875832417603,0.0318936880369106,0.6247786810397045,0.84336537362651,0.02238264416571889,0.6070917314629284,0.9102215748945973,0.0,0.0,0.0,0.0
0.005182911211782037,-0.213638591986311,0.7498641166273656,-0.005082971416664185,-0.5534893858524405,-0.009727177345013986,0.8327839126515139,0.01827178700308764,0.3679213231233578,-0.8930339672636037,-0.07908086578806456,0.3306364978271025,-0.8618933165666833,0.037181866533863156,0.627179118552157,0.8396131562316804,0.02796085880120401,0.6076405533771819,0.9159545702240077,0.0,0.0,0.0,0.0
0.006094903951185504,-0.2150870307127858,0.749779135711811,-0.0049227452606029195,-0.5534761430200779,-0.009934766486509266,0.8327912259993954,0.02213544548995673,0.3705908545476686,-0.8963336207077618,-0.09009486258233924,0.32718423846221273,-0.8604488524548972,0.042916600111152975,0.6297235186632041,0.8356080176675389,0.03407396708763919,0.608273654047006,0.9221532464412665,0.0,0.0,0.0,0.0
0.007123164492242498,-0.21666208932191566,0.7496728094072097,-0.004737175459314497,-0.5534618042070215,-0.01016093906872796,0.8327991028872557,0.026339966362410854,0.3736510048417035,-0.9001913141789039,-0.10051403620760925,0.32411944526791386,-0.8590802457250959,0.04911949631190545,0.6325148584726575,0.8313439720447721,0.040761916284678526,0.6090345804680111,0.9289484975705381,0.0,0.0,0.0,0.0
0.00835269916834526,-0.21838095207705466,0.7495387389228033,-0.0045036304266128585,-0.5534418941618898,-0.010423661906620562,0.8328103832037257,0.030955369492518377,0.3775585511180374,-0.9053139422852537,-0.11051724371076166,0.3217182986496496,-0.8574121244674062,0.05570201497870368,0.6357367823482751,0.8268776722606858,0.04795009909844225,0.6100265943844877,0.9364467108650727,0.0,0.0,0.0,0.0
0.009785397368878528,-0.22030149841620794,0.7493748257023535,-0.004212144285813824,-0.5534086869036418,-0.010736903618512771,0.8328299958579718,0.036155643858556456,0.3821864241659598,-0.9114544923698416,-0.12006639117451263,0.3202692486573839,-0.855150325777884,0.06286494938123699,0.6394483747135774,0.8219456317763638,0.055883600590181506,0.6112283751161822,0.9447819931925311,0.0,0.0,0.0,0.0
0.011422362202062697,-0.2224836606084046,0.7491836040516491,-0.003848839057266202,-0.5533503607756715,-0.011118904362232491,0.8328654961235512,0.04212834950040226,0.3873975613566711,-0.9183318121157225,-0.12916484739218748,0.3198597520032827,-0.8518770005442414,0.07077689501217282,0.6437504417827503,0.8161985572325465,0.06479166177288505,0.6126342076828276,0.9540165502653847,0.0,0.0,0.0,0.0
0.01327669844979426,-0.22498547520596482,0.7489654780723215,-0.0033957057762835367,-0.553245490264689,-0.01159159281089032,0.8329306883889986,0.049065233408809285,0.39312571748738173,-0.9258136961488724,-0.1379746497180179,0.3200268364164745,-0.8476963775883373,0.07955486747070564,0.648757436101362,0.8092788697300642,0.07486704529749151,0.6142320005548966,0.9641864185837116,0.0,0.0,0.0,0.0
0.01536694008552501,-0.22784010699442014,0.7487329389972249,-0.002829645468749768,-0.5530793136419897,-0.012183359265863055,0.8330347121728036,0.057111195920881916,0.3993775104035708,-0.9337905832108842,-0.14685477267755032,0.3200486593740673,-0.8424491736299179,0.08913199362262386,0.6546984921774703,0.8008108323885891,0.08611348147166051,0.6160971656145533,0.975128195845838,0.0,0.0,0.0,0.0
0.017714233668464932,-0.23101542065818317,0.7485123952986482,-0.0021259801362574107,-0.5528494607233826,-0.012925257882111749,0.8331781872414845,0.06625737141115978,0.406298106118642,-0.9422827429297709,-0.15642465366366357,0.3191254626906353,-0.8355104728168116,0.09908861905345123,0.6618962525551353,0.7905734557950286,0.09812852131167604,0.6184032416156324,0.9863680222525916,0.0,0.0,0.0,0.0
0.020335812155605287,-0.23433410213523123,0.748316304119359,-0.0012662365493338516,-0.5525806833505904,-0.013838837428750025,0.8333435495708935,0.07612007185248129,0.4142757613328897,-0.951743197460839,-0.16763484907251927,0.31642392383098644,-0.825662162940769,0.10835620675578032,0.6704983849063965,0.7792328026662354,0.10969612720493217,0.621283072980354,0.9972263748780736,0.0,0.0,0.0,0.0
0.023125737505327534,-0.2373420211362113,0.747889416159869,-0.0002638146795323612,-0.5523710845984714,-0.014895303292728259,0.833465203377526,0.08554620251336419,0.42331029006318255,-0.9630932313410574,-0.18172334424725123,0.3108925351266543,-0.8116587933324383,0.11492842489795757,0.6784165121277711,0.7719578564910541,0.1183273350727228,0.6233855391522022,1.00898309265866,0.0,0.0,0.0,0.0
0.025803442606662633,-0.23982927640458274,0.7472768188306924,0.0008358770492908705,-0.5520938377776636,-0.01598001300449452,0.8336284152917686,0.09377660718572392,0.43238893604105477,-0.9755723850063357,-0.19792126076878025,0.30032659426512615,-0.789653983671131,0.11824007277703831,0.6846662286896442,0.7687731970027705,0.12312119500500543,0.6240380513692327,1.020358512538074,0.0,0.0,0.0,0.0
0.028055695456280897,-0.24158618246740207,0.7465308582781154,0.0020459366794118284,-0.5517184942946972,-0.017041476247599406,0.8338537673259013,0.10010405194917583,0.44033577910955357,-0.9875696789581311,-0.21542247192404812,0.2813810072126616,-0.7545616690981582,0.11708511549105038,0.688597771054233,0.7700553368872777,0.12238439194379507,0.6224033180289904,1.0303309048453293,0.0,0.0,0.0,0.0
0.029302142071328675,-0.24239444075018973,0.7457230339247637,0.0033509912209516404,-0.5511773343474505,-0.017957560673885268,0.8341881340405889,0.10359323764325891,0.44462053670064844,-0.9956933353298344,-0.2309457204396352,0.24969621034875683,-0.700161508391359,0.11048345360263506,0.688917946526684,0.775675488500357,0.11477321145358174,0.61702211038884,1.0377015026776557,0.0,0.0,0.0,0.0
0.02937048470050576,-0.2424645386887664,0.7456944878636597,0.0034227006975822006,-0.5511499164735845,-0.017967548144707735,0.8342057431501915,0.10379209854599773,0.4446747974692832,-0.9957484940979106,-0.23099122647240838,0.24969001453236206,-0.7001323405549734,0.11040669872434003,0.6890484360983594,0.7755203277168403,0.11481370286505077,0.6169964367289776,1.0379460790816368,0.0,0.0,0.0,0.0
0.02937048470050576,-0.2424645386887664,0.7456944878636597,0.0034227006975822006,-0.5511499164735845,-0.017967548144707735,0.8342057431501915,0.10379209854599773,0.4446747974692832,-0.9957484940979106,-0.23099122647240838,0.24969001453236206,-0.7001323405549734,0.11040669872434003,0.6890484360983594,0.7755203277168403,0.11481370286505077,0.6169964367289776,1.0379460790816368,0.0,0.0,0.0,0.0
0.0293844149265363,-0.2434684866134463,0.7478386395266742,0.0017760438430459002,-0.5508450252447931,-0.01650208199937106,0.8344424995894066,0.10403971602177471,0.4448899072435297,-0.9928729782688224,-0.23037262988908838,0.25403212011832743,-0.6950798647263187,0.07900971189889863,0.6728458935449144,0.8184540642508316,0.139136738994019,0.6326027618176099,1.021904372311112,0.0,0.0,0.0,0.0
0.029359219083058066,-0.24504732557139453,0.7502953043331965,0.0006378747393464578,-0.5506012900232975,-0.015453596921435154,0.834625064854086,0.10618863322140688,0.4438108822616344,-0.9845524370885007,-0.22781206971104367,0.26072012276129963,-0.6946890965834193,0.04807671626567993,0.6634044013516577,0.8479101435414096,0.1616538726003186,0.6485573280069625,1.0036878379642789,0.0,0.0,0.0,0.0
0.02928689986206098,-0.2469643905741266,0.7525230592674015,-6.111908533642737e-05,-0.5504090211138751,-0.01478189171492273,0.8347642789543952,0.10968243269070785,0.4412880325587932,-0.9731443321791943,-0.22400407153533008,0.26848544416358233,-0.6986067813105193,0.024730402117499637,0.657281565766176,0.8677192630835171,0.18152273092644014,0.6622735168959613,0.9876609846613231,0.0,0.0,0.0,0.0
0.029209089862824576,-0.24903663721955896,0.7544361761000865,-0.0004734787329436995,-0.5502394135154124,-0.014376178189921667,0.8348830391933687,0.1139432521633085,0.43786959046983553,-0.9605190315011761,-0.21954197521166305,0.2767760893202173,-0.7056911291342387,0.006581229619301493,0.6533278864404374,0.8818710241828924,0.19913187349209635,0.6736670741909261,0.974421248507223,0.0,0.0,0.0,0.0
0.02913616548545963,-0.25112332485485417,0.7560662302542467,-0.0007189673169034849,-0.5500778019411928,-0.014119771645650824,0.8349937286867595,0.11844884960927038,0.4339856625920187,-0.9477566890587849,-0.21490622961749395,0.2850291892102836,-0.7143588226294373,-0.008718164371768013,0.6508831419834051,0.8927346229743723,0.2149803348090621,0.6831764418709456,0.9635572971533438,0.0,0.0,0.0,0.0
0.029038628470279406,-0.25311674604227574,0.7574493791316639,-0.0008810874923732679,-0.549913759708593,-0.013934961622128804,0.8351047224226315,0.12282221115786479,0.42980168173287164,-0.935349912451351,-0.21041982795396788,0.2925943477239133,-0.7230485280404769,-0.022757654289488692,0.6493870488582575,0.901576151611633,0.22929050469070106,0.6910635600144822,0.9545951570023616,0.0,0.0,0.0,0.0
0.028840251541823625,-0.2549331370456869,0.7586101311517016,-0.0010200940376409917,-0.5497486528237829,-0.013773456850931632,0.8352159421448837,0.12678836199617996,0.42515775563280395,-0.9231822793976576,-0.20628321971976926,0.2986455876355436,-0.7300545088295909,-0.036574013541809856,0.6483355646248272,0.908953435674206,0.2420698997979624,0.6973639591919607,0.9471915141948041,0.0,0.0,0.0,0.0
0.02855324297036478,-0.2565943090015896,0.7595825067222925,-0.0011544408091065856,-0.5495719282865632,-0.01361932343983091,0.8353345898110817,0.13038581472124255,0.42014532214337175,-0.9113410963122357,-0.202473999691503,0.30341509210225254,-0.7356454969819519,-0.05058151543859118,0.6475828353533614,0.9150894176967959,0.2536312958639891,0.7023023071103955,0.9411123880048967,0.0,0.0,0.0,0.0
0.028185858251779706,-0.2581450329127153,0.760393133219604,-0.0012928046015528308,-0.5493744451778764,-0.01346499460592776,0.8354667806454217,0.1337174071024056,0.4147564517848219,-0.8997342785584294,-0.19890438453230877,0.307172337061339,-0.7402173117905769,-0.06504162869155562,0.6471878407501455,0.9198148979686541,0.26433769720056355,0.7060459068608047,0.9362251179551105,0.0,0.0,0.0,0.0
0.027734879152443645,-0.2596380956252838,0.7610596997332916,-0.0014420891538198552,-0.5491444703106075,-0.01330461948624067,0.8356202835059002,0.13690481352403897,0.40887876051718575,-0.8881406170515633,-0.1954612139857969,0.3101248464173697,-0.7441191532324326,-0.08022683979587499,0.6474518997626995,0.9224753513472407,0.2745669413692801,0.7086751801387796,0.9324765686391154,0.0,0.0,0.0,0.0
0.027203959852036746,-0.26113691335809774,0.7616073826189954,-0.0016047691322360485,-0.5488668501760461,-0.013137444280887792,0.8358050089893124,0.1401017948962688,0.402405984663901,-0.8763071847024742,-0.1920019981138643,0.31256090289380756,-0.7478391999716012,-0.0964146533948513,0.6490048130451406,0.921904555322858,0.2846943840945731,0.7103064485833527,0.9297366779630946,0.0,0.0,0.0,0.0
0.026596951206802742,-0.2626948823277734,0.7620955774689997,-0.0017835704091290576,-0.5485168921164588,-0.01295603534784283,0.8360371876223942,0.14341812498861256,0.3952729448984572,-0.8639728491821017,-0.1884189127898026,0.31474688784096566,-0.7517116540934671,-0.11341983258122226,0.6511128177531765,0.9194308126458544,0.2950007065831901,0.7112115545131171,0.9274647446300552,0.0,0.0,0.0,0.0
0.025898048761761175,-0.2643376407078481,0.7625885805582788,-0.0019922768967043166,-0.5480664491448421,-0.012743158977675731,0.8363353454528875,0.14687936713472327,0.387367350344238,-0.8508565269063987,-0.18467002193921958,0.31671425385571783,-0.7556258390471504,-0.13142391154413713,0.6533237177118378,0.9159481018784488,0.30563693601753533,0.71163944434267,0.9249734262215419,0.0,0.0,0.0,0.0
0.0250974910305986,-0.26607665432209626,0.763141063707185,-0.0022565255104926235,-0.5474741049863094,-0.012471351653215654,0.8367266446396946,0.15047137119046936,0.37865349195654585,-0.836943957141942,-0.18076632153642158,0.31848732295196636,-0.7595070215254521,-0.15141791280137173,0.6554800348168404,0.9121611447721765,0.3167396610860357,0.7117857047568579,0.9215883869321065,0.0,0.0,0.0,0.0
0.02419954250260403,-0.2678874395907901,0.7637830248276004,-0.002620469512707356,-0.5466832815804165,-0.012096531102730587,0.8372479899738671,0.1540875353085116,0.3692920795411741,-0.8227893472962713,-0.1768357400449939,0.32005247060133407,-0.7632941026041806,-0.17577026577669153,0.6577829881366094,0.9088439852299615,0.32838038376828355,0.7117404519950778,0.9167461846696542,0.0,0.0,0.0,0.0
0.023207955559360526,-0.269644275266951,0.7644754564322794,-0.0031573047075360724,-0.54562528976688,-0.01155271152357298,0.8379436791636089,0.15737897832126932,0.35974958834365567,-0.8099411155915763,-0.17327447837894916,0.3210207761597834,-0.7664779122090323,-0.20895279460866997,0.660964932709042,0.9070099864484945,0.3402559191395884,0.7112236306050527,0.9103067200821805,0.0,0.0,0.0,0.0
0.022186265598711237,-0.2710615815510043,0.7650169218721562,-0.003955022499695474,-0.5441921127781748,-0.010697346515770579,0.838883108045796,0.15952357071505782,0.3513811736320583,-0.8025092939254393,-0.17106985076201295,0.32084710060169136,-0.7688043500585762,-0.25678679753404027,0.6666172000380726,0.9073126476420666,0.35170083323473733,0.7092319719611584,0.9033919157782504,0.0,0.0,0.0,0.0
0.021137615044160164,-0.2721009136208076,0.764776975075728,-0.0048235347704311616,-0.5423846940839752,-0.009753101003860584,0.8400597920127826,0.16086008453228026,0.34411429025040174,-0.8022241545211305,-0.17009171983406465,0.3193513912089311,-0.7731810330034836,-0.3177249237262445,0.6728835891608875,0.9107090057734647,0.3605248081877371,0.7018109393763107,0.9024188533401345,0.0,0.0,0.0,0.0
0.0202957554026092,-0.27268258773053017,0.7638073756590974,-0.005391588509758895,-0.5403733361413501,-0.009036154816645565,0.8413595760832216,0.16157083631411237,0.3392723678921836,-0.8091457151924769,-0.1702240521696552,0.31775758507814905,-0.7817089501128472,-0.3779766835498853,0.6752666733023357,0.9185472373138032,0.3634247686609562,0.6895851190577382,0.9073350009325467,0.0,0.0,0.0,0.0
0.020296706358582543,-0.27269881584773503,0.7637885163873258,-0.005414864985151345,-0.5403598545940868,-0.009013560160705154,0.8413683274960374,0.16157728523441883,0.3391578900332679,-0.8091538088535843,-0.1702349283300328,0.3177404518540171,-0.7817510748538147,-0.378026022509308,0.6752797001514111,0.9185567764362286,0.36348288585544414,0.6895369397906469,0.9072463961838416,0.0,0.0,0.0,0.0
0.020296706358582543,-0.27269881584773503,0.7637885163873258,-0.005414864985151345,-0.5403598545940868,-0.009013560160705154,0.8413683274960374,0.16157728523441883,0.3391578900332679,-0.8091538088535843,-0.1702349283300328,0.3177404518540171,-0.7817510748538147,-0.378026022509308,0.6752797001514111,0.9185567764362286,0.36348288585544414,0.6895369397906469,0.9072463961838416,0.0,0.0,0.0,0.0
0.020295325551540067,-0.27296354792893485,0.764157157038822,-0.005574347665528837,-0.541778274284405,-0.008890305015589772,0.8404559421160906,0.16162450566310038,0.33700449059960413,-0.7980796094246217,-0.16927883923896664,0.3169339621256282,-0.772394277602874,-0.37978290537579446,0.6814596814382599,0.9185657302358448,0.37105739729017534,0.696411261310531,0.9081165628847592,0.0,0.0,0.0,0.0
0.020319900489408335,-0.27336795520278284,0.764433153494555,-0.005612398768136994,-0.5427114071155273,-0.008874310582574152,0.8398536040158641,0.1622872592368922,0.3349453113695826,-0.7891944726600125,-0.16804248419549345,0.3172981777092692,-0.7679750110829509,-0.38040837115760945,0.6859762749242553,0.9177306427693046,0.3770147233848758,0.7011657662051201,0.9087976556988421,0.0,0.0,0.0,0.0
0.020432340329449156,-0.27392640155109743,0.7645840448587217,-0.005566886425775939,-0.5432971920982776,-0.008933504237520954,0.8394744566308661,0.16353783442603861,0.3332568407600577,-0.7825590399408949,-0.16651789512154916,0.319178085474565,-0.7684522199479091,-0.3800253787772183,0.6891222018446586,0.9168657056198374,0.3822047955713114,0.7042288374939983,0.9101161185236483,0.0,0.0,0.0,0.0
0.020676289378044964,-0.2747300177393624,0.764551892935513,-0.0054548020508772554,-0.5436725336204831,-0.009049771454774494,0.839230911583866,0.1655471909596282,0.33180845480388976,-0.777554497994278,-0.1645019681834437,0.3229684199670479,-0.7740898461105148,-0.37853667641655375,0.6910862883696866,0.9168358777267241,0.3879575403835026,0.7058967314356472,0.9132847214719797,0.0,0.0,0.0,0.0
0.021096986508412383,-0.27584489407781965,0.7641981967114839,-0.005282736080093752,-0.5439473343893457,-0.00919837068403012,0.8390523106976063,0.16842696960061654,0.33051357758423255,-0.7740857316646779,-0.1618921228441482,0.3289220545621785,-0.7853301121864548,-0.3760089023442258,0.6915622377928774,0.9192778406258655,0.3955434113760862,0.7060041798843973,0.9201946491022057,0.0,0.0,0.0,0.0
0.0216670804742608,-0.27730719884728766,0.763121380111822,-0.005385626209984618,-0.5445419492025927,-0.009068492664728414,0.8386672898293798,0.1718269074117146,0.32858564964482323,-0.7716402834519956,-0.15891304172143753,0.3359760149395168,-0.7990508126087024,-0.3704320858376141,0.6889470544734976,0.9294408320474786,0.41118247547068953,0.7047075623426652,0.9362041267733515,0.0,0.0,0.0,0.0
0.022487546210092836,-0.2788987027755408,0.7636506155268606,-0.006364937264896237,-0.5454161480516064,-0.008028057506315073,0.8381027761025717,0.17404985225137368,0.3285539068912262,-0.7676202755289062,-0.15663746215636226,0.3447822853795256,-0.8049228058922536,-0.3535811774961665,0.6942286789053097,0.9235433265859272,0.3296479341773174,0.6935894042177276,0.92290857785564,0.0,0.0,0.0,0.0
0.023412393368083838,-0.28078277604819796,0.763367850484138,-0.007538119711469965,-0.5465412792942121,-0.0067963233854734005,0.8373706567387597,0.1768105931512054,0.32773897702480087,-0.764855510129162,-0.1540069484840447,0.35435683751049096,-0.8136782871001977,-0.33400807473489547,0.6956019539397793,0.9258127873842219,0.2519963567747116,0.6821744859074296,0.9151988419299759,0.0,0.0,0.0,0.0
