zhuoxili-jackie/tripod-support-walk/examples/trajectory_tripod_lowstep_v0.10.csv
root_pos_x,root_pos_y,root_pos_z,root_rot_x,root_rot_y,root_rot_z,root_rot_w,FL_hip_joint,FL_thigh_joint,FL_calf_joint,FR_hip_joint,FR_thigh_joint,FR_calf_joint,RL_hip_joint,RL_thigh_joint,RL_calf_joint,RR_hip_joint,RR_thigh_joint,RR_calf_joint,FL_foot_joint,FR_foot_joint,RL_foot_joint,RR_foot_joint
0.0,0.0,0.72963,0.0,-0.5231245161092812,0.0,0.852256264656019,0.0,-0.81,0.872,0.0,-0.81,0.872,0.0,0.65,1.0,0.0,0.65,1.0,0.0,0.0,0.0,0.0
1.62189114547175e-05,7.51332452213971e-05,0.729625031511647,3.173546309541424e-06,-0.5231180046678567,0.00013149986629390237,0.8522602512672017,-0.0005535651531207226,-0.8105035514844077,0.8726041853025517,-0.0005535651531207226,-0.8097808702577471,0.8718204292234479,0.00030631829070883665,0.6497208502841378,1.0001458599762754,0.0003063182907088324,0.6502929187005155,0.9998890564317063,0.0,0.0,0.0,0.0
3.936912241532178e-05,0.00016843308156473243,0.7296139622811532,-2.1001096958711016e-05,-0.5231181257707075,0.00025535456815785297,0.8522601485715149,-0.00111432075881814,-0.8110985224050445,0.8733557266447926,-0.0011140740184346948,-0.8095004034563834,0.871572305930023,0.0006113543006128176,0.6494375041798504,1.0004189534798842,0.0006122326766423492,0.6506072884880177,0.9997768540779234,0.0,0.0,0.0,0.0
6.830432823809248e-05,0.0002651852671328007,0.7295970606673394,-4.886089924943176e-05,-0.5231196675812565,0.0003794317573019644,0.8522591548548069,-0.0016822424069815867,-0.8117475705630242,0.8741842916545668,-0.0016814633253328908,-0.8092452884300221,0.8713629434646556,0.0009173424752508116,0.6491425868407436,1.0007536290772951,0.0009197117578707922,0.6509189550489451,0.9997045535902918,0.0,0.0,0.0,0.0
0.00010132626796834372,0.00036050531056257105,0.7295743774482542,-7.209797074070982e-05,-0.5231190162765462,0.0005069559072771368,0.8522594866632165,-0.002259314440599528,-0.8124430195130332,0.8750639814715588,-0.002257749860420913,-0.8090487367780984,0.871225954591721,0.001226017756515367,0.6488238151077009,1.0011251857926056,0.0012304877090395464,0.6512117444907236,0.9996839632435842,0.0,0.0,0.0,0.0
0.00013489677039937335,0.00044805222360862684,0.7295466254818683,-8.009214845835038e-05,-0.5231107171892173,0.0006419362939460284,0.8522644889145768,-0.002847507022000742,-0.8131704506837154,0.8759513300556556,-0.002844976581624573,-0.808949296840356,0.8711947272944042,0.0015393505965691139,0.648462625521599,1.001495497678608,0.0015466673326388733,0.6514615956253388,0.9997240286625869,0.0,0.0,0.0,0.0
0.00016216448611888314,0.0005077378179439122,0.7295184869402521,-4.062321498663799e-05,-0.5230837241623977,0.0007951724390859669,0.8522809299561637,-0.003446776491973976,-0.813861728838186,0.8767144237084612,-0.0034433375714192187,-0.8090473188564121,0.8713787955718493,0.0018603590798041134,0.648043647565451,1.0017325483532118,0.001871761007401308,0.6516305240245436,0.9998385239119757,0.0,0.0,0.0,0.0
0.00017347304473450887,0.0004725319281052027,0.7295112266784369,0.00014985845086352054,-0.5230461826074666,0.0009966614049274581,0.8523037457786075,-0.0040372417587293515,-0.8140670146656683,0.876778172255223,-0.004033812928303856,-0.809459368534167,0.8720042987135993,0.0021864627768679212,0.6477087470832948,1.0014309854236156,0.0022049800971035848,0.6517674198353828,1.000097990226726,0.0,0.0,0.0,0.0
0.00026604218266602556,0.00022603380845682768,0.7295233822190023,-1.645684140386016e-05,-0.5230904263823347,0.0006216759143991829,0.8522769614834002,-0.002271033075180479,-0.8134099037829937,0.8764890309011389,-0.007264766685997538,-0.8097071743266324,0.8697891538822046,0.0025195615455687243,0.6487232999588954,1.0008192054105545,0.002533703996101088,0.6516444573588834,1.0005096250293424,0.0,0.0,0.0,0.0
0.00041238735042663634,-0.00014688830578639156,0.7295272993618612,-2.5425696847752128e-06,-0.5231162911248897,0.0002896407112284607,0.8522612639687043,-0.0004213135004341327,-0.8126427000197858,0.8761215395440558,-0.01055662074360187,-0.8116115838886706,0.8687746780565767,0.002856087578894205,0.6499103024840925,0.9997557877092874,0.0028691682195810912,0.6514953750903046,1.0013485105637616,0.0,0.0,0.0,0.0
0.0005889520838662834,-0.0005554675362502283,0.7295227362679496,7.165748164776079e-05,-0.5231281774315653,-2.0324214845601163e-05,0.8522540140294209,0.0014180839679101523,-0.8119885156624299,0.8759286644344758,-0.013849449223652914,-0.8137379983514675,0.867538724679307,0.0031974996111388447,0.6511290383247683,0.9985779433782619,0.0032113365524303965,0.6513439452896383,1.0023371867710973,0.0,0.0,0.0,0.0
0.0007868949080492432,-0.0009722023559414982,0.7295078345248102,0.00016286861378595507,-0.5231338148873491,-0.00032180316294184395,0.8522504805736091,0.0032436671151225807,-0.8114746237599908,0.8759417151777603,-0.01714197473824765,-0.8158373639401697,0.8661940807233635,0.003541583951534146,0.6523476352177483,0.9974248533176332,0.0035575449182313652,0.6511928052044136,1.003416837613751,0.0,0.0,0.0,0.0
0.0010006273110340896,-0.001390060414040841,0.7294834211378229,0.0002580271763078515,-0.5231369442453451,-0.0006203889567638649,0.8522483711367017,0.005061914773731662,-0.8110760168180132,0.8761245734263703,-0.020436305540848996,-0.8178691221349652,0.8648275362139224,0.003886824562026733,0.6535612618398164,0.9963287095302916,0.003906088467047797,0.6510414738572086,1.0045653721098353,0.0,0.0,0.0,0.0
0.0012274351623468955,-0.0018086825403984812,0.7294511222459672,0.000354124827122498,-0.5231389597077228,-0.0009188591918860159,0.8522468299321001,0.00688173911473616,-0.8107664720382721,0.8764431936975342,-0.023734922030466676,-0.8198526881343297,0.8634577150957189,0.004231959057450598,0.654776039077785,0.9952833697862935,0.004255629916978184,0.6508909672544276,1.0057696790772979,0.0,0.0,0.0,0.0
0.0014670672844841516,-0.0022298397041339547,0.7294122427113351,0.000451362927396663,-0.5231404309298434,-0.0012191076867527374,0.8522455042852931,0.00871284916912962,-0.8105295973929921,0.8768808776768984,-0.027040382517989302,-0.8218158688624,0.8620772152244217,0.004575709011450456,0.6560032913074658,0.9942740177508692,0.0046048890244787715,0.6507444052459814,1.0070231306145205,0.0,0.0,0.0,0.0
0.0017211121643864297,-0.0026560242507729626,0.7293673454176366,0.0005510260329170719,-0.5231415168040217,-0.0015227449895443164,0.8522442906901726,0.010565295646325416,-0.8103602191943623,0.8774384228720342,-0.03035529027137549,-0.8237644961288179,0.8606761278101753,0.004916711476906229,0.6572557828672981,0.9932873696945119,0.0049525560982329395,0.6506052596796308,1.0083257528208482,0.0,0.0,0.0,0.0
0.0019923344470287635,-0.00309005604367784,0.7293161697054928,0.0006548934460006261,-0.5231419315716901,-0.0018312558971767144,0.8522433555316548,0.012449344619429276,-0.810262935819887,0.8781299522928568,-0.03368230490332943,-0.8256563839220419,0.859256635393335,0.005253522927847677,0.6585449870364218,0.9923143249713662,0.0052972903951226755,0.6504752412082452,1.0096840388656674,0.0,0.0,0.0,0.0
0.002283990629566202,-0.00353488802635425,0.729257726187868,0.0007649472525065909,-0.5231408784668568,-0.0021460753090041594,0.8522431756801543,0.014375421397481247,-0.8102493612895775,0.8789772776335865,-0.03702417735307066,-0.8273741652202294,0.8578491462497012,0.005584634759432221,0.6598791979065982,0.9913502728175375,0.005637731974040527,0.6503527293880047,1.0111098374895762,0.0,0.0,0.0,0.0
0.002599248288497144,-0.00399327804187285,0.7291905908691588,0.0008828587146090727,-0.5231372800231092,-0.0024687430640910096,0.8522443969415091,0.01635405374533907,-0.8103340884574566,0.8800041446413988,-0.040383817156518134,-0.828704118992905,0.8565328045248167,0.005908463332833972,0.6612636138984063,0.9903946130952922,0.005972477872336317,0.6502332868406336,1.0126175011256617,0.0,0.0,0.0,0.0
0.0029411550110326626,-0.004467324470463679,0.7291135316047431,0.0010092274667178568,-0.5231306719888524,-0.0028011678458152996,0.8522472850899038,0.018395888497923375,-0.8105291364685877,0.8812326395225857,-0.04376440424395253,-0.8293476729073185,0.855450290607059,0.006223273113472912,0.6627053702662975,0.9894486269770343,0.006299976533130166,0.6501151555845976,1.01421840434759,0.0,0.0,0.0,0.0
0.0033138980435380313,-0.004958537371469116,0.7290263999749813,0.0011435963082154369,-0.5231227952156126,-0.003145717188383787,0.8522507481819296,0.020512026177846455,-0.8108378975922249,0.8826850808552541,-0.04716949355002494,-0.8290182785635988,0.854776064076672,0.0065270115105517095,0.664226029871079,0.9885091797194058,0.0066183545798149685,0.6500113062725541,1.0159150992751838,0.0,0.0,0.0,0.0
0.003724798020416325,-0.005470606499679614,0.7289287371431382,0.0012886853742163382,-0.523114666963999,-0.003503979883887333,0.8522541326518306,0.022715034574104606,-0.8112756118026468,0.8844061925618927,-0.05060321007114286,-0.8277033478350856,0.8544999160077621,0.006817490766960419,0.665855125700685,0.987563315980784,0.006925763866298368,0.6499393947564118,1.017715542686596,0.0,0.0,0.0,0.0
0.004184068310623185,-0.006009743198929673,0.728820152531384,0.0014509354267682182,-0.5231065337970074,-0.003876602051877289,0.8522572505070279,0.025019084517573446,-0.8118651875336904,0.886457557653841,-0.05407030366357456,-0.8256584703935956,0.8544230976208033,0.0070923624397686924,0.6676315297495556,0.9865833599801955,0.007220433556843994,0.6499227383408146,1.0196306781701554,0.0,0.0,0.0,0.0
0.0047020124786125985,-0.006582507688365985,0.7287025521345847,0.001637157607829418,-0.5231007147324834,-0.004264276306437552,0.8522586332263902,0.02743908563055206,-0.8126074196469811,0.8888823786487746,-0.057576036607957654,-0.8231340633345039,0.8543629931091624,0.0073489354343414075,0.669611965326421,0.9855226346843377,0.007500401177222557,0.6500015011960139,1.0216550271304616,0.0,0.0,0.0,0.0
0.0052863642233480414,-0.007196379062287676,0.7285803923906203,0.0018554582570785422,-0.5230998915892145,-0.004667386127381788,0.8522565788544821,0.02999040620503002,-0.8134741007229639,0.8916847517404557,-0.061126151608257066,-0.820269135918825,0.8541687205981893,0.007584379406403586,0.6718601190748527,0.9843098210201644,0.007763777472611769,0.650221143960582,1.0237655166307402,0.0,0.0,0.0,0.0
0.005940023219406046,-0.007860943206544997,0.7284616050958619,0.0021170954857577173,-0.5231060390266163,-0.005085414356553329,0.8522498039902447,0.03268879386710664,-0.8143947651302511,0.8948049749589737,-0.06472683400822835,-0.8170733408023094,0.8536817368884432,0.0077958551541656386,0.6744422570375227,0.9828360070909542,0.008009007788190747,0.650626372209808,1.025917472686602,0.0,0.0,0.0,0.0
0.006657934994369584,-0.008588576277429637,0.7283589934927024,0.0024375383194135997,-0.5231201136573135,-0.005516607858634177,0.8522376265642317,0.03555001188185759,-0.8152355367919295,0.8980851059388667,-0.06838471423274765,-0.8134463115625061,0.8526773687279176,0.007980587881120606,0.6774240965567297,0.9809418249011377,0.008235083055164374,0.6512567897853873,1.0280373030248968,0.0,0.0,0.0,0.0
0.007421931908419009,-0.009392921665318096,0.7282904056967381,0.002834136530918815,-0.5231428550442558,-0.005958622940700793,0.8522194645154025,0.038588453297406705,-0.8157750587880511,0.9012243115276961,-0.07210686154984752,-0.8092086228822781,0.8507966042402588,0.008135872866506072,0.6808568000906874,0.9784285295432945,0.00844154240058242,0.6521344949624447,1.030023397759294,0.0,0.0,0.0,0.0
0.00819194539799515,-0.01028016767453516,0.728271019842558,0.003312874919066702,-0.5231787641859591,-0.0064122615889458294,0.8521924010843667,0.04181290102899972,-0.8157006267662053,0.9037370024120606,-0.07590055751421139,-0.8041319642777648,0.8474724219164727,0.00825890739438604,0.6847165726992821,0.9751792676146255,0.008627612084709942,0.6532158360054511,1.0318040063897813,0.0,0.0,0.0,0.0
0.008887674699596285,-0.01121790076304105,0.7282694480850882,0.0038221977000541083,-0.5232467948365921,-0.006893968187824586,0.8521447387038192,0.04521274659188435,-0.8147304519047704,0.9049682990736144,-0.07977146665829869,-0.7979517431629454,0.8418063480481556,0.008346740525622629,0.6886382136167817,0.9717245612743991,0.008788803892326813,0.6541762007765408,1.033667439923984,0.0,0.0,0.0,0.0
0.009372489076192128,-0.01206625753998207,0.7281212952869626,0.004154012095666848,-0.5233813473300575,-0.007460016862164345,0.8520557831497295,0.04872309422175249,-0.8131097020273599,0.9044804720718196,-0.0837159483953644,-0.7901718763614288,0.8320203514770487,0.008399382348587621,0.6913821624697789,0.9703330854218859,0.008910789876857369,0.6540020091286487,1.0368304283465102,0.0,0.0,0.0,0.0
0.009599262080313904,-0.012582606617309403,0.7278326027057858,0.0039672319907509725,-0.5235591205289742,-0.008180047847367712,0.8519408401987038,0.05214797162760111,-0.8118273061230026,0.9034604817633949,-0.08765691056019968,-0.7786277685657147,0.813618375601761,0.00843603676508433,0.6925330516740715,0.9718693906090007,0.008983116968760571,0.6526678907278776,1.040486926182902,0.0,0.0,0.0,0.0
0.009620447984419382,-0.012622631293481477,0.7278239177076637,0.00397972356303942,-0.5235462435888625,-0.008209589320198725,0.8519484111538368,0.052326140856966664,-0.8118322542773395,0.9034938868817685,-0.08789655537833627,-0.7785783674754457,0.8136263383668086,0.008433526382168797,0.6926102298405108,0.9717715521383198,0.008990019854350538,0.6526006845675857,1.0406000206782675,0.0,0.0,0.0,0.0
0.009620447984419382,-0.012622631293481477,0.7278239177076637,0.00397972356303942,-0.5235462435888625,-0.008209589320198725,0.8519484111538368,0.052326140856966664,-0.8118322542773395,0.9034938868817685,-0.08789655537833627,-0.7785783674754457,0.8136263383668086,0.008433526382168797,0.6926102298405108,0.9717715521383198,0.008990019854350538,0.6526006845675857,1.0406000206782675,0.0,0.0,0.0,0.0
0.00961798395303541,-0.01282496457672329,0.7284187413899943,0.0035858274112424635,-0.5231346822783608,-0.007933801814038048,0.852205550808061,0.052357379866595395,-0.8129559191240572,0.9051302859298533,-0.0879131802603743,-0.7785924781201666,0.8151327052462101,0.0025563484553078313,0.6835582846448011,0.9875009449327056,0.014885165980064636,0.6557191754742,1.035572418534965,0.0,0.0,0.0,0.0
0.009702995187278627,-0.013158224892644897,0.7291986744436558,0.0033752804533236478,-0.5228329409721815,-0.007624940905654873,0.8523943826612339,0.052481733746347146,-0.8126962331331019,0.9059247355256567,-0.08780537314726689,-0.7785273441679813,0.8176034425219383,-0.0033195890101760895,0.6773530073245045,0.9991283388878496,0.020692112982754477,0.6601549873802386,1.0293716384609626,0.0,0.0,0.0,0.0
0.009828174878703608,-0.013565024530144692,0.7299816081899585,0.003268017669947948,-0.5226157125096996,-0.007306871921658276,0.8525307893098104,0.0526908330572224,-0.8117743612800674,0.9061465825799772,-0.08760106550665075,-0.778547426888704,0.8205131319420079,-0.009194204384183483,0.673428108530245,1.0080907597387752,0.02641899934255802,0.6648915007005824,1.0234194757042812,0.0,0.0,0.0,0.0
0.00996441436931763,-0.01400785970428551,0.7307082821634524,0.0032090951869095663,-0.5224574276540828,-0.006994571276979676,0.8526306433443566,0.05297378051319358,-0.8105453496035855,0.9059684796448706,-0.08731749299069869,-0.7786399243324832,0.8235140441546422,-0.015074406076662439,0.6709971375515105,1.0155523723437518,0.03207966785074286,0.6695140675412375,1.0181203793073241,0.0,0.0,0.0,0.0
0.010092535233895712,-0.014467097810299293,0.7313652828788801,0.0031690848616683876,-0.5223370067145232,-0.0066947007879879445,0.8527069773955241,0.05332079128697138,-0.8091702243523432,0.9054672225650503,-0.08696613689847443,-0.7787694486999123,0.8264086991739705,-0.020967245317831652,0.6694449468704864,1.0221682397991962,0.03768722271508631,0.6738532920401576,1.0135293574525686,0.0,0.0,0.0,0.0
0.010185382457700443,-0.014924212357826955,0.7319535419229428,0.003118997352748492,-0.5222405767718679,-0.0064128360718020815,0.8527683902221144,0.05371874603779096,-0.8076815180071966,0.9045784069876773,-0.08655486333957318,-0.7787739600513799,0.8288610387671984,-0.026879824890589883,0.6683153409387963,1.0282569490477649,0.04325444066311614,0.6778029869610814,1.0095956391068075,0.0,0.0,0.0,0.0
0.010244941626339309,-0.015378881117589302,0.732482295078066,0.003057564030514932,-0.522158233065768,-0.006147362928948183,0.8528209899344962,0.05416358246232267,-0.8061254268406339,0.9033719956061457,-0.08609011752287564,-0.7786939367796804,0.8309402560095225,-0.032819174187471184,0.6673850982561127,1.0340249252789637,0.0487916908540955,0.6813869214287402,1.0062242038718165,0.0,0.0,0.0,0.0
0.010275481739346368,-0.015832635191915963,0.732961093441164,0.0029864124454294723,-0.5220844797885729,-0.005896139555994255,0.8528681685014028,0.05465219947093201,-0.80452302615939,0.9019015677708208,-0.08557670343137627,-0.7785624683427628,0.8327229954316632,-0.03879238104733823,0.6665431284535578,1.039570852325203,0.05430864766222111,0.6846492685405758,1.0033252530291903,0.0,0.0,0.0,0.0
0.010277534324267295,-0.016286653658197175,0.7333955417034144,0.002906592243274326,-0.5220152433081976,-0.005657269396825248,0.852912441448937,0.055181529669240274,-0.802881794275707,0.9001832307323815,-0.08501835245088729,-0.7783933930325888,0.8342395701786548,-0.04480658372224079,0.6657434604096543,1.0448782074510876,0.05981499779687322,0.6876087399198554,1.000848170267089,0.0,0.0,0.0,0.0
0.01024547710473398,-0.01674181756391917,0.733786283730177,0.002818436371591895,-0.5219462132287646,-0.005428944865359537,0.8529564663394147,0.055748352375596236,-0.8011970436280301,0.8981833680793162,-0.08441786225419846,-0.7781821437258826,0.8354616477261844,-0.050868989586395644,0.6649871286065263,1.0497949482454152,0.06532084725102738,0.6902413884051212,0.998791900053727,0.0,0.0,0.0,0.0
0.010165195056024439,-0.01719931987756395,0.7341294152140398,0.0027221017653921635,-0.5218710474310598,-0.005209010712600483,0.8530041419727007,0.05634915703753977,-0.7994475592097569,0.8958021639795264,-0.08377704292058943,-0.7779054124684859,0.8362925594869802,-0.05698690022436467,0.6643302613338972,1.0539749427129872,0.07083719878137976,0.6924698790626095,0.9972031990043255,0.0,0.0,0.0,0.0
0.01001149330306412,-0.01766146422079069,0.7344184779432033,0.002618128986532079,-0.5217790100110515,-0.004994356397305635,0.8530620531454165,0.05697989516498863,-0.7975875889531617,0.8928541801032025,-0.08309662276246131,-0.7775177613255577,0.8365560920028874,-0.0631677330988483,0.6639308157504017,1.0567671114914912,0.07637666858849677,0.6941580860605238,0.9961594344524117,0.0,0.0,0.0,0.0
0.009745999690897292,-0.018130863808758182,0.7346517492772786,0.002505160447013417,-0.5216534890911869,-0.0047809602410541635,0.8531403776104487,0.05763490376804808,-0.7955265174746015,0.8890505795845565,-0.08237594312094687,-0.7769193075548775,0.8359636089422101,-0.06941903281260547,0.6641314111937925,1.0571068617763928,0.08195395955685172,0.6951358615939022,0.9956975122279677,0.0,0.0,0.0,0.0
0.009330395084130924,-0.018611931402369275,0.7348478723230042,0.002382025553990574,-0.5214743389028463,-0.004563442892090577,0.8532514370389717,0.05830767875887473,-0.7931229440435608,0.8840791815021646,-0.08161315466362161,-0.7759683074485434,0.8342209103216941,-0.07574757114917113,0.6649122456645863,1.0548987110474792,0.08758407351050296,0.6953198909075184,0.9956620442799319,0.0,0.0,0.0,0.0
0.008735381520198123,-0.01911561673431712,0.7350493770244965,0.0022549980317998044,-0.5212159266377715,-0.004333063554806694,0.8534108608186539,0.05899327309600509,-0.7902063572843633,0.8776638661656673,-0.080805846421184,-0.7745507485867922,0.8311570823951235,-0.08215940658985074,0.6659083101224497,1.0510354890472757,0.09328244107749084,0.6947509874774754,0.995671568357603,0.0,0.0,0.0,0.0
0.007920863102074278,-0.01965617131114139,0.7353095707028077,0.0021309257827755892,-0.5208402282264588,-0.004078116931669042,0.8536417777842238,0.05968590229226379,-0.7865771543514507,0.86944906551367,-0.0799514052017743,-0.7725349331617098,0.8265490185173684,-0.08866087345303261,0.6669072844965253,1.0460039160886947,0.09906751180235741,0.6934553654660466,0.9952348915512708,0.0,0.0,0.0,0.0
0.006835745189882541,-0.020251981337624392,0.7356863675743653,0.002017253873970443,-0.5202927113811567,-0.0037830714072742615,0.8539772324489568,0.06037959598154503,-0.7820444330401729,0.8590191866627882,-0.07904864782330301,-0.7698134575050658,0.8201510641804768,-0.0952586509017192,0.6677041585861083,1.0399709074732193,0.10496103127903016,0.691406998480557,0.9937957841774847,0.0,0.0,0.0,0.0
0.005423591010297572,-0.020924493152598353,0.7362399382207556,0.0019191886829612909,-0.519499463044562,-0.003428694295844994,0.8544617420731233,0.06106888164983609,-0.7764812482376624,0.8459732032766568,-0.07810015545511313,-0.7663471464792958,0.8117574166380139,-0.10195983649993373,0.6679590473722827,1.032881607462252,0.11098746464705884,0.688535235800197,0.9907248223403353,0.0,0.0,0.0,0.0
0.0036361113736468518,-0.021694944625076432,0.737027013743676,0.001834274936696439,-0.5183650052196718,-0.0029934524750559015,0.8551522648285192,0.06175052689239168,-0.769937322764671,0.8300961023375413,-0.07711618931657657,-0.762250561419482,0.8013368115170147,-0.10877199464936439,0.6670738569177836,1.0245325433096057,0.1171720913538006,0.6847495727963171,0.9853190443175008,0.0,0.0,0.0,0.0
0.0014614554074357032,-0.022576721185625925,0.7380819583258406,0.0017432078967439338,-0.5167736437434172,-0.002457802887292137,0.8561167686497839,0.0624278490894134,-0.7628766537463205,0.8117285650417833,-0.0761213998980808,-0.7579727818812632,0.7893148353300923,-0.11570313566810365,0.6641642396492526,1.0146781812347125,0.1235359959418041,0.6799629770026272,0.9768958413742342,0.0,0.0,0.0,0.0
-0.0010185850185288493,-0.023563445357363957,0.7393567878691812,0.0016010182160947433,-0.5145905113387725,-0.0018125905766625098,0.8574326544377544,0.06312376837486865,-0.7567465392461914,0.7925960921620891,-0.07516808713960046,-0.7547913951779156,0.7772691318690739,-0.12276179711777277,0.6583590652464332,1.0031788635671217,0.13008564112887697,0.6739971877470848,0.9652426154175728,0.0,0.0,0.0,0.0
-0.0034982271978243624,-0.024593806884729456,0.7405755891240828,0.0013011938492999834,-0.5116128221281154,-0.0010790839797092677,0.8592144451220757,0.06391393751601933,-0.7557206670554699,0.778206468800686,-0.0743811059450097,-0.7562573261748876,0.7698404352588617,-0.12996072701218458,0.6499422614369499,0.9893469626958472,0.13680068720927407,0.6661144319950456,0.9517160180324047,0.0,0.0,0.0,0.0
-0.005693625930440203,-0.025587839468189155,0.741174057815482,0.0007391845323628128,-0.5076727282439635,-0.0002976586328575394,0.8615496306092274,0.06489928964828984,-0.7648480607691712,0.7746658982613606,-0.07389332344833148,-0.7666295013436041,0.7719001794839803,-0.13731466575151988,0.6384097804174278,0.9721049007397001,0.14361820767462213,0.6540851605841693,0.9406159675758794,0.0,0.0,0.0,0.0
-0.0074300726780262396,-0.026372861073150546,0.7409055952249739,-0.00029168636640650045,-0.5028481473229213,0.0004329367083224665,0.8643746110447575,0.06610559964154768,-0.7862928439745247,0.7851864568248484,-0.07376810358328076,-0.7864849196177202,0.7841569991585827,-0.1447637244223316,0.6224322526893025,0.9550768994178943,0.1503391833881251,0.6374365510790855,0.9338220970919348,0.0,0.0,0.0,0.0
-0.0074394632349154485,-0.02642244192123443,0.740827213728231,-0.000363613554849001,-0.5028308539128262,0.00047597831080885256,0.8643846213249796,0.06615995876847992,-0.7864955842366903,0.7849564701409428,-0.07374947008984063,-0.7866206608870298,0.7840970054992619,-0.1452354193227381,0.6224278256793052,0.9550742030879695,0.1506744749556525,0.6375029480518198,0.9337361885017946,0.0,0.0,0.0,0.0
-0.0074394632349154485,-0.02642244192123443,0.740827213728231,-0.000363613554849001,-0.5028308539128262,0.00047597831080885256,0.8643846213249796,0.06615995876847992,-0.7864955842366903,0.7849564701409428,-0.07374947008984063,-0.7866206608870298,0.7840970054992619,-0.1452354193227381,0.6224278256793052,0.9550742030879695,0.1506744749556525,0.6375029480518198,0.9337361885017946,0.0,0.0,0.0,0.0
-0.0077084729392102565,-0.026547713358928925,0.7414111843122119,-0.00033270739701869896,-0.504585205182065,0.00029908716902479694,0.8633617842851435,0.06658124327607444,-0.7714900325399636,0.7691141777140565,-0.07257180080828349,-0.7731965241524046,0.7701482770556207,-0.14740054518274226,0.6295416255256334,0.9540103059216752,0.15184816786741295,0.6441498881543727,0.932615308169803,0.0,0.0,0.0,0.0
-0.008126421811274907,-0.026689172228916376,0.741875581206555,-0.00027718445916604154,-0.5057108184625959,0.00012961819645739234,0.8627030047807821,0.06708472629822676,-0.7596062687541001,0.7551912388103247,-0.07150420156649882,-0.7630598393751834,0.7584000678543862,-0.14878432819014675,0.6340332337935721,0.952383435245066,0.1522957394627422,0.6480308785917956,0.9312844234415836,0.0,0.0,0.0,0.0
-0.008626882523328914,-0.026831493466508646,0.7422656420771723,-0.00022061040373726982,-0.5063179715385958,-3.880938633120696e-05,0.8623468336591276,0.06765605155672964,-0.7505930152455453,0.743529048658294,-0.07052676152841517,-0.7558097485610891,0.7489637618523718,-0.14946218474549097,0.6365338233898105,0.9501287221239015,0.15207935370365283,0.6498701677398421,0.9294483740932106,0.0,0.0,0.0,0.0
-0.009105579071971981,-0.02700130962234837,0.742643806908997,-0.00012278130817079731,-0.5064394131900398,-0.0001950152240718184,0.862275517257414,0.06830767474208423,-0.7446085141252058,0.7349841824588043,-0.06963231416769108,-0.7518720640990925,0.7430746734022701,-0.14949866678237053,0.637757222948906,0.9465930703237306,0.1512568934806703,0.6503775476682797,0.9265584374919489,0.0,0.0,0.0,0.0
-0.009225912808171807,-0.027224804389239795,0.742987249343283,5.674105703380196e-05,-0.5059324609161883,-0.000327339717437354,0.862573031470641,0.06911765524808693,-0.7446095056129602,0.7344430882725157,-0.06888929244742739,-0.7544426581951515,0.7459473252013207,-0.14898160346430714,0.6382309573974676,0.9413506911795052,0.14990941400558955,0.6500553243528059,0.9223284662187152,0.0,0.0,0.0,0.0
-0.008952387033251812,-0.027590996845748242,0.7430185225842935,0.0004552821344238373,-0.504663311749673,-0.0003944875523875665,0.863316036496254,0.07014823228290719,-0.7521626752967169,0.7431444427169678,-0.06833274540123581,-0.7659429317473432,0.7600370309583202,-0.14789842589786606,0.6363934804684139,0.9364144821267226,0.14803111620406137,0.6471814631248314,0.9194220509344507,0.0,0.0,0.0,0.0
-0.008279623069602835,-0.028066101587394098,0.7420666319544993,0.0010319413677724234,-0.5024665434390069,-0.00040056355793828573,0.8645959445719752,0.07146469640771055,-0.770549840077405,0.763388630198247,-0.06807294310846554,-0.7891609398577777,0.7868149284900149,-0.14636736524357982,0.6283934654780076,0.9380561146632063,0.1457455154395887,0.6379085640925811,0.9240209361424321,0.0,0.0,0.0,0.0
-0.0057285242710735295,-0.028897618759501857,0.7418632569835732,-0.0001689053708231708,-0.5081046018933127,0.0003652712637509901,0.8612952754907679,0.07177805077624311,-0.7518981798318334,0.7556784593412219,-0.06674535179469397,-0.7685058318155917,0.780615367846166,-0.1400657654875574,0.6466181232509294,0.9516028272015642,0.13804051539148854,0.6526869979201017,0.9528788414668841,0.0,0.0,0.0,0.0
-0.0029141524619146603,-0.029699181588458166,0.7407111177567105,-0.0010835553915223275,-0.5124047824639275,0.0010518029810947247,0.8587427196351056,0.07242898110026866,-0.7455586323449749,0.7604296899183091,-0.06578637653448297,-0.7611006235210979,0.7875034375548428,-0.13378053954598076,0.6587846820977112,0.9686680040136149,0.13044300215661045,0.6618208212831999,0.9774571402847904,0.0,0.0,0.0,0.0
0.00013366614331224418,-0.03057637879593889,0.7392780896708211,-0.0015617184973942277,-0.5153657172171389,0.001690456890167911,0.8569672577806584,0.07336594262263177,-0.7487583852117243,0.7756256876221719,-0.06507845733781643,-0.7652541458259922,0.8070779147955248,-0.1275609163018604,0.6678342037631554,0.9832533129945187,0.12301517684048369,0.6690046711239775,0.9952720624987351,0.0,0.0,0.0,0.0
0.0028528603732858584,-0.031413768346236326,0.738055468734827,-0.0018242035438221368,-0.5174601894759964,0.0022378519976227,0.8557024112431455,0.0743706590856881,-0.7541150925811281,0.7915338327303525,-0.06443755791179821,-0.7723061687676336,0.8278597677092954,-0.12139025643547938,0.6751706742548034,0.9934181109266239,0.11573580889741283,0.6729408154833781,1.0088988061074273,0.0,0.0,0.0,0.0
0.005103107046463669,-0.032184883288920045,0.7371323111048125,-0.0019690832175145822,-0.518927652209244,0.0026985355446696897,0.8548116356190986,0.07536820312729435,-0.759344284612076,0.8053085787332253,-0.06380845405354328,-0.7795085909000257,0.8464540872671004,-0.11526739092592576,0.6810024785868438,0.9997282838723577,0.10859567895000236,0.6743997403161857,1.0194809319807157,0.0,0.0,0.0,0.0
0.006881207793524485,-0.03288200084682974,0.7364799279482487,-0.002064960305762111,-0.5199470310466437,0.0030854995642255593,0.8541904357560761,0.07632411234294524,-0.7636978387859041,0.8162441143846042,-0.06317345948395772,-0.78583243813455,0.8618783869179449,-0.1091951157226371,0.685439966362967,1.0032210400243045,0.10158592609671493,0.6743853958471463,1.0279369442379744,0.0,0.0,0.0,0.0
0.008241540117802792,-0.03351158391895222,0.7360442163093365,-0.0021480671370189518,-0.5206509248146663,0.003415131756308414,0.8537601168784441,0.0772247386615109,-0.7670053930173419,0.8244299233413802,-0.06252954436748513,-0.790994401023382,0.8741674505642281,-0.10317551530262449,0.6886728790625929,1.0047509183940049,0.09469823049874765,0.6736214162442928,1.0349294113493424,0.0,0.0,0.0,0.0
0.009256417914088079,-0.03408588734300424,0.7357696279117866,-0.002233904635162248,-0.5211350391247731,0.003703231187719801,0.8534632779125721,0.07806731234153577,-0.7693327488471122,0.8302354535108155,-0.061880095689325815,-0.7950368345629129,0.8837364634703302,-0.09720880729862988,0.6909115265400952,1.0049586533911448,0.08792479700540372,0.6725136512974381,1.0408717779122856,0.0,0.0,0.0,0.0
0.009996570970025995,-0.03461824566072314,0.7356039433209639,-0.0023264977898310433,-0.5214676306971435,0.003963434070527914,0.8532586880504118,0.07885429487617944,-0.7708362740745086,0.8340882911157182,-0.061231035175145186,-0.7981340711864493,0.8910936049883079,-0.09129331827517415,0.692329606643632,1.0043465132070182,0.08125828343304933,0.6712538905778752,1.0459681717612865,0.0,0.0,0.0,0.0
0.010521420678578097,-0.03512117036940801,0.7354978618136021,-0.00242369719303877,-0.5216967699660664,0.0042069432759996575,0.8531171710422678,0.07959012259610922,-0.7716935800007855,0.8363696599411647,-0.06058882148305391,-0.8005011394474987,0.8967102071639448,-0.08542569566459976,0.6930303548373936,1.0033464910897627,0.07469171894836578,0.6699315298626366,1.0502296843889327,0.0,0.0,0.0,0.0
0.010874268049259075,-0.03560610261244081,0.7354041580115681,-0.0025195232137391597,-0.5218556453143113,0.0044429067163236895,0.853018521508337,0.0802792333774867,-0.7720627177587498,0.8373568505017854,-0.059959295230022115,-0.802346882811149,0.9009600377270913,-0.07960111861301905,0.693033433846503,1.002359969887621,0.0682184480017016,0.6686230726441154,1.0534454013845274,0.0,0.0,0.0,0.0
0.011087603022971255,-0.036080787975088235,0.735279895159197,-0.0026101236042024548,-0.5219669746489217,0.004677843362584144,0.8529488744421307,0.08092517171773769,-0.7720992208088997,0.8372813163467536,-0.05934855519947965,-0.8038582715420908,0.904135268265236,-0.07381411676048638,0.692310107388705,1.001754405144459,0.06183209279438691,0.6675001168774786,1.0551155905534422,0.0,0.0,0.0,0.0
0.011197555031445724,-0.036544007672306714,0.7350938935539357,-0.0027033569182459715,-0.5220458042082007,0.004913900816381877,0.8528990114595938,0.08153069267414663,-0.7720239450697755,0.8364951397027777,-0.05876559984934789,-0.8052078877488539,0.906529529050971,-0.06805970127396316,0.69086875952272,1.0018016536868743,0.055526492792295164,0.6669763781002068,1.0543769612868135,0.0,0.0,0.0,0.0
0.011225562380782822,-0.036999797578231956,0.7348342173987016,-0.0027961274691899207,-0.5221029391673834,0.005154722266108317,0.8528623168028442,0.08209649440281115,-0.7719096893095932,0.835147729790225,-0.058214863434259065,-0.8064867628043504,0.9083251388072818,-0.062330339760016756,0.6887514790313399,1.0025888719910852,0.04929478706927167,0.6670641841094063,1.051288856571689,0.0,0.0,0.0,0.0
0.011191153409742912,-0.037451917166738305,0.7345078219588521,-0.002884364344465362,-0.5221458801030875,0.005403543917856498,0.8528341937603278,0.08262195886261468,-0.7717763560464145,0.8333573857090142,-0.05769946046625775,-0.8077361349605401,0.9096761047323014,-0.05661709750467343,0.6860733598192614,1.00402622954475,0.043129321070343896,0.6674110347065169,1.0468433842500535,0.0,0.0,0.0,0.0
0.01110514701104729,-0.03790288949914519,0.7341265192459033,-0.0029648249150832804,-0.5221772369178861,0.005662875275615222,0.8528130363107951,0.08310481909450766,-0.7716154772756307,0.8311810812592182,-0.05722221282392057,-0.808963211887528,0.9106660509747792,-0.0509103826598562,0.6829307662192315,1.0059837123142348,0.03702259852418941,0.6678583047937205,1.041638544679223,0.0,0.0,0.0,0.0
0.010966628135412488,-0.038355350117647215,0.7336983287274504,-0.003033613570276471,-0.5221952893039622,0.005935203276069449,0.8527998888247635,0.08354137686265842,-0.7713928333677204,0.8285845877329369,-0.05678564311110779,-0.8101558256077287,0.9112966720794714,-0.04519999674587128,0.6793534870591643,1.008370840962309,0.030967263800329606,0.6683402881586981,1.0359664961652324,0.0,0.0,0.0,0.0
0.010764839586461688,-0.03881317660360863,0.7332254064233077,-0.0030849390616186027,-0.5221953036712392,0.006223664644173355,0.8527976395212906,0.08392679623809951,-0.7710517463602327,0.8254487051754663,-0.05639213165391886,-0.8112945584987739,0.9115076111212828,-0.03947529529240871,0.6753053897675868,1.0111516578384159,0.024956078788748424,0.668834595458373,1.029905547368507,0.0,0.0,0.0,0.0
0.010484282672846958,-0.039281659120912915,0.7327054500725363,-0.00311119227882122,-0.5221715615200792,0.006532310514625012,0.8528097734791897,0.08425536618777485,-0.7705223397588797,0.8216052363705029,-0.05604437283908535,-0.8123610813234209,0.9112118366755587,-0.033725665009187965,0.6707130428401168,1.0143283274780228,0.01898190703998817,0.6693606833464362,1.02337510727908,0.0,0.0,0.0,0.0
0.010119201648820013,-0.03976280436865609,0.7321367706543888,-0.003110481073134348,-0.5221232007240256,0.0068642712192049544,0.852836778026031,0.08452072839224814,-0.7697718916681083,0.8169789311978523,-0.055747326442398146,-0.813337336159502,0.9103645085594378,-0.027942312035697393,0.6655485007475531,1.0179049013978283,0.013037732409027966,0.6700394576302533,1.0161935583043507,0.0,0.0,0.0,0.0
0.009726237635998485,-0.04022486035654857,0.7315236637304836,-0.0031334501453053583,-0.5220548350476566,0.007208737925147703,0.8528757030136791,0.08471927803884706,-0.76922855427996,0.8123599134012767,-0.055522455057043375,-0.8143099764723198,0.9092704754667226,-0.02212347012128621,0.6600019771518348,1.0218843089464886,0.007116263949982502,0.6713096494419708,1.0081154187060095,0.0,0.0,0.0,0.0
0.009340574907887459,-0.04064479536796628,0.7308756363618154,-0.003215734871440153,-0.5219829542831146,0.00755764773717954,0.8529163713095143,0.08484440904430705,-0.769077650287955,0.8081821028401913,-0.055382438356605806,-0.8152197452293738,0.9080161117913718,-0.01626692660672905,0.6542578178732842,1.0262447625383693,0.0012103526927579149,0.6736904330177967,0.9985599275341986,0.0,0.0,0.0,0.0
0.009013902120336481,-0.0409775390166817,0.7302298844509171,-0.0034255904351567544,-0.521938958316944,0.007892674378432675,0.8529394438131876,0.08488479625293817,-0.7695348776619158,0.8050959249377388,-0.05534215157355346,-0.8158221647292004,0.9065943238152036,-0.010372341002831933,0.6487078651024745,1.0308053810928544,-0.004686537248672655,0.6778906246972918,0.986542465569504,0.0,0.0,0.0,0.0
0.00881404761080194,-0.04117530710874574,0.7297327265225592,-0.0038330350996576097,-0.5220136150264301,0.008191505694059109,0.8528892031227896,0.08482068889035013,-0.7702139068844389,0.8034239328696021,-0.05539294216458605,-0.8152652359002543,0.9046700778475275,-0.004443706763810325,0.644461713741017,1.0345333601721374,-0.010576278709312676,0.6848228784735175,0.9708718605832609,0.0,0.0,0.0,0.0
0.008823527649461328,-0.041194596770540715,0.7297229059972609,-0.0038505749988777577,-0.5220280395222395,0.008211048817007849,0.8528801074606381,0.08482595349989007,-0.7702036828919925,0.803392261139733,-0.05538570440414989,-0.8152423369164308,0.9047136069476998,-0.0041012922383857845,0.6444041350505912,1.0345228364344854,-0.010942948947502876,0.6848229353343834,0.9708679620929379,0.0,0.0,0.0,0.0
0.008823527649461328,-0.041194596770540715,0.7297229059972609,-0.0038505749988777577,-0.5220280395222395,0.008211048817007849,0.8528801074606381,0.08482595349989007,-0.7702036828919925,0.803392261139733,-0.05538570440414989,-0.8152423369164308,0.9047136069476998,-0.0041012922383857845,0.6444041350505912,1.0345228364344854,-0.010942948947502876,0.6848229353343834,0.9708679620929379,0.0,0.0,0.0,0.0
0.008741464119622845,-0.04166476826652568,0.7299985748252049,-0.004159231511993788,-0.5224079716870099,0.007423876632712793,0.8526532108464943,0.08054671009839472,-0.7832263997938081,0.827381070581271,-0.051737738721657586,-0.8138230003649304,0.9037104706810093,-0.003987047639220175,0.6476870898410515,1.0320192488111188,-0.010917345125650476,0.6855244013597256,0.9701640684699273,0.0,0.0,0.0,0.0
0.00841274771858204,-0.04255443180577767,0.7300770172716899,-0.0038247746783649037,-0.5226448207580191,0.006826527328250369,0.8525146104074196,0.07627355086873816,-0.792164192597083,0.8406002889225305,-0.04801226401891074,-0.8144471585289613,0.9039500138199249,-0.0038199288658266827,0.6491258769870478,1.0298613889930064,-0.010829949009876931,0.6838340424989404,0.9728644839894443,0.0,0.0,0.0,0.0
0.007837347769693916,-0.04355152901395651,0.7300213876842553,-0.0032832236259653664,-0.5228070311571176,0.0063241137709449,0.8524212774211556,0.07209208892653046,-0.7990514996999182,0.8481159818889766,-0.044417208515945814,-0.8151024751453635,0.9030062428269793,-0.003616259656012253,0.6489966266972288,1.0286082232472389,-0.01068699066795875,0.6805351451144701,0.97734934861575,0.0,0.0,0.0,0.0
0.007145018518644981,-0.044496107995767364,0.7300017470865593,-0.0027695651247289926,-0.5229175848232456,0.005854031389116228,0.8523586447664732,0.0680060228894894,-0.8044961815456544,0.8524266392609932,-0.041019863619727134,-0.815064609009054,0.9007908427340354,-0.0033915598471094535,0.6484629219693894,1.02717241357037,-0.010497547839875538,0.6770482654791704,0.9813315066785004,0.0,0.0,0.0,0.0
0.006426769927070735,-0.0453487440886762,0.7300489337603163,-0.0023450745185377604,-0.5229899027513961,0.005397701881689182,0.8523185596125337,0.0640096592864086,-0.808896346081622,0.8548644529697478,-0.037834278206835124,-0.8144515358366428,0.8978407704936382,-0.003149638981261225,0.6479651115639221,1.0253392805891932,-0.010271312673602867,0.6738561581645282,0.9843155625336584,0.0,0.0,0.0,0.0
0.0057324451062113774,-0.046115692569833944,0.7301395815790536,-0.0020037776175754443,-0.5230373298371347,0.0049542684234601085,0.8522930198567203,0.06009484785526564,-0.8125878741180641,0.8562082318212432,-0.034851598885553066,-0.8135492320456138,0.8946514755637679,-0.002890622292291173,0.6475884531623817,1.0232744285104982,-0.010016227247102185,0.6710163794928401,0.9865227895287838,0.0,0.0,0.0,0.0
0.005088357072204558,-0.0468115263055845,0.7302506991477641,-0.0017269908075831103,-0.5230704630568107,0.004526341699885525,0.8522756716057898,0.05625340563817332,-0.8158275046702572,0.8569198237198128,-0.032056469503952294,-0.8125764912594751,0.8915554714649243,-0.002614675824631623,0.6473434156763762,1.0211346064564824,-0.009737980825918069,0.6685059263780191,0.9882171425504644,0.0,0.0,0.0,0.0
0.004505710037775059,-0.04744950845854595,0.7303671766303323,-0.0014979207809607434,-0.5230961632721695,0.004116003788257622,0.8522624118873745,0.05247758813245048,-0.8187831902249169,0.8572680375451246,-0.02943213291987719,-0.8116656511681003,0.8887383268343613,-0.002322585912861912,0.6472197811821788,1.0190199223294376,-0.00944061302000542,0.6662865147787369,0.98959130821489,0.0,0.0,0.0,0.0
0.003986087308208744,-0.04803994993179682,0.7304803135436505,-0.0013042417263125201,-0.5231180677633317,0.0037240879549973434,0.852251088178819,0.04876015839438455,-0.8215226240557686,0.8574160390422638,-0.026962062307676334,-0.8108839943455575,0.8862797978459768,-0.0020156019187448724,0.6471980027789146,1.016986267541499,-0.009127087714776369,0.6643161472030467,0.9907703174194142,0.0,0.0,0.0,0.0
0.0035250271651162297,-0.04859070218089248,0.7305854926211411,-0.001137355467762332,-0.5231373507623618,0.0033503973179353015,0.8522410418993499,0.04509437696679068,-0.8239993004355142,0.8574850493962671,-0.02463041705666378,-0.8102567213344751,0.8841901993652757,-0.00169521520560168,0.6472520038559424,1.0150615069361066,-0.008799661320414934,0.6625503089395253,0.9918327329186699,0.0,0.0,0.0,0.0
0.003114253024748134,-0.049108153571151184,0.7306805966309039,-0.000990842278308162,-0.5231535734725158,0.0029941676161449786,0.8522325925208464,0.04147399701523778,-0.8260442753724319,0.8576013205721609,-0.022422070634941164,-0.809782778342442,0.8824358775914409,-0.0013629893576073036,0.6473514959094139,1.0132554333814858,-0.008460099204214342,0.6609426135837032,0.9928283456100613,0.0,0.0,0.0,0.0
0.0027433645138243536,-0.049598223239948586,0.7307653458682556,-0.0008588914181963975,-0.5231658955761561,0.002654552373211219,0.8522262970380744,0.03789329907733088,-0.8273887535718684,0.8579222478115123,-0.020322533217374643,-0.809443014625363,0.8809564059022805,-0.001020434406699905,0.6474677448087862,1.0115630329538379,-0.008109827201953995,0.6594491708301272,0.9937887846547484,0.0,0.0,0.0,0.0
0.002402026910712998,-0.05006669846983518,0.7308412268832615,-0.0007357221135923795,-0.5231748467939118,0.0023308376193087663,0.8522218640654151,0.034347147124574796,-0.8277660350595714,0.858610830519346,-0.01831808013638434,-0.809202935513874,0.8796789299638728,-0.0006689276383501821,0.64758457518786,1.0099655191465717,-0.007750112356513632,0.6580391725548022,0.9947311019967,0.0,0.0,0.0,0.0
0.0020826694744454912,-0.05051714029906055,0.7309094366667575,-0.0006187557598221912,-0.5231801363810495,0.002021544334892724,0.8522194995399472,0.030831110710254437,-0.8271781501544495,0.8596709128191431,-0.01639675348991055,-0.8090377714410908,0.8785488011242348,-0.0003099209810735837,0.6476893119573033,1.0084494255517436,-0.007382243921824722,0.6566885979728077,0.9956622521107399,0.0,0.0,0.0,0.0
0.0017807574960156422,-0.05095113204256998,0.7309706895081541,-0.0005082133541778215,-0.5231807773207037,0.001724548590440399,0.8522198319057415,0.02734138753961194,-0.8258997224345621,0.8609520939255549,-0.01454822148148584,-0.8089354035007676,0.8775342288733116,5.508374009661305e-05,0.6477729100468355,1.0070078232853221,-0.007007587120278393,0.655380112698709,0.9965820293373242,0.0,0.0,0.0,0.0
0.0014927287435163787,-0.051370816574914754,0.7310267921535539,-0.0004032618181873932,-0.523177584990897,0.0014381770371264823,0.8522223791885594,0.023874611109404427,-0.82421806308003,0.862322400290119,-0.012762653366909429,-0.8088766881360747,0.8766044202865625,0.0004247583087722,0.6478394795712474,1.0056243922585884,-0.006627481341522737,0.6541092142077432,0.9974850389364713,0.0,0.0,0.0,0.0
0.0012149469384011224,-0.05177904791380926,0.7310799579242502,-0.00030184853470217513,-0.5231718083998701,0.0011612117974296322,0.8522263897405625,0.02042774204928225,-0.8223389457878995,0.8637053220826183,-0.011030540790480185,-0.808840925882814,0.8757287124450741,0.0007978884281302574,0.647896456590635,1.0042772812293599,-0.006243152852439355,0.6528740209954587,0.9983657080484238,0.0,0.0,0.0,0.0
0.0009440938549185403,-0.05217902351221672,0.7311322665726394,-0.00020129117365230107,-0.5231644892412495,0.0008927029959893987,0.8522312360857041,0.016997968254285067,-0.8203737745378431,0.8650726191202418,-0.009342764320953285,-0.8088119029901728,0.874882795225903,0.0011733242810013148,0.6479512950159987,1.002943612779334,-0.005855730168380107,0.651672378389504,0.9992201761319954,0.0,0.0,0.0,0.0
0.0006783705629299938,-0.05257394974947725,0.7311854304922253,-9.87820833851451e-05,-0.5231564165079547,0.0006318267890245879,0.8522364430740825,0.013582647673234603,-0.8183605805765004,0.8664273040942136,-0.007690718563855501,-0.8087838995195639,0.8740596183517916,0.0015499612514164925,0.6480135394174147,1.0016016306323394,-0.005466311130240457,0.6505043946444105,1.0000460353080534,0.0,0.0,0.0,0.0
0.00041912658762653936,-0.05296661584971716,0.7312407785453622,7.9925941133074e-06,-0.5231483513077151,0.00037772461685928226,0.8522415501395433,0.010179290339028138,-0.8162953938572239,0.8677854048383199,-0.006066517946291405,-0.8087673595485001,0.8732823836097646,0.0019267307013883903,0.6480997815064515,1.0002314304301716,-0.005076059618902539,0.6493780512886842,1.0008400202935308,0.0,0.0,0.0,0.0
0.0001727392290752898,-0.05335811741971903,0.731299363399473,0.0001189698830544662,-0.5231412230449876,0.00012899650794179394,0.8522459914584888,0.0067856024074156255,-0.8141691435157804,0.8691522524380438,-0.004463552496072395,-0.8087921768017478,0.8726151518818234,0.0023025623445569318,0.6482391991600772,0.9988173726749707,-0.004686351485582613,0.6483166429458258,1.0015913854417902,0.0,0.0,0.0,0.0
-4.76238207015627e-05,-0.05374349571392599,0.731361956388843,0.00022523296902818258,-0.5231361004175702,-0.00011806447053143842,0.8522491160281648,0.003399811480183714,-0.812020729520131,0.870487027522102,-0.0028783385984346528,-0.8088991747127016,0.8721554800152418,0.002676250846919684,0.64847527260436,0.9973622034952845,-0.004299067503914249,0.6473668983709223,1.0022651906928959,0.0,0.0,0.0,0.0
-0.00022095066662063971,-0.054097482917469825,0.7314276631281573,0.0002883052740089306,-0.5231356489202249,-0.0003747576419661792,0.852249299950193,2.3597799715122016e-05,-0.8100723010736968,0.8717420673261711,-0.0013183360550438135,-0.8090816916082546,0.8719545938402827,0.0030462145994679993,0.6488545678786798,0.9959524723628925,-0.003917364890907005,0.6466097685456661,1.002767542521163,0.0,0.0,0.0,0.0
-0.0003114355337668335,-0.054328955464193585,0.7314812529814321,0.0001886082762789593,-0.523148099401593,-0.0006618642676384386,0.8522415106383344,-0.003285687795800474,-0.8096192567710372,0.8741835093547193,0.0001218880543529359,-0.80915012272686,0.8718260807133406,0.0034133996868974757,0.6493440651984583,0.9950265922749836,-0.0035445846727538734,0.6461796723064007,1.002916197662483,0.0,0.0,0.0,0.0
-0.000310030208851684,-0.054327567485234866,0.7314806672713149,0.0001870633330240187,-0.5231471193917285,-0.0006614541033750773,0.8522421128751589,-0.0034942976215132904,-0.8096111016536227,0.8741791448229497,0.00011773204857041262,-0.8091536455345424,0.8718314466671188,0.0034154642030634493,0.6493414899408108,0.9950311263173023,-0.003541963761135907,0.6461816218334574,1.0029129104560224,0.0,0.0,0.0,0.0
-0.000310030208851684,-0.054327567485234866,0.7314806672713149,0.0001870633330240187,-0.5231471193917285,-0.0006614541033750773,0.8522421128751589,-0.0034942976215132904,-0.8096111016536227,0.8741791448229497,0.00011773204857041262,-0.8091536455345424,0.8718314466671188,0.0034154642030634493,0.6493414899408108,0.9950311263173023,-0.003541963761135907,0.6461816218334574,1.0029129104560224,0.0,0.0,0.0,0.0
-0.000310030208851684,-0.054327567485234866,0.7314806672713149,0.0001870633330240187,-0.5231471193917285,-0.0006614541033750773,0.8522421128751589,-0.0034942976215132904,-0.8096111016536227,0.8741791448229497,0.00011773204857041262,-0.8091536455345424,0.8718314466671188,0.0034154642030634493,0.6493414899408108,0.9950311263173023,-0.003541963761135907,0.6461816218334574,1.0029129104560224,0.0,0.0,0.0,0.0
-0.0002723350804606606,-0.054176173497384024,0.7314619405599019,0.0001867990102931928,-0.5231374741585838,-0.0003883755040421429,0.8522482017590737,-0.004627058659913887,-0.8106731150796412,0.8754469958856339,-0.0010151967495706307,-0.8087204597159604,0.8714896388725227,0.004118118445447875,0.6487312546828674,0.9953983463245952,-0.0028367230965906515,0.6467815028818076,1.002783990927988,0.0,0.0,0.0,0.0
-0.00023165667423661576,-0.05399054473196329,0.7314280630864503,0.00013302472237280153,-0.523138758310446,-0.0001322581902614037,0.8522475018242055,-0.005765556693619441,-0.8118700909510834,0.8768988104414067,-0.0021526433605485273,-0.8081386658138175,0.8709278693230788,0.004814495496113769,0.6480631640116954,0.9960491774125744,-0.0021358705875167347,0.6473672500849045,1.0026883936718425,0.0,0.0,0.0,0.0
-0.0001871215503032261,-0.05379872852360684,0.7313803641446875,7.094481830178343e-05,-0.5231377616922052,0.00012222711095846549,0.8522481225083665,-0.006910864426959526,-0.8131662407506836,0.8784521184222917,-0.0032955437813011945,-0.8076063040238549,0.8703994085276349,0.005509620611802298,0.6473283779585116,0.9968390873122578,-0.001433984652919294,0.6478980237787492,1.0026881713802491,0.0,0.0,0.0,0.0
-0.00014156631351127996,-0.053611151751959144,0.7313175904710209,1.8143511109671224e-05,-0.5231255489799255,0.0003819711378914631,0.8522555448768371,-0.008067253455648892,-0.8145621349270902,0.8800700976240119,-0.004448311727951154,-0.8072097925722733,0.8699928913232816,0.006207356747515903,0.6464938309119928,0.9977235019916595,-0.0007262368351594928,0.6483321722380121,1.002817851121687,0.0,0.0,0.0,0.0
-0.00010172336448340189,-0.053444157515444596,0.7312385212693352,1.4178143506729643e-06,-0.5230871711982097,0.0006569570524865669,0.8522789330572919,-0.00923860985907014,-0.8160500840847558,0.8816770503228644,-0.005615160262181375,-0.8070761012135785,0.8698283499266293,0.006912191338561827,0.6455029666556874,0.9986271822128953,-5.7580903860491445e-06,0.6485976886151676,1.0031241859148319,0.0,0.0,0.0,0.0
-7.869092738763069e-05,-0.053350306945884905,0.7311454013096279,0.00010424283200784951,-0.5229941943670501,0.000975166683820771,0.8523356796718832,-0.010423628337403212,-0.8175216114336538,0.8830155124320778,-0.006795957559935354,-0.8075332712044048,0.8702749295636277,0.007630405480632506,0.6442912897827915,0.9992885208375948,0.0007400655840038366,0.6485689863746171,1.0037291197853357,0.0,0.0,0.0,0.0
-1.9339833721188304e-05,-0.05353693847975187,0.7310277690465569,0.0006476883407556378,-0.5228054272845041,0.0014318361678692534,0.8524505941970295,-0.011569398371740335,-0.8186858564636631,0.8836714831888173,-0.00794229729159888,-0.8100315358911575,0.8733905675963951,0.008353881311325632,0.6430028072488596,0.9989292239591707,0.0015194429013149864,0.6481065709593417,1.0053355520472014,0.0,0.0,0.0,0.0
0.00030460235304436496,-0.05398390875198448,0.7310923664838238,0.00024730370358781804,-0.5229927404172163,0.0006654157926302389,0.8523368404179132,-0.008062744581867084,-0.8176115036665619,0.8841928020155744,-0.01432385622128445,-0.8081821405230857,0.868675502890596,0.009071532668030551,0.6458399065292199,0.9975886870325953,0.0021927893578600564,0.6487654255980677,1.005710704235291,0.0,0.0,0.0,0.0
0.0006700536327665139,-0.05471359941805054,0.7311071920070087,0.000249666850540475,-0.5230885010793042,-2.2369692091807826e-06,0.8522783334686307,-0.004377513311264873,-0.8162829969615011,0.8840828061109612,-0.020830590529651815,-0.8094096831025788,0.8669534628057258,0.009795243541329744,0.6485579760870611,0.9954654744630476,0.002896225378941805,0.6488622047247826,1.007286562006071,0.0,0.0,0.0,0.0
0.0010630234938625548,-0.05553241503205516,0.7310968522425477,0.0003979163412191534,-0.523121304148532,-0.0006185012035155883,0.852257918863055,-0.0007050585074550621,-0.8151542006295934,0.8840782636966006,-0.027339457398429808,-0.8109876505723177,0.8649451959213711,0.010528848402435367,0.6511320190214598,0.993068604609939,0.0036221381076578076,0.6487219684199624,1.0092473393031576,0.0,0.0,0.0,0.0
0.0014861192763499843,-0.05637653617959382,0.731059621286595,0.0005920898395745012,-0.5231248260628772,-0.0012156319546527035,0.8522550017601874,0.0029490785139577205,-0.8143020553499986,0.884385056125324,-0.03384791690564454,-0.8125373357158098,0.8627458287216908,0.01126577394893676,0.6536086426604119,0.9907139306150573,0.00435806430990682,0.6484709134557016,1.0114438021364869,0.0,0.0,0.0,0.0
0.001939501097825758,-0.057226962490466,0.7309970111208857,0.0007987169872427408,-0.5231157564657873,-0.0018073605976821239,0.8522593506885513,0.006598066235007283,-0.8137008249410965,0.8850210878053529,-0.04036058511274383,-0.8140208251479198,0.8604931437826201,0.01200170666971317,0.6560316255527612,0.9884951903009369,0.005097213724453888,0.6481678554082239,1.0138233911212549,0.0,0.0,0.0,0.0
0.0024231162907472877,-0.05808066043335199,0.7309126545273907,0.001008509501834517,-0.5231009893497964,-0.0024002323314008256,0.8522667286328875,0.010259421690419056,-0.8133096370280439,0.885961672956222,-0.04688286436335144,-0.8154699544304274,0.8582244412477981,0.012733540761637602,0.6584402470661139,0.9864085441745089,0.005835557948882651,0.6478453403429755,1.0163510180258413,0.0,0.0,0.0,0.0
0.002938034270085905,-0.05894013207056612,0.7308099739436793,0.001220534461604541,-0.5230833746382083,-0.0029983273388348923,0.8522753683557334,0.013952145456141454,-0.8130944721187461,0.8871830876558174,-0.05342034765917571,-0.8169191804360006,0.855937134983819,0.013458501502675765,0.6608698546189976,0.9844219068545754,0.006570070194492922,0.6475242605451885,1.0190035423205699,0.0,0.0,0.0,0.0
0.0034867187168696927,-0.05980974570561252,0.7306911952032566,0.0014366373869498898,-0.523064067465926,-0.0036049448883623057,0.8522845309938292,0.017695917608054567,-0.8130335938697374,0.88867453939379,-0.05997876521517974,-0.8183757945884881,0.8536222184414884,0.014173801208600057,0.6633514902047026,0.9825018898661935,0.00729801839471157,0.6472185056217555,1.0217700730873243,0.0,0.0,0.0,0.0
0.0040728373434224755,-0.060694563497093436,0.730557203033355,0.0016596737383551682,-0.5230433064541282,-0.004223130172612404,0.8522940280373671,0.021510895128750335,-0.8131171110022032,0.8904387778303138,-0.06656401422226149,-0.8197968303345835,0.8512813435944845,0.014876526557531456,0.6659118324431511,0.980621193402818,0.008016737774475766,0.6469366196379326,1.0246507078024625,0.0,0.0,0.0,0.0
0.004700845620637976,-0.06159994665126804,0.7304077796322598,0.0018929122355943605,-0.523020703256212,-0.004855849749111816,0.8523040429165286,0.025417694668321108,-0.813343836809132,0.8924880726333804,-0.07318222212787687,-0.8210641278613113,0.8489429666859394,0.015563599212325573,0.6685736184506307,0.9787588316197481,0.008723570976643382,0.6466828319222196,1.027653791116307,0.0,0.0,0.0,0.0
0.00537556421100051,-0.06253123700807112,0.7302421143960846,0.002139521447223078,-0.5229956689404484,-0.00550616206036361,0.8523148684006837,0.02943743234532485,-0.8137161478588453,0.8948385374061824,-0.07983984492373027,-0.8219637490527975,0.8466824544288717,0.016231736104186503,0.6713578161499381,0.9768978862475443,0.009415797614129652,0.6464595934571932,1.0307913369976034,0.0,0.0,0.0,0.0
0.0061022204138041075,-0.06349340407350433,0.7300597153102655,0.002401940276794163,-0.5229684531631319,-0.006177477078476651,0.8523262676088381,0.033591882982060964,-0.8142325474491423,0.8975053596636465,-0.08654380721283543,-0.8221957091902299,0.8446363384061509,0.0168773538762495,0.6742908130693436,0.9750205188336558,0.010090429518886161,0.6462749072195353,1.034071554040651,0.0,0.0,0.0,0.0
0.006887667602920745,-0.06449141796619659,0.7298617537836707,0.002682296353947635,-0.5229417937473138,-0.006873581119364505,0.8523364591059138,0.037904001893585865,-0.8148782172619438,0.9005013643659576,-0.09330162240503462,-0.8214656763720194,0.8429685590325368,0.01749637031431009,0.6774195868288116,0.9730962268217982,0.010743905665990596,0.6461563591848051,1.0374899642186066,0.0,0.0,0.0,0.0
0.007742189690920263,-0.0655338510567172,0.7296504598061925,0.0029879434373147914,-0.5229179856447633,-0.007596989296400243,0.8523439084294958,0.042399113793939715,-0.8156375778510769,0.9038499625968682,-0.10012172713415853,-0.8197371355047648,0.841648175301901,0.018084232554894678,0.680809540500162,0.971065347330473,0.011372848134498754,0.6461442705921762,1.0410389327852823,0.0,0.0,0.0,0.0
0.008679160249136331,-0.06663408794235708,0.7294302871007359,0.003333330587769105,-0.5228987733586143,-0.008348405086716582,0.8523473856707471,0.047105240918559915,-0.8164830028182916,0.9075717195799716,-0.10701359431854128,-0.8172159997742162,0.8404373067212401,0.018635754584020208,0.684550261674765,0.9688227917149521,0.011974360482802912,0.6462956715824636,1.04470073600235,0.0,0.0,0.0,0.0
0.009712140137964625,-0.06780902713948823,0.7292109889862217,0.0037379004821582527,-0.5228880192534161,-0.009127404119605113,0.8523443188731078,0.052052277824538695,-0.8173392816947412,0.911643154928711,-0.11398755056181674,-0.8140698754105969,0.8390833336904272,0.019144870089884563,0.6887683610463283,0.9662017271599214,0.012545821300843139,0.6466978794425778,1.048423504808675,0.0,0.0,0.0,0.0
0.010851751813448569,-0.06908112245389282,0.7290091988146894,0.004229261365965274,-0.5228896791325214,-0.009931398945722517,0.8523320151912446,0.05727151920834362,-0.8180654638956734,0.9159625870024402,-0.12105478571802479,-0.8103138000908013,0.8373093377417122,0.01960459779117478,0.69362238747718,0.962948669153961,0.013085834283490914,0.6474600179074117,1.0521131022996637,0.0,0.0,0.0,0.0
0.012102436218171265,-0.07048091761881259,0.7288505692636197,0.004847131902911898,-0.5229063293908653,-0.010754423592773918,0.852308522994153,0.06279497264850123,-0.8184289055937318,0.9203082510995647,-0.12822734817152423,-0.805787669788986,0.8347327695453571,0.020006746787769324,0.6993021560529721,0.9586922189950561,0.013595260571123598,0.6487076592519392,1.055623115204554,0.0,0.0,0.0,0.0
0.013457565442826303,-0.07204698622219943,0.7287705355075016,0.005643285301899169,-0.522939176304219,-0.011587129487378871,0.852272555962885,0.06865327680034249,-0.8180784167901562,0.9242905309105763,-0.13551817972184546,-0.8001785309263324,0.8307495130785386,0.020341373092642886,0.706018847658266,0.9529381164261935,0.014077850960689147,0.6505708814066324,1.058753405546447,0.0,0.0,0.0,0.0
0.014890990000223444,-0.07381589997247932,0.728806338255354,0.00666623020612901,-0.5229928750711537,-0.012421244326029937,0.8522204683584176,0.074869846896607,-0.8165451074325062,0.927318388803598,-0.14294109144431666,-0.7930600809961831,0.8244122740327211,0.020596214711258803,0.713947003942903,0.9451971557477741,0.0145386836781358,0.6531382930211674,1.0613069886140445,0.0,0.0,0.0,0.0
0.016339297745106854,-0.07578073566784255,0.7289501021143275,0.007899087307306974,-0.523096067473186,-0.013267240171218537,0.8521338445056849,0.08144420575114729,-0.8133760916085787,0.928645425852986,-0.150509512743375,-0.7839082541365151,0.8143298337566187,0.020757684978052606,0.722958658694138,0.9356510883660465,0.014974259048468093,0.656261551573677,1.0634302436805092,0.0,0.0,0.0,0.0
0.017635364868343467,-0.07774905665852574,0.7289080379186186,0.009060549989458632,-0.5233374579359321,-0.01420419655868507,0.8519589499237432,0.08828884969686981,-0.8090236006200127,0.9277822513974969,-0.15822593067395715,-0.7720211391211561,0.7981642371195634,0.020825152833406198,0.7311576749826472,0.9281967483505139,0.015341172305234935,0.6584255206703677,1.0674326056930443,0.0,0.0,0.0,0.0
0.018692606194008067,-0.07938230301084243,0.7284574562981333,0.009671373903069685,-0.5237549716733036,-0.015340726355998507,0.8516759103609742,0.09519033416896902,-0.8051609006774219,0.926213176017664,-0.16604818313394049,-0.7546145699091962,0.7704035121952308,0.020834447825869407,0.7368713834710782,0.92658355316172,0.015574054113072965,0.658624345252407,1.074423407047904,0.0,0.0,0.0,0.0
0.019266211528317378,-0.08030276287063695,0.7277354371918817,0.009206078796356357,-0.5241874520044771,-0.01675492023838986,0.8513882991456098,0.10176601565616801,-0.8030263153299626,0.9249226778650442,-0.17382853431971093,-0.7269918266388721,0.7217194278549575,0.020894739711005327,0.7390961447317113,0.931095578160895,0.015675120466309294,0.6564324868888615,1.082185093546886,0.0,0.0,0.0,0.0
0.019323286417568603,-0.08039454669593853,0.7277041925524226,0.009243506895397775,-0.5241536861976942,-0.016813998126611204,0.851407517169447,0.10215192817887561,-0.8030409312292681,0.9249846022035397,-0.1743322961992227,-0.7269064072712026,0.7217202857817877,0.020873315157569298,0.7392754988928398,0.9308721173852551,0.01569933129622851,0.6562998753590227,1.0824665958070567,0.0,0.0,0.0,0.0
0.019323286417568603,-0.08039454669593853,0.7277041925524226,0.009243506895397775,-0.5241536861976942,-0.016813998126611204,0.851407517169447,0.10215192817887561,-0.8030409312292681,0.9249846022035397,-0.1743322961992227,-0.7269064072712026,0.7217202857817877,0.020873315157569298,0.7392754988928398,0.9308721173852551,0.01569933129622851,0.6562998753590227,1.0824665958070567,0.0,0.0,0.0,0.0
0.019428902054896998,-0.08063426904751247,0.7287633276632198,0.00842892595279571,-0.5231311619908178,-0.01640395055681857,0.8520526104458271,0.10232740024565534,-0.8075463890801661,0.9310343735111294,-0.17455258121232536,-0.7287438828939551,0.7268090499002158,0.010528939526280442,0.7207663672009236,0.9611423700246844,0.02604889702512386,0.6611813137887945,1.0727830662486986,0.0,0.0,0.0,0.0
0.019643159459780443,-0.08109125984919002,0.730092987414635,0.007904463240659214,-0.5223775799832605,-0.015943991534951452,0.8525285757824442,0.10260692472721207,-0.8091440699704228,0.9348178566549155,-0.1745078945931101,-0.7300652751412682,0.7329452595977559,0.00020055792723306515,0.708574057684106,0.9815542851637975,0.03617966090732367,0.6682229353199046,1.061528770313627,0.0,0.0,0.0,0.0
0.019880460191041473,-0.08169540633111556,0.7313659121973481,0.007594116336511705,-0.5218260043209524,-0.01546279277623573,0.8528779822759267,0.10301483056359809,-0.8091080571090515,0.9367612894445121,-0.17425789305499712,-0.7313931202637103,0.7394457812108326,-0.01011317780678897,0.7011703910802092,0.9956770765847003,0.04611517599526375,0.6755578754466598,1.0513087995152763,0.0,0.0,0.0,0.0
0.02007809365321314,-0.08237479357732812,0.7324970964244705,0.007396715891887263,-0.5214110209840435,-0.014987509866993473,0.853141963765925,0.10353583327388918,-0.8081169886752108,0.9372231789680067,-0.17383764680370134,-0.7325939793467362,0.7455055161863732,-0.020422012100790376,0.6968356002627107,1.0061532911184508,0.05589147206601684,0.682435776418894,1.0426835532885814,0.0,0.0,0.0,0.0
0.020173459711107674,-0.08307059102277618,0.7334765991356145,0.007221008015156153,-0.5210782936276906,-0.014537425437313798,0.8533545173109203,0.10414138888056498,-0.8065141011993233,0.9363362496811475,-0.1732661651871392,-0.7333123424218284,0.7502704207371788,-0.03073622838020674,0.6941979490529124,1.0143906039137658,0.06554273314117354,0.6884717924397961,1.0356128122337218,0.0,0.0,0.0,0.0
0.020171840539319894,-0.08377650776716196,0.7343317396099088,0.007052468044541795,-0.5207956992537646,-0.01411285612633054,0.8535355467847959,0.10482911876134786,-0.8044681013604091,0.9343447344763941,-0.17255961474778508,-0.7336599307623535,0.7539320501789647,-0.04106609089850727,0.6924403058660665,1.02132600415734,0.07509075121134712,0.6937120644386228,1.0298127511046786,0.0,0.0,0.0,0.0
0.020084838102611465,-0.08449326660162482,0.7350953245434759,0.006887091566434292,-0.5205435878111501,-0.013711522124120747,0.8536972152464191,0.10559721068177505,-0.8020510136038104,0.9314226707072167,-0.17172884735956867,-0.7337212531509905,0.756705445715785,-0.05142198486229881,0.6910664100382611,1.0275000068197073,0.08455381307677971,0.6982862530740505,1.0249652227757173,0.0,0.0,0.0,0.0
0.019920145517229107,-0.08522258660446642,0.73579408162161,0.0067227505868766215,-0.5203082794037284,-0.013330662114729146,0.8538479914223968,0.10644297107112373,-0.7992937907120168,0.927672428445773,-0.1707814702207608,-0.733540132447255,0.7587303027372576,-0.0618143511622664,0.6897932001822754,1.033167726780619,0.0939487838034488,0.7023041828635828,1.0208120907015812,0.0,0.0,0.0,0.0
0.019678741680219783,-0.0859664817222177,0.7364472788988524,0.0065578632621126984,-0.520078846247813,-0.012967169886529744,0.8539946373485685,0.10736274124278236,-0.7962011354481476,0.9231251528405008,-0.16972259052063335,-0.7331272698142881,0.760063184903345,-0.07225369015651387,0.6884737998486896,1.0383799212088745,0.10329209800357256,0.7058297006079982,1.0171696680291886,0.0,0.0,0.0,0.0
0.019352419319501768,-0.08672774626970176,0.7370682221658118,0.006391372890283528,-0.5198438575382897,-0.012617109409540675,0.8541442048521054,0.10835173762984282,-0.7927532861156504,0.9177317282751022,-0.1685550929276081,-0.7324645399032168,0.7606747420864819,-0.08275057901316661,0.6870524290277141,1.042998567423818,0.1126008526360699,0.7088691781218891,1.0139174133319544,0.0,0.0,0.0,0.0
0.01891797129365402,-0.08750943586368524,0.7376660008404645,0.006220429669550934,-0.519587215034777,-0.012275246306453021,0.85430659049035,0.109402651795184,-0.7889022440462946,0.9113338717065869,-0.16727947235037816,-0.7314853243578779,0.760401860763037,-0.0933156958213671,0.6855496774437131,1.0466400457832679,0.1218944336885296,0.7113492056722212,1.010981729784095,0.0,0.0,0.0,0.0
0.018334154873913305,-0.0883152099210556,0.738250367668825,0.0060388055958879765,-0.5192847800901743,-0.011934220138840034,0.8544965912063969,0.11050468747947395,-0.7845621153470482,0.9036449184413883,-0.16589358624425993,-0.7300582483495989,0.7589238570323814,-0.10395982020139058,0.6840951939716703,1.0485843171044957,0.1311957290913485,0.7131200108283277,1.0082891807812968,0.0,0.0,0.0,0.0
0.017565048677636,-0.08916266364667919,0.7388460900155674,0.005856780429101585,-0.5189036449303435,-0.011580112101858634,0.8547342314454931,0.11165242242105461,-0.7796086474566314,0.8943536741204738,-0.16439533000146292,-0.7281545680733056,0.75611169572752,-0.11469380927727973,0.6830690873259541,1.047760693513573,0.1405293737655236,0.7140890433899165,1.0056382228099103,0.0,0.0,0.0,0.0
0.016563153321130335,-0.09007292633730751,0.7395002523054572,0.0056816867784458755,-0.518397784385487,-0.011194683480156079,0.8550474458422461,0.11283635949464356,-0.7738567519511395,0.8830491567545687,-0.16278076242471287,-0.7256790812515984,0.7517488311861603,-0.12552773492590216,0.6825052141501712,1.0440438670140937,0.14992385429968452,0.714196616396319,1.002608175916745,0.0,0.0,0.0,0.0
0.015269793720965907,-0.09107392297346059,0.7402845018754559,0.00551964987511472,-0.517701694985064,-0.01075290142445166,0.855475811221921,0.1140443678253184,-0.7670766571631691,0.8692269242471758,-0.1610464529300699,-0.7225100207651456,0.7455827283806234,-0.13647100039289004,0.6820765210535783,1.0382520119710419,0.15941268801830086,0.7134148287074221,0.9985216970365265,0.0,0.0,0.0,0.0
0.013613173963672657,-0.09220438239905425,0.7412873472087357,0.005377646373694626,-0.5167209166352859,-0.010219806022603525,0.8560760076044239,0.11526493022572827,-0.7590440256636628,0.852296650611147,-0.15919350727814754,-0.7185778509249757,0.7373888103460571,-0.14753336890682744,0.6815757830782638,1.030796620462595,0.16903655210655275,0.7116905833499788,0.992486921480561,0.0,0.0,0.0,0.0
0.01150865711947562,-0.09351175498918748,0.7426067145798075,0.0052559809411101095,-0.5153259441130774,-0.009549737760808365,0.8569249374927841,0.11648802997151475,-0.7496078669617708,0.8316283284691253,-0.15723233326007768,-0.7138974938143586,0.7269804153052328,-0.15872515572799067,0.6806685524389958,1.0217591264320263,0.17884345111884348,0.708921512784019,0.983403295723844,0.0,0.0,0.0,0.0
0.008867919408423304,-0.09504521933579019,0.7443379169996214,0.005134798075601521,-0.5133502941094373,-0.008688234152010161,0.8581198191242274,0.11770740129533934,-0.7388129260333821,0.8067000312509988,-0.15518984301100552,-0.7086164410145334,0.7142599793809857,-0.17005735543617875,0.6786106924990492,1.0109739416208015,0.18888612330478755,0.7049722783743287,0.9699624062064561,0.0,0.0,0.0,0.0
0.0056215002874792416,-0.09683920847970078,0.7465389170073874,0.004953526809617183,-0.5106001481366205,-0.007580177435410986,0.8597706044085569,0.11892653773250962,-0.7271391098120981,0.7774304586869395,-0.15312062646981564,-0.7031138956232847,0.6993368672408309,-0.18154157617909916,0.6740022822437599,0.998114508779016,0.19921340635503107,0.6996845383959422,0.950809527132748,0.0,0.0,0.0,0.0
0.0017668518979413487,-0.0988894565314059,0.7491131633634299,0.004603154442826123,-0.5068928717056183,-0.006189058113873336,0.8619745490110889,0.12018072993138015,-0.7160040061606553,0.7448551732067836,-0.15112649041127357,-0.6983929956400265,0.6829632926353898,-0.19319006593131965,0.6649238344878063,0.9827648512381232,0.20984763954961178,0.6926364554469194,0.9255283541574956,0.0,0.0,0.0,0.0
-0.002540392197790956,-0.10119927018165581,0.7513193701972651,0.004077874971798688,-0.5020861537720533,-0.004509209852876624,0.8647962373603408,0.12166299151198752,-0.7094269126580186,0.7126582636817878,-0.14942833498555882,-0.6987305086246676,0.6693139935371789,-0.20503054551507818,0.6505578269461112,0.9632610908518868,0.22074647521047697,0.680856540091553,0.899802013071172,0.0,0.0,0.0,0.0
-0.006765108294843655,-0.10356811929978928,0.75244073188898,0.0031834561089976285,-0.49617239184761897,-0.0026629922034438125,0.868214104727595,0.12361211660158529,-0.7139437265962681,0.6901772744029073,-0.14834420533155118,-0.7091764804927068,0.6652354738373057,-0.21707511652721298,0.6320314751257468,0.9385447730975255,0.2317440198553365,0.662555835139739,0.879281185751393,0.0,0.0,0.0,0.0
-0.010722401553922706,-0.10573728521526561,0.7523823826502125,0.0015173021775925525,-0.48892588309921686,-0.0007467823236172878,0.8723236904646772,0.1261110027702424,-0.7345511209980776,0.6847582827321306,-0.14812631052488057,-0.7311383966439413,0.6725661137931839,-0.22932921889130053,0.610415994317821,0.9061826559839985,0.24272289758407556,0.6372920406839928,0.8635648524024745,0.0,0.0,0.0,0.0
-0.013786203267077461,-0.10724472375407314,0.7513015032837964,-0.0011826234379055565,-0.481235093907603,0.0008782384776404765,0.8765903344725636,0.1290974245228551,-0.7706111360738849,0.7006139173694618,-0.14870467357084374,-0.7604816966268523,0.6890541179729124,-0.24158086611154073,0.5876886693177692,0.8763589867871678,0.2530854037198945,0.6098659949810354,0.8519268152256178,0.0,0.0,0.0,0.0
-0.013781372664028853,-0.107334182974863,0.7510390122000046,-0.0013729513385571201,-0.4812187179866393,0.000961051625059853,0.8765989600973134,0.12924895375011486,-0.7711570162452281,0.7000203122367373,-0.14877270448407326,-0.7608370271538513,0.6889071567237397,-0.24241109502555874,0.5877333061725172,0.8763918545148209,0.2536108648249249,0.6100423791119725,0.8516854058413159,0.0,0.0,0.0,0.0
-0.013781372664028853,-0.107334182974863,0.7510390122000046,-0.0013729513385571201,-0.4812187179866393,0.000961051625059853,0.8765989600973134,0.12924895375011486,-0.7711570162452281,0.7000203122367373,-0.14877270448407326,-0.7608370271538513,0.6889071567237397,-0.24241109502555874,0.5877333061725172,0.8763918545148209,0.2536108648249249,0.6100423791119725,0.8516854058413159,0.0,0.0,0.0,0.0
-0.014237318982100837,-0.10754179917519129,0.7524021319537233,-0.001335290774492707,-0.48373929167651813,0.0005756319307326507,0.8752109364803027,0.12968251266181077,-0.7461876954365301,0.6729338265166572,-0.14596001965467756,-0.7395113689216538,0.6660487803327285,-0.2462506878052159,0.6002250960024049,0.8702054714553268,0.25527224800253645,0.6222857173618392,0.8442397060620594,0.0,0.0,0.0,0.0
-0.014893373352106073,-0.10774395928305074,0.753546960347002,-0.001309925086816048,-0.4854290271416313,0.00018534074393791223,0.8742750764795969,0.13035944943819416,-0.7252408459958689,0.647954445065115,-0.14345410189722965,-0.7221918371025863,0.6454459064052884,-0.24875711588161478,0.6092680604550303,0.8633521067809556,0.2557331260090059,0.6306714655965872,0.8369129604503548,0.0,0.0,0.0,0.0
-0.015499063703339835,-0.10798254975813303,0.7545431021625754,-0.0012387991041240603,-0.4863665201901152,-0.0001933234032277804,0.873753990572289,0.13131325615295653,-0.709289035466648,0.6279042321701739,-0.14124812348194427,-0.7103676850894666,0.6306529089064673,-0.25008106310089245,0.6160185972825699,0.8553259189492048,0.25511951638306535,0.6365034375577859,0.8290391891682277,0.0,0.0,0.0,0.0
-0.015796991630821364,-0.10837238454975075,0.7554018285876676,-0.0009583614534044191,-0.4865149695223671,-0.0005154732113395867,0.8736715631525059,0.13264270713123805,-0.6999711219480207,0.616145659501095,-0.13938354679408826,-0.7070831466176206,0.6271336551602751,-0.25034834997112776,0.6212382932860607,0.8455034991989344,0.253546553322709,0.6404369564063571,0.8205140165198234,0.0,0.0,0.0,0.0
-0.01581933416789662,-0.10899764979941473,0.7554845785821226,-0.0003461413441459775,-0.48572039624704977,-0.0007449851290201577,0.87411384948011,0.13450094944811752,-0.7001586094059415,0.6147888576619095,-0.1379899619291459,-0.7161387211343503,0.6383503497727138,-0.2496587406505677,0.6209296234932846,0.8400847195661073,0.25110863250718474,0.6382518501523894,0.8182145366561857,0.0,0.0,0.0,0.0
-0.015443870188768676,-0.10989036515965707,0.7544597178776912,0.0006588376543200097,-0.483754938973103,-0.0008553245297360924,0.875202829846901,0.1370388484408208,-0.7132442834245797,0.6278193098683544,-0.13724570560113727,-0.7408751556433476,0.6679774421050353,-0.24798974282057779,0.612996294279614,0.8419393731669601,0.24777516667032665,0.6277838841102651,0.8252652060137649,0.0,0.0,0.0,0.0
-0.014334635552069274,-0.11117443273996087,0.7524003625434834,0.002267212360410637,-0.4804105879143466,-0.0007559289023138799,0.8770404525102586,0.14037981639337246,-0.7412497148299467,0.6587239518248914,-0.1373761343805067,-0.7838994603182096,0.7199469120753812,-0.24532633361970582,0.5985260028329021,0.8489431527353958,0.2436242976597823,0.6100232807245806,0.8402199518818063,0.0,0.0,0.0,0.0
-0.009855800407254128,-0.11291561269101857,0.7525160654907178,-0.0010346761361367982,-0.49070608080700884,0.0010917564369839776,0.8713238661784726,0.14003311453620074,-0.707654732239695,0.6430934977496467,-0.13359033580526922,-0.7420755797023025,0.7044041803144832,-0.2361691621328072,0.6282641052636362,0.8809063490770807,0.23116527596816128,0.6372965361263719,0.8876720387275646,0.0,0.0,0.0,0.0
-0.004847452799321412,-0.11494532192027422,0.7514998958737114,-0.0031631718433170475,-0.4989794718841539,0.0029351163752466916,0.866603061426605,0.1408398466732031,-0.6901437137085652,0.6447298176644347,-0.1309333873507228,-0.7224360027059646,0.7132611101453485,-0.22670807283386754,0.6542542751800046,0.9087975731292302,0.2186865644342887,0.6577150590564268,0.9306802327239856,0.0,0.0,0.0,0.0
0.0002917463940917799,-0.11702416435762926,0.7493406143506651,-0.004427010644089813,-0.505140525742927,0.004591466971824085,0.8630135394418578,0.1425546002164378,-0.6887117944395476,0.6626831652594297,-0.1291836337754678,-0.7226776404532471,0.742155037906076,-0.21722458447533644,0.6728560524133619,0.9367171938749066,0.2064440281611236,0.6726670125883839,0.9621104465775202,0.0,0.0,0.0,0.0
0.005069644397824041,-0.11901253661471736,0.7467113721107865,-0.005091513801893878,-0.5095840994671103,0.005995682645860117,0.8603848986628656,0.14474035555332132,-0.6958614275703666,0.6871465998872622,-0.12792763528881188,-0.7335988434845354,0.7788439920662912,-0.20771866189774785,0.6857017643881915,0.9618725398007644,0.19443839489827872,0.6831285054378538,0.9844883523626887,0.0,0.0,0.0,0.0
0.009136249620588177,-0.12083763463959012,0.7444388084625063,-0.005349752948570547,-0.5127952675857783,0.007142400887657131,0.8584645477796852,0.14700591718676273,-0.7038381971157779,0.7090599983453512,-0.12679086405272935,-0.7465927231185292,0.8132497637755409,-0.19815041982339582,0.6959459677029216,0.9797418219578339,0.1826313658861198,0.688931756454312,1.0015135573859661,0.0,0.0,0.0,0.0
0.012433204639334073,-0.1224395111616168,0.7426337175124264,-0.005427168841074545,-0.5150778086600911,0.008052330419308633,0.8570884183321505,0.149201736016975,-0.710989239756692,0.7269215263648592,-0.1256790899984084,-0.7588611506330368,0.8425299038948101,-0.1885364447907732,0.7037313559231678,0.991782737282062,0.17101065484812622,0.6917408519751932,1.0147548250315395,0.0,0.0,0.0,0.0
0.015026844923719706,-0.12382154814844462,0.7412508991549056,-0.005457641219751019,-0.5166892950060666,0.008771604405786252,0.856110650286865,0.15126025224151415,-0.7168738759092789,0.7407809955946741,-0.12456115004644773,-0.7694599748986727,0.8663770442554308,-0.17889853358491764,0.7092781597112551,0.9997202126922156,0.15956437133789989,0.6930115579684896,1.025346057423943,0.0,0.0,0.0,0.0
0.01702871166751159,-0.125018326035149,0.7402122829163542,-0.005500091218391903,-0.5178277584627037,0.009350132736304632,0.8554161189619323,0.15315768817353007,-0.7214460885243645,0.7511205547384681,-0.12343211105878563,-0.7782328734537491,0.8854160588215105,-0.16925374958470407,0.7129726901619079,1.004804690473404,0.14828096744600186,0.6935936213147171,1.034035644693395,0.0,0.0,0.0,0.0
0.018556028377667212,-0.12607159095648188,0.7394364360379314,-0.005572521006235916,-0.5186386047313456,0.009831644028310823,0.854918875372195,0.15489299051059713,-0.7248242717552904,0.7585224921481919,-0.12229942374859382,-0.7853478112867799,0.9005143372594822,-0.15961319747577765,0.7152083167883326,1.0079286343025815,0.1371494951730992,0.6938669199223306,1.0412426664019554,0.0,0.0,0.0,0.0
0.019712849215500636,-0.12701927479116867,0.7388456052407477,-0.005674428360075339,-0.5192259023293853,0.010250905823177121,0.8545567167501678,0.1564755488904902,-0.7271966958102034,0.7635385445946427,-0.12117594299996384,-0.7910892341076908,0.9125040783494444,-0.14998260389202123,0.7162897080212677,1.0097859336502875,0.12615956516163473,0.6939601888408677,1.0471177672240743,0.0,0.0,0.0,0.0
0.020581968491347292,-0.12789173627674008,0.7383674175351765,-0.005798845840466968,-0.5196621891182653,0.010633930930431008,0.8542859603790158,0.15791809134071197,-0.7287718645150429,0.7666313037606658,-0.12007612387501607,-0.7957613439550995,0.9220767029798206,-0.14036315390765539,0.7163980998889276,1.0109683540519645,0.11530122690441237,0.6939310131912318,1.0515497209872657,0.0,0.0,0.0,0.0
0.021223345373666606,-0.12871101914743344,0.7379366172609143,-0.005938585861961585,-0.5199958449788762,0.010999136020304704,0.8540773228516675,0.15923274139294583,-0.729752274079111,0.768158449161028,-0.11901413590565757,-0.7996413512221074,0.9297543336977395,-0.13075227344053658,0.7155982043407586,1.0119998050409786,0.10456486209786968,0.693910204909688,1.054101821511398,0.0,0.0,0.0,0.0
0.02167873907870148,-0.12949154568691487,0.7375014098043995,-0.006088950789379983,-0.5202570006673163,0.011358904740360092,0.8539124974012454,0.16042906814387936,-0.7303184339093252,0.7683967816175192,-0.11800304349645496,-0.8029548292588818,0.9359135948566705,-0.12114430831736568,0.7138949043309765,1.0132933998191405,0.09394111370269584,0.6942410770063605,1.0539331319140048,0.0,0.0,0.0,0.0
0.021976840346301426,-0.13024563053187996,0.7370340576646031,-0.006241969288545192,-0.5204650303509628,0.011722807651087576,0.8537796939386341,0.161512312483229,-0.7305564857207288,0.7675004975314006,-0.11705119132792702,-0.8058502838541305,0.940821653696015,-0.11153007235726117,0.7113228351895664,1.0150484983506547,0.08341993359875485,0.6949240589100008,1.0511293159681212,0.0,0.0,0.0,0.0
0.0221438522511887,-0.13098065993171654,0.7365302304516111,-0.006393540732453955,-0.5206331983324348,0.012097587142467678,0.8536708052969672,0.1624844930400279,-0.7305177243589726,0.7656248884892493,-0.11616528942702668,-0.8084055740614653,0.9446896806200259,-0.10189844366615358,0.7079917611311257,1.0172598555763626,0.07299052697151137,0.6956374198405695,1.0467183877539663,0.0,0.0,0.0,0.0
0.02219527656136441,-0.13169972990943113,0.7359926253236991,-0.006543327717553161,-0.5207659683763034,0.012487506068626798,0.8535830675661612,0.16334474859851678,-0.7302420752698966,0.7628814684360897,-0.11535198067592999,-0.8106598161791444,0.9476415234614929,-0.09223658339609146,0.7039788675244368,1.0198708236779022,0.06264225745840443,0.6962709499008943,1.0413156788670104,0.0,0.0,0.0,0.0
0.022113804231981345,-0.13241445957885983,0.7354176369070088,-0.006675465965978685,-0.5208567876396547,0.012899145703420859,0.853520507641122,0.16408655245739626,-0.7296147622177341,0.7590213396586543,-0.11461103531020253,-0.8126299512435117,0.9496312351403539,-0.08252716573859953,0.6991963866485342,1.0228807071796413,0.052364699966909525,0.6967543264985216,1.0351578895504714,0.0,0.0,0.0,0.0
0.021880536098426433,-0.13313242639369494,0.7347972195891026,-0.006781908521697711,-0.520896208611201,0.013338126120971386,0.8534888634088089,0.16470268385940526,-0.7285677298552894,0.7538357943150525,-0.11394560489098118,-0.8143308942802888,0.9505873744159777,-0.07275328624192712,0.6935214148038655,1.026336375279715,0.04214757989195528,0.697105786960331,1.0282419732683086,0.0,0.0,0.0,0.0
0.021474400829588115,-0.13386173455827283,0.7341170009493576,-0.006855437378611008,-0.5208750846987619,0.013810984630735388,0.8534936472065479,0.16518490077895526,-0.7270332345953312,0.7470880259332513,-0.11336036071670776,-0.8157818788445144,0.9504220503255546,-0.06289877696658641,0.6867978560410318,1.0303391588916417,0.031980765357348305,0.6974259415365088,1.0203436403784794,0.0,0.0,0.0,0.0
0.020880021000778556,-0.13460870571403014,0.7333559368242972,-0.006893684949712852,-0.5207911063873286,0.014324368381462537,0.8535361228947187,0.1655244546089841,-0.7249614293962395,0.738574667307524,-0.112862253325881,-0.8169935715619415,0.9490497167663617,-0.0529507684445626,0.6788795198631254,1.0350532557411372,0.021854248019389476,0.6979806396179334,1.01098502795182,0.0,0.0,0.0,0.0
0.020107248314991628,-0.13536575303623768,0.7324914959527662,-0.006917981640774869,-0.5206679480479594,0.01488000225348543,0.8536015551406182,0.16571124321903563,-0.7223725987956818,0.728321198605805,-0.112461596799889,-0.817875596394302,0.9463748771646805,-0.042906062883175417,0.6697672614906847,1.0407041305040514,0.011758226893450715,0.6993824680285807,0.9994211289124224,0.0,0.0,0.0,0.0
0.019296894520663212,-0.13603246329014032,0.7315151616145104,-0.007092167925729618,-0.5205817046784246,0.015443088536334373,0.8536427244021224,0.1657498368392218,-0.7202630623657515,0.7183316752284656,-0.11221150110704116,-0.8181555145564937,0.9425824422055462,-0.03278811533395787,0.6600552507411818,1.0476019515479842,0.0016821856801346475,0.7031338964298055,0.9846072132128918,0.0,0.0,0.0,0.0
0.018544580672760082,-0.13652455519177562,0.7304664943745582,-0.007544059804826781,-0.5206705197941784,0.015980025052305374,0.8535747979985403,0.16560894691734873,-0.7187645818197661,0.7095521408784046,-0.11211570435360747,-0.8169710204745824,0.9371977329736307,-0.022612698877909884,0.6505819322314818,1.055773556463538,-0.008382640074598824,0.7109025870346016,0.9645213010833679,0.0,0.0,0.0,0.0
0.018003413328186953,-0.13677714194055188,0.7296178746121829,-0.008357241402074774,-0.5212216868595224,0.016458774308367112,0.8532216701489288,0.16521345934595805,-0.7165530368337426,0.7020598696403798,-0.11208213151815971,-0.8123051271368086,0.9293422899977479,-0.012381591614935308,0.643838055219896,1.0633804638494109,-0.018442004668144416,0.7253336737740887,0.93624882688218,0.0,0.0,0.0,0.0
0.01802710750792115,-0.13680775418042265,0.7295964803799395,-0.00838961913156066,-0.521249005099053,0.016492582029544726,0.8532040106047752,0.16521869254828778,-0.7165389163447411,0.7019974236986498,-0.1120742249999685,-0.8122662887852531,0.9294274613154179,-0.011781490935381602,0.6437419305266996,1.0633685968538569,-0.019069992287364924,0.7253363020918082,0.9362435176923356,0.0,0.0,0.0,0.0
0.01802710750792115,-0.13680775418042265,0.7295964803799395,-0.00838961913156066,-0.521249005099053,0.016492582029544726,0.8532040106047752,0.16521869254828778,-0.7165389163447411,0.7019974236986498,-0.1120742249999685,-0.8122662887852531,0.9294274613154179,-0.011781490935381602,0.6437419305266996,1.0633685968538569,-0.019069992287364924,0.7253363020918082,0.9362435176923356,0.0,0.0,0.0,0.0
0.017726779412873934,-0.13761276180408155,0.7302773339054508,-0.009133122648155897,-0.5218811748808247,0.014952801352313753,0.8528382256368565,0.15678470470877975,-0.7476665478593045,0.7622754270600538,-0.10495886505819194,-0.8093012133250898,0.9268030646606591,-0.011541722532723802,0.6497962463179335,1.0576589592287107,-0.019070501116635788,0.7266485047310444,0.933175983672586,0.0,0.0,0.0,0.0
0.016910266756066834,-0.13920265335253293,0.7306866988946716,-0.008691027840409302,-0.5222259429221505,0.01373792383785732,0.8526522151632359,0.14834836439796345,-0.7677282449222003,0.7973391747609664,-0.09766645244719174,-0.8099490628895663,0.9262898239931571,-0.01118394873833045,0.6525243693374635,1.0520029770050392,-0.018957923913638767,0.7235679664951172,0.9359773228354069,0.0,0.0,0.0,0.0
0.01579941558516481,-0.14123586293006649,0.7306515858995402,-0.007553110800146553,-0.5224039465707098,0.012744439745626434,0.8525694378642468,0.14003343549419817,-0.7810726157078136,0.8170113883503448,-0.0904354647435598,-0.813401440004375,0.9271922517661447,-0.010720645111140023,0.6520227957505553,1.0488418608117873,-0.018750933451447016,0.7166214414272744,0.9448127008981405,0.0,0.0,0.0,0.0
0.014426461028432723,-0.14328744425705145,0.7304291133105486,-0.006301985062365302,-0.5225575943211439,0.011854160282384613,0.852498284154034,0.13189363255005931,-0.7908894073148767,0.8287201804943347,-0.08349587240171365,-0.8161612907586352,0.9258810761815569,-0.01020955457655367,0.649742507370759,1.0473785469638388,-0.018439372776963274,0.7080693028712098,0.9556754008184944,0.0,0.0,0.0,0.0
0.012997050296274631,-0.14513290165422424,0.7303610157641234,-0.005258644080329656,-0.5226809946955369,0.010983696468517365,0.8524413662290258,0.1239305834832969,-0.7981608294971052,0.8358219039356264,-0.07695417959052551,-0.8171640225919946,0.9224498277594523,-0.009680713984881418,0.6477622227527642,1.0450459673404193,-0.0180328593122103,0.7004345071374453,0.9641619385007345,0.0,0.0,0.0,0.0
0.011606705098271799,-0.14676540071342994,0.7304374653359142,-0.004443331908835189,-0.5227726732428372,0.010121229827641076,0.8524004631737725,0.11613099062788128,-0.8036970303530612,0.8401604751441752,-0.0708169707296971,-0.8169244595924376,0.9178355726446822,-0.009132140211342187,0.6463319590311122,1.041857997363227,-0.017553272720120087,0.693904557788966,0.9703097945856733,0.0,0.0,0.0,0.0
0.010304544217263928,-0.14822350938487985,0.7306005563043285,-0.00380713527990542,-0.5228418348085255,0.009274204269185453,0.8523707589014234,0.10847935945178727,-0.808115149227064,0.8428926936320443,-0.06506066472739476,-0.8160291330649441,0.9128261587659106,-0.00855912963320083,0.6453824904561855,1.0381866058986011,-0.017017681155789166,0.6883013760861262,0.9748215273584308,0.0,0.0,0.0,0.0
0.009112464365822085,-0.14954570391308886,0.730804536851238,-0.00329915285067073,-0.5228972987183252,0.008451466573842078,0.8523474076315934,0.10096072225605499,-0.8118417778123843,0.8447162160029618,-0.059653437395387685,-0.8148894467449351,0.907929391407729,-0.007959744100172441,0.6448107960554024,1.034327343229769,-0.01643745625846854,0.6834384089409202,0.9782873608260266,0.0,0.0,0.0,0.0
0.008034902811321059,-0.1507616316845699,0.7310207182213765,-0.0028808819345547965,-0.5229447614487158,0.007658860289361113,0.8523272956157705,0.09356103236239205,-0.8151214753765677,0.8460420354588561,-0.05456217991387734,-0.8137487515257427,0.9034180073050916,-0.007334379586816661,0.644524772920546,1.0304652824038898,-0.015820274226635372,0.6791639729987018,0.981106004562534,0.0,0.0,0.0,0.0
0.007065360145755168,-0.15189284549044094,0.7312329000966502,-0.0025257642046962025,-0.5229868715994175,0.006899064906099013,0.8523090727859572,0.08626719869460182,-0.8180225164632214,0.8471282967831861,-0.049754707202891935,-0.8127314624285655,0.8994007542003857,-0.006684760082424347,0.6444453060853657,1.0267041645751072,-0.015171641391052556,0.6753548095975935,0.9835295645647613,0.0,0.0,0.0,0.0
0.006190795029037581,-0.15295538216164398,0.7314328552172207,-0.0022154792068708093,-0.5230240935594359,0.006172530960379336,0.8522926663240494,0.0790670687895413,-0.82044577660452,0.8481744211609323,-0.045200335049345404,-0.8118860086942576,0.8958815464037283,-0.006013239401682751,0.6445036092833074,1.023094073771007,-0.014495762499080663,0.6719069535087224,0.9857142340130423,0.0,0.0,0.0,0.0
0.005394830211451698,-0.1539621700492781,0.7316174829152976,-0.0019362849729948966,-0.5230560797361845,0.005478522172337337,0.8522784603909246,0.07194943713112044,-0.8221612292400939,0.8493756018565947,-0.04086993990001654,-0.8112133111238351,0.8928022707011736,-0.005322383660278881,0.6446429740553278,1.0196480062333757,-0.013796036832295308,0.668733275274702,0.9877558859971339,0.0,0.0,0.0,0.0
0.004660947249795139,-0.1549243412224847,0.7317873392478942,-0.0016769584715672936,-0.5230835940568844,0.004815761660816236,0.8522661262061536,0.06490407017762365,-0.8229203699761733,0.850913314846071,-0.036736097801426185,-0.8106829387590663,0.8900744766016979,-0.004614742820612239,0.6448272221999186,1.0163515117805928,-0.013075433289976391,0.665769945781008,0.9897098228524994,0.0,0.0,0.0,0.0
0.003975813453189703,-0.15584964457930303,0.7319437942761535,-0.0014312195150890535,-0.52310646598224,0.004181746130475621,0.8522558828530147,0.05792188391291017,-0.822730439280807,0.8527998292504336,-0.0327742339342405,-0.8102651783097424,0.887619481573791,-0.0038929922133463597,0.6450304092828811,1.0131869479040587,-0.012336761909788814,0.6629680814634146,0.9916044246969455,0.0,0.0,0.0,0.0
0.003329907191639418,-0.15674319884571367,0.732088369724917,-0.001196513003458932,-0.5231238159894451,0.003573121560626113,0.8522483642129134,0.050994805970689554,-0.821865013854771,0.8548880621418856,-0.02896234790626459,-0.8099398172019049,0.8853810765944532,-0.003159845859690559,0.6452359462129947,1.0101376112561626,-0.01158280667063077,0.6602921175841652,0.99345067893624,0.0,0.0,0.0,0.0
0.002715692704141108,-0.15761052836177586,0.7322240146144267,-0.0009693415463645236,-0.5231366498680368,0.0029870417202348338,0.8522430307861574,0.04411546096391878,-0.8206094465768211,0.8570462182997496,-0.02527960862720469,-0.8096814840078294,0.8833107547246176,-0.0024178071582922956,0.645445591833595,1.0071732946086507,-0.010816270373283322,0.6577248872591822,0.9952492636254053,0.0,0.0,0.0,0.0
0.002126828070682129,-0.15845797123270236,0.732354272057762,-0.0007447152300482611,-0.523146577638914,0.0024212844847031566,0.8522389577374189,0.037277040855916765,-0.8191692416485492,0.859195960841446,-0.02170613936176743,-0.8094676709567575,0.8813709876777205,-0.0016692487769110673,0.6456699979271013,1.004254630232444,-0.01003968273942421,0.6552573536894966,0.9969980910471719,0.0,0.0,0.0,0.0
0.0015588735376725373,-0.15929251065454697,0.7324826788260114,-0.0005164295350680662,-0.5231551999464158,0.0018741659480020442,0.8522352125860326,0.030473177933498335,-0.8176566276529713,0.8613059936039024,-0.018223075994967943,-0.8092873737953445,0.87954590619254,-0.0009164836027550904,0.6459262064868299,1.0013372426319866,-0.009255432386500709,0.6528862469025719,0.9986953321211585,0.0,0.0,0.0,0.0
0.0010108510139339622,-0.1601215317497255,0.7326125319518514,-0.00027739403393007433,-0.5231639955992906,0.0013444769911417642,0.8522309247749437,0.02369786392878511,-0.8161067037590307,0.8633760590158319,-0.014812758134488097,-0.8091499005934704,0.8778570013787255,-0.00016181621700727875,0.6462405614357303,0.9983731854577684,-0.008465868557837219,0.6506173986637691,1.0003391283322576,0.0,0.0,0.0,0.0
0.00048711269707767135,-0.16095196523967673,0.7327468680871064,-2.0824782186933058e-05,-0.523174251810614,0.0008312104411204144,0.8522253287117998,0.016945435787503578,-0.814498169703209,0.8654191886747801,-0.011459262790133864,-0.8090919740601005,0.8763780492840594,0.0005923808140077607,0.6466530894051592,0.9953125205608865,-0.007673464324026547,0.6484715457825728,1.0019231765823677,0.0,0.0,0.0,0.0
-1.2514399054306237e-06,-0.16178660446743298,0.7328880943373416,0.0002543845065097502,-0.5231864375108662,0.0003321471300093998,0.8522181508108679,0.010210734417828986,-0.8127744534707917,0.8674332516063856,-0.008150132620823442,-0.8091750863051802,0.8752324396632329,0.001343499433592658,0.6472151436943312,0.9921174893511935,-0.006881155816593895,0.6464875809311271,1.0034249663574328,0.0,0.0,0.0,0.0
-0.00043783684663037457,-0.16261066768077467,0.7330341772175143,0.0005238094451200585,-0.523198551929632,-0.00016155435689040265,0.8522106399139775,0.0034900448346466438,-0.8108910991817668,0.8693454138261342,-0.004882162866008247,-0.8094440991766215,0.8745146242143812,0.00208839633005983,0.647951564775421,0.9888437759056377,-0.00609334924938932,0.6447049682846924,1.0047915612676324,0.0,0.0,0.0,0.0
-0.0008119396251584333,-0.16334688948427326,0.7331550726436761,0.0006719826109853336,-0.5232079544741993,-0.0006826110936516607,0.8522045053016263,-0.003211710091344619,-0.8090632466924382,0.8710792352918902,-0.0016840596658420173,-0.8097452211163211,0.8739359548435414,0.0028234567787007963,0.6486801786675253,0.9860331612827014,-0.005319369184485592,0.6430547478236908,1.0060109118858083,0.0,0.0,0.0,0.0
-0.0011457386590387974,-0.16371147129292601,0.7330627241208156,0.00031473294339773414,-0.5232206162987157,-0.0013094627485811395,0.852196205653649,-0.009766296909565897,-0.8098650799273002,0.8752376078365107,0.0011964030317050608,-0.8093410347928414,0.87185504145077,0.0035547837625116993,0.6481606204108709,0.9864528096309109,-0.004575162245474853,0.6408167645921632,1.0078579532409204,0.0,0.0,0.0,0.0
-0.0011423358856811779,-0.1637105527842023,0.7330611418132095,0.0003140930254345433,-0.5232186040733732,-0.0013082141628929587,0.8521974432446897,-0.010180912948928372,-0.8098540487748668,0.8752257970479047,0.0011885685650091836,-0.8093475536374313,0.8718651452053792,0.003557773007848491,0.6481589099405322,0.9864562225532626,-0.004569551664320145,0.6408209586468259,1.007855361344682,0.0,0.0,0.0,0.0
-0.0011423358856811779,-0.1637105527842023,0.7330611418132095,0.0003140930254345433,-0.5232186040733732,-0.0013082141628929587,0.8521974432446897,-0.010180912948928372,-0.8098540487748668,0.8752257970479047,0.0011885685650091836,-0.8093475536374313,0.8718651452053792,0.003557773007848491,0.6481589099405322,0.9864562225532626,-0.004569551664320145,0.6408209586468259,1.007855361344682,0.0,0.0,0.0,0.0
-0.0011423358856811779,-0.1637105527842023,0.7330611418132095,0.0003140930254345433,-0.5232186040733732,-0.0013082141628929587,0.8521974432446897,-0.010180912948928372,-0.8098540487748668,0.8752257970479047,0.0011885685650091836,-0.8093475536374313,0.8718651452053792,0.003557773007848491,0.6481589099405322,0.9864562225532626,-0.004569551664320145,0.6408209586468259,1.007855361344682,0.0,0.0,0.0,0.0
-0.001110991107739347,-0.16355436508839344,0.733048060019251,0.00031719965996370624,-0.5232057861489957,-0.0010089388974727574,0.8522057185720406,-0.011400241743636009,-0.8109114006672535,0.8764537786556371,-3.160939301558377e-05,-0.8088314610218871,0.8714221140755396,0.004353214543292145,0.6474982647661124,0.9867615432320915,-0.0037585919023390836,0.6414758912391474,1.007684473385743,0.0,0.0,0.0,0.0
-0.0010804223295841988,-0.16336223857784382,0.7330223264383003,0.00026256940258472135,-0.523204857210699,-0.0007295269629575116,0.8522065924638528,-0.012618831733646838,-0.8120737180496104,0.8778250501183399,-0.0012493091284529396,-0.8081306545230658,0.8707065557572813,0.005139821366428086,0.6467814826262227,0.9873455853569932,-0.002956018113598314,0.642117735489072,1.007522485255776,0.0,0.0,0.0,0.0
-0.0010488593467990722,-0.16316432418350083,0.7329845580995276,0.00019872681971540616,-0.5232030631728357,-0.0004535132255231574,0.8522079027561098,-0.013837812304176852,-0.813303092933649,0.879255529920583,-0.0024655690362021332,-0.8074537599923862,0.8699883696493795,0.005922032710773028,0.6460034613831089,0.9880601163440771,-0.0021555474374124707,0.6427054102133735,1.0074448968353535,0.0,0.0,0.0,0.0
-0.0010189545133315401,-0.1629717601338523,0.7329337960408041,0.00014445859548631854,-0.5231921319853816,-0.00017352664520533078,0.8522147276648113,-0.01506175051443157,-0.8145941720035678,0.8807031508122414,-0.0036851746075525827,-0.8068850586354606,0.8693564786234884,0.00670351891416833,0.6451361872920094,0.9888550463294461,-0.0013518256433184494,0.6432009690965231,1.0074869860042306,0.0,0.0,0.0,0.0
-0.0009973187691632525,-0.1628009678614146,0.7328689835440003,0.0001267365125807042,-0.52315865519508,0.00012058147669112232,0.8522352908043876,-0.016294869538160818,-0.8159311259120668,0.8820856568973574,-0.004912688467159942,-0.8065420959034039,0.8689227208073208,0.007488278458957147,0.6441296729772645,0.9896545194458238,-0.0005374907018920468,0.6435380143804788,1.0076969213872478,0.0,0.0,0.0,0.0
-0.0009943244710505796,-0.16270388309496966,0.7327914018291428,0.00022793616185709512,-0.523077841830021,0.00045659288930039967,0.8522847593113977,-0.017536139449671036,-0.8171968386633108,0.8831421703561307,-0.006148204270266748,-0.8067348311914055,0.8690398938087495,0.008280869551271573,0.6429295723168099,0.9902105988811412,0.00030093389215218977,0.643599179903553,1.0082089695703176,0.0,0.0,0.0,0.0
-0.0009501906437172379,-0.16288843614833823,0.7326868969620821,0.0007690857749956717,-0.522914985735307,0.0009299703750354661,0.8523839870361338,-0.018733019024810078,-0.8181219527628829,0.8835130661688814,-0.00734246902574894,-0.8089243123276163,0.8718074435560951,0.00906745911133623,0.6417061832356067,0.9897779330514859,0.0011747089933493433,0.6432649400480451,1.009766717628498,0.0,0.0,0.0,0.0
-0.0006256202813594362,-0.16332827428952326,0.7327392504783646,0.0003671895760245205,-0.5230796769539389,0.0001813538276274692,0.8522836874189059,-0.015298499312964741,-0.8173071669756288,0.8842864823101372,-0.013747476731002822,-0.8074640664699883,0.8676544340889266,0.00986917385872794,0.6443707414542253,0.9885253753632302,0.0019282568105354254,0.6438527905267899,1.01020302670609,0.0,0.0,0.0,0.0
-0.00025865774130620525,-0.16405077622479566,0.7327396925430943,0.0003650641316228534,-0.5231626872976114,-0.00047085669280111267,0.8522326253093672,-0.011677955584315643,-0.8162126608240958,0.8844159992594941,-0.020276200507314913,-0.8089387260950475,0.866257027098344,0.010668084278395605,0.6469460440822749,0.9865233629386465,0.0027133025571583974,0.6438968221968135,1.0118717220603257,0.0,0.0,0.0,0.0
0.00013591576989389307,-0.1648636119380774,0.7327170183951349,0.0005085644690423425,-0.5231890609431314,-0.001073271583878907,0.8522158153658804,-0.008062999449997938,-0.8152770136060024,0.8846180493992336,-0.026806086720250914,-0.8106658773007586,0.8644314295173517,0.011472028549129275,0.6494109319624236,0.9842365157626588,0.003520166826980242,0.6437282585723402,1.0139203151646417,0.0,0.0,0.0,0.0
0.000559804365775403,-0.16570331706433136,0.7326704463735764,0.0006987420943468768,-0.5231895877796442,-0.001657737706095367,0.852214420732335,-0.004460088672799378,-0.8145803102202831,0.8850954861203618,-0.033334597664458704,-0.81230246743725,0.8623334726144422,0.012276604862448222,0.6518024951830654,0.981969475923592,0.004335684935076712,0.6434670306679194,1.01618839069683,0.0,0.0,0.0,0.0
0.001012599102642075,-0.16655087982276134,0.7326012437146234,0.0009023476857701764,-0.5231793367635122,-0.0022378055494230763,0.8522191969080891,-0.0008567718820350692,-0.814102666331404,0.8858676695498354,-0.03986635526572738,-0.8138337028050383,0.8601348743381674,0.013078442645320144,0.654155891332711,0.9798165250688972,0.0051529823177472135,0.6431648170161077,1.018623363056307,0.0,0.0,0.0,0.0
