zhuoxili-jackie/tripod-support-walk/examples/trajectory_tripod_lowstep_v0.20.csv
root_pos_x,root_pos_y,root_pos_z,root_rot_x,root_rot_y,root_rot_z,root_rot_w,FL_hip_joint,FL_thigh_joint,FL_calf_joint,FR_hip_joint,FR_thigh_joint,FR_calf_joint,RL_hip_joint,RL_thigh_joint,RL_calf_joint,RR_hip_joint,RR_thigh_joint,RR_calf_joint,FL_foot_joint,FR_foot_joint,RL_foot_joint,RR_foot_joint
0.0,0.0,0.72963,0.0,-0.5231245161092812,0.0,0.852256264656019,0.0,-0.81,0.872,0.0,-0.81,0.872,0.0,0.65,1.0,0.0,0.65,1.0,0.0,0.0,0.0,0.0
5.701510092843326e-05,-7.180000976774337e-05,0.7296166476974562,-3.9484324440920984e-06,-0.5231392697338966,1.1292214806015958e-05,0.8522472084549066,0.00015370920660254727,-0.8101080404561662,0.8722621983530433,0.00015370920660254654,-0.8104080588369463,0.8727742483253743,0.0005835701675095871,0.650075621082548,0.9998419409794561,0.0005835701675095895,0.6502095932537084,1.0003617612164897,0.0,0.0,0.0,0.0
0.00013113780209013815,-0.00018412974873963605,0.7295981862409007,6.712752263560171e-07,-0.5231589925128686,1.4727628023209468e-05,0.8522351015626889,0.0004261473137610519,-0.8101713798240088,0.8725030613117029,0.00042619329875145885,-0.8110150930279592,0.8738757858292954,0.0013391259246306332,0.6502032716474786,0.9995950175756227,0.0013404295988668482,0.6504457491334403,1.0008946714409932,0.0,0.0,0.0,0.0
0.00021818667862774963,-0.0003462232799757946,0.7295770735376266,1.1375069235521544e-05,-0.5231770728019025,1.2758210168761657e-05,0.8522240023622126,0.0008356887029063709,-0.8101850213482669,0.872685897691901,0.0008359209409170381,-0.8118450560250009,0.8753244215530674,0.0023605998425100597,0.6503511673045731,0.9991915254867743,0.0023656474834453907,0.650705369244547,1.0016006324865079,0.0,0.0,0.0,0.0
0.000317391867821211,-0.0005843543024842522,0.7295545901119882,3.158379617672852e-05,-0.5231909065848029,-8.695134075066126e-07,0.8522155092866357,0.001463920602056648,-0.8100786218316508,0.872704698213729,0.001464688856571252,-0.8129815003661,0.8772337959747121,0.003764886619650627,0.6505249810663462,0.9985305045240258,0.0037786292258991097,0.6509784120615697,1.002545825710599,0.0,0.0,0.0,0.0
0.0004449555515060249,-0.0009400478635963153,0.7295447136324934,0.00011470209309399409,-0.5232739024762451,-0.00018796629434372287,0.852164523140563,0.0028246393062196055,-0.8090322000229487,0.8718853541649124,0.0028271677159063396,-0.8144307859284502,0.8796968037683094,0.004474930383146146,0.6514930609623071,0.9976506803016013,0.004496768542203147,0.6511148796865323,1.0037079835973588,0.0,0.0,0.0,0.0
0.0007209122558394753,-0.001266205026518026,0.7294994917605451,0.00012948901570872072,-0.5232097570605286,-0.0001762553833163328,0.852203908864127,0.0036116062191245742,-0.810243972957131,0.8738990828430856,-0.005985258887928833,-0.8130450187112981,0.8737351548878709,0.006675101014683488,0.6517645128570411,0.9965404866522557,0.006720152449314546,0.6517179959592286,1.004864218869905,0.0,0.0,0.0,0.0
0.0011176110525554861,-0.0017142096862336656,0.7294281144767379,0.00018750025570434052,-0.5231845809537888,-0.0002841092513434636,0.8522193252782969,0.005009428744171601,-0.811405166969707,0.876305769799242,-0.017429377476679907,-0.8131806119646704,0.8689762832308624,0.008679047014986792,0.6526732160593138,0.9953406622961194,0.008759012913655724,0.6523645201893417,1.006511916612318,0.0,0.0,0.0,0.0
0.0015787760219666163,-0.002275411838620966,0.7293445858109906,0.00027321381368715147,-0.5231820460764353,-0.0004420581287580457,0.8522207909937997,0.006816847343309148,-0.8124061846768832,0.878711517544661,-0.02870016379109941,-0.8143089896130689,0.8651459784293135,0.010971492723280046,0.6538875737145851,0.9938911062222858,0.011101745006581416,0.6531105389099189,1.0085767555531568,0.0,0.0,0.0,0.0
0.002085521375957389,-0.0029250705905575617,0.7292519965701874,0.0003765139763129894,-0.5231869588011759,-0.0006193012249223827,0.8522176252833515,0.008893955526961754,-0.8133432034042807,0.8811385173919463,-0.03890440282091058,-0.8159422995136529,0.8618593190432833,0.013645201317198267,0.6552482551016654,0.9921964119043828,0.013848989995379434,0.6539609766825285,1.0109584168578487,0.0,0.0,0.0,0.0
0.0026420277151164378,-0.0036473710803167515,0.7291479665942673,0.0004943973203775567,-0.5231938128597193,-0.000805691825971048,0.8522132013864137,0.011175636301403103,-0.8143321928822863,0.8837325287450548,-0.04802168103533215,-0.8177547468090346,0.8588976798734648,0.016678910184076575,0.656720005122373,0.9903023159311615,0.016987390769824962,0.6549309633189866,1.013614610685886,0.0,0.0,0.0,0.0
0.003262887549177465,-0.004440503473197599,0.7290279826971565,0.0006289952048693351,-0.5232000754443122,-0.0010025001380637962,0.852209059100859,0.01366079472533742,-0.8154731283701182,0.8866564830386142,-0.056295881443007206,-0.819498244720021,0.8561544432225425,0.02004341340952865,0.6583253033986441,0.9882338007401484,0.020495912416340363,0.6560365801696855,1.01655347764064,0.0,0.0,0.0,0.0
0.0039658271802649765,-0.005314625782140233,0.7288872232675814,0.0007859628741746636,-0.5232026094805972,-0.0012170046093589717,0.8522070937247793,0.01639365273496535,-0.8168404001354352,0.8900470236948651,-0.06395738735359097,-0.8208927969959482,0.8536118564507793,0.023732203771405527,0.6601080526736901,0.9859775088221333,0.024377692305734465,0.6572887662584179,1.0198135273300921,0.0,0.0,0.0,0.0
0.004767906316578877,-0.0062875441550855875,0.728721891169226,0.000973328923727791,-0.5231967818772569,-0.0014597709971841367,0.852210096826319,0.019446232973415942,-0.8184785455657562,0.8939979835025108,-0.0711467989016477,-0.8215471131996418,0.8513416667709025,0.02775619779706694,0.6621205882532658,0.9834821953724284,0.028655823126529076,0.6586931339431975,1.0234404905804464,0.0,0.0,0.0,0.0
0.0056840664128602935,-0.007380638414593501,0.7285310094002915,0.001200985385638153,-0.5231775930505153,-0.0017440159662746098,0.852221052410865,0.022906650605550163,-0.8203925755047003,0.8985522386309737,-0.07794265018163515,-0.8209700863736911,0.8494877186795107,0.03212276756215681,0.6644311995187159,0.9806586559855741,0.03335242650948216,0.66025758712747,1.027461276189694,0.0,0.0,0.0,0.0
0.006727911282454936,-0.00861736533243013,0.7283185615822989,0.0014813908505558514,-0.5231424797304298,-0.0020867535227262896,0.8522413958746548,0.026877865218144167,-0.8225281716417359,0.9036928897922687,-0.08442557525201816,-0.8187695713092702,0.8481462440283515,0.036813844788325154,0.6671494866068844,0.9773706917965045,0.038465571685072496,0.6620074033537293,1.0318632494061528,0.0,0.0,0.0,0.0
0.00791928749152704,-0.010022640161918669,0.7280887288097101,0.0018290778534192898,-0.5230781463924384,-0.0025058019520504586,0.8522790788218574,0.031469594724764634,-0.8249088353291071,0.9095040719310608,-0.09079493605716835,-0.8151197300302703,0.8467983667045575,0.041800914301511845,0.6703853921095206,0.9734419306684479,0.04398456303481905,0.6639570586649566,1.0366041732785876,0.0,0.0,0.0,0.0
0.00925266956416386,-0.011611171231714996,0.7278554953402815,0.002256053880590024,-0.5229748224739368,-0.0030188889836409417,0.8523397981958525,0.036766728908749546,-0.827394697221224,0.9158156919874642,-0.09738826638397506,-0.8102872529214594,0.8448148241942764,0.046994394162375934,0.6742362257305974,0.9686689298074874,0.049832907300042,0.6660949229913956,1.041551588876373,0.0,0.0,0.0,0.0
0.010707216875098062,-0.013347908159598569,0.7276335695896516,0.002767660970361051,-0.5228283754030651,-0.0036364800226996955,0.8524257187222762,0.04271014467915046,-0.8298757830109332,0.9224860793262541,-0.10476908597526033,-0.8042796127772436,0.8413834217819457,0.05204532077701944,0.6787685274283534,0.9630414679967098,0.055641049744764144,0.6683634206886674,1.04644593622987,0.0,0.0,0.0,0.0
0.012211220757664726,-0.015106741198996175,0.7273949807976136,0.003353266971173994,-0.5226477166448289,-0.004348148336553598,0.8525310630660973,0.04895661002288128,-0.8323463245308022,0.9292910847304678,-0.11362249182504991,-0.7967884077385874,0.8353364547037995,0.056209273900828825,0.6836763073054004,0.9573552721106511,0.06056554560106313,0.6703710172937631,1.0512331763579432,0.0,0.0,0.0,0.0
0.013606433705412027,-0.016629086698280407,0.7269875063366494,0.003977010582176864,-0.5224465853009012,-0.005094845473159354,0.8526475188750988,0.0547039196239897,-0.8352400034124638,0.9359996345905217,-0.12447529809550306,-0.7871562345859553,0.8245495925560702,0.05830316282687448,0.6876559011328529,0.9541694219928699,0.06320625629485559,0.6709237041996832,1.0567203886060264,0.0,0.0,0.0,0.0
0.014770476568738637,-0.01769935871210218,0.7264752185964393,0.004617160366193313,-0.5221840184395854,-0.005796706086567259,0.8528006396075144,0.059179784265287694,-0.8387850910294116,0.9426642670157409,-0.13664381499429634,-0.7740493491257147,0.8054573409129356,0.057388498333839015,0.6903847942300005,0.9537652572424161,0.06240022891924341,0.669768282825362,1.0618538311049264,0.0,0.0,0.0,0.0
0.015428028166335012,-0.018134980692352153,0.7260156440172928,0.005238039398241228,-0.5218170605611473,-0.006331230846629867,0.853017839067011,0.06155163149485609,-0.8422441358872319,0.9477817777740934,-0.14773378953852628,-0.756485131117459,0.7740387877318514,0.05301833934169038,0.6914014996039853,0.9555555886771259,0.057589444569149315,0.6666983734205738,1.0651138785064669,0.0,0.0,0.0,0.0
0.015459458828408712,-0.018173844614343165,0.7260022950173394,0.005283178620930414,-0.5218024999552572,-0.006332265623920964,0.8530264600094016,0.061648957290577185,-0.8422606282315673,0.947818807515576,-0.14774791039267857,-0.7564574818179581,0.7740364399473031,0.05298432197790381,0.6914640257855652,0.9554527293717171,0.05760836043869111,0.666686379093384,1.0652442079762015,0.0,0.0,0.0,0.0
0.015459458828408712,-0.018173844614343165,0.7260022950173394,0.005283178620930414,-0.5218024999552572,-0.006332265623920964,0.8530264600094016,0.061648957290577185,-0.8422606282315673,0.947818807515576,-0.14774791039267857,-0.7564574818179581,0.7740364399473031,0.05298432197790381,0.6914640257855652,0.9554527293717171,0.05760836043869111,0.666686379093384,1.0652442079762015,0.0,0.0,0.0,0.0
0.01545937890094284,-0.018743979534613965,0.7270915028084313,0.004415440201998642,-0.5216581814042552,-0.005436858851027486,0.8531258325872344,0.061157914135025894,-0.8411638745803344,0.9473030166675085,-0.14806259917102413,-0.7523664756389777,0.7733658284917249,0.03246499191694868,0.6836782492362714,0.9797778772945296,0.07470153820455788,0.6756943481817634,1.0581910826047047,0.0,0.0,0.0,0.0
0.015485060149926243,-0.01960717955842698,0.7283881985257388,0.0038285797596131297,-0.5215236458306749,-0.004805842104848783,0.8532147049237773,0.06193978676751817,-0.8377801472008346,0.9447277684941874,-0.14710063136694135,-0.7498540869451397,0.7752915856740106,0.013370860071686703,0.6789704443751001,0.9978425654144815,0.09025871974762574,0.684791494556216,1.0497583119769467,0.0,0.0,0.0,0.0
0.015537209583072014,-0.020666073926379012,0.7296306811615048,0.0034838783305788214,-0.5214060135159901,-0.004426377740303449,0.8532901258313265,0.06375661387532236,-0.8332185752652405,0.9408361263108096,-0.1451572901180553,-0.749221063144779,0.7794595028354968,-0.0013359074916932303,0.6759097294739697,1.011303070230509,0.1038276403334632,0.6928693541622248,1.041969181962053,0.0,0.0,0.0,0.0
0.015605035577177165,-0.021838299114495748,0.7307672578279555,0.0032947996889710353,-0.5212937933923905,-0.004212047194680561,0.8533605240014394,0.06621555477423965,-0.8281549699614791,0.9362123138638199,-0.1426203256770169,-0.7499707330534351,0.7850724102419564,-0.013075752115287609,0.6739216874399335,1.0219892471649026,0.11598278543710437,0.6999413053231232,1.0351628059247775,0.0,0.0,0.0,0.0
0.015674001006974622,-0.023060173870381246,0.7317969484148136,0.0031964999111403045,-0.5211740463426937,-0.00408714387446748,0.8534346436968979,0.068986114961256,-0.8229982041593341,0.9312392226856533,-0.13980324087615695,-0.7515786023533632,0.7914099999410702,-0.023042247103365235,0.6726655734089895,1.0309306619523013,0.12722704194109835,0.7061709969533878,1.0292644758535954,0.0,0.0,0.0,0.0
0.015681999092588446,-0.02426489086242825,0.7327261411401276,0.003137946922187687,-0.521039220012078,-0.004002079611223133,0.8535175849723919,0.07178822523509802,-0.8178232959137617,0.9257904603139963,-0.13694689305020685,-0.7532937873230566,0.7972813376611173,-0.03223309227061825,0.6717894274193452,1.0385627694678317,0.1376963916616363,0.7115016485707208,1.0241528595305587,0.0,0.0,0.0,0.0
0.01558519817229906,-0.025426548341546194,0.7335617201519334,0.003088938190253222,-0.5208815185381351,-0.003925694694934645,0.8536143690375798,0.07448654028410398,-0.8126202682275714,0.919688831651706,-0.13416488446462319,-0.7547093977508118,0.8020324601752291,-0.04121790528486677,0.6711121163627286,1.0448964701660735,0.14756080232466934,0.7158885831488546,1.0197750316819831,0.0,0.0,0.0,0.0
0.015372197244537556,-0.026571626292852236,0.7343107717676834,0.003038303446025864,-0.5206881444122041,-0.003846918394322454,0.8537328775440318,0.07712628774315904,-0.8073516931354956,0.9128064383488488,-0.1314143656062054,-0.7558842935578572,0.8057496493958842,-0.05038498081562731,0.670706175309451,1.0495780385764937,0.15713945591682466,0.7193465725574982,1.0161552426361395,0.0,0.0,0.0,0.0
0.01502758168367712,-0.02774477468189153,0.7349835817156863,0.002977681666876231,-0.5204403735712168,-0.003757818270965865,0.8538845529524384,0.0798046843873593,-0.8019176346037203,0.9049060600577029,-0.12860092736247716,-0.7569437482066631,0.8086001403546647,-0.06017510151603095,0.6708777561608229,1.0517265167795515,0.1668371034145282,0.721874664801417,1.0133222991738728,0.0,0.0,0.0,0.0
0.01454114410462621,-0.028999722845560072,0.7356051713383148,0.0028992221204216804,-0.5201137177892043,-0.0036514348006192092,0.8540842944946858,0.08264323774073822,-0.7961924630295252,0.8957512209233358,-0.1256064179581485,-0.7580523734350642,0.8108526861162112,-0.07112603439107584,0.6723176888804885,1.049876411163754,0.17709228562792945,0.7235366926648971,1.0111658173235312,0.0,0.0,0.0,0.0
0.013925557346797103,-0.030384217699732,0.7362284570833021,0.0027996281033863747,-0.5196851449062424,-0.0035216517644444806,0.8543460131674464,0.08574638632283645,-0.7900619228011714,0.8852731122237556,-0.12233084368048314,-0.7593819447975397,0.8129258599093746,-0.08340530370490884,0.6742806900003186,1.0458016678070499,0.18823702950129476,0.7245817046973964,1.0092606811312408,0.0,0.0,0.0,0.0
0.01317271309581923,-0.03191063204645229,0.7369102370098831,0.002657029780410472,-0.5191237606218819,-0.003340922232910287,0.8546884225196775,0.0890818698183433,-0.7835070679426743,0.8734440069778912,-0.11880055065503402,-0.760826725457952,0.8147913476536669,-0.09775920024272958,0.6763637261138322,1.0407735107656615,0.20053582148885066,0.7252198744945135,1.0070535883608762,0.0,0.0,0.0,0.0
0.01227983546067677,-0.03357206300795194,0.7376758354492162,0.00243086078599174,-0.5183802732731118,-0.0030641629076301885,0.8551412714299366,0.09254493237225396,-0.7768629376825722,0.8605815649131802,-0.11513298473055655,-0.7623873836305053,0.8164695543808744,-0.11610656300083962,0.6785453025408608,1.035812231209058,0.21429977775826722,0.7255191322512727,1.0041770916681956,0.0,0.0,0.0,0.0
0.011236486462513455,-0.03528852842458422,0.7384818096728164,0.0020468163502160575,-0.5173934297723419,-0.0026110274473087353,0.8557412178380275,0.09579130649654405,-0.7710706099612072,0.8475801324656083,-0.11170456569422733,-0.7639548062961106,0.8175901933769744,-0.14216555202501624,0.6812340154052178,1.0319718091836534,0.22969929515158613,0.7252267656462409,1.0006865792169894,0.0,0.0,0.0,0.0
0.01008161057279775,-0.0368710391529385,0.7391369367628222,0.0014013894138718119,-0.5160784475432321,-0.001825701304452974,0.8565382296802782,0.09806448635407704,-0.7685033796236921,0.836971055652294,-0.10937898209168495,-0.7657691077662693,0.8179789831902773,-0.18102997122663836,0.6855904182264204,1.0302220863983367,0.246891798543042,0.7236409043674111,0.9976558952668566,0.0,0.0,0.0,0.0
0.00885093204432559,-0.03811160529573098,0.7391334467149331,0.0005113773340074072,-0.5144117769813877,-0.0007307036675975962,0.8575428434009716,0.09897458679944178,-0.7717671919863172,0.8311995084615087,-0.1087020608136055,-0.7692417574211644,0.8180276191389524,-0.23465865285304102,0.6914164445574043,1.031938305212611,0.2640303061706805,0.718171190860415,0.9991193137520933,0.0,0.0,0.0,0.0
0.0077835915276469264,-0.038972997441461085,0.7381725988760561,-0.000286029148148874,-0.5125339918150256,0.0003233484554554899,0.8586668276271409,0.09915941169499581,-0.7811327535003327,0.8315350790305036,-0.10915327505192053,-0.7769611912581135,0.8208817433238613,-0.28951627666041746,0.6942140011762669,1.0391693128897441,0.2768118797202805,0.7074479769200832,1.0076457629915785,0.0,0.0,0.0,0.0
0.007790656192659485,-0.03899850210245297,0.738156217208226,-0.0003208444973222126,-0.5125360479605254,0.0003528803691715831,0.858665576388887,0.09915483809181673,-0.781173171942281,0.8314631732232473,-0.10916148791921897,-0.7769621384354796,0.8209204600925145,-0.2895397759575496,0.6942149224200126,1.0391705806170581,0.27684472397250387,0.7073938182095695,1.0075780029874422,0.0,0.0,0.0,0.0
0.007790656192659485,-0.03899850210245297,0.738156217208226,-0.0003208444973222126,-0.5125360479605254,0.0003528803691715831,0.858665576388887,0.09915483809181673,-0.781173171942281,0.8314631732232473,-0.10916148791921897,-0.7769621384354796,0.8209204600925145,-0.2895397759575496,0.6942149224200126,1.0391705806170581,0.27684472397250387,0.7073938182095695,1.0075780029874422,0.0,0.0,0.0,0.0
0.007910370460487755,-0.03933149508208778,0.738446568494958,-0.00029239222770410214,-0.5136639611162008,0.0003112602521876315,0.8579913476686433,0.0998082467897023,-0.773016314993693,0.8237904826614973,-0.10795191410695101,-0.7711824477242217,0.8168297761361448,-0.29134447186233503,0.7000280448341119,1.0380729723215734,0.2823098932486662,0.7132839765788556,1.0079543635921413,0.0,0.0,0.0,0.0
0.00806375548542155,-0.03979390247304646,0.7386047666913017,-0.00020944139520862848,-0.5143980076322061,0.00020943632064297467,0.8575515156623224,0.1010168978781048,-0.7671458320599452,0.8180895655827122,-0.10642915704055171,-0.768940801511127,0.8164390660690103,-0.2918494448975228,0.7040659099569131,1.0369678936245386,0.28722437268834433,0.7172714491278334,1.0089893212439527,0.0,0.0,0.0,0.0
0.008338567543074158,-0.04042516795440998,0.7385959799981952,-8.098757252670954e-05,-0.5148805658876332,6.392472046603691e-05,0.8572619157677971,0.10282802179826728,-0.7632520654428612,0.8144054397655207,-0.10451703624864243,-0.770073227816046,0.8200895092928033,-0.29118488590273,0.7069079291343507,1.0363187116085637,0.29257975941157616,0.720056463882138,1.01133740358574,0.0,0.0,0.0,0.0
0.008764475888898417,-0.04131175676925197,0.7382880927754516,9.576041093023428e-05,-0.5152578582297691,-0.00012214012974645587,0.8570351891516494,0.10543564540930182,-0.7607845937146029,0.8119785804466404,-0.1019910680611799,-0.7745439846490665,0.8278314497484072,-0.28935275808555483,0.7085747089012127,1.0373941117297942,0.2997821029575593,0.721802062719533,1.016712372004286,0.0,0.0,0.0,0.0
0.009417600395688694,-0.042502502600889745,0.7373838982304194,0.0002213963986322691,-0.5157300860838265,-0.00025907977553519813,0.8567510502878145,0.10880468155711798,-0.76010216084401,0.8109507951450415,-0.09889238164396173,-0.7822553338741214,0.8395363097570695,-0.2857200341976817,0.7084516045811184,1.0430506257671595,0.31208531257251537,0.7227892038297107,1.0283266947585745,0.0,0.0,0.0,0.0
0.010443798316015086,-0.044077046730107476,0.7378774314208905,-0.0007583377443020179,-0.5168194957896123,0.0009464002176522073,0.8560935334542975,0.11010249901485726,-0.7566750518187358,0.8099748622547233,-0.09742816718547344,-0.78032156830681,0.8469524041468193,-0.2611403134925152,0.7123802402029701,1.035200577306229,0.24163554633759848,0.7096298868439563,1.0241234856402814,0.0,0.0,0.0,0.0
0.011590173122170984,-0.045922577398783235,0.7377396871158038,-0.0016624023213528182,-0.5179244519632652,0.00203837593008051,0.8554223187996914,0.1124357492729754,-0.7546028303062018,0.8094535282770555,-0.09510880490825546,-0.7820285914862815,0.8579519450784303,-0.23583820292290414,0.7139234551331659,1.0319829549746342,0.17818159469964268,0.6984096403078588,1.0230455685071709,0.0,0.0,0.0,0.0
0.012745899675329214,-0.04770671937731043,0.7373810552548709,-0.0022185021042995788,-0.5188016389313416,0.0027247007963852083,0.8548874274991634,0.11553515945963118,-0.7533915738630133,0.8097373307847843,-0.09216581910288474,-0.7869248376485647,0.871423023510054,-0.21555677259481296,0.715049327758455,1.0303894514918137,0.1355107996759974,0.6910895509616399,1.0249342035804276,0.0,0.0,0.0,0.0
0.01377142195056729,-0.049317608139547386,0.7369892250094117,-0.0025336025179927444,-0.5194598870955075,0.003125998725642338,0.8544853624778899,0.11881964387209715,-0.7524079247193307,0.8099498610614454,-0.08907525212592855,-0.7928607354670935,0.8846644498494816,-0.19954717370150604,0.7159315488648069,1.0292715288789243,0.10763828881527379,0.6861670043119865,1.0286566554313616,0.0,0.0,0.0,0.0
0.014631642993043772,-0.05073009063889424,0.7366345119458129,-0.002721276920724471,-0.5199550667407453,0.0033702962602837217,0.854182629374811,0.12193622469728961,-0.7514480069570826,0.8098315826034405,-0.08613675589835158,-0.7986257113514058,0.8964602340926369,-0.1865216581928234,0.7165775864249175,1.0282430869103036,0.08807492333522057,0.6824347693134888,1.033285453553981,0.0,0.0,0.0,0.0
0.01533861891421507,-0.051965512746931494,0.7363269608091477,-0.002850516678354007,-0.5203365105625125,0.003537123650957805,0.8539492251220634,0.12476387972310708,-0.7504780641562785,0.8093656247832814,-0.08345596011743277,-0.8038027404967991,0.906593429598068,-0.17545188149583868,0.7169547711332773,1.0272457748649302,0.07272263675167777,0.6792544791629546,1.038135618953314,0.0,0.0,0.0,0.0
0.015916931884729594,-0.05306014405343758,0.7360411604734892,-0.0029561510722183808,-0.520639238841067,0.0036693175398603214,0.8537637731003959,0.12730274376120695,-0.7495463046888861,0.8086043245722391,-0.0810365145300385,-0.8083931973874904,0.9152614387109291,-0.16563865419944004,0.7169716349500738,1.026446893705756,0.059439617557628256,0.6763907243912112,1.042598693552872,0.0,0.0,0.0,0.0
0.016381303769447682,-0.05405605740742112,0.7357285750922847,-0.003052030714465496,-0.520884603451607,0.003786504883409919,0.8536132481260749,0.12961786963252714,-0.7486953776508037,0.8074998533528124,-0.07882222958630324,-0.8125832462214698,0.9227408108804269,-0.15659848492261022,0.716428777165057,1.026189079298111,0.0472970246322515,0.673880462092532,1.0459158425937292,0.0,0.0,0.0,0.0
0.016711400204538422,-0.05501340141050834,0.7353309790882354,-0.003137525318549456,-0.521084472345773,0.0038886806645470435,0.8534904842924096,0.13185424625792047,-0.7477368304476854,0.8055450302745348,-0.07666378682878922,-0.8165749223113092,0.9291484216564816,-0.1478854194301814,0.7149810892675197,1.0268790420815994,0.036096057784131975,0.6719984605314606,1.0469119197131138,0.0,0.0,0.0,0.0
0.016902487461932725,-0.05597209410769445,0.7348030762860311,-0.003211587170225802,-0.5212426361827766,0.00397807110839584,0.8533932123489935,0.13410554807601352,-0.7466340862066252,0.8025206372777043,-0.07447089942010261,-0.8205836014513754,0.9346690981814623,-0.1392012638954786,0.7123832127832332,1.0288201272181243,0.025948291705173245,0.6715055209076327,1.043906445805888,0.0,0.0,0.0,0.0
0.016962763894748382,-0.05697124692372824,0.7341341597803869,-0.003281526303744502,-0.5213676036274214,0.004061407332771553,0.853316212457841,0.1364558886585737,-0.7453008219273015,0.7982737976561046,-0.07215796959424067,-0.824718253505367,0.9394972354085042,-0.1301563363721728,0.7085775086555431,1.0319847446139032,0.0163692109523944,0.6716810971573574,1.0383245366882214,0.0,0.0,0.0,0.0
0.0169015146427235,-0.05803488352158612,0.7333323953766241,-0.003359870360780156,-0.5214632852869373,0.004151842662393338,0.8532570044080621,0.13893807748515183,-0.7436897817690917,0.7927508603364146,-0.06969002713945456,-0.8289922899000991,0.9437446832048939,-0.12038246680072513,0.703567797229408,1.0361943668980014,0.006899357067861033,0.6722141842273222,1.0309496643957934,0.0,0.0,0.0,0.0
0.01672517521669162,-0.05915784636917052,0.7324109135832241,-0.003467636408822063,-0.5215327449237354,0.0042725673201992765,0.8532135234737812,0.14149120122156308,-0.7418590989616031,0.786051938462363,-0.06712746685867563,-0.8332813571581237,0.9473412707473376,-0.10961907365045306,0.697358280834445,1.041299562336794,-0.0029056092472657183,0.6730673015299354,1.0220223265210926,0.0,0.0,0.0,0.0
0.01653340311940443,-0.060231555964061635,0.7313844739252179,-0.003651378828276573,-0.5215704011372253,0.004478102343152272,0.8531886841078066,0.14376801691704608,-0.7408952874681586,0.7800094199220576,-0.06487952193273387,-0.8375738485349669,0.9506191330701574,-0.09810555534461157,0.6902319571476487,1.0472848760113962,-0.014012304174082809,0.6746203969955386,1.01136879535604,0.0,0.0,0.0,0.0
0.016330298163130703,-0.06119632716215458,0.7302764180094357,-0.003969684022991746,-0.5215649705490784,0.0048527235843222796,0.8531885337829563,0.14544193413530268,-0.7413299867860812,0.7753271722453251,-0.06329263878537249,-0.8414797620923301,0.9532079100664436,-0.08524020068062155,0.6819917689514555,1.0539998186634147,-0.02714036194468018,0.677090705543598,0.9981844518751054,0.0,0.0,0.0,0.0
0.01612602917771759,-0.06198195276690709,0.7291487971360392,-0.004504339858054909,-0.5214847242935602,0.005510235109833863,0.8532309362417346,0.1460975736541014,-0.7438868375984647,0.7730177027177841,-0.06281038091559896,-0.844519600921842,0.954748858156695,-0.07013429867635215,0.6724567930441592,1.0609129112134603,-0.04298283865668139,0.6809562331780361,0.9809563150972445,0.0,0.0,0.0,0.0
0.015944040515594414,-0.06250966681091275,0.7282259815945299,-0.0053005866466137655,-0.5213186149387796,0.00646898477178975,0.8533211340026312,0.1454977751588986,-0.7484889063317619,0.7736775205710297,-0.0636450267391157,-0.8458556909056487,0.9548288031627362,-0.05305646699022906,0.6626294118593159,1.0662205569954424,-0.058808052078138384,0.6875603814206224,0.9583674793781988,0.0,0.0,0.0,0.0
0.015949904145440296,-0.06252192363427547,0.7282098947973646,-0.005314028717240332,-0.521326814906742,0.0064772679782713165,0.8533159779105988,0.145508744474773,-0.7484877387646882,0.7736227403569074,-0.06363044297321846,-0.8458696753567161,0.9548543744538144,-0.053045075711209526,0.6625919047239874,1.066216525009452,-0.05881277956005841,0.6875569713379925,0.9583594004571575,0.0,0.0,0.0,0.0
0.015949904145440296,-0.06252192363427547,0.7282098947973646,-0.005314028717240332,-0.521326814906742,0.0064772679782713165,0.8533159779105988,0.145508744474773,-0.7484877387646882,0.7736227403569074,-0.06363044297321846,-0.8458696753567161,0.9548543744538144,-0.053045075711209526,0.6625919047239874,1.066216525009452,-0.05881277956005841,0.6875569713379925,0.9583594004571575,0.0,0.0,0.0,0.0
0.015275033347513163,-0.06279233297612141,0.7286572815118235,-0.0045900596770547105,-0.522024994284166,0.005700675958870546,0.8528987858992352,0.13220676640623866,-0.767757835419385,0.8089722577571496,-0.061037562280299225,-0.8405985567218087,0.9475484664439465,-0.062014609813978425,0.6676767628249289,1.0643121297610025,-0.06679477525598221,0.6863685034245942,0.9563781000016661,0.0,0.0,0.0,0.0
0.014023875767938218,-0.06379826944462141,0.729188571729444,-0.003950935696134344,-0.5224926976594635,0.004923060166186008,0.8526203929523745,0.11746861507498577,-0.7820160861958971,0.8300084226031095,-0.056476345254526814,-0.8353425247348341,0.9387375195302874,-0.0642253042120673,0.6696252981504153,1.0596849795288554,-0.06870052593281051,0.6837464524126127,0.956756846199071,0.0,0.0,0.0,0.0
0.012530269989101277,-0.06541794912232075,0.7296291107489334,-0.003348519576066715,-0.5227619048440971,0.004162454877029103,0.8524619945955458,0.10454107659497643,-0.7920239100776855,0.8413015385178382,-0.05041358520917883,-0.831693261783463,0.9310191518875391,-0.06086170646492244,0.669036372303925,1.053823248801654,-0.06581560502091628,0.679851033028001,0.9602621478789689,0.0,0.0,0.0,0.0
0.01091770252745888,-0.06736344095543426,0.7299317691588247,-0.0027835820377077394,-0.5229406342988381,0.0034728680347561425,0.852357485951629,0.09439559229579655,-0.7995395931364717,0.8473440823762619,-0.04373670483142804,-0.8288804609125295,0.9237463458732109,-0.05415830322986757,0.6667095138504923,1.0479483497980815,-0.059987450810806475,0.6751109844071107,0.9662438759226686,0.0,0.0,0.0,0.0
0.00932043932132981,-0.06935468828429561,0.7301851348285879,-0.002275302592909543,-0.5230588543362211,0.0028750127375561287,0.8522886789112885,0.08649521382496438,-0.8055243550696252,0.8505124932570324,-0.03720361324234409,-0.8263093746610934,0.9167139384498587,-0.04626296229651502,0.6638213355263343,1.0419969349591143,-0.05295330722128703,0.67041982161698,0.9726648769525603,0.0,0.0,0.0,0.0
0.007837852277878941,-0.07120165225533928,0.7304526833607543,-0.0018401974678467115,-0.5231313237659131,0.0023765049521701715,0.8522467858504454,0.07987972642761496,-0.8105015134875894,0.8521360415179102,-0.031305268321889464,-0.8237005696420384,0.9099640621390065,-0.03854168352628855,0.6611479335297535,1.0359201135104368,-0.04588749127840112,0.6663785540235072,0.978154741521522,0.0,0.0,0.0,0.0
0.00650533239245305,-0.07283567322112146,0.7307180305624519,-0.001477319386682431,-0.5231709465814387,0.0019639843241996695,0.8522242198776595,0.07375289311489545,-0.8146701148569385,0.8529939158313883,-0.02617435839736467,-0.8211200191927484,0.903618844254487,-0.031579005370124195,0.6588219157434398,1.0301114511699245,-0.03936148422801841,0.6629549083239226,0.9826332324932449,0.0,0.0,0.0,0.0
0.005333392957522241,-0.07425339868615961,0.730962315639494,-0.0011784938369848322,-0.5231890846140971,0.0016211657643184175,0.8522142715975272,0.06758939893538213,-0.8179055047722236,0.8536622720558287,-0.02177157384687512,-0.8187018765933388,0.8978403694095335,-0.025493934997183585,0.656827998098813,1.0248179022386303,-0.03354735951650535,0.6600439001552322,0.9863043985541667,0.0,0.0,0.0,0.0
0.004331285498320938,-0.07549222613498857,0.7311751153907756,-0.0009315976267297178,-0.5231908182031797,0.0013310005953353307,0.8522140155566349,0.06113880346511225,-0.8198262776006077,0.8545546191857886,-0.017955532163384202,-0.8166804109767731,0.8929532832470273,-0.02014270446945958,0.6551497780000283,1.0200671070588427,-0.028361188452501133,0.6575802336836033,0.9894185151112372,0.0,0.0,0.0,0.0
0.0034580615042291555,-0.07658003882018043,0.7313598104192722,-0.0007260176124835267,-0.523187888368132,0.0010800615792828303,0.852216369140083,0.05421231649269614,-0.8202274246230358,0.856072703207975,-0.014616889095639421,-0.8149022607955116,0.8886649792155774,-0.015431548742534846,0.6537078447491156,1.0158428314487786,-0.023743562472740516,0.6554472452930493,0.9921198813797178,0.0,0.0,0.0,0.0
0.0026980326465255947,-0.07754657088122359,0.7315176139236264,-0.0005525094776607112,-0.5231786972519037,0.000856393950707864,0.8522223958946862,0.04675782231194383,-0.8194308661605031,0.858083488233849,-0.01164955527317085,-0.8134159019205921,0.8849945994791103,-0.011254042368179442,0.6524589071751831,1.012079297636311,-0.01961173053486069,0.6535674687896762,0.9945179960623571,0.0,0.0,0.0,0.0
0.0020366747949285865,-0.07841317362026345,0.731653242674792,-0.00040429747412981616,-0.5231655725595061,0.0006515507744087926,0.852230717419658,0.03873353854951748,-0.817871655745331,0.8604178303435298,-0.008977585488116361,-0.8122048595568592,0.8818963142658246,-0.00753659929461382,0.6513914264305266,1.0087032676341015,-0.01590699122532458,0.6519038461271602,0.9966651557343192,0.0,0.0,0.0,0.0
0.0014611516138178294,-0.07919133853613537,0.7317732877215135,-0.0002770952531758257,-0.5231512913726317,0.0004606923035845127,0.8522396595535611,0.030119857558839717,-0.8159054843424282,0.8629629097390074,-0.006559212905494969,-0.8112149341448673,0.8792839322803381,-0.004241652513640286,0.6505068415673747,1.0056488413677538,-0.012601582156453992,0.6504434471665613,0.9985617981277273,0.0,0.0,0.0,0.0
0.0009637535502948831,-0.07987826472775321,0.7318847302383186,-0.00016960849205234293,-0.523138403060522,0.0002838520353382012,0.8522476763853736,0.021005425472910857,-0.8137916069732217,0.8656685663062769,-0.004401042346259248,-0.810369814383704,0.8770557279666308,-0.0013834892785012827,0.6498169265405859,1.0028820979721094,-0.009717060050735124,0.6492000033256217,1.0001533032074146,0.0,0.0,0.0,0.0
0.0005475485297752369,-0.08045220814034607,0.7319935203342507,-8.397470118554679e-05,-0.5231295475979798,0.00012830515913038397,0.8522531624558332,0.011791099004737874,-0.8117595355172393,0.8685113497291838,-0.0025757708003627785,-0.8095905383422277,0.8751348722990223,0.0009608694898708293,0.6493479550251845,1.0004251699486297,-0.007337617053498221,0.6482284763369519,1.0013265377630682,0.0,0.0,0.0,0.0
0.00023287444660347902,-0.08087104161524038,0.7321005092291355,-2.7748600966295678e-05,-0.5231246129246938,2.035884876498529e-05,0.8522562045347172,0.003502384449390066,-0.810119043712919,0.8714151110412576,-0.0012565136673907938,-0.8088389298188052,0.8735425809080642,0.0027316009539394065,0.6490991880860358,0.9983763890248029,-0.005531799741649239,0.6476484179341822,1.001944054397725,0.0,0.0,0.0,0.0
4.6977482154835555e-05,-0.08108708888295871,0.7321935278468737,-5.942378994819297e-06,-0.5231296343159519,-1.6545541325057074e-05,0.8522531228405041,-0.00214407704552628,-0.8094159994984432,0.8741600979260191,-0.0006239341566040866,-0.8081144745021543,0.8723417717877836,0.0037970857401508885,0.649055961188805,0.9969830019166558,-0.00444013628777476,0.6475393131886045,1.0019708173001323,0.0,0.0,0.0,0.0
4.705848436965722e-05,-0.08108860087855906,0.7321926705856051,-6.793689203613233e-06,-0.5231290825020322,-1.7572933140135024e-05,0.8522534615275081,-0.0021539586895882286,-0.809410948134246,0.8741622812815454,-0.0006182250702709578,-0.8081169882864798,0.8723402765786542,0.003793899015299287,0.6490600315301576,0.9969776886219197,-0.004435973977428764,0.6475335437701103,1.00197614630476,0.0,0.0,0.0,0.0
4.705848436965722e-05,-0.08108860087855906,0.7321926705856051,-6.793689203613233e-06,-0.5231290825020322,-1.7572933140135024e-05,0.8522534615275081,-0.0021539586895882286,-0.809410948134246,0.8741622812815454,-0.0006182250702709578,-0.8081169882864798,0.8723402765786542,0.003793899015299287,0.6490600315301576,0.9969776886219197,-0.004435973977428764,0.6475335437701103,1.00197614630476,0.0,0.0,0.0,0.0
4.705848436965722e-05,-0.08108860087855906,0.7321926705856051,-6.793689203613233e-06,-0.5231290825020322,-1.7572933140135024e-05,0.8522534615275081,-0.0021539586895882286,-0.809410948134246,0.8741622812815454,-0.0006182250702709578,-0.8081169882864798,0.8723402765786542,0.003793899015299287,0.6490600315301576,0.9969776886219197,-0.004435973977428764,0.6475335437701103,1.00197614630476,0.0,0.0,0.0,0.0
0.00021644502908100917,-0.08131300738178322,0.7321346769460444,-2.5526728562068865e-05,-0.5232084889704719,1.2431763881503613e-05,0.8522047149969736,-0.0016553084293523422,-0.8095552130013007,0.8747279827164985,-0.0001201629391527594,-0.8091866625490081,0.8744842046867923,0.005612223443302566,0.6492876299537194,0.9967074992358121,-0.0026223395207584004,0.6481648959157695,1.0033260865244484,0.0,0.0,0.0,0.0
0.00042593672375485625,-0.08165244009338621,0.7320652496784504,-1.7404443573997308e-05,-0.523286505692875,1.8521333619325092e-05,0.8521568120444654,-0.0008171331079078946,-0.8096064137080022,0.8752286036214556,0.0007181864885801784,-0.8108649647283347,0.8775597727384706,0.007897701310239081,0.6496177230048535,0.9961319075274546,-0.00033105897807198664,0.648819881218872,1.0051038930624208,0.0,0.0,0.0,0.0
0.0006336515681961416,-0.08211970550101275,0.7319985887525201,-2.307640487488179e-05,-0.52331849041624,3.0892549593531995e-05,0.85213716976881,0.0003375647374672983,-0.809641361101954,0.8755187435078692,0.0018743817290344774,-0.8130707663052648,0.8813225172867751,0.01117319196672581,0.6497426635520308,0.9949770735960202,0.002981291972632868,0.6494717512801631,1.007205139048426,0.0,0.0,0.0,0.0
0.0008833907980101219,-0.08279446870464059,0.7319232627761613,-1.9186771126239203e-05,-0.5233035759974747,1.791099404123859e-05,0.8521463293703255,0.002082449695960406,-0.8096594259794863,0.8756964732321684,0.0036233919354980598,-0.8163421530115816,0.8865918094116537,0.015622268182464177,0.6498147702487762,0.9930601131033578,0.007522907519803865,0.6501237362203018,1.0099235075052202,0.0,0.0,0.0,0.0
0.0012777242880902383,-0.0837896810739911,0.7318298938204094,0.00020253764004100254,-0.5234924141211765,-0.0004021855405368847,0.8520302163555455,0.005612218200735302,-0.8075589661320203,0.8742315501160648,0.007164861206543903,-0.8208451337846163,0.8940062746791069,0.01835408770333629,0.6519371156083154,0.9909223528796572,0.01032748070569091,0.6505091979287897,1.0137100703087203,0.0,0.0,0.0,0.0
0.0021236578994161476,-0.0845704056166325,0.7316580992666158,0.0002890932710955379,-0.5233597050957662,-0.0004383360932747219,0.8521116965331613,0.00764449437289673,-0.8113074732033868,0.8807175298003945,-0.010838049063700032,-0.8147274254223967,0.8804961704713741,0.022913019806581093,0.653124224392439,0.9887322278895051,0.015044448087017805,0.6521029058441516,1.0167886417463297,0.0,0.0,0.0,0.0
0.003111271413170245,-0.0855625406403492,0.7314441426422,0.000465207360287433,-0.5233459717563892,-0.0006782742149682784,0.8521198961252824,0.01072497723509256,-0.8142114899178217,0.8867717570593249,-0.03299607375010947,-0.8113472351709939,0.8707831444422748,0.027124891857370017,0.6553743405248998,0.9864864870051354,0.019442995768876585,0.6537654959173423,1.0208094448706082,0.0,0.0,0.0,0.0
0.0041947290124342155,-0.08678230213486861,0.7312039283922669,0.0007006560685754492,-0.5233612205709692,-0.001042278891893334,0.852110002017492,0.014700467733328643,-0.8166236615542887,0.8924677334108323,-0.05477568583722597,-0.809781559816359,0.8634202684508167,0.03178588460689072,0.6581590901243891,0.9837247114940114,0.024356927001649473,0.6554783570390832,1.0255999402386984,0.0,0.0,0.0,0.0
0.005340405435119428,-0.08818939472283016,0.730948079219247,0.0009589105949351682,-0.5233587245747197,-0.0014439111976414507,0.852110697634085,0.019259775909849786,-0.8188736266439722,0.8979849420039123,-0.07442284101819173,-0.809288124411082,0.8573372014709094,0.037387721200365515,0.6610676116968391,0.9803075770201438,0.030339459082384453,0.6573436528496112,1.0309350973850446,0.0,0.0,0.0,0.0
0.006555149657036079,-0.08975538280744282,0.7306743105826848,0.0012376588900324217,-0.523331918481984,-0.001866827007632735,0.8521259802724955,0.024291422615512943,-0.8211208388338557,0.9035338871041376,-0.09185766497867218,-0.8093307142636103,0.851962892855076,0.04386081068612204,0.6640645246382725,0.9762997329847972,0.03736703296156134,0.6594099095280365,1.0367173349165166,0.0,0.0,0.0,0.0
0.007862426906460815,-0.09147999396529148,0.7303764230812516,0.0015457145854057852,-0.5232781501909995,-0.002318741847781736,0.8521573867164149,0.02981576777692239,-0.8234729078662436,0.909317739249187,-0.10755781923296051,-0.8095280256331875,0.8470033587599284,0.05110812578668339,0.6672209154038778,0.9717173558418244,0.04538870264144912,0.6617102418631651,1.0429416171388552,0.0,0.0,0.0,0.0
0.009287303930343487,-0.09339250418557479,0.7300484420025165,0.00189370035824818,-0.5231827695361778,-0.002816597214486849,0.8522137468613957,0.03595568042073849,-0.8260141267812308,0.9154801638010792,-0.12199883975447977,-0.8095466711420131,0.8423226111012554,0.059159336403642515,0.6706015634074719,0.9664433447025751,0.054497935081221055,0.6642514269730452,1.0496565414231185,0.0,0.0,0.0,0.0
0.010862049012383627,-0.09553947484230299,0.7296820480831726,0.002300437147762103,-0.5230319014243662,-0.0033898414862733486,0.852303260028987,0.042911162264123504,-0.8287726012968621,0.922114511305674,-0.13547022836287695,-0.80898739159667,0.8379526918922684,0.0680321525811929,0.6743270295087009,0.9603148149865339,0.06479139564821422,0.6670335147421427,1.0569572800906482,0.0,0.0,0.0,0.0
0.012706854302235181,-0.0979294207077558,0.7292608040403086,0.002820928276429125,-0.5228387799860428,-0.004091597479517393,0.8524170993923287,0.050835617696352274,-0.8320530917330751,0.9300524207841192,-0.14829636091686718,-0.8070170821943506,0.8337479501459456,0.07716559944206147,0.678939511997714,0.9533623903578965,0.0757171401521457,0.6702412193894167,1.0648057099646522,0.0,0.0,0.0,0.0
0.01486462109236213,-0.10061921441940459,0.7287856387531253,0.003487377563728913,-0.522586486056726,-0.00496928462348233,0.8525646655819968,0.06001003353833452,-0.8357693083902075,0.9393060526756977,-0.1607487697568857,-0.8032154756643035,0.8296375993605951,0.0864795263832508,0.6847104236405841,0.945258853460696,0.087247322447301,0.6739179210804922,1.0731770296509051,0.0,0.0,0.0,0.0
0.017363216131257807,-0.10365861663364576,0.7282750520427402,0.00432307721833438,-0.5222379658524068,-0.006058399813400298,0.8527673268936877,0.07067749675608653,-0.839825461308871,0.9498257138197685,-0.17328859330517712,-0.7977503033873611,0.8248082040653265,0.09594238375954459,0.6918883987350091,0.9354682305267553,0.09942526588718703,0.6781267306280644,1.081846430262903,0.0,0.0,0.0,0.0
0.0202453027483706,-0.1070340338762357,0.7277428476955375,0.005366738625054776,-0.5217982655157356,-0.007403245773065748,0.8530199060826914,0.08293497796891894,-0.8440450619895814,0.961640927645053,-0.18667450766712784,-0.7907233344993686,0.8181161737324677,0.10497048315599308,0.7009337225381959,0.9237923116768103,0.11162338338603546,0.682967385046178,1.090481948244165,0.0,0.0,0.0,0.0
0.023553140878124854,-0.11059957615551934,0.7271628796816849,0.006669099027792247,-0.5213532644115434,-0.009052341057740028,0.853266870285586,0.09653307465437999,-0.8482101829043343,0.9748852527479981,-0.20207809840786053,-0.7817792421718227,0.8080835312391811,0.11207895011458979,0.7123651571257068,0.9111004684142106,0.1219844994299866,0.6884096509776709,1.0988501483373483,0.0,0.0,0.0,0.0
0.027204984534217845,-0.1139290925427866,0.726263386061402,0.00823979895640064,-0.5210857211902734,-0.01097344232926286,0.8533940241460665,0.11029183411485441,-0.8527853989106161,0.9897816116332415,-0.22080777158809162,-0.7699943303603525,0.7923375195333154,0.11479658976993927,0.7250292396729312,0.9021181148951242,0.12712346223934495,0.6931713828321265,1.1084348035526437,0.0,0.0,0.0,0.0
0.030844404870603054,-0.11670794073022851,0.7250320145891743,0.009941726508168078,-0.5208778435110241,-0.012892592423165372,0.8534759605717972,0.12272055952979782,-0.858490113557105,1.0057036131070978,-0.24215876340052814,-0.7534326908479804,0.7661622223379231,0.1131145634753856,0.7366715843772299,0.898345943121111,0.12661861557767717,0.6960496911776655,1.118921535175269,0.0,0.0,0.0,0.0
0.034038047869995015,-0.11871381453352393,0.7236542846828623,0.011672204822270651,-0.5206528688813008,-0.014559239685519705,0.8535645132619077,0.13250904458639376,-0.8648143220739093,1.0208173925775816,-0.2653302591426958,-0.7298088753632185,0.723213895237494,0.10703373239652482,0.7459984100758944,0.8993700617059167,0.12015609952158873,0.6962810781766763,1.128907062966416,0.0,0.0,0.0,0.0
0.03600196431145295,-0.11966257218247525,0.7225079135620842,0.013182430693277741,-0.5202460586380431,-0.015533251055920896,0.853773377486223,0.13760677831756382,-0.8707253162734301,1.0316707013239927,-0.2866630950617082,-0.6962280098432501,0.6562944692109145,0.0980657110344387,0.7505363031868588,0.9034813047229986,0.10950673945990132,0.6930008975362766,1.1360045768333091,0.0,0.0,0.0,0.0
0.03610081202693947,-0.11975579851661794,0.7224449751675048,0.013287115209530784,-0.5201944349496529,-0.015524872897231506,0.8538033618687296,0.13789192427362618,-0.870796116663207,1.031714841898515,-0.28670090054910513,-0.6961650543352881,0.6562847758920483,0.09791176221016254,0.7506865384508689,0.9032581355800428,0.10959240566554591,0.6930100332039286,1.1363256382704812,0.0,0.0,0.0,0.0
0.03610081202693947,-0.11975579851661794,0.7224449751675048,0.013287115209530784,-0.5201944349496529,-0.015524872897231506,0.8538033618687296,0.13789192427362618,-0.870796116663207,1.031714841898515,-0.28670090054910513,-0.6961650543352881,0.6562847758920483,0.09791176221016254,0.7506865384508689,0.9032581355800428,0.10959240566554591,0.6930100332039286,1.1363256382704812,0.0,0.0,0.0,0.0
0.03547019942869091,-0.12107197923403934,0.7248308005778143,0.011253047103985059,-0.5190526022560167,-0.013892802458842937,0.8545552966672036,0.13797569951867686,-0.8698872467623111,1.0289868898499956,-0.2861058123393045,-0.6888564130160749,0.6540868918496189,0.055062585090105115,0.7313627973035558,0.947699192369629,0.1518694868583694,0.7087356951808099,1.1210356149192664,0.0,0.0,0.0,0.0
0.03474332216827339,-0.12292683308426311,0.7276320407377052,0.009834875543591342,-0.518076245015755,-0.012664545180757047,0.855184125711406,0.1399220384920616,-0.862920964463693,1.0201522891921764,-0.2833350693140459,-0.6839806108424293,0.6560762355314536,0.016522134065321638,0.7189172408918006,0.9776733629058811,0.18926821322877413,0.7238989903085079,1.1028782581291539,0.0,0.0,0.0,0.0
0.034042149572652725,-0.12505611365380775,0.730254336116893,0.00896814529623701,-0.5173541989423223,-0.011857315025935147,0.8556422203743042,0.14328223894992073,-0.8525271083449985,1.0075258623459156,-0.2791321796969126,-0.6820448918681372,0.6615320550424473,-0.013040380052131071,0.7113969803610709,0.9976972191952864,0.22013855161013934,0.7368483805304965,1.0861106052543625,0.0,0.0,0.0,0.0
0.03338681518211472,-0.12730497422160755,0.7325756848491156,0.008464365114411945,-0.5167833868487719,-0.011350802300135951,0.8559990916393928,0.14750426719348983,-0.8406954329625517,0.992974807249317,-0.27416066757003943,-0.6825382642375866,0.6693919138969616,-0.03701028556279684,0.7072089740637796,1.011926673279764,0.24607209163593366,0.7475940066885806,1.0716015264536805,0.0,0.0,0.0,0.0
0.03270243190763377,-0.12954276185017743,0.7346149057300038,0.008149385962177663,-0.5162693574087042,-0.010993722177289677,0.8563169250820234,0.15195818636145106,-0.8285438188130454,0.9773776877961782,-0.26899431168254434,-0.6840150787632756,0.6774284964482051,-0.05787775424912161,0.7048265728447535,1.0224612396148962,0.2686142151266466,0.7562915739798961,1.0591750851184936,0.0,0.0,0.0,0.0
0.031907917337013016,-0.1317143277834665,0.7364344149097127,0.007908146472190132,-0.515756140626545,-0.010691051446350675,0.856632223328283,0.15631062552378505,-0.8163988360623398,0.9608420606239845,-0.2638867276140304,-0.6853719344562971,0.6840491866913446,-0.07734113067372195,0.7031247474981718,1.0303586387899437,0.28877279138018314,0.7630984434871766,1.0483747360549787,0.0,0.0,0.0,0.0
0.030982077354060993,-0.1338672357452861,0.7381061359048224,0.007688855039617946,-0.5151972788010232,-0.010400531906383138,0.8569740219868189,0.160604016117632,-0.8042202857961195,0.94324740758611,-0.258793306085957,-0.6865758857245625,0.689418992859214,-0.09634619663979747,0.7015076723060735,1.0361065821438842,0.3075088674420014,0.768317494863897,1.0387100787603285,0.0,0.0,0.0,0.0
0.029908399964269777,-0.13607775020242427,0.7397037111477057,0.007458174567822737,-0.5145495958474032,-0.010092232718477914,0.8573687863948314,0.16497008152639134,-0.7917969544572477,0.9242613988465583,-0.2535837894830933,-0.6877739635112377,0.6939727413522669,-0.11553169192380577,0.6997154459803749,1.0396149446333744,0.32570571803930265,0.7722356129982219,1.0296649797067976,0.0,0.0,0.0,0.0
0.028678909735010312,-0.1384407813585956,0.7412961146545418,0.007190143441517873,-0.513763470410254,-0.0097393412065798,0.8578464568570323,0.16959220930114666,-0.7788984234208245,0.903498827313423,-0.2480896920216293,-0.689295105881638,0.6984023815037763,-0.13554299226422106,0.6978357189195007,1.040185784349843,0.34421767669033426,0.7751051168240634,1.0207207912636682,0.0,0.0,0.0,0.0
0.027296102653352052,-0.14104734707935698,0.7429485370028671,0.006857804874621522,-0.5127828958715239,-0.009311862434465377,0.8584404239269706,0.17463906643659982,-0.7653787979549732,0.8806718490461701,-0.2421663822024726,-0.6915220095960943,0.7034722496682008,-0.15719448307247805,0.6963996707484938,1.036517207214045,0.36374504613694625,0.7771443699426928,1.0112935290753757,0.0,0.0,0.0,0.0
0.025749526456869225,-0.1439214605661857,0.7447280442479373,0.006419859064940172,-0.5115624598503467,-0.008756576469678212,0.8591774889101665,0.18005229931469383,-0.7512436842387585,0.8556759566202503,-0.2358597702532365,-0.694283343120243,0.7090992036209042,-0.18111703876016796,0.6945615483384106,1.0305034745569899,0.3845023316104235,0.7785250388734585,1.0006049476823469,0.0,0.0,0.0,0.0
0.02404144178061087,-0.14703244802286053,0.7466335725351744,0.005824177870760442,-0.5100504055632326,-0.008016893651272063,0.8600874328538325,0.18566757825516625,-0.737020509145175,0.8289799025568226,-0.22936888596506916,-0.697472086199861,0.71507408948735,-0.2091239954113061,0.6922261603789411,1.0237484207818806,0.4062633683231386,0.7791003166160573,0.9882856414871102,0.0,0.0,0.0,0.0
0.02214062357622616,-0.15014803674122518,0.7484923252646383,0.004973875149409049,-0.5081917362333421,-0.006957728706065982,0.8612014919874397,0.1907057287903243,-0.7246812539437052,0.8025155978772939,-0.22356123526969754,-0.7002453643915949,0.7194855153970335,-0.2448070071772061,0.6905001058831041,1.017334724484143,0.42816276612113113,0.7779080317096158,0.9751946728662002,0.0,0.0,0.0,0.0
0.019961692360617702,-0.1529099558388614,0.7496956272156543,0.003768679705618048,-0.5058804567672263,-0.005388453375060145,0.862578532705564,0.19407738438861508,-0.7184409172680055,0.7800155256609637,-0.2198524625312963,-0.7026397105005981,0.7201776677132841,-0.2937078832489795,0.6917065761637679,1.011465821960576,0.4492737936456533,0.7717496173895804,0.9662253267644737,0.0,0.0,0.0,0.0
0.017624399673829817,-0.1551477926892992,0.7500137226938288,0.002295498091886829,-0.5031248144786497,-0.003491640307515005,0.8642036566645026,0.1958871813193573,-0.7198996252401221,0.7641245314776607,-0.21837467882150577,-0.7061019099903533,0.718528979424176,-0.3597440181877095,0.6951437360831283,1.0085853129493065,0.46663786230024445,0.7593625252473173,0.9631757034987215,0.0,0.0,0.0,0.0
0.015499992460144349,-0.15680645711605928,0.7491484182208905,0.0007744987265657907,-0.49981209575456015,-0.001337830213523214,0.8661324836879614,0.19624944797416138,-0.7324570494079712,0.7601643967595678,-0.21961126165719552,-0.7147752572234218,0.7203153928610315,-0.44216539238852426,0.7005150421305637,1.0095791345076688,0.47956979529986227,0.7402162935904958,0.9683737383541969,0.0,0.0,0.0,0.0
0.01381801118632891,-0.1577924445162689,0.7472657949935573,-0.00037673988651465575,-0.4962399819337392,0.0006145553066988387,0.8681850958863755,0.19567851682212023,-0.7535021765287694,0.7672267552118338,-0.2229387043306764,-0.7291598520943469,0.7270920303270315,-0.5274055431444816,0.702462396239106,1.0166326273420907,0.4844170062450559,0.7161044439809694,0.9806030270863195,0.0,0.0,0.0,0.0
0.013829840572257326,-0.15783333613332134,0.7471965664924793,-0.0004539880457836111,-0.49622677623003125,0.0006604782526028033,0.8681925732322769,0.19569393706504246,-0.7536779541963076,0.7669879368986551,-0.22299992633911747,-0.7292360337477098,0.7271261024935933,-0.5274805691163255,0.7024488755457382,1.0166308122851975,0.4845046262531552,0.7159966095805619,0.9803773466319535,0.0,0.0,0.0,0.0
0.013829840572257326,-0.15783333613332134,0.7471965664924793,-0.0004539880457836111,-0.49622677623003125,0.0006604782526028033,0.8681925732322769,0.19569393706504246,-0.7536779541963076,0.7669879368986551,-0.22299992633911747,-0.7292360337477098,0.7271261024935933,-0.5274805691163255,0.7024488755457382,1.0166308122851975,0.4845046262531552,0.7159966095805619,0.9803773466319535,0.0,0.0,0.0,0.0
0.013771445938303812,-0.1585355976332645,0.7481654675966233,-0.0005777404696787785,-0.49826792010245813,0.0006435824371559564,0.8670226824105391,0.19636985763322032,-0.7358172667954381,0.7481432226979193,-0.21987968129250926,-0.7165411893925784,0.716637270990534,-0.5321555411710209,0.7143598614293313,1.011554916695138,0.4987108089972037,0.7285070613883678,0.9769086101533265,0.0,0.0,0.0,0.0
0.013829258036406094,-0.15957545740973272,0.748738994001946,-0.0004921174929364168,-0.4995833271784131,0.0004297068367531762,0.8662655899767427,0.19868700859261926,-0.7215582596785702,0.7319869558580709,-0.21615946708336212,-0.712247761571636,0.7156060085372441,-0.5342062844930724,0.7225669965686835,1.0076281789076063,0.5108991794762038,0.7367366293919048,0.9760894045482402,0.0,0.0,0.0,0.0
0.014142734025437729,-0.16096392191037956,0.7487256543914571,-0.0002610332309000992,-0.5003912981890858,7.554378604567215e-05,0.8657993271257666,0.20254091980844224,-0.7114270708745648,0.7196544819416744,-0.21188519447608034,-0.7164190317450327,0.724768058269401,-0.5346623681419763,0.7274218206675445,1.0071841753088397,0.5232819720669633,0.7412369363118358,0.9801962951255742,0.0,0.0,0.0,0.0
0.014661702108741225,-0.16275724914905476,0.7477615188088444,5.9395267802802886e-05,-0.5009205075622727,-0.0003039905190574895,0.8654932403927379,0.20777591045949226,-0.7052528558667579,0.7100871045389358,-0.2070972864993823,-0.7283080596946104,0.7425598136126197,-0.5338656204780272,0.7278868862283641,1.0142157566409649,0.5393469650114184,0.7415416276309181,0.9933986479925396,0.0,0.0,0.0,0.0
0.015556377786455852,-0.16517948747679514,0.7459433093577202,-2.9880921454674843e-05,-0.5020352697771606,-4.6723308466809245e-05,0.8648471453521925,0.21327554680332486,-0.7002887383961531,0.7005806901125332,-0.20220715735026532,-0.7413348257751597,0.7635703987508804,-0.5280342963308221,0.7270650138376635,1.0292531828944245,0.5757322428975749,0.7447899525488892,1.0166849758848866,0.0,0.0,0.0,0.0
0.0176501974476283,-0.16805014473888094,0.7469003774686689,-0.00191100633223854,-0.5043139214727799,0.002363176302727716,0.8635150444904288,0.21494915278307944,-0.6935053757350665,0.6977027570114819,-0.19976514637220322,-0.7374499143235799,0.7791663923595911,-0.49584010934640527,0.7410389054073626,1.0187896767896036,0.4620805548054278,0.7284532311248052,1.009167437086678,0.0,0.0,0.0,0.0
0.020106641016023684,-0.1713005004012756,0.7468616123574657,-0.0039166904743711956,-0.5070145622459566,0.004969679551390644,0.8619142622624512,0.21739463813736362,-0.6887112010541873,0.6961257085737413,-0.19694382729822135,-0.7365954783750268,0.7988257673201361,-0.45990319825809906,0.7521606061220003,1.016333564846795,0.3563253286584344,0.7157108789816513,1.0075973598879602,0.0,0.0,0.0,0.0
0.022809457995809062,-0.1747949245475189,0.7460207504143965,-0.005352681254605982,-0.5093696362778412,0.006912764539001652,0.8605034201721656,0.2221783990780515,-0.6860763735340456,0.6964119075778779,-0.19263761455399014,-0.7448289538991161,0.8277088709058118,-0.42648697777154393,0.7599199017331859,1.0185633307809694,0.27818682823372126,0.7094504625418251,1.0110203328841336,0.0,0.0,0.0,0.0
0.025482339556099458,-0.17826102553182382,0.7448148973244568,-0.006202523910637667,-0.5112219381852905,0.008090165008165793,0.8593882753711233,0.22872504275530056,-0.6842778151683355,0.6970612750607743,-0.18711812536665703,-0.7591228949119984,0.8610377908099667,-0.39792314240877513,0.7654659181004547,1.022229156583764,0.2246792150848837,0.7079532610194277,1.0168538752826404,0.0,0.0,0.0,0.0
0.027867959174772257,-0.18135231524151083,0.7434658838606747,-0.006716347055709567,-0.5126792310662789,0.008832071039061145,0.8585085271776147,0.23533214639988714,-0.6832442807681824,0.6977429874501629,-0.18167099110145288,-0.7742774617738083,0.8919121169034726,-0.3739646021294422,0.7689986435372173,1.0269162786743946,0.18674891869496107,0.7080760830832777,1.0238168383611626,0.0,0.0,0.0,0.0
0.029919172124387494,-0.18403098959508657,0.7421818387001786,-0.007061594249030441,-0.5138435700044462,0.009329023733918114,0.8578041086214963,0.24143232843610307,-0.6824570998957039,0.6980785523799913,-0.1766492467210262,-0.7882372827261231,0.918621209929445,-0.35337576644488466,0.771280955648524,1.0313985256427474,0.15702514909584653,0.7083310696646478,1.0308425277933213,0.0,0.0,0.0,0.0
0.031661832973764785,-0.1863435465665668,0.741000830823001,-0.0073309887244872125,-0.5147965823163188,0.009700786419829526,0.8572261254666682,0.246860495254633,-0.6818256419604061,0.6980638016057157,-0.17216625733387242,-0.8005296379855987,0.9412820424823942,-0.33510434906494496,0.7725705451576026,1.0355691602338069,0.131430294344487,0.7082683524931902,1.037163793128125,0.0,0.0,0.0,0.0
0.03313805097990225,-0.18837004990212242,0.7398809366988275,-0.007569044838691199,-0.5155973617308913,0.010010540741671771,0.856739084675395,0.25167551082325623,-0.6813395593588574,0.697647168863412,-0.16817589530512367,-0.8113664512600056,0.9605922854895567,-0.3183243335204012,0.7728506855064752,1.039799946622429,0.10795848551772004,0.7079280419476369,1.041960317959671,0.0,0.0,0.0,0.0
0.034371468085734894,-0.1902047674710486,0.7387442193466667,-0.007791740131241981,-0.5162838946020941,0.010281822201498167,0.856320333223752,0.2560588297816768,-0.6808726717693568,0.6964537395498815,-0.1645182560472679,-0.8212129695086349,0.9772788378893078,-0.30233897109232655,0.7718826739985271,1.0446709543715618,0.08580197910281737,0.7076666670347129,1.0440171460234047,0.0,0.0,0.0,0.0
0.03538238240681151,-0.19192512243235055,0.7375104070461937,-0.00800480824707573,-0.5168770756885709,0.010526278340464277,0.8559574809164635,0.2601825961987553,-0.6803847069162932,0.6942104095057582,-0.16105120522358982,-0.8305585677389441,0.9919769832369317,-0.28660519537011375,0.7693855317713764,1.0507450780325194,0.06476467560821811,0.7083004707280035,1.0415890725515888,0.0,0.0,0.0,0.0
0.0361814133517185,-0.1936089913828828,0.7361249017039999,-0.008219919166613087,-0.5173958235868868,0.010753988422842576,0.8556391449651791,0.2642191673216248,-0.6796960679219595,0.6904718388788655,-0.15760853577063058,-0.8397444533090018,1.005141617947659,-0.2703850327953684,0.7651039138650197,1.0583251925804098,0.044137776212622784,0.7092319083671184,1.0359535411310024,0.0,0.0,0.0,0.0
0.036769009000366414,-0.19531865006835508,0.7345463291295916,-0.008455538633709578,-0.5178466784525154,0.010981885485104849,0.8553611632949575,0.26828923808957494,-0.6786835562788739,0.6848482133700704,-0.15407168476999636,-0.848998528156805,1.017048208215942,-0.2528241101348233,0.758712948326511,1.0675912579093465,0.023185032762836302,0.7103266244258372,1.0276343191273152,0.0,0.0,0.0,0.0
0.03713096755791924,-0.19708952742333355,0.7327409349894551,-0.008745543013385626,-0.5182217048903439,0.011243645940928216,0.8551276866549822,0.27241636630285065,-0.6773843430629026,0.6771122596304885,-0.15042193160753753,-0.8583828384986822,1.0277082223629266,-0.23293947176751242,0.7497499890468111,1.0786811770984925,0.0009974974772726623,0.711771872959779,1.0163507470055437,0.0,0.0,0.0,0.0
0.037255562995208,-0.19890143067840127,0.7306944446709399,-0.00915559951663353,-0.5185031089882394,0.011611027069248435,0.8549478843867725,0.27642176393542345,-0.6762685451441092,0.6676772626909475,-0.14686518671240614,-0.8676493524906528,1.0367998531183351,-0.20968270532410196,0.7377142731933234,1.0916294617094044,-0.023769908847345443,0.7139941572187796,1.0010341109409018,0.0,0.0,0.0,0.0
0.03721667053290167,-0.20056819617349056,0.7284242558415315,-0.009810778336482555,-0.5186427139772014,0.012274419814420071,0.8548466660665025,0.2795361827995413,-0.677669700228355,0.6599034016722022,-0.14435504992418705,-0.8761112939673251,1.0437982995024884,-0.18219150142167428,0.722248086752794,1.1063345752094005,-0.052871564682580155,0.7178160384463627,0.9798631980684877,0.0,0.0,0.0,0.0
0.037049556918101516,-0.20197168645692953,0.7260707638896639,-0.010873061146991788,-0.5185637869726112,0.01348051742527033,0.8548635277234987,0.2809853472553423,-0.6835353705799925,0.6566056584183506,-0.14378798705382534,-0.8827289689156111,1.0480620923085378,-0.14797996823015247,0.7028076007016033,1.1214507315172586,-0.08792965365750346,0.7242308940280938,0.9495355072762881,0.0,0.0,0.0,0.0
0.03679916386245591,-0.20299588821208525,0.7240897364921396,-0.012442078380811754,-0.5182283297468787,0.01531377673557159,0.8550146672282406,0.2802598328466688,-0.6940817194362462,0.6594022056938543,-0.14557661897008484,-0.8857916652707647,1.0488759367336535,-0.10737219739248187,0.6811196630867433,1.1332061916434852,-0.12382185008836652,0.7358284413388911,0.9069610185881078,0.0,0.0,0.0,0.0
0.03683291099478465,-0.20303632311937836,0.7240266350489029,-0.012503694635718127,-0.5182692071834768,0.015352246194532295,0.8549883011144945,0.28028437017366503,-0.6941370466627198,0.6592691187081411,-0.14555266427701874,-0.8857907180601902,1.048957854566716,-0.10737935991999847,0.681030929554068,1.1331822785150985,-0.12383075793792293,0.7358259019376149,0.9069495188113617,0.0,0.0,0.0,0.0
0.03683291099478465,-0.20303632311937836,0.7240266350489029,-0.012503694635718127,-0.5182692071834768,0.015352246194532295,0.8549883011144945,0.28028437017366503,-0.6941370466627198,0.6592691187081411,-0.14555266427701874,-0.8857907180601902,1.048957854566716,-0.10737935991999847,0.681030929554068,1.1331822785150985,-0.12383075793792293,0.7358259019376149,0.9069495188113617,0.0,0.0,0.0,0.0
0.03495087354193073,-0.20359385841271685,0.7251170458231667,-0.010844515718486741,-0.5198874899343592,0.013489365161748989,0.8540593839517929,0.2553468509861559,-0.730211122544531,0.7352009466625399,-0.13869455750897633,-0.8749150627012324,1.0327928257935808,-0.13360871993610587,0.6932422401127406,1.1294408858561615,-0.14400805717118484,0.7311979032780438,0.9023104179565622,0.0,0.0,0.0,0.0
0.031716196975354445,-0.20559177483533517,0.7266426781377122,-0.009352149876179593,-0.5209908293697406,0.011640473304690995,0.8534316565411468,0.22700620024007023,-0.7550113116135178,0.781350802801584,-0.12785531464064537,-0.8632207759742059,1.0127818554079298,-0.1423387137724732,0.6972229502460335,1.1193903393490978,-0.15002482497822464,0.7244679904664559,0.9013151714815424,0.0,0.0,0.0,0.0
0.027891017029616168,-0.20870168637682499,0.728045602195957,-0.007970793292960082,-0.5216816281331813,0.009907408469342788,0.8530454786117887,0.2017886937867457,-0.7711475365671135,0.8071715447966589,-0.11461677178163815,-0.8535201247675027,0.9932492888146458,-0.13594265004820358,0.6942682536150121,1.107174028442177,-0.145603569774111,0.7154975032200689,0.9065838714326366,0.0,0.0,0.0,0.0
0.023976103452292417,-0.2125917437816966,0.7292056918295423,-0.006661176462417741,-0.5221244035260044,0.008271732491648745,0.8528032096634822,0.18105860843405694,-0.7818394495205433,0.8215660984026157,-0.0999126414589609,-0.846432184874578,0.976228455978225,-0.12085904177502228,0.6880107288369379,1.093944624661564,-0.1347837738355702,0.7052605817694202,0.916837525622376,0.0,0.0,0.0,0.0
0.02014754448365469,-0.2168648112789171,0.7299621644082795,-0.005444071347426464,-0.5224610498665725,0.006789209705516403,0.8526187425168752,0.16462341892155097,-0.7897586635837056,0.8296710542410995,-0.08488502506873909,-0.8411812735909258,0.9609275505024251,-0.10209287169357861,0.679914571907029,1.0819486964568743,-0.12040976500362956,0.6938314684741986,0.9316667337730634,0.0,0.0,0.0,0.0
0.016726892993226414,-0.22101317876971915,0.7305852267223543,-0.004387715977284964,-0.5227096649208841,0.005546654543018136,0.8524814301614905,0.15118267087908333,-0.7960829376705326,0.8344064543374015,-0.07098724384056726,-0.8367268707084631,0.9475681379124198,-0.08328602281999702,0.672570506183191,1.0699146809145672,-0.10496193987297248,0.6838470938816636,0.9459311982492786,0.0,0.0,0.0,0.0
0.013729248529875645,-0.22477532475137993,0.7311813752188652,-0.0035019290510182387,-0.5228874354390257,0.004516453327762564,0.8523825831176154,0.13902133174699366,-0.8014095109248088,0.8374563394224452,-0.058735511520082564,-0.8323564264778883,0.9354137333412226,-0.06637563890796959,0.66666244739122,1.0578742983769052,-0.09017160359329622,0.6757113803380417,0.9577820356679476,0.0,0.0,0.0,0.0
0.011129240326113319,-0.22810752672785922,0.7317648628634112,-0.0027642373648930864,-0.5230012791230402,0.003658573420246202,0.8523195620587286,0.12715173286456677,-0.8057345629981069,0.8398554054881273,-0.04809844780692625,-0.828149983741119,0.9244723173321259,-0.05163219966843306,0.6620999765863258,1.0460853122322777,-0.07662859838613853,0.6691771643183441,0.9671976377800922,0.0,0.0,0.0,0.0
0.008886862423958263,-0.2310221522944014,0.7323008564632021,-0.0021536454793784528,-0.5230699760338307,0.002940422126874658,0.852281946248325,0.11492711430777963,-0.8088451209757466,0.8423494134706635,-0.03892999545149868,-0.8242565143345042,0.9147341580861383,-0.03894119729521423,0.6585414256118857,1.0350715765728786,-0.06452806637309547,0.6638123447489066,0.9748085917831183,0.0,0.0,0.0,0.0
0.006966476219614666,-0.2335530661319544,0.7327482326931094,-0.0016525123933410898,-0.5231167591952813,0.0023380100525284683,0.8522562168507838,0.10192049250130472,-0.8105578705132453,0.8454228383566202,-0.031058725764248875,-0.8208062004847948,0.9061959722968495,-0.028049374758797256,0.6556377464092933,1.0253249810678593,-0.053851887780301644,0.6592498759616113,0.9813247237298874,0.0,0.0,0.0,0.0
0.0053576575014550095,-0.23576818210434144,0.7330997864851462,-0.0012378834731902443,-0.5231494983021724,0.0018172150838751222,0.8522380933753378,0.08787299885809721,-0.8111356229967723,0.8490002020318943,-0.02421060504331281,-0.8181001223161248,0.8992273080636495,-0.01863782852368981,0.6532763469069984,1.016864527340159,-0.04444086908390239,0.6553304762718154,0.9871496416098393,0.0,0.0,0.0,0.0
0.004042259601203808,-0.23774295544110516,0.7333843535846472,-0.000888891420161558,-0.5231685971897748,0.0013531160514765582,0.8522276678584646,0.07269564748807357,-0.8108843419121389,0.8528800632183529,-0.018120023984857066,-0.8162949272612116,0.8940835517166799,-0.010325508915045236,0.6514826785439318,1.0093129043984337,-0.036011260317189354,0.6520718487418665,0.9923540346815286,0.0,0.0,0.0,0.0
0.0029169423003255982,-0.2394778760965782,0.7336350144043693,-0.000594498477988174,-0.5231871002382725,0.0009306448129961418,0.85221713114444,0.05624526923701636,-0.8103305048806045,0.8571461409732326,-0.012734260099453009,-0.8147702427198974,0.8897298618806702,-0.003185618598340677,0.6501306177583988,1.0025602865866887,-0.02866413027207299,0.6493057261249349,0.9967950931666794,0.0,0.0,0.0,0.0
0.0019386948685754142,-0.2409507003035993,0.7338693027365003,-0.0003525033543932576,-0.5232018561673136,0.0005505595110523701,0.8522085368785551,0.0387887063152928,-0.8097143277760097,0.8617356607556333,-0.008107709019284527,-0.8132431241217456,0.8856869960788442,0.0026854838030958466,0.6491384645875511,0.9965920072950624,-0.022533766914040743,0.6469648912267835,1.0003040645404457,0.0,0.0,0.0,0.0
0.0010956029652093033,-0.24208631321720736,0.7340719532231215,-0.0001757601618964592,-0.5232031960973236,0.00024883434243708235,0.8522079105379046,0.021174458653531573,-0.8092309067379511,0.8665481577603139,-0.004518320355563364,-0.8115290675744078,0.8816076357993122,0.007140332535628601,0.6482630515530982,0.9917913047945379,-0.017810902468295073,0.6449823430639261,1.002817246195928,0.0,0.0,0.0,0.0
0.00034123660319708427,-0.2427751794171359,0.7341806694714755,-7.490419000905908e-05,-0.5232016261491754,4.4536053136046095e-05,0.8522089243846023,0.004771703644909309,-0.8094018400641363,0.871549681108131,-0.002284643151281248,-0.8092401838907467,0.8766387862001697,0.009680511712272404,0.647037583361599,0.9891877336321985,-0.015040134786126143,0.6429538038619652,1.0046294671807783,0.0,0.0,0.0,0.0
-0.00019658499255683953,-0.24304034212112943,0.7342219189183415,-4.436752563414415e-05,-0.5232149005867188,-3.333426618314622e-05,0.8522007772376057,-0.00694281554845972,-0.8106110385977207,0.8766352332070931,-0.0014269585340268402,-0.8069076106375983,0.8720398862836547,0.010660835525739126,0.6458981038979807,0.9883958554664262,-0.013917673485342905,0.6414988846186487,1.0055552864652089,0.0,0.0,0.0,0.0
-0.00019492059980076744,-0.24304618500982592,0.7342186348777179,-4.522203655209867e-05,-0.5232134965830624,-3.55542601496106e-05,0.8522016390996838,-0.006963396562223239,-0.8106075503596724,0.8766366592493934,-0.0014117944458551116,-0.8069139425395371,0.8720333498233422,0.010649967075108893,0.6459157410981543,0.9883761884257247,-0.013904834843170571,0.6414853498950587,1.00557438843913,0.0,0.0,0.0,0.0
-0.00019492059980076744,-0.24304618500982592,0.7342186348777179,-4.52220365520987e-05,-0.5232134965830626,-3.555426014961062e-05,0.8522016390996837,-0.006963396562223239,-0.8106075503596724,0.8766366592493934,-0.0014117944458551116,-0.8069139425395371,0.8720333498233422,0.010649967075108893,0.6459157410981543,0.9883761884257247,-0.013904834843170571,0.6414853498950587,1.00557438843913,0.0,0.0,0.0,0.0
-0.00019492059980076744,-0.24304618500982592,0.7342186348777179,-4.52220365520987e-05,-0.5232134965830626,-3.555426014961062e-05,0.8522016390996837,-0.006963396562223239,-0.8106075503596724,0.8766366592493934,-0.0014117944458551116,-0.8069139425395371,0.8720333498233422,0.010649967075108893,0.6459157410981543,0.9883761884257247,-0.013904834843170571,0.6414853498950587,1.00557438843913,0.0,0.0,0.0,0.0
-2.8520223247922242e-05,-0.24328605252929997,0.7341632671004678,-6.049556255665399e-05,-0.5232924821697813,-6.818177286564881e-06,0.8521531402267954,-0.006425309626446397,-0.8106926206304814,0.8771166029953099,-0.0008761311481543969,-0.8079923109335634,0.8741893696305674,0.012499799491707559,0.6461625708734069,0.9880262678685775,-0.012058838881916022,0.6421091663635883,1.0069499826037571,0.0,0.0,0.0,0.0
0.0001740976521278909,-0.24364631295283173,0.7340969680326612,-5.120992764857588e-05,-0.5233671651611621,-1.962142758635752e-07,0.8521072748244048,-0.00553783772127216,-0.8106780908821238,0.877500197579728,1.093557707769748e-05,-0.8096891652199244,0.8772814501629657,0.014874498546428624,0.6464845955543853,0.9873450835336266,-0.009676238681481703,0.6427475574221112,1.0087739537341485,0.0,0.0,0.0,0.0
0.0003736470869406428,-0.24413687488768476,0.7340324030028922,-5.5478246875347334e-05,-0.5233966324037803,1.2705602586732865e-05,0.8520891748808419,-0.004328075558106955,-0.8106364410546325,0.8776533029662817,0.001222441183843721,-0.8119150933567301,0.8810603945781632,0.018231890831128084,0.646604839473614,0.9860822181333941,-0.006259949820125167,0.6433765153133578,1.010947453235975,0.0,0.0,0.0,0.0
0.0006162420600718332,-0.244836912453426,0.73395745206971,-4.916844624031432e-05,-0.5233816347395348,-2.499494876302057e-07,0.8520983875115441,-0.002523211830341235,-0.8105742737821103,0.8776938745949174,0.0030324418460592672,-0.8152119516712432,0.8863581228561564,0.02274034466108689,0.6466879692386791,0.9840631761064276,-0.001618019312824289,0.6440029996356033,1.0137688066520731,0.0,0.0,0.0,0.0
0.0010032061723873695,-0.2458581676041678,0.7338644000456158,0.00017392047889819808,-0.5235708948163058,-0.00041994435797785326,0.8519819901263501,0.0010691160240925636,-0.8084097977373585,0.8761127852433692,0.00663538711131775,-0.8197384110875549,0.893800577054387,0.025607654578805653,0.6487924561692355,0.9818328546446805,0.001298206486399619,0.6443567903539005,1.0176623082193328,0.0,0.0,0.0,0.0
0.0018490507717529294,-0.24666174944869282,0.7336909450126445,0.00026079507590717,-0.5234386183169392,-0.00045457978805346264,0.852063224295943,0.0031446383537477142,-0.8121336076419636,0.8825492510076764,-0.011294412821237831,-0.8137619274171493,0.8804853504283884,0.030246620056515537,0.6499749842783409,0.9795850596019234,0.006098619099957321,0.6459345799233417,1.020854410446185,0.0,0.0,0.0,0.0
0.0028365508332236665,-0.24767565860178117,0.7334748828983509,0.0004359790542409011,-0.5234260832211381,-0.0006913496902558584,0.852070693875601,0.006262040924327145,-0.8150279310550885,0.8885735055372986,-0.033396451170578795,-0.810486681966111,0.8708963222254428,0.034575262358166846,0.6521999488697512,0.9772978597868782,0.010580955886277357,0.6475800768778339,1.0249917570074243,0.0,0.0,0.0,0.0
0.003920014162942555,-0.2489172695675872,0.7332316911620964,0.0006697777087606757,-0.5234428371611615,-0.0010507028574347013,0.8520598826643583,0.010270781252887821,-0.817444756189884,0.8942561084871578,-0.05512552734864459,-0.8089923749085985,0.863609747069517,0.03936582450594164,0.6549524449901603,0.9744993573692217,0.015585473085325778,0.6492747436876121,1.0299099530308973,0.0,0.0,0.0,0.0
0.005066055063912798,-0.25034690250863467,0.7329716704035616,0.0009263555777530722,-0.5234428364980463,-0.0014469151218739834,0.8520590620496054,0.01486265000730292,-0.8197046768056904,0.8997664602521609,-0.0747278134888402,-0.8085467642911535,0.8575794421369352,0.04508812952997696,0.6578336669217928,0.9710478257899159,0.02166172107319364,0.6511218635421243,1.035389398998611,0.0,0.0,0.0,0.0
0.006281159614883211,-0.251936650272353,0.7326925400753715,0.0012029154122404086,-0.5234186286046637,-0.0018632668194646246,0.8520727788521844,0.01992671465685439,-0.8219692406694745,0.9053135143001388,-0.09212379514422889,-0.8086242900456906,0.8522448129872202,0.05168149496381859,0.66080253723594,0.9670043504960703,0.028796879719399107,0.6531695621080849,1.0413322537274992,0.0,0.0,0.0,0.0
0.007588210218675775,-0.2536867695658971,0.7323880310853886,0.001507408091834434,-0.5233663999339592,-0.0023068552440880623,0.8521032904289799,0.025483429264101538,-0.8243513514475591,0.9111012225602704,-0.10779036206547113,-0.808854291160185,0.8473171547948704,0.05906345273234781,0.6639206600039721,0.96238197060121,0.03695463336904439,0.655449454166458,1.047734131346047,0.0,0.0,0.0,0.0
0.009011906121306888,-0.25562682591960073,0.7320513749401808,0.0018503207561768504,-0.5232722829229046,-0.002795032817094682,0.8521589534994644,0.03165739269479375,-0.8269314571869435,0.9172664563388512,-0.12219581655003967,-0.8089179684385217,0.8426767716550301,0.06726319131770844,0.6672511428809514,0.9570713030217272,0.04623082187454157,0.6579658966873354,1.0546527535636023,0.0,0.0,0.0,0.0
0.010596542946167888,-0.2577966657662614,0.7316719653606681,0.002255338114174493,-0.5231290922829698,-0.0033605919282725773,0.8522438457853939,0.038637502903218456,-0.8297717869618926,0.924002541728916,-0.13563817629413707,-0.8083825590259178,0.838346956269733,0.07621291639415172,0.6709717298187593,0.9509614939843035,0.056623260543501724,0.6607445156664541,1.0621776305502313,0.0,0.0,0.0,0.0
0.012467118910016324,-0.26020181257519465,0.7312328893714778,0.0027777816651125696,-0.5229499194244887,-0.004056301830139986,0.8523492313121451,0.046568276824836746,-0.8332112282879309,0.9321992913577845,-0.1484525939611061,-0.8063982763180343,0.8341666308435995,0.08535938153745606,0.6756236962820499,0.9441009523933247,0.06755792962769291,0.6639809330881985,1.0702585365356552,0.0,0.0,0.0,0.0
0.014648573928930595,-0.26290858485562174,0.7307391204077776,0.0034435957416045953,-0.5227121198472969,-0.004926309338542956,0.8524880719924558,0.05574942748269708,-0.8370874032997759,0.9416986428203944,-0.16088586315796,-0.8026152635289221,0.8301078688064684,0.09473748216885285,0.6814131701498438,0.9360880329149525,0.07913938961180766,0.6676922995875895,1.0788765795065314,0.0,0.0,0.0,0.0
0.01716863237683701,-0.26596637585669564,0.730209768735268,0.004276486335549547,-0.5223780430826412,-0.006006747569467006,0.852682127614628,0.0664246184566038,-0.8413072317215283,0.9524551862762088,-0.1734070235780816,-0.7971908484988299,0.8253389716161127,0.10430430425104635,0.688596950401893,0.9263766741317923,0.09140736670397985,0.6719413938658747,1.087799876137261,0.0,0.0,0.0,0.0
0.020069797482074055,-0.2693616623073446,0.7296590311638647,0.005315260300606577,-0.5219527825299041,-0.007342563042552011,0.8529262146195259,0.07869305425479099,-0.845691310036107,0.9644953781752031,-0.18677076103471552,-0.790228030806322,0.8187201261498231,0.11348782726244996,0.6976336133504926,0.914766949581195,0.1037356383708668,0.6768280868290186,1.096692915474398,0.0,0.0,0.0,0.0
0.023396388992471928,-0.2729448716526092,0.7290651824990129,0.006609882483560239,-0.521523277285655,-0.008982235383955189,0.8531641695185579,0.09229656944268624,-0.8500201783783317,0.9779722827151817,-0.20215989761441705,-0.7813588817113737,0.8087916910836305,0.12083075311214656,0.7090483801725003,0.9021168195330994,0.11424439079696301,0.6823459708708001,1.1052694805398544,0.0,0.0,0.0,0.0
0.02707391235233028,-0.2762810474604009,0.7281522407607836,0.0081725772539362,-0.5212779546357744,-0.010894815947208505,0.8532782699549124,0.1060349239422322,-0.8547795897985979,0.993164139478095,-0.22090756502353529,-0.7696429477450881,0.7931962155783333,0.12387509272481108,0.7216466208647168,0.8932860872248091,0.11944486792430975,0.687215712904827,1.1150033507631534,0.0,0.0,0.0,0.0
0.030741187308361145,-0.2790602993856723,0.7269154106362146,0.009867778037886177,-0.5210989299762434,-0.012810158440749505,0.8533430915961833,0.11843622107393247,-0.8606090390367396,1.0093484588666106,-0.24228597765822604,-0.7531357841301102,0.767249700717841,0.12258107706833697,0.7332230592330173,0.8896879268111172,0.1189114882854298,0.6902452469438529,1.1255279105111011,0.0,0.0,0.0,0.0
0.03396121999042888,-0.28105970912422573,0.7255401143492106,0.011597741540172466,-0.5209158040050381,-0.014485218949766825,0.8534063486762501,0.1282028312676169,-0.8669176419403646,1.024603672231949,-0.26545298709596343,-0.7295232511512318,0.7246275756648265,0.11682896605483108,0.7425487934178471,0.8909109835896221,0.11223351082999398,0.6906424526630056,1.135455436700257,0.0,0.0,0.0,0.0
0.03593533476049911,-0.28200144201133814,0.7243864221144124,0.013118591787899501,-0.5205557133347738,-0.015484935087705426,0.8535864740313993,0.13331574126530138,-0.8726553096993032,1.0353587555062267,-0.28668627117411316,-0.695936800397885,0.6580392169736026,0.10795600948775898,0.7471027072598119,0.8953440484869295,0.10118507106342271,0.6873845837524063,1.142581686199255,0.0,0.0,0.0,0.0
0.03603466150932099,-0.28209406809773374,0.7243224122623859,0.013221996866246314,-0.5205067069849337,-0.015476806014621028,0.8536149104005595,0.13359926704023037,-0.8727249789057924,1.0354047684325003,-0.2867235898259997,-0.695874659084171,0.6580299758280757,0.10781138513490873,0.7472578639156683,0.8951283349145019,0.1012599012007282,0.6873993649349031,1.1429052117196692,0.0,0.0,0.0,0.0
0.03603466150932099,-0.28209406809773374,0.7243224122623859,0.013221996866246314,-0.5205067069849337,-0.015476806014621028,0.8536149104005595,0.13359926704023037,-0.8727249789057924,1.0354047684325003,-0.2867235898259997,-0.695874659084171,0.6580299758280757,0.10781138513490873,0.7472578639156683,0.8951283349145019,0.1012599012007282,0.6873993649349031,1.1429052117196692,0.0,0.0,0.0,0.0
0.03539325716943258,-0.2834287270714895,0.7267943199334165,0.011162170584033147,-0.5193222390880724,-0.013808345580030336,0.8543940235797218,0.13364544035285494,-0.8717817407384933,1.0327081116062113,-0.2861558112777237,-0.6884167040758651,0.6558466948840156,0.06253816099059167,0.7277439976290201,0.9414844514243867,0.14423724330783125,0.7035451184458386,1.1271144600628678,0.0,0.0,0.0,0.0
0.034668760710532084,-0.28530475904485225,0.7296885209354134,0.009730292364934159,-0.5183269165837112,-0.012563744758524557,0.8550349006169035,0.1356119614233618,-0.8646414957706788,1.023866242478526,-0.28335281156686054,-0.6833921705964376,0.6579182259105665,0.02213988595985636,0.7153861300714361,0.9727205277337629,0.18210537450086278,0.7191645315266935,1.10838165788541,0.0,0.0,0.0,0.0
0.033978922329944615,-0.28745587785901,0.732389280199294,0.008861465460266102,-0.5176003619727473,-0.011753500277001845,0.8554958766392834,0.13902826525513143,-0.8540461239714817,1.011231890508336,-0.279091517405519,-0.6813739837702391,0.6635333643796506,-0.008469147212269261,0.7079845218258914,0.993491985752647,0.2132611369169683,0.7325208914135569,1.091115028599466,0.0,0.0,0.0,0.0
0.03334011685468447,-0.28972516404098675,0.7347709152451783,0.00836187251580193,-0.5170323551540635,-0.01125229817139185,0.8558510434636005,0.14332430306311217,-0.8420391313708147,0.9966959102340817,-0.2740531036630385,-0.6818480796605169,0.6716006285577707,-0.03299844488311113,0.7039173219484693,1.0081593318710445,0.23937677768652618,0.7436093363699983,1.0762238464355678,0.0,0.0,0.0,0.0
0.032677721096544585,-0.2919802731519472,0.7368526061281705,0.008055493944719338,-0.5165249682214219,-0.010905792054983016,0.8561647796544887,0.1478580718239829,-0.829766022508852,0.9811656032097879,-0.26882341114703956,-0.6833739848000022,0.6799012065427255,-0.05416850118350067,0.7016692580932827,1.0189634688874447,0.26203909832261496,0.7525932196762855,1.0635365963352346,0.0,0.0,0.0,0.0
0.031905331957565404,-0.2941601287876487,0.7386987779629768,0.007823556009427348,-0.5160208390201584,-0.010615176307465949,0.8564745201699,0.15227233218570516,-0.8175627121053269,0.964747991825818,-0.2636731166040831,-0.6847772542062405,0.6867298546363576,-0.07381780921468134,0.7001011698316519,1.027039089907896,0.2822634012050876,0.7596236841303904,1.052585085365174,0.0,0.0,0.0,0.0
0.03100183794761442,-0.29631225225379804,0.7403827253268673,0.007614397961567502,-0.5154731043881048,-0.010338065344461364,0.8568095611050955,0.15660966242751792,-0.8053902076313713,0.9473307754802942,-0.2585578491096529,-0.6860279292527589,0.6922604511707116,-0.09294980879583706,0.6986244745608766,1.0329201305424047,0.3010162436730389,0.7650087739049864,1.0428763629750717,0.0,0.0,0.0,0.0
0.029944851856094107,-0.2985085075724954,0.741978926035225,0.007392910792414712,-0.514839605034199,-0.010042697923653188,0.8571958178716573,0.1609856747201004,-0.7930285310842633,0.9285596620988522,-0.2533566981177193,-0.6872036978885211,0.6968145460646337,-0.11222739664095405,0.6969742237850598,1.0365308071902941,0.31916976523018115,0.7690226162312246,1.033897506994433,0.0,0.0,0.0,0.0
0.028728683108497386,-0.3008456237762626,0.743557865038593,0.007134628407319596,-0.5140710574480271,-0.009704140502518754,0.8576630309328157,0.16559327816629024,-0.7802428426277138,0.9080604644267525,-0.2478941710697946,-0.6886583751448971,0.7011308163268068,-0.13228598360716545,0.6952466562966482,1.0371911647600196,0.337584694896078,0.7719312283274077,1.0251268438469572,0.0,0.0,0.0,0.0
0.02735884976080291,-0.3034185332405157,0.7451854764605147,0.006815607398155291,-0.5131126044080669,-0.009296228840859146,0.8582438947191545,0.17061948688824552,-0.7668705111175855,0.8855437579447061,-0.24200989770168949,-0.6908172669116193,0.7060457023492362,-0.1539387830846336,0.693988397843745,1.0336138735267437,0.356971639109464,0.7739665963033009,1.015990056607461,0.0,0.0,0.0,0.0
0.025823999116278012,-0.30625148960332393,0.7469297820834867,0.006395537983778652,-0.5119199898082802,-0.008767267402984218,0.8589645837581855,0.17600886333135599,-0.7529001759152437,0.8608898125824833,-0.23574471576169964,-0.6935020883588628,0.711466991150436,-0.17778917315938556,0.6923490549988373,1.0276729901517605,0.3775550252770215,0.7753044475430182,1.0057173702910982,0.0,0.0,0.0,0.0
0.024126225670227004,-0.3093162310524954,0.7487930670808381,0.005823392761940919,-0.5104422278037558,-0.0080620437096196,0.8598545363157091,0.18160372711249062,-0.7388304876316687,0.8345408265335083,-0.2292881168239316,-0.6966076267851481,0.7171999184951369,-0.20559518685838418,0.6902124041017635,1.0209358669297037,0.3991364923627944,0.7758154412076832,0.9939288697180003,0.0,0.0,0.0,0.0
0.022236994282527952,-0.31239215771045037,0.7506135147590556,0.005005545289597302,-0.5086269082816095,-0.007054454736158983,0.8609435796593297,0.1866687213257587,-0.7265171965506128,0.8083147051840405,-0.22345633634833886,-0.6993394443630394,0.7214450413191689,-0.24088488561351756,0.6886076394771442,1.0145001152568796,0.4208699403604725,0.7745926468835099,0.9814073809231397,0.0,0.0,0.0,0.0
0.02008983589316904,-0.3151163112139406,0.7518163583818288,0.0038362526000512574,-0.5063645434591854,-0.005542606128699477,0.8622931704534493,0.19007322390969328,-0.7202062802721056,0.7861028929365831,-0.21970235340361682,-0.701689860061946,0.7221440911077467,-0.28921814070484436,0.6899166522658603,1.0085423594784166,0.4419079265198192,0.7686855234447119,0.9726530419422553,0.0,0.0,0.0,0.0
0.017781885211322575,-0.3173315774162183,0.7521341469472014,0.0023949888822152876,-0.5036609607744017,-0.0037079868546698743,0.8638901269568638,0.19195900526669893,-0.7214861514510162,0.7703292492598846,-0.2181199710900074,-0.7051547290093952,0.720581327918836,-0.3547372569329807,0.6935318250965915,1.0053450361035634,0.45940222992718244,0.7565886983973269,0.9698416626215444,0.0,0.0,0.0,0.0
0.01568391240978018,-0.3189787756332516,0.7512735548853894,0.0009032433052371641,-0.5004097426832472,-0.0016294844666909813,0.8657867048872896,0.19244401009777382,-0.7336734463185998,0.7662268489709931,-0.21917474057586392,-0.7138264020431027,0.7224633878528057,-0.43630825888195524,0.6991459630254795,1.0056787674500602,0.47249322855371734,0.7377745198204416,0.975226407483969,0.0,0.0,0.0,0.0
0.01402300245480914,-0.3199618030445223,0.7494081612330455,-0.00023400926365432027,-0.4968993856747456,0.00024612307505521346,0.8678080923678673,0.19202137244105455,-0.754242549373369,0.7729806088579702,-0.2222694906019634,-0.7281539099307397,0.7292840102014486,-0.5205552271323706,0.7015325409986994,1.0115656549175256,0.47750668199708524,0.71402400428705,0.9874742355788869,0.0,0.0,0.0,0.0
0.014034863874357805,-0.3200021962513045,0.7493416093940889,-0.0003090291745794558,-0.4968871328292314,0.00029157792940051976,0.8678150705720811,0.19203685796898728,-0.7544108709236205,0.7727505710066624,-0.2223273810725751,-0.7282263873475825,0.7293177967292055,-0.5206282470567299,0.7015194273312885,1.011563615309066,0.47759110640343516,0.7139186255685613,0.9872564172922822,0.0,0.0,0.0,0.0
0.014034863874357805,-0.3200021962513045,0.7493416093940889,-0.0003090291745794558,-0.4968871328292314,0.00029157792940051976,0.8678150705720811,0.19203685796898728,-0.7544108709236205,0.7727505710066624,-0.2223273810725751,-0.7282263873475825,0.7293177967292055,-0.5206282470567299,0.7015194273312885,1.011563615309066,0.47759110640343516,0.7139186255685613,0.9872564172922822,0.0,0.0,0.0,0.0
0.013989777487674134,-0.32067074115977845,0.7502664876573993,-0.0004114430257956688,-0.4989256544467581,0.0002691046100657187,0.8666446501491943,0.19266916493042405,-0.7368931109644933,0.7543911858489691,-0.21931950135623338,-0.7156769903781932,0.7189012080618346,-0.5256342988286887,0.7132793569816299,1.0069222373026583,0.4915017709945848,0.7262566491210474,0.9841843720475961,0.0,0.0,0.0,0.0
0.01404498131705989,-0.32169141665380446,0.7508085283309839,-0.0003300874922270805,-0.5002386202414733,7.18558801943252e-05,0.8658875265863847,0.1949218458518573,-0.7229358714266464,0.738590551473193,-0.2156997095708991,-0.711342854466907,0.7177269355018553,-0.5276100607163976,0.7212840425210321,1.0033094797697444,0.503760743807095,0.7343866607151073,0.9836683351799581,0.0,0.0,0.0,0.0
0.01435646966753716,-0.32306741742172324,0.7507825279263327,-0.00011538569302250565,-0.5010481843204332,-0.00025754536006929965,0.8654193419064116,0.198703622452934,-0.7130640861259335,0.7265882834545367,-0.21151189506340468,-0.715364066712339,0.7266765506747005,-0.5278129524625426,0.7259967762505724,1.0030163626396902,0.5164196267371548,0.7389423273230197,0.987886606830761,0.0,0.0,0.0,0.0
0.014867932899922299,-0.32484756629594064,0.7498071717132728,0.0001818323968644828,-0.5015882891634881,-0.000612258732208967,0.8651062248361581,0.20385853853648492,-0.7070984581104997,0.7172775962653385,-0.20679769691057306,-0.7269957132858641,0.7441147153632404,-0.5267379507422237,0.7263035619077899,1.0102415376512208,0.5328833426508067,0.739388898290113,1.001152866062059,0.0,0.0,0.0,0.0
0.01574061885590439,-0.3272336066373966,0.7479649206208894,0.00010442841044400502,-0.5027000068894938,-0.0003804865882518231,0.8644608420269632,0.2093314669772912,-0.7022910842921648,0.7079683435238996,-0.20193482108445687,-0.7399289732191501,0.7647833387604844,-0.5211985688860774,0.7252266703441069,1.0256363114502796,0.5689359518621437,0.7426045686354433,1.024518020652978,0.0,0.0,0.0,0.0
0.01779050823611586,-0.3300691474331571,0.7488855803178966,-0.0017424492586917686,-0.5049229267073095,0.0020071281510964114,0.863160340488655,0.21098318459270352,-0.695738633493102,0.7052107556595093,-0.19956453964578713,-0.7362089561484474,0.7801693356296443,-0.4892352362131313,0.7386860471936476,1.0154796933180024,0.45512757198405085,0.727017381243709,1.0150616582858678,0.0,0.0,0.0,0.0
0.020190496146120666,-0.3332733240762834,0.7487991338688186,-0.003693229480626647,-0.5075531560062692,0.0045572055756394475,0.8616004792021767,0.21345134792055834,-0.6911548000035914,0.7037012637878373,-0.19677387158648837,-0.7356735333715145,0.7996677668025112,-0.45402276136582365,0.7492193821904276,1.0135227896709864,0.348859523547152,0.7145150095078842,1.0122940060982415,0.0,0.0,0.0,0.0
0.022821827206529238,-0.3367239461166253,0.747920702782014,-0.005083105301306303,-0.5098422376530577,0.00644855314732293,0.8602287317380912,0.21823788894177745,-0.6886340758030043,0.7038855240951222,-0.19249060738550272,-0.7440833070365525,0.8282023837348756,-0.42138947410849814,0.7564218388968758,1.0162590357342902,0.27062604422342673,0.708218150403469,1.0149092725467233,0.0,0.0,0.0,0.0
0.02541692865206819,-0.3401381073670765,0.7466828938455089,-0.00591004179282706,-0.5116456979459494,0.007601504400115353,0.8591425774050919,0.2246981956225272,-0.6869711562791742,0.7044439546480198,-0.18705592933994983,-0.7582870165670769,0.8608990889469492,-0.3935078962538713,0.7614515313560623,1.020476345257207,0.2172534767882424,0.7065433498389343,1.0201916998476033,0.0,0.0,0.0,0.0
0.02774309782865242,-0.34319939532330224,0.7453428347263548,-0.006418836760381099,-0.5130721081492328,0.00833664416246766,0.8582810208422728,0.23122900924037224,-0.6859343901999742,0.7049819156114352,-0.18166127921417338,-0.7732421035469592,0.8912625864202514,-0.3698862998843704,0.7647158137517618,1.0253105080519398,0.17939509152525518,0.7064748298723981,1.026792518376459,0.0,0.0,0.0,0.0
0.02975038476114847,-0.34586605497228395,0.7440794597809944,-0.006768141364919548,-0.514216953899757,0.008837163024275863,0.8575879086916991,0.23727493280891457,-0.68509543229371,0.7051657541719131,-0.1766660503549647,-0.7870085296333822,0.9176138346355364,-0.3493853787495002,0.7668303514534267,1.0297822918784867,0.14973885763100678,0.7065630347406507,1.0335723968869115,0.0,0.0,0.0,0.0
0.031459755541122895,-0.3481795619393364,0.7429189811495381,-0.00704490179111789,-0.5151569068465838,0.009216538570197367,0.8570173779473773,0.2426736781588999,-0.684392010745845,0.7049907283915574,-0.17218671877385153,-0.7991514855237182,0.9400413765266713,-0.3310543960406812,0.7679871988193533,1.0338948672560377,0.12421736309708527,0.7063515282231715,1.0397096679751923,0.0,0.0,0.0,0.0
0.03291013187104251,-0.3502143463519078,0.7418162510077779,-0.007290565796386718,-0.5159475945599247,0.009534397968206734,0.8565360602879367,0.24747863418340524,-0.6838340390647736,0.7044216251384858,-0.16818465019544931,-0.8098872198146176,0.959208385609441,-0.31415807747197705,0.7681509886363345,1.0380603359100744,0.10081671126804012,0.7058704382525322,1.044350478065151,0.0,0.0,0.0,0.0
0.0341191588222177,-0.35206328433824546,0.7406937650246964,-0.007519581264876912,-0.5166246567184032,0.009812238687120013,0.8561227364929282,0.2518702336592391,-0.6832741499784105,0.7030377997369248,-0.16449747410920065,-0.8196672519796604,0.9757956973213451,-0.29802758114187405,0.767062861976264,1.0428647413652758,0.07872732322099459,0.7054636747878222,1.04625169774797,0.0,0.0,0.0,0.0
0.035104207184313424,-0.3538023697297267,0.7394738140858912,-0.007737337541018363,-0.5172075150395403,0.01006119768898841,0.8557659097530488,0.25601689679821643,-0.6826627568147582,0.7005515258607343,-0.16098418158371697,-0.8289655390219468,0.9904115320498793,-0.28213729485014205,0.7644402777479602,1.0488559514702935,0.05774355250231154,0.7059467504229541,1.0436487111237926,0.0,0.0,0.0,0.0
0.03587335556479386,-0.3555101999028719,0.738105698387951,-0.00795581402456835,-0.5177130488254991,0.0102921428695823,0.8554554201676234,0.26008972303642075,-0.6818078854481616,0.6964980131645034,-0.15747742104268733,-0.8381114518080162,1.0034965855511289,-0.2657303746032087,0.7600240187654391,1.0563023619315357,0.0371431657602468,0.706710479266819,1.0378061460540922,0.0,0.0,0.0,0.0
0.03642544993011406,-0.35725150486489227,0.7365534787939716,-0.00819463752115329,-0.5181451996885758,0.010524229827733602,0.8551886578656875,0.2642095182933008,-0.6805740465775072,0.6904691440718076,-0.1538564142960623,-0.847323770486856,1.0153253958241026,-0.24790014807192368,0.7534850582418373,1.065328417514355,0.016169804371239688,0.7076007134368011,1.0292328611444852,0.0,0.0,0.0,0.0
0.036746414411447596,-0.35906477598758624,0.7347901979169322,-0.008490030909557215,-0.5184930549242946,0.010795135149982,0.8549715412968556,0.26839840344542276,-0.6789959135178276,0.6822367686903552,-0.15010286454998165,-0.8566561467897399,1.0259208253215726,-0.22759230139970227,0.7443607568090257,1.075999268381916,-0.00612362152893544,0.7087732178331013,1.0176341931468509,0.0,0.0,0.0,0.0
0.03682755763192458,-0.3609306334902957,0.7328081886120211,-0.008911140785014048,-0.5187372250621665,0.011181589269719641,0.8548141639947926,0.2724699327264444,-0.6775611674895675,0.672252164406857,-0.1464311251002344,-0.8658471277508839,1.0349765366649,-0.20372635157815927,0.7321707535935287,1.0882835062049336,-0.031156549910118677,0.7106122378055041,1.0019441108751657,0.0,0.0,0.0,0.0
0.03676221867430461,-0.3626456631237837,0.7306254652425299,-0.009588327031444892,-0.5188289445071891,0.011882563505347174,0.8547417124551928,0.2756064229239128,-0.6788176943569643,0.6642428789712047,-0.1438642765466069,-0.874215037110622,1.0420332131275964,-0.17560502270305575,0.7166448316717406,1.1020925023215278,-0.06087626755770234,0.7139237526153766,0.9803868029395139,0.0,0.0,0.0,0.0
0.03657432378298535,-0.3641027673797652,0.7283700449214706,-0.010684176158281987,-0.5186943887855793,0.013140381099180615,0.8547919687308377,0.2770652761684662,-0.684602249019681,0.6607942266838548,-0.1432560067327848,-0.8807425842630056,1.0464165256040858,-0.14081491160076748,0.6972008594861517,1.1161852201953215,-0.09704891824577487,0.719627245870782,0.9496648404802207,0.0,0.0,0.0,0.0
0.03630692577140531,-0.36516629855875293,0.7264639124162426,-0.012288451193935686,-0.5183294145607759,0.015008070611915824,0.8549610340739777,0.27635403236287875,-0.6949921186513053,0.6633662777881091,-0.14498642093690642,-0.8836625283642784,1.0472445488460882,-0.10043385731675153,0.6757689877780703,1.1271858884957242,-0.13445759434924665,0.730493294503787,0.9067997651773565,0.0,0.0,0.0,0.0
0.03634009998882916,-0.3652090044794761,0.7264015120588941,-0.012353017512995718,-0.5183700277909221,0.01504889556427562,0.8549347624167927,0.2763789527401495,-0.6950499518371317,0.6632312744603532,-0.14495992113871203,-0.8836577326654775,1.0473289702972126,-0.10044805852159215,0.6756743926168127,1.1271573111701447,-0.13446356472768517,0.7304957522411254,0.9067922450996367,0.0,0.0,0.0,0.0
0.03634009998882916,-0.3652090044794761,0.7264015120588941,-0.012353017512995718,-0.5183700277909221,0.01504889556427562,0.8549347624167927,0.2763789527401495,-0.6950499518371317,0.6632312744603532,-0.14495992113871203,-0.8836577326654775,1.0473289702972126,-0.10044805852159215,0.6756743926168127,1.1271573111701447,-0.13446356472768517,0.7304957522411254,0.9067922450996367,0.0,0.0,0.0,0.0
0.034486057792039344,-0.3657044292685475,0.7274519376950483,-0.010652860892097027,-0.5199799843123071,0.01306693109115631,0.8540120536510275,0.2517412709653415,-0.730670527078293,0.7382197856502285,-0.13800670483512695,-0.8731715090574199,1.0313916541219943,-0.12792489244814598,0.6881844728368999,1.1238896044579825,-0.15587654149080318,0.7253724723293701,0.9019861611950878,0.0,0.0,0.0,0.0
0.03129891159543982,-0.3676509727013495,0.7289397842481691,-0.009167678181453526,-0.5210783800234232,0.011207090074504758,0.8533860068462501,0.22347662070196508,-0.7552889862156855,0.7837272002558647,-0.12730716159332375,-0.8616349864141909,1.0115645205557005,-0.13719486395848285,0.6924135006502108,1.114017963590699,-0.1620116562022422,0.7186371661777704,0.9009951377073374,0.0,0.0,0.0,0.0
0.027527144340274028,-0.37072972551067745,0.7303135074900879,-0.007821526913525303,-0.5217574908202501,0.00953496780127312,0.8530047062465284,0.1982565493251285,-0.771371782503448,0.8090877294182411,-0.11432686211847597,-0.8520110522437366,0.9922643488199889,-0.13067688958534973,0.6895876238692125,1.1017353611063605,-0.15702483016915966,0.7099308073759789,0.9064063853587524,0.0,0.0,0.0,0.0
0.023661596415799988,-0.37460341923744345,0.731453119599192,-0.006554949022496395,-0.5221897477071409,0.007984314040361803,0.8527667622287878,0.17752372175973835,-0.7820557302066637,0.8231758857369812,-0.09989286867401644,-0.8449677321693247,0.9754942640566022,-0.11529025672017423,0.6834568970424655,1.0883037266294668,-0.14544302913030024,0.700034281263688,0.9168658901111925,0.0,0.0,0.0,0.0
0.019871611555868404,-0.37887816974406896,0.7321986762269818,-0.005377662449932325,-0.5225179628589955,0.006580059997741595,0.8525859264887534,0.16102657661964986,-0.7899448932429015,0.8310559676067305,-0.08506341498140588,-0.8397784965223857,0.9604655422320192,-0.09624511639707906,0.6755215524932808,1.076000696934918,-0.13031071812925446,0.6889180461856019,0.931913498215745,0.0,0.0,0.0,0.0
0.016481795743049813,-0.38305539435637925,0.732793387707029,-0.00435022113593561,-0.522764924301998,0.005399911031271621,0.8524486790748456,0.14759858994725827,-0.796239466529038,0.8356328350239092,-0.07125504915587888,-0.8355120631595957,0.9474755656085593,-0.07716189900536692,0.6682805274378748,1.0637763042118795,-0.11413473391563449,0.6790846846402621,0.9466724277378081,0.0,0.0,0.0,0.0
0.013510113578796397,-0.38684601555627784,0.7333550734898692,-0.003485844429520331,-0.5229454645711605,0.004414815823294212,0.8523475813154587,0.13545034758212507,-0.801557326860456,0.8385756573576016,-0.059047798011984516,-0.831349778662591,0.9356684499520954,-0.060122029523958294,0.6624748485557652,1.0516425205877553,-0.09877114099835604,0.6710145105268317,0.9590444084617992,0.0,0.0,0.0,0.0
0.010933677770874825,-0.39020152184307505,0.7339080027021861,-0.0027636942711160573,-0.5230634590051599,0.003587936324873815,0.8522817061045378,0.12358483705320439,-0.8058795237152624,0.8408970024809062,-0.048430722975231405,-0.8273412836710184,0.9250446395863435,-0.045361113777616695,0.6580386555549781,1.0397801777611697,-0.08479908453416286,0.6645216514677164,0.9688966427217159,0.0,0.0,0.0,0.0
0.008712972655725664,-0.3931336767679734,0.7344188470412594,-0.0021645054611576235,-0.5231360715213501,0.002891127868779501,0.8522415191534404,0.11135662817861997,-0.8089849715443328,0.8433282481623143,-0.03927130177548476,-0.8236281182900514,0.9155933544227662,-0.0327167265811827,0.6546173862465637,1.0286982065377124,-0.07238177333145478,0.659189425990559,0.976852645638145,0.0,0.0,0.0,0.0
0.006812326561485073,-0.3956779567563095,0.7348448259194554,-0.0016717277516334122,-0.5231867485260564,0.0023029864011127727,0.8522133111766641,0.09833384568481392,-0.8106870686194814,0.8463475516196375,-0.03140100819023315,-0.8203416784922447,0.907313400331943,-0.02190323319386169,0.6518466832870242,1.018898382365953,-0.061474230366957025,0.6546490244250239,0.9836507208452517,0.0,0.0,0.0,0.0
