zhuoxili-jackie/tripod-support-walk/examples/trajectory_walking_sideways.csv
root_pos_x,root_pos_y,root_pos_z,root_rot_x,root_rot_y,root_rot_z,root_rot_w,FL_hip_joint,FL_thigh_joint,FL_calf_joint,FR_hip_joint,FR_thigh_joint,FR_calf_joint,RL_hip_joint,RL_thigh_joint,RL_calf_joint,RR_hip_joint,RR_thigh_joint,RR_calf_joint,FL_foot_joint,FR_foot_joint,RL_foot_joint,RR_foot_joint
0.0,0.0,0.72963,0.0,-0.5231245161092812,0.0,0.852256264656019,0.0,-0.81,0.872,0.0,-0.81,0.872,0.0,0.65,1.0,0.0,0.65,1.0,0.0,0.0,0.0,0.0
-0.0001298447451786499,-8.575275151177528e-05,0.7296128230609626,-6.501442105019994e-05,-0.5231529720988014,7.150283642689433e-05,0.8522387919149539,6.424573613958647e-05,-0.8091843230916766,0.870365504644276,6.424573613958616e-05,-0.8091857805559046,0.8706759249609773,0.001442481442844937,0.6492962631964749,0.9999477698350658,0.0014424814428449341,0.6499203400394395,1.0007114628634501,0.0,0.0,0.0,0.0
-0.000341703516220446,-0.00020292563535567406,0.7295916554411558,-0.00017570014610233622,-0.5231672952061684,0.00016930258822754442,0.852229969956909,0.00016604131248678478,-0.8080591389094804,0.867950579767106,0.00016611355166145473,-0.8079935082548264,0.86861328217815,0.0035433324189958993,0.6481495243963913,0.9998283714980181,0.003551273029231315,0.6496889714032607,1.0016450378776982,0.0,0.0,0.0,0.0
-0.0005677711933063613,-0.0003157755379080255,0.7295670463756596,-0.00032751794431152013,-0.5232140281455313,0.00028647688532396054,0.8522012035984915,0.0002306610909153712,-0.806769506338905,0.865295120125899,0.00023095010835722836,-0.8064310203979459,0.8661078786870674,0.005981881828006639,0.6469269706665071,0.9998029305525155,0.006011334879686696,0.6495905026088178,1.0026991061971382,0.0,0.0,0.0,0.0
-0.0004761453319605866,-0.0003656369746091437,0.7295070621813259,-0.0004548244032214214,-0.5232802032771487,0.000391664961068664,0.8521604711505611,0.00015245294743586893,-0.8072791662739227,0.8660446807260308,0.00015311065497743994,-0.8064757974107655,0.8666286502891763,0.007770422073362938,0.6466125139881839,1.0000966322486573,0.007828036675769376,0.6502190074362237,1.003602273978533,0.0,0.0,0.0,0.0
6.0635161019279796e-05,-0.00036053472034628303,0.729416546470395,-0.0005323210771857173,-0.5233947652915889,0.00045156789530332783,0.8520900377225809,2.6646126828405e-05,-0.8099828981768271,0.8712471921136004,2.767954635006872e-05,-0.8087349285553718,0.8714264080992546,0.00862728711640162,0.6477870683972479,1.000627232141174,0.008704486914145897,0.6519423664123806,1.0042504820097895,0.0,0.0,0.0,0.0
0.0010754318057929525,-0.00027139809171731506,0.7293015922573222,-0.0005669762470683875,-0.5235802696307055,0.00047101457857671796,0.851976031315811,-0.0002295031894902515,-0.8149525554556871,0.8811574974072282,-0.00022815672184720498,-0.8131076724227294,0.8805106241403005,0.00843856873602373,0.6506370123518306,1.0014331175414988,0.008516945842906678,0.6549660391220945,1.0044953001513526,0.0,0.0,0.0,0.0
0.002603393333067834,-7.163148042089678e-05,0.7291708592562841,-0.0005572528176925422,-0.5238526620725222,0.0004517081133581843,0.8518085899241739,-0.0006909689090871132,-0.8222314167249354,0.8959732022589619,-0.000689284454948946,-0.8195209338194918,0.8939010590801296,0.006998914460992437,0.6553965577908055,1.0024838645722416,0.007056452970849222,0.6594799601321736,1.004126883266175,0.0,0.0,0.0,0.0
0.00467955877611914,0.0002586058549810154,0.7290449845139942,-0.000485903859542635,-0.5242437123169046,0.00038232947286141993,0.8515680523703341,-0.0013923148625571528,-0.8316209789613295,0.9156312779093566,-0.0013900930061838596,-0.8277894210765236,0.9115011279168168,0.0039160952846497826,0.6624865144247857,1.003634632186133,0.0039358622940903615,0.6657198494876959,1.0028338474060317,0.0,0.0,0.0,0.0
0.007329556595302942,0.0007225494610360415,0.7289618678467749,-0.000315264361050307,-0.524811252618549,0.00023380268301850273,0.8512185354358994,-0.0022924241291005674,-0.8425302007782319,0.9396290318409901,-0.002289320624720514,-0.8375354863215576,0.9330043590366938,-0.0014252267089312296,0.6725709362776335,1.0045707731992797,-0.001432982874567574,0.6739703182264274,1.000201754153012,0.0,0.0,0.0,0.0
0.010541501773257411,0.0012846153555477213,0.7289554263674348,-7.356266956695603e-06,-0.5255885026658231,-1.6698270303454338e-05,0.850738929127233,-0.00326899586239221,-0.8542447284858016,0.9670991424718228,-0.003264627920846883,-0.8484186958021891,0.9579984567431986,-0.00948889473136001,0.6861537589216967,1.0048133958458116,-0.009432703556804695,0.684337081315559,0.9959247483659781,0.0,0.0,0.0,0.0
0.01346388775228883,0.0016303275685872873,0.7286975356270382,-0.0002154094270356156,-0.5252955131998893,0.00010643668206269922,0.8509198352853671,-0.0028308913547518315,-0.8499777069500298,0.9406541682163995,-0.004395640260365871,-0.8636354697774963,0.9852784159732726,-0.010330252284220447,0.6930951123256945,1.0039730220668914,-0.010161346061524796,0.6917677021776046,0.9930225560784333,0.0,0.0,0.0,0.0
0.016179462810797286,0.0020864362937852896,0.7282772958825889,-0.00034933640944167897,-0.5251839900449293,0.00018704843208151617,0.8509886130715526,-0.0045862539534801475,-0.8531392582624518,0.9225252251666568,-0.0057631016679689905,-0.8768144109540944,1.0088292409602206,-0.012718439838135222,0.6994849797842241,1.005509131929758,-0.012436091349742672,0.6980506701436369,0.9916270090681217,0.0,0.0,0.0,0.0
0.018498717049194906,0.0026009276962448446,0.7278698824452843,-0.00044259915077293803,-0.5252824369445159,0.00024422586873881796,0.8509277912357471,-0.007100625441007332,-0.8604231410443925,0.9115307298805353,-0.007257612881182529,-0.8866159145814744,1.0270948265121724,-0.016071281579992224,0.7055627173024365,1.007907980682316,-0.01564373175595758,0.7036042353885548,0.9906354925686747,0.0,0.0,0.0,0.0
0.020319731722679008,0.003095443206504808,0.7275220863985239,-0.0005432510665443771,-0.5254611590169613,0.0003199353374904364,0.8508173557727946,-0.009665950572266001,-0.8696854586738825,0.9045712530349844,-0.008751205197063157,-0.893396099488466,1.0403162396026575,-0.01915796632532515,0.7105773008036502,1.010365971308364,-0.018564768317014355,0.7081990811789233,0.9898884964461413,0.0,0.0,0.0,0.0
0.021636487015283347,0.003511248387404753,0.7272508915435044,-0.0006569859299360245,-0.5256479338725535,0.00041471644058283766,0.8507018549381901,-0.01204400409177294,-0.879791668876392,0.8996089479328845,-0.010079099076776852,-0.8977192707486731,1.0491990335816639,-0.021373491138802794,0.7142374293715885,1.0124867533182436,-0.02063118413283593,0.7117393062212647,0.9893952384821529,0.0,0.0,0.0,0.0
0.022499141136870984,0.003812239721414971,0.727060897889173,-0.000770922783681542,-0.5258148471275802,0.0005111492778285628,0.8505985486377677,-0.014199714501639111,-0.8901862071456663,0.8954726814418302,-0.01109948615216381,-0.9001366065892473,1.0545767935912953,-0.022560356593535773,0.7166113247356014,1.0140736128733516,-0.02171742391122291,0.7142782086962951,0.9891640277434323,0.0,0.0,0.0,0.0
0.022982432576402135,0.003981487225229102,0.7269483002164018,-0.0008703183911760681,-0.5259550528420346,0.0005912581430546719,0.8505117138227074,-0.01616163090903842,-0.9006186028817293,0.8915280442873388,-0.011723862138908227,-0.9011408005350545,1.0572658014175802,-0.022784851521576745,0.7179268556301323,1.015044273308699,-0.021902211656363718,0.715948059241691,0.9891840591711815,0.0,0.0,0.0,0.0
0.023165981781528063,0.004016145803173761,0.7269029191016954,-0.0009449728080357614,-0.5260695437908954,0.0006426377367139,0.8504407852042202,-0.01796419294102988,-0.9109906720454318,0.8874556370758839,-0.011916772982039778,-0.9011551879240641,1.0579954843771995,-0.022197441214685157,0.7184418589314927,1.0153967513707096,-0.021331533918560575,0.7169019874592206,0.9894421514991911,0.0,0.0,0.0,0.0
0.023123484034102065,0.0039220313440702596,0.7269073071366654,-0.000990067740370281,-0.526160676731817,0.000658345986323307,0.8503843416994155,-0.019628473642404966,-0.9212829306092204,0.8831102650609668,-0.011679799723179264,-0.9005468883737839,1.0573880911091569,-0.02096212721263226,0.7183668750020157,1.0152128826952493,-0.020155901776913315,0.7172629490607652,0.9899645297663393,0.0,0.0,0.0,0.0
0.02291607321283856,0.0037094605212682624,0.7269254711035337,-0.0010051456555547663,-0.5262266530628678,0.0006338307711746942,0.850343517378134,-0.021147635962535275,-0.9315383076753488,0.8784002507341497,-0.011031735163674816,-0.8996858593652379,1.0559733746068014,-0.019237143428507027,0.7177719716093437,1.014756564923882,-0.01851697241216633,0.7170265933779238,0.9909388483789993,0.0,0.0,0.0,0.0
0.022624210736443762,0.003431753133831917,0.7269657069190024,-0.0009958229579231372,-0.5262824549688243,0.0005835459238757449,0.8503090293550801,-0.022607507939881956,-0.9417947792234203,0.8733957183054051,-0.010153438354200024,-0.8986605919002345,1.0541406815127996,-0.017344812966863847,0.7170205272486103,1.0140202635756117,-0.016713029507888524,0.7165345897756603,0.9920174782656549,0.0,0.0,0.0,0.0
0.02231561913703236,0.0031356770724036286,0.7270233009417967,-0.0009689354386072427,-0.5263355568829075,0.0005192076803772714,0.8502762334372637,-0.024070890456289795,-0.9520790041514209,0.8681407400490119,-0.009199435724591028,-0.897606870053158,1.0522523549727105,-0.015552192044531104,0.7163461900190603,1.0131016871165883,-0.014995719109320462,0.7160057709231579,0.9930015652222071,0.0,0.0,0.0,0.0
0.022038354801576152,0.002856080531417719,0.7270856384188654,-0.0009297498182608454,-0.526390556232791,0.0004480506508302007,0.8502422696648424,-0.025601279141773958,-0.9623346239274493,0.8627117339607273,-0.008280036108876933,-0.8966544215904463,1.0505795093780383,-0.014060697431533403,0.7158707714899327,1.012160944519143,-0.013559752713654236,0.7155457459259732,0.9938292406447721,0.0,0.0,0.0,0.0
0.021822161585216906,0.0026165957108601804,0.7271423585093528,-0.0008831335923926773,-0.5264487314216733,0.0003753955561795382,0.8502063351550289,-0.027273437371201026,-0.9723182157133031,0.8572656341915067,-0.007469734895664418,-0.8958944468020901,1.0492945598374372,-0.012986714605093983,0.7156463650837972,1.0113254326685568,-0.01252136309479806,0.7152071447631011,0.9944789662515322,0.0,0.0,0.0,0.0
0.021677039949461574,0.0024285933003020477,0.7271871940344834,-0.0008342344074382237,-0.5265067091765123,0.0003059403646998304,0.8501705097482305,-0.029157779825540558,-0.9814844160743141,0.8521159705486601,-0.006808028546853207,-0.8953723017268466,1.0484615134365975,-0.012343140362998146,0.7156520761215123,1.0106661321694868,-0.011897135646782976,0.714995925604684,0.9949555798140601,0.0,0.0,0.0,0.0
0.021592097285858723,0.002289321149156501,0.7272181703801035,-0.0007887906381755434,-0.5265559375139159,0.0002442400867809249,0.8501400842360924,-0.03127991694132604,-0.9889041762110022,0.847833741312827,-0.006296012639730681,-0.8950860923853245,1.048031365476056,-0.012021544603755471,0.7157880046180062,1.0101880324292125,-0.011584592646352742,0.7148709121301428,0.9952947928579904,0.0,0.0,0.0,0.0
0.02153898700908589,0.0021820861086120445,0.7272374802640281,-0.0007515401989891411,-0.5265868148946923,0.00019328902920128134,0.8501210056255188,-0.03357074208277259,-0.9933362684573899,0.8453171101761304,-0.005894162366305911,-0.8949825847435716,1.0478530435852704,-0.011818362171137756,0.7159062535495504,1.0098351327120278,-0.01138729319410986,0.7147585557556315,0.9955636367027709,0.0,0.0,0.0,0.0
0.021486185697035684,0.002084447722746484,0.727251356190123,-0.0007214545782325633,-0.5266012663956599,0.0001509313449203838,0.85011208846452,-0.035878175502024844,-0.9936601443044335,0.8456410310205957,-0.005537142528738248,-0.8949451488237121,1.0477163630436586,-0.011569183453187984,0.7159222988030518,1.0095254176989998,-0.01114591370216039,0.7146058359752382,0.9958298335132394,0.0,0.0,0.0,0.0
0.02142054720914595,0.001988538979603172,0.727263327035709,-0.0006971949746419437,-0.5265988547601268,0.00011608571069862844,0.8501136080598863,-0.03816860600747791,-0.9898567792907637,0.8487754026631851,-0.005201824702260492,-0.8949272393107114,1.0475347238621062,-0.011226354307534044,0.7158057090296603,1.0092194768966491,-0.010813968030427881,0.714387885701665,0.9961052118106393,0.0,0.0,0.0,0.0
0.021347937198103552,0.0019010716378114886,0.7272742489295425,-0.0006770740406586514,-0.5265773483710713,8.81456641177998e-05,0.8501269493337902,-0.04054595459453407,-0.9830188560595893,0.8536152938238234,-0.004905480978254664,-0.8949533978273299,1.0473490005198387,-0.010864171476689458,0.715585775535574,1.0089211231456907,-0.010463130086908596,0.7141096761521952,0.9963451239959309,0.0,0.0,0.0,0.0
0.021270571906474307,0.0018224305390756586,0.7272887675280296,-0.0006538683929945184,-0.526546575608098,6.067581358920701e-05,0.8501460300971567,-0.043052132980978215,-0.97436199143441,0.8592424334343813,-0.004635746914721923,-0.8949832365579442,1.047138085390989,-0.010593288491788156,0.7153540530961707,1.0086112636358766,-0.01020085218332957,0.7137943238355501,0.9965116057297075,0.0,0.0,0.0,0.0
0.021171283524281975,0.0017379002655152514,0.7273150303441867,-0.0006202175322407797,-0.5265146502831481,2.5804256333385506e-05,0.850165829530667,-0.045642402263833565,-0.9647900946432001,0.8650582419187084,-0.004336242613185055,-0.8949237586316326,1.046769745012228,-0.010408551949989448,0.7151380352517022,1.008213780776054,-0.010022586628876402,0.7134247714463333,0.9966108267349075,0.0,0.0,0.0,0.0
0.02101007639107993,0.0016173377432014723,0.727362585756494,-0.0005707065976133481,-0.5264828205504158,-2.3793488703494916e-05,0.8501855758557234,-0.04822688450120331,-0.9548312491360332,0.8707206018344488,-0.003910002043018817,-0.8946437919551654,1.045994982498183,-0.010155301883072267,0.7148556416100413,1.0076063857193074,-0.009778377853850714,0.7129186208819247,0.9967111987521345,0.0,0.0,0.0,0.0
0.020725104307298126,0.0014172731514315899,0.7274305394934473,-0.0005009052715896141,-0.5264452264842312,-9.651609082790052e-05,0.8502088939140308,-0.050697485096582506,-0.9447391338364581,0.8760421665202756,-0.003221443796035907,-0.8940154258659696,1.0444663275017858,-0.009569563463936594,0.7142738286088108,1.0067330723204584,-0.009211382945507475,0.7120663377701555,0.9970386560413099,0.0,0.0,0.0,0.0
0.020255592866418023,0.0010995175157889746,0.7275261469327332,-0.00041089626150213365,-0.5263920313948665,-0.00019499761476409266,0.8502418611337472,-0.05296370333649194,-0.9345996863858683,0.8809271129374956,-0.002162741516055282,-0.8928818704854965,1.0418211431082194,-0.008356740831801974,0.7131727229804895,1.0054642239181482,-0.008032845901571353,0.7107095634222013,0.9977219488201025,0.0,0.0,0.0,0.0
0.01955456285379327,0.0006537438666976692,0.7276784726502887,-0.00030568862551290165,-0.5263228942316445,-0.00031010180354031606,0.85028467080088,-0.05501886012173977,-0.9244345231018337,0.8854223624175369,-0.0007303979763390264,-0.8909337652990129,1.0376211695542796,-0.006336881109564122,0.7114985256108498,1.0035468103830067,-0.006060443828460384,0.7088803772792781,0.9985986044416151,0.0,0.0,0.0,0.0
0.018575952432242426,7.298474946973378e-05,0.7279038269022916,-0.0001945520329270999,-0.5262341017858694,-0.0004305453414872974,0.850339606802973,-0.05689009689422845,-0.9142875154073306,0.8896281215164575,0.0010649500182926485,-0.8878997176890592,1.0314338794891724,-0.0033312469665383194,0.7091352503405811,1.0008335129640518,-0.0031048329961375605,0.7065545351089532,0.9995975447850045,0.0,0.0,0.0,0.0
0.017284915490639968,-0.0006434051563211964,0.7282129011256766,-9.099734641848512e-05,-0.5261231086551953,-0.0005425096993629745,0.8504082384018293,-0.05868014342591816,-0.9042605820309452,0.8937736827565695,0.003189465147329033,-0.8835345850729358,1.0228739356485619,0.0008062860783970699,0.70599113124251,0.9972184705655635,0.00100280022513273,0.7037278428291398,1.0006550571724149,0.0,0.0,0.0,0.0
0.015671533000755904,-0.001486749439270232,0.7286072414095477,-9.987836382204539e-06,-0.5259949823367471,-0.0006336827478972847,0.8504874348883605,-0.060603626161201046,-0.894555057553143,0.8983293605059014,0.005588002743244513,-0.8776582959873014,1.0116882071356117,0.006109451160541037,0.7020660309867014,0.9926758448685042,0.006332570942068233,0.7004407755466903,1.00172372411536,0.0,0.0,0.0,0.0
0.013770525685541542,-0.0024367793215527003,0.7290625253005093,4.299261452699136e-05,-0.5258774883378362,-0.0007063787289458047,0.8505600310620147,-0.06299237523035907,-0.8855277597654316,0.9042066866847968,0.008208734758254949,-0.8702456262413352,0.9978965108553334,0.012324538123337057,0.6975255244460655,0.9874434368524099,0.012672457492682438,0.6967468226238408,1.0029076555825471,0.0,0.0,0.0,0.0
0.011684303171192949,-0.0034595518592804827,0.7294745022333607,9.643928600361963e-05,-0.5258435134605749,-0.0008053006256253597,0.8505809435566991,-0.06619406258863024,-0.8777974611334362,0.9129849854593317,0.011060966572500606,-0.8616559068937566,0.9820223842807679,0.018598678377094523,0.692655922212242,0.9825972942295411,0.019182694982276836,0.6924794622871777,1.0049447897697974,0.0,0.0,0.0,0.0
0.009693584634896307,-0.004411980183600051,0.7297554429971065,0.00022554125257318229,-0.5260496292448019,-0.0009983185388243018,0.8504532556599714,-0.07060283482433775,-0.8722751619877038,0.9273379907512548,0.013907839407933513,-0.8524346740233399,0.9655092279466404,0.022982721699009737,0.6887122969271691,0.9794917507642825,0.023825747522775775,0.6881347431265668,1.008006578637638,0.0,0.0,0.0,0.0
0.008284680470296617,-0.005079716436731464,0.7297609369635231,0.0005925019146187311,-0.5267365849019142,-0.0013968527201831478,0.8500272159583055,-0.07603279544782078,-0.8707941599715942,0.9510552400390758,0.016405737550337092,-0.8439184480619013,0.9514002582186184,0.02244482810627548,0.6876608830601242,0.9803709481318525,0.0233395322299228,0.6845300203120963,1.0125064151836085,0.0,0.0,0.0,0.0
0.007761626506560878,-0.005330606778401609,0.729654953174315,0.0012404631028882685,-0.5279047545343769,-0.00190299237544924,0.8493005416289975,-0.0814746305409531,-0.8765692601930093,0.9865142008380647,0.01793512390496428,-0.8368305262347863,0.9420931130373629,0.016610390113895288,0.6909698267194936,0.983898539749978,0.017298795623055065,0.683473937426435,1.016380215964955,0.0,0.0,0.0,0.0
0.00776072549797541,-0.0053563477550503625,0.7296510060748922,0.001260531980091588,-0.5279024929432099,-0.0018986195575209004,0.8493019276130528,-0.08146992063961545,-0.8765928194598419,0.9865202317337052,0.01795803572735233,-0.836828938762996,0.9420345422184201,0.016581994977243712,0.6910067314123031,0.9838035915221017,0.01732021062449724,0.6834349394349981,1.0164537848763067,0.0,0.0,0.0,0.0
0.00776072549797541,-0.0053563477550503625,0.7296510060748922,0.001260531980091588,-0.5279024929432099,-0.0018986195575209004,0.8493019276130528,-0.08146992063961545,-0.8765928194598419,0.9865202317337052,0.01795803572735233,-0.836828938762996,0.9420345422184201,0.016581994977243712,0.6910067314123031,0.9838035915221017,0.01732021062449724,0.6834349394349981,1.0164537848763067,0.0,0.0,0.0,0.0
0.008383990991441414,-0.0055595755092737835,0.7308125435693203,0.0008134429336296865,-0.5269399407845459,-0.0012827738610110835,0.8499011657879958,-0.08258028546619439,-0.8826482260900749,0.9965163433087192,0.01710932358364097,-0.8408601175554881,0.9512561299422382,0.011178082435430423,0.673557019968155,1.0060133726425555,0.026214741568894702,0.6906866687498635,1.0048882920615385,0.0,0.0,0.0,0.0
0.009497160158913581,-0.00589209045184017,0.7323429287816446,0.0007373881481033649,-0.5265915296385697,-0.0011127197719041388,0.8501173913209514,-0.08229030452846366,-0.8850179000876005,1.0061176839762958,0.017559239164285957,-0.8438727387541044,0.9624757549228362,0.0067822607639118765,0.6624710108809261,1.024343033296502,0.030386402921748802,0.7012318391439165,0.9902900968854121,0.0,0.0,0.0,0.0
0.010658532168720702,-0.006437965989259291,0.7338785528592009,0.00085991909565098,-0.5265433424348102,-0.0012140352863000386,0.8501469844650693,-0.08075720621390323,-0.8847772940841783,1.0134066153432977,0.019166739084236578,-0.8463233517577431,0.9735174435391173,0.004623423226148796,0.6549191729212264,1.0403393294687764,0.032976449274968615,0.7120360238248128,0.9762901865850392,0.0,0.0,0.0,0.0
0.011733955247279243,-0.007192074088430609,0.735295319941874,0.0010391704230390388,-0.5265311296478143,-0.0014281100999801305,0.8501540155396378,-0.0783898392080908,-0.8836205156932535,1.01902835886858,0.02158370309670029,-0.8490774400098631,0.9843986375877987,0.003911345794199892,0.6493073998099993,1.054877620545775,0.035976215031255504,0.7219734259708158,0.9639041519002631,0.0,0.0,0.0,0.0
0.012597695775023534,-0.008095261308622821,0.736586572416767,0.0012180738582349183,-0.5264979593751151,-0.0016570672591865753,0.8501739052676306,-0.07556801753823619,-0.8816167202365316,1.022466051809531,0.02442605864313353,-0.8515658569585128,0.9939456910883322,0.004037975759409665,0.6444756876160719,1.0685446486444603,0.0400038825760502,0.7307278523826409,0.9532289692530869,0.0,0.0,0.0,0.0
0.013224881402058686,-0.00908331629827313,0.737776142847084,0.0013829319333587163,-0.5264439517310765,-0.0018682533412812247,0.8502066588862313,-0.07253681978834917,-0.8787734959373958,1.0237157613656498,0.02744485874610358,-0.8534355136095687,1.0017019446079418,0.004613635412127499,0.6398310030253636,1.081704165358405,0.04489356982652806,0.7383643748673824,0.9439591788744395,0.0,0.0,0.0,0.0
0.01362978631329437,-0.010093238208548428,0.7388833033583202,0.0015281313281554079,-0.52637715248232,-0.0020422860899948015,0.8502473682563063,-0.06951334920651864,-0.8752152286219477,1.0230569088729395,0.030424589762957557,-0.854516237137769,1.0075550526056565,0.005469460603479165,0.6350699817517266,1.0945954378302678,0.0503349786237694,0.7450355939104462,0.9357581106084556,0.0,0.0,0.0,0.0
0.013855140726483302,-0.011081487391974523,0.739918235591476,0.0016528271208126818,-0.5263025915239872,-0.0021769370930414702,0.8502929561407273,-0.0666251166562557,-0.8711778753988632,1.0209734699475779,0.03324540956800133,-0.8548791129186416,1.0117488835621524,0.0064806877760321575,0.6301210155255111,1.1073902710019103,0.05600740620516038,0.7509000724945267,0.9283628196484548,0.0,0.0,0.0,0.0
0.013949439566737908,-0.012015739805628383,0.7408874804310789,0.0017578600568578689,-0.5262269195613422,-0.002274748398498056,0.8503393231979365,-0.06395752519196303,-0.8668923043269525,1.0179554404148041,0.03583001392993475,-0.8546462639985998,1.0146020848550181,0.007530020056722025,0.6250063345237333,1.1202226303157155,0.06163485006563182,0.7561212648959486,0.9215641031711086,0.0,0.0,0.0,0.0
0.013969373916498728,-0.012875132830521285,0.7417970069712679,0.0018478510051208568,-0.5261591686016307,-0.0023452994461869736,0.8503808642682473,-0.06154864288958309,-0.8625788843401286,1.0145136853309638,0.03814922440188616,-0.8539966279449483,1.0165318077364223,0.008505800787983159,0.6198323952634556,1.133209842135495,0.06696256304940422,0.7608823187440081,0.915179195235885,0.0,0.0,0.0,0.0
0.014005913300099667,-0.013661745012278587,0.742650621482991,0.0019336745243208192,-0.5260972303624688,-0.0024126298249767674,0.8504188052513308,-0.05934715884126095,-0.8586218533334593,1.0114530594562219,0.040273604681975037,-0.8534056724627879,1.0184084902512534,0.009391433492785591,0.6148634935535192,1.1464142599711213,0.07177747870049674,0.7654069816843028,0.9090404651498334,0.0,0.0,0.0,0.0
0.01410670345173868,-0.014368047911234815,0.7434494434458311,0.002021186796063345,-0.5260481034158505,-0.002487861261641683,0.8504487746142414,-0.05734988490241491,-0.8551970684915463,1.0091860617610249,0.04221450566077293,-0.8530579136336076,1.0206175412588185,0.010131437249517906,0.6102588468626055,1.1598570557436934,0.0759266991464713,0.7698326258346843,0.9030604349052151,0.0,0.0,0.0,0.0
0.01428699796211916,-0.014982905843591285,0.7441879770086273,0.002110773994819063,-0.5260173753388494,-0.002571821491990504,0.8504673134277321,-0.05558310947094337,-0.8523845064410022,1.0078721922510305,0.043947695577704796,-0.8529904031794139,1.0232445352050137,0.010680243981178223,0.606105480319529,1.1734462849028162,0.07933755046058669,0.7741890771932269,0.8972553804613854,0.0,0.0,0.0,0.0
0.014538801048712706,-0.015495944943825293,0.7448522406971542,0.0021997053447536203,-0.526007966589433,-0.002659811918131574,0.8504726367035016,-0.054081804424355895,-0.8502076305796152,1.0074900689776811,0.04543654179390375,-0.853168352242036,1.0261891918988837,0.010995818364276926,0.602470045501466,1.1869104988959067,0.08199577902984435,0.7783979925980548,0.8917616308800677,0.0,0.0,0.0,0.0
0.014827363630112975,-0.015898389772061153,0.7454175838322353,0.002281257833348427,-0.5260193172478784,-0.002741200279841954,0.8504651430633706,-0.05288788996258678,-0.8486297704908532,1.0078123915943364,0.046633383053776616,-0.8534829010921423,1.0291453364098835,0.010983768235705968,0.5994009607237715,1.199673673206955,0.08395703478122844,0.7822482091718058,0.8868673507313896,0.0,0.0,0.0,0.0
0.015086318100753357,-0.01618436843905599,0.7458473039146594,0.0023425377682573974,-0.5260467925262745,-0.002797084363963456,0.8504478002256716,-0.05205126927010709,-0.8475446437117102,1.0083699505740646,0.04747770355270068,-0.853735986051921,1.031565733498808,0.01041405933737201,0.5969648312596553,1.2106501376595926,0.08538837664391981,0.7853796631282123,0.8830430367111253,0.0,0.0,0.0,0.0
0.015249785467370687,-0.016364488984748408,0.7460952463431172,0.0023672616663451946,-0.5260727444647422,-0.002809984288822909,0.8504316360483267,-0.05157538817448018,-0.8469296856230888,1.008740160920805,0.04795981241276041,-0.8538708423423101,1.0330423094062826,0.008892280215142823,0.595521239657305,1.217933534893247,0.0865900281207658,0.787354808728812,0.8808913774903308,0.0,0.0,0.0,0.0
0.015291364053247452,-0.016469566180428087,0.7461230101040532,0.0023415374109844204,-0.5260642764538608,-0.002773998458950365,0.8504370636173959,-0.05138844256786589,-0.8469533708886088,1.0088582533621442,0.04815736474343128,-0.854125727525034,1.033654523607752,0.005955710347415388,0.5961428040673579,1.2185370554800232,0.08791880556864115,0.7878400355336853,0.8809073276536842,0.0,0.0,0.0,0.0
0.01521194777515637,-0.016503368627904965,0.7459327542171496,0.002268733397598186,-0.5260226450404808,-0.002692277193104827,0.8504632745726898,-0.05147453169521285,-0.8475910694599691,1.0087062991712268,0.04808592951171264,-0.8545080387663649,1.0334211533064763,0.001627793043473753,0.5988335035311517,1.212444361756254,0.0893542296880043,0.786839381160737,0.8830833941569568,0.0,0.0,0.0,0.0
0.015037473470090053,-0.016444315115695465,0.7455681872618978,0.002168533961766506,-0.5259821256875113,-0.0025768871488881895,0.8504889538202866,-0.051868940157773456,-0.8486155794278837,1.0082926222320625,0.04770322516782378,-0.8547889738991307,1.0322884943378776,-0.003597016694332025,0.6025322890030073,1.2026140500680305,0.09051683434555849,0.7846944288114418,0.8869019384165526,0.0,0.0,0.0,0.0
0.014844572423803578,-0.01630388171666681,0.745083430705786,0.0020639700450600347,-0.5259538238398916,-0.0024562989312777567,0.8505070733459007,-0.052487828247997026,-0.8500465378272057,1.008078641457901,0.047102248929686376,-0.8551509841430104,1.0308661440398654,-0.009259414095755281,0.6069445693196233,1.1909136010068173,0.09114125151981543,0.7818760624838551,0.8917127667612521,0.0,0.0,0.0,0.0
0.014675262217689156,-0.016106723311706005,0.7445263664099467,0.0019695981070228592,-0.525939308923473,-0.002350258950253277,0.8505165726164677,-0.0532275122504197,-0.8518179230420074,1.0082527643035581,0.04639083458561183,-0.8557009689056971,1.0295418627249286,-0.015096044948846124,0.6119626250459356,1.1783868888422122,0.09117231483401098,0.7787228422242135,0.8970200530073209,0.0,0.0,0.0,0.0
0.014520524539544015,-0.015885341933805745,0.7439334134785637,0.0018899502382054845,-0.5259307173612408,-0.0022651893038986696,0.8505222969102016,-0.053987770588301606,-0.853735624601598,1.0086094097700236,0.045665026367820875,-0.8563953352748852,1.0283231997010038,-0.020959980508630682,0.617442499803369,1.1655335856894578,0.09075903738942946,0.7753695998929149,0.902544756311697,0.0,0.0,0.0,0.0
0.014317378837328363,-0.015673054624356256,0.7433311727982275,0.0018204259999409092,-0.525915316424712,-0.0021923151551569283,0.850532162680127,-0.05469473761573717,-0.8554439494478281,1.0085144972710771,0.04498427832322724,-0.8569776620531079,1.0267605389659271,-0.0267576690425749,0.6231280073511778,1.152527608424374,0.09020923439243814,0.7717610884824833,0.9081935585611838,0.0,0.0,0.0,0.0
0.013963914952194994,-0.015505983776091454,0.7427398667083506,0.0017518852024457458,-0.5258804943432026,-0.00211654673115762,0.8505540293229591,-0.05527601017037109,-0.8564322484106497,1.0069906204365822,0.044398278754039996,-0.8570244325424672,1.0240632218951098,-0.032465608472859044,0.6286855470140716,1.1393971350760956,0.08991661394197965,0.7677071889358308,0.9140067439162645,0.0,0.0,0.0,0.0
0.013392999812443507,-0.015442634982130643,0.7421781842756158,0.0016818837683022984,-0.525804116849956,-0.0020364738258278063,0.8506015840244976,-0.055573971013354984,-0.8563400703759989,1.0033408999909563,0.04405223792919444,-0.8563949602980997,1.019881799257813,-0.038011809315116434,0.6339212929633669,1.1261020188800281,0.09030886380170765,0.7630658549191561,0.9200326650891649,0.0,0.0,0.0,0.0
0.012525399936435139,-0.015537552605607581,0.7416611906620717,0.0016053536233055705,-0.525669495097298,-0.0019463944126309526,0.8506851452286482,-0.05544982338935135,-0.8547362443672307,0.9967346969394286,0.04406906566363153,-0.8548506798953704,1.0137057584121456,-0.04341964981819643,0.6385817436263841,1.1126100898728684,0.09182459694182918,0.7576668448727586,0.9263650559354333,0.0,0.0,0.0,0.0
0.011283043928177677,-0.015835234418660592,0.7411960144838692,0.0015127530656349152,-0.5254633191467182,-0.0018342953716569887,0.8508129331233547,-0.05480747604472845,-0.8512126943006723,0.9863467565731673,0.04453005248739846,-0.8521176658109315,1.004964094696829,-0.04884056998131917,0.6423710634270102,1.0989225945714607,0.0948852250167671,0.751330421549082,0.9331357189737203,0.0,0.0,0.0,0.0
0.009614295249117055,-0.016359720888124162,0.740778966020171,0.00139212528184166,-0.5251812800270549,-0.0016845674087354158,0.8509875717829193,-0.053619001177523405,-0.8454814848522906,0.9715648127772423,0.04545466182751524,-0.8479580184877239,0.9931853499050429,-0.05464534564159137,0.6450657032483502,1.0851761563410074,0.09978064398691139,0.7439325844458604,0.9404742854184351,0.0,0.0,0.0,0.0
0.007535067031485663,-0.0171012023331689,0.7403909622912772,0.0012323370439380138,-0.5248320058921215,-0.0014838502071041933,0.8512036449200773,-0.051950819499321295,-0.8375732002709976,0.9523785846502831,0.046783237104971134,-0.8423373533902203,0.9783198039366224,-0.06161456592809118,0.6467756348552975,1.0718141836121169,0.10652343678071936,0.7354970064271341,0.9484601564601894,0.0,0.0,0.0,0.0
0.005183890073118475,-0.018000206271195616,0.7399852636574256,0.0010172007370977416,-0.5244169776587057,-0.0012187363577199407,0.8514601068327625,-0.05001324027944364,-0.8283345248164157,0.9301371277562889,0.048344934869709644,-0.8358219453125213,0.9613511257302663,-0.07128963685124148,0.6483563006004499,1.059757671901116,0.11483648749551227,0.7262590959250665,0.957112837003738,0.0,0.0,0.0,0.0
0.002914630514345609,-0.018925319796444864,0.7394841659745279,0.0006948292366494359,-0.5238422672663551,-0.0008422900836072759,0.8518145847454078,-0.048300291325334845,-0.820669056198794,0.9092847261105033,0.04975705359812282,-0.8305051983976379,0.9456541641176232,-0.08645655584144116,0.6517797356576766,1.0501626531909163,0.12447133074873988,0.7167992137313144,0.9661605113699069,0.0,0.0,0.0,0.0
0.0011115986132125971,-0.019695706974412048,0.7389156983033922,0.00023029930610538282,-0.5230856436432085,-0.0003384082291805972,0.8522800254942446,-0.04733230390127403,-0.8171455131444776,0.89456288838073,0.050583228975236004,-0.8279831352723567,0.9345094748279711,-0.11078953330539841,0.6581666400841649,1.044770120071681,0.1346115931223639,0.7083702996930676,0.9743600278618262,0.0,0.0,0.0,0.0
-8.446979120089538e-06,-0.020177835863796553,0.7384757006579528,-0.00027367884483388066,-0.5223192836267572,0.00020766399477621712,0.8527499328215665,-0.047267037005036566,-0.8174888996890692,0.8875173756980319,0.050646300801434924,-0.827810308139298,0.9288008088261329,-0.14158029054416066,0.665044199772496,1.0452382342366582,0.14335608632055974,0.7026602859633341,0.9796459199946167,0.0,0.0,0.0,0.0
3.987939438954762e-06,-0.020180571117978836,0.7384581964569731,-0.0002927935772459054,-0.522320120798231,0.00021298775508272764,0.8527494123817727,-0.047274771040286996,-0.8174994836473554,0.8874682180181692,0.050646636801483666,-0.8278124534605773,0.9287846933635279,-0.14155088826874385,0.6650265030873196,1.0452215493559074,0.1433194529456854,0.702639076134806,0.9796341822174814,0.0,0.0,0.0,0.0
3.987939438954762e-06,-0.020180571117978836,0.7384581964569731,-0.0002927935772459054,-0.522320120798231,0.00021298775508272764,0.8527494123817727,-0.047274771040286996,-0.8174994836473554,0.8874682180181692,0.050646636801483666,-0.8278124534605773,0.9287846933635279,-0.14155088826874385,0.6650265030873196,1.0452215493559074,0.1433194529456854,0.702639076134806,0.9796341822174814,0.0,0.0,0.0,0.0
-0.0009013929525142899,-0.020462965191968732,0.7386210400870352,-0.00013865649386714777,-0.5224923344414781,0.00013465245014750347,0.8526439603333791,-0.04632345138616253,-0.8100951569579767,0.8755914940345366,0.0513416993640665,-0.8224707966429257,0.9197501612794159,-0.1403404034126925,0.6635699358744465,1.0441152119124604,0.14304600241523435,0.7007658282134284,0.9799590124600738,0.0,0.0,0.0,0.0
-0.002259274749267468,-0.02104060691317872,0.7386269075565288,-0.0001673578767732644,-0.5224402839683626,0.00025851793958828813,0.8526758204891661,-0.04504878028162022,-0.8019414193691309,0.8598627806733634,0.05234033499037617,-0.8167088473357323,0.908194237691904,-0.1335295702348385,0.6582208910587378,1.0432528300996193,0.14698481100386088,0.6969452194281324,0.982760044052825,0.0,0.0,0.0,0.0
-0.0032938276137506684,-0.021682269461753535,0.7385532994462438,-0.00021546080040155585,-0.5222891323870055,0.0003723753181246522,0.8527683607543698,-0.043630438840030455,-0.7961465533493015,0.847750853557438,0.053589044529641985,-0.8135035942627729,0.9005804016482077,-0.12662432650792727,0.653307456500448,1.0423854843271072,0.15157394036751953,0.6935207872424465,0.98594935323763,0.0,0.0,0.0,0.0
-0.0038459458962941512,-0.022221376733075594,0.7384843162390428,-0.00022231070602861405,-0.5222164915906401,0.0004195014969732567,0.8528128226681438,-0.042360701466554164,-0.792541143194314,0.8404077948873837,0.054775091480071245,-0.812238184565003,0.8971055756714151,-0.12190308038930416,0.6505719906981009,1.0415934796757118,0.15521674125506077,0.6916313945046834,0.9884748171590508,0.0,0.0,0.0,0.0
-0.003876421185646552,-0.02259230216937165,0.7384137180622283,-0.00021006131644909544,-0.5222249901219241,0.00043339534920451035,0.8528076147261296,-0.04147845860813695,-0.7916663854264157,0.8387163831346643,0.05566628574624863,-0.8129709688066827,0.8979885359816104,-0.11930344226501312,0.6499599279127342,1.0411272054769063,0.15793977160055622,0.6914632102728641,0.990254779302158,0.0,0.0,0.0,0.0
-0.003355770655471433,-0.0227726637643873,0.7383319878576046,-0.00019161733615712155,-0.5223063729635999,0.0004319646553140727,0.8527577788862097,-0.041079675146411455,-0.7938973652028284,0.8432372991421719,0.05617495602542479,-0.8158612667328291,0.9034995888224677,-0.11871431731591535,0.6514152728227026,1.041099331743458,0.1598535392913346,0.693099062085665,0.991302674760421,0.0,0.0,0.0,0.0
-0.0022559622406371407,-0.022770766803579614,0.7382427629469592,-0.00016129217712344585,-0.5224625039039572,0.0004061041105922696,0.8526621494347526,-0.04112406769865384,-0.7992830998442244,0.8541226237938054,0.056346977198760126,-0.8210263441101919,0.9138667587863828,-0.1202088493990505,0.6550910864618701,1.041424226021811,0.16096155712446833,0.6966449535958174,0.9915641008978053,0.0,0.0,0.0,0.0
-0.0005518466308264171,-0.022623738544185694,0.7381673659689683,-9.258795199661342e-05,-0.5227107041730281,0.00031655185221648416,0.8525100650228905,-0.041431665761935584,-0.8074871653358227,0.871061542924509,0.05636346483756688,-0.8284866946908602,0.9292169999070927,-0.12409385270089318,0.661393354390861,1.0417985223206039,0.16111552606884066,0.7022527053360231,0.9908790891384086,0.0,0.0,0.0,0.0
0.0017735735380747515,-0.022403163677445354,0.738149052112345,7.443910575401469e-05,-0.5231028269844562,7.681969007936214e-05,0.8522695705927936,-0.04162501155011958,-0.8176002742556577,0.8931045203107097,0.05659224122993796,-0.8380635422645737,0.9494622467692193,-0.13113209026190512,0.6711130130463322,1.0417023800100969,0.1598568370166289,0.7101220493104499,0.9889872459035473,0.0,0.0,0.0,0.0
0.0047129453969172175,-0.02222559615801199,0.7382344307556494,0.00046109902856476007,-0.523756327691364,-0.0005217565237658103,0.8518678444225208,-0.040907867333331904,-0.8278212730219549,0.9183259837850548,0.057799692731518804,-0.8493369888014062,0.9741456866078189,-0.1433822577359087,0.6856655636263116,1.0406629501346545,0.1557289047492144,0.7202166983996174,0.9857434823447893,0.0,0.0,0.0,0.0
0.0075757763086148205,-0.02205566716216284,0.7380033978505929,0.000556597770840843,-0.5235199227339735,-0.0005821227159645612,0.8520130526187256,-0.0415439800826866,-0.844613276219029,0.9482821777552877,0.046629887335958284,-0.841613107741903,0.9429927095003943,-0.14909435236031884,0.6942104245044206,1.039902436975001,0.15596670378596936,0.7275998552259113,0.9837738055796202,0.0,0.0,0.0,0.0
0.010293866962979716,-0.022151835893028545,0.737629818115621,0.0007189385367622152,-0.5233454641096629,-0.0007884015537139306,0.852119936831789,-0.041138165485651586,-0.8594057745324323,0.9746131460305909,0.036655759054509074,-0.8420297623029466,0.9215452113225177,-0.1543967213175514,0.7022158592284142,1.039875629343713,0.15683587289712805,0.7338696989852938,0.9839548550524071,0.0,0.0,0.0,0.0
0.012595271844364814,-0.02248635780130454,0.7372886563620478,0.0009223263664751253,-0.5233064404638249,-0.0010716796430385621,0.8521433976660839,-0.03986536739554499,-0.8702827119671527,0.9947327887937283,0.02874863036268581,-0.8470737706363796,0.9078886707924976,-0.1585500102204889,0.7095658768411767,1.0394869402272833,0.1585931568052057,0.7393623551609642,0.9850871780614399,0.0,0.0,0.0,0.0
0.014354455122304785,-0.022998573890632597,0.7369951907510508,0.0011040245183686363,-0.5233116473487003,-0.0013304958370541377,0.8521396192290791,-0.03810677814442057,-0.8777101917345671,1.0087814057880202,0.02245635420099496,-0.8544483245527272,0.8986474204758016,-0.16030566973694182,0.7151586601974164,1.038718711370567,0.16173244909337225,0.7437195770246923,0.986952953944149,0.0,0.0,0.0,0.0
0.015584440170096936,-0.023624096981600673,0.7367647991005473,0.0012452004686026078,-0.5233184616422762,-0.0015315746459351439,0.8521349021482798,-0.03611758717100743,-0.8822976803771841,1.0176167195097847,0.01725213822073232,-0.8629221960824736,0.8917064855778483,-0.1595213835759199,0.7187881208846476,1.0375766846873269,0.16608931621550024,0.7469453067454145,0.989215923462078,0.0,0.0,0.0,0.0
0.016370746033196562,-0.024286264743786846,0.7365956785777603,0.001347400747055554,-0.5233210513363762,-0.001673872029391702,0.852132888634071,-0.03411848479324191,-0.8847087593204292,1.022406628491773,0.01264751284616716,-0.8718732001980103,0.8858629957345091,-0.15688784086713725,0.7207621934154469,1.0362389029792645,0.17108505378332,0.7491965755221335,0.9915940665959804,0.0,0.0,0.0,0.0
0.016824327846002404,-0.024912570464926787,0.736471940336274,0.0014187109536244827,-0.5233293304915653,-0.0017687547189262874,0.8521274966888608,-0.03229059662000514,-0.8855962020798578,1.0243582868404018,0.008258444041696657,-0.8810014062878265,0.8804664102541444,-0.15340387503104758,0.7215750814838172,1.0349768152099033,0.1760506200447401,0.7506693124777979,0.9939108194688336,0.0,0.0,0.0,0.0
0.01705587407891735,-0.025462420212263543,0.7363892722992045,0.001468787356686957,-0.5233526096690563,-0.0018343895110973965,0.8521129758614234,-0.030710443000169733,-0.8854799245918031,1.024517578105643,0.0038608138596935493,-0.8901624808577002,0.8751979490509566,-0.1498751501874091,0.7217727691279019,1.0338536818134956,0.18050932517659696,0.751630368576598,0.9959562086761756,0.0,0.0,0.0,0.0
0.017155203421380123,-0.025917878572097854,0.736338461167733,0.0015043514357298614,-0.5233929383029805,-0.001883870597369752,0.8520880354123643,-0.029403005111876275,-0.8847985132691916,1.023714275982847,-0.0006673087839790762,-0.8993053984726135,0.869891622506585,-0.14677877173551931,0.721728490899214,1.0329116083469445,0.18422879847166065,0.7522817952444427,0.9976452019289637,0.0,0.0,0.0,0.0
0.01718731628181444,-0.02627995447181604,0.736309137965736,0.0015290995234716472,-0.523445915764951,-0.0019242844104824994,0.8520553575051018,-0.028354486145116497,-0.8838901909381949,1.022542593556724,-0.005371377072556004,-0.9084248701793237,0.8644570785239157,-0.14428130971786085,0.7216451749494299,1.0321588000368762,0.18719408658091422,0.7527627326906294,0.998981910741529,0.0,0.0,0.0,0.0
0.01719438336159977,-0.026562235743740933,0.7362877784989023,0.0015426884987927339,-0.5234998426963808,-0.0019556183923932907,0.8520221302089305,-0.027532770611168683,-0.883030721048956,1.0214104624623073,-0.010262788175287184,-0.9175399383547751,0.8588247432162968,-0.14229400726234132,0.72155677485813,1.0316021021695467,0.18956429142234965,0.7531385661784392,1.000056311796132,0.0,0.0,0.0,0.0
0.017219548258962283,-0.02678488747195567,0.736273849384918,0.0015548367644096393,-0.5235560569101656,-0.0019913751618619185,0.8519874835819363,-0.026856206215360546,-0.8823395837396717,1.0206091012782754,-0.015287605253570452,-0.9266596205760067,0.8529932448523935,-0.1408819257260575,0.7216537530777539,1.0311464881316925,0.19139000390174676,0.7535345465917388,1.0008690030268117,0.0,0.0,0.0,0.0
0.017290793859714812,-0.02697055389334831,0.736264225221486,0.0015730487572010608,-0.5236125823330873,-0.0020412253864084302,0.851952594067889,-0.026245088286682178,-0.8818969424922599,1.0203138982629996,-0.020376262335652203,-0.9357239374176147,0.8469800879425236,-0.1400139279696415,0.722030764377887,1.030721461127962,0.192770897146554,0.754017327655812,1.0014673765608573,0.0,0.0,0.0,0.0
0.017419263719458965,-0.027142122496932587,0.7362543452669269,0.0016021329134242068,-0.523664557062184,-0.002110055130963193,0.851920426163347,-0.025629734268271934,-0.8817355110097337,1.0205724369344613,-0.025434965740494326,-0.9445034043943478,0.8408733039599926,-0.13957251045447608,0.7226873146066919,1.0302793884740238,0.19384229887224935,0.7545955013505995,1.0019317874616447,0.0,0.0,0.0,0.0
0.01759957021572096,-0.027320120975158676,0.7362400378993667,0.0016433902024066754,-0.5237042819395992,-0.0021970961983674886,0.8518957078862803,-0.024959113314871786,-0.8818431869015545,1.0213137856017187,-0.030357107281774584,-0.9524766443823641,0.8349219944278405,-0.1393626120481141,0.7235358840716749,1.0297861529228194,0.19476360493675351,0.7552293006591416,1.002351695777385,0.0,0.0,0.0,0.0
0.01780912705063496,-0.02751797881091243,0.7362176087736132,0.0016922148583732983,-0.5237208774125005,-0.0022931356325783464,0.8518851568727585,-0.024219325301281475,-0.8821789636911084,1.0223650069251389,-0.03507120101938496,-0.9587274117302044,0.8296553538701977,-0.13910694971879625,0.7243904000813113,1.029233045824853,0.19571743031440472,0.7558340407372319,1.0028142189869453,0.0,0.0,0.0,0.0
0.01801322651016209,-0.02773517840511889,0.7361856713877318,0.0017403029097867726,-0.5237086937006887,-0.002385064643971371,0.851892297743526,-0.02344032921452458,-0.8826483438033198,1.0234675087971876,-0.03958591576859401,-0.9619830435580856,0.8259817963534728,-0.13858194437776677,0.7250469468617996,1.0286549995513472,0.19681691875824328,0.7563108400450057,1.0033741892313435,0.0,0.0,0.0,0.0
0.01818251399632142,-0.027956544194194913,0.736149498561512,0.0017872431094457348,-0.5236857853285204,-0.002473684535735622,0.8519060305525112,-0.02265653939125931,-0.8830263122371755,1.0243066607680487,-0.043930850978602956,-0.9610491526624712,0.8250455838070716,-0.13792354717424507,0.7255073774256963,1.0281215120673517,0.19791623830630078,0.7566206675622277,1.0040107023195428,0.0,0.0,0.0,0.0
0.018315927981804363,-0.028180864552480877,0.7361087275935335,0.001833019547389432,-0.5236532785548533,-0.0025587960682232846,0.8519256636941824,-0.021871745185272632,-0.8833062931127355,1.0248729578303681,-0.04808643228288642,-0.955939002892224,0.8268276451788927,-0.1371423010919503,0.7257709891162759,1.027643372348432,0.19900631816642586,0.7567605283102007,1.0047276431583134,0.0,0.0,0.0,0.0
0.01844113928608862,-0.02842345299817963,0.7360567970894208,0.0018774498032190939,-0.5235932135331219,-0.0026371991899502996,0.851962245116958,-0.02105705327095434,-0.8837126382835111,1.0254689614980579,-0.05199580913764554,-0.9478799522716628,0.8301732587056035,-0.13607420333925463,0.7258156182203245,1.0271628463995497,0.20025973360941934,0.756766582618088,1.0055622270162656,0.0,0.0,0.0,0.0
0.018591844175761613,-0.028688440113492596,0.7359929637213896,0.0019296468870702984,-0.5235125553280545,-0.0027215556790828955,0.8520114283338384,-0.020173890052718798,-0.884323601210349,1.0263238998047266,-0.05562921375645762,-0.938166175231393,0.8341760616586821,-0.13491625039875685,0.7258335179384405,1.0266550508764516,0.20160005554442154,0.7567357450503082,1.0064921349935092,0.0,0.0,0.0,0.0
0.0187899099615087,-0.028969809430961696,0.7359184128769587,0.0019978588953114846,-0.5234270769835768,-0.002825770560701616,0.8520634475559912,-0.01920507750866802,-0.8851263505976726,1.0275451281905321,-0.05903004436191945,-0.9277182737381918,0.8383089246028936,-0.13395969566566654,0.7260282584209055,1.02614045560151,0.20285686982742374,0.7567477872872598,1.0074792025207118,0.0,0.0,0.0,0.0
0.019039028821099476,-0.02926122803019396,0.7358347947299628,0.0020862143683996704,-0.5233496960963063,-0.002958427361005914,0.8521103162226488,-0.01814540833503662,-0.8860525737395726,1.0291022969141481,-0.06226122552100424,-0.9170528171651616,0.8423212820452701,-0.13339254069701328,0.7265068697205845,1.0256492779702202,0.20390108931167966,0.7568306176847464,1.0085024900307598,0.0,0.0,0.0,0.0
0.019324663826779706,-0.02956467211061775,0.7357446524912558,0.002196371553252169,-0.5232875402581526,-0.0031238830338046414,0.8521476207309174,-0.016977323861190642,-0.8869721749372014,1.0308115995177225,-0.06534223169605861,-0.9063909567355366,0.8461147959914087,-0.1332435897888655,0.7272686755806173,1.025186797026727,0.20469130324555482,0.7569550809873633,1.0095723116280073,0.0,0.0,0.0,0.0
0.0196152565499275,-0.029896181201189295,0.7356514890568978,0.002328303562144166,-0.5232399772701332,-0.0033225073515414415,0.8521757249146281,-0.015655882151723033,-0.8876968772665463,1.0323380022795108,-0.06822381699987583,-0.895782839552988,0.849650097513968,-0.13333853110182664,0.7281985946799894,1.0247102878400816,0.20531498289082556,0.7570374613910492,1.0107404391678612,0.0,0.0,0.0,0.0
0.019863566148997754,-0.03028815325001582,0.7355574542148968,0.0024764556556903035,-0.5231914015650857,-0.003543945771861825,0.8522042389850644,-0.014119184369639876,-0.8880452005023359,1.0332509104506606,-0.07082331945162952,-0.8852085172432071,0.8528840713225049,-0.13317610121823234,0.7290040980160827,1.024122494469565,0.20608987089888967,0.7569392014940878,1.0121180353900932,0.0,0.0,0.0,0.0
0.020015953344350215,-0.030783901463674355,0.7354608450248787,0.0026248148727511613,-0.5231048384238994,-0.0037595143965144227,0.8522560087297081,-0.012321038150784891,-0.887958040381106,1.033171399614563,-0.07312604841781041,-0.8746476657658291,0.8557460976691236,-0.1318656874750985,0.7291864716112002,1.0232810286526128,0.20762709979915706,0.7564934202103336,1.0138649274311147,0.0,0.0,0.0,0.0
0.02003970471462917,-0.03141605586276062,0.7353608382586379,0.0027574794278565178,-0.5229461516600895,-0.0039432780755596425,0.8523521392764416,-0.010236805815443301,-0.8874702584177562,1.0319194356625947,-0.07526922303133077,-0.8640853933025542,0.8581967831368342,-0.12867277887321713,0.7283597162974834,1.022047817632863,0.21045309014527566,0.7556022282113776,1.0160766118302405,0.0,0.0,0.0,0.0
0.019934533754770133,-0.03217215888195411,0.7352465186716817,0.0028715132189353954,-0.5227196568012099,-0.004102553725812098,0.8524899318222976,-0.007877728789609474,-0.8866065843068914,1.029515790252369,-0.07761321435564371,-0.8534530278498288,0.8602786827652322,-0.12380805173902269,0.7265402486830775,1.0205665580308902,0.21441479848958966,0.7541963122819022,1.0188136079773955,0.0,0.0,0.0,0.0
0.019746329394620975,-0.03296968569533637,0.7351002133286578,0.0030063507654439414,-0.5225234234272111,-0.004334867379841779,0.8526086105299323,-0.005218424664716391,-0.885050796199712,1.0260146540510366,-0.08062945663664167,-0.8425507363884321,0.8621762897197062,-0.1194385257066622,0.7246469286190091,1.0194480037267195,0.21786055683678918,0.7522455804438412,1.0220474326387574,0.0,0.0,0.0,0.0
0.019550503771784522,-0.033671591650609234,0.7349099060672781,0.0032565842831171416,-0.5225602461245087,-0.004845685206575218,0.8525823732425968,-0.0021164725923385795,-0.8818903467419525,1.0212025020067506,-0.08460319959447105,-0.8310582224186888,0.8641522818591105,-0.11961661430171577,0.7245299891456327,1.019687719668358,0.2175634227811249,0.749752485843426,1.0256375021966575,0.0,0.0,0.0,0.0
0.019394501808753312,-0.03417268460686971,0.7346783452877128,0.0036889936510747265,-0.5229803240448656,-0.005772398936439974,0.8523172246284175,0.0014782301988142564,-0.8764007452804885,1.0148476320625692,-0.08951853694898897,-0.8188978863118309,0.8662205918323421,-0.1271530679053339,0.7275094906533183,1.02194266020404,0.2112733228587261,0.7467897820202666,1.0293988582743319,0.0,0.0,0.0,0.0
0.01926887003416956,-0.034443112097477774,0.7344062270674543,0.004274247250776488,-0.523771227186124,-0.0070257691236863965,0.8518192712956203,0.005244094915381298,-0.868829047978132,1.0071092455183104,-0.09458084451210784,-0.8067107906101982,0.8676794476727498,-0.14167025323001176,0.7333416818107835,1.0261926458454902,0.19966607811015438,0.7435276621571686,1.0332820321223355,0.0,0.0,0.0,0.0
0.01916957308140379,-0.034457712430098944,0.7341103032846995,0.004877038810101092,-0.5247081626222628,-0.00822981102443547,0.8512284233861765,0.00816077389541814,-0.8611923565462883,0.9996733907466168,-0.09760100824708015,-0.7960936095583572,0.8661651158413679,-0.15937490187682737,0.7401531405745733,1.0315939255771371,0.18629344043525095,0.7404879550308934,1.0368925745035142,0.0,0.0,0.0,0.0
0.0191543151423461,-0.03446643893824952,0.7341087138542555,0.004852152876479478,-0.5246867315447445,-0.008219674661798135,0.8512418735599245,0.00815380266447202,-0.8612531319333935,0.9996071646451933,-0.09760105036826901,-0.7960752055686917,0.8661848302681534,-0.15955273187764196,0.7401338786635077,1.0315107277887465,0.1864686893334319,0.7403737011544742,1.0368789802166727,0.0,0.0,0.0,0.0
0.0191543151423461,-0.03446643893824952,0.7341087138542555,0.004852152876479478,-0.5246867315447445,-0.008219674661798135,0.8512418735599245,0.00815380266447202,-0.8612531319333935,0.9996071646451933,-0.09760105036826901,-0.7960752055686917,0.8661848302681534,-0.15955273187764196,0.7401338786635077,1.0315107277887465,0.1864686893334319,0.7403737011544742,1.0368789802166727,0.0,0.0,0.0,0.0
0.019439093638842928,-0.03694099097364936,0.7356154596015057,0.001405747280252943,-0.5205652359371798,-0.0013028765547682727,0.8538197476756645,-0.0019562533941905793,-0.8911442827199415,1.0242242808976647,-0.10860241734374637,-0.8052643889387684,0.8868248331560126,-0.033798108355688056,0.6994736969847608,0.9971549287902988,0.17637383297426112,0.7097115697437639,1.035674633439474,0.0,0.0,0.0,0.0
0.020625432957659447,-0.03808935637858071,0.7372396095041045,0.0008373139541980862,-0.5218006017087139,-0.0007116620429469221,0.8530667761077692,-0.0004336952892097373,-0.8834771128716404,1.0235141302117978,-0.10674723136827394,-0.7999330402518959,0.8924793794192544,-0.0314681212567646,0.7149924843644979,0.9759176273788813,0.13311168900864723,0.6960351965788351,1.0456303730250234,0.0,0.0,0.0,0.0
0.022198095240162835,-0.03896688257759584,0.7382727055040726,0.0009437645948850415,-0.5231353730082043,-0.0012766644195224546,0.8522481217016065,0.0032459573377969808,-0.8767968279947653,1.0254733525871618,-0.10304423729780664,-0.8003884226624829,0.9035570136003088,-0.03758382594336728,0.7321187643824507,0.962695216324876,0.09806558257407877,0.6877964421466092,1.057486900082393,0.0,0.0,0.0,0.0
0.023674152808067467,-0.039651742461613286,0.7386881844278517,0.0010033749842261871,-0.5239781306376321,-0.0016299063891039177,0.8517295669737527,0.005903000002083296,-0.8751811959504165,1.030742602862819,-0.10053081226923112,-0.8039912924307469,0.9158721789126776,-0.03988780064804541,0.7431983729609614,0.9553444245080659,0.07600622011355397,0.6823794269185388,1.0696674840887914,0.0,0.0,0.0,0.0
0.0249295808461769,-0.040081762397176035,0.7387937621233883,0.0009964721262086089,-0.52453278844232,-0.001759975600217675,0.8513878454488957,0.007360270847025806,-0.8761557296336553,1.037093739493408,-0.0992504525986277,-0.807826739672982,0.9264164593407557,-0.04002856906600349,0.7501623569041613,0.9516565109703233,0.061584224636040685,0.6780053278560617,1.0822460305686226,0.0,0.0,0.0,0.0
0.025952417980458758,-0.040404729270175264,0.7389206621986735,0.0008657299576038994,-0.5248446861218005,-0.0016176285706377958,0.8511960345532377,0.007894826193453813,-0.8781969967861202,1.0433783465470612,-0.09887638542429152,-0.8108155796635605,0.9349557864301411,-0.03671615662010124,0.7545015982799587,0.9479281567643064,0.051335809266273895,0.6733572407847256,1.0952565347675216,0.0,0.0,0.0,0.0
0.026774631596037393,-0.04066587301253216,0.739163587822575,0.0007001937364618404,-0.5250504501968613,-0.0014068497954343481,0.8510696535833349,0.008111231484782714,-0.8798483632728794,1.04860300249751,-0.0987799003036341,-0.8127183605879443,0.9415865594990331,-0.03237344295245872,0.7580214793742718,0.943435179481936,0.04255068266269407,0.6684330268561708,1.108448375337206,0.0,0.0,0.0,0.0
0.027429102936542785,-0.04088360413996038,0.7395165008362461,0.0005543586739281312,-0.5252263911100326,-0.0012370683632857878,0.8509614564889859,0.008314452678999254,-0.8805694189779245,1.052453161523695,-0.09865181716842772,-0.8136393105211114,0.946558690814478,-0.028498182406212665,0.7615366472537516,0.9383200471314833,0.03411522158899359,0.6634223053002366,1.121686240273233,0.0,0.0,0.0,0.0
0.027941249482617496,-0.04109114252109043,0.739952097157375,0.00041878576946070747,-0.5253708945727367,-0.0010889125449889522,0.8508725298326366,0.008543557559510261,-0.880543324842833,1.0551194615917037,-0.09846286202990462,-0.8138406206695388,0.9502750305274086,-0.024757632670554135,0.7649455017106391,0.9326320084267871,0.0258609823396508,0.6583118257673127,1.1349032026637083,0.0,0.0,0.0,0.0
0.028329115681915706,-0.04133037993653187,0.7404443049231625,0.0002478822473839686,-0.5254420214354368,-0.0008743405848550622,0.8508289229879148,0.008699294892111941,-0.8802761850649646,1.0570041298105275,-0.09832632992444809,-0.8136015620584948,0.9531596337510986,-0.019813549924530757,0.7676996652145596,0.9262531462177626,0.018091973517465863,0.6529467779294429,1.1480693285019468,0.0,0.0,0.0,0.0
0.028617352173436965,-0.041610458692852084,0.7409601843470599,1.0275215890984844e-05,-0.5254145610914341,-0.0005331524070292304,0.8508461991664689,0.008664033690059367,-0.8802404815908785,1.058556062098861,-0.09837135937928926,-0.8131413439864927,0.9555261866535208,-0.01293459333355561,0.7694265215596436,0.9193000890606856,0.011194551714383097,0.647304734493095,1.1611947403501977,0.0,0.0,0.0,0.0
0.028910586815901022,-0.04182549776030783,0.7414710724371102,-0.00017644481872656088,-0.525423430640298,-0.00028585156054437036,0.8508408227690366,0.008681047306027423,-0.879966493958359,1.0600407143660873,-0.09835783305346846,-0.8125923409340404,0.9576658238780248,-0.007810444241356469,0.7717294559154325,0.9127422952521627,0.003794064267803229,0.6418990454907185,1.1743002200214054,0.0,0.0,0.0,0.0
0.029223356088940923,-0.041953418303670074,0.7419450438792087,-0.00026329453421163263,-0.5255295217397083,-0.00022096538070511142,0.8507752956159,0.008899043660687325,-0.8791258897219975,1.0612510160774864,-0.09813593936429323,-0.8119711719472893,0.9595363458763849,-0.005645682466072673,0.7750161508156694,0.9071770802342869,-0.004304282427074122,0.6369060521683092,1.1873254404309188,0.0,0.0,0.0,0.0
0.029566204222163942,-0.04202004270818968,0.7423666927406979,-0.0002477107616487018,-0.5257248323441569,-0.00033922727912628187,0.850654585728508,0.00938478705377866,-0.8777971668030287,1.0622454613164827,-0.09764851245500204,-0.8114991152618825,0.9614194065570707,-0.006213116531536846,0.7791822306462493,0.9026531464649955,-0.01328873512594102,0.6323645065406852,1.199942709690015,0.0,0.0,0.0,0.0
0.029824649321851977,-0.042202437498833255,0.7427253703856427,-0.00026683330182068597,-0.5258600449604359,-0.0003804520897247915,0.8505709830286975,0.009988130553662114,-0.8765496744260035,1.0626247418798527,-0.09704973815020497,-0.8112981123039339,0.9633010495428079,-0.004937158648306137,0.7821959532907169,0.8982509498192592,-0.021537230668662508,0.627741375422933,1.2115383609716426,0.0,0.0,0.0,0.0
0.029962717538544292,-0.042589553514899944,0.7429999979386936,-0.00041612019600825804,-0.5258201530144274,-0.0001570241519734678,0.850595655332945,0.010501439074610566,-0.8761653484888243,1.062686392906301,-0.09656177207738005,-0.8116513817895743,0.9654847929192247,0.0011806140544849669,0.7826878058466118,0.8934911555207794,-0.027986314582163063,0.622938888283456,1.2210490384414143,0.0,0.0,0.0,0.0
0.02997714354526637,-0.043110504219127654,0.7431379499851638,-0.0005998397496471818,-0.52570447898797,0.0001527446320169424,0.8506670427572348,0.011156898762869405,-0.876002886807732,1.061938623407963,-0.09594123774418016,-0.8124616556765465,0.9675800009099823,0.009268971793520661,0.781463264413231,0.8895421012037555,-0.03319985980605755,0.6187939548195444,1.226641424005455,0.0,0.0,0.0,0.0
0.02987724013248442,-0.04363835250576649,0.7430718185373314,-0.000699509359716419,-0.5256437671392039,0.0003240441254973143,0.8507044350124,0.01214714278948385,-0.8753655064848984,1.059974321231131,-0.09498058443723587,-0.813532666986762,0.969021894617719,0.015541279507720204,0.7795668711681117,0.8880459898742847,-0.03773240017277814,0.6169308264888792,1.2254904443195462,0.0,0.0,0.0,0.0
0.029734486318971062,-0.04408521835800033,0.7427847227204881,-0.0006822215595272173,-0.5256739375460852,0.00029470789977402944,0.850685816918204,0.013387847521834846,-0.8744640223974721,1.0574383327683812,-0.09377232416664551,-0.8149688610780484,0.9700374976060131,0.018688310464683718,0.7775037996763362,0.8895526921541408,-0.04215813409908973,0.6175960617010944,1.217692814828516,0.0,0.0,0.0,0.0
0.02954482202487922,-0.04451520829081831,0.7423163153182615,-0.0006324951399410638,-0.5257157541298635,0.00022113856414235136,0.850660036035138,0.01468195966596338,-0.8738029586391814,1.0546645400701466,-0.09251922132816445,-0.8168028792031442,0.9708763430980214,0.02114318302619309,0.7745712219284434,0.8930959763341868,-0.04602142295784556,0.6193546109629176,1.2061872482175549,0.0,0.0,0.0,0.0
0.02930438602902561,-0.044974320456152246,0.7417161568249205,-0.0005798775206473031,-0.5257412407489575,0.00015752583116830928,0.8506443361966388,0.016023965370630996,-0.8733764452400766,1.0516131429455078,-0.09122590510486901,-0.8189847022712391,0.9716498756939099,0.023898964287097278,0.7707063702960275,0.8978688328227722,-0.04935444052314949,0.6215298299017056,1.1928075949622254,0.0,0.0,0.0,0.0
0.02900879529851064,-0.0454639252172405,0.7410156281565872,-0.0004840996692731719,-0.525790127603862,2.6987976893600678e-05,0.8506141937644079,0.017597815130903444,-0.8726554108212647,1.0478624753932995,-0.08969914179472391,-0.8213812037474252,0.9722274148560646,0.02607176783311696,0.7664744676445479,0.9036999513927506,-0.05278186473625166,0.6239509607477318,1.1785712089973652,0.0,0.0,0.0,0.0
0.028611340325388687,-0.04603089834780063,0.7402347790473843,-0.00036609074349535465,-0.5258338895979703,-0.0001296785946265913,0.8505871911281636,0.01942852752283956,-0.8715070782812113,1.043015701794449,-0.08790597356149862,-0.8238871057708073,0.9724175241280046,0.028488119157210237,0.7615700580295951,0.910168356785226,-0.05598560694558872,0.6264513528941381,1.1639993398841,0.0,0.0,0.0,0.0
0.028076650157223052,-0.04670702851125343,0.7393915882015893,-0.00022567549645978566,-0.5258629703890647,-0.00031071594741877194,0.8505692146437936,0.021592014702389042,-0.8696857406168524,1.0366578321150532,-0.08576208394696211,-0.8264129044180276,0.9720500169076525,0.03139144072860067,0.7559268957616334,0.9169967520373523,-0.058993328105844164,0.6289511532609191,1.1493377093258215,0.0,0.0,0.0,0.0
0.02735301506763524,-0.04753714216969952,0.7385038599590893,-6.998949124541122e-05,-0.5258595142743067,-0.0005012976454284419,0.8505712874588067,0.024165633181066248,-0.8669126117172158,1.0282361221262166,-0.08317869062733718,-0.8288368684375051,0.9708738491779444,0.03526362595363336,0.7493427413458488,0.9238582194007341,-0.061719895034387184,0.631344125474351,1.1346547128286657,0.0,0.0,0.0,0.0
0.02637834185037776,-0.04857852185674858,0.7375935855711273,7.149214660856523e-05,-0.5257837461259851,-0.0006466574977004485,0.8506180276908545,0.027162952415226836,-0.8630233626116155,1.017211509752199,-0.08013049690561436,-0.8310163124326297,0.9686104525539353,0.04110194728484333,0.741387587222945,0.9302655001890386,-0.06389793113215655,0.633468468829636,1.1199035993998157,0.0,0.0,0.0,0.0
0.025092158553246716,-0.04987197379764659,0.7366831340211432,0.00016308783174693133,-0.5255961970643679,-0.0006860041571364619,0.8507338834395451,0.03053828912010439,-0.8578943000686992,1.0030935072971745,-0.0766502658429197,-0.8327402933497956,0.9648926598907426,0.04976111196240801,0.7316548400691668,0.9357678877369444,-0.06531472179054006,0.6351582603315936,1.1049630298677882,0.0,0.0,0.0,0.0
0.023449629386441146,-0.05140475044795191,0.7357837095730791,0.00018085549768995652,-0.5252827628200918,-0.0005902612801554435,0.8509275162826745,0.03418078351864588,-0.8513983203933909,0.9855151628937868,-0.0728343967309836,-0.8336866200099144,0.9591903565695137,0.06122077393904113,0.7200081363140661,0.9402535853261692,-0.06605103928096029,0.636315199543519,1.0896694574665284,0.0,0.0,0.0,0.0
0.02143607768711726,-0.0530828932919954,0.7348833587669206,0.0001239235851320334,-0.524870414505439,-0.00038504753697729056,0.8511820512429923,0.03790073714402402,-0.8434340071926089,0.9643623773008373,-0.06885921794373688,-0.8334201188992776,0.9508011645449548,0.0742380624114248,0.7066910624994213,0.9442002739954497,-0.06670095434838641,0.6369480199642996,1.0738535622699952,0.0,0.0,0.0,0.0
0.019086426579230792,-0.054729932382363296,0.733938368274413,-3.4846559647630823e-07,-0.524406345495572,-0.00011223019915783068,0.8514681275351648,0.041341134603493514,-0.8342639775485153,0.9401645456774163,-0.06508257434346125,-0.8315280102920785,0.9390719122585448,0.08698693166720557,0.6920632929189419,0.948682754647015,-0.06836384834163019,0.6371839590981311,1.057388674312073,0.0,0.0,0.0,0.0
0.016532577738038644,-0.056125977193149094,0.7328674272397008,-0.00017250961042868896,-0.5239325344183101,0.00016823126693416775,0.8517597321526074,0.04409771137963849,-0.8248470106969743,0.9146090587884053,-0.06194613230489552,-0.8281285799440434,0.9241659239811577,0.09753110096942508,0.6765469393838819,0.955214241606798,-0.07321514669041342,0.6372740269184789,1.0400634427976376,0.0,0.0,0.0,0.0
0.013918440099584307,-0.0571667252653324,0.7315961279585937,-0.00033706300309113875,-0.5235327858769598,0.00033358963710452074,0.8520053974115395,0.04622444472738564,-0.8155686437181213,0.88883767295922,-0.05942981684745246,-0.8236217593312771,0.9067592305234493,0.10451446270025576,0.6607590801437243,0.9649972991414317,-0.08399619499245596,0.6371767806261179,1.0215514661097198,0.0,0.0,0.0,0.0
0.011825050282522894,-0.05787337286466765,0.7300177644516259,-0.00043870105238969415,-0.5231565074013543,0.0003840491620789569,0.8522364277659366,0.047826088372486975,-0.8098948524419863,0.8688674910671556,-0.05760009112360962,-0.82162384327249,0.8929791982602489,0.10848860001504118,0.64566984272546,0.978157133445656,-0.10299470667857163,0.6378796987055474,1.0017936347002763,0.0,0.0,0.0,0.0
0.010546361736708173,-0.05815293973580394,0.7285361017201444,-0.00047885015391352717,-0.52290223093337,0.0003659578974623485,0.8523924528421472,0.048561673377326454,-0.8081600800137259,0.85755160593663,-0.056795392480476034,-0.8216412819262197,0.8844788931976333,0.10957164989551683,0.6341651771244791,0.9912114579108631,-0.12798058641441368,0.6386460545887312,0.9820876447612553,0.0,0.0,0.0,0.0
0.010563696437448747,-0.05815139535204854,0.7285052099866505,-0.0004970266441445834,-0.5228911314730361,0.00036847137803920686,0.8523992502461547,0.04855945514184689,-0.8081928466265574,0.8574517292358782,-0.05680673824742741,-0.8216833188285895,0.884448629268388,0.10956769280265813,0.6341440921558323,0.9911849612167989,-0.1279928061893694,0.638654836743078,0.9820867355028314,0.0,0.0,0.0,0.0
0.010563696437448747,-0.05815139535204854,0.7285052099866505,-0.0004970266441445834,-0.5228911314730361,0.00036847137803920686,0.8523992502461547,0.04855945514184689,-0.8081928466265574,0.8574517292358782,-0.05680673824742741,-0.8216833188285895,0.884448629268388,0.10956769280265813,0.6341440921558323,0.9911849612167989,-0.1279928061893694,0.638654836743078,0.9820867355028314,0.0,0.0,0.0,0.0
0.010563696437448747,-0.05815139535204854,0.7285052099866505,-0.0004970266441445834,-0.5228911314730361,0.00036847137803920686,0.8523992502461547,0.04855945514184689,-0.8081928466265574,0.8574517292358782,-0.05680673824742741,-0.8216833188285895,0.884448629268388,0.10956769280265813,0.6341440921558323,0.9911849612167989,-0.1279928061893694,0.638654836743078,0.9820867355028314,0.0,0.0,0.0,0.0
0.010369358597825173,-0.05822795936891804,0.728468890478662,-0.0005093842634951137,-0.5229453365326737,0.00038080430569847114,0.8523659839027374,0.048698563546168944,-0.8066379044171639,0.8546702739349377,-0.05661095579565912,-0.8205524114782953,0.8824139182362893,0.11009586201180706,0.633531981729331,0.9913747844733917,-0.12729891363678206,0.6381189353716885,0.9830584970807312,0.0,0.0,0.0,0.0
0.010052591359492003,-0.05837314084010794,0.7284540503097255,-0.0006256517180304119,-0.5229163284045867,0.00049375578820098,0.8523836449938582,0.04879911313385172,-0.8050767583553058,0.8511839273195152,-0.056442248331635574,-0.8190903882176094,0.8796626271161292,0.11213119485341039,0.6320303226013803,0.9909905673425535,-0.12475907286946535,0.6375948855087348,0.9842393274377224,0.0,0.0,0.0,0.0
0.009708959565951202,-0.05854637191424251,0.7284543734885649,-0.0008148526889243155,-0.522867093722046,0.0006723903993584197,0.8524135652421936,0.04883696378744401,-0.8036263268267992,0.8476373297224211,-0.056332885658234286,-0.8174176151940937,0.8766785975168463,0.11511522353803372,0.6301930991959176,0.9902769608491919,-0.12117447965862589,0.6373086737851268,0.9854817084050195,0.0,0.0,0.0,0.0
0.009635533568565703,-0.05867111915395821,0.7284216167311577,-0.0009801001937612514,-0.52285042258775,0.0008308235416726099,0.852423477348943,0.04881997008368549,-0.8036098950670443,0.8469049264181787,-0.056338913634878585,-0.8170097429013845,0.8761218437628532,0.11772855462943152,0.6291268439675004,0.9898708484956394,-0.11840176654931311,0.63758729605459,0.9865557077012462,0.0,0.0,0.0,0.0
0.010021123740761494,-0.05873818076297296,0.7283443894452901,-0.0010712467011316986,-0.5229002732873503,0.0009156707887729606,0.8523927018537443,0.048856675755520766,-0.80573704607284,0.8506648599387082,-0.056389717941334024,-0.8188407162471943,0.8798263707970352,0.11950323237507599,0.6295752865565961,0.9898622644957568,-0.11726847783593577,0.6387755192196221,0.9873140935260084,0.0,0.0,0.0,0.0
0.010895872500951377,-0.058717679032814045,0.728229748188608,-0.0011031525837710888,-0.5230346927452107,0.0009419421578730359,0.852310158325167,0.04884148805105468,-0.8101454262462044,0.8592362422866975,-0.05659385503342977,-0.8227820063549554,0.8877659870283413,0.12049254465691388,0.631646146141597,0.9902712901676182,-0.11782765245941415,0.641092057314304,0.9875936126078599,0.0,0.0,0.0,0.0
0.012290873387092834,-0.05858685305352509,0.7280872466623385,-0.001076331821436635,-0.523265917002942,0.0009130704257851629,0.8521682861473301,0.04870888963653406,-0.816890157859145,0.8728145122959036,-0.057021635408630866,-0.8287617603928654,0.8999505935016944,0.12060912112896918,0.6355221835035968,0.9910470342017466,-0.120271679756607,0.6447069937928829,0.9871761459692235,0.0,0.0,0.0,0.0
0.014239301203665681,-0.05833424204866094,0.7279399020904831,-0.0009602541975335461,-0.5236381216986387,0.0007984557832875726,0.8519398792662308,0.048489863082585544,-0.8256143071347056,0.8911796420335536,-0.05763841620197075,-0.8365954224027116,0.916288137680688,0.11945436451272708,0.6416868566306241,0.9920529313530526,-0.12519445597771547,0.6497986804702822,0.9857400513432898,0.0,0.0,0.0,0.0
0.01676708396296761,-0.05798070624244536,0.7278311124854898,-0.000687442228557857,-0.5242345271861374,0.0005259049300876802,0.8515734914574983,0.0483808878948371,-0.8353777612629697,0.9134885510835498,-0.05823033052815431,-0.8459647057269692,0.9365695327050741,0.11633068987921015,0.6509887290543335,0.9929463018979459,-0.13357964159513208,0.6565428690437558,0.9828788956317985,0.0,0.0,0.0,0.0
0.01985564788506377,-0.05762317966202157,0.7277972014786901,-0.00018848904847542145,-0.525087150591796,-1.2944480053786667e-06,0.8510484408972215,0.0488409297122904,-0.8450939298104402,0.9384347932982648,-0.05832256925266401,-0.8568808331886184,0.9607671751661774,0.11064018286024213,0.6641139133167266,0.9930815137509623,-0.14612296285355214,0.6647661291209748,0.9784114520368767,0.0,0.0,0.0,0.0
0.022437598782042326,-0.057460054447526256,0.7275733788114472,-0.0004287221840980532,-0.5248133221744921,0.00018902971242908503,0.851217221003681,0.044247451393850605,-0.8461111302655583,0.9208432298703134,-0.059522212013721466,-0.8700341743834379,0.9845404815416833,0.11358872685105295,0.6693481287641138,0.9912947496475206,-0.14683363220775594,0.671313354811084,0.9758097361609254,0.0,0.0,0.0,0.0
0.024769697097821418,-0.05718948993214116,0.7272335320067939,-0.0005543034683273699,-0.5247575973914388,0.0002551015694480787,0.8512514855498456,0.03748964782753491,-0.8525693547842212,0.9082236938113298,-0.06069443016163752,-0.880946038993143,1.004347953864163,0.1145780860285833,0.6743350088101765,0.991804417400881,-0.14980728355813863,0.6765479673134883,0.9743133688943574,0.0,0.0,0.0,0.0
0.02672564827174458,-0.05686749158705231,0.7268952932580562,-0.000597064989241562,-0.5249149250130325,0.00023278243162704447,0.8511544576775125,0.030986228756958247,-0.8618612621253385,0.9005021422999501,-0.061739340794114916,-0.8889316251439776,1.0194487312532112,0.1141394890587228,0.6791564499740937,0.9934384475801481,-0.15424699084391952,0.6807847059279866,0.9732988502873609,0.0,0.0,0.0,0.0
0.028224698082862053,-0.05657515720450827,0.726608943011033,-0.000638844930495005,-0.5251253216885615,0.0002183366024059997,0.8510246416689516,0.025380095683460776,-0.8724224016417355,0.8954885617897202,-0.06265881792279887,-0.8944133683321513,1.030241303961609,0.11366182565776853,0.6830025537275963,0.9951610763125024,-0.15815255007637355,0.6840962815959444,0.9726542800036924,0.0,0.0,0.0,0.0
0.029262513468465493,-0.05636551797147759,0.7263988450574392,-0.0007003013430156502,-0.525315221277334,0.00023533310290388502,0.850907381852282,0.020592260467868672,-0.8834174268414368,0.8916946392558194,-0.06336798656683049,-0.8978424347236815,1.037324704667844,0.11373060458035046,0.6856237375592827,0.9964613235444882,-0.1606693592387358,0.6865557434979896,0.9723495456272809,0.0,0.0,0.0,0.0
0.029883724141931495,-0.05626729020500089,0.7262716023081448,-0.000771272150397909,-0.5254678390542427,0.0002701037495014366,0.850813071304678,0.01635477742719555,-0.8944523267565281,0.8882859159902493,-0.063763678580549,-0.8996379073420504,1.041368029095525,0.11442899714592021,0.6871409586870391,0.997145128524986,-0.16169805767252465,0.6882542243286829,0.9723684461552203,0.0,0.0,0.0,0.0
0.030155897344924628,-0.0562935304357177,0.72622227153579,-0.0008359348440812624,-0.5255868414441718,0.00030217559354345886,0.8507394912683824,0.012433835651904934,-0.9053702130932564,0.8848250614479443,-0.06377204060629847,-0.9001981852442558,1.043053514281958,0.11566729644422652,0.6878024766841213,0.9971630335427464,-0.16142922189058764,0.6892977739622131,0.9726973024518427,0.0,0.0,0.0,0.0
0.030151641022926716,-0.0564469106525959,0.7262388579034383,-0.0008832088279820728,-0.5256784874033975,0.0003166500229810597,0.8506828125430801,0.008681169868239701,-0.9161327261538594,0.8810996444894195,-0.06336226224165722,-0.8998930541179198,1.0430206758929887,0.11734385455576443,0.68784665492745,0.9965355297949102,-0.1601006217617341,0.6897939600854986,0.9733294725888944,0.0,0.0,0.0,0.0
0.029938690498438163,-0.05672389688427184,0.7263020099249461,-0.0009082612151788798,-0.5257455445930272,0.00030522617924263465,0.8506413487711056,0.005026385458733869,-0.9267630543805598,0.8770171187535433,-0.06253625076275154,-0.8990688451811424,1.041840724743412,0.11938872437041555,0.6874373359569748,0.9953533219773183,-0.15791574078810094,0.6898176090824668,0.9743023910349098,0.0,0.0,0.0,0.0
0.029574227410264307,-0.057116751942765366,0.7263720831465147,-0.0009090641552075157,-0.5257862957590032,0.00026036443771892097,0.8506161749019046,0.0014695885093971828,-0.9373398887757014,0.8725235983508113,-0.06130861328687671,-0.8980945398866191,1.0400160513813834,0.12171908935431999,0.6865972357936387,0.9939074688076988,-0.1550804366230705,0.6893071968460024,0.9758283941991815,0.0,0.0,0.0,0.0
0.029141540504399547,-0.05756968845232057,0.7264595003713809,-0.0008887986291911042,-0.525818748047416,0.00019290217450340782,0.8505961538988969,-0.0020686326298692383,-0.9479011931805119,0.8677051929560234,-0.05986515665716052,-0.8970317412949694,1.0379116896742944,0.12409464617275072,0.6856857308728396,0.9921953868949926,-0.1520177746313605,0.688600422382229,0.9774898488842176,0.0,0.0,0.0,0.0
0.028708487691557084,-0.058030471050502255,0.7265572933315034,-0.000850314535239264,-0.5258569713840447,0.00011020577147131942,0.850572578012411,-0.005652428839854789,-0.9584854969421928,0.8626421359322977,-0.058371434008046834,-0.8959699254143059,1.0358254986193327,0.12627749568451102,0.6849230122420242,0.990383513886069,-0.14913152888739126,0.6878863927666384,0.9790623165510537,0.0,0.0,0.0,0.0
0.028323371205386198,-0.058461817508563566,0.7266517755318559,-0.0007968013492345892,-0.5259078763376687,1.6998838142661756e-05,0.850541163274684,-0.00934055434509434,-0.9690442375033083,0.8574251365718367,-0.05694354388203354,-0.8950192403788007,1.0339987114190503,0.12811215615461122,0.6844089574709509,0.9886691690986208,-0.14669992600070594,0.6872505804516921,0.9804648835409604,0.0,0.0,0.0,0.0
0.028015342603843953,-0.05884015981816408,0.7267326181545094,-0.0007321324015730398,-0.5259729877818508,-8.244671751161496e-05,0.8505009543254601,-0.013202916396826594,-0.9793362115906955,0.8522171188861264,-0.05565673073890321,-0.8942620115941643,1.03258866191558,0.12952480974696864,0.6841753886406997,0.98719179371807,-0.14486921815902257,0.6867355147906128,0.9816652834598267,0.0,0.0,0.0,0.0
0.027792380383486522,-0.05915639143085508,0.7267946241951744,-0.0006616027185075655,-0.5260475152810312,-0.0001830136305757848,0.8504549020697729,-0.017306774904464344,-0.9888151298676289,0.8473322705434172,-0.05454686383813499,-0.8937395636413178,1.0316505254085193,0.13053180585978874,0.6841856876153133,0.9860102086932312,-0.14363406765633985,0.6863465929530844,0.9826668663806423,0.0,0.0,0.0,0.0
0.02764000720666383,-0.05941737260764706,0.7268379656901957,-0.000592674743417568,-0.526119259815478,-0.0002778957935692531,0.8504105455377361,-0.021677249538625203,-0.9965542651919688,0.8433365852393805,-0.05360879940362937,-0.8934510811373457,1.0311321054315947,0.1312544545165846,0.6843280308753507,0.9850908013159817,-0.14281513928969608,0.686051712183532,0.9835115750051714,0.0,0.0,0.0,0.0
0.02752541758668318,-0.059644769789704066,0.7268679478257865,-0.000532838136016189,-0.526173631211173,-0.00036065752737239045,0.8503769139785706,-0.02624576316438822,-1.001323336548313,0.8411239184444412,-0.0527952631799129,-0.8933479678885612,1.0308842940292637,0.1318926850062502,0.684449383991351,0.9843183941050645,-0.14210741534454283,0.6857933781232991,0.9842753230767463,0.0,0.0,0.0,0.0
0.027413154320343105,-0.05986524108833268,0.7268941505719113,-0.00048206360546657566,-0.5262107246672425,-0.0004314950488579129,0.8503539584619327,-0.030854171013775727,-1.0020149813956194,0.841783968436949,-0.0520300879145468,-0.8933098441605247,1.0306930829382952,0.1326016654583174,0.6844741224695607,0.9835571850841716,-0.14128412985707148,0.6855313107031696,0.9850310689234797,0.0,0.0,0.0,0.0
0.027285468777337115,-0.0600900482921309,0.7269217572770451,-0.0004381150662713777,-0.5262307989014835,-0.0004919190100242255,0.8503415268928024,-0.035446854288181354,-0.9985998992518479,0.8452867052448051,-0.05127827401674513,-0.8932742814317415,1.0304458942384889,0.13341857449644198,0.6843770435494518,0.9827458664299896,-0.1402714562149242,0.685238298088998,0.9858009551036153,0.0,0.0,0.0,0.0
0.02714248338156635,-0.06031622711467718,0.7269518814617895,-0.0003969354055181049,-0.5262340737265204,-0.0005448713489222095,0.8503394882084966,-0.040099471607559896,-0.9921382683907035,0.8505097284676668,-0.05054205397301311,-0.8932410357033983,1.0301389180958858,0.13427348934971498,0.6841830750639974,0.9818902846674374,-0.13913837894071854,0.6849026027852864,0.986558025331937,0.0,0.0,0.0,0.0
0.026979928461070415,-0.06054937032042999,0.7269901637758107,-0.00034835810761226204,-0.5262336945890698,-0.0005994833343873899,0.8503397073790558,-0.04483333893074365,-0.9838176084020286,0.8565294751586977,-0.04978537680387857,-0.8931462133151064,1.0297097560956707,0.1350892966336493,0.6839781611426258,0.9809598920572211,-0.1379893290952587,0.6845278696423317,0.9872864869807584,0.0,0.0,0.0,0.0
0.026771437189043647,-0.06081499705961994,0.7270453255103734,-0.0002840426064847075,-0.5262364944769464,-0.0006650289864999978,0.8503379498392739,-0.04958717242163927,-0.974525783684777,0.8627356549486637,-0.048916209657905524,-0.89289874936637,1.0290052498523963,0.13591364270866602,0.6837676687830758,0.9798404746125722,-0.13674260366847518,0.68407025193271,0.9880444890447159,0.0,0.0,0.0,0.0
0.026462539489977035,-0.06116117747639805,0.7271163449417208,-0.0001989734944267982,-0.5262348623857455,-0.0007513456085008394,0.8503389121398482,-0.05423448817383085,-0.9647974208589615,0.8687431178254773,-0.047778731375315124,-0.892441698172781,1.027790316956581,0.13693017404351157,0.6833763955951736,0.9784331972831003,-0.13509343200698326,0.6833430980640588,0.9890836569657127,0.0,0.0,0.0,0.0
0.02598865736417562,-0.061634083221941,0.7272037120143213,-9.14930895219076e-05,-0.5262170534240455,-0.0008644330487786965,0.8503498439290936,-0.05865464950205978,-0.9548965608909036,0.8743406982757961,-0.046230595438733826,-0.8916709578142608,1.025739517622587,0.1383361533660158,0.6825863266657135,0.9766312116333588,-0.13268968596000988,0.6821438395414544,0.9906447411110699,0.0,0.0,0.0,0.0
0.025302908535213,-0.062247663331550185,0.7273419048261933,3.475242636025291e-05,-0.5261821993622771,-0.0009971370493531218,0.8503712704367725,-0.06281511384524704,-0.9449055277576105,0.8795039612542289,-0.04424790743659753,-0.8902807541893228,1.022436111321112,0.14023061557606006,0.6814048257170289,0.974113690725764,-0.12931140862109397,0.6805365775957658,0.9925401187755535,0.0,0.0,0.0,0.0
0.02435535275828621,-0.06301502350429805,0.727551279690421,0.00017326621050107115,-0.526124207229281,-0.001142136362907941,0.8504069520357352,-0.0667033795567142,-0.9348763800917783,0.8842682834686304,-0.04181089986951264,-0.8880094356394627,1.0174573789927985,0.14271039547709596,0.6797559519128249,0.9706739206828425,-0.12473240749680346,0.6784988495468721,0.9946948328832692,0.0,0.0,0.0,0.0
0.023102154798224937,-0.06394621660889331,0.7278490688101714,0.00031280546609819117,-0.5260335838284135,-0.0012893596296828075,0.8504627613182844,-0.07036937705980026,-0.9248903439940533,0.8887578193087108,-0.03891638935336253,-0.8846208530266627,1.0104127971478327,0.14588448101191487,0.6775613757645232,0.9661094921147048,-0.1187187737986268,0.676014526315146,0.9970281220672891,0.0,0.0,0.0,0.0
0.02151708144026092,-0.0650450283665244,0.7282499176106135,0.00043783312489346617,-0.5259012667689569,-0.0014270868160935067,0.8505443135640732,-0.07396510930207469,-0.9151135933900274,0.8932501898351451,-0.0355842704985174,-0.8799260261782286,1.0010093202399468,0.14985129998433805,0.6747960114694352,0.9602165114759533,-0.11108411787443999,0.673111359819012,0.9994209955015831,0.0,0.0,0.0,0.0
0.019607329929606867,-0.06630604104048296,0.7287577940138846,0.0005328694479700438,-0.5257267038276449,-0.001547627811366417,0.8506519580773494,-0.07777689277185905,-0.9058538211250793,0.8983071254285974,-0.03185249872053548,-0.873845200734904,0.9891609288486818,0.1546436568007541,0.6715361694314723,0.9528744254521485,-0.10180464615900911,0.6698609333535692,1.0017608725041998,0.0,0.0,0.0,0.0
0.017433627050641724,-0.06770828410688352,0.7293373509847251,0.0005976781958302097,-0.5255408054638878,-0.0016634262669387512,0.850766558808112,-0.08222312993874575,-0.8976306654568734,0.9050225384203613,-0.02775750463034445,-0.8665007989508396,0.9751114753835917,0.16007416623596646,0.6679768955298316,0.9443876112788975,-0.09130444676328815,0.6662826237018751,1.00417170863323,0.0,0.0,0.0,0.0
0.015127299100799175,-0.06919570261838301,0.7298204650624401,0.0006843281151781995,-0.5254534047133657,-0.0018434329990513136,0.8508201060887904,-0.08774034987616675,-0.8913035045113037,0.9153400641201226,-0.02330538231288143,-0.8583972756836806,0.9595025567041128,0.1653593912743319,0.6641998889127642,0.9366131194336015,-0.0810965264005853,0.6619003673074452,1.0078144920735148,0.0,0.0,0.0,0.0
0.0130274312510723,-0.07048397243022572,0.7300257389013804,0.0009093613095680731,-0.5257522949046972,-0.0021644416678940756,0.8506344765272091,-0.095034947148202,-0.8880029136747364,0.9327066924983641,-0.019111578912453443,-0.8496330237014261,0.9432701073242542,0.1684797118179913,0.6611699392116305,0.9327461441602017,-0.07488293165870574,0.6569916262266771,1.0132299384176042,0.0,0.0,0.0,0.0
0.011639979029804692,-0.07136995595018107,0.7299525792905522,0.0014902458644029805,-0.5267865823938884,-0.0027549230252740847,0.8499918153583336,-0.10336337556096659,-0.8895859510117379,0.9625099199440477,-0.015489990635564652,-0.8407168388897411,0.9290244337559544,0.1674197561567385,0.661425948887675,0.9341899054599598,-0.076616980912085,0.6531358733251683,1.0196268989986725,0.0,0.0,0.0,0.0
0.011251775969009777,-0.07171852458960877,0.7297820147740431,0.002440837266240159,-0.5284591819943006,-0.0034207946338020213,0.8489483102306216,-0.11115391950921591,-0.8989339489993141,1.0071783581492846,-0.013337418700592225,-0.8326039741568992,0.9193605748822911,0.16242934871397408,0.6659648408303172,0.9391920949400807,-0.08601865120530973,0.6521824993278592,1.0247326548289766,0.0,0.0,0.0,0.0
0.011252530682631436,-0.0717502538666019,0.7297745068022475,0.0024593495869032274,-0.5284600388031705,-0.0034176424813719313,0.8489477361461248,-0.1111566076347135,-0.8989626424030661,1.0071851589991805,-0.013306721950406284,-0.8325957752404662,0.9192983303711793,0.16242840705720551,0.6660257326647517,0.9390682048428137,-0.08603003528803237,0.6521209365297291,1.024834932074021,0.0,0.0,0.0,0.0
0.011252530682631436,-0.0717502538666019,0.7297745068022475,0.0024593495869032274,-0.5284600388031705,-0.0034176424813719313,0.8489477361461248,-0.1111566076347135,-0.8989626424030661,1.0071851589991805,-0.013306721950406284,-0.8325957752404662,0.9192983303711793,0.16242840705720551,0.6660257326647517,0.9390682048428137,-0.08603003528803237,0.6521209365297291,1.024834932074021,0.0,0.0,0.0,0.0
0.011639090525339405,-0.07245035893843922,0.7314577334263069,0.0013779341801982662,-0.5269694841435076,-0.0021935879937514417,0.8498802575955239,-0.11241320474137036,-0.9059141947139311,1.0169370150630166,-0.0142501051589098,-0.8362491388438793,0.9289858388760304,0.12547360581100542,0.6506853111111954,0.9740166818878578,-0.06439460060364392,0.6632560363944608,1.0111190963855639,0.0,0.0,0.0,0.0
0.012469606320718116,-0.073491996777742,0.7335176030213372,0.0009228100437174266,-0.526487637289918,-0.001653116974066088,0.8501806769191905,-0.11103189255985202,-0.9058061024342983,1.0230079338080917,-0.012807103715917135,-0.837722537384699,0.939609544579013,0.09695719722097218,0.642179294347577,1.0012964676498302,-0.05011214740908544,0.6772432750974754,0.9951350207681754,0.0,0.0,0.0,0.0
0.013394761652816806,-0.0748150018692571,0.7355096017235833,0.0008612397901754316,-0.5264332342076307,-0.0015588972573123874,0.850214607041692,-0.10779606589304226,-0.9023605924824084,1.0262779131637063,-0.009644684967236913,-0.8391543951716764,0.9506897949740145,0.0804930829409715,0.6361793386537433,1.0225678120321873,-0.039539263682261294,0.6907612259500722,0.98044427068195,0.0,0.0,0.0,0.0
0.014328184243864702,-0.07635113504392628,0.7373190520764021,0.0009869282390444164,-0.5264690877493194,-0.0017200715981964588,0.8501919588956057,-0.10340375212523488,-0.8980543094000623,1.0283370944959014,-0.005351305962800134,-0.8416575234080972,0.9626247780198214,0.07153765927449773,0.6316612594722907,1.040175612230291,-0.03031989626873014,0.7029500064892785,0.9677241550193331,0.0,0.0,0.0,0.0
0.015187991166240509,-0.07799921861184746,0.7389534306272635,0.0011789587497721046,-0.5264763675098157,-0.00196059518028167,0.8501866857205392,-0.09855793820778316,-0.8936550504052644,1.0295176387008187,-0.0005912593365831791,-0.8448114062252806,0.9745565850985093,0.0669590194183503,0.6279113723803985,1.0555937176304446,-0.02114118181130912,0.7138542392372554,0.9567473185106737,0.0,0.0,0.0,0.0
0.015875328634807017,-0.07965725675138924,0.7404323331808624,0.0013771025298494148,-0.5264506084641914,-0.0022034718275868673,0.8502017437927365,-0.09367841656758596,-0.8889919437354973,1.0293057993371826,0.004205693248763655,-0.8476949033136446,0.9850772007118096,0.06436516167907023,0.6243131632283455,1.0698243460702621,-0.01181408540169963,0.7234543572304764,0.9472499975051573,0.0,0.0,0.0,0.0
0.01637436928263913,-0.0812435281142086,0.7417773334550404,0.0015558524322722709,-0.5264034541491543,-0.002405287046271224,0.8502300849636368,-0.08907595020843545,-0.8840970905050781,1.0277682240568484,0.00872405064364011,-0.8498702576907643,0.9936728568160623,0.06264791815690007,0.6205459317343759,1.0834302985565705,-0.0024983809878820727,0.731907106960994,0.938885635867956,0.0,0.0,0.0,0.0
0.0167112530483436,-0.08271556481204995,0.7430017020676393,0.0017078375854670948,-0.5263436987763406,-0.0025586591846338213,0.8502663390446545,-0.08488021752941552,-0.8791200198770948,1.0252404453247526,0.012834143068052958,-0.851307705019238,1.000437024608256,0.06126276019164558,0.6165463082412818,1.0967824828434092,0.006551247368443655,0.7393573961981655,0.9314086083042118,0.0,0.0,0.0,0.0
0.016926671027763542,-0.08405387187150738,0.7441182072961666,0.0018326443154290059,-0.5262792009172982,-0.0026673023070230496,0.8503056683305518,-0.08113634669031139,-0.8742192196942649,1.022114550138916,0.016492827168202343,-0.8521139635780755,1.0056761347245156,0.05992852503989973,0.6123651120749218,1.1101255668918604,0.015129689777983913,0.7459736944392095,0.9246153849752576,0.0,0.0,0.0,0.0
0.017058847267122177,-0.08525048391693428,0.7451399665755286,0.0019312394884218199,-0.526218065466505,-0.0027363765257165953,0.850343066141094,-0.0778543964425633,-0.8695089562347655,1.018718911689776,0.019691578479367786,-0.852396248407542,1.0096926124865784,0.05847098363405295,0.6080733571871697,1.123619744599053,0.023110739950173827,0.7519297809434831,0.9183340008749407,0.0,0.0,0.0,0.0
0.017162250313298252,-0.08631185159121532,0.746079404806257,0.002011335428583702,-0.5261666340869794,-0.0027816996077735037,0.8503745585626752,-0.07498500134896811,-0.8651421438452873,1.0154826406645445,0.022485624452356762,-0.852393288638246,1.012995740816926,0.05679973553152915,0.603835184016925,1.1373643383400982,0.03036471864510406,0.7574194321682592,0.9124059865071489,0.0,0.0,0.0,0.0
0.01730276588378836,-0.08725481032725252,0.7469448696229416,0.002085516679075166,-0.5261283955941152,-0.0028249251376721595,0.8503978961449223,-0.07244158663554709,-0.8613197544165584,1.012918639898914,0.024971845092696277,-0.8524525066926466,1.0162498775988793,0.05490723000927001,0.5998936906101592,1.1513820159948753,0.03677760626393704,0.7626343247430194,0.9067161512753841,0.0,0.0,0.0,0.0
0.017508294941105815,-0.0880853347820812,0.7477374562977365,0.002159621901683938,-0.5261089473887162,-0.002875051076933323,0.8504095752001407,-0.07018903004034094,-0.8581139133786588,1.0112350933107912,0.02718871250477903,-0.8527022773686598,1.0197141492528317,0.05276047552255511,0.5963963000901051,1.1655903242361991,0.04229996550364936,0.7676565106022798,0.9012499214561465,0.0,0.0,0.0,0.0
0.017776947041484397,-0.08880355587412747,0.7484481749628652,0.0022339480422968127,-0.5261116048918592,-0.0029320131923387402,0.850407544635451,-0.0682246749939301,-0.8555292690468946,1.0104208028593975,0.029137706755175838,-0.8531478001250218,1.023373103499399,0.05032527577081297,0.5934346625577814,1.1797200645063572,0.046941196021046044,0.77244429245817,0.8961189156444139,0.0,0.0,0.0,0.0
0.01807812526566792,-0.08940758383297845,0.7490559400171859,0.002303156620830511,-0.5261357976883082,-0.002987297660472882,0.8503922000542781,-0.06656737395540963,-0.8535184582343053,1.0102572735730844,0.0307948135449984,-0.8537044829050001,1.026975959305898,0.04752797513004686,0.5910721001713193,1.1931892469037855,0.05079012776450749,0.7768181279032398,0.891593246430181,0.0,0.0,0.0,0.0
0.01834834559054859,-0.08989649313026149,0.7495262429241575,0.0023533545046590374,-0.5261740997047039,-0.0030216747852866445,0.8503682425890631,-0.06525375365417332,-0.8519875505612443,1.0102981355176097,0.032114058324933435,-0.8542025991837182,1.0300254355673004,0.04416093499528801,0.5893824624803883,1.2048973129798484,0.05407316847733389,0.7804422729832939,0.8881324124358816,0.0,0.0,0.0,0.0
0.0185205269283229,-0.09028369679159597,0.749814768542553,0.002366045517696862,-0.5262050586504141,-0.0030157866043011377,0.8503490713292275,-0.06428302163320146,-0.8509230668799632,1.0101227043564756,0.03309045442875451,-0.8545959756133392,1.0321263160934475,0.03983461696133013,0.5887172787724892,1.212923273446959,0.057154434048826454,0.7828914797829847,0.8863299718735526,0.0,0.0,0.0,0.0
0.01856566756746797,-0.09060200498255899,0.7498856805108123,0.002326454506837968,-0.5261939530669297,-0.002962216731738925,0.85035624101741,-0.06358208941793897,-0.8504849421201389,1.0096482046309796,0.03380223655930408,-0.855116659931982,1.0333498323402717,0.03407736861213179,0.5901362152878399,1.214274447283317,0.06043314829528498,0.7838447895108311,0.8866659619222358,0.0,0.0,0.0,0.0
0.018484130252900858,-0.09085612318549363,0.7497417566763472,0.0022384601421069046,-0.5261426360532496,-0.0028640357862458783,0.8503885659639039,-0.06313272385769603,-0.8506394580239589,1.0088465775639652,0.0342667260240777,-0.8557696294593402,1.033713334185246,0.02692973498843348,0.5936244424199227,1.2089160722207506,0.06388945491962705,0.7833087472114567,0.8891305469547722,0.0,0.0,0.0,0.0
0.01830309568044656,-0.09102484890960628,0.7494254319615647,0.002123483132049034,-0.5260882918015314,-0.002734438843632979,0.8504229082597347,-0.06296610718666606,-0.8511487147477228,1.007721018472232,0.034445214606348126,-0.8563270408966371,1.0331681589537254,0.018922903951240466,0.5981036468999756,1.1997805078354848,0.06711157670432881,0.7816180882393345,0.8932206138109325,0.0,0.0,0.0,0.0
0.018097123138554744,-0.0911193958750887,0.7489908356824251,0.0020085283365290385,-0.5260485770462157,-0.002603071525930769,0.8504481668039527,-0.06299808654516294,-0.8519839102000443,1.0066814943189397,0.03442846659276992,-0.856935955825167,1.0322823549566613,0.01052864693600404,0.6032648338505358,1.1887288632660091,0.06978261721214676,0.7792398135559695,0.8982993963263741,0.0,0.0,0.0,0.0
0.01790745365870265,-0.09116555513266367,0.7484862061847448,0.0019101581193509607,-0.5260266313529333,-0.002491128436370822,0.8504623029168064,-0.06311907504756857,-0.8530633914340364,1.005900929862216,0.03432937805929522,-0.8577004827301321,1.0314404256638656,0.002003731747044586,0.6089923140717332,1.1767970223745003,0.07182795024082997,0.7765073977227857,0.9038781421454619,0.0,0.0,0.0,0.0
0.017718789126128665,-0.09119292173827659,0.747949490019856,0.0018314670767328586,-0.5260147926269655,-0.0024018761830479404,0.8504700551205543,-0.06324202512959262,-0.8541707863103407,1.005129562438292,0.03422930734434024,-0.8585339313580848,1.0305829280799104,-0.006514759732156561,0.6151096581400273,1.164475917024387,0.0734137300063558,0.7735530402501442,0.9096724418826868,0.0,0.0,0.0,0.0
0.01747001117089648,-0.09123574421451715,0.7474096825747877,0.001766384658588009,-0.525996933802366,-0.0023263673272101203,0.8504814480815005,-0.06328930299820687,-0.8549704407346764,1.0037636469451388,0.03419294808321979,-0.8592020323659951,1.0292969901607012,-0.014939924977418969,0.6213605365864602,1.1519328773045332,0.07487963869920945,0.770335261050641,0.9155691434345624,0.0,0.0,0.0,0.0
0.017068800831244346,-0.09133552147941756,0.7468896400501798,0.0017042912643394656,-0.5259532232025139,-0.0022526567410610164,0.850508805322896,-0.06316582869874535,-0.8550145565040181,1.000926643100777,0.03429709286613635,-0.8593732274106108,1.0269342072587617,-0.023256765191573776,0.6274419744709965,1.1391900166357898,0.07666160745377702,0.7666862783441146,0.9215810817769606,0.0,0.0,0.0,0.0
0.016443973684649005,-0.09154548134625068,0.7464128555135189,0.001640388404020434,-0.5258620725570163,-0.0021746885306923886,0.8505654945397901,-0.0627379945432165,-0.8539198417261862,0.9958885474798397,0.034662348790618545,-0.8588541514602367,1.023083644937903,-0.031395855883503486,0.6331425474736784,1.1262107658181024,0.0792033224085559,0.7624881683974135,0.9277102838680646,0.0,0.0,0.0,0.0
0.015518513189711373,-0.09191904513949735,0.745998775016337,0.0015662198843248065,-0.5257026033480411,-0.0020839549591964227,0.850664432617289,-0.061876697339917096,-0.8512789357033135,0.9878507601272197,0.03540427694222384,-0.8574187032030638,1.0172655657945213,-0.03939491366694495,0.638212752420651,1.112965540595964,0.08297841338033614,0.7575966666170116,0.9340013049562157,0.0,0.0,0.0,0.0
0.014219892665668699,-0.09250189076190454,0.7456585996610774,0.001467063028960652,-0.5254538797737481,-0.0019662302173944694,0.850818548161426,-0.060488509074929565,-0.8467392963646752,0.9760594588479741,0.03660555714729345,-0.8548436471398263,1.0089918471046642,-0.04745154668459202,0.6423714104417366,1.099465977867352,0.08845872223859089,0.75185718355217,0.9405331168921466,0.0,0.0,0.0,0.0
0.01249867292458201,-0.09331246245467979,0.7453929075733382,0.0013219679198950465,-0.5251037984647287,-0.0017976999359227532,0.8510352645535159,-0.058579570213360375,-0.8400776407939877,0.9599706928874725,0.0382545589482829,-0.8509009280030699,0.9978142649384937,-0.05599920257304055,0.6453844792034491,1.0858636993442081,0.09598584925580413,0.7451729986050006,0.9473632161759764,0.0,0.0,0.0,0.0
0.010370498263818632,-0.0943295359423717,0.7451852512484809,0.0011082468136750809,-0.5246543577938247,-0.001552586868306071,0.8513132009495481,-0.05627481268643157,-0.8314000794013768,0.9396469591892957,0.040234396614090354,-0.845533475953434,0.9836553530913644,-0.06593567847799661,0.6473370942151342,1.0726352053084494,0.10560616137438042,0.7375877606088475,0.9544981988634529,0.0,0.0,0.0,0.0
0.007976167132086017,-0.09548148963739374,0.7449862677253153,0.0008003224747375411,-0.5241053124766337,-0.001208330634347099,0.8516522299946055,-0.05383695292402349,-0.8216379172898598,0.9165389692703507,0.04232112277255659,-0.8392891432823588,0.9674736583492194,-0.07907994780470604,0.6491041129789583,1.0607900114064346,0.11702168826929048,0.7293391714109051,0.9619292586392132,0.0,0.0,0.0,0.0
0.005680432398704729,-0.09662550795127772,0.744696461248582,0.0003378281045753543,-0.5233519582744433,-0.0007086580321470175,0.8521162546544166,-0.051814539548830904,-0.8139708916428441,0.8954207106931843,0.04407946451164352,-0.8343900797322499,0.9527615436688891,-0.09868347824593018,0.6527969887397514,1.0515741215186347,0.12997526151859992,0.7209231409099566,0.9695104327418799,0.0,0.0,0.0,0.0
0.0038430534412355645,-0.0975686733445919,0.7443035335593652,-0.00031012840030997984,-0.5223913672643783,-3.421852083202673e-05,0.8527057886851254,-0.05076566565018712,-0.8109330548089452,0.8808840839547366,0.045024958304867406,-0.8322896729044976,0.9424595411590577,-0.12836906703699225,0.6593709236065182,1.0468654505100274,0.14353934649905373,0.7133630917114627,0.9763945243069435,0.0,0.0,0.0,0.0
0.002665027632841921,-0.09816551021649658,0.7438517689445703,-0.0009730998271171244,-0.521453643910808,0.0006553157406051993,0.8532788060711146,-0.0507188781958913,-0.8121561744075333,0.8741280884428034,0.04510858686390367,-0.8327577547293485,0.9372882730214954,-0.16295690104234495,0.6658203095487933,1.0485038530944524,0.15485719507900528,0.7074656613704097,0.9819707526796411,0.0,0.0,0.0,0.0
0.002679810669425246,-0.09817186084773098,0.7438327393743296,-0.0009994962317186314,-0.5214584874942141,0.0006645694701425566,0.8532758083849258,-0.050727191574231924,-0.8121629880570228,0.8740755307152638,0.04510965133776734,-0.8327524181012939,0.9372847137453569,-0.16292697082279717,0.6657983053561377,1.0484855952375038,0.1548187466274555,0.7074426833211442,0.9819564760065587,0.0,0.0,0.0,0.0
0.002679810669425246,-0.09817186084773098,0.7438327393743296,-0.0009994962317186314,-0.5214584874942141,0.0006645694701425566,0.8532758083849258,-0.050727191574231924,-0.8121629880570228,0.8740755307152638,0.04510965133776734,-0.8327524181012939,0.9372847137453569,-0.16292697082279717,0.6657983053561377,1.0484855952375038,0.1548187466274555,0.7074426833211442,0.9819564760065587,0.0,0.0,0.0,0.0
0.0018697277879943033,-0.0984108359843292,0.7439841821451315,-0.0007486136039780437,-0.5217543003160803,0.0005520569098182773,0.8530952965012277,-0.04984644133341051,-0.804373281407375,0.8622751246398623,0.045736527851074155,-0.8273608424209266,0.9286509194897018,-0.16317953188348605,0.6652447358162475,1.047820180091187,0.15352734297899207,0.7059149876558127,0.9824191851752011,0.0,0.0,0.0,0.0
0.0007054538577079847,-0.09886951013273841,0.7440201716233683,-0.000661849739666779,-0.5218606789263841,0.000559280716383001,0.8530302931024758,-0.04862587695366437,-0.7960301445499163,0.8475045784110674,0.04669283141118732,-0.8217003512506456,0.9180825563199387,-0.1591026764027675,0.6616717048131859,1.0473354399551627,0.1553405794743862,0.7027835889092987,0.9846877170094082,0.0,0.0,0.0,0.0
-0.00020851000064173457,-0.0993993342038986,0.7439939079969832,-0.0006300003590953894,-0.5218525044427621,0.0005850871914713973,0.8530353007814757,-0.04729365610009595,-0.7898096648378587,0.8357926499763836,0.04785195568837981,-0.8181803742733869,0.910735367248584,-0.15419698504918278,0.6581393722704562,1.0467127868697046,0.15829259101389556,0.7000002179032561,0.9872823017409107,0.0,0.0,0.0,0.0
