zhuoxili-jackie/tripod-support-walk/examples/trajectory_trotting_acc_f02.csv
root_pos_x,root_pos_y,root_pos_z,root_rot_x,root_rot_y,root_rot_z,root_rot_w,FL_hip_joint,FL_thigh_joint,FL_calf_joint,FR_hip_joint,FR_thigh_joint,FR_calf_joint,RL_hip_joint,RL_thigh_joint,RL_calf_joint,RR_hip_joint,RR_thigh_joint,RR_calf_joint,FL_foot_joint,FR_foot_joint,RL_foot_joint,RR_foot_joint
0.0,0.0,0.72963,0.0,-0.5231245161092812,0.0,0.852256264656019,0.0,-0.81,0.872,0.0,-0.81,0.872,0.0,0.65,1.0,0.0,0.65,1.0,0.0,0.0,0.0,0.0
0.000731089858183153,-0.00019661063354650048,0.7295535048606734,-0.00013259139034741123,-0.5233417794293014,0.000237006360251581,0.8521228245689003,-6.392159094267633e-05,-0.8129149243761252,0.8780240899714723,-6.392159094267633e-05,-0.8127644833519553,0.8786669043001839,0.0036694102725431214,0.6514863490560252,0.9995583608248356,0.0036694102725431223,0.6532306751892345,1.0014487963298304,0.0,0.0,0.0,0.0
0.0021326191957608087,-0.0004383111426554514,0.7294229824933747,-0.00014979708233537714,-0.5236835044648661,0.00031962670588785234,0.8519128256758431,0.0003355652204525086,-0.8182755042507065,0.8896925186583999,0.0003357922805906888,-0.818983400355968,0.8919494282034556,0.006016201007690362,0.6555404843714713,0.9992566806082501,0.006049889473859841,0.6580405449189174,1.0029846596295524,0.0,0.0,0.0,0.0
0.004178899251639082,-0.0007798128773023627,0.729296649187806,-5.476819084708933e-05,-0.5241428713055091,0.0002484259720095619,0.8516303104895916,0.0013423345990276863,-0.8255549857501263,0.9062783482586269,0.00134297487307917,-0.8283531757078162,0.9114646499083042,0.007451320921886992,0.6623636991540565,0.9983006089831471,0.007519640347411195,0.6646958658771237,1.0041941450790584,0.0,0.0,0.0,0.0
0.006879906608230196,-0.0014239490930643894,0.7293402881409442,0.00019187436341590628,-0.5247076842052593,-4.463149752780611e-05,0.8512824486198526,0.003642260274048609,-0.8335518311612953,0.9265586617227828,0.0036461701808838034,-0.8408973114709556,0.9376292677310758,0.00865726780571506,0.6729543517530348,0.9943947230715784,0.008759337243100273,0.6739210965039665,1.0040370806411691,0.0,0.0,0.0,0.0
0.010393696493196294,-0.0027055070644027776,0.7302144405942139,0.0007200615528347855,-0.5254889469226897,-0.0008050104880804964,0.8507997414971145,0.008691906782191977,-0.8387902938074646,0.9486062065733797,0.008715914998870516,-0.8556752828011351,0.9715241284138029,0.009486326622902247,0.6920052726682139,0.9804836130630837,0.009621252741654525,0.6890738388717376,0.9972853717290557,0.0,0.0,0.0,0.0
0.013468458749232574,-0.003716386464387724,0.7310911585381972,0.0008694150417664806,-0.5251980926219696,-0.000837618084287338,0.8509791454669585,0.01135142167222858,-0.84980335481745,0.9736502872119082,0.0027715570068999693,-0.8456078898156864,0.9416991894264514,0.003557430600312425,0.6828209023652265,1.0058795316576061,0.016111178003566057,0.7025795096371159,0.9882777458413987,0.0,0.0,0.0,0.0
0.016477976343225103,-0.004963458420660703,0.7320007297582314,0.0011206993729551602,-0.5250744559848357,-0.0010778756309680808,0.851054873606437,0.015153388884115031,-0.8579491605401091,0.9951647079910635,-0.002621481901794403,-0.844182874459226,0.9226250294667114,-0.0017769271322820804,0.6765094370323235,1.0270970896551477,0.022531617373977034,0.7161311739304537,0.9796736493609273,0.0,0.0,0.0,0.0
0.01921265325560801,-0.006360074614279164,0.7329102285955791,0.00141000892911013,-0.5250602115165268,-0.0013994871389022916,0.8510627636037121,0.01956704793593127,-0.863299420012588,1.012385442357558,-0.007436124530349773,-0.8480548224207212,0.9115388505476937,-0.005586806564887789,0.6722275931927045,1.0453072055272412,0.029523031738025902,0.7291441448327591,0.9717678476887275,0.0,0.0,0.0,0.0
0.021555328866976642,-0.007833231995825843,0.7338098474115691,0.0016886723517625084,-0.525073108506173,-0.001725957962411508,0.8510536999381796,0.024212878274250553,-0.8663250030941647,1.0253747183465167,-0.011726903626914477,-0.8546461948154765,0.9049793479509834,-0.008252239835745117,0.6690151439946452,1.061674469384963,0.037400346805384885,0.7411775101893658,0.9645518994857892,0.0,0.0,0.0,0.0
0.023477451893876827,-0.009327629425832411,0.7346996300389048,0.0019369952123123389,-0.5250756774985545,-0.0020230353773807446,0.8510509316585249,0.02885223143031526,-0.8674445285878433,1.0345311257096166,-0.015547144256273328,-0.8625381684758477,0.9007869440813768,-0.010182936018848772,0.6662880970316398,1.0769009669853042,0.04609720490404481,0.7520695405921332,0.9579296107109062,0.0,0.0,0.0,0.0
0.02500614577643537,-0.0108012152235078,0.7355814211010874,0.0021509384773500907,-0.5250579829680104,-0.0022801779424838444,0.8510606845424018,0.03333794237567157,-0.8670367461387686,1.0404346459411034,-0.01900190944274966,-0.8710009623377423,0.8976915749646208,-0.011672529726659636,0.663706212433427,1.091432702963166,0.05533796178023159,0.7618362016089036,0.951766053414981,0.0,0.0,0.0,0.0
0.026197363876043756,-0.012223719243436537,0.7364553171263487,0.0023330683198496075,-0.5250224330119748,-0.0024982690694566076,0.8510815238730411,0.03758455176617514,-0.865454201978091,1.043734429567727,-0.022227643720786023,-0.8796824176166569,0.8949724235898221,-0.01292580762059,0.661087907021643,1.1055666425457649,0.06478953816706179,0.770586351918038,0.9459268871505688,0.0,0.0,0.0,0.0
0.02711719232748485,-0.01357561174978442,0.7373190221430999,0.0024881319708249783,-0.5249752145304777,-0.0026830085026660873,0.8511096491013066,0.0415506463752113,-0.8630188721784972,1.0450658529834436,-0.02535774482871773,-0.8884293012609208,0.8922382493282481,-0.01408981835179411,0.6583536178115986,1.119505690544594,0.07415322415589093,0.7784654607113611,0.9403029398386648,0.0,0.0,0.0,0.0
0.027830439834219723,-0.014846550278673886,0.738168499248104,0.002621203188901464,-0.5249223023950704,-0.002841573690016431,0.851141369691936,0.045226146944372554,-0.8600134308262838,1.044999645033598,-0.028500372297110346,-0.8971914714400256,0.8892877309580597,-0.015268967148491021,0.6554889003039363,1.1333880308075568,0.08320505782329224,0.7856226587378763,0.9348193102771357,0.0,0.0,0.0,0.0
0.028394758812899015,-0.016033321367655357,0.7389987060037305,0.0027370265301036208,-0.5248680704873376,-0.0029810020943494,0.8511739721673743,0.04862179461540567,-0.8566765237879729,1.0440189283040069,-0.03173068161349962,-0.9059720864929969,0.8860217236833103,-0.016531370205894454,0.6525232177344806,1.1473026728967546,0.09180169481786823,0.7921929605793053,0.9294356077460566,0.0,0.0,0.0,0.0
0.028858359785020583,-0.01713754735115442,0.7398037461535446,0.0028398540096471634,-0.5248151435840248,-0.0031074501437093104,0.851205817677304,0.05176016412198339,-0.8532045728337138,1.0425161399755039,-0.03509143746958669,-0.9147963867023592,0.8823911595382209,-0.01791367525955275,0.6495195768077887,1.161294356297424,0.09986742569821408,0.7982870943858748,0.9241448127454057,0.0,0.0,0.0,0.0
0.029259493830370326,-0.018163433159562294,0.7405761608674598,0.0029334046875595095,-0.5247646467189157,-0.0032258332687962973,0.8512361920704691,0.054668053391684034,-0.8497590677030398,1.0408003478904415,-0.03859579319493514,-0.9236765176274014,0.8783735294976646,-0.019428802294344443,0.6465688862139604,1.1753544127103233,0.10737443320661247,0.8039827167910546,0.9189767710354957,0.0,0.0,0.0,0.0
0.029626053863226146,-0.019115781504536546,0.7413052978727978,0.0030206785293672295,-0.5247163629395388,-0.0033394964292193484,0.8512652123329859,0.05737009277646604,-0.8464763787771364,1.039104917003743,-0.04222914710017774,-0.9325527249548838,0.8739786205653192,-0.02108070775893694,0.6437823538069456,1.1893876529682252,0.11432513181148721,0.8093119226181417,0.9140107417025158,0.0,0.0,0.0,0.0
0.0299739140301867,-0.0199984946169434,0.7419748684284455,0.003103372512864851,-0.5246685519242741,-0.0034496533030379532,0.8512939442946957,0.059883476415324266,-0.8434761305041553,1.037585813585185,-0.0459512909502222,-0.9411973272716652,0.8692894827241723,-0.022891694453044936,0.6412777324432074,1.2031380963091676,0.12074307986813035,0.8142414858367825,0.9093994951631403,0.0,0.0,0.0,0.0
0.030303353481175827,-0.02081385191847457,0.7425601604189903,0.0031807240376317057,-0.5246173779013857,-0.0035545050988055192,0.851324764876468,0.06221426514503587,-0.8408642408168081,1.036304423108029,-0.049704057121545464,-0.949086938727155,0.864542952497414,-0.0249479740316077,0.6391664683151146,1.2160498266344946,0.1266768412048981,0.8186463256138665,0.9054027484928174,0.0,0.0,0.0,0.0
0.030594909521957505,-0.021563001635389115,0.7430263702904223,0.0032479794375587213,-0.5245561509969369,-0.003648368538997078,0.8513618411039195,0.06435703494617002,-0.8387285968932262,1.0352008318963923,-0.053430154484491205,-0.9552943296199103,0.8602350466825869,-0.02746224161726295,0.6375788113410492,1.2270383370926325,0.13221686202443067,0.8222879427785464,0.9024141445846464,0.0,0.0,0.0,0.0
0.030810540262940937,-0.0222481096111042,0.7433321561594387,0.0032957755735911736,-0.5244752761878574,-0.003722116041314157,0.8514111629425669,0.06630170813838893,-0.8371280405236503,1.0340908963064588,-0.05709894968542826,-0.9585371839223678,0.8571837463494015,-0.03082584835563626,0.6368218392771845,1.2341685635384116,0.137511798694002,0.824836944256014,0.9009303195989488,0.0,0.0,0.0,0.0
0.030913326381104177,-0.02287543487176623,0.7434480242180128,0.0033148912920366023,-0.5243676773049363,-0.0037693118647721497,0.8514771534114196,0.06805416774910863,-0.8360584983572859,1.032749644970517,-0.06070071477209035,-0.9576424266286864,0.8563814388980115,-0.03555455697589852,0.6377782751347685,1.234446872148733,0.14271664072824794,0.8260294407748825,0.9013408320198576,0.0,0.0,0.0,0.0
0.030896719416760275,-0.02345166686244526,0.7433760958963171,0.003306901496702753,-0.5242335465856282,-0.0037912490405532895,0.8515596746367559,0.06963350598549731,-0.8354655434492613,1.0310921734492489,-0.06419157798039589,-0.952610057188424,0.8578027891276035,-0.04164424566749267,0.6404211034315507,1.227858847797231,0.1478506839885157,0.8258503283499622,0.9036594208333145,0.0,0.0,0.0,0.0
0.030784818728888122,-0.02398647214031504,0.7431513571930982,0.0032836295162097465,-0.524078518676014,-0.003796309426624775,0.8516551603050923,0.07107757352192653,-0.8352453591370403,1.029172696089483,-0.06749457519282286,-0.944622030296998,0.8604349064614394,-0.04858003832242488,0.6438305427595089,1.2173604874600168,0.15283160219077907,0.8245430998185053,0.9075135088642745,0.0,0.0,0.0,0.0
0.030602108308723362,-0.024498512639337316,0.7428239138789752,0.003256222479231056,-0.5239078659983593,-0.0037946264897462537,0.8517602630846395,0.07245086016157788,-0.8352205830143726,1.0269865730429981,-0.07056131507916055,-0.9349649282107603,0.8634529585660236,-0.055961410630293376,0.6476690670030943,1.2048446797668948,0.15764300038018558,0.8224344429867556,0.9123990650925241,0.0,0.0,0.0,0.0
0.0303525355956598,-0.025012967043983435,0.7424413626935342,0.0032309134681618584,-0.5237218020783525,-0.0037925509478292105,0.8518747864465014,0.07382595352516501,-0.8351600870310091,1.024368792619276,-0.07337614449862671,-0.9245609236128647,0.8663533831375807,-0.0635441921257891,0.6517751003411361,1.191350576611331,0.16237486449068286,0.819772599960931,0.9178913591639289,0.0,0.0,0.0,0.0
0.030017892987390722,-0.025560006057500632,0.7420451118426922,0.0032098646637175898,-0.5235156316155293,-0.0037925739694320577,0.8520015825136245,0.07527867503573513,-0.8347856560206189,1.0209893684976945,-0.0759256614772763,-0.9139262636915437,0.8688918332187345,-0.07119474776742923,0.6560049462167009,1.1773886060576482,0.16719765517870652,0.8166977075850876,0.9236812109649664,0.0,0.0,0.0,0.0
0.02956235358117009,-0.02617491475383935,0.7416715492107588,0.00319248069017123,-0.5232799990998482,-0.003794152399274835,0.8521463812143291,0.07688979714185457,-0.8337801072991997,1.016382007738615,-0.07818283675072303,-0.9032870996046686,0.8709783941311017,-0.07884550688099838,0.6602060518445461,1.163175977044093,0.17234335670721393,0.8132591268230349,0.9295521574824163,0.0,0.0,0.0,0.0
0.02893748623937011,-0.02689869501596274,0.7413538538697595,0.0031759521733615045,-0.5230007953996759,-0.0037941444843178854,0.8523178314494722,0.07874744180051037,-0.8317965824565774,1.0099745305135617,-0.08011485354925907,-0.8927117603991529,0.8725945370283139,-0.08647666358061666,0.6642247723392888,1.1487868360933788,0.17809929694927368,0.8094401587624236,0.9353499535363764,0.0,0.0,0.0,0.0
0.028086883070389524,-0.027777693846672627,0.7411224775910442,0.0031548018186336644,-0.5226588434782011,-0.0037864121211896606,0.8525276791065278,0.08094539053878351,-0.828475686758084,1.0011219225450432,-0.08170925560762059,-0.8822055875547178,0.8737470269657063,-0.09413002963604772,0.6679135807947699,1.1342446552541396,0.18480522473492775,0.8051767971185666,0.9409619473439413,0.0,0.0,0.0,0.0
0.026951762539605573,-0.02886063310208553,0.7410031307906486,0.0031194494961820315,-0.5222295489552593,-0.0037603541548073714,0.8527909632315868,0.08357285172071066,-0.8234834772368514,0.9891609775311894,-0.08300940567059957,-0.8717574179945853,0.8744531545467515,-0.10196180789690176,0.6711358884237418,1.1195864713959849,0.19284129534062394,0.8003688558012086,0.9463104583415213,0.0,0.0,0.0,0.0
0.02547991456523722,-0.030190964699180603,0.7410113479397319,0.0030537584787744434,-0.5216826462836958,-0.0036980614334973442,0.8531261427639102,0.08669044559563596,-0.8165899974058314,0.9735191392886638,-0.08414771440111651,-0.8613425784305698,0.8747454643561184,-0.11035334494032269,0.6737841792672642,1.1049271523408293,0.2025950071090214,0.7948867546506653,0.9513596921349351,0.0,0.0,0.0,0.0
0.023641064767494026,-0.031791706459126816,0.7411426488051487,0.002931316465471866,-0.5209818896884614,-0.003569536459757455,0.8535552333679887,0.09028565007233824,-0.8078198913022363,0.9539301371917849,-0.08535978137377061,-0.8508927609073906,0.8746803028272646,-0.12012722648877516,0.6758436748846435,1.0905539107259064,0.21439848976010756,0.7885796534610328,0.9561355788990982,0.0,0.0,0.0,0.0
0.021452653054415873,-0.03363889415722419,0.741356867566203,0.0027096809088286767,-0.520083603605434,-0.0033248266312439576,0.8541045886880776,0.09419873989951892,-0.7977315870005125,0.930847305475158,-0.08695806998589567,-0.8402508220062357,0.8743202563415368,-0.1329790809018593,0.677562883267641,1.0770864085923029,0.22843866482984257,0.781291719890049,0.96076237765614,0.0,0.0,0.0,0.0
0.019021484963063745,-0.03561810345223532,0.7415541291024865,0.0023195485819956434,-0.5189278035011041,-0.002878624188814314,0.8548100771344912,0.09800139612251572,-0.7879536118151492,0.9062376566701189,-0.08926879911747829,-0.8291275238672332,0.8735752058706328,-0.15236870599554764,0.6798625963197438,1.0656837000752675,0.24467814408402017,0.772888017484649,0.965523976891393,0.0,0.0,0.0,0.0
0.016607068495094277,-0.037449845017410485,0.7415361560710965,0.0016280933845301345,-0.5173382998271286,-0.0020348540237870457,0.8557770107995476,0.10068990322866005,-0.7827295404963142,0.8855495594777862,-0.09292074571776998,-0.8168977601831318,0.8709791143495001,-0.1850707376418526,0.6851629295172681,1.0574806246281154,0.2630587407951139,0.7631368435416128,0.9708507079713689,0.0,0.0,0.0,0.0
0.014487746722527516,-0.03893570258947165,0.741183433034982,0.0005707879004959996,-0.5152395630587442,-0.0007098461197779809,0.8570457181380077,0.10169905673609435,-0.7852850371406845,0.8736292117401535,-0.09936649581145082,-0.8046545854526793,0.8651968054452503,-0.23706671846304433,0.6936124036059911,1.054641651929186,0.2829946808320598,0.7522283291247229,0.9768054991706926,0.0,0.0,0.0,0.0
0.012888285077491813,-0.03988461953707273,0.7403000314990539,-0.0005557021696520725,-0.51288113574575,0.0008368744182425961,0.8584590447030401,0.10102459006599157,-0.7957249361549152,0.8720343681121183,-0.10849936407984666,-0.7953094180682428,0.8540648543054077,-0.2950077565920264,0.698783602866702,1.0599960820399712,0.29979977108912664,0.7396509900535393,0.9848564923159486,0.0,0.0,0.0,0.0
0.012931698895089584,-0.03998148777263203,0.7402727972697367,-0.0005522648594758987,-0.5128583108592254,0.0008908731539948266,0.8584726287606207,0.101101837968368,-0.7957853880340655,0.8719329563751899,-0.10853120402948152,-0.7953014619016741,0.8540719253373189,-0.29502203065200744,0.6988000138040231,1.0600039564463455,0.29983813034000933,0.7395594325329555,0.9847723488423562,0.0,0.0,0.0,0.0
0.012931698895089584,-0.03998148777263203,0.7402727972697367,-0.0005522648594758991,-0.5128583108592257,0.0008908731539948271,0.8584726287606206,0.101101837968368,-0.7957853880340655,0.8719329563751899,-0.10853120402948152,-0.7953014619016741,0.8540719253373189,-0.29502203065200744,0.6988000138040231,1.0600039564463455,0.29983813034000933,0.7395594325329555,0.9847723488423562,0.0,0.0,0.0,0.0
0.013233823563299038,-0.04032962469480265,0.7402424116943593,-0.0004656320547847939,-0.5142018929374839,0.0005678850199514353,0.8576688603376609,0.10253249528216068,-0.7877620795296808,0.8650150771546193,-0.10657985473753992,-0.791000702984983,0.851808637042712,-0.30127674478024496,0.7057913153006607,1.0620772031075962,0.30472819201068585,0.7449447638244052,0.9881653540476004,0.0,0.0,0.0,0.0
0.013978017056292192,-0.04080870372453416,0.7399824416815423,-0.00043074018297321756,-0.5150221860361281,0.000435266915014726,0.8571766287622261,0.10406123976833825,-0.7857885962093576,0.8655033209062903,-0.1050575476941154,-0.792654225961446,0.8575691499078865,-0.304095155940386,0.7108829432709293,1.0641771001914915,0.3125263800875173,0.7498521905892332,0.9926089285257361,0.0,0.0,0.0,0.0
0.015337752744479866,-0.041356914006793276,0.7395729707669082,-0.00024110475633527223,-0.5159632690387815,1.112658021628273e-06,0.8566106740346354,0.10659709060368802,-0.7856422275888271,0.8706254458543774,-0.10278602659117655,-0.7982606323242615,0.8700086080616589,-0.3124131077931406,0.7193401831022286,1.0671411381820928,0.3199787534521,0.7562050229329995,0.9980514899633243,0.0,0.0,0.0,0.0
0.017462558526905484,-0.04195867641296949,0.7391903636087455,0.0003705285929948131,-0.5179229360577339,-0.001417173305586317,0.855426026394872,0.11153411763529258,-0.7804965080631603,0.8749895751901663,-0.09793719783155147,-0.8044046366620211,0.886338512682722,-0.33973713516438886,0.7391307170625518,1.0713289244058226,0.32300908220918695,0.7668373113419232,1.0040082131404238,0.0,0.0,0.0,0.0
0.020249834692261066,-0.04298894193916918,0.7390104674197056,0.001126293863691953,-0.5207457798525853,-0.003455938819014832,0.8537040592118177,0.11896235712403774,-0.7701308230272432,0.8772291729504214,-0.09036847278659747,-0.8106236419822667,0.9066333102804551,-0.3821622214924573,0.7701925840914052,1.0734497237588343,0.3289190484790183,0.7835451574278948,1.009321863325122,0.0,0.0,0.0,0.0
0.02197506326197587,-0.04596620624769258,0.7399972615588997,-0.0012134554483182794,-0.5175437264006771,0.0018456465007468431,0.8556539092285913,0.1002693190909413,-0.7937292461988895,0.8784479139902689,-0.09645371445241385,-0.8286691790522676,0.941500313499888,-0.256045810310096,0.7371465769225601,1.046547931085705,0.25936860599610395,0.736128708094392,1.017889331089807,0.0,0.0,0.0,0.0
0.024655879609274265,-0.04770998950677656,0.7407060586044643,-0.0018466553701262994,-0.5202673710532181,0.0019469507290619057,0.8539992165477528,0.08993054498069819,-0.8016773378306133,0.8874758871178452,-0.09172119093746295,-0.8267990050011378,0.956466543388564,-0.2631632172704951,0.7618519694397061,1.0355792486195674,0.1883182310735229,0.7228563257143281,1.0321921786065236,0.0,0.0,0.0,0.0
0.026930093724268373,-0.05000472837062008,0.740405262705977,-0.0030472209036342744,-0.5206252780759768,0.0036909283919578967,0.8537718731140548,0.07830279348455074,-0.8199374152470589,0.8907218045984703,-0.09014349952833813,-0.836896584880445,0.9807929548936267,-0.22750225864667575,0.7618361121198581,1.02743017150724,0.14749427216056832,0.7081835339577925,1.04657049788184,0.0,0.0,0.0,0.0
0.02975685473614005,-0.05095264625674252,0.740799289331858,-0.0020929252560720297,-0.5247141382640902,0.0009719103477956167,0.8512753656484614,0.0770978111825359,-0.8234328251452833,0.9021656341028442,-0.08067669414418181,-0.8345591149453787,0.9927210719326159,-0.27721222202431944,0.8020916430681315,1.0258172446095417,0.10029581438762263,0.711300364413223,1.0618792817906313,0.0,0.0,0.0,0.0
0.03062638208082708,-0.05397623595943948,0.7407018409147201,-0.004197615692427411,-0.5202232487849354,0.005910463312499273,0.8539995420780842,0.06039598788655251,-0.8516372553572072,0.8909998103990063,-0.08573453063934615,-0.8588369759565948,1.026223657850117,-0.15113584201958125,0.7561834064266303,1.0055216097657,0.10740280102164736,0.6891240494671396,1.0685847127681767,0.0,0.0,0.0,0.0
0.03279952253169701,-0.05470421072319683,0.7412593097063959,-0.0033939586221495613,-0.52388645907811,0.003267117618472262,0.8517750788687926,0.059898337830329176,-0.855859316434879,0.9013215984450532,-0.07689918877714283,-0.85407652218523,1.0325235451967008,-0.2056986219644779,0.7951139599532814,1.0015100296793213,0.0723749645515504,0.6937914545659746,1.0867372055324425,0.0,0.0,0.0,0.0
0.034605378208772485,-0.0550244290165992,0.7414556188973896,-0.0026942995365446254,-0.5275510406610232,0.000724458941322763,0.8495187551824392,0.05927301875103773,-0.8611608827845515,0.9110882038372096,-0.06941228923405114,-0.8472963431661007,1.0341926863162174,-0.27025151658718316,0.8344471531487715,1.0025165293306095,0.04518197110684579,0.7003503029922657,1.103478002312472,0.0,0.0,0.0,0.0
0.03446005928028394,-0.05748457068711533,0.7412854355993781,-0.004329025760966277,-0.522113380084763,0.005820852393774605,0.8528452354031384,0.041433468843093776,-0.8906296301131311,0.8958592446906689,-0.0765185938898267,-0.8713657392101661,1.0613631006836102,-0.14273979481140175,0.7794116601750232,0.9842564628784122,0.06035976261006677,0.6762970154144978,1.110416173260737,0.0,0.0,0.0,0.0
0.0360403379980716,-0.05732391753273172,0.7422640936219278,-0.002692690105055481,-0.5272420218056055,0.0010820889529053338,0.8497102029196976,0.043877654154255645,-0.8902990672607873,0.9107965715781918,-0.0645993084892209,-0.8574557566654128,1.0550546752718628,-0.24559761425930965,0.8372567882954206,0.9835680179822137,0.021264584015587833,0.6858411247534281,1.1274240020727209,0.0,0.0,0.0,0.0
0.037112066013702705,-0.057440955502938255,0.7429251385944965,-0.0018897392560276935,-0.5319986076277936,-0.0024256359443179366,0.8467396451435936,0.045004484505108557,-0.890962634072217,0.9238346957204719,-0.055019802106877985,-0.8410444823892383,1.0446082420922587,-0.360746166675009,0.896435421484123,0.9836044288463298,-0.009320838403714476,0.6960325477401317,1.1418906762689778,0.0,0.0,0.0,0.0
0.036016766420306885,-0.060061472989946345,0.7433346515347231,-0.0026972506509784105,-0.5271563225986448,0.0016456006015318973,0.8497624540904709,0.03183436945885345,-0.9099961868645395,0.9056421146810012,-0.059124096041350674,-0.859580057216405,1.0629999508704926,-0.2322611923438792,0.8421645193913494,0.9634088421084717,-0.0067115169569262854,0.6677342538672995,1.1505105421161488,0.0,0.0,0.0,0.0
0.0344616130340122,-0.06319059577241458,0.7434838860172199,-0.005344514708217018,-0.5211050574534309,0.008046420254610364,0.8534378772822755,0.012462730291470873,-0.9358121471581313,0.8830206082405577,-0.06704315982859917,-0.8776657284196995,1.0798719730803938,-0.10503691754332489,0.7847293692587602,0.9390346797777117,0.02613217925518364,0.6439441570528225,1.1547966910411929,0.0,0.0,0.0,0.0
0.034591907864937745,-0.06438073452974706,0.7438134600380443,-0.005313611361608362,-0.5238820753727174,0.006463710233013601,0.851749703309309,0.010891932636805334,-0.9403683922752326,0.884996990901185,-0.05933433740664947,-0.8676910390599033,1.0731049713443004,-0.152860586870129,0.8127704446559543,0.93492094125661,0.0033610541399213927,0.6459161566121949,1.1747176784539033,0.0,0.0,0.0,0.0
0.0355709989198068,-0.06448100968036216,0.7441341290049187,-0.003137748921641521,-0.529335539833518,0.0008980631817152131,0.848406290808469,0.01557970866690173,-0.9426512139328006,0.900370714496564,-0.045043665107822095,-0.854173118839787,1.0636414748256993,-0.2653094870809637,0.869479757965852,0.9422362962382417,-0.04071137124918971,0.6553067570427905,1.1921073832869387,0.0,0.0,0.0,0.0
0.03586138293535057,-0.06510145654101648,0.7444947965944614,-0.002104879208666184,-0.5339120255698936,-0.002863821724656971,0.845532564104127,0.016522897505723416,-0.9437117607873643,0.9098886637038902,-0.03381415443010728,-0.8378961278855251,1.0500673241091432,-0.3848716803005756,0.9261835677406934,0.9449480903061332,-0.06906512227431254,0.6642778798924134,1.2036384696660947,0.0,0.0,0.0,0.0
0.033875671996910064,-0.0681762107830562,0.7447440280965104,-0.002312501106258263,-0.5290716987961119,0.00046027644298836444,0.848573849477596,0.0029434129679815173,-0.9590255012471809,0.889325292319907,-0.03491122143562668,-0.8565679950967222,1.0644911397896504,-0.2562604954911536,0.8694272726935839,0.9269488794432577,-0.06496715125714131,0.635521901921444,1.2079877522079308,0.0,0.0,0.0,0.0
0.03133767299404342,-0.07203069412817399,0.7450345070001633,-0.004388432357743581,-0.5230768770047232,0.005993189613295272,0.852253133806316,-0.017859525299548536,-0.9770079141666911,0.8673864300785519,-0.03861853908983689,-0.8744492748815775,1.0773850428907623,-0.12912127501927012,0.8118639873960865,0.901075633766709,-0.024460045540995116,0.6163613371371868,1.2032273137659206,0.0,0.0,0.0,0.0
0.03029908104498854,-0.07429859896417162,0.7454948839128902,-0.003643967854213981,-0.5259453297255063,0.0034978163265727996,0.8505033785465825,-0.014778999363884236,-0.9674706406511319,0.8735397674797194,-0.026158874383420384,-0.8633102918605696,1.0655868217673934,-0.1831628396894786,0.8407982584199127,0.8947187146191128,-0.04893550413016681,0.6188449900257808,1.2075922561309544,0.0,0.0,0.0,0.0
0.029248402998650454,-0.07670362500117456,0.7450248876317336,-0.002621448077698953,-0.5286236569275513,0.0009267034227512453,0.8488517529977098,-0.01154201526969046,-0.9580529493224275,0.8828037636466537,-0.013592659468074524,-0.856392540536451,1.0561473343139307,-0.22690675351614692,0.8605669143973323,0.8985811105594604,-0.07444679804888096,0.6219858381768818,1.2050387763298536,0.0,0.0,0.0,0.0
0.027251915810405865,-0.08065574182592669,0.7442933806281072,-0.0034916648424091206,-0.5267867433068658,0.002878358143140195,0.8499854412913049,-0.019356504175476453,-0.9556553946827989,0.877621926983197,-0.008079649049951076,-0.864592388201134,1.0595829661350256,-0.16013861519723313,0.8311342628001823,0.8913132196395996,-0.06445245689138415,0.6168601188065189,1.1934689174693258,0.0,0.0,0.0,0.0
0.02510096977038744,-0.08472462368905216,0.7433955577433022,-0.0042767400386822816,-0.5251157244700188,0.004663478077981303,0.851007307478135,-0.02605224869579857,-0.9492656728545205,0.8722951689776373,-0.0018213613974792896,-0.8724790687603377,1.0616881021143572,-0.10427567120810255,0.8044742799065733,0.8851829702077898,-0.05722703824877551,0.6112477718516706,1.1792170526895815,0.0,0.0,0.0,0.0
0.0231351699856369,-0.08816158509646996,0.7421319252046009,-0.00406086660694685,-0.5252306354423935,0.00442553975429724,0.8509387190350803,-0.02908572584572828,-0.9390546410285366,0.8731887176789591,0.007614363883859894,-0.8754653113557006,1.0578259634349192,-0.08756441683792443,0.7926242904138213,0.8891055105621809,-0.060836746913425284,0.6101855950407089,1.1657308729113276,0.0,0.0,0.0,0.0
0.02117630594868864,-0.09135534615982203,0.7406962313258132,-0.003449356315577707,-0.5257401475968392,0.003511394331157345,0.8506309830095028,-0.031702932839938164,-0.9290469692453933,0.8755894263222845,0.017969695459097886,-0.877525151796173,1.0521397197729558,-0.07822532551846073,0.7828550938327354,0.8972257163786745,-0.06617376506928346,0.6104400739836818,1.1520405288225668,0.0,0.0,0.0,0.0
0.019068052395315924,-0.09464080217770199,0.7392798816367498,-0.0028941019587368326,-0.5260157098409327,0.0027687274718069628,0.8504654204155387,-0.034967931384882765,-0.9198183972689595,0.8766831641307712,0.028117261923699472,-0.8796178466204506,1.0458372280663564,-0.06366209542753394,0.7706625789862384,0.9043853032172391,-0.06996020991871364,0.6100478440700962,1.1379518358219072,0.0,0.0,0.0,0.0
0.016728983658638532,-0.09810994172065156,0.7379535086299563,-0.002443627176381605,-0.5260495571624829,0.002261107301340805,0.8504473996016157,-0.038481627761274666,-0.9108687356995208,0.8763959479821031,0.038147447943898266,-0.881266108820248,1.0383417863326663,-0.04402339673830956,0.7563658323859308,0.9093472586640776,-0.07268071190233835,0.6087723867604871,1.1234965323647876,0.0,0.0,0.0,0.0
0.014103039223797697,-0.10175290204103755,0.736704143260468,-0.0020495919020084258,-0.5259605758204572,0.0018720578619795863,0.8505044193036329,-0.04190964588245813,-0.9019201022327572,0.8752516537565871,0.04829233023533805,-0.8817781424539698,1.0286505881700814,-0.022127124631482496,0.740948098312608,0.9125145083150666,-0.07505214589801545,0.6069420455071909,1.1087264288398273,0.0,0.0,0.0,0.0
0.011145996822876123,-0.10553573952971794,0.7355012192656736,-0.0016913575438783225,-0.5258108074583753,0.0015427882678979564,0.850598468064686,-0.04527409458710567,-0.8930077042147827,0.8735575687172531,0.05857483981311598,-0.8806603071081015,1.0159406226259764,0.0003964118877669842,0.7247927024692357,0.9144099033739636,-0.07736347040752047,0.6047640021858017,1.0936228578346985,0.0,0.0,0.0,0.0
0.007837665175029608,-0.10940207059634136,0.7343260967805694,-0.0013764870927383058,-0.525618982778032,0.0012658836762746302,0.8507180424589504,-0.04878391705300524,-0.8842467540447259,0.8715067223170638,0.06883742436614607,-0.8775518700740899,0.9996131987109125,0.022755877782085862,0.7080099156731939,0.9153651301778817,-0.07988505208185308,0.6022516220706337,1.0781047029990267,0.0,0.0,0.0,0.0
0.004200162966732226,-0.1132583564249259,0.7331693866082368,-0.0011235722911876462,-0.5253931495099096,0.0010502015576576032,0.85085819800367,-0.05267588410647927,-0.8756715950837868,0.8693736269841494,0.07879555410959824,-0.8722061281145611,0.9793337826261402,0.04429670402748363,0.6907514172003179,0.9156788052796448,-0.08320999068100098,0.5993135002894343,1.0620737302966057,0.0,0.0,0.0,0.0
0.00031706599624242455,-0.11697280803124058,0.7320075418523353,-0.000967003081412696,-0.5251156918061676,0.0009508210813927401,0.8510297709617695,-0.057189465096230054,-0.8672245893109215,0.867482210761998,0.08797262691435297,-0.8647442757480563,0.9553478483218569,0.06468025827941976,0.6730159891926178,0.9157988134296622,-0.08806541100518349,0.5958923607438344,1.0454472964825172,0.0,0.0,0.0,0.0
-0.003681470922436027,-0.12038792838970311,0.7307904576897142,-0.0009056163447010219,-0.5248183651185393,0.0009113620656958232,0.851213271109259,-0.06328081180082654,-0.8587753816452072,0.866268689193659,0.09613762204504309,-0.8554940483677448,0.928222140219466,0.08270755120151815,0.6551467316379319,0.9167901585558371,-0.09702277664996843,0.5919373289744722,1.0279471255243608,0.0,0.0,0.0,0.0
-0.007252737826417421,-0.12337222126292816,0.7294070771337388,-0.00090909119782361,-0.5244441843041912,0.0009213737626477459,0.8514438455782596,-0.07039599623580728,-0.8497810805966488,0.8649279439191008,0.10312354993766354,-0.8477849980470988,0.9034154524172568,0.09791438753081194,0.6378379129861607,0.9197737206264549,-0.11290430798887383,0.5877789994625108,1.0095411060602666,0.0,0.0,0.0,0.0
-0.010119627761498592,-0.12559855271944975,0.7279030038153983,-0.0009449538012949717,-0.5241024716810734,0.0009332475590852105,0.851654175877214,-0.07799200434965972,-0.8419095826473116,0.8641136312120141,0.10829921179832451,-0.8421201269175205,0.8827421084811505,0.10869591480899851,0.6221371488246145,0.9259838605186594,-0.13897364127425002,0.5821919043056014,0.9904210696000509,0.0,0.0,0.0,0.0
-0.011866487516651064,-0.1267845328715834,0.7265015038820454,-0.0009596457897945426,-0.5238821283312495,0.0009192861339703091,0.851789733213592,-0.08384675081000037,-0.8375087778305338,0.8636524344794331,0.11110057153543168,-0.8395562546595479,0.8697062436009304,0.11390852603001858,0.6102401515840575,0.93473588722046,-0.17085028302128225,0.575824793086636,0.9729789384952342,0.0,0.0,0.0,0.0
-0.011873370001479694,-0.12691627290398735,0.7264177427008633,-0.000870631978065793,-0.5238942633972746,0.0009413743610740557,0.8517823410905501,-0.08387432525425545,-0.8375342187552343,0.8636697346616129,0.11129201506587354,-0.8396331195446838,0.8695112048166919,0.11400961382973483,0.6101244860262008,0.9346595239104658,-0.1709006110213709,0.5758550477011792,0.9729598620659422,0.0,0.0,0.0,0.0
-0.011873370001479694,-0.12691627290398735,0.7264177427008633,-0.000870631978065793,-0.5238942633972746,0.0009413743610740557,0.8517823410905501,-0.08387432525425545,-0.8375342187552343,0.8636697346616129,0.11129201506587354,-0.8396331195446838,0.8695112048166919,0.11400961382973483,0.6101244860262008,0.9346595239104658,-0.1709006110213709,0.5758550477011792,0.9729598620659422,0.0,0.0,0.0,0.0
-0.011873370001479694,-0.12691627290398735,0.7264177427008633,-0.000870631978065793,-0.5238942633972746,0.0009413743610740557,0.8517823410905501,-0.08387432525425545,-0.8375342187552343,0.8636697346616129,0.11129201506587354,-0.8396331195446838,0.8695112048166919,0.11400961382973483,0.6101244860262008,0.9346595239104658,-0.1709006110213709,0.5758550477011792,0.9729598620659422,0.0,0.0,0.0,0.0
-0.011068862830047516,-0.12751128669174264,0.7262391088741181,-0.0010010264597641347,-0.5241401394946087,0.0012465969155562426,0.8516305291103232,-0.0832520284752837,-0.8404574689253584,0.8695289044505874,0.11217929589395412,-0.8435778007064714,0.8778247812678496,0.12011187583689632,0.6111272208969465,0.933425525417188,-0.16662342235494718,0.5781483442044535,0.9775711541563573,0.0,0.0,0.0,0.0
-0.009505665862785177,-0.12845419451373094,0.7259593128667372,-0.0009698024757929478,-0.52456052616615,0.001355692967458274,0.8513715264019743,-0.08140067346048559,-0.8457512187818546,0.8810731585286844,0.11458237188379929,-0.8520402388119662,0.8945067248370439,0.1271049830063186,0.614450548925774,0.9320631484890727,-0.16302571355590198,0.5815844298904168,0.9840214673022311,0.0,0.0,0.0,0.0
-0.007198692397708699,-0.1298053591261914,0.7256693056754214,-0.0007710638450409717,-0.5251586283117174,0.0012618938176178086,0.851003071788989,-0.0781207283981098,-0.8527500787454441,0.8975552628339994,0.118677325942649,-0.8644639308231533,0.9189093153587434,0.13533447374525798,0.6206292173946696,0.9292948331154942,-0.15976322335863494,0.5866942594136824,0.991591553488659,0.0,0.0,0.0,0.0
-0.00410122675243179,-0.13177653956300037,0.7257202406551339,-0.0003631153535278975,-0.5259350709950865,0.0009005775181812494,0.850524166737646,-0.07266154291372762,-0.8598823844633353,0.9179545475417344,0.12517213753247566,-0.8801179815313637,0.951047629183765,0.14550492092101414,0.6319429870586574,0.9207172496689506,-0.1560481717514709,0.5953352071537338,0.9976604949729347,0.0,0.0,0.0,0.0
8.815696062921576e-05,-0.13488559592603622,0.7274153821048445,0.00042799655571032995,-0.5270969357129861,-0.00012588930928096302,0.8498050490158376,-0.0625530230251369,-0.8615284020148769,0.9401720418788917,0.136315371815783,-0.8961820262914233,0.9919780384063972,0.15775623334058095,0.6578854990926627,0.8920130478111103,-0.1518188987861893,0.6143361501066225,0.9920463992207821,0.0,0.0,0.0,0.0
0.0034662298143261095,-0.13764593386124385,0.7294978424396209,0.00014504807804773835,-0.5263737461664545,0.0003848211936899347,0.8502532035931395,-0.057073907179205186,-0.8719851846085676,0.9663689660896455,0.12300218527729734,-0.8760503266989735,0.9507009606752719,0.12231782696539636,0.6468237688793355,0.9396689818553108,-0.13135754356797494,0.6349268307419071,0.9800215443492685,0.0,0.0,0.0,0.0
0.006964311128355634,-0.14060458314420418,0.7313353277288545,9.267072067868289e-05,-0.5260313791460681,0.0004873493002067443,0.8504650151866817,-0.04995667593793,-0.8796931682713401,0.9896862919900211,0.10987513446844283,-0.8677539325185795,0.9259292064666416,0.09136888347065351,0.6426990702575778,0.97601057823479,-0.11283675355727182,0.6545601826909865,0.9703259335105128,0.0,0.0,0.0,0.0
0.01034227919177312,-0.1436686333271323,0.7329329132036952,0.00026180803417794014,-0.5259636714333641,0.00030088763381686234,0.8505069413329448,-0.0417675473366021,-0.8844768555961736,1.0089728186508946,0.09878189041076711,-0.8674069682896015,0.912562327378063,0.07065175165323007,0.641113133931457,1.003550841596528,-0.09599427428264434,0.6726984386792051,0.9628655216176465,0.0,0.0,0.0,0.0
0.013398513568495984,-0.1467329052675248,0.7343710965283438,0.00053506348495074,-0.5259963296877098,-7.135463775799791e-07,0.8504866694202889,-0.03321573824716555,-0.8868500340900823,1.0240399610202917,0.09003559435025327,-0.8715063541552205,0.9053531475194665,0.05743056338343709,0.6403045258382333,1.0255136690419873,-0.07959811204469662,0.6893339032412338,0.9567643992335233,0.0,0.0,0.0,0.0
0.016044300459929186,-0.14972057465679006,0.7356933386272645,0.0008347794654764996,-0.5260392753746342,-0.00032722916993751003,0.8504598031815754,-0.024735216692702025,-0.8873178717845001,1.035162156272006,0.08312140936699582,-0.8779581892276002,0.9012820159473254,0.04846762287018058,0.6397308367146147,1.0441265579091503,-0.06310713388961875,0.7044561788824741,0.9515272586654342,0.0,0.0,0.0,0.0
0.01826774159146371,-0.15257913167327677,0.7369228047416869,0.0011218631154543053,-0.5260587344760859,-0.0006372515796701419,0.8504472606899227,-0.016582277127150703,-0.8863068513410652,1.0428371466130086,0.07731421369816446,-0.8855873985076982,0.89866143538521,0.04165036497827221,0.6391708489985455,1.060793158767047,-0.04646357222514268,0.7181075038634408,0.9468793755055047,0.0,0.0,0.0,0.0
0.02010162195040198,-0.15527709100750103,0.7380751417448735,0.0013806507524343635,-0.5260484011654304,-0.0009163001250356584,0.850453016826253,-0.008892774091564453,-0.8841719736497647,1.0476541767671366,0.0719892006661686,-0.8937661692000632,0.8965521605595824,0.03580084125713508,0.6385047544413837,1.076372815096987,-0.02984915721036532,0.7303943208374553,0.9426288569724065,0.0,0.0,0.0,0.0
0.02160034804576211,-0.1578004103681154,0.7391627588948776,0.001607349236217611,-0.5260127049628747,-0.001162759186885297,0.8504743962266859,-0.0017224689134244936,-0.8812108770318089,1.050208636923951,0.06671783952637503,-0.9021807130319498,0.8944407973595172,0.030294680739366614,0.6376679029570985,1.091385908314763,-0.01350699741114697,0.741469267143014,0.9386241255120781,0.0,0.0,0.0,0.0
0.022825053528826415,-0.1601482473864361,0.7401954863949547,0.0018035656612019617,-0.525958477896728,-0.0013803937274567382,0.8505072140744133,0.004924873886761142,-0.8776747147477092,1.0510518204250576,0.061254464426221525,-0.9106916337954951,0.8920554059569724,0.024805879955745246,0.6366390232928305,1.106143209635535,0.002352690153202823,0.7515037585406605,0.9347491693092758,0.0,0.0,0.0,0.0
0.023834974707723555,-0.16232864503801375,0.7411803287783773,0.001973140063890809,-0.525891562718627,-0.0015747499611704207,0.8505478770429142,0.01107722403458786,-0.8737754148169706,1.0506664069760614,0.055485690243534135,-0.919252924162915,0.8892571173907982,0.01917089521010065,0.6354347590264596,1.1208227569747164,0.017585990861565932,0.760664756201115,0.9309262556773651,0.0,0.0,0.0,0.0
0.024683055572743834,-0.16435469315669216,0.7421210022729858,0.0021206972695905517,-0.5258159045067311,-0.0017515165171501641,0.8505939509547132,0.016779365020059202,-0.8696920047837621,1.049459306331678,0.049380961075380966,-0.9278612578226622,0.8859773845001351,0.013320064516429114,0.6341064702715905,1.1355112569727164,0.0321145604821715,0.7690980839109964,0.9271189335800809,0.0,0.0,0.0,0.0
0.02541389684621884,-0.16624143365038194,0.7430171380896025,0.0022509724566154737,-0.5257336109943659,-0.0019157687253014506,0.8506441284250515,0.02208197713045141,-0.865577680713959,1.04776367013547,0.04295823537847343,-0.9365101064525216,0.882188026935268,0.007239089574415488,0.6327372835108797,1.150216520769469,0.04591056675122185,0.776915050033227,0.923337624157799,0.0,0.0,0.0,0.0
0.026062332439006932,-0.16800360227026978,0.7438628921378806,0.002368329693439935,-0.5256451125216051,-0.0020714903334637445,0.8506981342546901,0.027033844334356773,-0.8615672735835519,1.045841376029874,0.03626475085198306,-0.9451258369937969,0.8779025592557589,0.0009385932439041423,0.6314356506978885,1.1648473399685404,0.05898057363345543,0.7841774382644924,0.9196523629167735,0.0,0.0,0.0,0.0
0.026651159110203115,-0.16965426493891325,0.7446448655226312,0.002476042423450163,-0.5255489755195121,-0.0022210036405303692,0.8507568458068011,0.03167660537876649,-0.8577829082343507,1.0438771310617634,0.029365660894517035,-0.9534699704049274,0.8732140776380005,-0.005582727967954999,0.6303227140532455,1.179147667827546,0.07135721843998111,0.7908766968935237,0.9162160711299592,0.0,0.0,0.0,0.0
0.027187244962401984,-0.17120446605252249,0.7453397040156701,0.0025750347994685304,-0.5254412343608741,-0.002364135819555558,0.8508227131964268,0.03604196009165302,-0.8543348982945003,1.0419584505305013,0.022330462959895797,-0.9610118343978067,0.8683736916491505,-0.012391474801292417,0.6295207309467493,1.1925639597259983,0.08310411802361947,0.79690730308164,0.9132965311488447,0.0,0.0,0.0,0.0
0.027657228290564773,-0.17266407922346508,0.7459128805043003,0.002662209958792207,-0.5253145230333375,-0.002497350627989806,0.8509003042473503,0.04015219982248869,-0.8513158156175131,1.0400473247340414,0.015210036967541089,-0.9668219856262175,0.8638946463745362,-0.019689320269969005,0.6291785005198097,1.2040225551170873,0.09433338321142734,0.802046029557748,0.9113006637300515,0.0,0.0,0.0,0.0
0.0280285095850569,-0.17404392725758738,0.746322952950378,0.002729711214014439,-0.5251582237526128,-0.0026140401520947485,0.8509962135613601,0.04402644740666151,-0.848786874593073,1.0379756953636616,0.008012954308919054,-0.969621704901073,0.8606145533862599,-0.027868505494449178,0.6296257058416206,1.2116127728843715,0.10521897333946358,0.8059766729725527,0.9107382579293458,0.0,0.0,0.0,0.0
0.028268430755699323,-0.17535806884791982,0.746541104415572,0.0027698506103220745,-0.5249648199905224,-0.0027102168064085047,0.8511151040986038,0.04769765324460516,-0.8467379172008372,1.0355246167514518,0.0007322323911602363,-0.9682433713553235,0.8595464481873561,-0.037447475993728586,0.6317599589238498,1.2123716389301127,0.11593422607735329,0.8084493791753624,0.9120041196010604,0.0,0.0,0.0,0.0
0.02837223024479965,-0.1766187864497793,0.7465719641724838,0.0027853553121917236,-0.524734295856737,-0.0027880127035621494,0.8512569456589967,0.051201886805856106,-0.8451013549122702,1.0326035776175957,-0.006547202376763468,-0.962684198642202,0.8606653232190322,-0.048410621620918325,0.6355366397119219,1.2062709553733015,0.1265110855256702,0.8094641990330776,0.9151016018882758,0.0,0.0,0.0,0.0
0.028363223779112618,-0.17784044571812727,0.746454991841689,0.002788640068051622,-0.5244716913672332,-0.002855064821931602,0.8514185322424143,0.05458745357522143,-0.8437527086117956,1.0292468651280904,-0.013660380978145367,-0.9541166338502746,0.8629401467209866,-0.06023342682192142,0.639998253905173,1.196211143828252,0.13688659443185064,0.8092803280001125,0.9196362785773748,0.0,0.0,0.0,0.0
0.02826399025643298,-0.17904762613764316,0.746245753723043,0.0027914052622224875,-0.5241813664959257,-0.0029210234855833535,0.851597070624907,0.057933154000512896,-0.8424837661787752,1.0254149624489028,-0.02048456557119087,-0.9438227996538232,0.8655322587884688,-0.07251386591508045,0.6447749041292852,1.184040342156665,0.14707148909674458,0.8082388740542739,0.925080480254518,0.0,0.0,0.0,0.0
0.02807611636485007,-0.1802730544115804,0.7459975605613762,0.002800148431125449,-0.5238617190384466,-0.00299218201748025,0.8517934640167307,0.06133119238666,-0.841027114422436,1.02089695965334,-0.026961297331000028,-0.9327287589540593,0.8679300784859287,-0.08500903684114153,0.6496811701785636,1.1707709212638797,0.15719404236244913,0.8065998338131244,0.9309853793758159,0.0,0.0,0.0,0.0
0.027778632921384373,-0.1815556908827451,0.7457575780977796,0.002816745919353548,-0.5235053641934487,-0.003070945664063896,0.8520121882319751,0.06487985821322143,-0.8390648362277775,1.0153069612908674,-0.03306512592405636,-0.921363197030178,0.8698864483004585,-0.0975865171304854,0.654555656797242,1.1568986752726527,0.16747133376413612,0.8045118275255277,0.9370158032735361,0.0,0.0,0.0,0.0
0.0273324661030631,-0.18294001747923405,0.7455678557255255,0.0028393849374890867,-0.5230995433749533,-0.003156022027752232,0.8522610193708571,0.06868113136998759,-0.8362389923914374,1.0081140402947035,-0.03878628489044992,-0.9099743034614799,0.871312592222103,-0.11018283117685018,0.6592290973001467,1.1426327424627483,0.1781844152051208,0.8020286040824521,0.9429254694057768,0.0,0.0,0.0,0.0
0.026685561359998403,-0.18447531615382068,0.7454667545572479,0.002862601109662334,-0.522626135137466,-0.003242114126674194,0.85255100556046,0.07283756431095172,-0.8321663621933388,0.9986775361910941,-0.044140280973851684,-0.8986634275892238,0.8721932280470855,-0.12279060233223847,0.6635270809521667,1.1280417515289842,0.18966303812729998,0.799132053284327,0.9485249214515886,0.0,0.0,0.0,0.0
0.025778050812162192,-0.18621314326793317,0.7454885790255639,0.0028762381436693097,-0.5220614196109727,-0.003318604574275268,0.8528965870910707,0.0774427434573682,-0.8264665866402047,0.9862921711572346,-0.049192892036095975,-0.8874785534580547,0.8725383227966698,-0.13547874753484093,0.6672759625394167,1.1131438150375856,0.20226802922046394,0.7957481409876143,0.9536601285464985,0.0,0.0,0.0,0.0
0.02454904686288724,-0.18820080013493762,0.7456599830704081,0.002863431825748541,-0.5213758338600436,-0.0033669140039923992,0.853315712098994,0.0825594960711694,-0.8188205259064089,0.9702678422378919,-0.05407854147711737,-0.8764515971071667,0.8723654796550461,-0.1484547880514553,0.6703160716236665,1.097970957937237,0.21635552059082558,0.7917536103381706,0.9582069969582027,0.0,0.0,0.0,0.0
0.022947716732074668,-0.1904679244213263,0.745991731265594,0.0027976443415471714,-0.520533740723146,-0.003356147479326911,0.8538299211371102,0.08817914205435423,-0.8090865563500926,0.9500887127391183,-0.05898289238178218,-0.8655783905171668,0.8716995939027151,-0.16220145775467162,0.6725496220101908,1.082639379447489,0.23220907830488527,0.7869754329807619,0.9620851043138697,0.0,0.0,0.0,0.0
0.02095227280312778,-0.1930022445930687,0.746463707882573,0.002638175373973016,-0.519492312338155,-0.0032361186904562053,0.8544649232052035,0.09415308632702107,-0.7975268398290762,0.9257325634824877,-0.06405839851630381,-0.8547468657849053,0.8705675339203999,-0.1777845744642953,0.6740825137080804,1.067460575960446,0.24993714112515672,0.7811857040540033,0.9652999733561185,0.0,0.0,0.0,0.0
0.018602428495488186,-0.19570862105902037,0.7469992587369602,0.002320648154312606,-0.5181937447704812,-0.0029232696954295395,0.8552551151365171,0.10007901877035202,-0.7852717542807511,0.898329233393404,-0.06927454340077105,-0.8436215251948319,0.8689066236119908,-0.1975984440444766,0.6755968467086967,1.0530934577295559,0.2693786144027723,0.7740909501144914,0.9680343336227198,0.0,0.0,0.0,0.0
0.01605484501211618,-0.1983397021445226,0.7474210493739867,0.001719919439025309,-0.516490207502932,-0.00222037414709315,0.8562884895695775,0.10499254280464816,-0.7756812778605721,0.8718800517466115,-0.07458752903782624,-0.831332849970582,0.8656883270252691,-0.22688119636592086,0.6791894854424089,1.0401702651771088,0.29046076173767416,0.7652749985524238,0.970757281339975,0.0,0.0,0.0,0.0
0.013509599642015896,-0.20068324462235052,0.7475029053334842,0.0007001641135650848,-0.5141993396392309,-0.0009593548228870724,0.8576698831853178,0.10815943805395907,-0.7728286612658231,0.8514547826164963,-0.08145329840685792,-0.8176570211505924,0.8594976921373948,-0.2738543279226523,0.686839633092998,1.0296942197280798,0.31316933138638126,0.7540508425528524,0.9743877468159077,0.0,0.0,0.0,0.0
0.011196190497487829,-0.20255449929158278,0.746902476868043,-0.0007354819236583579,-0.5112479127381233,0.0008676571899813265,0.859432532522625,0.10921902766979336,-0.7802819765723156,0.841819320821836,-0.09245302915818457,-0.8037161429737308,0.847810622059759,-0.3421281629439713,0.6980718446024132,1.0228542480913798,0.3359458142402083,0.7391264044238269,0.9811688399342704,0.0,0.0,0.0,0.0
0.009368799873857154,-0.20372585125276627,0.7453735279588418,-0.0021449694966497253,-0.5080056952013581,0.002864140212663457,0.8613462773180631,0.10828881654472572,-0.7973360212109756,0.8438999833500874,-0.10720938435554347,-0.7922160631140338,0.8275961947899296,-0.4110199862012426,0.7057782977931147,1.0213637608742283,0.3529282957436298,0.7200425573234714,0.9932132144963463,0.0,0.0,0.0,0.0
0.009451287963246,-0.20389425802298064,0.745327374512412,-0.00211299791164696,-0.5079669529647347,0.002943077673358023,0.8613689385097172,0.1084462016213315,-0.7974339827850356,0.8437611264634064,-0.10725597062917938,-0.7922105233766021,0.8276008635785578,-0.4110527153160892,0.7057903064631649,1.0213686173920073,0.3529913678314182,0.7199292009205149,0.993084937878092,0.0,0.0,0.0,0.0
0.009451287963246,-0.20389425802298064,0.745327374512412,-0.00211299791164696,-0.5079669529647347,0.002943077673358023,0.8613689385097172,0.1084462016213315,-0.7974339827850356,0.8437611264634064,-0.10725597062917938,-0.7922105233766021,0.8276008635785578,-0.4110527153160892,0.7057903064631649,1.0213686173920073,0.3529913678314182,0.7199292009205149,0.993084937878092,0.0,0.0,0.0,0.0
0.009516504286880525,-0.20464812837446666,0.7457241335362632,-0.0017575383854323483,-0.5097897928825491,0.0022504456754213,0.8602942599052102,0.11146266386513905,-0.7814480703870482,0.8277795780629293,-0.10322105839391522,-0.7849779306500938,0.8224901957639486,-0.42146523898054294,0.7164626995786427,1.0205833286258528,0.3576697256330804,0.7272849600031109,0.9945651856937813,0.0,0.0,0.0,0.0
0.009926346038774132,-0.2058523633442233,0.7458349818669316,-0.001477422735151872,-0.5108398856548036,0.001768700974996631,0.8596727866712485,0.11535559128452648,-0.7716703548815497,0.8180528269158616,-0.09894121016644909,-0.7857899087105745,0.8275734602961201,-0.4245910231494403,0.7234769596055671,1.0193387999280494,0.3666913292171025,0.7327888120793511,0.9979385400799957,0.0,0.0,0.0,0.0
0.010801509691677452,-0.20749411788024577,0.745727256623148,-0.0011687034175633206,-0.5114908561158833,0.001326746727911879,0.8592869008574974,0.12043437124499866,-0.7659777948385762,0.8135109043633962,-0.09392093561496329,-0.7933798494450942,0.8422216811760274,-0.42384839227698684,0.729338266444991,1.017866587293687,0.3797696756799104,0.7381294851986331,1.003110443274161,0.0,0.0,0.0,0.0
0.012198721797095786,-0.20959810831935727,0.7454328308469292,-0.0007377286176049208,-0.5121379538724093,0.0007374297685521673,0.8589025719819477,0.1271220887316248,-0.7615861787152627,0.8117704731856911,-0.08752451083194873,-0.8059908069559781,0.8647721171980425,-0.42325421510103406,0.7365633166043567,1.0166653401910888,0.39716243015061886,0.7448499550262454,1.0104634772100662,0.0,0.0,0.0,0.0
0.014133821682339258,-0.2122532068984609,0.7449738676857776,-0.0002192154306410856,-0.513495960837488,-0.00015643760316044918,0.8580919680753668,0.13589479228132983,-0.7536348678187804,0.8078965191172967,-0.07887472201805769,-0.8196131848240935,0.8911909879982642,-0.4272803773503205,0.7487759011012142,1.016890218709586,0.4231309948138303,0.7562810203156937,1.0213001147065275,0.0,0.0,0.0,0.0
0.01575007079618971,-0.21512480500834721,0.7459870577058311,-0.001617276555504297,-0.5146744807667598,0.0021008020678493465,0.8573815661038444,0.1203947434663631,-0.7736337400587637,0.8332387584841916,-0.0767020723348252,-0.8190071788211842,0.9059290313595181,-0.3835097389861981,0.7545043244242805,1.0015369438971102,0.33495955671662786,0.7281306587475103,1.0281226102402534,0.0,0.0,0.0,0.0
0.01751059080303951,-0.2182002074571647,0.7464394176693333,-0.0027144716383059085,-0.5161924668180903,0.0037001374248184678,0.8564603188864135,0.10678704952501122,-0.7915466161389473,0.8477046972629433,-0.07238249026411615,-0.8210576303745919,0.922979624025005,-0.3468020565528106,0.760904397382904,0.9907804595989498,0.2572313836512311,0.7059299129381229,1.0364705966511871,0.0,0.0,0.0,0.0
0.019394260559811236,-0.22128697118361432,0.7465262062947176,-0.0032147857812228437,-0.5176857173626396,0.004345517020217412,0.8555537853770135,0.0975357406058069,-0.8075527816053817,0.8566602970602128,-0.06589098122018912,-0.8275327087503686,0.9437106545398005,-0.3213210885744732,0.7687457146832799,0.9829169644507167,0.2057868202638424,0.6930535953441376,1.0471522883367204,0.0,0.0,0.0,0.0
0.02113139292062053,-0.22419601034173253,0.7464497955415849,-0.0033899235536444475,-0.5189772368825999,0.004527410636469159,0.8547693481688092,0.09132160614854724,-0.8220654203647026,0.8622795242192526,-0.05881982227503231,-0.8355240415623153,0.9641597134076522,-0.30147657665783856,0.7760789226425253,0.9765267169722442,0.17270613475436264,0.6855024715277049,1.0597555841030737,0.0,0.0,0.0,0.0
0.022582818741998502,-0.22684333999586972,0.7463445777848468,-0.0034343001906643844,-0.520031628563052,0.004539943281416182,0.8541280347765561,0.086689244009454,-0.8353245234725433,0.8656944895683324,-0.052015936480149176,-0.8431431090152011,0.9821136959424489,-0.2840053320914558,0.7820264973873005,0.970710735887383,0.15009213046876665,0.680319116433892,1.0734288997343298,0.0,0.0,0.0,0.0
0.023716426113909256,-0.22921597027084137,0.7462771412688366,-0.0034643909406904343,-0.520831326903323,0.004564874934419821,0.8536403744132345,0.08258236510409689,-0.847777869911709,0.8674873992173376,-0.04592769519344685,-0.8497177933715262,0.997050681534396,-0.26670157710500236,0.786084896949104,0.9649281860354627,0.13324262274561355,0.6757571513644272,1.087561971788814,0.0,0.0,0.0,0.0
0.024579313494259736,-0.23130021756401425,0.7462750960113163,-0.0034840214277484915,-0.5214929741256527,0.0045728586171066565,0.8532362090865228,0.07846516864122872,-0.8596904060800817,0.8684349765699457,-0.040510765099413225,-0.8548387468465118,1.0089129894143052,-0.25084777328283636,0.7891996774884869,0.9592437854011416,0.11921993168117008,0.6714062517838112,1.1019045431648162,0.0,0.0,0.0,0.0
0.025273157046160698,-0.233052477903531,0.746382142019248,-0.0033614261836623404,-0.5223420093875688,0.004264330978192565,0.8527187939316673,0.07456491118954006,-0.8704227381755777,0.8696582644546891,-0.035142265431675396,-0.857664693435301,1.0173502926647657,-0.24235294968575433,0.7945224530251357,0.9541314475821802,0.10498895204225547,0.6679382137808636,1.1164069821245681,0.0,0.0,0.0,0.0
0.025716665833155423,-0.23474556948332287,0.7465402501895703,-0.0034585233974643655,-0.5227049657154016,0.004407692729418217,0.8524952373340118,0.069482690805415,-0.8819193356926376,0.8689162386191039,-0.031031442343292366,-0.8606537253146875,1.0249196461058032,-0.22587238402143825,0.7954609779702766,0.9477159373482636,0.09322426116843269,0.6627643398463868,1.1305645795996315,0.0,0.0,0.0,0.0
0.026045313198633773,-0.23627154185071236,0.7467691458439428,-0.003532533585794918,-0.523070452553727,0.004487252578376059,0.8522703135954005,0.06409058655595745,-0.8930850580880931,0.8678306665452152,-0.0271824244415475,-0.8626087501837768,1.0308190246994196,-0.21163264185363553,0.7967961392540883,0.9412082121644868,0.08124885458531475,0.6575140294170753,1.1446250506102564,0.0,0.0,0.0,0.0
0.026314433764698712,-0.2376339149829895,0.747034108221942,-0.00354170127135751,-0.5235198150400499,0.004422866015991133,0.8519946583569294,0.05852675271301072,-0.904035782386566,0.8667321602282846,-0.02340247820018165,-0.8636370895165151,1.0353373272885684,-0.2010102263422086,0.7992013235616698,0.9351014739322683,0.06870463481583625,0.652496287146471,1.1586630107454103,0.0,0.0,0.0,0.0
0.026529479516724838,-0.2389085791457494,0.7473048768584847,-0.0035551899334332155,-0.5239275000296778,0.004362441598253695,0.8517442717391711,0.052586146441831585,-0.9151811710802753,0.8651772418935685,-0.01986303690539839,-0.8643978269638973,1.039231682069498,-0.19088613954661135,0.8013736852863182,0.9291339638193563,0.056240489478873244,0.6473113145351307,1.1725592931589184,0.0,0.0,0.0,0.0
0.026703695093768073,-0.24013441776264785,0.7475645150688633,-0.0035775435151142745,-0.5242850770529282,0.004319089831910017,0.85152434176894,0.04631570082168389,-0.9264325779847808,0.8631122581062137,-0.01649607495184492,-0.8651181868189698,1.042807052233858,-0.18078174935178187,0.8031621266976549,0.923315476271642,0.04387751166376292,0.6419624354417747,1.1861862878039893,0.0,0.0,0.0,0.0
0.026846635302686953,-0.24133013071436862,0.7477926055284967,-0.003581331967945503,-0.5246353818397174,0.004241975651812512,0.8513089308974732,0.03985570248285299,-0.9373968566708639,0.8607419423328254,-0.013131648986358154,-0.8658328777665947,1.0461145059031196,-0.17139514584675972,0.8048547718373517,0.9179048546915857,0.03141034768722432,0.636646213676072,1.1993032506896568,0.0,0.0,0.0,0.0
0.026942310993480382,-0.24253418687938189,0.7479582379500096,-0.003571965161632375,-0.5249592858541957,0.004147261462629623,0.8511097399764013,0.033200948193349795,-0.9475573568485464,0.858234248899512,-0.009710962693166033,-0.8667325757313314,1.0492665804996923,-0.16212401565666035,0.8060655569270885,0.9130754341893582,0.019048336625960595,0.6313872300463456,1.2113499807388466,0.0,0.0,0.0,0.0
0.0269539044297348,-0.24379087301852392,0.748020364786224,-0.0035649819895213044,-0.5252175768189716,0.004071946722052232,0.850950766586243,0.02630430187886961,-0.956072160026947,0.8559534244266344,-0.006209211150585895,-0.8680287021847158,1.05229719304439,-0.15200493494548623,0.8061291255409719,0.9090568545775528,0.007251068935511326,0.6262297633456094,1.2212514048277878,0.0,0.0,0.0,0.0
0.026841065084309314,-0.24511611398636887,0.7479344945490444,-0.0035297209679640692,-0.5254463430756378,0.003963526772840365,0.8508101856899978,0.019344186838028944,-0.9615617894931495,0.8547881647325718,-0.002462071251668178,-0.8696486052333863,1.0548839763110363,-0.14174496065368616,0.805022900646057,0.9064259126472028,-0.003791737013244702,0.6216917902130533,1.2271597005051786,0.0,0.0,0.0,0.0
0.026557091347680025,-0.24653097686727463,0.7476634880776867,-0.0034557943258407726,-0.5256477676209858,0.003813700101646022,0.8506867446787838,0.012445857189197176,-0.962882771487063,0.8556366299089777,0.001600312591865256,-0.871565613346321,1.056751953520209,-0.13131811906146598,0.8024303022595082,0.905578227480565,-0.013463400777515492,0.6188254457023115,1.226196919685335,0.0,0.0,0.0,0.0
0.026078681930996894,-0.24805718788258224,0.7472032860059685,-0.003332310474114388,-0.5258327545582744,0.003606063365946738,0.8505738099939137,0.005737590565559584,-0.9599807586632793,0.8584774333922002,0.006071873605378407,-0.873704510595695,1.0577353930295086,-0.1208006940626582,0.798343657387922,0.9065490238555575,-0.021798579687854168,0.6176683007465755,1.2183906300540377,0.0,0.0,0.0,0.0
0.025398202483330815,-0.24973499715348985,0.7465777469022207,-0.0031800966857696194,-0.525969014435885,0.003378934039016043,0.8504910732295625,-0.0008388087929866355,-0.954090758843348,0.8622528861365661,0.010968361539422423,-0.8761126790582273,1.0579366469844493,-0.10929838304870902,0.792569390741407,0.9088571962486064,-0.029087611173447263,0.6171184807934246,1.2066391568222563,0.0,0.0,0.0,0.0
0.02451778718355861,-0.25157957163636857,0.7458259602601051,-0.0029767631851754938,-0.526095681642314,0.0030881601549397285,0.8504145670819061,-0.00714213239462333,-0.9463497427411711,0.866238489536908,0.01643457946707938,-0.878551797623641,1.0571980063600876,-0.09738493236515428,0.7856390355815337,0.9121299507727699,-0.03593127281514806,0.616840386618108,1.1928512341861202,0.0,0.0,0.0,0.0
0.023414906647849315,-0.2536234068994371,0.7449825503881592,-0.002727321253476216,-0.5262052964954128,0.002745609648535286,0.8503487574440342,-0.013124934088807806,-0.9376848291047664,0.8698529880074771,0.02252422780242331,-0.8808557551302407,1.0553482871005255,-0.08465955464311123,0.7775816518925777,0.9158784965324441,-0.04239397025242675,0.6166225243237299,1.1780851598836082,0.0,0.0,0.0,0.0
0.02204822590831466,-0.25590838281185224,0.7440782718768468,-0.0024493807626066243,-0.5262710492697218,0.002387928923354301,0.850309991138457,-0.01876291705163075,-0.9286557338076618,0.87269691615108,0.029252928024719904,-0.8828545179511329,1.05213602702056,-0.07037799681673816,0.76820099087746,0.9195786841165221,-0.04830548374423609,0.6162676391073463,1.1628652672663722,0.0,0.0,0.0,0.0
0.02036971781044247,-0.25846894855535174,0.7431375560613368,-0.002156949408589806,-0.5262751149421183,0.0020426001308124966,0.8503091665662641,-0.024023811255185937,-0.9195199250610605,0.8745762230187705,0.0366338746556028,-0.8843096333233768,1.047185044000187,-0.054111927927663006,0.7573621817329997,0.9228093611759844,-0.05351691504830002,0.6156295238248559,1.147419560221396,0.0,0.0,0.0,0.0
0.018333512629281644,-0.2613211406863058,0.7421769512466588,-0.001858851736816323,-0.5262133037877089,0.0017227632168911463,0.8503488317590279,-0.028896876584758827,-0.9103815970138017,0.8754549378296096,0.044660807811187794,-0.884913083403391,1.040013010154539,-0.0358823542896636,0.7450560423379579,0.9252999248342139,-0.057979659811206806,0.6146250142303992,1.1318200189267742,0.0,0.0,0.0,0.0
0.01590231080116436,-0.264455950631575,0.7412067597220101,-0.0015635796639312952,-0.5260894495861729,0.0014349872281825577,0.8504265912260782,-0.03343203120353383,-0.9013099796046166,0.87539826202082,0.05327243205817914,-0.8843075623017393,1.0300741914999396,-0.016045461714131664,0.7313707133263818,0.926908954237876,-0.06175631468648853,0.613213428281818,1.1160538670216433,0.0,0.0,0.0,0.0
0.013054141049376581,-0.26783341914344067,0.7402344812934402,-0.0012831300306767118,-0.5259109155667969,0.001185532623745564,0.8505378633414363,-0.03776263487404219,-0.8923920051059134,0.8745520786834945,0.062323709615130535,-0.8821072535347815,1.0168085206392141,0.004820696322330443,0.7164729784867022,0.9275939089056747,-0.06504267191334925,0.6113675762073766,1.1000578486886723,0.0,0.0,0.0,0.0
0.009792035060055911,-0.2713768190561135,0.7392673953766554,-0.001033750558681578,-0.5256876713799317,0.0009814682473380679,0.8506764603766855,-0.042102869122646214,-0.8837231371590317,0.8731669729466296,0.07157208695665837,-0.8779332253672716,0.9997168721027019,0.025973264122225295,0.7006157721548312,0.9274087395643651,-0.06822784268012225,0.6090503321373318,1.0837404197009821,0.0,0.0,0.0,0.0
0.006159073745322423,-0.2749692833156192,0.7383106751579753,-0.0008346529256316816,-0.5254316397115304,0.000830310658661482,0.850835005114832,-0.04670404549321204,-0.8753422162406418,0.8716349258998414,0.08067764692826733,-0.8715061873951413,0.9785147936929486,0.04656345339521524,0.68413472383689,0.9265474275743685,-0.07199044485712751,0.6062068693838738,1.0670107043352137,0.0,0.0,0.0,0.0
0.0022586298833861367,-0.2784596242292221,0.7373500472866392,-0.0007159677377845046,-0.5251350148513629,0.0007739242491859187,0.8510182751319233,-0.05183157423224799,-0.8671974651367182,0.8704224509594513,0.08914878881257782,-0.8629225158324666,0.9534928476276544,0.06601247479727854,0.6672187673969137,0.9254312028492523,-0.0771303620143725,0.6028422893657496,1.049812432529964,0.0,0.0,0.0,0.0
-0.0017508620491564946,-0.2816787896230174,0.736333712490679,-0.0006795581763361425,-0.5248188271884346,0.0007723235299614631,0.8512133342151108,-0.05831286562455652,-0.8591195199744147,0.870020049108224,0.09668956209603033,-0.8526612599133744,0.9254769966325416,0.08319590112600682,0.6502176821077276,0.9251055191603546,-0.08588626795088188,0.5990523337318258,1.0319231882865825,0.0,0.0,0.0,0.0
-0.005327184518799086,-0.28449324660166614,0.735161205650514,-0.0006895938836427822,-0.524442475207202,0.0007938081399982835,0.8514452328408773,-0.06572133139552835,-0.8505567585665585,0.8698059634877059,0.1031815703225225,-0.8439465193157504,0.8998401467472488,0.09750143637583362,0.6339746779804222,0.9266540327426004,-0.1009657447138205,0.5952572926062053,1.0133561151881492,0.0,0.0,0.0,0.0
-0.008186466217170507,-0.28658731349777505,0.7338841365736722,-0.0007125419134172537,-0.5241133564152172,0.0007909004900305894,0.8516478476386892,-0.07354492113697626,-0.843202029872836,0.8706463100771604,0.10802100335202462,-0.8373305811221519,0.8785094037198193,0.10740089723644528,0.6195746477729783,0.9312103332591248,-0.12540109218932183,0.5903126752088586,0.994343055334033,0.0,0.0,0.0,0.0
-0.009911003435201899,-0.2876990836706155,0.7326961785269265,-0.0007036810589679497,-0.5239080323368945,0.0007493907236970551,0.8517742170900654,-0.07957659153143433,-0.8394297018179179,0.8723855961284046,0.11067006465564669,-0.8340680898208398,0.8651804916471717,0.11196148541416456,0.6089881041130537,0.9382620649666643,-0.15520375582872584,0.5847986123889811,0.9771330177677264,0.0,0.0,0.0,0.0
-0.009919487826781459,-0.2878300425100339,0.7326168306650859,-0.0006172578908673201,-0.5239168659550524,0.0007709098242560669,0.8517688314669507,-0.07959187355371235,-0.8394548560760245,0.8723939447964542,0.11086139937367492,-0.8341497768405309,0.8649897333760133,0.11198656204949205,0.6089009287403808,0.938178006273631,-0.15522558164967784,0.5848284200143794,0.9771390427723442,0.0,0.0,0.0,0.0
-0.009919487826781459,-0.2878300425100339,0.7326168306650859,-0.0006172578908673201,-0.5239168659550524,0.0007709098242560669,0.8517688314669507,-0.07959187355371235,-0.8394548560760245,0.8723939447964542,0.11086139937367492,-0.8341497768405309,0.8649897333760133,0.11198656204949205,0.6089009287403808,0.938178006273631,-0.15522558164967784,0.5848284200143794,0.9771390427723442,0.0,0.0,0.0,0.0
-0.009919487826781459,-0.2878300425100339,0.7326168306650859,-0.00061725789086732,-0.5239168659550522,0.0007709098242560667,0.8517688314669508,-0.07959187355371235,-0.8394548560760245,0.8723939447964542,0.11086139937367492,-0.8341497768405309,0.8649897333760133,0.11198656204949205,0.6089009287403808,0.938178006273631,-0.15522558164967784,0.5848284200143794,0.9771390427723442,0.0,0.0,0.0,0.0
-0.00912580124747619,-0.28838407000573774,0.7324493733071427,-0.0007635431585883019,-0.5241517964814766,0.0010906813735952871,0.8516238146395549,-0.07909524487404504,-0.8424212814437247,0.8782630118481585,0.11161147989512354,-0.83798351531388,0.8731483760677436,0.11801443443763308,0.6098503072952941,0.9369865984437804,-0.1507632912306636,0.5873136299545338,0.9813787986655167,0.0,0.0,0.0,0.0
-0.007581157322733977,-0.2892500376106381,0.7321831202047209,-0.0007406224538503111,-0.5245677935461159,0.001205995213150872,0.8513675040944928,-0.07743479174347637,-0.8476630831460858,0.8897043678569627,0.11379428813659015,-0.8462118839160105,0.8895096207080376,0.12463449135613322,0.6131581233384586,0.9358156340713103,-0.1471964187813802,0.5909843363946383,0.9872448050259305,0.0,0.0,0.0,0.0
-0.005301875779407219,-0.29049226657749944,0.7319051218483317,-0.000544257182415737,-0.5251669055811845,0.0011121045443511946,0.8509983479948037,-0.074407964441169,-0.8545311273217774,0.9059739072324388,0.11758871757826342,-0.8583010826572988,0.9134448704654504,0.1322290186153314,0.6193238084165098,0.9334207227328514,-0.14414483592475844,0.5963415831003903,0.9940782059920206,0.0,0.0,0.0,0.0
-0.0022461898948052217,-0.2923252616706789,0.731953466826161,-0.00013220475704856156,-0.5259478155346915,0.0007400708260331745,0.8505165078652858,-0.0692495709526559,-0.8614706124922014,0.9260245911406342,0.12371637416210497,-0.8735639744173468,0.9449711372174617,0.14148163104253508,0.6305430578194929,0.9255467759104041,-0.14083734232471837,0.6051369802989168,0.9993739755305302,0.0,0.0,0.0,0.0
0.0018700529748934005,-0.2952516040540505,0.7335730873170301,0.000670902250232129,-0.5271183920549244,-0.0003013391407170754,0.849791539050798,-0.0595590174281512,-0.8629591685877435,0.9476770361668646,0.13435871193827792,-0.8892439284459402,0.9850047802871992,0.152457739616596,0.6558989398433763,0.8986027837445352,-0.13733042566885315,0.6238575574556835,0.9933915720999351,0.0,0.0,0.0,0.0
0.005219751431910748,-0.29784248705907646,0.7355523462661977,0.00037845455992351415,-0.5263827817259644,0.0001963596742391033,0.8502476023591364,-0.05445619356443721,-0.8737973146306967,0.9740089557715099,0.12114343462249112,-0.8706998762573855,0.9459184475433476,0.11743626745281904,0.6456271448769607,0.9445408062876317,-0.11733537168450256,0.6440128198948786,0.9812897485407187,0.0,0.0,0.0,0.0
0.008658745395572902,-0.3006372852648505,0.7373105493143014,0.0003264135817083266,-0.5260374973072656,0.00028093964879132314,0.8504612665805515,-0.04769319787994181,-0.8815889409389883,0.9970827096566296,0.10794023901666659,-0.8634575861601264,0.9224483649765567,0.08675490574584788,0.6418503048006575,0.9798789229432366,-0.09936622555415878,0.6632490351582873,0.9714038885834562,0.0,0.0,0.0,0.0
0.01195772792363027,-0.3035448087426672,0.7388488601221184,0.0004970419684831173,-0.5259669527773985,8.059042516009943e-05,0.8505048565649246,-0.03985497356324526,-0.8863288790348977,1.0159667649172421,0.09669050726680815,-0.8637449975699631,0.9097436684928152,0.06606936728811937,0.6403881321805844,1.006880981085772,-0.08306738449806385,0.6810286326126807,0.9636720350463429,0.0,0.0,0.0,0.0
0.014925819274684738,-0.30646512659907854,0.7402413329438285,0.0007696010713489226,-0.5259932089330268,-0.00023084175752861324,0.8504883882702993,-0.03163633192652947,-0.8886261237485383,1.0305970120846175,0.0877535515296981,-0.868208426215891,0.9028243286071219,0.05270570774882358,0.6395839976025904,1.0285771885632495,-0.06715840069049216,0.6973205194131626,0.9572828264237646,0.0,0.0,0.0,0.0
0.017481062516007038,-0.3093245236160893,0.7415285623101097,0.0010660688052829027,-0.5260258302861248,-0.0005634357114148365,0.8504677371360388,-0.023461430235793744,-0.8890172345687465,1.0412944843066592,0.0806464711156478,-0.8748531168245667,0.8988305710820784,0.043513023358487696,0.6389414967098328,1.0470706187190562,-0.05107725476651393,0.7121133002117337,0.9517685901093512,0.0,0.0,0.0,0.0
0.019615947567277046,-0.3120716014454448,0.7427322001999129,0.0013482537638293088,-0.5260321180639352,-0.0008768479858394927,0.8504631821040627,-0.01558011660473703,-0.8879331687392777,1.0485710251946423,0.07466283181177452,-0.8825679976326497,0.8961695293654306,0.03644066797686182,0.6382662150490228,1.0636920722081342,-0.034768247675087266,0.7254553158071276,0.946861223977557,0.0,0.0,0.0,0.0
0.02136609563935407,-0.31467458052906067,0.743866584646941,0.0016015343951286776,-0.5260071618346877,-0.0011576775494472511,0.850477842491437,-0.008125657813959122,-0.8857259233776823,1.053018554635184,0.06918642672198154,-0.8907666695139645,0.8939590836828102,0.030345548106874655,0.6374573155425267,1.0792604778093886,-0.01842459496340751,0.7374590977091358,0.9423682939256103,0.0,0.0,0.0,0.0
0.022787580518167455,-0.31711822013136326,0.7449427125112201,0.001822912801662806,-0.5259565142972704,-0.0014051609709554212,0.8505083465668214,-0.0011543557209128018,-0.882690480948983,1.055232095665337,0.06379107992712861,-0.8991619787145072,0.8917202160009849,0.024619229302965617,0.6364636441438242,1.0942747481855402,-0.0023026339256539165,0.7482804484957223,0.9381365073993134,0.0,0.0,0.0,0.0
0.02394229671626962,-0.31939996655154534,0.7459689655385101,0.0020144857969489173,-0.5258877017265399,-0.0016236559588855318,0.8505500753989026,0.005327376519313036,-0.8790774891609638,1.0557621087960805,0.0582301051771563,-0.9076313531674381,0.8892011735890228,0.01894078164934,0.6352726829010702,1.109034750163431,0.01337557075050948,0.7580908103983006,0.9340486493216423,0.0,0.0,0.0,0.0
0.024889573560894114,-0.3215259364313829,0.7469510084208866,0.002180334731833707,-0.5258068981406692,-0.001819079974600744,0.850599225814479,0.01134367865492914,-0.8751000010745023,1.0550903674808558,0.05238751364254203,-0.9161391864041692,0.8862744104839609,0.013146267502820368,0.6339060484324813,1.1237133294367905,0.028456369736263917,0.7670549238778804,0.930026309364174,0.0,0.0,0.0,0.0
0.02568200126865046,-0.323507294523831,0.7478914320058938,0.002325162027049047,-0.5257181483835885,-0.0019973320937598537,0.8506532976167119,0.016935061406250413,-0.8709387763719291,1.0536226047870383,0.046229573367189566,-0.9246885113516058,0.8828772111741975,0.0071631725899699815,0.6324174830594231,1.1383950064186843,0.042853555675923555,0.7753152143611514,0.9260325004051699,0.0,0.0,0.0,0.0
0.02636356734214191,-0.32535730694732756,0.7487890091525007,0.0024536928114765304,-0.5256235456337639,-0.0021635982459610368,0.8507109888261745,0.022148032527364404,-0.8667485045552927,1.0516903063308152,0.0397710467179387,-0.9332767714780019,0.8789838113263425,0.0009733038787481706,0.6308910137091822,1.1530868853118184,0.056532878338542925,0.7829793040360333,0.9220769007810882,0.0,0.0,0.0,0.0
0.026968372927190214,-0.32708917943827354,0.7496373240003193,0.0025702414974591472,-0.5255234609059954,-0.002321914328202952,0.8507720579625789,0.02702766219131387,-0.862664793779406,1.0495531137198542,0.033056306073290694,-0.941833042634318,0.8746079025668388,-0.005417202307422629,0.6294353307851493,1.1676975774832428,0.06949576270026367,0.7901056460553734,0.9182283502094171,0.0,0.0,0.0,0.0
0.02751845418637268,-0.32871475091309815,0.7504226977167301,0.0026780002341211407,-0.5254163700087939,-0.0024746024963760503,0.850837436167458,0.03161251667926351,-0.8588097708572268,1.0473930646818934,0.026148275854745565,-0.9501210187115159,0.8698410376275347,-0.012014781435622329,0.6281716305428192,1.1819706605265303,0.08177127720595899,0.7966831386814369,0.9146379468058474,0.0,0.0,0.0,0.0
0.028019951000398842,-0.3302441624344789,0.7511217786705375,0.0027777479489347703,-0.5252981508196113,-0.002621403882686098,0.8509096691797038,0.03593187701792227,-0.8552933798237871,1.0452950504269405,0.019115145428225174,-0.957612065521036,0.864931128571643,-0.018891880680833424,0.627222267102864,1.1953513532091815,0.0934217258702845,0.8026047130860404,0.9115709444292861,0.0,0.0,0.0,0.0
0.02845886915083285,-0.33168668645535393,0.7517002723566778,0.0028661364477257753,-0.525161165254406,-0.002758569704178945,0.8509934935495598,0.04000617017717359,-0.8522082646064741,1.0432193840512645,0.012007553391001924,-0.9633787466010685,0.8603864549203855,-0.026256073529804205,0.6267363968306138,1.206763275765382,0.10456067620910608,0.807646540194668,0.9094312191244192,0.0,0.0,0.0,0.0
0.028802178026598284,-0.3330527937404086,0.7521170516012016,0.002934996038697865,-0.5249944291452036,-0.0028792119864501343,0.8510957321612486,0.04385323014212938,-0.8496167947264593,1.0409981576806866,0.0048347668645397435,-0.9661441901833526,0.857038160463642,-0.03450320040348597,0.6270448983496286,1.2142912017919245,0.1153652879058095,0.8114922246277587,0.9087257889890822,0.0,0.0,0.0,0.0
0.029017132896105025,-0.33435644440944334,0.7523434605518438,0.0029765816818120546,-0.5247902493209077,-0.0029793508744805036,0.8512211567198961,0.047505988094750644,-0.8475094007913134,1.0384131720846732,-0.0024086333547211677,-0.964742102486873,0.8558931450176294,-0.04414975137736263,0.6290487680768183,1.214966856694139,0.12600935820614925,0.813891343756337,0.9098483129646601,0.0,0.0,0.0,0.0
0.02909924356426135,-0.3356104258430337,0.7523842208436157,0.002993874671627545,-0.5245486927177291,-0.0030614547018780964,0.8513696806779535,0.05100263528420656,-0.8458164266379877,1.0353727473354,-0.009636762618784971,-0.9591704978744946,0.8569270636522293,-0.05518052247233968,0.6327078297824479,1.2087630118631711,0.13652547610923668,0.8148446722222181,0.9128020118269238,0.0,0.0,0.0,0.0
0.029072324756974594,-0.3368302771594205,0.7522788957520657,0.002999738687349467,-0.5242748703680097,-0.003133729295430986,0.8515380447220883,0.054395733774196015,-0.8444095190034703,1.0319082352009632,-0.01668435822928676,-0.950601974651775,0.8591157692554294,-0.06707336614195375,0.63706745897207,1.1985865497642516,0.14685438312764743,0.8146135011885024,0.917192196966777,0.0,0.0,0.0,0.0
0.028959551463598642,-0.3380421510203375,0.7520831490736979,0.0030064034912922677,-0.5239730013001379,-0.003206536700809292,0.8517235311818968,0.05776971274195442,-0.8430767787240641,1.0279772213574185,-0.023427551204604293,-0.9403179304112821,0.8616271861998307,-0.07942236976162746,0.6417587573673865,1.1862902571413623,0.15701236074512373,0.8135409075150027,0.9224906499131754,0.0,0.0,0.0,0.0
0.0287631230626355,-0.33928073818541066,0.7518505639569059,0.0030207503751755876,-0.5236410340576171,-0.0032867420884715773,0.8519273090144981,0.06122320511762156,-0.8415479363161928,1.0233663918410485,-0.029806063071320485,-0.9292431915755639,0.8639545957079028,-0.09197811295663018,0.6465955643134781,1.1728888663298258,0.16713769483319713,0.8118894592795932,0.9282468852911983,0.0,0.0,0.0,0.0
0.02846269907755676,-0.3405873322309163,0.7516287982636858,0.003044901364739482,-0.5232709328132913,-0.003377167829796228,0.8521542431894805,0.06486159092959985,-0.8395022972850377,1.017687263170509,-0.03579263532272295,-0.9179051469382287,0.8658537502053646,-0.10460199880947993,0.6514143432676052,1.1588792927846074,0.17746116974247605,0.8098112069147612,0.9341227507345311,0.0,0.0,0.0,0.0
0.028019879151019972,-0.3420089897180885,0.7514605558230811,0.003077187883626474,-0.5228491833294658,-0.003476821097853145,0.8524125609829392,0.06879427680819976,-0.8365790382262904,1.0104060987664785,-0.04137710326059969,-0.9065508653573363,0.867236529074893,-0.1172261654017399,0.6560420492963637,1.1444716112113538,0.18827914448539498,0.8073638713780212,0.9398677251209225,0.0,0.0,0.0,0.0
0.027383353890493862,-0.3435975300759674,0.7513849075802598,0.0031121939595476376,-0.5223568930328113,-0.003580582540802348,0.8527137679072239,0.07313075519461606,-0.8323924772898074,1.0008799595138373,-0.04657761754865125,-0.8952805613787392,0.868085479725,-0.12984136374709274,0.6602983177347491,1.1297361792483767,0.1999353275604785,0.8045332429558217,0.9452868839500368,0.0,0.0,0.0,0.0
0.02649407942587914,-0.3454065250135168,0.7514367868617232,0.003139699813426898,-0.52176967176739,-0.003677838101696747,0.8530726964425301,0.07796959289700943,-0.8265613246590165,0.9884033031916839,-0.05146675636451221,-0.8841401440065813,0.8684044011016937,-0.14251766762946874,0.6640011110167658,1.1146948543797115,0.21279870058531475,0.8012482132368867,0.9502193661481991,0.0,0.0,0.0,0.0
0.025292040439096726,-0.3474840025962181,0.7516432279563355,0.0031426561488808484,-0.5210575502867317,-0.0037497528468564576,0.8535075233148841,0.08337439239953129,-0.8187687754068488,0.9722901763686032,-0.05618923790746807,-0.8731564850607842,0.8681988080059897,-0.15546743581903702,0.6669807281334142,1.0993874876684029,0.22722105721782918,0.7973861652558342,0.9545326415721397,0.0,0.0,0.0,0.0
0.02372721740622602,-0.349857896025421,0.7520148952041169,0.003094236529416338,-0.5201849204719807,-0.0037648203710072383,0.8540397533730107,0.0893299419545811,-0.808881739911508,0.9520373217845525,-0.06094013225631034,-0.8623136324487711,0.8674723439583553,-0.16918420277599758,0.6691307234958028,1.0839459648178755,0.24345986034122175,0.7927703586619049,0.9581363033527752,0.0,0.0,0.0,0.0
0.021778329267053725,-0.35251016625955006,0.7525306527644074,0.0029533575593901217,-0.51910940599062,-0.0036717693584384196,0.854694811263629,0.09566982747849605,-0.7971833292939406,0.9276512743935623,-0.06587011044503494,-0.8514747464079472,0.8662149153523613,-0.18476069832023495,0.6705571467004396,1.0687117276178835,0.2615647016898617,0.787160971294937,0.961026197301472,0.0,0.0,0.0,0.0
0.019484902547103892,-0.3553335576828505,0.7531107902388419,0.002654811507058237,-0.5177731204526893,-0.0033849176086601512,0.8555071537078631,0.10195707399294461,-0.7848551570893103,0.9003264988907972,-0.0709205810412538,-0.840257000964681,0.8642939059412778,-0.20466948223813208,0.6719691579334334,1.0543924291049802,0.2812762133995512,0.7802361305695729,0.9633831549686582,0.0,0.0,0.0,0.0
0.01700247371654253,-0.3580588918426994,0.7535695923518693,0.0020688797630928745,-0.5160185831563657,-0.002695317128061257,0.8565706490648637,0.10715236555553934,-0.7754360177956984,0.8742596852339295,-0.07601837589905441,-0.8276902607736751,0.8604796977944701,-0.23431854928260976,0.6755462724092993,1.0416223587917603,0.3024373599386562,0.7715106756639174,0.9656976657780004,0.0,0.0,0.0,0.0
0.014505381282346482,-0.36048073588262547,0.7536759127612842,0.0010672811005222735,-0.5136730039371566,-0.0014456623223460458,0.8579841583605609,0.11056188211486868,-0.772796071489846,0.8541945026796687,-0.08269938037462309,-0.8135763180142748,0.8532845859384268,-0.2817080087842707,0.6829946942599565,1.031530559054814,0.3249326433000084,0.7601781136535464,0.9690123806339168,0.0,0.0,0.0,0.0
0.012203922611920517,-0.3624048551294113,0.7530231319978391,-0.0003291730903746909,-0.5106557003358952,0.0003508149079122528,0.8597851617051979,0.11185567213241451,-0.780606379123839,0.8448246502015045,-0.09374271679229579,-0.7988051958162663,0.8395559993783659,-0.34988464783047407,0.6936382105650823,1.025336126070879,0.3468688650153487,0.7444882000059755,0.9761825202791098,0.0,0.0,0.0,0.0
0.010369559436775045,-0.36358698661514405,0.751465498255444,-0.001698581880743137,-0.5073289954875271,0.0023334171473122266,0.8617476198526038,0.11102080509214952,-0.7980989548164423,0.8472544575723591,-0.10874339965828235,-0.7860151685432764,0.8162132285883531,-0.4189073156020169,0.7003548256970139,1.025009094519631,0.36272687906250073,0.7246425308102871,0.9883146541513373,0.0,0.0,0.0,0.0
0.010456846975852937,-0.36376463561483,0.7514174705176132,-0.0016538886169607232,-0.5072848047205671,0.0024120431904489973,0.8617735048141746,0.111198158233086,-0.7981997607203964,0.8471155046232036,-0.10879149442311598,-0.7860081731455785,0.8162172342229361,-0.41894181370513417,0.7003651947315539,1.0250139587197031,0.36279221966628544,0.7245324657347775,0.9881845191452188,0.0,0.0,0.0,0.0
0.010456846975852937,-0.36376463561483,0.7514174705176132,-0.0016538886169607232,-0.5072848047205671,0.0024120431904489973,0.8617735048141746,0.111198158233086,-0.7981997607203964,0.8471155046232036,-0.10879149442311598,-0.7860081731455785,0.8162172342229361,-0.41894181370513417,0.7003651947315539,1.0250139587197031,0.36279221966628544,0.7245324657347775,0.9881845191452188,0.0,0.0,0.0,0.0
0.010533729265467282,-0.36455137531615217,0.7518442399987946,-0.0013361205784726208,-0.5091166803464031,0.0017620675068629216,0.8606946704220722,0.11418555325558942,-0.7821933642147314,0.8311534458450024,-0.10476655707376561,-0.7786170088850465,0.8111040422673118,-0.42860593707452593,0.7110527990212635,1.023942892025942,0.36855113147308916,0.7323418490177211,0.989453432642212,0.0,0.0,0.0,0.0
0.010955450958324977,-0.3657796048506676,0.7519839887707749,-0.0010739289854881382,-0.510181615337525,0.0012909088169296779,0.8600650554478737,0.11811005856377074,-0.7722662203601185,0.8213368277980874,-0.10044864088675096,-0.7793751817398964,0.8163258510587464,-0.4314621267694631,0.7182177231701069,1.0224671867986193,0.3782493114455594,0.7382146487843078,0.9925885547367014,0.0,0.0,0.0,0.0
0.011841254930585502,-0.3674408262927174,0.7518960168658319,-0.0007769203856229685,-0.510839292112522,0.0008513363845434753,0.8596754557709858,0.12323536465252168,-0.7664515279299683,0.8167104350103115,-0.0953921452672729,-0.7870520077471492,0.8312833642895858,-0.43060915831587143,0.724199724412917,1.0208546036626844,0.3918645445232227,0.7438223853134194,0.997560092009508,0.0,0.0,0.0,0.0
0.013248487095036695,-0.369570530184922,0.7516066115635318,-0.0003638994806640309,-0.5114612598076278,0.0002875272605149881,0.8593062112083425,0.12994017834025953,-0.7621810679238423,0.8150707744137845,-0.08901699210653573,-0.7999843989847,0.8544171540748771,-0.4295080376609337,0.7312817939072999,1.0195785723431334,0.4100388924204507,0.7507073985625785,1.0047904558483727,0.0,0.0,0.0,0.0
0.01520852809903166,-0.37226785043652666,0.7511467481967976,0.00011866015497318865,-0.5128072102447544,-0.0005262227509641679,0.8585036249954779,0.1386379345604407,-0.7544506656394688,0.8114021462453553,-0.08048865738943184,-0.8138684592671709,0.8814880231111961,-0.43244265388324676,0.7432464050891398,1.0197878027914022,0.4379459202197092,0.762643741960083,1.0156227731057033,0.0,0.0,0.0,0.0
0.01687598669120804,-0.3751345430464692,0.7522181075852428,-0.001304844490951879,-0.5141752115626167,0.0017069488653325636,0.8576824794298669,0.12301826199133256,-0.7734909446652802,0.8361466553464049,-0.07821925579557129,-0.8122794774685324,0.8956587035389856,-0.39073302970533813,0.7505439430411298,1.004488741965337,0.34693616715612663,0.7336217353032348,1.023975475384965,0.0,0.0,0.0,0.0
0.01870708257830501,-0.3782335305663829,0.7527058426603803,-0.0024533069675164733,-0.5158099755579499,0.0033678928846278687,0.8566928899537732,0.10939824303750068,-0.7909915889614851,0.8502833201661978,-0.07396926467000532,-0.813837248885921,0.9127907427258508,-0.35418595355642446,0.7577832744635834,0.9937009821784354,0.26697103558533086,0.7106681155323338,1.033264567680418,0.0,0.0,0.0,0.0
0.020669432922895525,-0.38137324307205095,0.7528037474180759,-0.0030046092322351054,-0.5173473575349645,0.004096606862041659,0.8557604231250525,0.10015332313889234,-0.8068333567906202,0.8589305745856646,-0.06755624602236592,-0.8204088525380132,0.9342542252168092,-0.327832286745812,0.7658954222995942,0.9857194453028192,0.21428315899908756,0.6973186548235158,1.044459879019617,0.0,0.0,0.0,0.0
0.02248468443076843,-0.3843341213635244,0.7527258407344118,-0.003216656769197792,-0.5186630321594802,0.004345571377147584,0.8549616530580593,0.09397338209365169,-0.8212765864452245,0.864372655154981,-0.060537774374264726,-0.8286759953173849,0.955558349808777,-0.30715124752697087,0.7733729882595235,0.9792374148017452,0.18055799222197474,0.6895689148469046,1.057384398545986,0.0,0.0,0.0,0.0
0.024009885400895686,-0.3870192442316734,0.7526125479253413,-0.003280211756398696,-0.519744111040448,0.004394280646280183,0.8543043892824204,0.08940602072377672,-0.834506543005189,0.8677627393530748,-0.05374806234347742,-0.83657463086882,0.9742737479641373,-0.2893067098286862,0.7795350297572008,0.9734145711612018,0.15759724301634045,0.6844105794507384,1.0712824377437689,0.0,0.0,0.0,0.0
0.025213457918447955,-0.38941089888546015,0.7525360482884491,-0.0033085992124886466,-0.5205903201854636,0.004415233538346691,0.8537887779850761,0.08542941122069304,-0.8469016774595587,0.8696875740033007,-0.04762092837028403,-0.843334016236765,0.9897914518745717,-0.2723621406879233,0.7840357675203913,0.9677285716706272,0.1404855155947417,0.6800728649946384,1.0855987465304797,0.0,0.0,0.0,0.0
0.02613400622829274,-0.39151124003531473,0.7525284137824956,-0.003323622492997855,-0.5212905109898153,0.004413330795987387,0.853361400109465,0.08143714340755333,-0.8587380091247478,0.8707558174477059,-0.0421550177170016,-0.8486077893096753,1.0021257569641873,-0.2568560716838301,0.7875447512691959,0.962107217756933,0.1262296385781997,0.6759630608208803,1.1000690371719133,0.0,0.0,0.0,0.0
0.026855003900395497,-0.39331021585892445,0.75261919529052,-0.0032526793064553525,-0.5220597980839952,0.004215048431769669,0.8528922679146209,0.07743185340556613,-0.8697458483713348,0.8717775798711048,-0.036954418848189494,-0.8519236010903664,1.011263888826268,-0.24630666504093282,0.7921070733435859,0.9567955471740255,0.11239651033744795,0.6723670088732895,1.1146180515103687,0.0,0.0,0.0,0.0
0.027345656720399052,-0.39499756532985036,0.7527738284826753,-0.0033215261315024,-0.5224899093945257,0.004300227119854838,0.8526281546440838,0.0725210174949256,-0.8811174570863036,0.871286027137661,-0.032725459795841266,-0.8548995414618894,1.0190288995599177,-0.23107390634618583,0.7937309181163265,0.9505696281009358,0.10030021557457709,0.6675844708103507,1.1288965601356735,0.0,0.0,0.0,0.0
0.027712315941441898,-0.396520069036819,0.7529955189507699,-0.0033771057382091002,-0.5228994541355596,0.004343028907264722,0.8523766151892469,0.0672435803583113,-0.8922716197845175,0.8704133600706675,-0.028805599682075862,-0.8568904176374142,1.0251267903055257,-0.217600069044266,0.7954995985599922,0.9442394018380975,0.08815975027764035,0.6626688091983716,1.143071687950998,0.0,0.0,0.0,0.0
0.028006255222727153,-0.3978939519686738,0.7532540653418972,-0.0033915125980563425,-0.5233478489183605,0.004290856227742451,0.852101587387123,0.061711305291562074,-0.9033157590035249,0.8693847440793223,-0.02503504501283532,-0.8580621390342476,1.029918370495615,-0.20675376989542538,0.7978961341848542,0.9381544090128356,0.07568773419242517,0.6578380498411956,1.1571936695380953,0.0,0.0,0.0,0.0
0.02824075975014078,-0.3991827966601906,0.7535227288389026,-0.003411050677266539,-0.5237526644879844,0.004244281781258875,0.8518529786572183,0.05581193107521068,-0.9145210073205644,0.867875369179678,-0.021500191938223678,-0.858940839668075,1.0340462424369492,-0.19634881895988698,0.8000444549574446,0.9321566998814318,0.06329702887559657,0.6528273920853288,1.1711720948104472,0.0,0.0,0.0,0.0
0.028431605733466706,-0.4004219888371531,0.75378243714208,-0.0034364510327532104,-0.5241126967059251,0.004208593182435612,0.8516315868375053,0.04959892026117999,-0.9258027800637285,0.865863548866402,-0.018123850964727344,-0.8597417079850583,1.0378060963105138,-0.186066170066271,0.8018552339778326,0.9263043617313168,0.05099400919099743,0.6476702445537545,1.1848916488525711,0.0,0.0,0.0,0.0
0.02858848801457479,-0.40163135668052274,0.7540101377302274,-0.0034450709703286704,-0.52446316206206,0.004142288746887531,0.8514160936755966,0.043185041460340315,-0.9368113230348853,0.8635385876175101,-0.014756471437082492,-0.860532317689352,1.0412816642635763,-0.17644652446417566,0.8035369098931,0.9208569700625988,0.03863592513819012,0.6425454386239484,1.1981133509633277,0.0,0.0,0.0,0.0
0.028697566566914346,-0.40284602415583515,0.754174047436842,-0.0034386193417369655,-0.524791573259458,0.004053969104767075,0.8512141598137235,0.03657324651567053,-0.9470185236516261,0.8610874718617032,-0.011329978143966146,-0.8614889914472572,1.0445744169523967,-0.16703769879997774,0.8047654779824528,0.9160225382695746,0.02639921203277803,0.6374957593652014,1.2102834653679964,0.0,0.0,0.0,0.0
0.02872400440123338,-0.40410676240167887,0.7542333361374811,-0.0034270317962409526,-0.525067919381595,0.003969615681135008,0.8510441690304296,0.029736920634590564,-0.9555502290574043,0.8588970179784726,-0.007802609749369038,-0.8627973853507481,1.0476963216179151,-0.15706967334736677,0.804963026379713,0.9120642046300038,0.01467954945591717,0.6325808119031445,1.2203318148464206,0.0,0.0,0.0,0.0
0.028625233144786832,-0.40543445787257587,0.7541432101978156,-0.0033878082665258985,-0.525314310941945,0.0038530171423245265,0.8508927968514246,0.022818826807134193,-0.9610591433419415,0.8578160526616724,-0.0040365843474316,-0.8644287280354901,1.050367989399041,-0.14694180312859292,0.8039737701070249,0.909509110452403,0.00373959082333504,0.6282641527497834,1.226401172118897,0.0,0.0,0.0,0.0
0.028353438466106922,-0.4068532785084129,0.7538677970308029,-0.0033141085304179835,-0.5255268218863941,0.003702742333211741,0.8507625202498337,0.015933486498198014,-0.9623972093804156,0.8587144378871839,2.987037220083741e-05,-0.8663736753415189,1.0523341090778844,-0.13649507424702845,0.8014318172144813,0.9087126361050105,-0.0057997049332094205,0.6255566186472,1.2256057927396897,0.0,0.0,0.0,0.0
0.02788387722222744,-0.4083875820042849,0.7534022023918577,-0.003200736606795591,-0.5257073825655836,0.0035133633305334537,0.8506521965405864,0.009180906143863861,-0.959541203707236,0.8615459541102176,0.004471619489796515,-0.8685859783221156,1.0534549236591286,-0.12563108463180372,0.7972457722718109,0.9096836899937456,-0.013907671850908855,0.6244740445423872,1.2179654901296557,0.0,0.0,0.0,0.0
0.027214486385616743,-0.41006531685911346,0.7527709066633665,-0.0030476185499911084,-0.5258580050709681,0.0032818877923417858,0.8505605796981622,0.0025969218124725123,-0.9536364291497407,0.8653647411784868,0.00937032799447186,-0.8710084563443866,1.053731784964462,-0.11417745147914837,0.7915406676763587,0.9120691793055343,-0.021103695055503153,0.6240113153825899,1.2063947276243197,0.0,0.0,0.0,0.0
0.026343781740462688,-0.41190949622762585,0.7520118880171105,-0.0028471116808550957,-0.525993802253891,0.002993278674842334,0.8504783678779525,-0.0037429598087991333,-0.9458999311747911,0.8693747119624742,0.014821805119272297,-0.8734770984033735,1.053077423851892,-0.10219959826128011,0.7846189867736099,0.9154190199760639,-0.027810970276691323,0.6237872392732186,1.1927882813731996,0.0,0.0,0.0,0.0
0.025250083064656485,-0.4139515712158502,0.7511608726101385,-0.0026007988827738845,-0.5261125993987923,0.0026527909158516895,0.8504068034178549,-0.009769236957924584,-0.9372391352397211,0.8730088818538487,0.02089278278974315,-0.8758089609834132,1.05130638585689,-0.08940461748738507,0.7765635723074542,0.9192522654740184,-0.03414521310379172,0.6236042036609172,1.178203938115287,0.0,0.0,0.0,0.0
0.023892259626663966,-0.4162333077369839,0.7502489323567535,-0.0023244500553006096,-0.5261895731944731,0.0022938993104836994,0.8503610221660632,-0.01544869517846338,-0.9282093707339085,0.8758764088329912,0.027606230109489455,-0.8778292550435477,1.0481623818590222,-0.07508590824764698,0.7671967026308417,0.9230506707514194,-0.03995591699517622,0.6232709097945744,1.1631641377254995,0.0,0.0,0.0,0.0
0.022221909866264714,-0.4187908023330256,0.7493009957537708,-0.0020323822912382433,-0.5262052914383615,0.001945308804953205,0.8503529128886105,-0.020749495324488287,-0.9190712454710738,0.8777802245111435,0.034976885325190284,-0.879305942728735,1.0432758695167215,-0.05877736796170085,0.7563702600034383,0.9263814616776037,-0.04508803388038049,0.6226378053817114,1.1478928135768116,0.0,0.0,0.0,0.0
0.020192827379283403,-0.42164235812267525,0.748334257083852,-0.00173395798846585,-0.5261536510429484,0.0016219589809298026,0.8503862052814202,-0.025660989336874218,-0.9099321132199364,0.8786819637832831,0.04300030001178775,-0.8799390281995272,1.0361736433646032,-0.0404591561104439,0.74406174803827,0.9289566481380237,-0.04948336332480481,0.6216189010947029,1.1324586850673732,0.0,0.0,0.0,0.0
0.017767590578410052,-0.42478128384697156,0.7473595294032805,-0.0014379674369222849,-0.5260370374501528,0.0013318310257027111,0.8504594015627294,-0.030231217911791987,-0.9008651943341074,0.8786481426420015,0.05161811474273663,-0.8793788816778423,1.0263190761579728,-0.020462888118535905,0.7303527421613707,0.9306179478863211,-0.053195045226800415,0.6201744286401005,1.1168479545473629,0.0,0.0,0.0,0.0
0.01492429888039152,-0.4281696192203887,0.7463845354189425,-0.0011564435404908299,-0.5258618685919364,0.0010821119660286596,0.8505685080186237,-0.03458996245344563,-0.891964404678078,0.87783048335338,0.060688645912654146,-0.8772464198623002,1.0131598840439242,0.0006397150482500696,0.7154098834271826,0.9313091587400194,-0.05640854645548015,0.6182823682044414,1.1009991408418398,0.0,0.0,0.0,0.0
0.011666069761782437,-0.43173185242849005,0.7454163934553598,-0.0009054056804175264,-0.5256377295903792,0.0008802361803494202,0.8507075776410435,-0.03894692441182853,-0.8833373771176446,0.8764919681753908,0.06997200792229594,-0.8731667534302743,0.9962004805068041,0.02209425380806614,0.6994908956200079,0.9310767741486791,-0.05949790576125079,0.6159156057279355,1.0848256175822184,0.0,0.0,0.0,0.0
0.00803575544341363,-0.43535082788851576,0.7444596392936649,-0.0007034006092870139,-0.5253771991836682,0.0007330171860720474,0.8508688303677083,-0.043549200874929264,-0.8750414681104473,0.8750488616567537,0.07912941003963253,-0.8668573236527143,0.9751492526710526,0.04301950957865265,0.6829408435372029,0.9301194619965953,-0.06311460456151492,0.6130360013751437,1.068245213260119,0.0,0.0,0.0,0.0
0.004135904070971995,-0.4388725151850755,0.7434990538328687,-0.0005785890634851493,-0.5250759740355113,0.0006780211424235013,0.8510548907166242,-0.048654684971765914,-0.8670435540979231,0.8740141235717066,0.08767212480459977,-0.8583930053936594,0.9502664330715175,0.06276681329992576,0.6659713225504852,0.9288862326515568,-0.06801758973245081,0.6096731565506653,1.051216824955149,0.0,0.0,0.0,0.0
0.00012440520702292415,-0.44212169948579005,0.742480829483914,-0.000532102298921298,-0.5247585272267611,0.0006755397290670431,0.8512506966904746,-0.05506934858288917,-0.8591984236595844,0.8739604636204729,0.09528564903157405,-0.8482229819345456,0.9223387539994613,0.08017198059223105,0.6489324907127983,0.9284691293749582,-0.07629876124659837,0.6059712899440128,1.0335521045036342,0.0,0.0,0.0,0.0
-0.003455852853928662,-0.44496190169280464,0.7413014911599767,-0.0005268227288675629,-0.524392264479324,0.0006859320434182374,0.851476367792607,-0.06239827070199668,-0.8509179436389915,0.8743236861625919,0.10186139896912051,-0.8395404844918876,0.8967115606619445,0.094566877884995,0.6326900393184021,0.9300194784810878,-0.09050389857129297,0.6024659679335959,1.0152921208198242,0.0,0.0,0.0,0.0
-0.0063189885032233694,-0.44707282832359635,0.7400176476568233,-0.0005321468186601161,-0.5240876313538648,0.0006629989732569265,0.8516639195797955,-0.0701712013633902,-0.8439299710339937,0.8761257470601929,0.10678140554381443,-0.8328554187780312,0.8752834134762892,0.10443872510494093,0.6183537417630013,0.9346464724359327,-0.11356275902824084,0.5980682830375563,0.9966977133804032,0.0,0.0,0.0,0.0
-0.008041755701701054,-0.4481911754070801,0.7388316177977368,-0.0005150274876109898,-0.5239149947415763,0.0006033863850104583,0.8517701855292257,-0.0762375607004556,-0.8406618748764519,0.8792793332894487,0.1094832037374892,-0.8294361392167149,0.8618103239607889,0.10896442696569078,0.6078996142707785,0.9417317302454737,-0.14184430597104203,0.5932453139276468,0.9799306979517015,0.0,0.0,0.0,0.0
-0.00805062837070947,-0.44832412514105763,0.7387519159253821,-0.00042651826298735756,-0.5239242161402135,0.0006247175570508464,0.8517645470151995,-0.07625254308966838,-0.8406875505006813,0.8792881874423413,0.10967738908221487,-0.8295181235618521,0.8616188484676922,0.108989740772951,0.6078119793912419,0.9416480158837749,-0.14186487641867965,0.5932759867798291,0.9799369628106566,0.0,0.0,0.0,0.0
-0.00805062837070947,-0.44832412514105763,0.7387519159253821,-0.00042651826298735756,-0.5239242161402135,0.0006247175570508464,0.8517645470151995,-0.07625254308966838,-0.8406875505006813,0.8792881874423413,0.10967738908221487,-0.8295181235618521,0.8616188484676922,0.108989740772951,0.6078119793912419,0.9416480158837749,-0.14186487641867965,0.5932759867798291,0.9799369628106566,0.0,0.0,0.0,0.0
-0.00805062837070947,-0.44832412514105763,0.7387519159253821,-0.00042651826298735756,-0.5239242161402135,0.0006247175570508464,0.8517645470151995,-0.07625254308966838,-0.8406875505006813,0.8792881874423413,0.10967738908221487,-0.8295181235618521,0.8616188484676922,0.108989740772951,0.6078119793912419,0.9416480158837749,-0.14186487641867965,0.5932759867798291,0.9799369628106566,0.0,0.0,0.0,0.0
-0.007266022992236725,-0.44885415296813325,0.738588244366202,-0.0005856873434930724,-0.5241483688535289,0.0009550307219337869,0.8516262280571453,-0.07583171934013706,-0.8436993837324698,0.885156926979652,0.11034356621004585,-0.8332965005680535,0.869681470347367,0.11498953373098884,0.6086957864710398,0.9404913124272054,-0.13719084654713642,0.5958850974372493,0.9839552531598501,0.0,0.0,0.0,0.0
-0.005736583338480986,-0.4496657631478922,0.7383287972594622,-0.0005685093106638994,-0.5245606820003306,0.0010749346175042928,0.8513721937038347,-0.0743063432061517,-0.8489004968434576,0.8965039052552097,0.11236784971205499,-0.8413570574672025,0.8858009851464935,0.12132859577863761,0.6119770173440386,0.9394838242709606,-0.13360273519855836,0.599724949463557,0.9894162360483051,0.0,0.0,0.0,0.0
-0.003479953324135495,-0.45082608956596326,0.7380573865498591,-0.0003716952831636915,-0.5251615573605076,0.0009783692954574326,0.8510019055835447,-0.07146434222251082,-0.8556552246746465,0.9125884372201019,0.11593875943228543,-0.8531890301149284,0.9093655071769858,0.1283983583571495,0.6181318218474778,0.9374086979471596,-0.13070800220156142,0.6052643012461989,0.9957022521601808,0.0,0.0,0.0,0.0
