zhuoxili-jackie/tripod-support-walk/examples/trajectory_trot_sideways_p3_left_v0.20.csv
root_pos_x,root_pos_y,root_pos_z,root_rot_x,root_rot_y,root_rot_z,root_rot_w,FL_hip_joint,FL_thigh_joint,FL_calf_joint,FR_hip_joint,FR_thigh_joint,FR_calf_joint,RL_hip_joint,RL_thigh_joint,RL_calf_joint,RR_hip_joint,RR_thigh_joint,RR_calf_joint,FL_foot_joint,FR_foot_joint,RL_foot_joint,RR_foot_joint
0.0,0.0,0.664888,0.0038739181747107386,-0.3883128170371229,0.008248016113749812,0.9214825658214358,4.59e-06,-0.523609,-0.523606,1.78e-06,-0.523593,-0.523596,2.47e-06,-1.36e-05,1.04719,-8.76624e-06,-1.88e-06,1.04721,0.0,0.0,0.0,0.0
0.0004327069505420062,0.0002513742727375391,0.6643161968370722,0.0037866681422471815,-0.38857357897923994,0.008169856335981818,0.9213736963420945,-0.000426238351536794,-0.5205506634257414,-0.5304453263762274,-0.0004290379568858584,-0.5218355799788831,-0.5274762435537358,-0.0006021646238231113,-0.002622226293251095,1.0549767233024643,-0.0006134520334287633,-0.0019928761334126878,1.0531069836326414,0.0,0.0,0.0,0.0
0.0013299841886119466,0.000796731403567325,0.6634323828485345,0.0037615936862508297,-0.3887059043731484,0.008055056963642336,0.9213189927357976,-0.001658422780143869,-0.5133932272932383,-0.5471063016850487,-0.0016598996352455112,-0.5172698057464128,-0.5383281423614152,-0.0023268490505339782,-0.00656336194366311,1.0667007533021562,-0.002336271485651589,-0.004742076465685068,1.060976238265146,0.0,0.0,0.0,0.0
0.0027742393661068154,0.0017276606544792913,0.662495857042185,0.003770711133046209,-0.38881944442642413,0.007917356854475026,0.9212722381760544,-0.00405580022188727,-0.5010825501953492,-0.5740802641413785,-0.0040504621829093425,-0.5089774420546355,-0.5559501494394005,-0.005355828138759413,-0.0103263589292389,1.0809373544923393,-0.005355255225514494,-0.006517654989304663,1.0688729630621385,0.0,0.0,0.0,0.0
0.00492238778597789,0.003326314139678859,0.6621439591695182,0.003759419892382887,-0.38921114273511914,0.007831282196339466,0.9211076072598993,-0.008873386501126127,-0.4809522847990313,-0.6126712995882573,-0.00884025645115315,-0.49493817041286126,-0.5790518921307212,-0.010264824004742087,-0.010459644877940185,1.0945622459578832,-0.010230938018053751,-0.0031020825643407017,1.0720634622084488,0.0,0.0,0.0,0.0
0.008166785500565385,0.006273109965776839,0.6640759252600572,0.003713258882600966,-0.3905499912971068,0.007980246321943801,0.9205396415553985,-0.019142050214546735,-0.4454005483094935,-0.6674185734818165,-0.018993436841592833,-0.46911446977739496,-0.6063311417911631,-0.018764321585450217,0.002106015831674607,1.0987308972024186,-0.018629668249068247,0.016388313142925395,1.0576945151048969,0.0,0.0,0.0,0.0
0.011292798602355157,0.0093549113732038,0.6652547117803594,0.003399424764379341,-0.39011712272495436,0.007986110539931686,0.920724332526581,-0.018835367968248293,-0.47874400991661215,-0.6212466087715678,-0.02886727826571893,-0.44774597510182707,-0.6380036105539426,-0.02735108925218954,0.009538371936916857,1.1017235226562332,-0.020633064608822433,0.008867844158343005,1.069031932511612,0.0,0.0,0.0,0.0
0.014994796111770155,0.012610953288890643,0.6665157815365218,0.0032333769379422027,-0.38958095862413755,0.007925065931906913,0.9209524500651758,-0.016422592823320866,-0.5033051621195941,-0.5968707377236147,-0.03922284149566896,-0.4233366396005951,-0.6752998388359691,-0.03713948815522841,0.018393809375352364,1.1047194819611441,-0.022137118707020093,0.002140622658326977,1.0809273462280828,0.0,0.0,0.0,0.0
0.01850781267232074,0.01607598072039138,0.6678473160669748,0.003045746681541344,-0.3893195493227699,0.00791268918300882,0.9210637335668799,-0.015233974609857868,-0.5211915275725798,-0.58540260618354,-0.0505546148582295,-0.40183561751956354,-0.7045908438374858,-0.04756400977493684,0.027580613985407544,1.1079291934281161,-0.024516611624526577,-0.003451933911999624,1.092843622847723,0.0,0.0,0.0,0.0
0.02161622485849414,0.019658195748019185,0.6692817013193396,0.0028330592350501657,-0.3892547442844341,0.007927036739458822,0.9210916783447572,-0.015473002445938229,-0.5346062333999515,-0.5812589033236519,-0.062355770312014946,-0.383737014920673,-0.7255418480038783,-0.0583676455222858,0.03693714679789375,1.1102162430835139,-0.02808576064287795,-0.00845612169234972,1.1044583881078012,0.0,0.0,0.0,0.0
0.02423756932281518,0.02327791145497311,0.6707960877935707,0.0026102234856489105,-0.38929447933708583,0.007942984963793018,0.9210754062946678,-0.016819360272712375,-0.5451465652979479,-0.5812326685484757,-0.0741797701055344,-0.36909674953366867,-0.7389794937005799,-0.06935697626104134,0.046158733809234596,1.1111683950081617,-0.032614034175680165,-0.013274745243694357,1.1156259281176215,0.0,0.0,0.0,0.0
0.026374317818655266,0.026864409653658734,0.6723556801009587,0.0023900809667486847,-0.38937854098682323,0.007948138778150421,0.9210404260519234,-0.018831237123276515,-0.5539122649496563,-0.5834613766754158,-0.08569954444708262,-0.3576786672035971,-0.7460863695440194,-0.08032295881608831,0.055018155800060246,1.1107532790424988,-0.037690841722974815,-0.018111147250528387,1.1263385636007706,0.0,0.0,0.0,0.0
0.028077355366104517,0.030356728269419406,0.6739302650315576,0.0021814196002814456,-0.3894724292739849,0.007938355203331164,0.9210013304879717,-0.02109828694785278,-0.5616510402473404,-0.5868641520761058,-0.09668616042612493,-0.3490616997316943,-0.7481557089066694,-0.09106092711575782,0.06341393989911062,1.1090791872382144,-0.04293411970537209,-0.0230663009980595,1.1366730649546333,0.0,0.0,0.0,0.0
0.029420219535925603,0.03370541121848326,0.6754974533968421,0.001989343798769884,-0.38955860382005136,0.007913974522240415,0.9209655290553952,-0.023298046963275077,-0.5688653552351409,-0.5908216475414999,-0.10699028594247478,-0.3427326141506253,-0.7464575321125962,-0.10139283457327995,0.07134375897264694,1.1062981534054082,-0.04806393063830185,-0.02819342959286551,1.1467454813519218,0.0,0.0,0.0,0.0
0.0304818576667063,0.036873263161346974,0.6770408538265402,0.0018161410950490813,-0.3896297407924089,0.007877544779547855,0.9209361058237479,-0.02520194766614946,-0.5758891124742516,-0.5949891358203331,-0.11652663637510018,-0.3381603537470901,-0.7421561812940233,-0.11118001592181392,0.07885828265631346,1.1025773914524448,-0.052906663049169286,-0.0335202320654064,1.156680767877292,0.0,0.0,0.0,0.0
0.03133593395629055,0.039834656594409906,0.6785468614328494,0.0016621815369545717,-0.3896840695029592,0.007832482492502903,0.9209137936561466,-0.026660590191928037,-0.5829405485420032,-0.5991853154176021,-0.125259119407123,-0.3348503119279555,-0.7362627844988235,-0.12032611936077572,0.08601875321076809,1.0980973886653824,-0.057373919911648946,-0.03905421493613773,1.1665943366546523,0.0,0.0,0.0,0.0
0.0320449540361191,0.04257360084168746,0.6800012606610414,0.0015267249173316854,-0.38972219009382514,0.007782249331921212,0.9208983224302426,-0.02758429697676627,-0.5901522511201005,-0.6033233947055096,-0.13318634789516612,-0.332380419183901,-0.7296146010937775,-0.12877281766548485,0.09286402925596346,1.0930599765687357,-0.06143634096010339,-0.04477893189896012,1.1765795986833496,0.0,0.0,0.0,0.0
0.032657631269851495,0.04508098273622715,0.6813858225260085,0.001408643486467249,-0.38974484971300605,0.007729836129894517,0.9208893622358331,-0.02792525017391527,-0.5975750657696997,-0.6073629401719065,-0.1403281860835927,-0.33042299567002,-0.722874277506567,-0.13649137249711657,0.09938550400696725,1.0877016614763317,-0.06509550298359765,-0.05064366093120559,1.1866938418907071,0.0,0.0,0.0,0.0
0.033208055792320564,0.047351384733343584,0.6826749872636,0.001307099464987044,-0.389751460622562,0.0076774961120875925,0.9208871518742223,-0.02766187014888593,-0.6051505032095831,-0.6112672057134817,-0.14671399670383087,-0.3287570874873864,-0.7165403246031004,-0.1434724586664323,0.10550730980084941,1.0823103379189758,-0.06834665979838019,-0.05654633729329267,1.1969317204286616,0.0,0.0,0.0,0.0
0.03371545449788838,0.04937983425778605,0.6838332468756043,0.0012221906163985476,-0.38973956717659936,0.0076268363100333554,0.9208927230655013,-0.026783087621177062,-0.6126480056707271,-0.6149553067476788,-0.1523730311505359,-0.3272752386898275,-0.7109575653215519,-0.1497154914232235,0.11107240065376599,1.0772404769504753,-0.0711208665371828,-0.06230685797286857,1.207170479526607,0.0,0.0,0.0,0.0
0.034183856069428045,0.051158903860683946,0.6848147815647931,0.0011554476986525986,-0.3897061863667602,0.007579585202439066,0.9209073260302856,-0.025269573062383272,-0.6195736986904089,-0.6182446264937431,-0.15732747188562385,-0.32598526492727026,-0.70631441919611,-0.15521771096356868,0.11584163734258754,1.0729162890654385,-0.073200728876798,-0.06762141584028718,1.2170652148270247,0.0,0.0,0.0,0.0
0.03461073525880346,0.05267292601292656,0.6855691882243493,0.0011102557402977269,-0.3896493208753246,0.007539258680271718,0.9209317747000271,-0.023042705169244747,-0.6250831482283837,-0.620795992577651,-0.16158066953713546,-0.3249296271552684,-0.7027631278619901,-0.15995265337091422,0.1195440302252703,1.0697830878983643,-0.07411657480909892,-0.07196053993637949,1.2258764080383806,0.0,0.0,0.0,0.0
0.034964900841202955,0.053909971330521556,0.6860546778845242,0.0010894623516897206,-0.3895812086933532,0.007515113396274725,0.920960812399448,-0.020023947817042337,-0.6279998359400968,-0.6220976447037179,-0.165147231705877,-0.3243369497382375,-0.6999981393564183,-0.16388684490285932,0.12190476248114245,1.068240217239189,-0.07316197200497573,-0.07444087863312958,1.232138494521897,0.0,0.0,0.0,0.0
0.03522263246430796,0.05485924899632678,0.6862623066964738,0.0010922741252405018,-0.38953135857138693,0.007525445734769799,0.9209818105116181,-0.016151119500995143,-0.6271393541304763,-0.6215958675835976,-0.16805269839536272,-0.3243232131168643,-0.6976656223246295,-0.16695655600131,0.12284497145680129,1.068461932188544,-0.06964604799279259,-0.07356358573740106,1.2333913275594823,0.0,0.0,0.0,0.0
0.03536991724714402,0.05552482298889416,0.6861976687629806,0.0011187285957581692,-0.38950103877789755,0.007569314772420495,0.920994242496197,-0.011480132822222374,-0.6225096582682234,-0.6192462921985484,-0.17030430717096984,-0.3249687477711017,-0.6955934495318269,-0.16917472874709277,0.12235905036388035,1.07042188100726,-0.06359144556241982,-0.06934229425803651,1.2295616536973408,0.0,0.0,0.0,0.0
0.03540394607680123,0.055926617039906736,0.6858812989043735,0.0011688487601843817,-0.38946399765459433,0.0076274684072000914,0.9210093647999325,-0.006167648469284253,-0.6152911680633958,-0.6155417935149553,-0.1718999142296753,-0.32630399092335416,-0.693802492802106,-0.1706285001875575,0.12051871038221468,1.0738915356127672,-0.055727500613725105,-0.06329925281660159,1.222983636018875,0.0,0.0,0.0,0.0
0.03532334895088768,0.05609135034527903,0.6853656054879502,0.0012381503741639565,-0.3894135075426132,0.0076904213803345835,0.9210300996959887,-0.0003859607680506824,-0.6066505001232938,-0.6109487889551021,-0.1728664283593209,-0.32829854962339194,-0.6921492080151378,-0.17138687322709462,0.11757361422737986,1.0784325158516785,-0.0468047645723651,-0.05635393297980925,1.2150192612483903,0.0,0.0,0.0,0.0
0.03511787121593045,0.05604346377619017,0.6847108498587305,0.0013223999953268578,-0.3893527893903205,0.007754116811682911,0.9210551179623834,0.00574990018937171,-0.5974288337450049,-0.605767092747949,-0.17322979890302445,-0.3309641415444257,-0.690323729071747,-0.1714980305143896,0.11380478421019558,1.0835538000631053,-0.0373174444496934,-0.04904398287238973,1.2063546152483218,0.0,0.0,0.0,0.0
0.03476675945372791,0.05580289405717254,0.6839714436842783,0.001419095569785174,-0.3892871491585531,0.007816582320492215,0.9210821910712405,0.0121656893205429,-0.5881286543757234,-0.6001483487871776,-0.17300722167874744,-0.3343888436614942,-0.6878977788018282,-0.17099601719336122,0.1094448075508999,1.0888045305963474,-0.027517288419937863,-0.04169362914822015,1.1972883092604993,0.0,0.0,0.0,0.0
0.03424087713201542,0.05538611976083266,0.6831915161975652,0.0015273419881163858,-0.38922035758771434,0.007876273308181761,0.921109735473748,0.018801550112804873,-0.5789978945719146,-0.5941537318421245,-0.17220995411977616,-0.33873501925685257,-0.6843650240896478,-0.16990911054710234,0.10465608952934458,1.093805784887694,-0.0175071644394575,-0.034500193064605944,1.1879155249960456,0.0,0.0,0.0,0.0
0.033505865577420406,0.05480851439622754,0.6824056243599554,0.0016472933258595336,-0.38915354665704355,0.007931502651593633,0.9211372833701992,0.025600907500722123,-0.5701197001750291,-0.5878087857867096,-0.1708504893082005,-0.34422513882062694,-0.6791637883655355,-0.1682682683140805,0.09954015014493393,1.0982464833350472,-0.007323277921290582,-0.027579158509665587,1.178238086283642,0.0,0.0,0.0,0.0
0.03252587988051134,0.0540869447957803,0.6816414222992964,0.0017796635770553713,-0.3890852454210218,0.007980454702945547,0.9211654666431813,0.032520194581930825,-0.5614719453376573,-0.5811426216708124,-0.16895121491423346,-0.3511230383207331,-0.6716925448550104,-0.16611517073701232,0.09415945052472569,1.1018661444726154,0.003019642507367153,-0.020988063513877886,1.1682306900789643,0.0,0.0,0.0,0.0
0.03126867223288621,0.053241844235461654,0.6809224165648826,0.0019254546378946978,-0.38901181967707354,0.00802152726705102,0.9211958271053302,0.03956414739923653,-0.5529461162238714,-0.5742105024947509,-0.16655281700798255,-0.3597070277082258,-0.6613381287040674,-0.163508815912034,0.08856297746179777,1.1044389007357334,0.013523150205263483,-0.014734678428070965,1.1578889790934044,0.0,0.0,0.0,0.0
0.029713441382497853,0.052297964485183514,0.6802698778134126,0.0020859170190668224,-0.3889280631080919,0.00805388841510908,0.9212305604779808,0.046853438337127164,-0.5443255294244287,-0.5671032669029477,-0.1637204438141741,-0.370223535779876,-0.6475439176645358,-0.16052877617132152,0.0828133953253089,1.1057667422536446,0.02424030709926555,-0.00876698636846666,1.147281198031162,0.0,0.0,0.0,0.0
0.027863218317479913,0.05128298215062534,0.6797032435614818,0.0022627057748074637,-0.3888278787602467,0.008078036619488447,0.9212722215424481,0.05472384234480068,-0.5352304131201058,-0.5599522756179595,-0.1605447869655159,-0.38280290285541413,-0.629956614242599,-0.15727319600703585,0.077015443710177,1.105689113485897,0.035352537813852586,-0.0029399602209625973,1.1366218677931728,0.0,0.0,0.0,0.0
0.025763449269159456,0.05022379953058944,0.6792369880961683,0.002457960327430838,-0.3887044815981387,0.008095942192403548,0.9213236348518192,0.06382016752230173,-0.5250557318085943,-0.5529575279947425,-0.15713679644185316,-0.3973145318936795,-0.6087057185833104,-0.15385169033721294,0.07133624548921522,1.1041284382144705,0.04727761386650595,0.003037747596812514,1.1263802641383984,0.0,0.0,0.0,0.0
0.02352666799070955,0.04914277852572949,0.6788662015590488,0.002673385039157408,-0.3885422782156691,0.008118837647290838,0.9213912499729238,0.0750152263354209,-0.5129851305158022,-0.5465691309791192,-0.1536596060956429,-0.4131454700551141,-0.5848863005612153,-0.15035748075462269,0.06595914005458628,1.101209455720225,0.060777579867661594,0.009622533076082058,1.117430323483878,0.0,0.0,0.0,0.0
0.021371334806628076,0.04802183849381716,0.6785586467427767,0.002921387482207359,-0.3882684572259993,0.008088431385550576,0.9215061844047724,0.08823607307679679,-0.49866526977793163,-0.5415123977426041,-0.14995765865604488,-0.4286966188008746,-0.5620745518745149,-0.14694899396335473,0.06113000776217799,1.0971902660891026,0.07676701231273952,0.01723987510505358,1.111171641681254,0.0,0.0,0.0,0.0
0.01971010651665576,0.04691161985684079,0.6783784569249625,0.003155008807866607,-0.38790055412778957,0.008067830390448524,0.9216605210919946,0.10392639532557088,-0.4821214883891888,-0.5394455376591798,-0.1464738115793855,-0.44031837393942763,-0.5461407118918246,-0.14360740449582687,0.05784157261709173,1.0922417733956504,0.09494633893768469,0.025036577627433734,1.1095197528091103,0.0,0.0,0.0,0.0
0.018774246955185186,0.046036389761566314,0.6783966934613263,0.0032809614982456286,-0.3875208783660365,0.008034891658292,0.9218200717266369,0.11790789773131677,-0.4660086282839392,-0.5437275269256316,-0.14372630242078815,-0.4460560321855603,-0.5394907858074348,-0.14087834324768606,0.0567069567032924,1.0870554179893661,0.11114523125764036,0.029488903570027813,1.113922634428202,0.0,0.0,0.0,0.0
0.018763456518357716,0.0459505208703188,0.6783646712560374,0.0033634974071453383,-0.3875333241299375,0.00807250995101625,0.9218142134709595,0.11793722364356755,-0.466001371941618,-0.5437321587427338,-0.1436631752847408,-0.44616779413705726,-0.5394770274812796,-0.14081795769510824,0.056685763679325554,1.0870094565023718,0.11115031516484145,0.029518835371661133,1.1139356952713946,0.0,0.0,0.0,0.0
0.018763456518357716,0.0459505208703188,0.6783646712560374,0.0033634974071453383,-0.3875333241299375,0.00807250995101625,0.9218142134709595,0.11793722364356755,-0.466001371941618,-0.5437321587427338,-0.1436631752847408,-0.44616779413705726,-0.5394770274812796,-0.14081795769510824,0.056685763679325554,1.0870094565023718,0.11115031516484145,0.029518835371661133,1.1139356952713946,0.0,0.0,0.0,0.0
0.018405789179253385,0.045448010793440755,0.6780364365491143,0.0035936443298460034,-0.3877368779290837,0.008009882243214065,0.9217282902247751,0.1194972833869205,-0.47153147426203845,-0.5325618996769586,-0.14193961622502224,-0.4488137419033886,-0.53636117627601,-0.14018345841815985,0.05511672659422835,1.0889383699041253,0.11196483778927141,0.026854587688691672,1.118206205990039,0.0,0.0,0.0,0.0
0.018415813838388414,0.044867615587338525,0.6775196164579975,0.0037384986353881213,-0.38783497769731706,0.007944483118825809,0.9216870070096732,0.12156168551381717,-0.47459838368399776,-0.5271100187350725,-0.14012085685885156,-0.4482967620315863,-0.5402326649245314,-0.13914464952129538,0.053127121137345745,1.0924596372409092,0.1133993841935621,0.023755839018557406,1.1243430702806247,0.0,0.0,0.0,0.0
0.01896943298595496,0.04441641913042952,0.6770356142969919,0.003791024455281857,-0.3879432439352568,0.007931295002106533,0.9216413414003078,0.1232322312672658,-0.4723577364692174,-0.5315782488170085,-0.13895642460055818,-0.44329037094989804,-0.5514912981893746,-0.13824762973990534,0.052097204758265875,1.0967993926802604,0.11499138963060467,0.02198298643509985,1.1307549407475972,0.0,0.0,0.0,0.0
0.02020077775363696,0.044106363545265856,0.6768715460229773,0.003754866883136459,-0.3882110591587386,0.008000836545390933,0.9215281119619272,0.12425099061352841,-0.463051711802319,-0.5473487456668317,-0.13848245212238042,-0.43232788188819593,-0.5707728676349273,-0.1374891367011432,0.05386917814759622,1.1002632634300324,0.11679728663728382,0.02340316513879756,1.135840881465166,0.0,0.0,0.0,0.0
0.022349358077876635,0.04375017981318179,0.6778965280319547,0.0037043696316572867,-0.38909811721624,0.008326237198512745,0.9211512398072986,0.12408792083616009,-0.44397518492807,-0.5735449236995722,-0.13842594868335437,-0.41145172803559427,-0.5993009543575823,-0.13611689430034743,0.06384286378360418,1.09692007665621,0.11963391774937517,0.03319886643419367,1.1351708609957818,0.0,0.0,0.0,0.0
0.02424924923083224,0.04286072970641508,0.6779382407380539,0.00406784548509526,-0.3889263762707373,0.008122167788259195,0.9212240535637579,0.12815687978151097,-0.43105862015649565,-0.5947001654979313,-0.11834513779517865,-0.44330606353373536,-0.5738355861700057,-0.11243608460624187,0.05233109269887793,1.098572079282567,0.12151182634883928,0.03569850391369733,1.1388280281631833,0.0,0.0,0.0,0.0
0.02658905774732924,0.0421497560241032,0.6780937865827766,0.0043740569272345525,-0.38866999943404196,0.008104677253169462,0.9213310009831217,0.13115520575077588,-0.4144182352573686,-0.6234103091452847,-0.09562704700619724,-0.4701839617322669,-0.5644527192914064,-0.08611014543646861,0.04044940947025652,1.102886455488251,0.12349245218630626,0.03982640562403372,1.1415046891427147,0.0,0.0,0.0,0.0
0.028860062655313164,0.041626093230282914,0.6784187872654542,0.004645270541407887,-0.38857233889072296,0.008151950271687912,0.921370449177397,0.1332155035711863,-0.39834572781923866,-0.6501031961604481,-0.07566752827985754,-0.49092220322495417,-0.5633390766174976,-0.06295992490759791,0.030445427030143773,1.1097726120408835,0.1251410888926225,0.04512238685156623,1.1427859888502117,0.0,0.0,0.0,0.0
0.030864436916549047,0.04128737166200194,0.6788721164528314,0.004881724570044032,-0.38859251167776315,0.008217179992895608,0.9213601394602189,0.13446914690198078,-0.3840779939078381,-0.6728279367456829,-0.059438964181861086,-0.5069623995981793,-0.5662620426713932,-0.04352552534726664,0.021997979544498933,1.1181374423595933,0.12627594686748242,0.05091551495621604,1.1425630507108697,0.0,0.0,0.0,0.0
0.0324858143095917,0.04110929842608403,0.6793928983709117,0.00509143138388201,-0.3886824742450809,0.008283805196391894,0.9213204600532072,0.1350392945666697,-0.37230973137500234,-0.6907621535871881,-0.04596971940257233,-0.5199837226075554,-0.5711312038632217,-0.02683838819906465,0.014297075711783723,1.1270648620341657,0.12685457087811441,0.05656141132652817,1.1410933866013693,0.0,0.0,0.0,0.0
0.03369132821509686,0.041084628105698046,0.6799464360550483,0.005280837962860964,-0.3888072747615661,0.008350825685838465,0.9212661285173024,0.13495897114095076,-0.3631146972257056,-0.7040984222874802,-0.034093766982210075,-0.5312738458517415,-0.5768770003685412,-0.01186301196794539,0.006739956956675277,1.136001028330855,0.12684933712424667,0.06174362978470624,1.1385576041759609,0.0,0.0,0.0,0.0
0.03450578568260001,0.041222127173270215,0.6805188456915355,0.005452856271617195,-0.38894483085779724,0.008422323953654415,0.9212064097512024,0.13420632634536758,-0.3561921622416502,-0.7135872787843996,-0.02301815022780005,-0.541676216582052,-0.5829175582088502,0.00211812205781867,-0.0009928437135496597,1.1446880170993154,0.12622816898236405,0.0664033063166808,1.135037408431405,0.0,0.0,0.0,0.0
0.03498446375577823,0.04153657894994164,0.6811038997686831,0.005607996691086971,-0.38908286194670727,0.008502111154511778,0.9211464547065187,0.13275004209441663,-0.35108916239639576,-0.720170760912187,-0.012347627043291095,-0.5516992218443304,-0.5889231606174113,0.01550778557458572,-0.009026855410003368,1.1530495924924065,0.12496438194944295,0.0706094986866663,1.1305898658227194,0.0,0.0,0.0,0.0
0.03519287868232879,0.042041236063682104,0.6816944050161429,0.0057458449669742905,-0.38921555751300646,0.008592132045451792,0.9210887092578915,0.13057374222917223,-0.3473393470003624,-0.7247681132391429,-0.0019493992411241615,-0.5616390186521406,-0.5947111042373573,0.028500466263608193,-0.017388838139438333,1.1611019681274748,0.12304602339518143,0.07446329924583202,1.1253011322022897,0.0,0.0,0.0,0.0
0.03519425612431742,0.042744765377814437,0.6822785058186982,0.005866031661921509,-0.3893409196779782,0.008692720136836838,0.9210340246448391,0.12768042369935065,-0.3445351303488729,-0.7281732372559304,0.008178464343020943,-0.5716687391212841,-0.600192950492049,0.041183631558547804,-0.02606411182113233,1.16889876987919,0.1204773797805126,0.07804474047701535,1.119306434240876,0.0,0.0,0.0,0.0
0.035042901471500396,0.04365153391514795,0.6828383218877806,0.0059686039904910445,-0.389458499308437,0.008803118336773934,0.9209826047164916,0.12408718817624573,-0.34235920971541345,-0.7310205650301882,0.01799253443259597,-0.5818878782429955,-0.6053418721493095,0.05360256079012719,-0.03501798636021884,1.1764988512826695,0.11727341516499122,0.08138642154735316,1.1127913344417195,0.0,0.0,0.0,0.0
0.034781304061066345,0.04476360200532361,0.6833489157645567,0.006053935731816545,-0.3895676802590592,0.008921881210831867,0.920934727543375,0.11981660253688092,-0.34059551985086184,-0.7337859532381867,0.027447359541439044,-0.5923323220242253,-0.6101649712546543,0.06578690056192418,-0.04419217168297982,1.1839426473233183,0.11345148212363063,0.08445936589111376,1.1059908853657943,0.0,0.0,0.0,0.0
0.03443913611820556,0.04608326167953074,0.6837768334844371,0.006122349866224029,-0.38966644403527023,0.00904685103908114,0.9208912713840325,0.11488890842972731,-0.33913213348889404,-0.7368005141612715,0.03651198258141758,-0.6029459932917006,-0.6146714936163832,0.07773968282146826,-0.05348462116358493,1.1912222697906052,0.10902259821869349,0.0871626128264092,1.099192857597145,0.0,0.0,0.0,0.0
0.034032824309581856,0.04761549065674594,0.6840788626043616,0.006173580640467205,-0.3897509623173982,0.009174684685873838,0.920853896899857,0.10931605842349824,-0.3379619518243921,-0.7402615362603508,0.04516892360208967,-0.6135128360187447,-0.6188291033605846,0.0893860038333128,-0.06271442388873603,1.1982286523487953,0.10398343693656487,0.08931679840579812,1.0927409075531966,0.0,0.0,0.0,0.0
0.033565026447772345,0.049369999689114555,0.684203009582985,0.006206199843538697,-0.3898167037716349,0.009299954928597984,0.920824593167692,0.10309732486917483,-0.33718012388049373,-0.7442302619295452,0.05339464049325623,-0.6235550189829456,-0.6225039167246034,0.10048074355190689,-0.07156518898789575,1.2046545890605043,0.09830922001370115,0.09067088722938116,1.0870228572000997,0.0,0.0,0.0,0.0
0.03302445129908531,0.05136241912681032,0.6840949104029964,0.006217259139747255,-0.38986215961833015,0.009414048582212895,0.9208041148234583,0.09621618968195882,-0.3369680273088675,-0.7486150681303368,0.061113554558839336,-0.632230021445844,-0.625391808804165,0.11050092353038822,-0.07948925898151307,1.2098266545251988,0.09194848970657188,0.09094028848046624,1.0824215662193204,0.0,0.0,0.0,0.0
0.03238840141878109,0.053613191974695,0.6837129818237867,0.006202814143212021,-0.38989623924957173,0.009504475548301475,0.9207888534622349,0.08864099502208464,-0.33754274395130557,-0.7531557949769289,0.06813413618078752,-0.6383254181124517,-0.6269784034318192,0.11862411584812682,-0.08554470869317571,1.2124351114198386,0.08482416728276909,0.08989794590948413,1.079210424127393,0.0,0.0,0.0,0.0
0.03163256355133144,0.05614034560109501,0.683050525567941,0.006160879976311847,-0.3899461573781022,0.009555757452786758,0.9207674654349345,0.08034103635089318,-0.3390541481305054,-0.7574575352888416,0.0741650905823396,-0.6405865420047303,-0.6266539749391219,0.12403599454569088,-0.08821671597160179,1.210243065154841,0.07685154876996528,0.08751021497509529,1.077416069237295,0.0,0.0,0.0,0.0
0.030738941421009608,0.05895081164481204,0.6821094738151021,0.006092188118326156,-0.3900127503753501,0.009564412526936496,0.9207396275829559,0.07128296357728761,-0.34163570645353775,-0.7612627988256163,0.0791441254792398,-0.6390160907908158,-0.6244150894573003,0.12668009753634876,-0.08749078936896054,1.20332221867661,0.0679912641547589,0.08377731158865688,1.0769149486687188,0.0,0.0,0.0,0.0
0.029696631930661868,0.06204188140130012,0.6808988812101606,0.006000272330726098,-0.3900722966491336,0.009539915593035799,0.920715260071921,0.06141776807892628,-0.34540301393296574,-0.7644586424493491,0.08328396808445748,-0.6348721981010248,-0.6208733420657943,0.12727418671203317,-0.08486118322414049,1.1939952272275942,0.0582514192359858,0.07873169934255081,1.077456985519791,0.0,0.0,0.0,0.0
0.02849415145065051,0.06540983597641334,0.6794596085139232,0.005890398693467226,-0.39012040778787194,0.00949055366305076,0.9206960953657972,0.05068865523383965,-0.35039953992421613,-0.7668172448672401,0.08674528791659304,-0.6293767200071673,-0.6165397307976743,0.12656538946224702,-0.08128034503599223,1.1835972893982334,0.047641705782173104,0.07259122932883996,1.0785838354724027,0.0,0.0,0.0,0.0
0.02711070034209955,0.0690546480561174,0.6778425392243034,0.005766421592676117,-0.3901627354501215,0.009422138810430232,0.9206796465374538,0.039035082262742715,-0.35668977861551504,-0.7679700631256982,0.08958902910034552,-0.6233902964050348,-0.6117073689219431,0.12501871765268818,-0.07732913687173995,1.1727919287474993,0.03616546725083595,0.06562599457658812,1.0797603262474629,0.0,0.0,0.0,0.0
0.025516163514414984,0.07297807498310951,0.6760948062638463,0.005630379218219984,-0.3902075202993146,0.009338327995579824,0.9206623624119571,0.026406898748846403,-0.36439665850213643,-0.7674302805392635,0.09183012003647886,-0.617415545011922,-0.6065035376750848,0.12283937668252942,-0.07336087654886914,1.1618558647637989,0.02382981167919291,0.05808015781763297,1.0804702877941679,0.0,0.0,0.0,0.0
0.02367473845781137,0.0771795759388933,0.6742552624285756,0.005483065322570576,-0.3902622065373805,0.009241682168724832,0.9206410470177482,0.012778156261930807,-0.3737023019052733,-0.7646205933583343,0.09348756612467704,-0.6116985753208387,-0.6009701490684817,0.12008700485527582,-0.06958203283837018,1.1508532054218195,0.010661186723321888,0.05015118027425635,1.0802572224277218,0.0,0.0,0.0,0.0
0.021549503146533006,0.08165144911129735,0.6723556762078645,0.005324786783396438,-0.3903323136415883,0.009134902003909515,0.9206133200960624,-0.0018391807196527377,-0.38483329735915633,-0.7588940624803607,0.09461472207437556,-0.6063303937296959,-0.5951305810813919,0.1167846516741794,-0.06609888585335758,1.1397337517072492,-0.003277977258357918,0.042001368970151325,1.0787290442724327,0.0,0.0,0.0,0.0
0.019107450447817986,0.08637335663681246,0.6704243325457446,0.005156079015794497,-0.390421047034636,0.009021962726237589,0.9205777669866505,-0.017379540306604324,-0.3980401085683196,-0.7495527689527094,0.09531682842660233,-0.6013130126343323,-0.5890342036411554,0.11300306095036784,-0.06294428896312416,1.1283864937395645,-0.0178725040894245,0.03378073655432837,1.0755518076500485,0.0,0.0,0.0,0.0
0.016325644658434543,0.09130607065362853,0.6684895179844327,0.004978343076534317,-0.39052870924710037,0.008908943036151709,0.920534178663663,-0.033704602766692196,-0.41357242721181015,-0.7358773074973569,0.09575957758090865,-0.5965806951834426,-0.5827805818548422,0.1089270653980832,-0.06008711866258583,1.1166722699255558,-0.03293804690840984,0.025646382336190716,1.0704543978513916,0.0,0.0,0.0,0.0
0.013199688846886899,0.09638407718984073,0.6665803597021404,0.004794345273604829,-0.3906512876443964,0.008804121139484646,0.9204841515018788,-0.05057927137135693,-0.4316486554416589,-0.7171856696478599,0.09616201773024274,-0.5919752104653003,-0.5765285414390587,0.10490935975274004,-0.05741976792271661,1.1044517588284308,-0.0482057279377294,0.01776370282302949,1.063268211511784,0.0,0.0,0.0,0.0
0.009756036613076098,0.10150585272177477,0.6647205294647776,0.00460848814855893,-0.39077694159378806,0.008715956606227041,0.9204326025603548,-0.0676366898197493,-0.45241827417587355,-0.6929490555893736,0.09676310872685373,-0.5871814878750907,-0.5705094567453116,0.10150062322894639,-0.05471630180174351,1.0916146535088052,-0.06330844646913865,0.010261336906536137,1.0540424629573084,0.0,0.0,0.0,0.0
0.006069530726532589,0.10651777943414473,0.6629049250357062,0.004428483067226354,-0.3908710952739361,0.00862568881979457,0.9203943572781511,-0.08422634571867627,-0.4759112634382186,-0.6630147608318873,0.09790231299841379,-0.581674939893589,-0.5651848174203981,0.09936975528013534,-0.05155250202293356,1.078103756970275,-0.07780682116926155,0.0030559166881762145,1.0432657827381944,0.0,0.0,0.0,0.0
0.002254863382841917,0.11123586381229446,0.6610965331228007,0.0042516652347087125,-0.3908567169832318,0.008598920367613514,0.920401547532561,-0.10001573474808217,-0.5021401911464789,-0.6278984545521648,0.10198670141425183,-0.5753113316085539,-0.5611574282276965,0.09931311619555475,-0.04722161637098939,1.0639645179694208,-0.09101751246880962,-0.004121219229149117,1.031954286592714,0.0,0.0,0.0,0.0
-0.0011607261961328287,0.11537623582958825,0.6593079385952083,0.004098165906087129,-0.3906760817597236,0.008531014078303478,0.9204795630408487,-0.11369970751608377,-0.5277980466856733,-0.5935369498674086,0.10851285262504365,-0.5679498331756164,-0.5591197188190554,0.10197803115897501,-0.041452452519624435,1.0493730817989384,-0.10244640773688009,-0.011096588272727586,1.0218554214198243,0.0,0.0,0.0,0.0
-0.00391698914051814,0.11855098821698717,0.657696631897108,0.003970232451442596,-0.39032927896573355,0.008438482024327105,0.9206280917164634,-0.12411714104472106,-0.5506311591145319,-0.5632329821901201,0.11790357740672953,-0.5604644808442841,-0.5602161127080884,0.10748430078549774,-0.03474461390394961,1.0337636477382997,-0.11104671444488215,-0.017555267962370384,1.014171171990184,0.0,0.0,0.0,0.0
-0.005594621202444361,0.12031771640911347,0.6565224557495031,0.003887405441467684,-0.38988306210601664,0.008322636276196452,0.9208185595909673,-0.12980760720856196,-0.5663464667807041,-0.5431869152945925,0.1280025200675108,-0.5546957295096818,-0.5651563195996687,0.11375112716898067,-0.027962788989833186,1.0173978740454168,-0.11575841138134657,-0.02264235771581961,1.010252888530521,0.0,0.0,0.0,0.0
-0.005518332292250436,0.12045608118624226,0.6564189560475822,0.0037944912594623306,-0.38990786459758525,0.00824817874292717,0.9208091151310664,-0.12996483827790511,-0.5665298976519891,-0.5431329385014269,0.12802277349981167,-0.5547048615034392,-0.5651842892072733,0.11379172435132577,-0.027930695770241175,1.0173930266638898,-0.11595280787329541,-0.022581002227456425,1.0102120729720576,0.0,0.0,0.0,0.0
-0.005518332292250436,0.12045608118624226,0.6564189560475822,0.0037944912594623306,-0.38990786459758525,0.00824817874292717,0.9208091151310664,-0.12996483827790511,-0.5665298976519891,-0.5431329385014269,0.12802277349981167,-0.5547048615034392,-0.5651842892072733,0.11379172435132577,-0.027930695770241175,1.0173930266638898,-0.11595280787329541,-0.022581002227456425,1.0102120729720576,0.0,0.0,0.0,0.0
-0.005518332292250436,0.12045608118624226,0.6564189560475822,0.0037944912594623306,-0.38990786459758525,0.00824817874292717,0.9208091151310664,-0.12996483827790511,-0.5665298976519891,-0.5431329385014269,0.12802277349981167,-0.5547048615034392,-0.5651842892072733,0.11379172435132577,-0.027930695770241175,1.0173930266638898,-0.11595280787329541,-0.022581002227456425,1.0102120729720576,0.0,0.0,0.0,0.0
-0.005062159640116558,0.12080503814341588,0.6556062882556749,0.0037190412483904586,-0.39006192404379025,0.008100455662620895,0.9207454842471436,-0.130764388240007,-0.564559486830187,-0.5496036029873645,0.12784110192096285,-0.5537778579628251,-0.569423276276872,0.113140751073512,-0.032240643881917275,1.0275506198784918,-0.1172454031462839,-0.025692200155496524,1.0166990796118538,0.0,0.0,0.0,0.0
-0.004150337020651344,0.12149831301507164,0.6544208992510699,0.0036902466251068273,-0.3900911474852017,0.007946827925485315,0.9207345581976638,-0.13305274255496752,-0.5589550133621995,-0.5657053688593369,0.12684829280161708,-0.5506004150686398,-0.5800102698224247,0.1115181203142431,-0.03849306134595102,1.0425471272778009,-0.11984302407972933,-0.029796963535344015,1.025323313882892,0.0,0.0,0.0,0.0
-0.002684789840291816,0.12270297962291245,0.6531816746442659,0.0036794685886350534,-0.39012424777213506,0.00779380896800728,0.9207218849103681,-0.1373284337276259,-0.5482840037547753,-0.5922526993253977,0.12428356576247884,-0.5438779328398609,-0.5969743402795894,0.10851399580642951,-0.04498160616280374,1.060977276842206,-0.12412504319500234,-0.03263425565520234,1.0333217554422478,0.0,0.0,0.0,0.0
-0.00048440942087658477,0.12484179413506737,0.6526843069263157,0.0036327725646736592,-0.39048597393092954,0.0077087133933229895,0.9205694340268562,-0.14503444739075838,-0.5289675915268202,-0.6312842647764006,0.11796470077116654,-0.5305845643323198,-0.6198036310612253,0.10311130209211937,-0.04773675391091577,1.0794897410113435,-0.1310154423509347,-0.028790433673345762,1.034082146177966,0.0,0.0,0.0,0.0
0.002891197837373617,0.12898719709296932,0.6551490745286404,0.00357360684054611,-0.39173087877544976,0.008066327256580507,0.9200375439690235,-0.16072712454300975,-0.4910453353633181,-0.6902729312368465,0.10160077844493942,-0.5019836354067337,-0.6495261934721123,0.0924815297612107,-0.03604814886478691,1.0868557401413421,-0.14279609691944495,-0.003654972196369583,1.0084899913513585,0.0,0.0,0.0,0.0
0.006220955182433086,0.1326809740387451,0.657368963723711,0.003370065356706005,-0.39116562036960617,0.007840113637582701,0.9202807358184254,-0.14619919924317398,-0.5195191755233158,-0.6402842037742533,0.09066253966435027,-0.4767023727762204,-0.6863064557592521,0.0817840786054973,-0.025151698178193196,1.0871456266321549,-0.13426538142571895,-0.014076713928666666,1.0324118797438728,0.0,0.0,0.0,0.0
0.010154325452312315,0.13671535379305172,0.6595338508351268,0.0033005830596925766,-0.39056396971419505,0.007741489152558156,0.9205373219257633,-0.12937064002419052,-0.5396284498618393,-0.6123976944773509,0.0779666917893087,-0.44907248070902966,-0.7270954384376634,0.06993713311948792,-0.013868038788739866,1.0891877853316854,-0.12444267645904039,-0.021217877601104874,1.0525150441072901,0.0,0.0,0.0,0.0
0.013896427973323645,0.14113883276031886,0.6614816708385759,0.0031965934760069662,-0.3901960469686979,0.007731020570816298,0.9206937916816234,-0.11691844139939257,-0.5544293951378609,-0.5984789712140487,0.06323485112153694,-0.4251173267826785,-0.7593115800579164,0.05707100287037306,-0.004000881058324324,1.094079307170714,-0.11797045212432705,-0.026670109526937186,1.0692059940192948,0.0,0.0,0.0,0.0
0.017226023834424696,0.14576636875450874,0.6633964328314912,0.003045103816787055,-0.39003559954565914,0.007731519211111321,0.9207622831331067,-0.10931826013918547,-0.5658110994132151,-0.5925804848327795,0.047497311538319105,-0.40480802695851603,-0.7827689920025647,0.04351584456107831,0.005364824233921197,1.099308011583797,-0.11529126370718855,-0.03140774908558956,1.0834937841183419,0.0,0.0,0.0,0.0
0.020055362539927915,0.15046140538773337,0.6653513357661318,0.002863665415764209,-0.38999615582008224,0.0077142814157584874,0.9207797172658524,-0.10529699629194611,-0.5749323440877379,-0.591216877126476,0.03149510125533994,-0.3879547367143022,-0.7983944463260426,0.029548158867975627,0.01454990660260871,1.1034262484721613,-0.11542649841156148,-0.03592052517983042,1.0961170820715223,0.0,0.0,0.0,0.0
0.02238122711986315,0.15513313101294982,0.6673507600778655,0.0026679675172989795,-0.3900204330820746,0.007678116188285217,0.9207703243804053,-0.10341381430155164,-0.5825637198598286,-0.5923106828247432,0.015675934368854057,-0.374290574413953,-0.8072941166050365,0.015435899214799292,0.02355007123521001,1.1059597034838404,-0.11719334727036168,-0.040394380372476064,1.1075960985317947,0.0,0.0,0.0,0.0
0.024250277709764033,0.15971871497910273,0.6693727817162981,0.002471291029189548,-0.39007065783203587,0.007627343571075572,0.9207500194130764,-0.10253310971232614,-0.5892728147959803,-0.5946654252977946,0.00032822181138633666,-0.3634713249042153,-0.8106557402508737,0.0014068476000719445,0.032284850834498155,1.1068927392407644,-0.11966195631148498,-0.04492426231799228,1.1183094420208985,0.0,0.0,0.0,0.0
0.025734645444247486,0.1641727194831415,0.6713916703893461,0.0022824291024077575,-0.39012502170616614,0.007567275265589767,0.9207279697615418,-0.10191055583334506,-0.5954834560013725,-0.5976130226852824,-0.014365471267688206,-0.3550826408579005,-0.8096585055014633,-0.012347407283892503,0.04070587551600116,1.1063847549700596,-0.12223207459583618,-0.0495690636482835,1.1285484882536627,0.0,0.0,0.0,0.0
0.02691497480000078,0.16846157587821,0.6733856175347391,0.0021063439754577897,-0.3901723240994021,0.0075024139679704255,0.9207088761419547,-0.10110938643138549,-0.6015043545631883,-0.600797740446342,-0.028293561910320182,-0.3486742357835784,-0.8054146965508558,-0.02567293665135515,0.04881415775869521,1.104643223036514,-0.12457384591634613,-0.05436699698954632,1.1385439705310347,0.0,0.0,0.0,0.0
0.027869094755676987,0.17256084142719186,0.675336664780738,0.0019452989650952373,-0.39020760680508493,0.007436264326623345,0.9206948144614746,-0.09989186765422517,-0.6075508603773748,-0.6040451536763706,-0.04139536788868325,-0.34380265019852363,-0.7989254675824508,-0.03845336473415136,0.05663637693912217,1.1018862061361765,-0.1265388868875663,-0.05933579122225695,1.1484787120307314,0.0,0.0,0.0,0.0
0.028665042459575796,0.17645344600787902,0.6772274856484078,0.0017999115937174647,-0.39022897790202615,0.007371544703252542,0.9206865728642308,-0.09813545434857127,-0.6137593541391189,-0.6072825187951373,-0.053647595325050826,-0.34007028806460887,-0.7910512823509367,-0.05060719608773161,0.06419070275873678,1.0983454602267964,-0.128084362111169,-0.06446724540254972,1.1584918770126416,0.0,0.0,0.0,0.0
0.029357285911411228,0.18012806706424714,0.6790372413581738,0.0016700150887995057,-0.39023537410110065,0.0073103674448859665,0.9206845944065741,-0.09578082199784714,-0.6201853763404807,-0.6104864495163087,-0.06505355229574315,-0.33715599111902417,-0.7824965108204858,-0.062082939154287205,0.07145459243287106,1.0942855678298353,-0.12921536042513282,-0.06971741742856025,1.168674038435089,0.0,0.0,0.0,0.0
0.029984957502971532,0.1835774250158294,0.6807374160215227,0.0015553627074186608,-0.390225126125571,0.007254365672516348,0.9206895817623983,-0.09280439196330964,-0.6267755017082476,-0.6136404774280582,-0.07563427926395828,-0.33483762101223097,-0.7738031553899283,-0.07285304260473403,0.0783375928684364,1.0900289715078635,-0.129933363612447,-0.07499096868339894,1.1790459991709181,0.0,0.0,0.0,0.0
0.03057096497105087,0.18679669825529407,0.6822881969523543,0.0014561816409189405,-0.39019595175553196,0.007204958409696856,0.9207024966529296,-0.08920730387057013,-0.6333072319663708,-0.616688795946094,-0.08542222913117811,-0.3330091835698643,-0.7653422338465379,-0.08290780747910065,0.08466018858727951,1.0859837860794739,-0.1301750525291678,-0.08011588403721719,1.1895077856024108,0.0,0.0,0.0,0.0
0.031134237977443628,0.18977733405701303,0.6836379785779022,0.0013740412696836963,-0.39014535755496105,0.007163868589062656,0.920724383828157,-0.08497456278212046,-0.6392994402251485,-0.6194743407734168,-0.09444385575496805,-0.3315988402107892,-0.7574745790583156,-0.09223674788427233,0.0901781994926514,1.0826491565227634,-0.1297226708901008,-0.0847760963866089,1.1997596799144448,0.0,0.0,0.0,0.0
0.03175480722719687,0.19247861988522852,0.684736844467248,0.001314757515602628,-0.39005710019402107,0.007133988083874329,0.92076209534001,-0.07983839335850085,-0.6439072962874591,-0.6216916519494935,-0.1026480550895284,-0.33007081219060297,-0.7515101738740741,-0.10074679252045718,0.09478478571614278,1.0804452773882212,-0.1280401332222397,-0.08830902372256158,1.2092170514441694,0.0,0.0,0.0,0.0
0.03238243019301114,0.19490090715571232,0.6855434773000065,0.001279082355153264,-0.3899490593767628,0.0071267233001970865,0.9208079630707529,-0.07375185210852209,-0.6459493747878897,-0.6228279420064009,-0.11011598759028399,-0.32874469315276195,-0.7469030152033558,-0.10843539771871469,0.09816204204886261,1.0798071654908015,-0.12439104244162569,-0.08983366177388263,1.2164427843915997,0.0,0.0,0.0,0.0
0.03292472962280847,0.1970627215810006,0.6860540378130434,0.001263130848319178,-0.3898621965585926,0.007162399268728767,0.9208444886253512,-0.06676038822957432,-0.6442137212532224,-0.6223260241438295,-0.11697737853572539,-0.3281828039345246,-0.742348917881947,-0.11531156196613576,0.10010659481807345,1.080919126765255,-0.11807946409386494,-0.08793079519400196,1.2189340657338124,0.0,0.0,0.0,0.0
0.033369946165259644,0.198964998670076,0.6862807044389498,0.0012678652797364605,-0.38979465185098977,0.007238483853380575,0.9208724809969633,-0.05890067326268999,-0.6386974488669994,-0.6201139112575235,-0.12323285401089616,-0.32841462244549086,-0.7377676368746957,-0.12138686107143389,0.10064545939826976,1.0837084275650322,-0.1091216178700558,-0.08260130825695275,1.2165736126717401,0.0,0.0,0.0,0.0
0.03371576081366912,0.20062240672503726,0.6862464270996275,0.0012948273154589158,-0.3897198439380663,0.007332378922589183,0.9209033624015324,-0.050380798033187055,-0.6305922439869355,-0.6166301910148195,-0.1288566059529599,-0.3294379412584631,-0.7332551171719204,-0.12675210060682282,0.09986198821879047,1.0879553941755578,-0.09830028225730851,-0.0753849109355704,1.2115689835997079,0.0,0.0,0.0,0.0
0.0339602455253818,0.20205786161705086,0.6860071097661523,0.0013403406034063212,-0.38963105269404674,0.007431991651836028,0.9209400695830771,-0.04140812971501158,-0.621057694312736,-0.6122976480217396,-0.1338680143811819,-0.3311812937150186,-0.7287412886181356,-0.13147883303794292,0.09801536662521415,1.0932265824585103,-0.08641511459480553,-0.06723024913589554,1.205186670416757,0.0,0.0,0.0,0.0
0.034092038497285294,0.20329437764404742,0.6856279464943392,0.001400453273287029,-0.38953174724223333,0.007531699569757327,0.9209811779415652,-0.03211599003009052,-0.6109217844284868,-0.6073782284433982,-0.1382966770437367,-0.33361675894970433,-0.7239707677699803,-0.13561903753819152,0.09539926035403097,1.0990246710128067,-0.07399166213817825,-0.05869522991925741,1.1980514088839216,0.0,0.0,0.0,0.0
0.034088977984095416,0.2043521601785577,0.6851688994127817,0.0014726807992269737,-0.38942756628174074,0.007628689898521898,0.9210243237404625,-0.022588200424902553,-0.6006764853995699,-0.6019908987302242,-0.1421675102901506,-0.33680041811636424,-0.7185491424783252,-0.13921091991447626,0.09225995652537058,1.1048855574505527,-0.06129610573875523,-0.05011375954332254,1.190425450826946,0.0,0.0,0.0,0.0
0.03392028761281248,0.20524819466220567,0.6846795866390661,0.0015560817149339325,-0.3893226084434075,0.0077210029207782195,0.9210677886444705,-0.012888058706548872,-0.5905653268966962,-0.5961679024911133,-0.1454974633411671,-0.34087097171670333,-0.7119903445872555,-0.14228367667191788,0.08877231339322152,1.1104136611117452,-0.048432024343485376,-0.041686967011371645,1.1823841050489072,0.0,0.0,0.0,0.0
0.03354970656380492,0.2059969378392689,0.6841995985266698,0.0016508379957195305,-0.3892183123460231,0.0078067981057315826,0.9211109780975156,-0.003067669009694308,-0.580674029769099,-0.5899068446596937,-0.1482976725377382,-0.3460334651479962,-0.7037488526144289,-0.1448612294129677,0.08504779859934812,1.115278955873,-0.03542376312744433,-0.033533264254891115,1.1739201712548823,0.0,0.0,0.0,0.0
0.03293914239549373,0.20661125233904434,0.6837609181169724,0.0017578613305590475,-0.3891135055129454,0.007884313419208118,0.9211543993017008,0.00684532980834161,-0.5709906875955942,-0.5832064315576925,-0.1505776578668621,-0.3525377876575141,-0.6932444025554303,-0.14696522366884018,0.08115577809067889,1.1191991358801134,-0.022259661178251382,-0.02571559897490835,1.165007391481457,0.0,0.0,0.0,0.0
0.032053663712408,0.2071027818799451,0.6833904536882416,0.0018785909301898033,-0.38900483749836273,0.00795220463579405,0.9211994733717664,0.01688639742639538,-0.5614263119265203,-0.5760850793273212,-0.15234917530969494,-0.36064909647438337,-0.6798989739223118,-0.14861641151528987,0.0771490740495891,1.1219216990481629,-0.008892817772727008,-0.01825086013781569,1.1556482260572842,0.0,0.0,0.0,0.0
0.030869282775662782,0.2074808462074758,0.6831117304281553,0.0020149930175891373,-0.3888872827413025,0.008010075760376757,0.9212483160427152,0.0272225025334245,-0.5517962750236218,-0.5685852106452747,-0.1536271695387587,-0.3705983028560538,-0.6632150093918635,-0.14983248241682318,0.07309185040334958,1.123213463318512,0.004799010710850976,-0.011098910755224015,1.1459276542258103,0.0,0.0,0.0,0.0
0.029385310728331535,0.20774890977255805,0.6829451543326497,0.0021696947628048915,-0.38875459973262727,0.008058879632969838,0.9213035374242423,0.03824533113359213,-0.5417706703432384,-0.5607700812247485,-0.15442452120535952,-0.3824926096770273,-0.6429365518214448,-0.1506205265572671,0.06909026169651758,1.122863546662348,0.01909158682844212,-0.004126672810827845,1.1360918743084685,0.0,0.0,0.0,0.0
0.027642913096306173,0.20789844104482616,0.6829050044891286,0.002346029970022319,-0.3885993442268494,0.00810034951855342,0.9213682380826461,0.05064710198845655,-0.5308205679994672,-0.5527339275282133,-0.1547380256280191,-0.396161029805831,-0.6193509383652154,-0.15096585589927444,0.06531821183898452,1.120718672251832,0.03451170163033204,0.002948847249043007,1.126664128158558,0.0,0.0,0.0,0.0
0.025749818835856923,0.207903031914375,0.6829854401176687,0.002547343119662392,-0.3884084804642471,0.008133645741932198,0.921447886292779,0.06535054794854764,-0.518243789904791,-0.5446903389349622,-0.15453161880273347,-0.4109241387831819,-0.5938014949580316,-0.1508293232334761,0.06199101027706465,1.1168131002851458,0.05188047520660352,0.010590157615382078,1.1185884014427345,0.0,0.0,0.0,0.0
0.02390358384676876,0.20772074173139354,0.683111258480308,0.0027818841581813843,-0.38808866688837784,0.008143760964116505,0.9215818612096766,0.08309700639343477,-0.5036432734521191,-0.537333688131581,-0.15376537956556927,-0.42535027478002085,-0.5697434611212563,-0.1501823581978729,0.05907647307538348,1.111556810114011,0.07209358886912812,0.019065142917889015,1.1133231004503903,0.0,0.0,0.0,0.0
0.022501541288665834,0.20729845739787414,0.6833272582770901,0.003003648681814003,-0.38766083333882034,0.008137959298859545,0.9217612651918596,0.10321913329842339,-0.4875320629746254,-0.5318007258491624,-0.15236880212158635,-0.43570464039423623,-0.5535987250806409,-0.14881962905374974,0.05758232846116477,1.1050530048744036,0.0945200444219271,0.027530292892664156,1.112863203813407,0.0,0.0,0.0,0.0
0.021723831395950324,0.20680702057726236,0.6835898496397907,0.0031050068661463044,-0.3872106356116731,0.008102040068513144,0.9219504539552511,0.12055345211093846,-0.473124726197863,-0.5312325802911034,-0.15075247917970488,-0.4405379225088482,-0.5473127234941922,-0.14711113705434417,0.057516393573644006,1.0987383246697295,0.11396464390522137,0.032167501461823435,1.1184704448307123,0.0,0.0,0.0,0.0
0.021722527510742464,0.20675482127195757,0.6835678914735871,0.003159203622702612,-0.38721154920711776,0.008125070507190609,0.9219496834547682,0.12058469336981287,-0.4731161476071442,-0.531234950022403,-0.15072362159702485,-0.44063990004770176,-0.5472959566740617,-0.14707956494675425,0.057510595782138296,1.0986949918563822,0.11397408631620676,0.03219645588616484,1.1184843061168175,0.0,0.0,0.0,0.0
0.021722527510742464,0.20675482127195757,0.6835678914735871,0.003159203622702612,-0.38721154920711776,0.008125070507190609,0.9219496834547682,0.12058469336981287,-0.4731161476071442,-0.531234950022403,-0.15072362159702485,-0.44063990004770176,-0.5472959566740617,-0.14707956494675425,0.057510595782138296,1.0986949918563822,0.11397408631620676,0.03219645588616484,1.1184843061168175,0.0,0.0,0.0,0.0
0.02148897225890461,0.20654612035619915,0.6833457621780841,0.003385849004081221,-0.3873955747986397,0.008091390233887281,0.9218718642289915,0.12113950405134742,-0.4765171866203776,-0.5241910536075106,-0.1500050195315003,-0.442742241788833,-0.5442561396544945,-0.14728535566854464,0.05645033504774728,1.10047005390865,0.1139380206956818,0.030537703218095524,1.1212850765169038,0.0,0.0,0.0,0.0
0.02163071564104568,0.206316521820093,0.6829585332843127,0.0035228838891525386,-0.38750405864497167,0.008055692157351078,0.9218260680012493,0.12201232725293742,-0.47700478175333727,-0.523545064362072,-0.14935737044028113,-0.44180091021063456,-0.5476226672812882,-0.14727413247447027,0.05511108689914993,1.1038767034996797,0.11436570560031421,0.028663220101661453,1.1257432548008328,0.0,0.0,0.0,0.0
0.02227017935847079,0.2061132423551087,0.6824760700564603,0.003579139339214198,-0.38762832135671393,0.008044941541035997,0.9217736995376729,0.1229285929918559,-0.4731538321702852,-0.5312721352039231,-0.14899266532372174,-0.4368247476021706,-0.5582904526671691,-0.14722156165296205,0.05413235180498606,1.108908378731733,0.11520212613380076,0.027296398592180793,1.1317171984963517,0.0,0.0,0.0,0.0
0.023520287236747723,0.20589152495086724,0.6821274638102099,0.0035630296723363998,-0.38790817408208256,0.00808928836817253,0.921655638898583,0.12381478790670407,-0.46383214858799027,-0.5477861985632136,-0.14878176314933747,-0.4264959688013109,-0.5770149404335709,-0.14696800131475823,0.05506811088506783,1.1141480489517062,0.11667563370526497,0.02793477393708919,1.1381202853010053,0.0,0.0,0.0,0.0
0.025617299977330428,0.20549850170152645,0.6827632896200059,0.0035371916810469765,-0.3887646145967786,0.008387900171917375,0.921292139249617,0.12396348041487991,-0.4462300697337312,-0.5728309555749224,-0.14864001353251338,-0.4069939233738471,-0.6049152462373849,-0.14575142604580618,0.06311936558354331,1.1137442230141306,0.11958626383206149,0.03569557018121958,1.1404196845682433,0.0,0.0,0.0,0.0
0.027456474352405866,0.20451603363169438,0.6824230233061818,0.0039223696896301475,-0.3886308688961176,0.008147561477198048,0.9213491629122164,0.12852453527856642,-0.43493579549341665,-0.5920841919444269,-0.12821639907997576,-0.44025400066437637,-0.5783865524753549,-0.1205029169413061,0.05326941949021048,1.1116854650662296,0.12173014179961246,0.03620139786658918,1.147410572224044,0.0,0.0,0.0,0.0
0.029722877464726755,0.2037195107133128,0.6822211577701166,0.004260430729997479,-0.388419316562218,0.008095087294271119,0.921437329834771,0.13197510905171222,-0.41985405607557796,-0.6188837673260913,-0.10488389583444895,-0.46823271601402994,-0.5682815013167275,-0.0929838394540737,0.04223059095652511,1.1140198854802714,0.12392965554106189,0.03847978818188548,1.1531692830462674,0.0,0.0,0.0,0.0
0.03191113175391232,0.20312785167765682,0.6822837318803618,0.004558138040590516,-0.38836505106432395,0.008121103652091642,0.9214585493471098,0.1343554289411928,-0.4050544326748296,-0.6439067654130568,-0.08440950974319457,-0.4897059025501299,-0.5667807823817226,-0.06898117713771854,0.03251113139994377,1.119976277086493,0.1257620350739633,0.042407457774945714,1.1567030539523981,0.0,0.0,0.0,0.0
0.03384440100423972,0.20274919360207413,0.6825550315529985,0.004811224228366104,-0.38840795921897486,0.008174767390142026,0.9214387025271363,0.13579791237397698,-0.3916651411703409,-0.6655629372668567,-0.06789717291666383,-0.5062520273935824,-0.5695345163717365,-0.04902430011301612,0.024120377865441037,1.127987993241378,0.1270103452347642,0.04724228962587827,1.1579762845580708,0.0,0.0,0.0,0.0
0.03541668827936491,0.2025605478279952,0.6829543268103848,0.005028526209587363,-0.388503511546469,0.008236548109193113,0.9213967086523953,0.13643893550412872,-0.38040849850634917,-0.6830245209973057,-0.054362550583378036,-0.5196230081829539,-0.5743672942962467,-0.032053717536884824,0.01642744592318529,1.1368765660319733,0.1276249133930109,0.052253164962264974,1.1574391948868044,0.0,0.0,0.0,0.0
0.03659760266823209,0.20255078843371482,0.6834287078226153,0.005218841766551632,-0.3886224637520554,0.008302677772161393,0.9213448919377095,0.13633630553718076,-0.37142527805678643,-0.6963815260664667,-0.04257693030890908,-0.5311579673940298,-0.5801541424817104,-0.016945747453551162,0.008892444027677086,1.1459419655449261,0.12758425400486217,0.05703812831782282,1.1554506161308098,0.0,0.0,0.0,0.0
0.03740937950949489,0.20272200450596312,0.6839497094428881,0.005387572613422675,-0.3887477899783169,0.008375004613148405,0.921290393494928,0.13549739763621688,-0.36449044924502366,-0.7062552105429799,-0.03168057291362404,-0.5417368179785803,-0.5862782227543445,-0.0029166545701869353,0.001203224331363873,1.1548448813371475,0.12687087373782163,0.06146284591109705,1.1522359600375025,0.0,0.0,0.0,0.0
0.03790202590229041,0.20308145384099713,0.6845004866945043,0.005537299943153699,-0.3888709578033858,0.008455814722898579,0.9212367858937185,0.13391871751124007,-0.35922452242887504,-0.7134572724905717,-0.021225694962416747,-0.551893573441827,-0.5923878118304656,0.01048036772363955,-0.006777365131417449,1.1634636848929547,0.1254764706778933,0.06553501577991712,1.147958084710338,0.0,0.0,0.0,0.0
0.0381348385816676,0.20363537727377398,0.6850667710801717,0.005669118407923589,-0.3889886534327233,0.008546238124334828,0.9211854592919907,0.1316067149236736,-0.3552273688731449,-0.7187874214816656,-0.011044382524006522,-0.5619418602211353,-0.5982858930573952,0.023466887967993733,-0.015089264985289608,1.1717891533642482,0.12340748199731495,0.06930960383230497,1.1427742426234773,0.0,0.0,0.0,0.0
0.038165030660206954,0.20438670265536543,0.6856324119618746,0.005783646986783805,-0.38910027760074245,0.008646274376097128,0.9211366702818701,0.12858134965375306,-0.3521474907045256,-0.7229379130188589,-0.0011137363838066155,-0.5720666548763443,-0.6038743984996008,0.036145799514411325,-0.02372676062234333,1.179860272467781,0.12068380479068228,0.0728344037076403,1.1368620921610562,0.0,0.0,0.0,0.0
0.03804176131962711,0.2053355875927207,0.6861772563043448,0.00588150989047239,-0.3892060732806856,0.008755188622845092,0.9210903251229036,0.12487084574314171,-0.3497120469134478,-0.7264624489794763,0.008533749249471985,-0.5823748034620652,-0.6091195892919096,0.048570679765420614,-0.03265928449630105,1.1877269189409891,0.11733226456691433,0.07612175133560682,1.130428389955177,0.0,0.0,0.0,0.0
0.0378035186879442,0.2064813538798156,0.6866754850413198,0.005963383166741776,-0.3893057139412143,0.00887171905012308,0.9210465741508534,0.12050418283197434,-0.34773746800657945,-0.7297774116118788,0.01785743873654115,-0.592906116715306,-0.614023324944711,0.06077514399950672,-0.04182926816161307,1.195423164258521,0.11337805119854537,0.07913212306969714,1.1237144123494152,0.0,0.0,0.0,0.0
0.03747714623942616,0.2078248140018141,0.6870937330078662,0.00602974523324593,-0.38939735458935176,0.008993920244950186,0.9210062170310601,0.11550448696398426,-0.34613290058313184,-0.7331737810620897,0.02682796545797641,-0.6036053873702405,-0.6185906646446845,0.07276353739877812,-0.051133550246891514,1.2029353618060057,0.10883628943948262,0.08176195607975625,1.1170037747622077,0.0,0.0,0.0,0.0
0.03707729792886235,0.20937048265758237,0.6873895972923194,0.006080427667297694,-0.3894774150462128,0.009118610766721024,0.9209708043722059,0.10988406860130284,-0.3449020306471769,-0.7368251210347132,0.03542825493325392,-0.6142542977912138,-0.6227859929054234,0.08446042954949153,-0.06038934162531556,1.2101475054983766,0.10370452244297597,0.08383586895236601,1.1106284390397636,0.0,0.0,0.0,0.0
0.03660573836378291,0.21112839847407747,0.6875124066701654,0.006114059222197138,-0.38954170496228513,0.00924046893964006,0.9209421763111292,0.10364076188324448,-0.3441421035309516,-0.7407826646655999,0.0436353322656993,-0.624369531899164,-0.6264736888126312,0.09561863497759335,-0.06927814688153075,1.2167421034050176,0.09795630294831731,0.08511182141558055,1.1049590749825329,0.0,0.0,0.0,0.0
0.03605098308082642,0.21311506730254198,0.6874092922561398,0.006127626731720945,-0.3895888906522666,0.009350980940999206,0.9209210105250146,0.09675556470377375,-0.34403007328544916,-0.7449570363177982,0.05137546905389455,-0.633100772330154,-0.6293511746686469,0.10571170027004471,-0.07725025523782475,1.2220292651244407,0.091537075535768,0.08531639498956478,1.1003587974408457,0.0,0.0,0.0,0.0
0.03539071516892002,0.21535201509566346,0.6870398218031437,0.006116828858354579,-0.38962736438005885,0.009437902151928067,0.9209039186223159,0.08919407811066005,-0.3447747152002772,-0.7491027591429139,0.058461024821354075,-0.6392282422867238,-0.6309111671809847,0.11391313753638727,-0.08336186424488153,1.2246737982181108,0.0843672046730493,0.0842315914444893,1.097083319433838,0.0,0.0,0.0,0.0
0.034601627550015904,0.21785816455883913,0.6863978406312568,0.00607894477805408,-0.38968275218257203,0.009486324304676537,0.9208802358249351,0.08092324094895297,-0.34651485391124054,-0.7528532436228471,0.06460509771078882,-0.6414940150166526,-0.6305563123469616,0.11940635680405855,-0.08609535972444224,1.2224069058198928,0.07636217777904647,0.08182806435749246,1.0951477189378407,0.0,0.0,0.0,0.0
0.03366771197931709,0.2206410608047563,0.6854859684171616,0.006014525244837448,-0.3897556817389851,0.009492791581476276,0.9208497276680103,0.07190986177040719,-0.3493662921693875,-0.7559804145215526,0.06974132693561955,-0.6398983698884859,-0.628285308527533,0.12213217254525895,-0.0854307403583851,1.2153021001677102,0.06748241827840143,0.07811193662046877,1.094425930155503,0.0,0.0,0.0,0.0
0.03258092364108239,0.2236983315359079,0.6843141719068416,0.005927475432476805,-0.3898235491155784,0.009466258665499548,0.9208218370221296,0.06210776412434178,-0.3534206573176654,-0.7584014088954191,0.07407017364152234,-0.6356974686279757,-0.6247019739091929,0.12280562587989526,-0.08285488390516565,1.2057161123883027,0.05773502394537648,0.07312345207853505,1.0946729882910398,0.0,0.0,0.0,0.0
0.031332917347361086,0.2270263506975196,0.6829238881548175,0.005823052658168601,-0.3898819790686765,0.00941473611079957,0.9207982934384686,0.05146366459761015,-0.3586969975806266,-0.7599275909314653,0.07774213786503624,-0.6301149115390523,-0.6203143376169452,0.1221731326394706,-0.0793133710148348,1.1950095363797602,0.047130792205425584,0.06708429675387713,1.09543866539514,0.0,0.0,0.0,0.0
0.02990606478848583,0.23062529433736406,0.6813667294160274,0.0057048359931902715,-0.3899360145266407,0.009343856553950524,0.9207768740395631,0.03992001361907377,-0.36523588504170035,-0.7602328251735252,0.08081144255769475,-0.6240129114008188,-0.6154170111259829,0.1206983426190279,-0.07538084154979473,1.1838603731031663,0.03567438127152685,0.060268070364869725,1.0961934786336476,0.0,0.0,0.0,0.0
0.028273383878686508,0.23449756754857837,0.6796914162877761,0.005574455872277773,-0.38999312816787207,0.009257109215963672,0.9207543599421778,0.02742795178181886,-0.3731355548406119,-0.7588732040166893,0.08328834235313287,-0.6178932052604195,-0.6101412183849505,0.11858405627906539,-0.07140400471109673,1.1725521036472906,0.023372927033435076,0.05292713819104245,1.096417804429683,0.0,0.0,0.0,0.0
0.026402096425895086,0.23864393743247658,0.6779397359988583,0.005432210428455058,-0.3900600096195993,0.009156927402778845,0.9207278808996496,0.013960123128322016,-0.382551553916959,-0.7553143977448029,0.08518821606687295,-0.6119987613166061,-0.6045342741445681,0.11588777802389977,-0.06758146964231686,1.161151365863121,0.010251129702947887,0.04527514147673689,1.0956378048227242,0.0,0.0,0.0,0.0
0.024258049219897725,0.24305881015690534,0.6761480402332752,0.005277832443768838,-0.39014140776982814,0.009045969625306224,0.9206953876617446,-0.0004762929078412498,-0.393681499769754,-0.7489527226012778,0.0865621028917126,-0.6064169807734775,-0.5986268893129371,0.11263314213861592,-0.06400983797467122,1.1496096262255828,-0.003632109648164036,0.037500333530193185,1.0934267922340635,0.0,0.0,0.0,0.0
0.0218104776462569,0.24772486063780008,0.6743510981848365,0.005111180441289128,-0.3902396301765463,0.008928407711053918,0.9206558479746458,-0.015824805990975632,-0.40674467858671637,-0.7391335510311143,0.08751440019117562,-0.601147663538124,-0.5924791610173942,0.10889774674301678,-0.06071085534895379,1.1378204516461337,-0.018166350790183926,0.029789952767084158,1.089395571036411,0.0,0.0,0.0,0.0
0.01903772101978954,0.2526068433303301,0.6725858300487272,0.004932811098671451,-0.39035388695096895,0.008811120913670163,0.920609512478108,-0.03196203111442447,-0.42195856502091783,-0.7251788329171321,0.08820874099857087,-0.5961237514574362,-0.5862065697506107,0.10488314506322073,-0.05764362663761784,1.1256571012618977,-0.03317179141833136,0.022351573541580037,1.0831933294355156,0.0,0.0,0.0,0.0
0.0159350013466709,0.2576441455746159,0.6708921851359309,0.004744690714400482,-0.3904786358150062,0.008703414089419709,0.9205586203307558,-0.04867148178999235,-0.4395108721069353,-0.7064403895907785,0.08885539524426901,-0.5911833409497823,-0.5799898418334868,0.10096529680861371,-0.054699069976217006,1.113007319937548,-0.04838448411421953,0.015414787053618473,1.0745421792991487,0.0,0.0,0.0,0.0
0.01252593744700078,0.2627408498835372,0.669306374112257,0.004550574520329691,-0.39060085521511534,0.008615638202313185,0.9205085740801778,-0.06560968733729616,-0.4595271022484788,-0.6824036908115276,0.08965102152707204,-0.585985548035624,-0.5740856264210332,0.09771231310174204,-0.05167028435337337,1.0998121862261323,-0.06344041395467662,0.009186512478932062,1.063355155727457,0.0,0.0,0.0,0.0
0.008879386826752865,0.2677485863679941,0.6678342993679381,0.004358206881921254,-0.3906858386372513,0.008531575871360095,0.9204742221997492,-0.08214863400637785,-0.4820332356878652,-0.6528911869903683,0.09081000534634531,-0.5799245683697071,-0.5689856443627009,0.09576882620197684,-0.048191679822844044,1.086099872588234,-0.07790120429226605,0.0036597954990396746,1.0499844303512482,0.0,0.0,0.0,0.0
0.005100676376677419,0.2724831493316878,0.6664353201003604,0.004166340220270444,-0.3906596473941619,0.008514607235629414,0.9204863839137768,-0.09793798639226658,-0.5070990431922988,-0.618301623716272,0.09452933917308394,-0.5726951625650606,-0.5653616457161498,0.09580979503900468,-0.04366329983095235,1.0720218041194918,-0.09108130746480715,-0.001438549698952525,1.0354376092945468,0.0,0.0,0.0,0.0
0.0017128995908555072,0.27664486378474884,0.6650543842227222,0.004002913148335041,-0.3904658104180028,0.008458562601970546,0.9205698671473272,-0.11162055775019211,-0.5316032900107354,-0.584475204487831,0.10042127647931216,-0.564083467257504,-0.5640382428700456,0.09822346006747497,-0.03795217262729588,1.0579569552913728,-0.10247409489681947,-0.006289931492838671,1.0220354669341476,0.0,0.0,0.0,0.0
-0.0010427857137306558,0.2797609719939788,0.6636571330790944,0.0038622107850156337,-0.3901374141675098,0.008400018746252715,0.9207102264445658,-0.1218739229713501,-0.5541264360356756,-0.5537399918636747,0.10947517328786023,-0.5552592584746848,-0.5666623430156399,0.10316701970891809,-0.031710871044421496,1.0430943413262694,-0.1107761491077223,-0.011735087956428714,1.0130700027372768,0.0,0.0,0.0,0.0
-0.0027278513205482094,0.2814941072363231,0.6626188443829485,0.0037800050320327093,-0.38972497718103977,0.008322852538191906,0.9208859233633792,-0.127527892906561,-0.569745560675947,-0.533128214083114,0.11908325086676128,-0.5475187929064774,-0.5740656573629731,0.10863335730096899,-0.026025080181328833,1.0286617133589684,-0.11531125773734571,-0.01617105267436716,1.0084526018285003,0.0,0.0,0.0,0.0
-0.002652412708449808,0.28163332696862825,0.6625163043561909,0.0036875501346558875,-0.3897500028727547,0.00825035474869011,0.9208763591716387,-0.1276830776733384,-0.5699297975143488,-0.5330734142942345,0.11910220680237582,-0.5475312443604449,-0.5740953987926457,0.10867604128081411,-0.025993597549783677,1.0286584432097576,-0.11550345847948437,-0.016096506105225873,1.0084070214407306,0.0,0.0,0.0,0.0
-0.002652412708449808,0.28163332696862825,0.6625163043561909,0.0036875501346558875,-0.3897500028727547,0.00825035474869011,0.9208763591716387,-0.1276830776733384,-0.5699297975143488,-0.5330734142942345,0.11910220680237582,-0.5475312443604449,-0.5740953987926457,0.10867604128081411,-0.025993597549783677,1.0286584432097576,-0.11550345847948437,-0.016096506105225873,1.0084070214407306,0.0,0.0,0.0,0.0
-0.002652412708449808,0.28163332696862825,0.6625163043561909,0.0036875501346558875,-0.3897500028727547,0.00825035474869011,0.9208763591716387,-0.1276830776733384,-0.5699297975143488,-0.5330734142942345,0.11910220680237582,-0.5475312443604449,-0.5740953987926457,0.10867604128081411,-0.025993597549783677,1.0286584432097576,-0.11550345847948437,-0.016096506105225873,1.0084070214407306,0.0,0.0,0.0,0.0
-0.0022072680160374484,0.2819590816056205,0.6617188129322918,0.003620227623697491,-0.3899018293409774,0.00810437298722451,0.9208136492075886,-0.12839202120158436,-0.5679739296489431,-0.5394179610478899,0.11896116273241183,-0.5466612436305952,-0.5781970698689838,0.10803842701833632,-0.030106467374823274,1.0384433082890783,-0.11674717588398408,-0.01917011569102511,1.0148392094861884,0.0,0.0,0.0,0.0
-0.0013209240138485185,0.2826061653257748,0.6605437601541476,0.0035989004224858023,-0.3899335211956099,0.007947702852512463,0.9208016784210974,-0.13047511246150584,-0.5624490945375137,-0.5552103982554953,0.11808014940630272,-0.5437042933265293,-0.5883492741608258,0.10647335624747636,-0.03611794584942942,1.0529508171538846,-0.1192392721631339,-0.0233137241678201,1.0235182342221874,0.0,0.0,0.0,0.0
0.00010294025476522968,0.28374776647872907,0.6593055706842756,0.0035949052955160676,-0.3899721918525735,0.007789885315524583,0.9207866658050533,-0.13446183364650202,-0.551922520491029,-0.5813074942245647,0.11567795333560765,-0.5373922167722267,-0.6045440104370475,0.10355683804519569,-0.04236157434758233,1.0708239659441372,-0.12337128808570512,-0.026277070754045805,1.031674817414928,0.0,0.0,0.0,0.0
0.002247105311738113,0.2858111455782025,0.6587983716919004,0.003553544328346227,-0.3903426205684889,0.0077039573769422266,0.9206305773387963,-0.1418335488953512,-0.5327755326494721,-0.6198534551406598,0.10956260103136212,-0.5246830059307113,-0.6262813666692248,0.09826773248148671,-0.04488125736165284,1.088723371060562,-0.13006999140795533,-0.022636698601301707,1.0326776443258014,0.0,0.0,0.0,0.0
0.005559807113444344,0.28986441701842813,0.6612329359813008,0.0034962994176243713,-0.39160928368577497,0.008073035804443289,0.9200895450522175,-0.15716839234787708,-0.4949784371106075,-0.6784762869417577,0.09348813395930347,-0.4968204974893697,-0.6545718249425787,0.08781611714370181,-0.03300068732219935,1.0954892333786728,-0.14159565463685908,0.0021860126266880983,1.0075190504142852,0.0,0.0,0.0,0.0
0.008846639270178829,0.29346757553359093,0.663471990404706,0.0033074510734599567,-0.3910459742236176,0.007839370848347788,0.9203318157466907,-0.14297151741582792,-0.5214596614302163,-0.6320734056335187,0.08284758702986844,-0.4719179073767304,-0.6905672670043562,0.07722670419577142,-0.02172658997326334,1.094899936871803,-0.13284135741519176,-0.008954125083322936,1.032438972040097,0.0,0.0,0.0,0.0
0.012726069077566661,0.2974113298612364,0.6656561728095366,0.003247827178520469,-0.3904466971459311,0.007731919854817211,0.9205873373677321,-0.1264161699243256,-0.5403389925058095,-0.6063567420296627,0.07044839968162522,-0.4447158704231723,-0.7304598876797395,0.06549303521499705,-0.010058729202271074,1.0960079314632503,-0.12282398434933421,-0.016579809128446407,1.0531146299937262,0.0,0.0,0.0,0.0
0.016407433443849498,0.30175788833750994,0.6676209542936327,0.0031483480517980646,-0.39009002059043757,0.007720035252842356,0.9207389775587822,-0.1141055950578449,-0.5544155781935174,-0.5936880560672978,0.05595180043427242,-0.42117039917585164,-0.7617381676704411,0.05272887139144598,0.0001455241347650925,1.100055746039096,-0.11619446753040812,-0.022346836200563852,1.070099604734277,0.0,0.0,0.0,0.0
0.019677910530156627,0.30632424692957366,0.6695437623191263,0.002999622444698696,-0.38993798455199885,0.007722802897069533,0.9208038492448473,-0.1065490054651949,-0.5653900455124149,-0.5885148563344473,0.04040943192093936,-0.40125398536838913,-0.7843353573596068,0.03924458938916822,0.009753867768085876,1.1045944203618658,-0.11338414509548932,-0.027289137539685784,1.0845343108617513,0.0,0.0,0.0,0.0
0.022454049204076267,0.31097288600998885,0.6714988030764784,0.002818832594243032,-0.38990602398096125,0.0077117460701338686,0.9208180469662361,-0.10252922977807993,-0.574283070744044,-0.5875596322566741,0.024559484544170666,-0.38476921194388913,-0.7991787358658189,0.02532465325734338,0.019095347862629862,1.1081854610749842,-0.1134012932683253,-0.031919864783815706,1.0972359381904213,0.0,0.0,0.0,0.0
0.024735194198561107,0.31560970198308663,0.6734935695217873,0.0026235379855401777,-0.38993455565289253,0.007682142600722631,0.9208067897454285,-0.1006199697586234,-0.5817858961077627,-0.5888811220362903,0.008870587654932878,-0.371442585569053,-0.8073998122956484,0.011234600017106208,0.028194126636549598,1.1103137539243586,-0.11506512051458113,-0.03645746993976208,1.108763405564069,0.0,0.0,0.0,0.0
0.026569072573243233,0.3201689874923624,0.6755088595243924,0.0024271920485662473,-0.38998657758837635,0.007637558095019222,0.92078566764802,-0.09970307978610192,-0.5884191308627179,-0.5913602638545068,-0.006362332394740138,-0.36092144375129515,-0.8101873383357524,-0.0027911126513564324,0.03699501827353694,1.110929365430612,-0.11744515118543104,-0.041013845554479726,1.1195154619698646,0.0,0.0,0.0,0.0
0.02802787404943432,0.3246030107544739,0.6775207470105069,0.0022385707702016885,-0.3900412046616423,0.007583091933341632,0.9207634572373797,-0.09904395996656336,-0.5945806921083577,-0.5943752091496043,-0.020953252684084687,-0.3527864185718864,-0.8087155757919401,-0.016554647023469544,0.04546768887772829,1.1101653065225945,-0.11994035080456299,-0.04565998953261078,1.1297923831998749,0.0,0.0,0.0,0.0
0.02919169794595923,0.32887647112681817,0.6795083493984772,0.0020626197010639503,-0.3900879092190345,0.007523228445145875,0.9207445735462432,-0.09820971746581758,-0.600565704938697,-0.5975978385068388,-0.034788567787601844,-0.3465856802719135,-0.8040899462624145,-0.029897367027660736,0.053624105586685296,1.108210816904655,-0.12221918388788132,-0.05044236086630178,1.1398284135508874,0.0,0.0,0.0,0.0
0.03013750899070145,0.3329636572680835,0.6814540127705561,0.0019015980981152974,-0.3901221764915966,0.0074615377507319764,0.9207309035698363,-0.09696350041125698,-0.6065826219201295,-0.6008698195264602,-0.04780647451078677,-0.3418766478148016,-0.7973041847518507,-0.04269962038538135,0.06149666039213863,1.1052723071123596,-0.12413081826461113,-0.055383656001026314,1.1498075658720794,0.0,0.0,0.0,0.0
0.03093236259267723,0.3368465823752796,0.6833403572636243,0.0017561329459057356,-0.3901423833330163,0.007400817765187855,0.9207231204986202,-0.09518252653396972,-0.6127644677771685,-0.6041273478628103,-0.059983053095439734,-0.33826392355607077,-0.7892116714009083,-0.05487781513805651,0.06910594831772063,1.101574430253486,-0.12562981617256186,-0.06047831236755388,1.1598692866160247,0.0,0.0,0.0,0.0
0.03162976441077555,0.3405132583815533,0.685146335103819,0.0016260771826169353,-0.39014760765459583,0.007343236510398959,0.9207216066716063,-0.09280698158505775,-0.6191653731999517,-0.6073515329090834,-0.07132121014823814,-0.33542896564938063,-0.7805106649159875,-0.06637925023735244,0.07643011066002177,1.097377473753775,-0.12671907044692138,-0.06568360726231576,1.1701040462943513,0.0,0.0,0.0,0.0
0.0322679837083209,0.34395589797467935,0.6868432081365847,0.0015112144411413128,-0.39013622890031535,0.007290443085530317,0.9207270434661785,-0.08981251171324099,-0.6257316357905142,-0.610527517673019,-0.08184161999940873,-0.33315201420570767,-0.7717384656971175,-0.07717575111402693,0.08337874794589371,1.093001030189003,-0.12739858100658819,-0.07090469888482938,1.1805322788999806,0.0,0.0,0.0,0.0
0.03286919182967583,0.34716921854255384,0.6883910681034257,0.0014118195308321724,-0.3901058561891506,0.007243832481554768,0.9207404382471323,-0.08619808427610488,-0.6322410576870209,-0.6135992159089181,-0.0915761814989326,-0.33132874252903943,-0.7632635017217667,-0.08725719053670278,0.0897726694717707,1.0888499760219261,-0.12760400926991555,-0.0759699305960843,1.191053133293108,0.0,0.0,0.0,0.0
0.03344917648199558,0.35014505831447335,0.6897382352823896,0.0013295234384094901,-0.3900540431868169,0.007204975767269553,0.9207628164110649,-0.08194984888434796,-0.6382130332352902,-0.6164087663571949,-0.10055262259757648,-0.3299058999769832,-0.7554119342991273,-0.0966153732266378,0.09536298436549291,1.0854208219771677,-0.12711865161297442,-0.08056860877035346,1.2013608719776363,0.0,0.0,0.0,0.0
0.034083282501989234,0.3528435014473663,0.6908344308510044,0.0012700039339538258,-0.3899651741794094,0.007176729474285516,0.9208007626904332,-0.07680777375201346,-0.6428037851224933,-0.6186467040919394,-0.10872335949839357,-0.32837657489490557,-0.7494369143845794,-0.10515942101225409,0.10003480377016624,1.0831333330672994,-0.12540713100272952,-0.08404735256554458,1.2108603139171035,0.0,0.0,0.0,0.0
0.034717936205239996,0.35526617933295473,0.6916376990945697,0.0012339085715821177,-0.3898577737511662,0.007170499079321803,0.9208463377015597,-0.07073603787013241,-0.644835155487708,-0.6197967570744528,-0.11617130246923485,-0.32708722126028067,-0.7447425314944098,-0.11289029829954894,0.10345986521437807,1.0824322787101044,-0.12173822330392456,-0.0855366515881349,1.2181015125703094,0.0,0.0,0.0,0.0
0.03526889409257351,0.35742893401263104,0.6921439941371135,0.0012177282719007183,-0.38977098678468053,0.007206332310752183,0.9208828176121971,-0.0637646018401366,-0.6430996127901829,-0.6192996416869543,-0.12301621279866176,-0.32654663380100657,-0.7401386435662674,-0.11981062249131998,0.10544845774249632,1.0835024253673429,-0.11541399677502438,-0.08361093187408387,1.2205820215229242,0.0,0.0,0.0,0.0
0.03572430189540925,0.3593334487734492,0.6923652543638189,0.0012223421536343084,-0.3897032573796429,0.007281723933305249,0.9209108825309398,-0.055935547662881925,-0.6375948532612123,-0.617085180670365,-0.12926116051940337,-0.32678622129179163,-0.7355393369158969,-0.12593438543978705,0.10602550394186983,1.0862766545944882,-0.10645360933576847,-0.07827309412093945,1.2181842551248225,0.0,0.0,0.0,0.0
0.03608240283824822,0.3609952997907528,0.6923249957487735,0.0012491785573526147,-0.3896281079948442,0.007374248309378774,0.920941907763547,-0.047456545450562264,-0.629508059966633,-0.6136001047551591,-0.13488428049269843,-0.3278001036530321,-0.731041636943673,-0.13135501760172313,0.10527718763487934,1.0905330813085536,-0.09564102513047074,-0.07105887294734017,1.2131267902178813,0.0,0.0,0.0,0.0
0.03634208630048811,0.3624384159775458,0.692079746105359,0.0012944365037402174,-0.3895388790507999,0.007472051127420292,0.9209788024672084,-0.038535620468100246,-0.619996167823389,-0.6092721273706548,-0.13990829341124783,-0.32951283103395745,-0.7265771729762129,-0.1361465563557486,0.10346609194765638,1.0958352794604993,-0.08377624940083069,-0.06291043721646696,1.2066844946347122,0.0,0.0,0.0,0.0
0.03649279889461679,0.36368684727381645,0.6916951421945168,0.0013540519436160898,-0.3894390525098036,0.007569700903021722,0.921020135801514,-0.029307742891160515,-0.6098854821129492,-0.6043660830400059,-0.1443655346939725,-0.33189363070931677,-0.7218917315230728,-0.14036343734403722,0.1008879547682105,1.10168482131584,-0.07138529388982368,-0.0543806303029234,1.1994872176643963,0.0,0.0,0.0,0.0
0.03651308045716597,0.36476178279261656,0.6912313724557978,0.001425446670044405,-0.3893342297031594,0.007664505008308368,0.9210635597211606,-0.019858543074183988,-0.5996667008365628,-0.599002271500293,-0.14828319245660718,-0.3349968352323905,-0.7165917839553859,-0.14404618093724678,0.09778946305778038,1.1076187341908326,-0.05873534192373657,-0.04580046515680502,1.1918000013617036,0.0,0.0,0.0,0.0
0.03637271869583371,0.3656810944223536,0.6907380664762865,0.0015075973876030235,-0.3892284173089352,0.007754562943934308,0.921107394966975,-0.010252947660175295,-0.5895823479253398,-0.593212773484424,-0.1516800866993499,-0.33896025491263765,-0.7101922649531818,-0.14722599021840832,0.09434420185270653,1.1132446275741419,-0.0459313458926676,-0.03736968802256935,1.1836995767204272,0.0,0.0,0.0,0.0
0.03603583811908004,0.36646000143521096,0.6902545902668252,0.0016006104801412442,-0.3891228975172658,0.007838046466523516,0.9211511133909827,-0.0005444684127058532,-0.5797175647117724,-0.5869932436092719,-0.15456882310164777,-0.3439889144417261,-0.7021488568117591,-0.149928341015067,0.09066052325378393,1.1182376578132502,-0.03299879977348003,-0.029205816184167607,1.1751793485628503,0.0,0.0,0.0,0.0
0.03546447695190187,0.36711197884994806,0.6898124114986371,0.0017053233051306201,-0.3890162615609433,0.007913175578021292,0.9211953222665886,0.009238168268347398,-0.5700608131992274,-0.5803380896821394,-0.15695993986749163,-0.35033394893126646,-0.691882273788692,-0.15217581591592363,0.08680241151112121,1.1223228216284158,-0.019926047644797513,-0.021370294802144918,1.1662128260071498,0.0,0.0,0.0,0.0
0.03462345689556196,0.3676490992165011,0.6894375541613689,0.0018230961585203914,-0.38890481947031674,0.00797857601132497,0.9212415861423042,0.01913016727268596,-0.5605256399817128,-0.5732582925816144,-0.15886570745547504,-0.3582637769964112,-0.6788142928582129,-0.15398929155444727,0.08281444749975715,1.1252571989427114,-0.006663944097606376,-0.013876791294616993,1.1568006440287733,0.0,0.0,0.0,0.0
0.03348799262963649,0.3680808852573251,0.6891522326938098,0.0019557950073084153,-0.3887830743945107,0.008033836892850983,0.9212922193283848,0.02930029135638257,-0.5509345506057167,-0.5657846628016545,-0.16030108418450822,-0.36801564198124875,-0.6624442922148742,-0.1553855016346637,0.07874920989655394,1.126819216208649,0.006915238529306223,-0.00667917690849421,1.1470225482470093,0.0,0.0,0.0,0.0
0.0320558098642994,0.3684107213738896,0.6889751984867869,0.002105880227496131,-0.3886441591674455,0.008079957219612962,0.9213500947548797,0.04014620505317694,-0.5409735117850775,-0.5579630406411819,-0.16127854272664496,-0.37970751436966926,-0.642507343847576,-0.15636906722630634,0.07469823188313193,1.126809839247968,0.02109610780899214,0.0003649641856429339,1.1371126415525437,0.0,0.0,0.0,0.0
0.030365353943831403,0.36862958971658544,0.6889192815673372,0.0022763419141664074,-0.3884798755690218,0.0081188569729541,0.9214186283697654,0.05237341585012757,-0.5301439342904978,-0.5498609150870447,-0.16179403018392227,-0.39318528521398716,-0.6192699383921643,-0.15692039701763544,0.07082065110425324,1.1250816018451884,0.03641563809401336,0.007550511740538463,1.127569320689689,0.0,0.0,0.0,0.0
0.028519948894360308,0.3687098061151323,0.6889792820992936,0.0024697723241152566,-0.3882768051004472,0.008150164208132502,0.9215034441981412,0.06692905033941395,-0.517792699860821,-0.5416457936347998,-0.16180923160620583,-0.4077939768884432,-0.5940292452089031,-0.15699082108416262,0.06732743228096917,1.1216511899329242,0.05370078102194138,0.015352510717067856,1.1192896328892954,0.0,0.0,0.0,0.0
0.02671042551041989,0.36860656107231254,0.6890878584659028,0.0026919789725064923,-0.38795020649037953,0.008160166562322315,0.9216402780993019,0.08458362988838938,-0.5035636728139022,-0.5339153718291972,-0.161275957991444,-0.42213345797171126,-0.5701011835357249,-0.15653243457368043,0.06422715584778518,1.1168735890206218,0.07383795391444807,0.02407701926348622,1.113652958431604,0.0,0.0,0.0,0.0
0.02533722119874763,0.3682522900265967,0.6892804127217981,0.002897288642189419,-0.3875035571744358,0.008154732125534298,0.9218275865039207,0.10471556585811984,-0.4880491665531735,-0.5276680818036275,-0.1600949519796256,-0.43243706074110466,-0.5541124383589963,-0.15529695450868394,0.062494015015401826,1.1108152283304231,0.0962825392007304,0.032991209771049065,1.1125765811621502,0.0,0.0,0.0,0.0
0.024578099262010197,0.36779617555669303,0.6895534128095467,0.0029727372322037983,-0.3870176583482153,0.008122008835614486,0.9220317391134031,0.12217512176991235,-0.47447768530476786,-0.5257710611031403,-0.15860549773916546,-0.4371333969166357,-0.5481151537741777,-0.1535566932307152,0.06235850544270407,1.104475358744251,0.11586686913845026,0.03831116980150398,1.1172315332452545,0.0,0.0,0.0,0.0
0.024577399348234916,0.3677484347832395,0.6895327716724701,0.0030227079707096424,-0.38701700195572664,0.008142935502058614,0.9220316675880141,0.12220568660305613,-0.47446816734448843,-0.5257724377206024,-0.15858054113749276,-0.4372326187819523,-0.5480996788744934,-0.15352857856822627,0.06235205510576983,1.1044334013010708,0.11587680372930163,0.03833998862577657,1.1172451383385116,0.0,0.0,0.0,0.0
0.024577399348234916,0.3677484347832395,0.6895327716724701,0.0030227079707096424,-0.38701700195572664,0.008142935502058614,0.9220316675880141,0.12220568660305613,-0.47446816734448843,-0.5257724377206024,-0.15858054113749276,-0.4372326187819523,-0.5480996788744934,-0.15352857856822627,0.06235205510576983,1.1044334013010708,0.11587680372930163,0.03833998862577657,1.1172451383385116,0.0,0.0,0.0,0.0
0.02438166852210687,0.3676079022297824,0.6893310883078103,0.003253415644484649,-0.3871962514226562,0.008119862638098888,0.9219558264915005,0.12251124070408832,-0.4773082536138233,-0.5198318172698573,-0.15811710739994783,-0.4391327898028826,-0.5452329389685224,-0.15394774129912892,0.06140699162764077,1.1062178871038122,0.11564018685909594,0.03690692787989145,1.1197688468513383,0.0,0.0,0.0,0.0
0.02456213416989467,0.36744066100084183,0.6889726021544706,0.0033929302548388134,-0.3873134746434779,0.008091344264441669,0.9219063350101658,0.12316152138930885,-0.4771786875074169,-0.5202678931066653,-0.15769354421203358,-0.43796288224055,-0.5487251691791656,-0.1541450445270024,0.06026601389774592,1.1095854807239973,0.11588943078164986,0.03531806424811165,1.1239341291523186,0.0,0.0,0.0,0.0
0.02522778994892168,0.36725987687671596,0.6885011709491481,0.003455599530412524,-0.38745242193547536,0.008078794708516752,0.9218478251014521,0.12401078023120472,-0.47296637515306417,-0.5285486432802718,-0.1574084849883365,-0.4328112536914958,-0.5595523401017118,-0.15422148871366487,0.05944245846801289,1.1146198954412043,0.11664925273124925,0.03410459100877937,1.1298389316023703,0.0,0.0,0.0,0.0
0.026487732050436433,0.3670155413929581,0.6881335671858761,0.0034502727281174638,-0.3877480945786321,0.00811410782760751,0.9217232079224781,0.12499835398397895,-0.4636338083070139,-0.5449844474531104,-0.1571228221875194,-0.4224116004502052,-0.5784579643819888,-0.15399836982266737,0.06042161485174993,1.1199643832622608,0.11817007297225321,0.03469431079541071,1.1364737193614978,0.0,0.0,0.0,0.0
0.028583739606677146,0.3665752056923197,0.6887176924715871,0.0034355603746106986,-0.3886119821419022,0.008407994284786238,0.9213567332432977,0.12531691797993208,-0.44625967539803907,-0.569659545186294,-0.15683881445846512,-0.40297001223260237,-0.6065071849205177,-0.15272840401172177,0.0683617109338171,1.119791680743393,0.12123232405208706,0.042231173921214414,1.1392208764590994,0.0,0.0,0.0,0.0
0.030409930144079833,0.3655356671582751,0.6883573570366786,0.0038381319051525534,-0.38847951669126085,0.00815291249436499,0.9214132969914545,0.13009762062048977,-0.4352197488289869,-0.5883445652972221,-0.13611249372297363,-0.43689835722770853,-0.5792525453850638,-0.1265762629051082,0.058624634861467385,1.11681202963133,0.12349152580645223,0.04261254940654656,1.1464123805584605,0.0,0.0,0.0,0.0
0.03256305898987452,0.3646421083756156,0.6881393116650205,0.004207993754573202,-0.3883134151736227,0.008089258594025045,0.9214822560853563,0.1338164642953403,-0.4212735548550154,-0.6126599505421202,-0.11209508356611379,-0.46545262796359904,-0.5685914490295807,-0.09816611109792195,0.04737046686290146,1.118547467469195,0.12589062623370662,0.0446194966359771,1.1524569727293905,0.0,0.0,0.0,0.0
0.034657756621610976,0.36397038477788574,0.688195350223596,0.004527567862990804,-0.3882864588869213,0.008107309020183444,0.9214919416439584,0.13641710898409448,-0.40724654004646604,-0.6359700690398269,-0.09111314220072358,-0.4873144345729401,-0.5667807144475201,-0.07357894629721923,0.0374568432464927,1.124166509536766,0.1279022289906482,0.048353619593567404,1.1561175653401738,0.0,0.0,0.0,0.0
0.036521444619457784,0.3635300944926921,0.6884610718526191,0.004793617061756912,-0.3883426947947142,0.008155476850716421,0.9214664729833538,0.13803377470246542,-0.3943555500479418,-0.6565342724599661,-0.07430079569687427,-0.5041159006830518,-0.5693778133563671,-0.05327274455425565,0.028953283448594082,1.1320231274209422,0.12930152350900462,0.053037076508533836,1.157458138205907,0.0,0.0,0.0,0.0
0.03804792767174251,0.36329770254457217,0.6888536527083823,0.005017354524783137,-0.3884416958657697,0.008213525230299744,0.9214230369758446,0.13880520695226356,-0.3833925710877681,-0.6733776935707221,-0.06063380075685977,-0.5176491918814737,-0.5741569677587719,-0.03610049866420066,0.02122773390410399,1.1408732883694974,0.13003225884785058,0.05792998811707078,1.1569660177577683,0.0,0.0,0.0,0.0
0.0392042231047241,0.3632598010369135,0.6893200389440356,0.005209855349288967,-0.38855795655280384,0.00827707632264156,0.9213723795590456,0.13879485982477516,-0.3745495914243885,-0.6864685090510466,-0.04882684148641725,-0.5292850716108667,-0.5799594705997428,-0.020873439166993288,0.013716269357710899,1.1499756933846121,0.1300720706385905,0.0626269810708308,1.1550167151568906,0.0,0.0,0.0,0.0
0.04000858741352281,0.36341501946098165,0.6898317994992422,0.005378323827997329,-0.3886774082647464,0.008347429930940845,0.9213203928878102,0.13801917909520764,-0.36764270176155517,-0.6963270571880729,-0.037970717465475534,-0.5399279978933167,-0.5861448648283284,-0.006766562970553405,0.0060803607615493825,1.1589651388583062,0.12940780933974574,0.0669874304086755,1.15184745599175,0.0,0.0,0.0,0.0
0.040506440674478596,0.3637667614491421,0.6903720443113801,0.005526622082691234,-0.388793563954165,0.008426446662431357,0.9212697846303324,0.13648499725209529,-0.3623281500290114,-0.7036798383897171,-0.027582634833176897,-0.5501297204154423,-0.5923446862078883,0.006690559362027846,-0.0018375721419416802,1.1677029301763946,0.12803849928453503,0.07100998457370182,1.1476303129257261,0.0,0.0,0.0,0.0
0.040752508477940645,0.3643176630122359,0.690926558165192,0.005656685808176013,-0.38890435991332256,0.008514994893304538,0.9212214150832814,0.1342082303184416,-0.3582371838891105,-0.7092549430431401,-0.017473113266366098,-0.5602154357715634,-0.5983496988132729,0.019731831208296902,-0.010090193701368166,1.1761679639353828,0.12597862149642997,0.0747403193323629,1.1425279537846622,0.0,0.0,0.0,0.0
0.04079988518042521,0.36506767011988095,0.691479491451039,0.0057696433447266575,-0.38900985804814947,0.008612969524888419,0.9211752592818571,0.13121629004948254,-0.35504477256864697,-0.7136862145019179,-0.007607404020439565,-0.5703767669697,-0.6040525796239415,0.03246598160099288,-0.01867804954523424,1.1843905201719733,0.12325531006579615,0.07821879126282696,1.1367188944511206,0.0,0.0,0.0,0.0
0.040694313897988804,0.36601471868184454,0.6920112786644936,0.005866398709543572,-0.3891105840668619,0.008719646899121638,0.9211311016849235,0.12754257143527264,-0.3524988569049052,-0.7174820959522559,0.0019877881453110053,-0.5807236892797152,-0.6094123602005308,0.04494896788006708,-0.027572474319997924,1.192413752275071,0.11990105905251337,0.08145322049370117,1.1304064977240684,0.0,0.0,0.0,0.0
0.04047166394083529,0.3671566589564036,0.6924969546195806,0.005947764969670509,-0.38920630359149816,0.008833844762518682,0.9210890513534615,0.12321915246436682,-0.3504305024021736,-0.721026363808854,0.01127421965074113,-0.5912967196557604,-0.6144250681336253,0.05721502912426524,-0.0367154005294326,1.200266188475571,0.1159449233752278,0.08440281926497357,1.1238252552157313,0.0,0.0,0.0,0.0
0.04015694106249326,0.3684935105604325,0.692904243726555,0.006014281444248107,-0.3892952217221679,0.008953726333499916,0.9210498843970082,0.118270532759685,-0.3487573194571969,-0.7245889786954854,0.020223166547694356,-0.6020395110245064,-0.6190908442200567,0.06926820699375028,-0.04600226551767811,1.2079291217212877,0.11140410602327354,0.08696595062133478,1.1172494760566696,0.0,0.0,0.0,0.0
0.03976365990674207,0.370029593951673,0.6931920196693625,0.00606580466224701,-0.38937385202402314,0.00907622611783329,0.9210151092643548,0.11270897972830188,-0.34748574105320307,-0.7283326491221859,0.028817340355674403,-0.6127309241494333,-0.6233697664407718,0.08103216656434399,-0.055249073696759604,1.2152811144321036,0.10627655803394058,0.08897195639744458,1.1110000862409053,0.0,0.0,0.0,0.0
0.03929303147533881,0.3717752706748378,0.6933109439490367,0.006100951186872992,-0.38943813799887744,0.009196142617170616,0.920986506973662,0.10653114130602914,-0.34671110000928185,-0.7323063683389043,0.03703322794818644,-0.6228832767904058,-0.6271226062404996,0.09225828012113245,-0.06413715316358677,1.2219976298520203,0.1005348187839076,0.09018532615134149,1.1054361585603112,0.0,0.0,0.0,0.0
0.038733488776048874,0.37374776460713005,0.6932092431212485,0.006116608520594688,-0.3894867895687272,0.00930510966737593,0.9209647348219854,0.09971601661288154,-0.34660565034665985,-0.7364256162876328,0.04479689128091149,-0.6316411614217172,-0.6300445647951132,0.10241809550924791,-0.07211829996411966,1.2273783739974686,0.09412246956208939,0.0903389851384655,1.1009108362636524,0.0,0.0,0.0,0.0
0.038063021739518844,0.3759694946825351,0.692846905671129,0.0061082056817567155,-0.38952789484959727,0.009391104980719362,0.9209465327067753,0.09222687886249294,-0.3473732403687808,-0.7404554861775084,0.05192200446655792,-0.6377813090514031,-0.6316284910013237,0.11068279076164682,-0.07825200035349214,1.2300726595205262,0.0869582317079159,0.08921827061618444,1.0976745930700802,0.0,0.0,0.0,0.0
0.037259051636746615,0.3784601681584556,0.6922173121444285,0.006072562530261745,-0.3895862476002328,0.009439556883503446,0.9209215897300537,0.08402840455438515,-0.3491490348181293,-0.7440448373360278,0.05812471212343566,-0.6400472543990682,-0.6312788287112132,0.11623412375034953,-0.08102371439824903,1.2277925870740751,0.0789573287139663,0.0867928914283862,1.0957433891876418,0.0,0.0,0.0,0.0
0.03630688875145791,0.38122788691820364,0.6913225814998368,0.006010117819079252,-0.3896623929527689,0.00944705151357537,0.9208897063274313,0.07508674412473813,-0.3520409501422065,-0.7469828468169644,0.06333529314931807,-0.6384394840147267,-0.6289962573507951,0.11901164935294956,-0.0804115834260086,1.2206148572372597,0.07007948824242759,0.08306892746398366,1.0949963569080745,0.0,0.0,0.0,0.0
0.03520032407017395,0.38427062151482766,0.6901721991630005,0.005924968630829107,-0.3897342850333164,0.009422296446562664,0.9208600882576932,0.06535683246539398,-0.3561286903516685,-0.7492058698395143,0.06774474064033849,-0.6342131222238349,-0.625386902080133,0.11973006437751949,-0.07789659152826084,1.2109210380322057,0.06033057537561245,0.0780875301610467,1.0951969092434515,0.0,0.0,0.0,0.0
0.03393306160117438,0.3875849789999335,0.688806433470914,0.005822405631920076,-0.38979754805571337,0.009373086292743065,0.9208344674129872,0.05478667738870535,-0.3614216258855476,-0.7505471736536388,0.07149748642014452,-0.6285951924168842,-0.6209625498096862,0.1191363664225461,-0.0744189274097473,1.200091843499133,0.04972081835962897,0.07206745829876121,1.0959070680226675,0.0,0.0,0.0,0.0
0.03248956658385406,0.3911715186670232,0.6872753410350415,0.005705882817299,-0.3898568574123127,0.009304838018967374,0.9208107805729209,0.04331922600068713,-0.3679527314948168,-0.7507036969995494,0.07464467296339877,-0.6224520952149175,-0.6160233640069461,0.11769445459738655,-0.07054975881753667,1.1888189708463124,0.03825387856789478,0.0652770259286826,1.0966111958745843,0.0,0.0,0.0,0.0
0.030844918979211083,0.3950333593833421,0.6856261200267607,0.00557681812962155,-0.3899191774832919,0.009220790726836835,0.9207860289712665,0.030904569272077412,-0.37581354773868325,-0.7492550254646992,0.07719481371274566,-0.6162882389817765,-0.6107069121818863,0.11560683373008981,-0.06663354895905615,1.1773949360898317,0.025934615411090593,0.05796336837770284,1.096801745999992,0.0,0.0,0.0,0.0
0.028968288635220114,0.3991723526172955,0.6838992905758969,0.005435237369864647,-0.38999062157714337,0.009123083352218687,0.9207575916747877,0.017512437027224242,-0.38515335681760643,-0.7456902220658346,0.0791621509481757,-0.6103473088831891,-0.6050672075767496,0.11293052107763937,-0.0628666875384302,1.1658926302187052,0.012784073073062318,0.05033614585308323,1.0960131372080226,0.0,0.0,0.0,0.0
0.026827224212600136,0.4035842974751806,0.6821302582843788,0.005280518800563356,-0.3900752348389987,0.009014059987811969,0.9207237229533259,0.003145157013118585,-0.3961642896620791,-0.7394282191634607,0.08059693414770566,-0.6047160678404347,-0.5991424963706835,0.10968903412019168,-0.059342337000907255,1.1542684250463873,-0.0011433519956977316,0.04258102004463261,1.0938221155255115,0.0,0.0,0.0,0.0
0.024392202615817593,0.408253429877267,0.6803532011093456,0.005112056468807472,-0.3901743745922481,0.008897549665675037,0.9206837990863935,-0.012147215538060896,-0.40906180885375565,-0.7298347427923626,0.08160303950403885,-0.5993933987397675,-0.593002529465329,0.105960615395542,-0.056076562593632535,1.1424205204586924,-0.01574175350398483,0.034883786293851984,1.0898371761807055,0.0,0.0,0.0,0.0
0.02164201138780633,0.41314599609683944,0.6786049266462106,0.004930031807737634,-0.390286182189698,0.008779691662534485,0.9206385326459432,-0.02824703857274364,-0.42406205659954127,-0.7162450941650897,0.08234523046551986,-0.594311993777248,-0.5867759335391849,0.10194699077990697,-0.05301945785281783,1.1302278579375014,-0.030836086346132708,0.027451654232192403,1.0836982993915967,0.0,0.0,0.0,0.0
0.018571030759307557,0.41820259777225016,0.6769261815937709,0.004735673180706411,-0.3904036290594477,0.008669898913435465,0.9205907954512523,-0.04494700430593822,-0.44135637184450277,-0.698015659774803,0.08302576472045504,-0.589308372768868,-0.5806618835819305,0.09802569699841895,-0.05005566539030794,1.117585554252248,-0.04616218456631417,0.020517679670732196,1.075107694677376,0.0,0.0,0.0,0.0
0.015199975558289289,0.42332781877472603,0.6753555256875261,0.004532243070815926,-0.39051239231837925,0.008578634373421788,0.9205465426858169,-0.061910562442645166,-0.46108063534939125,-0.6746131522200572,0.08382052583999065,-0.5840351813607874,-0.5749409214125003,0.09476154603726958,-0.046981732918841265,1.1044451521016512,-0.06135260096229698,0.014298379447788948,1.0639432559683701,0.0,0.0,0.0,0.0
0.011591781155045307,0.42837277883156466,0.6739038309338128,0.004327330291414981,-0.3905777199605652,0.008491422457580954,0.9205206215113283,-0.07851848408656588,-0.48328286504918533,-0.6457994103905111,0.08488187983335198,-0.5778599902956356,-0.5701305674667062,0.09278715006063523,-0.043463848333128,1.0908496352192936,-0.07595854990293657,0.008809751771884878,1.0505029495759364,0.0,0.0,0.0,0.0
0.007842696472267617,0.43314917405539294,0.6725369314123973,0.00412072042602849,-0.39053282804493966,0.008470411640747069,0.920540809529392,-0.0943955814583766,-0.5080727356997213,-0.6118128481657574,0.08823912561909458,-0.5703826609407096,-0.5669366303565294,0.09275200325459033,-0.0389696739539574,1.0769615489816455,-0.0892804669853406,0.003807078928260539,1.0357548072624363,0.0,0.0,0.0,0.0
0.004472584571175874,0.43735594644834014,0.6711790440837319,0.003945350276799159,-0.390321432419145,0.008416526760351328,0.9206317264154829,-0.10821107560599648,-0.5323910640595574,-0.5784602465629576,0.09369558953332596,-0.5613336556879021,-0.5661948069713689,0.09495853129008844,-0.03338671477663499,1.063307079867655,-0.10080853378335664,-0.0009816610934704735,1.0221755675842703,0.0,0.0,0.0,0.0
0.0017189936949455736,0.4405080451458002,0.6697815143356501,0.0037980703283775103,-0.38998761264950177,0.008371393446270277,0.920774215762741,-0.11862289946740143,-0.5549243959359792,-0.5478527984715129,0.10228644417089175,-0.5518161944996354,-0.569677789971286,0.09956998173853727,-0.02747970577792976,1.0491906075467519,-0.1092036229224918,-0.0064764984521734625,1.0132579655373724,0.0,0.0,0.0,0.0
2.8097947220793052e-05,0.44227338859016013,0.66874215870908,0.0037208836296952937,-0.38958541356874754,0.008317178319435481,0.9209452671599354,-0.12446812590599882,-0.5706202353855178,-0.5271343343528904,0.11142460619600666,-0.5430583956564738,-0.5783364903188198,0.10465332491886369,-0.022511089640684098,1.036196763304346,-0.11382698371258494,-0.010929459275609805,1.0087064659941594,0.0,0.0,0.0,0.0
0.0001027083880130892,0.4424144881019862,0.6686384793052687,0.003626435035595256,-0.3896109080449022,0.008244121587642005,0.920935515527883,-0.1246261974611814,-0.5708050530375521,-0.5270813267162562,0.11144309001479728,-0.5430706671226496,-0.5783665464020761,0.10469583941510531,-0.022479675998630703,1.036193796275397,-0.11401965108532129,-0.010856090153662522,1.0086596247086672,0.0,0.0,0.0,0.0
0.0001027083880130892,0.4424144881019862,0.6686384793052687,0.003626435035595256,-0.3896109080449022,0.008244121587642005,0.920935515527883,-0.1246261974611814,-0.5708050530375521,-0.5270813267162562,0.11144309001479728,-0.5430706671226496,-0.5783665464020761,0.10469583941510531,-0.022479675998630703,1.036193796275397,-0.11401965108532129,-0.010856090153662522,1.0086596247086672,0.0,0.0,0.0,0.0
0.0001027083880130892,0.4424144881019862,0.6686384793052687,0.003626435035595256,-0.3896109080449022,0.008244121587642005,0.920935515527883,-0.1246261974611814,-0.5708050530375521,-0.5270813267162562,0.11144309001479728,-0.5430706671226496,-0.5783665464020761,0.10469583941510531,-0.022479675998630703,1.036193796275397,-0.11401965108532129,-0.010856090153662522,1.0086596247086672,0.0,0.0,0.0,0.0
