zhuoxili-jackie/tripod-support-walk/examples/trajectory_walking_sideways_sc_left_v0.10.csv
root_pos_x,root_pos_y,root_pos_z,root_rot_x,root_rot_y,root_rot_z,root_rot_w,FL_hip_joint,FL_thigh_joint,FL_calf_joint,FR_hip_joint,FR_thigh_joint,FR_calf_joint,RL_hip_joint,RL_thigh_joint,RL_calf_joint,RR_hip_joint,RR_thigh_joint,RR_calf_joint,FL_foot_joint,FR_foot_joint,RL_foot_joint,RR_foot_joint
0.0,0.0,0.72963,0.0,-0.5231245161092812,0.0,0.852256264656019,0.0,-0.81,0.872,0.0,-0.81,0.872,0.0,0.65,1.0,0.0,0.65,1.0,0.0,0.0,0.0,0.0
4.993423154565625e-05,0.0001125641328874647,0.729591840063966,0.00021306592984632325,-0.5231966099292787,-0.000186934936404592,0.8522119613199226,8.658449289739432e-05,-0.8096148257706252,0.872052181433903,8.65844928973944e-05,-0.8102843762658598,0.8722315799855161,-0.0032831743295043576,0.6509795764948093,1.0010755447594577,-0.0032831743295043633,0.6493249606944057,0.9998300511939293,0.0,0.0,0.0,0.0
0.0005237168997230461,0.00019863711420752304,0.7295070035584086,0.000346259143526003,-0.5232957839340304,-0.0003072002582423046,0.8521509891148841,0.00010996558840223482,-0.811642275625363,0.8764596819898771,0.00011037180856218605,-0.8126649219311104,0.8766373466187751,-0.005495428153436411,0.6527732607158512,1.002077799692181,-0.005471754056064192,0.6500368487522767,0.999939260847598,0.0,0.0,0.0,0.0
0.0014559280910339252,0.0002058423606485723,0.7293911090725833,0.0004118087439025813,-0.52347849501301,-0.0003628418211748223,0.8520387103989379,0.00020067868607296727,-0.8156995639913692,0.884951583395086,0.0002014482023603316,-0.8170560025880759,0.8853875851959305,-0.006375904284410267,0.6557191845711694,1.0027633900219248,-0.0063333657261350875,0.6524626072818817,1.0004358378772569,0.0,0.0,0.0,0.0
0.0028766716341734914,0.00010485412065213104,0.7292529970599428,0.00042164055278801006,-0.5237554533113526,-0.00036582781169483406,0.8518684836967945,0.00045898995822235675,-0.8216848860924736,0.8975023075494554,0.00046001575480593686,-0.8235626448886251,0.898728282996244,-0.0058522636199229965,0.6600245628468007,1.0029242919446693,-0.005810116678289611,0.6567569928804307,1.0012835466916086,0.0,0.0,0.0,0.0
0.004816597265586861,-0.0001146286426270138,0.7291129621761842,0.0003676168674603606,-0.5241488880978357,-0.00031009347716109346,0.8516265095719348,0.000902364512239419,-0.8294634050627531,0.9140685253536306,0.0009035974047487837,-0.8320412041600217,0.9166291869306715,-0.0037025645704872245,0.6659170033624269,1.0022850653059594,-0.0036808574501469,0.6632609787547336,1.002292451529403,0.0,0.0,0.0,0.0
0.007299024816810503,-0.0004374629974430553,0.729009331049646,0.00021876966630305432,-0.5247016586822014,-0.00016802276404630548,0.8512861406626625,0.0014406478237595165,-0.8387801244308157,0.934489715519039,0.0014420530622011268,-0.8419693933579804,0.9386361832349769,0.00046124873240855485,0.6736622449297982,1.0004796648773095,0.00045998702572892965,0.6725539524911068,1.0030617452997983,0.0,0.0,0.0,0.0
0.010318645076852567,-0.0008048707181029021,0.728989084081521,-6.611730768400119e-05,-0.5254472370837608,0.00011104998830443169,0.850826177510685,0.0018151204811929474,-0.8493955254353601,0.9585314949848049,0.0018165073034701652,-0.8525472438337894,0.9638537763699953,0.007026532219137414,0.6833906994381239,0.9971531196610373,0.007054781269482268,0.6852548256958972,1.0029561713543689,0.0,0.0,0.0,0.0
0.012945007644490625,-0.0010751569809070616,0.7287605297735745,0.0001381927128411154,-0.525288594425534,8.202051049460791e-06,0.8509241290514374,0.0026812740812225087,-0.8625378467993792,0.9826057358647607,0.004005223799974158,-0.8519041470455826,0.9376316625144155,0.007261195803022565,0.6904162034589629,0.9948842449456654,0.007357019499928543,0.6917119499832279,1.0022601114090832,0.0,0.0,0.0,0.0
0.015371011366230218,-0.0014439318929541601,0.7283992475378855,0.00027424984442111654,-0.5252898280274955,-4.213823179142217e-05,0.8509233335514055,0.003716571316498489,-0.8738453855781335,1.003335795623392,0.008799045040805888,-0.8595611451883107,0.9188233630645654,0.00898645165994001,0.6963753994064471,0.9938566686267345,0.009150196640059238,0.6977143170871153,1.0036146570414306,0.0,0.0,0.0,0.0
0.017445529391407075,-0.0018369098925465081,0.7280542012787156,0.000362756601933167,-0.5254530655473187,-5.918093402792527e-05,0.8508225084071236,0.004763812205085698,-0.8824030295712292,1.0196713810880287,0.014044408333986954,-0.8715867717226156,0.9066246428677481,0.01149272003942911,0.7016106344376358,0.9931845114370074,0.011742644984979999,0.7034177029468858,1.0055728995322464,0.0,0.0,0.0,0.0
0.01908623265768795,-0.002185313594186537,0.7277650397097681,0.0004446338674417747,-0.5256662144129807,-8.297775199522788e-05,0.8506907936730848,0.00572077480306872,-0.8885198551183625,1.0318221491213753,0.018943888181520978,-0.8855932707400552,0.8981985031516247,0.01369694870637614,0.705949086224073,0.9927338918703539,0.014043080489907576,0.7081790833867312,1.0074299528177517,0.0,0.0,0.0,0.0
0.020292861850795534,-0.0024490180450706675,0.7275441997945574,0.0005273493260313258,-0.5258729230361077,-0.00011797392822013962,0.8505629763881687,0.006483623233537079,-0.8926335857345652,1.0403462632487996,0.02339119398945754,-0.900420761702721,0.8915935758169602,0.015149930224306126,0.7093370033680866,0.9924991096056416,0.015578098156621237,0.7117702592951447,1.0088942738814506,0.0,0.0,0.0,0.0
0.021114978673366022,-0.002609447918796908,0.7273922273956038,0.000602529610892715,-0.5260555411453482,-0.0001517047167217869,0.8504499876971142,0.006970169590088643,-0.8951835868188907,1.0459356003613458,0.02751364069816526,-0.9155680994681193,0.8856334340097898,0.015811330812715678,0.7118427923566215,0.9924757532085469,0.01629005948139349,0.7142814610449463,1.0098644911998542,0.0,0.0,0.0,0.0
0.021623527724644865,-0.002662146696450531,0.727301291653787,0.0006588460894972349,-0.5262134271847778,-0.00016899309309319316,0.8503522601919838,0.0071321116811649795,-0.896584395731691,1.0492963454963125,0.031471434660754145,-0.9308126842778003,0.8796573594677198,0.015822780097125455,0.7135877927607404,0.9926591796595311,0.016318122054300308,0.715937457246988,1.0103417838659174,0.0,0.0,0.0,0.0
0.021890188596864084,-0.0026105226064073615,0.7272552938105505,0.0006871202230522172,-0.5263506061420494,-0.00015731518349064146,0.8502673359194914,0.006949909125046309,-0.897212937485715,1.051065726158516,0.03539802989539882,-0.9459516041759568,0.8733552846299899,0.01537543949907793,0.7146758705476692,0.9930841257282428,0.01586092483050751,0.7169599659729115,1.0104131062666526,0.0,0.0,0.0,0.0
0.021972266568059014,-0.0024614789337921513,0.7272251763370877,0.00068269032049233,-0.5264667917806204,-0.00010824215994873656,0.8501954124610307,0.006423008186627084,-0.8974189991302607,1.051759174122983,0.039388742420964594,-0.9606010106210727,0.8666833857253228,0.014633730201716637,0.7151106885294355,0.9938988520770017,0.01509276514648024,0.7174465006288372,1.0102909483528708,0.0,0.0,0.0,0.0
0.021928934517830845,-0.0022521432003417808,0.7272249205113707,0.0006488606775822532,-0.5265699700380649,-3.132550691805618e-05,0.8501315454990745,0.005675476728355186,-0.8972702827942398,1.051682049487132,0.04357841743045717,-0.9739595067199929,0.8600354110001075,0.013809789713631358,0.7151685994465123,0.9947820381981546,0.014237613682131245,0.7176880296153781,1.0098925082390748,0.0,0.0,0.0,0.0
0.021782092324603926,-0.001996653323700578,0.727259541427057,0.0005923227774190325,-0.5266536619077926,6.391070783267942e-05,0.8500797406527586,0.004768169373045756,-0.8968242415671007,1.0509756547573732,0.047982340508354475,-0.9846869791170191,0.8542014311763501,0.012900536127818456,0.7149524657604338,0.995603830709109,0.013293859513021374,0.7177379996451455,1.009164434554476,0.0,0.0,0.0,0.0
0.021510614152302075,-0.001679303821444968,0.7273310155066479,0.0005181567190289411,-0.5267066764830468,0.00017142130408828856,0.8500469275731394,0.0036737876255385172,-0.8960570957435188,1.0495451260470547,0.05244186314954125,-0.9909901255817339,0.8505234709507914,0.011694854550960584,0.7144157831535779,0.9964164912044136,0.012043890755555075,0.7174618226496978,1.0080360663490404,0.0,0.0,0.0,0.0
0.02107183704747415,-0.0012660821170664032,0.7274474216273609,0.0004244029148611196,-0.5267306814965015,0.0002921805877272181,0.8500320721495754,0.0023015740578133746,-0.8948176282866457,1.0471139370517903,0.0566575887673699,-0.9912519854027542,0.8506879062334389,0.009941285562341952,0.7134915117668675,0.9973229285479837,0.010231492342544241,0.7167386833915166,1.0063780571544212,0.0,0.0,0.0,0.0
0.02043436595329769,-0.0007353765802488454,0.7276123659667287,0.0003122041640237573,-0.5267204017193243,0.00042555301751505235,0.8500384343344851,0.0005974628775718563,-0.8930192377944771,1.0434881718282363,0.06054883448251601,-0.9854642131118185,0.8546650726299784,0.007460047810120988,0.7121063287657345,0.9983928635900012,0.007681216573712916,0.7154545355208924,1.00410786771776,0.0,0.0,0.0,0.0
0.0195823762228368,-7.96076817995814e-05,0.7278144591266519,0.0001848100723091656,-0.5266647758607896,0.0005717516218694864,0.8500728514738158,-0.0014578609135055226,-0.8906870114948682,1.0385976540303328,0.06428962798781403,-0.9752614757089395,0.8607714203568088,0.0041874470555315416,0.710136623726039,0.9997441176365728,0.0043449481411979175,0.7134849707848934,1.0012869590793865,0.0,0.0,0.0,0.0
0.01850723645700006,0.0007066781788573113,0.7280565656365627,4.237088155640734e-05,-0.5265688495939941,0.0007328516123378115,0.8501321707655112,-0.003880473885216847,-0.8877402209828044,1.0323267109814322,0.06798174729273469,-0.9624771444916309,0.867722433698717,0.00012643950340778757,0.7075794514685378,1.0013659941330395,0.0002480972156425655,0.7108653457610293,0.997868593249661,0.0,0.0,0.0,0.0
0.017196167197270615,0.0016222395242781811,0.7283579132932737,-0.00011092666789212174,-0.5264433356978875,0.0009037611727198832,0.8502097301315119,-0.006650044432830278,-0.8839579599259864,1.0244288205379382,0.0716650045423904,-0.9485295973911012,0.8748816001475486,-0.004742214434248424,0.704533029903645,1.0030939128839464,-0.004603625308248616,0.707696443186213,0.9936811468094674,0.0,0.0,0.0,0.0
0.015629491356328674,0.002668142860873317,0.7287334924782455,-0.0002655416242139267,-0.5262946292221461,0.0010757388240482046,0.8503015556410278,-0.009743724795336695,-0.8791089292198214,1.014604208448573,0.07539632158021344,-0.9343646343681064,0.8821521845199938,-0.01051180118052926,0.7010631383468054,1.0048096451698054,-0.010275259171687024,0.7040142141784079,0.9885698012720479,0.0,0.0,0.0,0.0
0.013798864611394233,0.0038390851588188573,0.7291900995611231,-0.0004094215856686293,-0.5261333301844496,0.001240329300749189,0.850401089384422,-0.01312253969788335,-0.8729876029882455,1.0025953847754179,0.079371141290765,-0.9206310261254447,0.8899647986140269,-0.017226520319155926,0.6972412855724964,1.0064314648027548,-0.01677754412875669,0.6998809853318222,0.9824556509783042,0.0,0.0,0.0,0.0
0.01173082777668723,0.0051133721829929235,0.7297047942956036,-0.0005396963452334881,-0.5259942217574061,0.0014029472912039296,0.850486813033908,-0.01673644376290597,-0.8654928666468099,0.9883173623442828,0.08397094985036883,-0.9079280469317978,0.8993847698685425,-0.024633458346647538,0.6931093442575256,1.0080699708690213,-0.02383255369132592,0.6954667117872932,0.97559760589577,0.0,0.0,0.0,0.0
0.009513441841186654,0.006434819925806986,0.7301663964604529,-0.0006854993027341925,-0.5259653988952429,0.0016070952158101048,0.8505041719478167,-0.020532514094164116,-0.8568046924733029,0.972028836367993,0.08968733833081861,-0.897102623592812,0.9123244736977714,-0.03176784946964319,0.6884617518002942,1.0105108220651304,-0.03050595809857691,0.6909927696451974,0.9692824284492083,0.0,0.0,0.0,0.0
0.007414547706845813,0.007590692715314558,0.7304670778513586,-0.0009167279041741202,-0.5262431102557865,0.0019088131095796076,0.8503315264946835,-0.02406581616319662,-0.8470763733529949,0.954642143781454,0.09717568539321585,-0.8894923545550757,0.9321315565302549,-0.036282922446145095,0.6837807052231342,1.0140178788963599,-0.034629992466275406,0.6875883987614705,0.9654431271665467,0.0,0.0,0.0,0.0
0.005942010159293497,0.008374789244657097,0.7304769948775278,-0.0013864335309271612,-0.5270446728199507,0.0024073160527473647,0.8498330397693405,-0.02699890340142866,-0.8378511822649877,0.939558710584449,0.10595560486711093,-0.8873732795547055,0.9632925649215115,-0.03525993754214617,0.6800345484228616,1.018916900183482,-0.03357888002309814,0.6871010462703845,0.966186030854845,0.0,0.0,0.0,0.0
0.005433309371419497,0.008655436573922478,0.7303734303048102,-0.002140518874912558,-0.5283526142755178,0.0029868434580713065,0.8490170857723235,-0.02867537096165395,-0.8301198625744604,0.929652582676998,0.11441302595935525,-0.8948055466730389,1.0088421815993878,-0.028381497349470833,0.6791703754339922,1.0230094758126944,-0.02705838303592787,0.6910708346453707,0.9699789900391079,0.0,0.0,0.0,0.0
0.005432967860617765,0.008686404498385557,0.7303682312312431,-0.0021626101835304262,-0.5283497644431101,0.002982843230526676,0.8490188173276058,-0.02870614822308742,-0.8301209717245596,0.9295896079244234,0.11441127548304585,-0.8948258031538073,1.0088500822231246,-0.028407812590596992,0.6791212967988821,1.0230991102419578,-0.02702459355783216,0.6911185241921105,0.9698653386523546,0.0,0.0,0.0,0.0
0.005432967860617765,0.008686404498385557,0.7303682312312431,-0.0021626101835304254,-0.5283497644431098,0.0029828432305266744,0.8490188173276059,-0.02870614822308742,-0.8301209717245596,0.9295896079244234,0.11441127548304585,-0.8948258031538073,1.0088500822231246,-0.028407812590596992,0.6791212967988821,1.0230991102419578,-0.02702459355783216,0.6911185241921105,0.9698653386523546,0.0,0.0,0.0,0.0
0.006100395735724979,0.009046244406069612,0.7318823021964851,-0.0016165884894591507,-0.5273600652137432,0.00228249519573691,0.8496372981897002,-0.02809698201206059,-0.8336142720534161,0.9393695787615074,0.11536748580697573,-0.9000289138491345,1.0186380434801334,-0.03958241042459823,0.6885043074361138,1.008904711726897,-0.016452753940643595,0.6713910776835763,1.0006458080801413,0.0,0.0,0.0,0.0
0.006953629038392988,0.00974747910551669,0.7338953136491861,-0.0014218786689177377,-0.5269170167023126,0.001978668193455523,0.8499132430094062,-0.02918068848809953,-0.8348364712231008,0.9489781827536728,0.11437152332939234,-0.8998697122869054,1.025084224306028,-0.04811571106855055,0.7010425269332576,0.9913583640529583,-0.008344806544507786,0.65673821377272,1.026388398234725,0.0,0.0,0.0,0.0
0.007809257053029876,0.010765738322225236,0.7359103073094375,-0.0014433999630104996,-0.5267104367358406,0.0019601068111968836,0.8500412874745411,-0.03170834902856302,-0.8358700013046306,0.9586549998259967,0.11180657211297543,-0.8971641932079817,1.029009031597524,-0.055628893118970194,0.7135747846541491,0.9745466967988302,-0.0037742279742171113,0.6456086534565256,1.0486420070992644,0.0,0.0,0.0,0.0
0.008620569832246261,0.012030366691516563,0.7377838670857887,-0.0015749156870716392,-0.5265753910328056,0.0021177396754394314,0.8501243393633038,-0.035276315499524015,-0.8374671474600818,0.9685926910937359,0.10816232623591841,-0.8934704112740135,1.0313742163166117,-0.06305509838443578,0.7251822734595884,0.9595123330406414,-0.0011297409909785372,0.6369275941739645,1.0690440393154559,0.0,0.0,0.0,0.0
0.009358171632747688,0.013431138599287561,0.7395050920981472,-0.001752543849394992,-0.5264537643532565,0.002337564205333443,0.8501987405200785,-0.039334272441469205,-0.8393974215379945,0.9783201248478602,0.104021783858918,-0.8893970206219876,1.032627632752592,-0.07078827221870916,0.7358291487047072,0.9461426276819052,0.00021555403796439765,0.6297346999381149,1.088488533960957,0.0,0.0,0.0,0.0
0.009991962443892522,0.014869299719509245,0.7410763478276529,-0.0019404870996765462,-0.5263322926109171,0.0025734367688608592,0.8502728560220822,-0.04352576090478624,-0.8412937229215757,0.987251880116505,0.09974649218482966,-0.8851347737060514,1.032886721008113,-0.07863398740156052,0.7454613559225287,0.9342273693787665,0.0010222879171557285,0.6233592899765399,1.1075129968695918,0.0,0.0,0.0,0.0
0.010504783849859724,0.01623583861469316,0.742504933426185,-0.0021164950168402184,-0.5262261876835265,0.002779767447659581,0.8503374581528457,-0.04745733742897984,-0.8426899158277449,0.9947806487717844,0.0957248024935082,-0.8807629701951321,1.0322530504121654,-0.08623997458326554,0.7541530043122908,0.9234961996963761,0.0016364380814506416,0.6173636479376343,1.1263634190985639,0.0,0.0,0.0,0.0
0.010927556007538135,0.017468994766013303,0.7437856274784177,-0.0022737355037475864,-0.5261395058900409,0.0029488533422214404,0.8503901191409792,-0.050954340473232405,-0.8436297732367305,1.0010369799224141,0.0921410132873389,-0.8765666967373695,1.0311981957342324,-0.09324413693095406,0.7619541520318712,0.9138290590552137,0.0022666337765638337,0.611696716792425,1.1450701133641914,0.0,0.0,0.0,0.0
0.011287666887878755,0.018531471648350457,0.744907632722814,-0.0024117962267142007,-0.5260787734677193,0.0030828418895919754,0.8504268360250309,-0.05392872857748431,-0.8442066199599619,1.0061946986414567,0.08908949323325592,-0.8727565146893073,1.030082324223607,-0.09936280339764442,0.7688694230877356,0.9052376082859573,0.003086672363774035,0.6064608768747254,1.1634011452921367,0.0,0.0,0.0,0.0
0.011591643042471761,0.01940860890263003,0.7458514438334112,-0.0025303374114886714,-0.5260459602605921,0.003184713885804169,0.8504464137637133,-0.05635311636344898,-0.8445092652734048,1.0103341927106484,0.08659949254365003,-0.8694578025658578,1.0290522331653664,-0.10447415000820065,0.7747937058439165,0.8979109046240557,0.004297358871797798,0.6018333586140359,1.1806682279899885,0.0,0.0,0.0,0.0
0.011815486416642769,0.02011081799098475,0.7465848713972053,-0.002625008718984501,-0.5260329389506204,0.0032539655890945506,0.8504539189022196,-0.058257545306267484,-0.8446182701255102,1.0133922748125783,0.08463840361829228,-0.8667170072126221,1.0279881966573416,-0.10868419199496157,0.7794581088911169,0.8922718443763126,0.006223753068544165,0.5981153118259785,1.1954354004851693,0.0,0.0,0.0,0.0
0.011907045693871252,0.020677075881892795,0.747063560515967,-0.0026844536895412816,-0.5260148142939546,0.0032850940759147234,0.8504648240865682,-0.059737282339889085,-0.8446558574695778,1.0152253412189929,0.08310714320517283,-0.8645496746787824,1.026554031611454,-0.11237664851405624,0.7824282036942817,0.8889688240661952,0.009407702010843125,0.5959803801889103,1.2050945729290552,0.0,0.0,0.0,0.0
0.011810825537983079,0.021169116564063065,0.7472526663666363,-0.0026945655748742705,-0.5259532686978069,0.0032734327712039823,0.8505029001128377,-0.060951158463451484,-0.8448082757103746,1.0157700549071524,0.08184523705413164,-0.8629613180741553,1.0243750149989452,-0.11610010133440865,0.7832840100870639,0.8885953118681745,0.014537101273313147,0.5969538909391026,1.2055442046423115,0.0,0.0,0.0,0.0
0.011493103425410729,0.02162555338111555,0.7471682966526006,-0.002658874812118199,-0.525839945787421,0.003222757599626608,0.8505732746991699,-0.062002210588891535,-0.8449982754839204,1.0148639240443913,0.08073744140259068,-0.8617144068336519,1.0210575878129944,-0.12005030137587874,0.7819740997483768,0.8911419799807799,0.02153665500815752,0.6009534746236785,1.1967206734003892,0.0,0.0,0.0,0.0
0.010941497706910346,0.02206074050435502,0.7468767300517458,-0.002595803544558199,-0.5256936851608349,0.0031433700946672683,0.8506641701696545,-0.06293126491267352,-0.8448919933995365,1.0122471742553174,0.07972094164697964,-0.8603504268358588,1.0162049914578446,-0.12409375382062393,0.7788162338874534,0.8959900240856241,0.0296107769195644,0.6063005961043884,1.1825949724002833,0.0,0.0,0.0,0.0
0.010141487046776379,0.02250665016705792,0.7464526818341068,-0.0025166678803144366,-0.5255173564161668,0.0030425255539701136,0.8507737169931833,-0.06382199401517537,-0.8442191634594399,1.007736938901694,0.07869351719570766,-0.8584380608075959,1.0094203331872407,-0.12828072615018352,0.7741533260014951,0.9024470666398268,0.03817773032407678,0.6121579012144344,1.1656776371739048,0.0,0.0,0.0,0.0
0.009056879321574455,0.02301204213887146,0.7459562872699833,-0.00242185966806177,-0.5252983131232278,0.0029181856130575307,0.8509096902835032,-0.0647841632384034,-0.8427452383287123,1.0010750335814174,0.07752786423233057,-0.8555675702870621,1.0001693496495274,-0.13290433626752743,0.7681831185570139,0.9100260813767937,0.046969578158969565,0.6180385598842572,1.1473692602726995,0.0,0.0,0.0,0.0
0.007636646956297535,0.023629405341575635,0.74542942530397,-0.002303342167232963,-0.5250183748911882,0.0027594442886428347,0.8510833015097254,-0.06591834426858084,-0.8402342326014457,0.9919017367754026,0.07610684671974816,-0.8513487017086446,0.9878134064028519,-0.13838273750926347,0.760975357926733,0.9184475775295087,0.05600751027001875,0.6235627105417682,1.1284340267957167,0.0,0.0,0.0,0.0
0.0058396711261552645,0.02439865057716334,0.7448961468134977,-0.0021478109122767797,-0.5246631202471768,0.0025491560838139084,0.8513034118127578,-0.06727982530164411,-0.8364803015241902,0.9798786861241334,0.07436492469234131,-0.8454838924906978,0.9718067856385232,-0.145106013405186,0.752561937100979,0.9275579957793523,0.06563823757383885,0.6284523764414959,1.1093870756737279,0.0,0.0,0.0,0.0
0.0036759966119932356,0.0253304768420639,0.7443613666914835,-0.0019390757458622977,-0.5242270502750047,0.0022683751652573456,0.8515733052528884,-0.0688512466363096,-0.8314535061696524,0.9649979615925411,0.07232744668979572,-0.8379591193261097,0.9520886767278343,-0.15329466327644337,0.7430572030987832,0.9372447480498698,0.076725954040995,0.632721546831541,1.0908467141597842,0.0,0.0,0.0,0.0
0.0012686050230467723,0.026393786798488493,0.7437985286763946,-0.001654481218736179,-0.523697451913137,0.00190142241338784,0.8519005963986587,-0.07054139210785121,-0.8257310227862132,0.9482643882597857,0.07013815568729692,-0.8295320464714167,0.929861868433377,-0.16294996575677453,0.7327348279850627,0.9474316628447577,0.09112895794204658,0.6370976040256553,1.0738296225689157,0.0,0.0,0.0,0.0
-0.0010513689543299436,0.02747791388195641,0.7431449442824838,-0.0012396050578701388,-0.522985668298177,0.0013990077026691872,0.8523394258811788,-0.0720383460358912,-0.8213181850849666,0.9329588366241148,0.06825844400388265,-0.8228888922888621,0.9092658823390677,-0.17405139159686678,0.722203435095923,0.957846998418062,0.11219397893292941,0.6434516418064524,1.0595850396101898,0.0,0.0,0.0,0.0
-0.0029132847328256976,0.028404877992174473,0.7424327528993078,-0.0006611718996065523,-0.5220713302663851,0.0007449561748015332,0.8529012451661118,-0.07293000952722269,-0.8197908540658014,0.9223305156544012,0.06721891641326454,-0.8204906990366211,0.8948683842918176,-0.18586600643065856,0.7127017764668118,0.9672876864388953,0.14388344820053692,0.6527481675462159,1.0499559891495627,0.0,0.0,0.0,0.0
-0.004083551086528217,0.02900261092702617,0.7418659940118915,-6.174678261625369e-05,-0.5211541347469839,5.1222571362652454e-05,0.8534625717626436,-0.07297877108636068,-0.8206102891345406,0.9172299171893633,0.06722555477849271,-0.8219399364001462,0.8882355410090733,-0.19595984427721552,0.7060045569988956,0.9735811450877871,0.18170997421207224,0.6619535315482303,1.0469649690075444,0.0,0.0,0.0,0.0
-0.004070806754008824,0.02900867913251504,0.7418453652143501,-3.8097503305199775e-05,-0.5211554015000471,4.20419805147013e-05,0.8534618001225227,-0.07297968050406592,-0.820615696655074,0.9172191729122899,0.06723722265591456,-0.8219529204832654,0.888177551321668,-0.19593946212498345,0.7059761892566635,0.9735620798059378,0.1816943575762528,0.6619392849822777,1.0469508947532484,0.0,0.0,0.0,0.0
-0.004070806754008824,0.02900867913251504,0.7418453652143501,-3.8097503305199775e-05,-0.5211554015000471,4.20419805147013e-05,0.8534618001225227,-0.07297968050406592,-0.820615696655074,0.9172191729122899,0.06723722265591456,-0.8219529204832654,0.888177551321668,-0.19593946212498345,0.7059761892566635,0.9735620798059378,0.1816943575762528,0.6619392849822777,1.0469508947532484,0.0,0.0,0.0,0.0
-0.004699448394544273,0.029112586322418733,0.7418794133752494,-0.00013298283134225832,-0.5215044442134148,6.853737159594767e-05,0.8532485524651375,-0.07308286008066794,-0.8154324974286364,0.9092439651516663,0.06681517291135484,-0.8158607779598681,0.8789813117668273,-0.19567342421690997,0.7050751599975065,0.974676706664867,0.18166248952215516,0.6613171954579502,1.0475745058069486,0.0,0.0,0.0,0.0
-0.005163186833260386,0.029322080601009264,0.7418064724646823,-0.00022142991804888942,-0.5217322287061744,0.00012402060800743064,0.8531092644655597,-0.0735943523010561,-0.8123977639096639,0.9040720897118778,0.06609407641130384,-0.8115003355803335,0.8719814617214013,-0.1961143488304885,0.7038204634918136,0.9767419272457527,0.18102467863853866,0.6603447758367118,1.0485009951221989,0.0,0.0,0.0,0.0
-0.005162538855661841,0.029535461561334925,0.7417274119232475,-0.00028942034565841853,-0.5219055431740373,0.0001779868785147301,0.8530032172042188,-0.07421122851635727,-0.8121290113805602,0.9039066342901849,0.06543346330440149,-0.8100576223710161,0.8701839928149747,-0.19725763031857318,0.703920611759228,0.9784243552475109,0.18067072413752006,0.6606530100673969,1.049023095947908,0.0,0.0,0.0,0.0
-0.004648966946049075,0.02974940921479982,0.741662808439605,-0.0003457407197895422,-0.5220657525270697,0.000233163969438708,0.8529051390021416,-0.07492817384349727,-0.8145888520399758,0.9090029216327721,0.06483636268412662,-0.8114998111656307,0.8738793591101325,-0.19913984360636086,0.7057509128041656,0.9795640784728847,0.18083140311439289,0.6626516243043942,1.0490249470959572,0.0,0.0,0.0,0.0
-0.0035978448237288783,0.029982795974416183,0.741618826302146,-0.00039929677676301756,-0.5222292243788198,0.00030051786452230415,0.8528050113922839,-0.07582044387134516,-0.819805206954319,0.9195031575718653,0.06422958525146884,-0.8157433720384106,0.8830778877087772,-0.20185568632854692,0.7094704575981094,0.9801412202044752,0.18157357091646006,0.6665439932529852,1.0484054397938696,0.0,0.0,0.0,0.0
-0.0020031307467166934,0.03027103412959725,0.7416077163939601,-0.00046096625747084016,-0.522404639349231,0.0003993758887709842,0.8526974966513088,-0.07702569241856394,-0.8277199154924598,0.9353468465970157,0.06347459694829345,-0.8225225582871291,0.8974570456838694,-0.20553467283775975,0.715190098074782,0.9800926183500711,0.1828895800796796,0.6725031335555086,1.0469406932355627,0.0,0.0,0.0,0.0
0.0001182796446260884,0.030655409321735643,0.7416511943135452,-0.0005576639598489731,-0.5226246072048674,0.0006327542684858606,0.8525624954083434,-0.07890603603463903,-0.8380557491749847,0.9560902222024363,0.06219078973069277,-0.831096042611723,0.9161337414963199,-0.20966479342247024,0.7228659280852797,0.9792707899313102,0.18549779042933376,0.6810012932824364,1.0444092040743906,0.0,0.0,0.0,0.0
0.002398148033777238,0.030872415289788502,0.7414964537864078,-0.0006793819049434158,-0.52236328707293,0.0006879768024274962,0.8527224996717925,-0.06913175967651768,-0.8347884468114692,0.9279859897957993,0.06193256841068693,-0.8442698751737197,0.9395448471896922,-0.21304946411614656,0.728937405523243,0.97863246612983,0.18764634029139637,0.6873401230876676,1.042702229441896,0.0,0.0,0.0,0.0
0.004568643969262335,0.03125162264572673,0.7412248989637479,-0.000808799689936571,-0.5221642673289116,0.0008382566955048044,0.852844136459667,-0.05950289559356295,-0.8404906746009265,0.907462684301805,0.060982313783707415,-0.8560895977811185,0.9604603388380973,-0.21711327381736234,0.7342725016023937,0.979622137004082,0.18942733931492353,0.6932083804180471,1.041772601457024,0.0,0.0,0.0,0.0
0.006420870601602407,0.03174525037300583,0.7409859410059574,-0.0009496836600237352,-0.5220840422677514,0.0010353118648047067,0.8528928883744156,-0.05135893829334609,-0.8508919798883083,0.8933047541310403,0.05953813897507646,-0.8649754307150498,0.9767827944168238,-0.22158117113343564,0.7391314975691878,0.9810567130638876,0.1905980209749576,0.698648320009733,1.0407009687454876,0.0,0.0,0.0,0.0
0.007881183707729462,0.03227602522888023,0.7407956896023464,-0.0010886190062906402,-0.5220905808661555,0.0012379850262363202,0.8528884497239803,-0.04460425584475003,-0.8633222651013315,0.8829438115566719,0.05789683259670127,-0.8710783842194026,0.9885542193737951,-0.22602945523396864,0.7432562659779586,0.9826406053442187,0.1911347693245291,0.7032647897735521,1.0395743675175309,0.0,0.0,0.0,0.0
0.008970284853051352,0.032786333513070025,0.7406511221829534,-0.0012137656695992154,-0.5221517059040269,0.0014224861754279687,0.8528505726840397,-0.03880015547019218,-0.8765292230627401,0.8746207507524864,0.05627938856962169,-0.8749571644015932,0.9965421824574782,-0.23016217266493916,0.746579806863197,0.984212107500015,0.19115637698455354,0.706938647602546,1.0385233328789505,0.0,0.0,0.0,0.0
0.009752132081708869,0.033242255504954986,0.7405426165239066,-0.00131831688020591,-0.5222418833819329,0.0015779879712636258,0.8527949268354365,-0.03351377400101403,-0.8900152117269714,0.8672130021725929,0.05481880346607844,-0.8772397114495214,1.0016972844615797,-0.23382235953556912,0.7491647234015337,0.9856852109120751,0.19082918706881913,0.7097323613024289,1.0376377974503035,0.0,0.0,0.0,0.0
0.010304560842217531,0.03363547183818131,0.7404643267255279,-0.0014015846806532666,-0.5223423167266568,0.0017047857097917095,0.852733037604792,-0.02845926121263537,-0.9035868472439528,0.8600501963827087,0.05355306612560127,-0.8784639186242019,1.0049021566255083,-0.23698170865036747,0.7511614499674151,0.986986265422064,0.19028962392034843,0.7118261659376184,1.0368940206525317,0.0,0.0,0.0,0.0
0.010700849480270605,0.03397373048435278,0.7404089568413204,-0.0014671269916170027,-0.5224390125274461,0.0018088098420772484,0.8526734743937404,-0.023506082225188213,-0.9170724422822611,0.8527904465845686,0.052461725612178524,-0.8790616529486169,1.0068869987288114,-0.2396951296913003,0.7527208846947699,0.9881003953900169,0.18962871716062887,0.7134093652060247,1.0362432242356379,0.0,0.0,0.0,0.0
0.010999069168633134,0.03427261558197333,0.7403654049359193,-0.001520435502891921,-0.5225206378133076,0.0018976692098763364,0.8526231700972157,-0.018646259696992417,-0.9300974753720699,0.8453749644036951,0.051496647809715766,-0.8793623516579868,1.0081958833318256,-0.24205577243261386,0.7539407183081673,0.9890853059157537,0.1888870752939921,0.7146137757802078,1.0356649512318385,0.0,0.0,0.0,0.0
0.011243112153987085,0.03455014394794521,0.7403247313239886,-0.0015678278606703331,-0.5225778544389608,0.0019794087808738792,0.8525878311978478,-0.01393834786306617,-0.9419038016919673,0.8380850305548014,0.05059960303157921,-0.8796012230256145,1.0092188054267919,-0.24415566904796987,0.7548892390313634,0.9900015628044653,0.18807588604736236,0.7155385115969268,1.0351290696239812,0.0,0.0,0.0,0.0
0.011462119619443137,0.03482038318559039,0.740287811424195,-0.0016152821011425661,-0.5226056964332647,0.0020614388635407347,0.8525704823585251,-0.009433059223371763,-0.9512214270439188,0.8316680150437683,0.04972099781757715,-0.8798952096556184,1.0101875696753648,-0.24604178420661096,0.755641298770275,0.9908311183384747,0.18721367750500406,0.7162904641348292,1.0345515284505427,0.0,0.0,0.0,0.0
0.011647564381168825,0.03508141074188708,0.740251846993323,-0.0016638891434054546,-0.5226047985353522,0.002144956983377632,0.8525707332416952,-0.00509708549642809,-0.9562977713203774,0.8273381460713531,0.048861952614513905,-0.8802081306637284,1.0110251487514226,-0.24766284464279106,0.7561468904816212,0.9916050143328685,0.186328113256178,0.716837816776333,1.0339739956357266,0.0,0.0,0.0,0.0
0.011773139837196273,0.03532151463859649,0.7402199506895822,-0.0017120755075944731,-0.5225857884778783,0.002228969195892412,0.8525820747439712,-0.0008352807820671947,-0.9555199508763861,0.8265149368359058,0.04805030047433793,-0.8803696755178487,1.0114685927179157,-0.24891178205124,0.7563538407608992,0.9923146103300274,0.18548777595810342,0.7171468030317981,1.0334510728529045,0.0,0.0,0.0,0.0
0.011836810807865054,0.03554791643067162,0.7401907902967518,-0.0017618418673519892,-0.5225490488023322,0.0023157937293210545,0.8526042602570172,0.0033001341743472455,-0.9488991571252477,0.8291601262451859,0.04726203941125895,-0.8803529898577007,1.011474062333195,-0.24981073993839126,0.7562464576348216,0.9929941599473264,0.18466593838285617,0.7172086875377711,1.032979218262301,0.0,0.0,0.0,0.0
0.01186410048954544,0.03578964341827582,0.7401585203740849,-0.0018196069132502273,-0.5224846774804851,0.0024114574327590353,0.852643322674754,0.007115969029694242,-0.9380820896452157,0.8338366498454219,0.04641310665952997,-0.8802813485727387,1.01123400680288,-0.25053650313409026,0.7558597152451811,0.9937239103994748,0.1837296759939937,0.7170508341591789,1.032484479678056,0.0,0.0,0.0,0.0
0.01186814808663455,0.0360709073662395,0.7401238928966013,-0.0018904955759690672,-0.5223926307333914,0.0025216307385657315,0.852699247542967,0.010516794240928074,-0.9248394598896198,0.8393398279486999,0.04542914627676217,-0.8801517443684419,1.0107824235579066,-0.25124051827454313,0.75524877540838,0.9945424287301433,0.182577193781126,0.7167234009764442,1.0318789382666878,0.0,0.0,0.0,0.0
0.011832409729712388,0.036404192981411745,0.7400906688224967,-0.001976691399914967,-0.5222787985894195,0.002649825753670513,0.8527683903959956,0.013549632652419532,-0.9104399500423174,0.8449593271876118,0.04426646281431905,-0.8798061590725877,1.0098877528908212,-0.2519690857980511,0.7543926218000405,0.9954751764070913,0.18113845627822542,0.7162075999909311,1.0311234691056892,0.0,0.0,0.0,0.0
0.011710714815151057,0.03679194948304309,0.7400581959994752,-0.0020779925395675186,-0.5221488040187412,0.002798165220402598,0.852847277465434,0.01636409021899543,-0.8955723716895516,0.850395854467981,0.0429072465143852,-0.8789866599233818,1.008089426104154,-0.25265280098983883,0.753136024133696,0.9965955844149066,0.17936283329845074,0.715363279960589,1.030278213373278,0.0,0.0,0.0,0.0
0.011457076328388919,0.03723523189701085,0.7400344294338334,-0.002195994007897682,-0.5220074719756942,0.0029729589184552836,0.8529329037662524,0.01917470560130501,-0.8805285348879466,0.8556872656936352,0.0413275878225739,-0.8774063068716925,1.0049165117933279,-0.25314639511559595,0.7513426341708658,0.9978865807015356,0.17725794484223595,0.7141045295376629,1.0293303857882705,0.0,0.0,0.0,0.0
0.011031660364986848,0.03772983436674117,0.7400275733225371,-0.002333772824149252,-0.5218561541273976,0.003183874160648565,0.8530243670898835,0.022236253677527767,-0.8654039743367217,0.861081775123289,0.03951115985977911,-0.8748265120233066,0.9999756063911941,-0.2532191873195012,0.7488702968223641,0.9992962577755411,0.17492065523067177,0.7123768615340723,1.028267277417097,0.0,0.0,0.0,0.0
0.01041214525485579,0.03825646948894633,0.7400406154827365,-0.0024954208407225093,-0.52169193072873,0.0034421892624175244,0.8531233519371272,0.02577115509113373,-0.8503580622330084,0.8669427504868087,0.03748074401819589,-0.8711534890169376,0.9930939777859793,-0.25252068800187477,0.7455838612079384,1.0007490111477608,0.1726153396703515,0.7101740323811994,1.0271384076965622,0.0,0.0,0.0,0.0
0.009619317935349519,0.03876675711225485,0.740065935462343,-0.002686109006928607,-0.5215069536962924,0.003758396059865172,0.8532345260969421,0.029775487680062305,-0.8360123085748947,0.8736230432071047,0.035343163205835894,-0.8666142668550547,0.9846135099388214,-0.2505466890429838,0.7414189003777296,1.0021318218800261,0.17089490902733814,0.7076036410760302,1.0261162590037816,0.0,0.0,0.0,0.0
0.008747508815162806,0.03916157127690407,0.7400510807449673,-0.0029093392143560042,-0.5212844820028039,0.004131845898842867,0.853368005269633,0.0336604299791231,-0.8240821706961577,0.8812039571861489,0.03337336498797404,-0.8621095829026335,0.9758433841307295,-0.24666388407722853,0.7363413257230467,1.0035282261190492,0.17070063531982194,0.7048018919101516,1.0258275820770109,0.0,0.0,0.0,0.0
0.008023318860459426,0.039311334697628667,0.739911267555471,-0.003167708996596411,-0.520971796280783,0.004500384886570051,0.8535561490819218,0.035761751993286066,-0.8179541579562148,0.8887676296763164,0.03210238535074941,-0.8596671372902414,0.969762409726899,-0.24072364299637777,0.7306662071653357,1.0050789608170125,0.17277912792810132,0.7019203561604154,1.0270390897964414,0.0,0.0,0.0,0.0
0.008026409329474182,0.039317546851919564,0.7399073307954968,-0.003175768767794549,-0.5209634805213371,0.004506308389122219,0.8535611633858056,0.035771191458937944,-0.8179431718965495,0.8887812258207011,0.032079506022853144,-0.859681358699542,0.9697550732283754,-0.24075400558045082,0.7306489264697833,1.0050812689302233,0.1728114397103716,0.7019158627718047,1.027019616450891,0.0,0.0,0.0,0.0
0.008026409329474182,0.039317546851919564,0.7399073307954968,-0.003175768767794549,-0.5209634805213371,0.004506308389122219,0.8535611633858056,0.035771191458937944,-0.8179431718965495,0.8887812258207011,0.032079506022853144,-0.859681358699542,0.9697550732283754,-0.24075400558045082,0.7306489264697833,1.0050812689302233,0.1728114397103716,0.7019158627718047,1.027019616450891,0.0,0.0,0.0,0.0
0.009228598702810537,0.04019824591325306,0.7411684897339398,-0.0019415256149101308,-0.522032811347701,0.002907164982850723,0.8529182391920488,0.03709907361367597,-0.8115359827570368,0.8927779014890659,0.03341200093801472,-0.8572819587562056,0.9736342488638973,-0.18773928358884295,0.7080664622096281,1.022100901652195,0.1472153499489374,0.7081777199148452,1.0126834505609428,0.0,0.0,0.0,0.0
0.010993064265806162,0.04126115010936861,0.7424291186943882,-0.0009849183306131096,-0.5230128307511033,0.0016857475739293479,0.852322572187735,0.03710612593149023,-0.8099239420751227,0.9042300355440395,0.03342148578718999,-0.8567929750899498,0.9819104434647009,-0.1429941769631027,0.6890327851301744,1.0395052117298078,0.12498759474841022,0.7172133726525782,0.9968298714545405,0.0,0.0,0.0,0.0
0.013010274973598225,0.04228681317653643,0.7434314612781506,-0.0004104728193059789,-0.5236950925430799,0.0009526059489112135,0.851905143839539,0.036160217684012536,-0.8132519926100918,0.9208764259011636,0.0324601994551086,-0.8588741640737694,0.9935515471156869,-0.11418414668158594,0.6765542376935335,1.0571993945164946,0.10889386960905742,0.726869176529355,0.9825135170927309,0.0,0.0,0.0,0.0
0.014939599627031014,0.04311444081761894,0.744261918057588,-5.727162437443209e-05,-0.524211117343806,0.0005101947933036097,0.8515881873736815,0.035077931812876356,-0.8177258399378992,0.9373067802326641,0.03135720514359107,-0.8616283054370809,1.0053885827346594,-0.09503540411959971,0.6677925176292313,1.0755453824872998,0.09765666213300865,0.7362463475106185,0.9701134453206147,0.0,0.0,0.0,0.0
0.016609885342238773,0.04372981917749227,0.7450040262113713,0.00018257426146218536,-0.5246117343370509,0.00020905812532001083,0.8513415596323316,0.034215024350711734,-0.8215783178538901,0.9512200184878346,0.030476612425507966,-0.864089009179078,1.0158205032375431,-0.08123666788327659,0.6607049983866893,1.0942822679203872,0.08957724483099823,0.7447766310687695,0.959238242759375,0.0,0.0,0.0,0.0
0.017989256097336398,0.04417105954250448,0.7457125491899445,0.0003668385023440608,-0.5249235784365094,-1.724078010377433e-05,0.8511492829895814,0.0336142700998885,-0.8243307752303616,0.9622578462500931,0.029863402962375628,-0.8659232766179831,1.0244419279188324,-0.07005408754650591,0.6542645840529644,1.113141847874542,0.08355431744601183,0.7523907503054429,0.9493939488489214,0.0,0.0,0.0,0.0
0.0190985556685183,0.044495112009087005,0.746407966611164,0.0005238147598880995,-0.5251662677418154,-0.00020345149320124439,0.8509994567869706,0.03320747080767482,-0.8260172236057137,0.9707423087073614,0.029448647104084114,-0.8670617934584909,1.0312658885476595,-0.06009394092762731,0.6480363942386261,1.1319607857704133,0.0787532760290662,0.7591220745020358,0.94024206414185,0.0,0.0,0.0,0.0
0.01997774606198677,0.044760177484899,0.7470841115370662,0.0006650901448791401,-0.5253554627049835,-0.00036592235128253135,0.8508825192480831,0.03288525536838995,-0.8268944204644784,0.977223245663892,0.029121003507835183,-0.8675662510972322,1.036467087355479,-0.050726160461495855,0.64189209073272,1.1505562831829788,0.07456012344963993,0.7650026193779395,0.9316441173129382,0.0,0.0,0.0,0.0
0.02066340255054613,0.04502024538236958,0.7477145582445189,0.000792776424047822,-0.5255042813440901,-0.0005099748909485026,0.8507904334912232,0.0325253329346756,-0.8272836218342191,0.9822349985528189,0.028755721073797473,-0.8675330532060443,1.040205034434772,-0.041737422288039804,0.6358468695043243,1.1685773592041915,0.07052842106265127,0.7699961271434007,0.9236655121249503,0.0,0.0,0.0,0.0
0.021175096334700945,0.045320320083363966,0.7482550421921527,0.0009035898598717617,-0.5256226714707887,-0.0006345170194326142,0.8507171023021863,0.03201435801293932,-0.8274900626656886,0.9861638236194704,0.028237084523043042,-0.8670548967298988,1.0425376698307462,-0.033171247247660865,0.6300123652014864,1.1852980678786134,0.06636088313197137,0.7739448694858319,0.9165979113382342,0.0,0.0,0.0,0.0
0.021507525047385765,0.04569032680554575,0.7486437242498671,0.0009908238893434687,-0.5257158142649268,-0.0007341942911370176,0.8506593688771835,0.031268088049289676,-0.827761802385278,0.9891700239790691,0.027479148311649063,-0.8662154114830517,1.0433901295670942,-0.025285696699543267,0.6246712759919166,1.1993029204044399,0.061932493651988565,0.7765328915064319,0.9109953269452822,0.0,0.0,0.0,0.0
0.021630908594832764,0.04613882166190806,0.7488056388417174,0.0010452204195166425,-0.5257814030510768,-0.0008001691368666213,0.8506187062657793,0.03024924017342423,-0.8282783595797559,0.9911792843194674,0.02644407558770436,-0.8651071100265529,1.0425885051810968,-0.018563299910572914,0.6205411464133578,1.208024992005331,0.05733121592076623,0.7773018922988162,0.9076502145171071,0.0,0.0,0.0,0.0
0.021509892894259808,0.046655402874939696,0.7486789001562266,0.0010575075550838175,-0.5258084840762342,-0.0008239147541584614,0.8506019285868692,0.02896983554741263,-0.8291518424729794,0.9920177031535519,0.025144530616024632,-0.8638357781620717,1.0399859360107544,-0.013634871786433697,0.6192336548521938,1.2073735988207797,0.05278920365539279,0.7758295161075309,0.9072819540887657,0.0,0.0,0.0,0.0
0.02112408447354204,0.04725165711098233,0.7482572542475828,0.0010261651656866596,-0.5257958813435267,-0.0008036301230167239,0.8506097767636238,0.02739552792515369,-0.8303452814996592,0.9915588625166805,0.02354672099912862,-0.8622977210589045,1.035362132546154,-0.010484608242289117,0.6207507597682888,1.1973586684406086,0.04824589009600281,0.7720128907527921,0.9099426881034054,0.0,0.0,0.0,0.0
0.02046866008306029,0.04796211255147821,0.7475899106668851,0.0009579620533464321,-0.5257513065721123,-0.0007457307386412639,0.8506374608680753,0.02544701904362538,-0.8316756217144636,0.9897291621650511,0.021572147272820336,-0.860185076875609,1.0284253820061748,-0.008456262871040371,0.6234778159274593,1.1820611362222242,0.043329975790359535,0.7660694725943764,0.9149967724139092,0.0,0.0,0.0,0.0
0.019534562148057915,0.0488028581210008,0.7467407476494468,0.0008611026361495191,-0.5256727101642267,-0.0006593620994044357,0.8506862086177657,0.023099208140353877,-0.8328868060013068,0.9863570701170209,0.019198146920619386,-0.8572057721746457,1.0189127078964897,-0.007038312143717093,0.6266541036949594,1.1640098930559506,0.03779498709279233,0.758266206382982,0.9216909020352945,0.0,0.0,0.0,0.0
0.018292592123555378,0.049766141201643535,0.7457633439053306,0.0007438156884598582,-0.5255506702936725,-0.0005531603623413825,0.8507617961014156,0.020388232452272323,-0.8336423814930363,0.9810446363607334,0.016464597431066916,-0.8530868234583602,1.0064878789495353,-0.005910804126670022,0.629903077170628,1.1445490426993814,0.03160723026754558,0.7487575688215566,0.9294722385384769,0.0,0.0,0.0,0.0
0.01669992646726512,0.05082101205107475,0.744697438822563,0.0006152678629881101,-0.5253732732576363,-0.0004359181407317793,0.8508715268284562,0.017411980930776214,-0.8335349020996905,0.9732003857524478,0.013473571402091634,-0.8475847158647042,0.9907708680566671,-0.004879552690188766,0.632968788571954,1.1243003962995823,0.024931518023813277,0.7375998354363998,0.9380209665194996,0.0,0.0,0.0,0.0
0.014720931393840363,0.05191036410893604,0.7435699830005834,0.00048647816502756793,-0.5251316743916099,-0.00031714914106432046,0.8510207913477094,0.014339413908912552,-0.832131296925463,0.9621723564659672,0.010397470477297752,-0.8405490917703491,0.9714956613621204,-0.003803749537735061,0.6356563056801139,1.1035032736795911,0.01813497540626078,0.7248396041917529,0.94722332742702,0.0,0.0,0.0,0.0
0.012363617487742817,0.05294250089879734,0.7423911720893442,0.0003719812914502698,-0.5248257076372628,-0.00021070538151644986,0.8512096062875508,0.011440714441277927,-0.8290929364975568,0.9475121449942521,0.007507684565079241,-0.832103172777281,0.9488579062452223,-0.002528520721239193,0.6379422141959576,1.0822849575580595,0.01178454586783165,0.7106116382519985,0.9571933059800596,0.0,0.0,0.0,0.0
0.009729518010921666,0.0537937982885885,0.7411350805129416,0.00029175383904050646,-0.5244513502263719,-0.00014583919700803007,0.8514403530819769,0.009107271008646781,-0.8245481166773944,0.9295482268080053,0.005192623330950634,-0.8230637016744666,0.9241368886334128,-0.0007872347803695363,0.6402279523027757,1.0608078314866731,0.006482616616616778,0.695108813248351,0.9683573357716658,0.0,0.0,0.0,0.0
0.007051938895091231,0.05441172243545933,0.7397692627258363,0.0002480113325802189,-0.5240427333856179,-0.00010575019703680661,0.8516919283948892,0.007429198194935432,-0.8193565644161837,0.9100288513565805,0.003535354559817813,-0.8145159361849234,0.899484085404657,0.002020793650426728,0.6433473316349437,1.0393257926377744,0.0026707975880047377,0.6790745019424357,0.9809388791805778,0.0,0.0,0.0,0.0
0.004894114271777862,0.05485313271006132,0.7382693012304139,0.00022537724906897548,-0.5235889508018478,-9.962132778910813e-05,0.8519709794816411,0.006299542404913884,-0.8166480172060666,0.8947706834799771,0.0024202725079583223,-0.8093959992384876,0.8804357392063821,0.005557997317326779,0.6492132683592303,1.0182018724698303,-0.00013093829620141424,0.6640100176694077,0.994318057551367,0.0,0.0,0.0,0.0
0.003562803416810793,0.055038604786021815,0.7370248540405718,0.0002347599290321583,-0.5232106027284367,-0.00014286764149805273,0.8522033734204287,0.005944621269820823,-0.8160427934870801,0.8856210576579063,0.002071858023508918,-0.8078747998960168,0.86967580136954,0.009678350992182703,0.6565193261827326,0.9986196553310605,-0.0016371006267422155,0.652947285809868,1.0052347585527268,0.0,0.0,0.0,0.0
0.0035780248845709594,0.055038138402075616,0.7369967035042722,0.0002454759761950879,-0.5231979399580114,-0.00014360893424081937,0.852211144459935,0.0059455832874241365,-0.8160855552359082,0.8855814489697738,0.002073713246062014,-0.8079043399119256,0.8695850262332739,0.009683549287597567,0.656532092490055,0.9986208897617908,-0.0016297699892035525,0.6529231473274058,1.0052056648892898,0.0,0.0,0.0,0.0
0.0035780248845709594,0.055038138402075616,0.7369967035042722,0.0002454759761950879,-0.5231979399580114,-0.00014360893424081937,0.852211144459935,0.0059455832874241365,-0.8160855552359082,0.8855814489697738,0.002073713246062014,-0.8079043399119256,0.8695850262332739,0.009683549287597567,0.656532092490055,0.9986208897617908,-0.0016297699892035525,0.6529231473274058,1.0052056648892898,0.0,0.0,0.0,0.0
0.0035780248845709594,0.055038138402075616,0.7369967035042722,0.0002454759761950879,-0.5231979399580114,-0.00014360893424081937,0.852211144459935,0.0059455832874241365,-0.8160855552359082,0.8855814489697738,0.002073713246062014,-0.8079043399119256,0.8695850262332739,0.009683549287597567,0.656532092490055,0.9986208897617908,-0.0016297699892035525,0.6529231473274058,1.0052056648892898,0.0,0.0,0.0,0.0
0.0034042437485110664,0.05539112908965858,0.736973155330528,0.0005890506934085648,-0.5230360412057892,-0.0004443297221742385,0.8523102458554365,0.00564823292945056,-0.8159959321258623,0.8851598064146514,0.0017783290844195939,-0.8080364893789157,0.8680830800562698,0.0031080638970810877,0.6569343721631495,1.0002948869450583,-0.008149305336551926,0.6504601471571926,1.0035405476060595,0.0,0.0,0.0,0.0
0.003652788254862006,0.05576656674634026,0.7368997002843137,0.000854580129794448,-0.5228443407118006,-0.0006699944951503294,0.852427484414845,0.00514505730018262,-0.8188012358337186,0.8896070702096055,0.0012743641326617644,-0.81055727311115,0.8710065455725889,-0.002642017290966925,0.6579793651032522,1.0019205397509416,-0.013772253571153208,0.6492326948913275,1.0019305859253527,0.0,0.0,0.0,0.0
0.004404045740227676,0.05598887104929994,0.7367923911736272,0.0009830859340187765,-0.5228468258307807,-0.0007747773876080527,0.8524257328241113,0.004791490090905932,-0.8232142364492389,0.8978028128549917,0.0009162696264771674,-0.8147028839649967,0.8782887748685236,-0.0057204064839911474,0.6603057306274744,1.0030710161992755,-0.016775928801001715,0.6504035352338511,1.0012598095983343,0.0,0.0,0.0,0.0
0.005699580764427101,0.05597701403664757,0.7366479417749696,0.0010067104240037207,-0.5230450153664551,-0.000790200272429533,0.8523040971495776,0.004859772512778758,-0.8290967915661757,0.9096572287824315,0.0009744632385725291,-0.8209147547756817,0.8906105755497585,-0.0059797069540325305,0.6641372116774794,1.0034848045827038,-0.017102708697458266,0.65398941079116,1.001736258656881,0.0,0.0,0.0,0.0
0.00758179488912463,0.05570320161762411,0.7364906989747007,0.0008871210943220293,-0.5235128435175317,-0.0006882128607541111,0.8520170432869348,0.0053723826947363225,-0.8360993246540065,0.924963146002272,0.001471313833097904,-0.8287427301837244,0.9077412992603245,-0.0027051693849015367,0.6697751549893827,1.0028516372559257,-0.0140920239479925,0.6606371492506818,1.0033086744028934,0.0,0.0,0.0,0.0
0.01009390541031217,0.055204819702027536,0.7363922546573218,0.0004697178044913035,-0.524466439325974,-0.00034277956159264834,0.8514309225580726,0.005992267137432273,-0.8433509506003616,0.9431446474946642,0.002072236952713449,-0.8362356951121264,0.9280172245270625,0.0059317680256998455,0.6776970555590217,1.0007439339298487,-0.005939683358771101,0.6721059144585269,1.005614099823912,0.0,0.0,0.0,0.0
0.013214169144553365,0.05468487103630679,0.7364319514188439,-0.0003777532076977741,-0.525991900691521,0.0003897487963819672,0.8504894036996057,0.005895004109596448,-0.8507821402288196,0.9643094069428028,0.0019579978163625565,-0.8415178472195647,0.9493649204354988,0.02091828484732889,0.6878631465157975,0.9969037455211974,0.008566504003330977,0.6898208056609672,1.00734650159606,0.0,0.0,0.0,0.0
0.015642220926332648,0.05455018399074029,0.7361485530458944,9.231163948312245e-05,-0.5254536804932333,0.00014386654633928973,0.8508221908466499,0.006662677432680335,-0.8649599651142128,0.9884957670618508,0.009555124091330136,-0.846214235999008,0.9287715090106139,0.017782259400142664,0.6938805683966724,0.9950437697652335,0.00548064023274346,0.6937009515567926,1.0057727501889442,0.0,0.0,0.0,0.0
0.017859945874859215,0.05432290935032826,0.7358379547614667,0.0002852209111146563,-0.5253785075115429,9.955520027207062e-05,0.8508685753879607,0.007301638047155687,-0.875730242706584,1.0079536344102569,0.02065243093826602,-0.8568295042964473,0.9137954548612616,0.018386455579852187,0.6993797586046929,0.9939880823716262,0.006049811699797619,0.6990234955532469,1.006167709092591,0.0,0.0,0.0,0.0
0.01975415874838665,0.054078959976651304,0.7355477424900586,0.0002603235188980401,-0.5257068024178255,0.00022128113553867388,0.8506657634805517,0.007660385940071035,-0.8830159733684166,1.0224956276073645,0.03190610055126797,-0.8704016536107937,0.9046203702431945,0.021809704836996947,0.7042548622359837,0.9935747341668194,0.009396866431309457,0.7054127523116268,1.0077423538504189,0.0,0.0,0.0,0.0
0.0212008160580591,0.053932724489201514,0.7353064956962744,0.0002570872382469905,-0.526018516306218,0.00031798506333107304,0.85047301738189,0.007810404481670168,-0.8882935581944958,1.0332907448032214,0.042330506450433014,-0.885618189821945,0.8981759824962785,0.024152425504090986,0.7081163357079314,0.9935918864561428,0.011680122827389835,0.7104269746611811,1.0089933667836868,0.0,0.0,0.0,0.0
0.022193297429354202,0.0539145291597605,0.7351402288319213,0.0002901655198798632,-0.5262530973873821,0.00037659523309166833,0.850327849402916,0.0076963421658467444,-0.891881433265679,1.0407465383803245,0.05189410135054209,-0.9013870127206531,0.8928090287241505,0.024862623307292886,0.7109905434569811,0.9938998445431204,0.01232076446544066,0.7138089296940537,1.0095422951562405,0.0,0.0,0.0,0.0
0.02277805279867637,0.054032230584885786,0.735054511224169,0.0003562401654142305,-0.5263875915766321,0.0004024958061728446,0.8502445615963817,0.007284161688938276,-0.8941621108301866,1.0454727117157752,0.0609052574890256,-0.9173125153910129,0.8875254190701863,0.02386684577358164,0.7129748477034568,0.9944134019412029,0.01122824304921186,0.7156164131892195,1.0092662606414942,0.0,0.0,0.0,0.0
0.02303623292424796,0.05427495469797856,0.7350370439071545,0.00042695509322878057,-0.5264534406019484,0.0004233415988305895,0.8502037481507652,0.006544897417602383,-0.8954311441820924,1.0480769993629884,0.0696689544307388,-0.9332052264300053,0.8818646819016114,0.02166598804722101,0.714206489193256,0.9951275797468441,0.008921320192392841,0.7162791379996717,1.0083065673089193,0.0,0.0,0.0,0.0
0.02305733479883985,0.054623339603138504,0.7350570068608118,0.0004661884758853063,-0.5265035521935927,0.0004744686244501357,0.850172668976931,0.005456756692744398,-0.8959512916020064,1.049120211069635,0.07839584046158726,-0.9488764275589733,0.8757193221537204,0.01899578801370863,0.7147722819728491,0.9961671632659986,0.006166062644624493,0.7163138133379144,1.0070096082493016,0.0,0.0,0.0,0.0
0.022918011807272695,0.055052525609295945,0.7350779034859709,0.0004570182629473844,-0.5265641013727681,0.000573773773962402,0.8501351122400796,0.004049408339134103,-0.896022887446844,1.049121570907826,0.08724096747320241,-0.9640120467434702,0.869174903740032,0.016361313921599393,0.7147040731374181,0.9976771198644319,0.0034798770328668487,0.7160099267021388,1.0057363452344399,0.0,0.0,0.0,0.0
0.022701952398371344,0.05550792877707121,0.7351218809907919,0.00037636103051145423,-0.5266917417760721,0.0007294120799786109,0.8500559601904334,0.0024613158402855225,-0.8955492523724241,1.0483363203251839,0.09632262787851992,-0.9777417149844224,0.8627898492560903,0.014472219010509034,0.7144088761296699,0.9992185549941597,0.0015685418848010277,0.7160407595034896,1.0044595746765799,0.0,0.0,0.0,0.0
0.022422158781174543,0.05598361322853207,0.7351922150220265,0.0002315222885001012,-0.5268750799216714,0.0009326634989061285,0.8499421902069341,0.0007298620040980164,-0.8945976769635872,1.046881593074775,0.10560138148108401,-0.988731373993602,0.8573602456773505,0.013258917142421037,0.7139472321388313,1.0007112969119534,0.0003472897908879868,0.7163957452638134,1.0031198413175408,0.0,0.0,0.0,0.0
0.022025873917887077,0.056523642710267566,0.7352961312760258,5.679196522325647e-05,-0.5270464095902064,0.0011574758973679786,0.8498357130424046,-0.0012092986678535005,-0.8932899420031671,1.04469865611761,0.11483953207386259,-0.9952400599558944,0.8540816707051679,0.011892086971590327,0.7131831073573393,1.0022374696953542,-0.001013901949261426,0.7165529520412139,1.001423263071777,0.0,0.0,0.0,0.0
0.021430412474143307,0.05719742575983279,0.7354388632103067,-0.00012423905436461066,-0.527151318883365,0.0013884377216720164,0.8497702888456852,-0.0035101126777513036,-0.891629822824099,1.0415098192065348,0.12361185385245561,-0.995692412926317,0.854487909412623,0.00949948334970148,0.7118863641837707,1.0040320315636453,-0.0033733818064836324,0.7159583532821153,0.9990779302579387,0.0,0.0,0.0,0.0
0.020585138875654874,0.05804293365361676,0.7356240041227541,-0.00032017889017671073,-0.5271945234872352,0.0016332048972823516,0.8497429991075589,-0.006284928513450739,-0.8894420535442102,1.0369672922885507,0.13172212104503483,-0.9900075406432243,0.8585950650471129,0.0059091074941904406,0.7099243408060864,1.0062470628062765,-0.00687796535567839,0.7145058827283604,0.9959891046754137,0.0,0.0,0.0,0.0
0.019476444719294377,0.05906673178986009,0.7358692443014607,-0.0005138655306570348,-0.5271492120357395,0.0018756587312226728,0.8497705137839506,-0.009511538587722457,-0.8867012145159838,1.031010290817427,0.13939784967849975,-0.9798557248219926,0.8647140871984268,0.0008490665200086124,0.7073443529594857,1.0087114203842635,-0.011757875561195869,0.7121162478102538,0.9918950998392553,0.0,0.0,0.0,0.0
0.01810225719081493,0.060269072384585884,0.7361859958029694,-0.0007224217334702478,-0.5270534335380737,0.0021281530343076186,0.8498291753448036,-0.01320584192486002,-0.883159081258132,1.0233981761690867,0.14676326653416885,-0.9670161406957491,0.87170462898154,-0.0053938811686691955,0.7042230983267485,1.011334341002858,-0.017683226232275022,0.7090823255010943,0.9867280100221497,0.0,0.0,0.0,0.0
0.01645047862428037,0.06165804846207506,0.736594249910833,-0.0009452285606046571,-0.5269236599577853,0.002391149514725428,0.84990872776061,-0.017379629168280397,-0.8785786254071369,1.0138719446811832,0.15389799423188466,-0.9528778500344018,0.8790049352032676,-0.012814058826320945,0.7006609698096796,1.013962363493856,-0.02460418308737191,0.7055767440433166,0.9802641206364324,0.0,0.0,0.0,0.0
0.014493521719716549,0.06325679133783481,0.737124888969146,-0.001099839318050123,-0.5266538932030373,0.00260422768735718,0.850075105579331,-0.02196915823870934,-0.8731340652754687,1.0025153957065367,0.16109960529355286,-0.9386215225793314,0.8862646766684471,-0.022550872756991698,0.6967438163665409,1.0162703262062973,-0.03354653258674006,0.7011359061071908,0.9718249485145776,0.0,0.0,0.0,0.0
0.012237011355824955,0.0650577737356033,0.737780000354359,-0.0011183069427759915,-0.5261876673395963,0.0027263143760631594,0.8503633666493512,-0.026877087769527575,-0.8669518898536418,0.9894243243717386,0.1689220463779598,-0.925171460644685,0.8937929065333793,-0.035129329718618485,0.6925225224890771,1.0180686877893614,-0.04488036587560454,0.6956063482355755,0.9611106167803839,0.0,0.0,0.0,0.0
0.009738285597798662,0.06699239359753098,0.7384468934484905,-0.0009629172549299738,-0.5255407079625957,0.002757464227117343,0.8507634415368177,-0.03194785288982466,-0.8603328492974948,0.9748196153137482,0.17832002961298424,-0.9137433475129755,0.9026894786512484,-0.05001520514961611,0.6876363623962424,1.0199891933505247,-0.057982013308874036,0.6888763734340828,0.9491922928877492,0.0,0.0,0.0,0.0
0.0072251474628297774,0.06873564178682927,0.7388867376254967,-0.0008859519535453286,-0.5252540569228107,0.00290365046841547,0.8509400446501633,-0.036724587712144305,-0.851898609492134,0.9576160558634776,0.19053905219425687,-0.9052857419369343,0.9165879965026689,-0.0615399595774051,0.6819796659832658,1.0235283110982505,-0.06778383057967287,0.6829836969415729,0.9405107849981725,0.0,0.0,0.0,0.0
0.0051410846773451025,0.06992982456272573,0.7390011185466154,-0.0012650703944916619,-0.5259320429570687,0.003446051582471056,0.8505186714684116,-0.04079451152449076,-0.8406690956876252,0.9383135524917129,0.20601908897280988,-0.9006398316322508,0.9407865084014038,-0.06334157676047235,0.6767716947217859,1.0289472570872116,-0.0690793755630748,0.6811136505213216,0.9388255742883801,0.0,0.0,0.0,0.0
0.003948242898962818,0.07047024989697587,0.7389772632738989,-0.002362338120115636,-0.5278171211574917,0.004470101066072594,0.8493429955960566,-0.04395534545348313,-0.8271417366292756,0.9198001123556567,0.22294973371994603,-0.9016863193846059,0.9817029065260642,-0.053108864726525165,0.6744396081141522,1.034398025307696,-0.06003670459794654,0.6862797908061211,0.9433480678430636,0.0,0.0,0.0,0.0
0.0037880324630122867,0.07042651192531846,0.7389135121993353,-0.003917869889649457,-0.5303169353662227,0.005446167879238006,0.8477729280973393,-0.04516925591939924,-0.8145109110944831,0.9063510317406773,0.238294398366991,-0.912226175373204,1.0404101113001025,-0.036139406472013844,0.6757811505460675,1.0384545052925187,-0.04486279012978485,0.6965544008045377,0.9507938256426631,0.0,0.0,0.0,0.0
0.0037993303979465165,0.07046345809173261,0.7388939139946967,-0.0039011932427184745,-0.5303111307539199,0.005426060519156821,0.8477767649310898,-0.04518229623595208,-0.8145144556106134,0.9062819984021379,0.23830229203063505,-0.9122564987128572,1.040408535770843,-0.03625554279065797,0.6756874783700567,1.038598712647855,-0.044728761032654045,0.6966751486590551,0.9506384787042412,0.0,0.0,0.0,0.0
0.0037993303979465165,0.07046345809173261,0.7388939139946967,-0.0039011932427184745,-0.5303111307539199,0.005426060519156821,0.8477767649310898,-0.04518229623595208,-0.8145144556106134,0.9062819984021379,0.23830229203063505,-0.9122564987128572,1.040408535770843,-0.03625554279065797,0.6756874783700567,1.038598712647855,-0.044728761032654045,0.6966751486590551,0.9506384787042412,0.0,0.0,0.0,0.0
0.0034684917283378386,0.07150301781484938,0.7407984540404188,-0.002240033075556338,-0.5278439787991966,0.003762955003900491,0.8493300633245549,-0.044478547682961785,-0.8193198147583921,0.9142234113424964,0.23993661224475415,-0.9207831761697264,1.0482521283997266,-0.06665674503738675,0.6844783182955603,1.0226423037275592,-0.02546336924927357,0.6665258302034108,0.9857479144590171,0.0,0.0,0.0,0.0
0.0037108260469092703,0.07290958767180078,0.7432469601600155,-0.0016631400985270032,-0.5268682680452877,0.003063935879169606,0.8499398063327189,-0.04648932750161577,-0.8197354575995224,0.9218182536030155,0.23795571697822523,-0.9196206656126267,1.0513092772652957,-0.08467832499589176,0.6974151292356937,1.003198681121241,-0.007911868736909782,0.6492420360965666,1.0143830268956338,0.0,0.0,0.0,0.0
0.004168885545687743,0.07459665111151306,0.7456828087230657,-0.001703467074112782,-0.5266042656626859,0.0029922533397158126,0.8501035772220593,-0.050474379070075404,-0.8190839847044032,0.9294888186828986,0.23357905839715618,-0.914094958522029,1.0515713155089188,-0.09664533835663763,0.7108634454450171,0.9847040535758422,0.004114065875523048,0.6387809047167109,1.0389085504656155,0.0,0.0,0.0,0.0
0.004671313625976414,0.07652460702067843,0.747941580748548,-0.0019229317128110464,-0.5264576234506374,0.0031770958509613136,0.8501932598570096,-0.055644731458624384,-0.8193744324188432,0.9380899544646077,0.2279996403950202,-0.9080090250510544,1.051136150554288,-0.10770139882373439,0.7234361147559208,0.9681488036894503,0.01263318730615501,0.6312082943492064,1.0608686858492002,0.0,0.0,0.0,0.0
0.0051497086819997755,0.0786016330263807,0.750005239268357,-0.0021760607974887825,-0.5262828030996066,0.003449509654707502,0.8502998158321383,-0.06141367911815418,-0.8205812685425349,0.9471762682506597,0.22188838382276374,-0.9022426369985509,1.0504063577142464,-0.11914845938677547,0.7349105238742502,0.9534653287822645,0.019491724044740068,0.6249569204526512,1.0813089648277745,0.0,0.0,0.0,0.0
0.005562659642153628,0.08072894401546761,0.7518839184067142,-0.002400340383504863,-0.526041987038749,0.003713479314324763,0.8504471037693937,-0.06731773341431832,-0.8223120360236451,0.9561087330462169,0.21571403921976195,-0.8969972444930697,1.049406718952432,-0.1312350168743143,0.7452908027222144,0.9403769077548358,0.025468741525687486,0.6190892728255506,1.100853732901184,0.0,0.0,0.0,0.0
0.005850855027187044,0.08278171286191242,0.7535861840981252,-0.0025751991794117227,-0.5257781736329928,0.0039175617520703305,0.8506088015005838,-0.07290414392337571,-0.8237055910596149,0.9636817195803449,0.20986329111087404,-0.8918978925372784,1.0475979107549196,-0.14347968721397866,0.7545777175520687,0.9286682273570068,0.03110774493338416,0.6131485559016359,1.11990826086507,0.0,0.0,0.0,0.0
0.006051900548063159,0.08468251710190494,0.755110393148964,-0.002721825804033805,-0.5255342588085593,0.004072536558857954,0.8507583375605599,-0.07798776770854539,-0.8246579473967376,0.9699169213158184,0.2045166716837802,-0.8869667487258467,1.0452504865164778,-0.15511187721513792,0.762864479021144,0.9182162487637198,0.036683187616738056,0.6073662227370265,1.1386458600725535,0.0,0.0,0.0,0.0
0.006203262371617642,0.08638609782164818,0.7564489570962606,-0.002868372049609388,-0.5253475179045626,0.004206470438150398,0.8508725306882067,-0.08250815785498361,-0.8251942456611253,0.9749763923162055,0.1997344978242083,-0.8822244688923606,1.0426134988298026,-0.16546699860115552,0.7701856167514831,0.90904141715081,0.042463995051622586,0.6021193529797487,1.1569737691597024,0.0,0.0,0.0,0.0
0.00633303239865889,0.08789075367177095,0.7575895523969446,-0.003035301127818447,-0.5252342615463385,0.004342144232805487,0.8509411867035215,-0.08651046599065415,-0.8254826369997085,0.9791508727864914,0.19548080994264036,-0.8777449587444334,1.039901059088854,-0.1743053136181855,0.7765240696872737,0.901323081847377,0.048690324387263624,0.5978227676483716,1.1742606246618943,0.0,0.0,0.0,0.0
0.006388354537525334,0.08921738163529921,0.7585151943181654,-0.003209823980305946,-0.5251720954259319,0.004474830095532025,0.8509782271665752,-0.09004160985315666,-0.8255006394526028,0.9821773076657063,0.1916936927229045,-0.8734811251092225,1.0367899754397378,-0.1818555768262673,0.7815798448990793,0.8953829791387905,0.055698716534431716,0.5946219000002552,1.189036937613113,0.0,0.0,0.0,0.0
0.006300239686612069,0.09043658217156729,0.7591977348991694,-0.003359610289335456,-0.5251024895987264,0.0045810043923170726,0.8510200366822632,-0.0932448120606124,-0.8254379535933627,0.9839550352139759,0.18823171772234795,-0.8695351461349483,1.0329516945352122,-0.18891203224292433,0.7849276355019089,0.8917484102553709,0.06394083533521407,0.5929608020960998,1.198596285830332,0.0,0.0,0.0,0.0
0.0059981516882211625,0.0916454562829353,0.759615527036066,-0.003449524842808328,-0.5249538100519173,0.004639091817755256,0.8511110837707618,-0.09634074166578328,-0.8255672915091116,0.9844837227229322,0.1848809499319906,-0.8660216026104078,1.0280478274622753,-0.1964179072693073,0.7861366038021641,0.8909070045608911,0.07397287412185873,0.5941174096683172,1.1987642318437504,0.0,0.0,0.0,0.0
0.0054395217851670435,0.0929124232985931,0.7597950527110062,-0.003486736330141124,-0.5247135324334717,0.004656432105530778,0.8512589906667645,-0.09951007853365779,-0.8258028158981567,0.9835844554790077,0.18143084202149756,-0.8626275567227297,1.0215777142948466,-0.20465550373849062,0.7851540394996581,0.8927993387560365,0.08569651333743751,0.5980073251443748,1.1894493695328308,0.0,0.0,0.0,0.0
0.004606320637428328,0.09427626753965626,0.7598100583384652,-0.0035063105590461526,-0.5244122109205691,0.004656974820778555,0.8514445674318338,-0.10286853502952432,-0.825745329017294,0.9809271357687538,0.17770925494866088,-0.8587137992993717,1.012942722860753,-0.21341648062794488,0.7823012981649583,0.896802658955273,0.09839256623682001,0.603105451338288,1.174634737165371,0.0,0.0,0.0,0.0
0.0034792216301011447,0.09579057705159165,0.7597388094485277,-0.003520902043868095,-0.5240496539724531,0.004649024413125105,0.8516677462438951,-0.10654640160497642,-0.8251201646189226,0.9763096757902477,0.17354919639537184,-0.8537997119218854,1.0016550407117348,-0.22280480235667102,0.7779066781358417,0.902213633896244,0.11151914646440671,0.6086206465129204,1.156853132551085,0.0,0.0,0.0,0.0
0.002010057521842401,0.09750969577262011,0.7596459763402542,-0.0035096554320712126,-0.5235965566384875,0.0046045507583282646,0.8519466686990338,-0.11060188769074505,-0.8236425800063608,0.9693618143987747,0.16886321271510563,-0.8475230831151555,0.987137105261392,-0.23331429636671203,0.7721652218481735,0.9084472697707678,0.12477090345172559,0.6139335505789412,1.1375099656398393,0.0,0.0,0.0,0.0
0.00014464432421503522,0.09947810610649918,0.7595760516004539,-0.0034320374066657447,-0.5230129731256498,0.004475979730638167,0.8523060580958922,-0.11502987203472123,-0.8210567462064849,0.9596611604227996,0.16363906295329153,-0.8396419201065686,0.9688317583281457,-0.2455489114217831,0.7651609363167988,0.915065143633274,0.13822903823804641,0.6185176226731284,1.117402348394624,0.0,0.0,0.0,0.0
-0.00214059307035283,0.1017061358528768,0.7595509798824789,-0.003238172770941832,-0.5222645097099272,0.004207963443003999,0.8527670192838236,-0.11972951910514457,-0.8172114071765392,0.9469474158954587,0.15798535792333013,-0.8301311671000118,0.9464873729800686,-0.25993413125845427,0.7569676679955195,0.921709121670059,0.15258166072317064,0.6220650570056623,1.0971761673577618,0.0,0.0,0.0,0.0
-0.004798990177265719,0.10412657300296345,0.7595670863729967,-0.002871593598127591,-0.5213337821981212,0.0037363805674072237,0.853339839073194,-0.12440039988851796,-0.8121455364268823,0.931359017491352,0.15225286902143376,-0.8193936414865558,0.9205972396632984,-0.2764815058777589,0.7477792753141933,0.9280138708863117,0.16957269207519823,0.6247772089162474,1.077743074269094,0.0,0.0,0.0,0.0
-0.007633566773499337,0.10657552913191021,0.75956022749694,-0.0022509836938631503,-0.5201712854939107,0.00298037592580446,0.8540537946636402,-0.12853558463621362,-0.8068977447711574,0.9145715626703865,0.14713093531713933,-0.8092219754284938,0.8937475859861869,-0.2949414705401639,0.7378806825014712,0.9337865646213718,0.19308224986696543,0.6280368809818322,1.060526676135657,0.0,0.0,0.0,0.0
-0.010146366071200345,0.10880986511645672,0.7593437922538846,-0.0012423989826821967,-0.5185554999731599,0.0018125690802199513,0.8550411478318943,-0.13151520426538613,-0.8054489582591877,0.902472297891255,0.14375043670266952,-0.8049266231334309,0.8735167433597102,-0.3153472748979891,0.7274771309267939,0.9393345559397567,0.2293980526437121,0.634798891855734,1.0468885599077444,0.0,0.0,0.0,0.0
-0.012223662150411704,0.11061097770400498,0.7587308394090686,6.576642080066522e-06,-0.5166896621983464,0.00039702185619565713,0.8561726667604801,-0.13314686767855932,-0.8079814138902347,0.8954508359987383,0.14229688385479097,-0.8068473947136512,0.8611233166127653,-0.3348609733775185,0.7159982753272129,0.9463593514338053,0.27969081228820036,0.6439012182644765,1.0391441740633849,0.0,0.0,0.0,0.0
-0.013658083675219843,0.11170717598922922,0.757499607014391,0.0008871780614977036,-0.5150713935008016,-0.0006480059526757685,0.8571465759136618,-0.13393409728323075,-0.8142030192271643,0.8935983826279134,0.14212838771800673,-0.8131455094565239,0.8562084540105634,-0.34635303835457004,0.7028506805891249,0.9575382424915337,0.3320675174338238,0.6513987836426924,1.0395276122355224,0.0,0.0,0.0,0.0
-0.013638718278971312,0.11173764969963179,0.7574622166973634,0.000938150327737437,-0.5150806293664302,-0.0006767866281130714,0.8571409493690666,-0.13395697852482916,-0.8142325949003402,0.8936328218849825,0.14214323603169812,-0.8131529384554188,0.8560861991735224,-0.3463631312371343,0.7027857129063373,0.9574660560314389,0.33207814173665734,0.6513751580372502,1.0395161484403512,0.0,0.0,0.0,0.0
-0.013638718278971312,0.11173764969963179,0.7574622166973634,0.000938150327737437,-0.5150806293664302,-0.0006767866281130714,0.8571409493690666,-0.13395697852482916,-0.8142325949003402,0.8936328218849825,0.14214323603169812,-0.8131529384554188,0.8560861991735224,-0.3463631312371343,0.7027857129063373,0.9574660560314389,0.33207814173665734,0.6513751580372502,1.0395161484403512,0.0,0.0,0.0,0.0
-0.014288099439576363,0.1119316328712235,0.7577559200310516,0.0005574374720893754,-0.5159827270015184,-0.0004828291279805258,0.856598670075768,-0.13418839049337536,-0.8049911419884436,0.8818949190383948,0.14083232310777685,-0.8017231303638913,0.84175445849526,-0.34529210874712835,0.7044423513438967,0.9573705660689665,0.33584426527247097,0.654451226999931,1.038876327132863,0.0,0.0,0.0,0.0
-0.014792142984424796,0.11229389142330162,0.7578632187478498,0.00029336695849111946,-0.5166096995439028,-0.0002926776471364465,0.8562209099366711,-0.13506415969565946,-0.7989187316722917,0.873752847111464,0.13921648775835546,-0.7932931195531563,0.8305661913177147,-0.34580293085560576,0.704941537632631,0.9588233116791162,0.3373014729583252,0.6559976088463187,1.0388687697442736,0.0,0.0,0.0,0.0
-0.014891803519948066,0.1126969551624308,0.7579076559060544,0.00011158717183666068,-0.5170326280072042,-0.00013332251952410135,0.8559656718288257,-0.1362042044417611,-0.7964703532193255,0.871181390087529,0.1377380935123844,-0.7887633814631884,0.8252086673068353,-0.34760905337999887,0.705951092272567,0.9603326529362753,0.3379713159285305,0.6577136526574929,1.0386930819807134,0.0,0.0,0.0,0.0
-0.014543616464854832,0.11311519178033565,0.7579362140958041,-2.3581514607318482e-05,-0.5173170660086667,4.360100660335989e-06,0.855793814327427,-0.13753541725360954,-0.7973790895285855,0.8742466961278444,0.13643400807771533,-0.7878812626618986,0.8258548755086599,-0.3505156882944455,0.7080081866139236,0.961494112352529,0.3385877278818103,0.6602607945393969,1.0381111480580605,0.0,0.0,0.0,0.0
-0.013727844373316832,0.1135607981204829,0.757969881358499,-0.00013709581865095234,-0.5174994364444249,0.00013896310318638975,0.8556835251269567,-0.1391184864047064,-0.8014962740276551,0.8829249335444795,0.13522517978664372,-0.7903887826684867,0.8323875777076407,-0.35449852324361625,0.7113642672263769,0.9621807767614176,0.33950600723049984,0.6639985249638525,1.03697479188045,0.0,0.0,0.0,0.0
-0.01244153189056668,0.11407100955436587,0.7580233206045056,-0.0002498369200409804,-0.5176000046602302,0.0002985931405788256,0.8556226292001513,-0.14110705811214921,-0.808678180381396,0.8970595005248219,0.1339451808046016,-0.7959343627687748,0.8444083662547487,-0.35960842653351993,0.7161386101227217,0.9623380980909705,0.3408685090113164,0.6691561075809965,1.035096346108491,0.0,0.0,0.0,0.0
-0.01070209942896284,0.11468028346783364,0.7581120610386188,-0.00041964742778669744,-0.5176516986855313,0.0006721922103389361,0.8555910769179705,-0.14404531365242795,-0.8187018955354808,0.9161872494375052,0.13201425155394755,-0.8037366727926698,0.8610244393372386,-0.3645457119504938,0.7220843535377303,0.9618605611163396,0.34420769651732686,0.6763338066062412,1.0323798710010041,0.0,0.0,0.0,0.0
-0.00876912123438636,0.11495818746769472,0.7580385363675488,-0.0005073456613096489,-0.5173676946213372,0.0006756536040812274,0.8557627911137466,-0.1292770015549186,-0.8190342531586712,0.8962520027013953,0.13202985461268832,-0.8159666325190646,0.882674432489952,-0.36968869975280866,0.727473237408512,0.9613443550970768,0.3462755595842563,0.6816164039577822,1.03073132723924,0.0,0.0,0.0,0.0
-0.006980420490372665,0.11536982251873112,0.7579027415355964,-0.0006006033548221802,-0.5171298209353132,0.0008155083335959327,0.8559063748571913,-0.11235489727041197,-0.8266970266801688,0.8808560337473116,0.13129718267677942,-0.8266608808653445,0.9016294222940258,-0.37483837494322775,0.7321034624553073,0.9618011285770383,0.34833361611916247,0.6865659562098131,1.0295348871232355,0.0,0.0,0.0,0.0
-0.005521875106244252,0.11592942400267962,0.757798141218332,-0.0007092370284056885,-0.516998203016891,0.0010221590911634292,0.8559855782961155,-0.09720297045771364,-0.8379549419695071,0.8694142473719634,0.12987558522778725,-0.8342997493303603,0.9157042770144107,-0.38019309746956836,0.7361111367199397,0.9626646933915828,0.349524772078805,0.6910144661541597,1.0281234998846855,0.0,0.0,0.0,0.0
-0.004411945604729333,0.11657327376230402,0.7577373065066177,-0.0008263707152479043,-0.5169568155892089,0.001250953470214907,0.8560101652683343,-0.08448824913424997,-0.8506077741749491,0.8603894184280702,0.12803704428306012,-0.8391442289708508,0.9252657491043143,-0.38549700636500633,0.7394698780273538,0.9636923768143683,0.3497859166488014,0.6947955298605151,1.0265056282103715,0.0,0.0,0.0,0.0
-0.003603317419582076,0.11723172239949299,0.7577064253050783,-0.0009400237957344973,-0.5169761654298239,0.0014712376528044318,0.8559980117923801,-0.07366527206860421,-0.863647606196817,0.8526256606149425,0.12606270134630107,-0.841903926734325,0.9313386244855882,-0.3905093659413998,0.7421843414330492,0.964797352291261,0.3493168667262655,0.697843764534029,1.0248793598725168,0.0,0.0,0.0,0.0
-0.003027131015141129,0.11785915010779752,0.7576934316169297,-0.001042233774149066,-0.5170298635779884,0.0016687182231028487,0.8559650981767765,-0.06397471494890782,-0.8767028618737358,0.8453661375319823,0.12413752091100572,-0.8432677578132919,0.9349706319039424,-0.39508836773256395,0.7443366518456204,0.965905214696932,0.34836766880177866,0.7002270436491519,1.0233651992204083,0.0,0.0,0.0,0.0
-0.002617638932865275,0.11843734314393621,0.7576864419179057,-0.001130161214914997,-0.5170972420554505,0.001840553672930116,0.8559239319918869,-0.054829271540491685,-0.8896554297896658,0.8381376068778728,0.12234442121779904,-0.8437879743013387,0.9370193359421511,-0.39920609323625117,0.7460143706571061,0.9670044439906293,0.3471280164508757,0.7020467219897424,1.0220325184572754,0.0,0.0,0.0,0.0
-0.0023143416775299277,0.11897277428174384,0.7576761072817262,-0.001206162626919147,-0.5171613325181248,0.0019921755594509935,0.855884765933087,-0.045903700391589725,-0.9023984421858644,0.8306875075034397,0.12067895372667141,-0.8438956432306947,0.9381771382936771,-0.4029367677135289,0.7473105006299869,0.9681174497269113,0.345699129131456,0.7034230811016273,1.020880972607302,0.0,0.0,0.0,0.0
-0.0020519362109235493,0.11949299250993856,0.7576702300812916,-0.001279250602614315,-0.5172086482001208,0.0021375320394920777,0.8558557172220558,-0.037107733771497904,-0.9146559418710908,0.8230353217352893,0.11906026446486799,-0.8439147935365814,0.9390672121991908,-0.4064224740046927,0.7484202262137725,0.9691427585941227,0.3441340572316163,0.7045968804403893,1.0197065418116529,0.0,0.0,0.0,0.0
-0.001793038772571309,0.12002556220216397,0.7576637401718858,-0.0013571431855682811,-0.5172288639294155,0.002287370963776491,0.8558429928525056,-0.02847338344193994,-0.9257293456962812,0.8154636712123831,0.11740722776269827,-0.8440509420859832,0.9400390266993732,-0.40980247758792493,0.749402238271755,0.970132583936648,0.34241174508675615,0.7056568612675787,1.018446434880768,0.0,0.0,0.0,0.0
-0.0015290744640980955,0.12059147763549842,0.7576492449072056,-0.001446033047702554,-0.5172181780191561,0.002449143404661538,0.8558488575744859,-0.020074284308248334,-0.9343664775671062,0.8086806516082596,0.1156534538418607,-0.8443437504501178,0.9411421747143619,-0.41315682249878183,0.7502306663478655,0.9711850949541824,0.3404843057641045,0.7065985765078623,1.0171069198554068,0.0,0.0,0.0,0.0
-0.0012803468121776306,0.12120254150972527,0.7576228015225364,-0.0015500966401985183,-0.5171825554256503,0.002627433262103633,0.8558696735825223,-0.011961454762670977,-0.9388368356264611,0.8038898500892888,0.11375152439771052,-0.844633404944772,0.9421062383521529,-0.4164885574431391,0.7508299847118881,0.9723908924353752,0.33830480437459315,0.7073638981247959,1.015724879687046,0.0,0.0,0.0,0.0
-0.0010393203727540783,0.1218518909533534,0.7575844957094227,-0.001670872653966524,-0.5171222845275824,0.002824445657797179,0.855905236306143,-0.004051005750734091,-0.9374924879727758,0.8024044524634388,0.11171542667694617,-0.8449605131109159,0.9430140666990579,-0.4197366242862841,0.7512182128202616,0.9737274626810661,0.33597562320233537,0.707994622647741,1.0143107385944596,0.0,0.0,0.0,0.0
-0.000770424655078954,0.12255580035823092,0.7575285571818215,-0.0018132494768134742,-0.517025115497144,0.0030463157585364324,0.855962885896228,0.003604656594921876,-0.9303293106852245,0.804132381665469,0.10950253705119087,-0.8455589446469555,0.9442415031693766,-0.4229984831283962,0.7514454203580662,0.9752250752329518,0.33349596125970254,0.7085568403817775,1.0128274710175014,0.0,0.0,0.0,0.0
-0.0004735445923908095,0.12338080109560164,0.7574492930436303,-0.001989786069773914,-0.5168885763005696,0.003308076741513738,0.8560439808033458,0.010670251778165805,-0.9190625060801308,0.8077560067598137,0.10690934051126638,-0.8463173486309922,0.9456137045094805,-0.42659308399662943,0.7514795726540124,0.9770637038260249,0.3305486666608966,0.7090242255428949,1.011166372962673,0.0,0.0,0.0,0.0
-0.0001306415964498894,0.12438221224224068,0.7573451403151824,-0.002211908209084704,-0.5167069026210979,0.003625082095563286,0.8561518224156194,0.017015688943528604,-0.9054704774884115,0.8120884717999526,0.1037634087689992,-0.8472348695988873,0.9471652478983493,-0.4307902184503491,0.7513566118215321,0.9793324919911566,0.32692483221529856,0.7094496770980887,1.009182162350382,0.0,0.0,0.0,0.0
0.0002779096763671861,0.12559478978941108,0.7572153917039469,-0.0024881497904502272,-0.5164727855309699,0.00401061049670853,0.8562905966550987,0.022733796531716702,-0.8907775265722471,0.8163510426084434,0.09994773440518,-0.8483561990084493,0.9489994366797,-0.4357308861835021,0.7511118494212968,0.9820600688809281,0.3225378212189912,0.7098980404287809,1.0067601687075693,0.0,0.0,0.0,0.0
0.0007480850834602106,0.12703565619737683,0.7570596591903678,-0.002824768105547046,-0.5161816638113514,0.004476277947087693,0.8564627683477171,0.02804711318657685,-0.8756114108294732,0.8201285381792099,0.09538518150649138,-0.8496132102549425,0.9510094824851513,-0.4413844377555699,0.750698969031104,0.9852569510223406,0.3173665826463935,0.7103696291083974,1.0038435004553374,0.0,0.0,0.0,0.0
0.0012579873120959434,0.12869222075595008,0.7568763010695401,-0.003224436024451386,-0.515826546478526,0.005030053861950075,0.8566722100771724,0.033313342765166926,-0.8601361000186464,0.823184831465742,0.09007793653722229,-0.8509183827406007,0.9530062399031569,-0.44746125231708406,0.7499762723209527,0.9888930839128335,0.3115230921164158,0.7107959505241568,1.000463392780797,0.0,0.0,0.0,0.0
0.001771325505692964,0.1304999687785204,0.7566566535863238,-0.0036839611120008785,-0.5153935455708372,0.00567263414664682,0.8569269180252683,0.039031077165387625,-0.8442364246601165,0.8252619507984248,0.0841765325264674,-0.8522812218794423,0.9548607794856785,-0.4532645480995946,0.7486630328169045,0.9929041071604247,0.30538018771626063,0.7110107829417949,0.9968413633377984,0.0,0.0,0.0,0.0
0.002231411125837448,0.13230451692411643,0.7563458260477589,-0.004188585082197354,-0.5148496311253553,0.006388254034641618,0.8572464658985091,0.04581452493292609,-0.8277478418552379,0.8257172039305295,0.07810368120109525,-0.8540811978350445,0.9567123386353721,-0.4574733884655055,0.7460845238272398,0.9974859063046244,0.29973433673620126,0.7104956168033573,0.9938415205583561,0.0,0.0,0.0,0.0
0.0026104340638756756,0.13383606610309684,0.7558105912487446,-0.004719720305470859,-0.5141363018430303,0.007140640108212029,0.8576657849222246,0.0542129844621224,-0.8109661687491106,0.8232009301749507,0.0726474074364092,-0.85752324138157,0.9596234174286834,-0.45813286687214405,0.7411818385300074,1.0033121816623574,0.2961176790235383,0.7083847098378798,0.9933068781216609,0.0,0.0,0.0,0.0
0.0028694348234615686,0.13487145290182642,0.7550789883343946,-0.005286181937477532,-0.5131071536873485,0.007907440857448293,0.8582718552384656,0.06339217681288674,-0.7943317738775469,0.8146617536322397,0.06845492189545861,-0.8636494199745725,0.9646482403333616,-0.45256436476641676,0.7331410786444764,1.0094131749176194,0.29545401945218436,0.7041944789053197,0.995270175782401,0.0,0.0,0.0,0.0
0.002887017177595431,0.1352771860421225,0.7543035848790309,-0.0059292934624616735,-0.5117199793371607,0.008724499496487424,0.8590875329876156,0.071574371967676,-0.780712852324383,0.7979026656681901,0.06577367395170522,-0.8717954845250517,0.9709450114807524,-0.43851391641734283,0.7217841479351642,1.0141021737613694,0.29866917900072076,0.6982162441981759,0.9986597431061042,0.0,0.0,0.0,0.0
0.0029088598990323886,0.13532670786003898,0.7542907929743817,-0.005999162548777559,-0.5116896111591206,0.008734886649018968,0.8591050306195221,0.07159327859652544,-0.780692857366204,0.7979125283579281,0.0656412634075362,-0.8718428129592738,0.9709686842574425,-0.4385972106415975,0.7217179097567472,1.0141882384523406,0.2987461082282368,0.6982060954187616,0.9985338662481973,0.0,0.0,0.0,0.0
0.0029088598990323886,0.13532670786003898,0.7542907929743817,-0.005999162548777559,-0.5116896111591206,0.008734886649018968,0.8591050306195221,0.07159327859652544,-0.780692857366204,0.7979125283579281,0.0656412634075362,-0.8718428129592738,0.9709686842574425,-0.4385972106415975,0.7217179097567472,1.0141882384523406,0.2987461082282368,0.6982060954187616,0.9985338662481973,0.0,0.0,0.0,0.0
0.004704907077728911,0.13676768425461494,0.756590305548057,-0.004079397108134412,-0.5145205753889782,0.006195796778902883,0.8574459447235746,0.07342856293082015,-0.7625024338914408,0.7964836143254492,0.06749399722548347,-0.8593382011372221,0.9692061917131042,-0.36430322258691367,0.7058361040084159,1.0218130603034026,0.2684360086242904,0.716301020219368,0.9772341049370519,0.0,0.0,0.0,0.0
0.007038293949502554,0.1385959379934368,0.757851529301151,-0.00234198899198035,-0.517157985689098,0.0038514800365512434,0.8558780865445056,0.0738600115378505,-0.7532961092847992,0.8054988933258185,0.06793718229935705,-0.8525767336947184,0.9733147864605795,-0.28921274415748804,0.6881011498979508,1.0351984201557032,0.2361983423198198,0.7305869607951355,0.9625279248924613,0.0,0.0,0.0,0.0
0.009710229774013738,0.14062161721627836,0.7582323374831179,-0.0011740931426917932,-0.5192161180597142,0.0022615569178428396,0.8546391809486624,0.07229007486892229,-0.755044153565034,0.8258224557498264,0.06631507462604036,-0.8517007202856878,0.9832357751608022,-0.23397174190017367,0.6753167741332156,1.0521147556345523,0.20879411626968372,0.7415972174544934,0.9534928406127592,0.0,0.0,0.0,0.0
0.012581891787705024,0.14270843284299578,0.7579906586540527,-0.0005593167256803585,-0.5206191947028616,0.0014447021032218891,0.8537875930859954,0.06905888670894794,-0.7659728547946429,0.8549306423589995,0.06295229349366067,-0.8558675756857045,0.9980082007954034,-0.19891927231295725,0.669330138237773,1.0707491136990814,0.1879574529567973,0.7503371468095598,0.9485032037332396,0.0,0.0,0.0,0.0
0.01522193080297874,0.14464164432028148,0.7576571390130721,-0.0002185717506946682,-0.521701024474321,0.0009947270776754047,0.8531277769518905,0.06541856733178857,-0.7779524527383629,0.8828169733180634,0.05916338596280179,-0.860416592260925,1.011996266735534,-0.17457005750864799,0.6654019480389397,1.0910099343749453,0.1711938654235187,0.7580554216434638,0.9442745205837141,0.0,0.0,0.0,0.0
0.017457846722529934,0.1463177208293325,0.7574265743405035,-7.370671613694669e-06,-0.5225552042141458,0.00071692870707479,0.8526051515840227,0.061987875565889965,-0.7882374794823853,0.9062626590406694,0.055600145620703596,-0.8639953162831224,1.0235111939502677,-0.15557196445860402,0.6614329539841379,1.111852576337806,0.15722820962434111,0.764892741678304,0.939696308402436,0.0,0.0,0.0,0.0
0.019272276674635457,0.14772578752276228,0.7573462343991737,0.00014668084653892397,-0.5232306831953603,0.0005183147596777554,0.8521909187485254,0.05899219959846671,-0.796259924620838,0.9249616509161471,0.05249703270769999,-0.8663948206040157,1.032413119669838,-0.13920619741383725,0.6569297179019904,1.1326299622630958,0.14532266279912573,0.7708862667125931,0.9345641517433179,0.0,0.0,0.0,0.0
0.020710655694731125,0.14891094132534194,0.7573997607980009,0.0002780401273578509,-0.5237664947075975,0.000353679812871677,0.8518617591053104,0.056430814715198896,-0.8022350095936944,0.9395812288587144,0.04985088035085452,-0.8677351273801028,1.0389956969073204,-0.12414750949686927,0.6519698345247578,1.152972549672061,0.13485671055785883,0.776061233784701,0.9289891581979772,0.0,0.0,0.0,0.0
0.02183113817417524,0.14994367516294982,0.7575383745782701,0.00039938389798608974,-0.524194412434108,0.0002044758267949662,0.8515985067242653,0.054182175217060966,-0.8066463874045214,0.9510070463236852,0.04753362944844442,-0.8682067141036384,1.043579119639371,-0.10982830228171822,0.6467682168942558,1.172475475172818,0.12526963072038116,0.7803762005368087,0.9232517145512924,0.0,0.0,0.0,0.0
0.022677708504299714,0.15089803621486275,0.7576926157231221,0.0005110030918010551,-0.5245390020297719,6.697744929959452e-05,0.8513862635369873,0.052079935977552616,-0.8100191703749876,0.9600101829493913,0.04537214238984283,-0.8679845744940928,1.0463531893501834,-0.09613329530763987,0.6415538116314599,1.190406621739665,0.11609518929561731,0.783663530851923,0.917809218962057,0.0,0.0,0.0,0.0
0.023266884877885873,0.15183549857608125,0.7577763993664094,0.0006062563039314577,-0.524816702992701,-5.411484616055498e-05,0.8512150479078412,0.04996755848740376,-0.8128174619542309,0.9670953158504112,0.04320462311983202,-0.8672150731150698,1.0473352496617159,-0.08326163959771435,0.6366428711478241,1.2053547463831324,0.10703017268136118,0.7855899362508274,0.9133444808369074,0.0,0.0,0.0,0.0
0.023586779679119343,0.15279353978892857,0.7576930493455252,0.0006746242244887217,-0.525033876764805,-0.00014877144699855838,0.8510810484310715,0.04773523879024087,-0.8154095562264821,0.9724719638612791,0.04091833850904916,-0.8660372213426315,1.0464122887658374,-0.07166083646626926,0.6327261909927286,1.2147510975482427,0.09800411651640399,0.7856755828519385,0.9107533355924282,0.0,0.0,0.0,0.0
0.023616608521163422,0.1537860337952848,0.7573621763267926,0.0007053275560749184,-0.5251865057238428,-0.00020665519641209666,0.8509868353930327,0.045331420542427045,-0.8180636753104763,0.9761937321864395,0.03846101044530694,-0.864591070133886,1.0434788649847526,-0.061902851282179525,0.6313649724190823,1.2144972380812533,0.0891237767649453,0.7834784938552559,0.9108403632196553,0.0,0.0,0.0,0.0
0.023346630556949514,0.15484306547659527,0.7567639452174504,0.0006949115177546798,-0.5252787529422083,-0.00022352023230266368,0.850929902426849,0.0426704177294814,-0.8208614806373166,0.9783044336042018,0.03574661053543424,-0.8627900878496036,1.0383364876767345,-0.053944790354851446,0.6325595280813029,1.204621653539155,0.08024827870524882,0.7788853987215811,0.913722677207601,0.0,0.0,0.0,0.0
0.022780148912784345,0.1560125508457806,0.7559381011896226,0.000648478003988492,-0.5253222739115117,-0.00020395308937964945,0.8509030769787205,0.03963531892227675,-0.8237071051627122,0.9788571656183349,0.032658871654838814,-0.8603354179540613,1.030707538265601,-0.04713117368995349,0.6347464602289904,1.1892531421179817,0.07095154603529957,0.7721076880871361,0.9188121136264078,0.0,0.0,0.0,0.0
0.021915713051572784,0.1573196769781925,0.754941577437621,0.0005739816868640108,-0.5253178878100274,-0.00015700691571068272,0.8509058482820899,0.036177688375108576,-0.8264076773204186,0.9777778490635377,0.02915278730237252,-0.856948621632548,1.020350592487277,-0.040923161971358625,0.6372177439343176,1.1709603889760967,0.06094461247126976,0.7634084420183538,0.9253878389777634,0.0,0.0,0.0,0.0
0.020730926571684287,0.15876057921012163,0.7538236467749355,0.00048103681773086523,-0.5252580673854569,-9.270411834510756e-05,0.8509428433543708,0.032326162587971954,-0.828663404722663,0.9747328366098983,0.025262557830957363,-0.8523759244791903,1.0069600769844658,-0.03495807889033796,0.6396417046996437,1.1511110473759223,0.05018002283446058,0.7529463361019478,0.9329164739983908,0.0,0.0,0.0,0.0
0.019189108829933358,0.16030148581296863,0.7526221821195485,0.0003817571518750439,-0.525132350499783,-2.231664070004536e-05,0.8510204863703444,0.02819047764471627,-0.8300752374132436,0.9691603317602856,0.021104186688803952,-0.8464009239447734,0.9902015735347807,-0.028989222971185304,0.641802231171673,1.1303380701718,0.038856985911694765,0.7407954516255294,0.9410946753910916,0.0,0.0,0.0,0.0
0.01726051011188258,0.161873515309578,0.7513640923983559,0.0002912576377418505,-0.5249337044838417,4.181727747389323e-05,0.851143066303882,0.023975691397518893,-0.8301884232642168,0.9604010549370585,0.016887683002888836,-0.8389131662262351,0.9698803757784735,-0.022804452602126053,0.6435451378443526,1.1088847359960816,0.02744780409492246,0.7270378777194816,0.9498401790491514,0.0,0.0,0.0,0.0
0.0149587962456058,0.16336151024574366,0.7500591997293925,0.0002293511074428049,-0.524661974337758,7.937704799598507e-05,0.8513106094612939,0.020029246387907276,-0.8286217533596902,0.9479662431386385,0.012961481487862688,-0.8301232678248107,0.9463241261687754,-0.016169495634301968,0.6448945255798071,1.0868703691541644,0.016673149447350176,0.7118321497232374,0.9593392448934367,0.0,0.0,0.0,0.0
0.01237437265071736,0.16462694783270204,0.7486846341515001,0.00021730588201158534,-0.5243132246621591,5.9684051765801714e-05,0.8515254498019045,0.016788547555332923,-0.8254060838949019,0.9320304789017989,0.009756810875045527,-0.8208231457872244,0.9207630119833449,-0.008717457004757555,0.6462191040025145,1.0643918640926175,0.007256521186788293,0.6953656340546657,0.9700592457757093,0.0,0.0,0.0,0.0
0.00971235979362137,0.16559828275054383,0.7472215760874958,0.00025337053348154545,-0.5239386946452506,1.605097238851937e-05,0.8517559391041367,0.014354437270432107,-0.8211079893807866,0.9139162675228975,0.007363275792722652,-0.8118352893908057,0.8950241459184063,0.0005317626370684777,0.6481520273042668,1.0416334377756322,-8.761071676908691e-05,0.6784705189475341,0.9822507384139083,0.0,0.0,0.0,0.0
0.007576237162020071,0.16631695332228805,0.7456298560993941,0.0003105043207352491,-0.5235194682848969,-6.414385245601425e-05,0.8520136535287047,0.012688414807416051,-0.8191029456586219,0.8998046877748269,0.005726063483340278,-0.8064387673975271,0.8751786522504306,0.011156698609672543,0.6528149349305176,1.0189500989555227,-0.005758650076594345,0.6626702971181994,0.9954349750315303,0.0,0.0,0.0,0.0
0.006269746092378677,0.16666344842263633,0.744309604766251,0.00038519681227376347,-0.5231856770755225,-0.00018466132435578163,0.8522186132833747,0.012091007797572599,-0.8188287941002801,0.8912877651893444,0.005141984415638085,-0.8047871274703351,0.8639845174886095,0.02202606762428116,0.659108975612676,0.9976726812549183,-0.009134855096298937,0.6511022562034253,1.006437697498497,0.0,0.0,0.0,0.0
0.006286737146252089,0.1666643260849919,0.7442792362102344,0.0004038421392706481,-0.5231746638778976,-0.0001887914992324353,0.8522253647630685,0.012095678927762192,-0.8188714293613761,0.8912624162570348,0.005148439113328619,-0.8048158960586963,0.863881554448674,0.022032427077202633,0.6591194434635331,0.9976725092753623,-0.009126831856054065,0.6510784540793556,1.0064106064493403,0.0,0.0,0.0,0.0
0.006286737146252089,0.1666643260849919,0.7442792362102344,0.0004038421392706481,-0.5231746638778976,-0.0001887914992324353,0.8522253647630685,0.012095678927762192,-0.8188714293613761,0.8912624162570348,0.005148439113328619,-0.8048158960586963,0.863881554448674,0.022032427077202633,0.6591194434635331,0.9976725092753623,-0.009126831856054065,0.6510784540793556,1.0064106064493403,0.0,0.0,0.0,0.0
0.006286737146252089,0.1666643260849919,0.7442792362102344,0.0004038421392706481,-0.5231746638778976,-0.0001887914992324353,0.8522253647630685,0.012095678927762192,-0.8188714293613761,0.8912624162570348,0.005148439113328619,-0.8048158960586963,0.863881554448674,0.022032427077202633,0.6591194434635331,0.9976725092753623,-0.009126831856054065,0.6510784540793556,1.0064106064493403,0.0,0.0,0.0,0.0
0.0061005561792490184,0.16702545987347114,0.7442582905986286,0.0007397986853242888,-0.5230146957374017,-0.0004871295667727019,0.8523232036295876,0.011775853817424107,-0.8187383330445326,0.8907678658556939,0.004832796487351982,-0.8048095643591696,0.8621658580730256,0.01539524772075479,0.6595187592880174,0.9994051774181758,-0.015565124009736635,0.6486218745612512,1.0046956918286676,0.0,0.0,0.0,0.0
0.0063228279810940945,0.16742642725113738,0.7441867329978555,0.0010124490139827083,-0.5227989411270643,-0.0007199662647961135,0.8524551153884832,0.011229062245631392,-0.8215707268429605,0.8951495621813815,0.004284232892346441,-0.8072992267016185,0.8648991552969283,0.009334826274776317,0.660503022939899,1.0011066577329897,-0.021410554698901893,0.6472278933238892,1.002928980536424,0.0,0.0,0.0,0.0
0.007051539010093434,0.16767889031742023,0.7440799342780073,0.0011438069711282024,-0.522783639415974,-0.0008283986800219746,0.852464234921459,0.010817689743364398,-0.8260034126084236,0.9032757184862381,0.0038644975764920266,-0.8113981334869472,0.8720037460829646,0.00604490643772505,0.6627614084771684,1.0023173482538184,-0.024665713540045243,0.6482582348002379,1.0021096125287492,0.0,0.0,0.0,0.0
0.008329048392597425,0.16769858149570982,0.7439335745866105,0.0011668454189618874,-0.5229710130738058,-0.0008448583459655909,0.8523492501144708,0.010824886196539818,-0.8318871957825237,0.9150431069065313,0.003853917725055393,-0.8175610938005842,0.8841816681667205,0.005683872754553616,0.6665209356239574,1.002773766254772,-0.025275454130004135,0.6517200794863555,1.0024689072189892,0.0,0.0,0.0,0.0
0.010198290858131568,0.1674567645227591,0.7437720344333547,0.0010428212951326358,-0.5234376434383969,-0.0007405890457934649,0.8520630243610323,0.011273072408231234,-0.8388620882785766,0.9302368612397425,0.004274907693392009,-0.8253242416657088,0.9011923032351985,0.008996154688777413,0.6720838598461768,1.00216089954358,-0.022587855634920048,0.6582644984480878,1.0039661706156773,0.0,0.0,0.0,0.0
0.01270465548655311,0.16699144585827028,0.7436690363095857,0.0006071129232732126,-0.5244185940439692,-0.0003797538368347633,0.8514602899853102,0.011799307760631957,-0.8459958831704473,0.9482385603625445,0.004769326862559942,-0.8325937137200794,0.9212469508217132,0.017985372959640714,0.6799360296686103,1.0000448778199649,-0.014720848622440403,0.669746891462756,1.0062652842812878,0.0,0.0,0.0,0.0
0.015821205452796302,0.16651745585783512,0.7436995732087842,-0.00027013644401527645,-0.5259925022126963,0.00038117730379320886,0.8504890765590063,0.011544817967099478,-0.8532931727586196,0.9692178944199746,0.004486975643675636,-0.8375047695106801,0.9422314489039989,0.03358077858246951,0.6899731661079161,0.9962365408791133,-0.0005712227354221326,0.6875304596993963,1.008039216999453,0.0,0.0,0.0,0.0
0.01824794111704792,0.1664284139913377,0.7434168271067046,0.000183351438382112,-0.5254532277019905,0.00014568517935786311,0.8508224554251249,0.012218300483849802,-0.8675034047980097,0.9934181992298498,0.012126791942336693,-0.8432510815406679,0.9236843071168879,0.03043929540229965,0.6959900289643514,0.9943938904041153,-0.0039189540050651745,0.6914016257369447,1.0062850642659926,0.0,0.0,0.0,0.0
0.020446857574933985,0.16624721606068324,0.7431113680673139,0.000368896756853028,-0.5253752189308206,0.0001055632298849582,0.8508705730632478,0.012762097080763314,-0.8782246876693773,1.0127507452331073,0.023175484528155096,-0.8545279453002903,0.9099508449669648,0.030978137668015486,0.7014563911511182,0.9933319308749992,-0.003779727761293274,0.6966265453321232,1.0064740815486473,0.0,0.0,0.0,0.0
0.022315704062177408,0.1660430711330119,0.7428247681635137,0.00033322546397362773,-0.5257150510887403,0.00023531539542985457,0.8506606365914776,0.013022104718583886,-0.8853827653573276,1.0270684416664198,0.03435675925312848,-0.8684605696317482,0.901500266541162,0.03447638721033313,0.7062612189072698,0.9929362071671306,-0.0008192187597928255,0.702933041912035,1.0079260609382081,0.0,0.0,0.0,0.0
0.023737054421152204,0.16592729467968323,0.7425871790114007,0.00030725208504751335,-0.5260603672495238,0.00034976778477150956,0.8504471019810398,0.01307121725697441,-0.8904400504803207,1.0375565322588922,0.04470963262007667,-0.8838189503394438,0.8955356797388098,0.03708437994990642,0.7100573722682902,0.992996215768067,0.0013358470292980343,0.7079891214138476,1.0091424960811308,0.0,0.0,0.0,0.0
0.024696820303573366,0.16593982554981507,0.7424274161488283,0.0003356504207881733,-0.5262967837201638,0.00041152047016562563,0.850300778216455,0.012879157475722458,-0.8939119227942145,1.0447902634994144,0.05422959020765642,-0.8996809975713733,0.8903782026895618,0.03774471023886562,0.7128560938299625,0.9933332210069651,0.0016593621676100029,0.7112504526685332,1.0095677738202822,0.0,0.0,0.0,0.0
0.025244050973801176,0.16608771475655007,0.7423523571379631,0.00040961693274776007,-0.5264094997015917,0.0004303128342885647,0.8502309601918486,0.01240649518854024,-0.8961508620904498,1.049359395316732,0.06321855375698097,-0.915654356993359,0.8851262573086883,0.036451307342536925,0.7147720498934883,0.9938535697621409,0.0001346519754448338,0.7128320571338678,1.00908935514554,0.0,0.0,0.0,0.0
