zhuoxili-jackie/tripod-support-walk/examples/trajectory_trot_sideways_p3_left_v0.05.csv
root_pos_x,root_pos_y,root_pos_z,root_rot_x,root_rot_y,root_rot_z,root_rot_w,FL_hip_joint,FL_thigh_joint,FL_calf_joint,FR_hip_joint,FR_thigh_joint,FR_calf_joint,RL_hip_joint,RL_thigh_joint,RL_calf_joint,RR_hip_joint,RR_thigh_joint,RR_calf_joint,FL_foot_joint,FR_foot_joint,RL_foot_joint,RR_foot_joint
0.0,0.0,0.664888,0.0038739181747107386,-0.3883128170371229,0.008248016113749812,0.9214825658214358,4.59e-06,-0.523609,-0.523606,1.78e-06,-0.523593,-0.523596,2.47e-06,-1.36e-05,1.04719,-8.76624e-06,-1.88e-06,1.04721,0.0,0.0,0.0,0.0
0.00041514566314450476,0.00022725819740187234,0.6643666126600593,0.003765538603468481,-0.38860259323274887,0.008206414405490848,0.9213612212451823,-0.0004964783872794012,-0.5206784976945336,-0.5299261392821307,-0.0004992736088325097,-0.5218052570380365,-0.5270725726549003,-0.00039957959740188605,-0.0023631348417351,1.0545017983555123,-0.00041086084645042443,-0.0017290637042714253,1.0528921581831205,0.0,0.0,0.0,0.0
0.0012863736663835538,0.0006940848069610678,0.6635598788187965,0.0037286936485584304,-0.3887610947573209,0.008128767953434058,0.9212951922040643,-0.0016277141407552423,-0.5137748563046908,-0.5456483968682391,-0.001629119218716838,-0.5170851736025943,-0.5377428030236354,-0.001783433981263531,-0.0058530234470709295,1.0653209196441753,-0.0017935605604234948,-0.004161368558031606,1.0604789837745474,0.0,0.0,0.0,0.0
0.0027026819017000013,0.0014577387063650295,0.6626984539071488,0.0037393398377843115,-0.3888870522653835,0.008022738125911793,0.9212429177968651,-0.003611292195550275,-0.5018804810749788,-0.5713006822023196,-0.003607146841948005,-0.5084502170655326,-0.5557760917578664,-0.004247875491057852,-0.009087717439947723,1.078345536419058,-0.004251516713162001,-0.005767782301223445,1.0683493944699003,0.0,0.0,0.0,0.0
0.004812446864331316,0.0027546798748540194,0.662346216961666,0.0037503068940775344,-0.3892589941606105,0.007943811593169451,0.9210864598508883,-0.0074623804583494845,-0.48260308265393037,-0.6079601235290848,-0.007438543654110102,-0.4940969923086541,-0.5800255263825799,-0.008279077479915659,-0.00896915632586573,1.0908677122903316,-0.008260865965851353,-0.0028109521975193466,1.0724233224295543,0.0,0.0,0.0,0.0
0.007969547293483823,0.005174622453670525,0.6639912818750784,0.0037305716458928655,-0.3905545442492214,0.008009896726401743,0.9205373823783096,-0.015620108101109866,-0.4491980952822039,-0.6591686010660753,-0.015519155720259043,-0.46879549315710317,-0.608828672018373,-0.015376025789462466,0.0025523143362176006,1.0955644566395193,-0.015289603545802555,0.014293411955054229,1.061804606907593,0.0,0.0,0.0,0.0
0.011003573886299906,0.007726049178626647,0.6648965261122631,0.0034258100342802913,-0.3901463698457799,0.008042974841882522,0.9207113469907178,-0.018468999993618642,-0.4819021922185507,-0.6166153679089189,-0.023796514028060215,-0.4478345787830845,-0.641551752287257,-0.02226252602510553,0.008933660031932814,1.099189453656922,-0.02028697214423874,0.0070454034897246345,1.0708663136087369,0.0,0.0,0.0,0.0
0.014576662182974962,0.010338414894754414,0.6659068287003075,0.0032615125672943797,-0.38962757476702387,0.007967801356433858,0.9209322611671745,-0.0203611806288532,-0.5065250772090222,-0.5948878172726305,-0.03199263318291627,-0.4239061203243799,-0.6800485348268757,-0.030037097768593528,0.016886723101633267,1.1023555231649225,-0.025863213154043573,8.815831847350849e-05,1.0809665576416645,0.0,0.0,0.0,0.0
0.01794170866949945,0.013061806075149429,0.6670066702464491,0.0030772763263363745,-0.38938419059005475,0.007922414506729534,0.921036219612086,-0.023229495750221044,-0.5247524397775357,-0.585208011769657,-0.04076405275650352,-0.4027969537613865,-0.7109003728808383,-0.038151322881353304,0.025285470348274913,1.105412561328927,-0.03215389584832161,-0.005955999847961714,1.0915668964613043,0.0,0.0,0.0,0.0
0.020884888521440954,0.015832631489401672,0.6682149006403584,0.002871854705627817,-0.38933868725714477,0.007898178342795827,0.9210563271778216,-0.026937641917248865,-0.5386228861690464,-0.5822547224022816,-0.04977993881390412,-0.3850227377248054,-0.7336948024472738,-0.04641450328937894,0.03385766387508598,1.107425115976142,-0.039114083894480164,-0.011510692413056323,1.1021362106673467,0.0,0.0,0.0,0.0
0.02332208919713239,0.018596030978735686,0.6695033881524491,0.0026589616326214167,-0.3894005274674296,0.007876905086500744,0.9210310057198846,-0.03124309062667392,-0.5496892671727747,-0.583010715020689,-0.05872372232324103,-0.3706640351337774,-0.7491469962972582,-0.05470014697124053,0.042242120831521394,1.1081002728246068,-0.046534454728577715,-0.01695013835315174,1.1123847707941796,0.0,0.0,0.0,0.0
0.025254603614106107,0.02129999811427201,0.6708385895171705,0.002449949507100344,-0.3895100128368486,0.007848292361477462,0.9209855329777225,-0.03588774599321737,-0.5590387664095624,-0.5857426044844165,-0.06734700757846741,-0.35949349915124285,-0.7583591138160615,-0.0628596500105349,0.05020387605379238,1.1074450314136994,-0.05415028657022245,-0.0224728491191415,1.1222160340748737,0.0,0.0,0.0,0.0
0.0267335987881206,0.0238967674209456,0.6721940002429646,0.0022525089651025455,-0.38963250616265216,0.00780804150077012,0.9209345638169387,-0.04062570200046653,-0.5674085938304182,-0.5894541808604867,-0.07546299204635726,-0.3510905838212466,-0.7625726505863828,-0.07073723878395738,0.057657968708470085,1.1055638502276772,-0.06172937433159551,-0.028173280646588892,1.1316546401117622,0.0,0.0,0.0,0.0
0.027834196226454843,0.026345787590798662,0.6735505573468854,0.002071169411707538,-0.38974995144392227,0.007755557962501229,0.920885735000504,-0.04524556935584553,-0.5752881525993919,-0.593581556255338,-0.08294146745765557,-0.3449421927739721,-0.7630253029781389,-0.07819138395078751,0.06462409531419479,1.1025905877367805,-0.06910430109622863,-0.03409414126425411,1.140787361759719,0.0,0.0,0.0,0.0
0.028637772756482112,0.02861550407305743,0.6748935966119131,0.0019080885832039182,-0.38985429992568316,0.007692304026409844,0.9208424471570473,-0.04958042106237692,-0.582998255329881,-0.597817911261181,-0.08970230900338273,-0.34052054962920825,-0.7608618801144565,-0.08510856023625586,0.07117095715867379,1.0986753213808633,-0.07617312355078966,-0.04025225337687202,1.1497240513994873,0.0,0.0,0.0,0.0
0.029220816075161672,0.030683410216584984,0.6762094973874759,0.0017637994280678053,-0.38994296601809203,0.007620685789607158,0.9208057870217187,-0.053507677052695726,-0.5907466279641579,-0.6020099392112818,-0.09570607155823031,-0.3373378655927987,-0.7570826610030814,-0.09140769819521447,0.07737078930449862,1.0939879974128643,-0.08288806819210753,-0.04664712072834152,1.158574112988716,0.0,0.0,0.0,0.0
0.029648664188988236,0.032534733477879794,0.6774825846041159,0.0016377952585839692,-0.39001587560980555,0.007543468446280113,0.9207757764422387,-0.056944879372413174,-0.5986591669172396,-0.6060929926105422,-0.10094343773462429,-0.33498179089360464,-0.7525182439855767,-0.09703715243409666,0.08326631136668565,1.0887276985789418,-0.08924038279543621,-0.05325826641602843,1.1674312666935305,0.0,0.0,0.0,0.0
0.029972630559375518,0.03416021164667313,0.6786921254936513,0.001529173544935106,-0.3900732159895494,0.00746326420126418,0.9207523268954045,-0.05984161474123948,-0.606784057284444,-0.6100460420100783,-0.10542372167690717,-0.33313685650445896,-0.7478262519172655,-0.10196824970752107,0.08884671950356522,1.083134522874002,-0.0952406625000777,-0.06003494138930745,1.1763581941824226,0.0,0.0,0.0,0.0
0.030229046423024427,0.03555351642842017,0.6798093356964232,0.001437215336276058,-0.39011399611868425,0.007382368672548325,0.9207358497838406,-0.062171077288138164,-0.6150641472880244,-0.6138513641646681,-0.1091650474286958,-0.3315969831389047,-0.7434980728676723,-0.10618697346928387,0.0940290062420219,1.0775049822579195,-0.10088578926487486,-0.06687717585238268,1.1853602732486908,0.0,0.0,0.0,0.0
0.030439010365643022,0.036708734297365916,0.6807949326417064,0.0013620193365348466,-0.3901354701853282,0.007302852298613796,0.9207274994019156,-0.06391881080538278,-0.6232746533315523,-0.6174495358621174,-0.11218646142179403,-0.33027319510019104,-0.7398656418278428,-0.10968593540831864,0.0986447599521876,1.0722065250007249,-0.10610229067216118,-0.07360626071083087,1.1943327825591603,0.0,0.0,0.0,0.0
0.030608086347096282,0.0376184556000258,0.681598623318027,0.0013050202806238432,-0.39013521891625164,0.007227173737002683,0.920728285566926,-0.0650675704154989,-0.6309326999784121,-0.6206805111627226,-0.11450293082670862,-0.32919721688572545,-0.737090531227144,-0.11245763043978912,0.10243925604684398,1.0676861103258655,-0.11066336114436466,-0.07991528635055883,1.2029628115255104,0.0,0.0,0.0,0.0
0.03076923921370108,0.03825459788663039,0.6821689515347642,0.001271055118805515,-0.39010364869592934,0.007159749723925937,0.9207422362838031,-0.06543740167440974,-0.6371988383649071,-0.6232363709248052,-0.11608177976067297,-0.32818294607079507,-0.7357995801916764,-0.11443767990376141,0.10521067994580018,1.0643531543533005,-0.11404479218338615,-0.08520308766137717,1.210611035385308,0.0,0.0,0.0,0.0
0.030864499402802822,0.03861751841076887,0.6824627381205772,0.0012609805047652937,-0.390059575318675,0.0071125307966050065,0.9207612880307516,-0.0649836446992713,-0.6408973589544197,-0.6246213129829408,-0.11697025171482954,-0.32767534776586177,-0.7352385553855719,-0.11561307627427853,0.10662698074804867,1.0626151509747828,-0.11551242833767372,-0.08859797873384198,1.215860228750111,0.0,0.0,0.0,0.0
0.030865809487603247,0.038699128789674186,0.6824733127202463,0.0012733693527437315,-0.39003274819086475,0.007105703520755583,0.9207726879347845,-0.06357481083017477,-0.6408196904031082,-0.6243085958437926,-0.11720655903221244,-0.32782900927394065,-0.7349581427674198,-0.11591619566636688,0.1066152638518891,1.0625976104937505,-0.11431859903812902,-0.08858171843468113,1.2163612050496593,0.0,0.0,0.0,0.0
0.030758167182078362,0.03850081140556636,0.6822058394847577,0.001308257938009535,-0.3900240612358924,0.007139139074637951,0.920776060077314,-0.061230074244638076,-0.6369694817386019,-0.6222594715461139,-0.116788640281383,-0.32873692249361397,-0.7347663579736571,-0.11534815709004599,0.10517345198885508,1.0642460263141624,-0.1104630061425438,-0.08515710243456238,1.2120746616186264,0.0,0.0,0.0,0.0
0.030535354399838077,0.03803579529948963,0.6816773176276353,0.0013660574234143662,-0.3900074096434,0.007193318054462843,0.920782607614701,-0.05813172983031574,-0.6305476047956152,-0.6189471105903638,-0.1156842023623965,-0.3304594910362492,-0.7346572292153825,-0.11398078143139943,0.10236085397579077,1.0673332052848186,-0.10469368096600372,-0.07985735851428602,1.2052664325013864,0.0,0.0,0.0,0.0
0.030191276901239877,0.037323094812611,0.6809371489206845,0.0014427590148958097,-0.3899764783520227,0.007257668883362912,0.9207950863362373,-0.054465426067087576,-0.6227251622406905,-0.6148203960739778,-0.1138918518073272,-0.3329898830505914,-0.7344680832327203,-0.11186874663494684,0.0984150294342876,1.0714206247709346,-0.09778092389840971,-0.07363113471541831,1.1972401631565397,0.0,0.0,0.0,0.0
0.02971040600539154,0.036380395795989826,0.6800437057635323,0.0015344723072672592,-0.3899352139129963,0.007327227142217046,0.920811862482109,-0.050345422589109984,-0.614338841453685,-0.6101620904888083,-0.11141794958112913,-0.3363571655863002,-0.7338676260665233,-0.10905039778106684,0.09360988054028514,1.0760099030617287,-0.09022665435675085,-0.06704082565602153,1.1886416190695348,0.0,0.0,0.0,0.0
0.029066664173034946,0.0352227915776829,0.6790501399682549,0.001638850660950174,-0.3898898863993967,0.0073995837540626564,0.9208302975099393,-0.0458386154280672,-0.605883940140708,-0.6051104401040716,-0.10827044715011493,-0.3406640786245967,-0.7323981752732626,-0.10555698169458241,0.08817455399591012,1.0806397636908212,-0.0822789384373906,-0.06042485484305053,1.1797421170880535,0.0,0.0,0.0,0.0
0.028225945267326705,0.03386406700474635,0.6779995272798921,0.0017549568660462516,-0.3898454741364237,0.007473207499293568,0.9208482923866547,-0.040996438174297246,-0.5976008052051095,-0.599720291076432,-0.10446129519668759,-0.3460863723659444,-0.7295155753621084,-0.10142191815307568,0.08227056182698021,1.084922077694564,-0.0740311855154467,-0.05398537620863376,1.1706158535531503,0.0,0.0,0.0,0.0
0.02714969343527827,0.03231904599029118,0.6769255160778688,0.0018826775642459474,-0.389804666284628,0.007546736699301396,0.9208647155978505,-0.03587124797397345,-0.5895644230455133,-0.5940214995812162,-0.10001296135714205,-0.3528574847522738,-0.7246145971596405,-0.09668939080490496,0.07600167126793499,1.0885400333858404,-0.06551312140250748,-0.04783625847937451,1.1612439425497567,0.0,0.0,0.0,0.0
0.025799090921744306,0.03060633271980657,0.6758553231705573,0.0020221376037593696,-0.38976808378010336,0.007618789081165462,0.9208793112448745,-0.03051749844184539,-0.581743255297094,-0.5880634391454165,-0.09496698710450757,-0.3612473600185819,-0.7170474115084946,-0.09142258349448473,0.06943787079783878,1.0912315235275043,-0.056750133872483684,-0.0420298909779849,1.1515754230315718,0.0,0.0,0.0,0.0
0.02414053731350376,0.028750998189486694,0.6748131430218344,0.002173252711633346,-0.3897349652884224,0.007687974711440597,0.920892408943151,-0.024980936247547002,-0.5740184949691642,-0.5819469437461804,-0.08939298207733755,-0.37153424367929183,-0.7061511765511007,-0.08571131218454799,0.06264373136500186,1.0927733909210773,-0.04779294808109388,-0.03656884948347114,1.1415698467561717,0.0,0.0,0.0,0.0
0.022153589584420166,0.026786799669287216,0.673822808972423,0.002335437843074155,-0.3897040396415626,0.007752927300323029,0.9209045549542061,-0.019278654625942613,-0.5661649269471817,-0.5758503684490432,-0.08339632640729394,-0.3839625400257976,-0.6913052937481148,-0.07967807089083441,0.05570668984272585,1.092977270123616,-0.03872243169540668,-0.0314018696455548,1.1312408616062513,0.0,0.0,0.0,0.0
0.019842718309977723,0.024757735202271956,0.6729083153042185,0.002507528881528646,-0.3896744876168051,0.007812087745762669,0.9209161076257387,-0.013377847631658241,-0.5578010650493357,-0.5700631264881815,-0.0771227582814444,-0.3986765895020302,-0.6720450687059996,-0.07348237456047686,0.04875951137541157,1.0917115615832567,-0.02963003227998483,-0.02640141331089324,1.120714543397995,0.0,0.0,0.0,0.0
0.017254114038215362,0.022719931701333844,0.6720882995363247,0.002688022994986124,-0.38964682354538055,0.007862675759511543,0.9209268731898719,-0.0072024062157827464,-0.548331255556789,-0.5650574512578939,-0.07076062737740071,-0.4156221249293869,-0.6482648257771525,-0.06732802216054312,0.04197607437070827,1.088989758984045,-0.02057651153490222,-0.021324141865218055,1.1103050346383758,0.0,0.0,0.0,0.0
0.01449782646914325,0.02074929040959177,0.6713513438028293,0.0028757507600204162,-0.38962683066048853,0.007897250665942806,0.9209344690687543,-0.0007526966104198099,-0.536945548099886,-0.5616479132359434,-0.06455139298408671,-0.43443173291988596,-0.6205140282471986,-0.06149546376423494,0.03546793210212536,1.0852715770182433,-0.01156738441553825,-0.015783206919213384,1.1006134629888413,0.0,0.0,0.0,0.0
0.012044356656120872,0.0188597232796105,0.6706182045942964,0.0030726984494202003,-0.38950487524874194,0.007914667256940245,0.920985270633528,0.006223463050162742,-0.5230424258406177,-0.5611810361944197,-0.05862842881736388,-0.4519221988121409,-0.5954808177702641,-0.056067262224389194,0.029521592899719874,1.0815375221108996,-0.002161538044065412,-0.009102753404450324,1.0931209188626523,0.0,0.0,0.0,0.0
0.010114158006373285,0.017230224208853027,0.6700419040204799,0.0032528629861082402,-0.3893819705416944,0.007919891147182168,0.9210365764852542,0.013271743278824664,-0.5062826197927778,-0.5660950525120745,-0.0535149022762907,-0.46600925507087837,-0.5755108535566867,-0.05150263549905196,0.02512559588520811,1.0778499995095583,0.006935583213244837,-0.002173165258548853,1.0888931201010936,0.0,0.0,0.0,0.0
0.009013861276261447,0.016132450979351655,0.669762334761216,0.0033741805694809377,-0.38933881847235086,0.007889449477671208,0.9210546432883218,0.018791578889577512,-0.4878605469578721,-0.5803305345761248,-0.04993260815858887,-0.4739826217813043,-0.5641956441995971,-0.048540995428483016,0.023190219244180337,1.0748308515683203,0.013974054034714202,0.0024634749740923556,1.0893357178808536,0.0,0.0,0.0,0.0
0.009018660544443672,0.01602197685229823,0.6697144484424057,0.003475334009227551,-0.38935893660438264,0.007939407072766504,0.9210453334962191,0.018807796201736903,-0.48785914558111865,-0.580342270910885,-0.049843860019844644,-0.47410628824313306,-0.5641739418119073,-0.04844563449311691,0.023179207821061608,1.0747897419514962,0.013966203717251494,0.0024927042564637436,1.089346542378322,0.0,0.0,0.0,0.0
0.009018660544443672,0.01602197685229823,0.6697144484424057,0.003475334009227551,-0.38935893660438264,0.007939407072766504,0.9210453334962191,0.018807796201736903,-0.48785914558111865,-0.580342270910885,-0.049843860019844644,-0.47410628824313306,-0.5641739418119073,-0.04844563449311691,0.023179207821061608,1.0747897419514962,0.013966203717251494,0.0024927042564637436,1.089346542378322,0.0,0.0,0.0,0.0
0.008760433745433959,0.01547857444121556,0.6692431389238698,0.003607666941201908,-0.38916657003384736,0.007986558120714627,0.9211257136768664,0.02034372515584597,-0.4924735863590844,-0.573986754645228,-0.048449557519515796,-0.4763000762459239,-0.5640096813039877,-0.04710399963384477,0.020797238942381238,1.0758284937610123,0.015310142300271846,-0.0011417045664383276,1.0938422484556105,0.0,0.0,0.0,0.0
0.008887496163752177,0.014685370268993922,0.6685854375379187,0.0036939032259321034,-0.3890096274548896,0.008023159604637831,0.9211913448010266,0.022808093520999956,-0.49500440525082356,-0.5716846384732815,-0.04621512969054319,-0.4750395307144199,-0.5711061525705676,-0.0449086167424159,0.01830258795647603,1.078518842429991,0.017584186815375984,-0.005377650739095878,1.1014333671367897,0.0,0.0,0.0,0.0
0.009575114188698493,0.01373801240212813,0.6680088426472589,0.0037389684869263296,-0.3889735338031669,0.008072408022934286,0.921205973897283,0.02579617152562442,-0.4930606527647587,-0.5764453271179732,-0.04349681283297967,-0.4685916040993845,-0.5868800717979245,-0.04210914159827077,0.017332762414594746,1.0814515820898472,0.020554629819513136,-0.008353753822016441,1.11024359378741,0.0,0.0,0.0,0.0
0.010976608998365216,0.012473846542509829,0.6678744417335392,0.003759424489955726,-0.3892162103561378,0.00813494433815705,0.9211028341092683,0.029817049176961687,-0.48491586575631485,-0.5887986697530322,-0.03971759205271838,-0.45487769079027435,-0.613066758092347,-0.03822753116491379,0.020317826916142107,1.0819352210345277,0.024713916224496892,-0.008011988845267756,1.1186658463940908,0.0,0.0,0.0,0.0
0.013416420746334775,0.010448170805886475,0.6693611642836574,0.0037807733860769875,-0.3903021273271324,0.008232898761601382,0.9206422619750297,0.036101951357295596,-0.4662542527823629,-0.6079801887093876,-0.033357496973936356,-0.42825862840750417,-0.6526444117062472,-0.03185694575818371,0.03481023418293334,1.071342608404058,0.031495524654134945,0.0021920222645062954,1.1211561240304164,0.0,0.0,0.0,0.0
0.0157453001315843,0.008262855897522436,0.6701356799176031,0.004128152933701228,-0.3899066498478341,0.00818289890081076,0.9208087765238631,0.043604988387885874,-0.45116527772602044,-0.6304341938903993,-0.023618986030687017,-0.4632075728997966,-0.6109829853506492,-0.020772987126124107,0.025120168664182457,1.0778055858776239,0.0374544722585595,0.007172857798131707,1.1233759087566664,0.0,0.0,0.0,0.0
0.01863724913938957,0.006137741902038548,0.6710632601711677,0.004384325299978618,-0.3895327724141728,0.008225674957210799,0.9209654364733187,0.05069872133619711,-0.4319764137787431,-0.6599360341523692,-0.013783294249385417,-0.49009846441318194,-0.5899093379280508,-0.008357360170102579,0.0157550471495896,1.0857156851431546,0.04379664447938395,0.014151414889663986,1.1250471283522891,0.0,0.0,0.0,0.0
0.021460314167709018,0.004061665373312661,0.6720577930243561,0.004614783822223493,-0.3893405578494379,0.008285588532462805,0.9210450492817566,0.05758645301918509,-0.4139642968048176,-0.6859847525577262,-0.004727414469550283,-0.5100893772399004,-0.5809845842887074,0.003541668212939905,0.007888143388670577,1.0946755557750618,0.050178550840022276,0.02175383429634597,1.1263456633052726,0.0,0.0,0.0,0.0
0.024005329721296216,0.002074313475263337,0.6731143652911594,0.004831140311119432,-0.38929215405190265,0.008346155188201363,0.9210638526022495,0.06412804191765009,-0.3981416281482267,-0.7070205885356361,0.0032848070281719655,-0.5252183037728375,-0.5787312801042858,0.014653458372053901,0.001142720505921002,1.1041458261681134,0.05636555552265843,0.02957089098159537,1.1267395118046315,0.0,0.0,0.0,0.0
0.0261682921542387,0.00019684344221213707,0.6742017658743769,0.005034198992582528,-0.3893241654930734,0.008407671327468728,0.921048675188491,0.07021316659725789,-0.3849256550176208,-0.7228592435007292,0.010553799594430162,-0.5372244303844435,-0.580135304872784,0.025114779323940822,-0.005069691170982024,1.1136930236873623,0.0622420677981369,0.03717595496346583,1.1261004634342937,0.0,0.0,0.0,0.0
0.02792352825000819,-0.0015497572257043549,0.6752970586612506,0.005223174259558318,-0.3893942686581253,0.008473093747625348,0.9210173878213168,0.0757458081080872,-0.3742904942339783,-0.7339774446084399,0.017386416022955396,-0.547355703030519,-0.5834947932153116,0.03508510674454394,-0.01115901522950766,1.1230788413059276,0.06771273306800873,0.04433501302882448,1.124444993173177,0.0,0.0,0.0,0.0
0.029294582872099365,-0.003143767403263255,0.6763882344520057,0.005396903204852444,-0.38947802621800826,0.0085446973568587,0.9209803085170722,0.08064741425177409,-0.36595331257100183,-0.7411617903781517,0.02394203192456107,-0.5564482211088734,-0.5878275676901955,0.04465926466722496,-0.017358700023164274,1.1322182329276296,0.07269236326146397,0.050984060327048816,1.1218229158110504,0.0,0.0,0.0,0.0
0.030330867422735906,-0.004565966788608031,0.6774689766768557,0.005554459417321824,-0.38956282615647086,0.008623290961107583,0.9209427730920986,0.08486489536050722,-0.3595180872213766,-0.7452913328855489,0.030253208866387105,-0.5650394562780904,-0.5925634149456226,0.053876381766472387,-0.023784792557152722,1.141118416125109,0.07711233086474083,0.05715758917009269,1.1183033129183304,0.0,0.0,0.0,0.0
0.031091236131473018,-0.005801845609878713,0.6785337287714265,0.005695444342612946,-0.38964309090117055,0.00870846077013741,0.9209071540267983,0.08837221569275412,-0.3545693762615305,-0.7472122870944494,0.03628402879312824,-0.5734676790314915,-0.5973779563215531,0.06274897913393705,-0.030486285837565383,1.149831772887516,0.08092528189499996,0.06292632600214285,1.1139821957805598,0.0,0.0,0.0,0.0
0.0316335742809919,-0.0068418794386713964,0.6795744469285147,0.005820033920622276,-0.3897169532951671,0.008799066944302757,0.9208742584850578,0.09116570057450367,-0.3507275856836142,-0.747673778543388,0.04197648259054515,-0.5819442160326899,-0.6020983637250978,0.07128663437867763,-0.03747417066814919,1.1584256905439931,0.08410426479091408,0.06835488218404356,1.1089893198620064,0.0,0.0,0.0,0.0
0.032008888383022835,-0.007680352343997633,0.6805783448673505,0.005928815640330295,-0.3897839214760472,0.008893675248748442,0.920844311620823,0.09325612215976391,-0.3476790368244486,-0.747302499162323,0.04727615074277243,-0.5905955059394304,-0.6066456348022206,0.07950759795217674,-0.044731362818117196,1.1669630188972666,0.08663763154378491,0.07347454272632481,1.1034932153975932,0.0,0.0,0.0,0.0
0.03225835121634908,-0.00831344393288139,0.6815258034699826,0.006022499621803294,-0.38984323067386417,0.008990778447976515,0.920817653446636,0.0946604417205064,-0.3451915808163636,-0.7465993333827626,0.052142768648310196,-0.5994729431384413,-0.610992874977413,0.08743521751780708,-0.052207547127336794,1.1754842819297338,0.08852190347926522,0.07826418124198731,1.0977085462818703,0.0,0.0,0.0,0.0
0.03241194882047683,-0.008737101547758202,0.6823881920190247,0.0061015244902526584,-0.38989275755722036,0.009088759713729076,0.9207952016872087,0.09539473629340911,-0.3431232142385672,-0.7459450057192787,0.05655145114771339,-0.6085267548118658,-0.6151256584698307,0.09507311193526335,-0.05980117845482921,1.1839805232301213,0.08975430019412688,0.082635132282975,1.0919067944337038,0.0,0.0,0.0,0.0
0.03248764256321554,-0.00894499107245708,0.6831262607371917,0.006165574456538686,-0.3899287311051152,0.00918550956295586,0.9207785818341152,0.09546884422240445,-0.3414275948605615,-0.745603213337523,0.06048553966369181,-0.6175404413619443,-0.6189936378441852,0.10234957499376818,-0.0673273810762184,1.1923415180322632,0.09032552850012275,0.08642120559649073,1.0864247993171328,0.0,0.0,0.0,0.0
0.032490430526887666,-0.008926711962587944,0.6836909295326034,0.0062130720467289905,-0.38994686828988984,0.009277542668754997,0.9207696589531384,0.09488282129850197,-0.34015533121493663,-0.7457119420380395,0.06391577377502551,-0.6260312087650782,-0.6224476550860023,0.10902611742745226,-0.07446469979479513,1.2002579072035968,0.09021259291546825,0.08938239740790285,1.081656942387787,0.0,0.0,0.0,0.0
0.03241169981439014,-0.008666683856344363,0.6840295232158567,0.0062409030428799755,-0.3899459793923228,0.00935847351496088,0.9207690281815746,0.0936258252046797,-0.33944165899088163,-0.7462604689241188,0.06675902960218252,-0.6331502197620151,-0.6251693111490773,0.11459236095460341,-0.08066334317821426,1.207048644503755,0.08937162562497919,0.09123951133216496,1.0780087969383756,0.0,0.0,0.0,0.0
0.03223121266410528,-0.008145142725605414,0.6841008215827509,0.006245144019239879,-0.3899351492729785,0.009417035365741207,0.9207729888428304,0.09168058881737451,-0.33946002879927256,-0.747065587918708,0.06883109917218304,-0.6376832018675427,-0.6266296215797422,0.11824472474398254,-0.08498528582086408,1.2113808298515312,0.08773375849935497,0.09176143214738755,1.0757928481700534,0.0,0.0,0.0,0.0
0.03192637444503458,-0.007345176367473481,0.6838976131415662,0.006224394818736721,-0.3899416234014192,0.00943607948437016,0.9207701926388424,0.08904296679231612,-0.3403231599944542,-0.747794123121849,0.0698922696775895,-0.6383864378687053,-0.6261993223128768,0.11918824415920147,-0.08592201860057191,1.210963907194143,0.08521563603355127,0.09090043797008052,1.075085051665382,0.0,0.0,0.0,0.0
0.031480296407238706,-0.006261364247524099,0.6834221938676536,0.006178635409792109,-0.3899664246616449,0.009414500378305875,0.9207602181261489,0.08568825640785326,-0.34213774962068605,-0.7482445629669792,0.0699276063020056,-0.6352665111261007,-0.6238494511973711,0.11739685311448769,-0.08347547617250595,1.205798730968716,0.08179245177559746,0.08864816602439674,1.0758115042093996,0.0,0.0,0.0,0.0
0.030882815001743953,-0.004899462814196466,0.6826858329371077,0.006109640269775407,-0.3899853713985348,0.009367320693085721,0.9207531350443253,0.0815687703619419,-0.3449978169308722,-0.7483556058939133,0.06916114822737197,-0.6295704802885769,-0.6201706096511814,0.1136182238380637,-0.07916174860230986,1.198160937865332,0.07749775719056956,0.08503629735963149,1.0777591828490032,0.0,0.0,0.0,0.0
0.03012282122335651,-0.0032683499116523025,0.6817323993894511,0.006021772804094448,-0.3899926438283027,0.009304285997284023,0.9207512727518693,0.07665025585982609,-0.34892990392913464,-0.7479307427398937,0.06777322485134957,-0.6225159726604875,-0.615659270029188,0.1086168028823907,-0.07394002828304082,1.1893547496158097,0.07235656507752293,0.08027725888396127,1.0804954086088296,0.0,0.0,0.0,0.0
0.029179534920829774,-0.001374232006733568,0.6806160029021464,0.005918287355704726,-0.3899918504064206,0.009230807007832296,0.9207530193778001,0.07090054925331682,-0.3539898256510856,-0.7466191602744002,0.06584572505126288,-0.6149638346638306,-0.6106002849436517,0.1028719350758095,-0.06838924809552667,1.180023919321569,0.06638116482602374,0.07463032845546876,1.0835073032211713,0.0,0.0,0.0,0.0
0.02802220154083592,0.0007789964776702052,0.6793870885728797,0.005800631365114818,-0.3899887529275886,0.009149699891060365,0.9207558896133404,0.06429221165929203,-0.36030035577192254,-0.7439456408425976,0.06340918035170878,-0.6074186966134869,-0.6051153643786764,0.09660157634339475,-0.06285841589303669,1.1704340268023345,0.059580486015060476,0.06832372074381997,1.0862989796216254,0.0,0.0,0.0,0.0
0.026613313476518335,0.0031871075880011853,0.6780878135996011,0.0056688927383461915,-0.38998785636299194,0.009062577602701202,0.9207579514898118,0.056810123933659515,-0.3680517120760055,-0.7393426595690218,0.06048637221908779,-0.6001292305027086,-0.599240730456972,0.08987330080135503,-0.05755130855300665,1.1606462444900651,0.05197264754906435,0.06153386366017513,1.088429432698854,0.0,0.0,0.0,0.0
0.024912866411059754,0.0058419872462443035,0.6767530147316734,0.005522465786355535,-0.3899912106241525,0.008970778458343943,0.9207583196156295,0.0484617517951999,-0.3774867922786476,-0.7321730229840595,0.05711401584391641,-0.5931893764725724,-0.5929925497939565,0.08270616595031241,-0.05257520079812077,1.1506170000204174,0.04359813849592788,0.054397180847314666,1.0895123359379715,0.0,0.0,0.0,0.0
0.022883304778881713,0.008727589746017379,0.6754134980731861,0.005360633250771186,-0.3899981098661026,0.008875998355819197,0.9207572723390273,0.03928950802987672,-0.388880054564024,-0.7217494599416205,0.05334852012033934,-0.5866043453502096,-0.5864107648321707,0.07514210843712012,-0.04796881099298204,1.140254563445047,0.03453337401341416,0.04703498855572551,1.089202450420238,0.0,0.0,0.0,0.0
0.02049589337733471,0.011815598376573684,0.6740993729480045,0.005183024931692261,-0.3900049787969734,0.008780779553309618,0.9207562927705496,0.029384520667320724,-0.4025099863068131,-0.7073660848375646,0.04926214150525385,-0.580311106456951,-0.5795819776007279,0.06729054965979356,-0.043713232916326006,1.1294571390616293,0.024904126040854225,0.03957950032891944,1.08718830820362,0.0,0.0,0.0,0.0
0.017739779278121984,0.015060962844302394,0.6728414827832646,0.004989958853329004,-0.3900051844811569,0.008688900728273552,0.920758143810086,0.018900710951863187,-0.4186197391655227,-0.6883628383009128,0.04493183205009729,-0.5741520432447561,-0.57264392763135,0.05934911914510122,-0.03972206809239346,1.118150719463116,0.014897676042566253,0.032191467914684226,1.0832100252697108,0.0,0.0,0.0,0.0
0.014635428411875822,0.018397091180333117,0.6716677389259768,0.0047826153389211555,-0.3899885385340821,0.008605566945455214,0.9207670772894293,0.008069110822921322,-0.43735733225759593,-0.6642544540410676,0.040424543566455536,-0.5678081165505668,-0.5657803365413466,0.05159286593202481,-0.03580160579609764,1.1063372297277339,0.004773185474570604,0.025052521950092062,1.0771340731820556,0.0,0.0,0.0,0.0
0.011254395017995102,0.021728581134448588,0.6705862625793123,0.004563278286300912,-0.3899368766518691,0.008532885039827005,0.9207907463648644,-0.0027637315615579514,-0.45868748767299355,-0.6349789732337939,0.035827784762966504,-0.5607295778612559,-0.5592660517497949,0.044306639938654246,-0.0315777363093745,1.094150792290453,-0.005134793987231007,0.018279610911747873,1.0691476717375055,0.0,0.0,0.0,0.0
0.00773751620643303,0.024925637162396274,0.6695472481623146,0.004330412591976091,-0.3897903776560215,0.008492036521275267,0.920854274209161,-0.013223978145403312,-0.48233785513961447,-0.6014242361685065,0.03180296204179551,-0.5524032806370427,-0.5535459869454178,0.03770131053408872,-0.02650476356968792,1.0818914308488639,-0.014356063314284608,0.011708122795435745,1.0600635689982754,0.0,0.0,0.0,0.0
0.0045698477195573375,0.027849591530775382,0.6685246205859469,0.004106954708227985,-0.3894937485472216,0.008434774561123577,0.9209813284446984,-0.0226481635914487,-0.5051046114922039,-0.5695848259048146,0.02819080930048637,-0.5425360307761586,-0.5490337341272695,0.03183043294844486,-0.02009187159724483,1.0703686058444593,-0.022629656293095955,0.005666253399229989,1.051165605951051,0.0,0.0,0.0,0.0
0.002005081897107885,0.030234543960807492,0.667679977820787,0.003911172724890049,-0.3890979365634698,0.008375052110827704,0.9211500187223072,-0.030262456260793793,-0.5246563007195046,-0.5425356277139659,0.02575866135469735,-0.5318671262132382,-0.546678745149345,0.02725511242997987,-0.013077273116505547,1.0597410627828598,-0.02922678190105802,0.0009284690737243985,1.042899797273176,0.0,0.0,0.0,0.0
0.00043558294153274576,0.03170536871751461,0.6671378450446334,0.003796623425530923,-0.38868666860513873,0.008308062792083645,0.9213247176711621,-0.03484342513828388,-0.5374013296545583,-0.5254404359047525,0.02515732395413514,-0.5230931865377234,-0.5478094317642762,0.024520893904741624,-0.007208164160978657,1.0506846249620974,-0.03327362580530178,-0.0019880463715394345,1.0369367600671617,0.0,0.0,0.0,0.0
0.000477273419889862,0.03182710948670236,0.6670633275627726,0.003708498691594096,-0.38870400135278027,0.008249982367239391,0.921318286023203,-0.034961200092324306,-0.5375687455728235,-0.5253985316534516,0.025151045785695776,-0.5231020670483273,-0.5478322753589135,0.024546279748963163,-0.007173398992813572,1.050688252429647,-0.03340996539651222,-0.0019436845529492322,1.0368919778268042,0.0,0.0,0.0,0.0
0.000477273419889862,0.03182710948670236,0.6670633275627726,0.003708498691594096,-0.38870400135278027,0.008249982367239391,0.921318286023203,-0.034961200092324306,-0.5375687455728235,-0.5253985316534516,0.025151045785695776,-0.5231020670483273,-0.5478322753589135,0.024546279748963163,-0.007173398992813572,1.050688252429647,-0.03340996539651222,-0.0019436845529492322,1.0368919778268042,0.0,0.0,0.0,0.0
0.000477273419889862,0.03182710948670236,0.6670633275627726,0.003708498691594096,-0.38870400135278027,0.008249982367239391,0.921318286023203,-0.034961200092324306,-0.5375687455728235,-0.5253985316534516,0.025151045785695776,-0.5231020670483273,-0.5478322753589135,0.024546279748963163,-0.007173398992813572,1.050688252429647,-0.03340996539651222,-0.0019436845529492322,1.0368919778268042,0.0,0.0,0.0,0.0
0.0008744945456204704,0.03213019160644305,0.6664468087864263,0.003613049654649473,-0.3889353701283373,0.008193510152845772,0.9212215206597713,-0.03570739307713011,-0.5352803840139595,-0.5312732924232708,0.02448005769905324,-0.521948114447581,-0.5508486152161964,0.023921757076293244,-0.010174445384006001,1.0587852207964203,-0.03415196854690335,-0.004063723272671403,1.0426002449355702,0.0,0.0,0.0,0.0
0.0017038445203379693,0.03262020737282584,0.6655687099073206,0.0035830342550041863,-0.38904518964334706,0.008103361787224685,0.9211760623293709,-0.03700721911333453,-0.5291950102293249,-0.5461065090099598,0.02338973447958054,-0.5180772889646463,-0.5606254407966856,0.022521142174098983,-0.014155972568805169,1.0700001956354406,-0.03574956123724915,-0.006888075686559955,1.050188070504714,0.0,0.0,0.0,0.0
0.0030640225582027154,0.03340642289267394,0.6646427916517277,0.00359453657394152,-0.3891404094455325,0.0079910644610999,0.9211367780803025,-0.03925060096768573,-0.5181730468387749,-0.5707285148824514,0.021450533493524406,-0.51050424141707,-0.5772727538576293,0.020103541424612563,-0.01787990282760246,1.0834363620756824,-0.03843448978260292,-0.008860449943189123,1.0580130303617319,0.0,0.0,0.0,0.0
0.005116812373861428,0.03475908373807795,0.6642671221021719,0.003601416055472571,-0.3895014062390009,0.007913481174433896,0.920984832207316,-0.043514767153265056,-0.49952488429720754,-0.6065943790106405,0.017464868541623508,-0.4971053315996279,-0.6000063529000355,0.016082704082930655,-0.018128992697917963,1.096325710209211,-0.04277308586589428,-0.005971214613025822,1.061572067506039,0.0,0.0,0.0,0.0
0.008237923215359894,0.03734229003541164,0.6660257081298044,0.0035826156649303906,-0.3908162457497147,0.008007993032553175,0.9204269112594908,-0.052410991206649105,-0.4658884623694,-0.6578996368380653,0.008518265284056385,-0.47201786442002486,-0.6276512735816211,0.008737031851928466,-0.006506301914835585,1.1010676639660721,-0.05042038933020138,0.012060143074756191,1.0489130065730154,0.0,0.0,0.0,0.0
0.0112843944567579,0.03993844465794978,0.6671819466811484,0.0033209192520040048,-0.3903558224229412,0.007999217995956959,0.9206233300906967,-0.05163274160903717,-0.4958932910211831,-0.6166790332007868,0.0002710038655692436,-0.45057627265466554,-0.6609092518087346,0.0015949935479708816,0.0009540531863725188,1.103104467399863,-0.05211126728345896,0.003683177654474226,1.0615634457601852,0.0,0.0,0.0,0.0
0.014874259596777878,0.04262660853708035,0.6684241694221261,0.0031943861869847424,-0.38981515698486313,0.007915841320178215,0.9208535598768941,-0.04984542764613285,-0.5183930709275693,-0.595358472253073,-0.008100408908201247,-0.4263366619568113,-0.6994249573189786,-0.006423711404819128,0.00984795145886222,1.1050326765054752,-0.05427483835965895,-0.0036406860619265756,1.0739286110869106,0.0,0.0,0.0,0.0
0.0182542671960559,0.04546837915788669,0.6696966276375381,0.0030417741297000447,-0.3895513415039085,0.007864895672065775,0.9209661466952608,-0.049891377098987603,-0.5352323782860706,-0.5857204888998706,-0.0172555165938574,-0.4049984041313881,-0.7302468501947522,-0.014883217843303454,0.01882370696013452,1.1074652488975083,-0.05792760041138185,-0.009799818295138485,1.0857891859355442,0.0,0.0,0.0,0.0
0.02121313740983431,0.04838982182647378,0.6710378946873712,0.0028599291134818257,-0.3894877923193303,0.007833207921679764,0.9209938769032809,-0.05162734309286841,-0.5482433497653578,-0.5826532372945399,-0.026809903540950294,-0.38700772969730546,-0.7530146564903908,-0.02358911598137678,0.027743966017659397,1.1092791900762409,-0.06301595639291273,-0.015381044016298667,1.0970211650200454,0.0,0.0,0.0,0.0
0.02366831139650533,0.051326672333850076,0.6724394051686272,0.0026634735934964247,-0.3895344569646855,0.007802907434681631,0.9209749873808789,-0.05455097918496583,-0.5587611453133257,-0.5832105033007098,-0.036401695448944144,-0.3724020809951939,-0.7684548028391678,-0.03240107189602312,0.036372460771600376,1.1099843205694928,-0.06910314281261173,-0.020800739943748914,1.1075989761492357,0.0,0.0,0.0,0.0
0.025621029117469028,0.054222165634361774,0.6738791493395498,0.00246530880887723,-0.38963195798905154,0.007765269439363972,0.9209346123132895,-0.05815486844555176,-0.567719858969259,-0.5856865022596633,-0.04575582106350054,-0.36094811566185836,-0.7776438712716346,-0.041160358778467826,0.044543756237043056,1.10946643097448,-0.07570417117870164,-0.026266953771291752,1.117579673604743,0.0,0.0,0.0,0.0
0.027121598010851507,0.05702669008739933,0.6753360664202447,0.0022745794347074516,-0.38974546435022756,0.007717229830599395,0.9208874761177732,-0.062024790866863425,-0.5757688539988013,-0.589103151967297,-0.05466876977567371,-0.35224108432089724,-0.7817853531102728,-0.0497047581666088,0.05220295119274146,1.1077669701496828,-0.08243401036880449,-0.03187948472739099,1.1270730213643083,0.0,0.0,0.0,0.0
0.028244336704763236,0.05969878693274483,0.6767933030951663,0.0020969643434764814,-0.38985637117128064,0.0076587353377616475,0.9208414393209772,-0.06585583370912286,-0.5833540485221868,-0.5929132402631944,-0.06299697087917473,-0.3457899343895478,-0.7820836394074855,-0.057886864669917784,0.059380483736574334,1.104988023027388,-0.08903744999856468,-0.0376867314891733,1.1362126058491493,0.0,0.0,0.0,0.0
0.029070311832985078,0.0622058373101724,0.6782369376938664,0.0019354583166910867,-0.38995596377576086,0.007591288272279515,0.920800180635945,-0.06943657409245658,-0.5907775235615005,-0.5968251325534725,-0.07064778596803191,-0.3410862849586476,-0.7796621851407755,-0.06558582310130454,0.06614840266247785,1.1012625250153605,-0.09536955489481244,-0.043710650315077544,1.1451348082623725,0.0,0.0,0.0,0.0
0.02967624439250687,0.06452378820119486,0.6796534057005419,0.0017911802932030001,-0.3900410361563821,0.00751712356089204,0.9207650485550499,-0.07262611834196839,-0.5982402633750441,-0.600698105859084,-0.07757001838850144,-0.33765582550225653,-0.7755126444491355,-0.07271147458455095,0.0725797887720474,1.0967507250959239,-0.10136482432830186,-0.04995451564875888,1.1539651240644477,0.0,0.0,0.0,0.0
0.030128107993829117,0.06663592169400209,0.6810266917784563,0.00166409098881108,-0.39011088557505613,0.007438696571891733,0.9207363322636605,-0.07533416912257412,-0.6058665453621588,-0.604477700862229,-0.08374350010731577,-0.3350937228902177,-0.770468460432894,-0.07920249931373265,0.07871711497350403,1.0916465574560341,-0.10700883506119654,-0.05640063816088554,1.162808001936208,0.0,0.0,0.0,0.0
0.030478004847573854,0.06853096381480289,0.6823354051082043,0.0015536388846709723,-0.3901651768404199,0.007358346749277437,0.9207141661343207,-0.07750625976672558,-0.6137050811723062,-0.6081510428126932,-0.08916868019020005,-0.33308766445236637,-0.7651967822444934,-0.0850209814328604,0.08454807137136013,1.0861893943679726,-0.11231088615207077,-0.06300038241825441,1.1717340851502565,0.0,0.0,0.0,0.0
0.03076296652550608,0.07020091041851105,0.6835497899093328,0.0014593697708420112,-0.39020250562007813,0.00727815418151966,0.9206991383288,-0.07911295719674756,-0.621700590094418,-0.6117076904403345,-0.09385750015251686,-0.33143280064586883,-0.760200388734722,-0.09014549236874578,0.08998624832682829,1.0806798067049033,-0.11726761058544348,-0.06965614486387676,1.180755290064733,0.0,0.0,0.0,0.0
0.031004495426537604,0.07163894787830064,0.684629235825173,0.0013814912097136454,-0.39021998757568244,0.007200133137690281,0.9206924626938526,-0.08014053509129222,-0.6296316609646716,-0.6150956267845271,-0.0978266765610623,-0.33004196431440713,-0.755818423799982,-0.09456398293351355,0.09485708624398889,1.0754955944027338,-0.12180510522529549,-0.0761921734750647,1.1897726737810845,0.0,0.0,0.0,0.0
0.031208142828342895,0.07283801171385261,0.6855214913914246,0.0013212379255474697,-0.39021609451712613,0.0071269847258260575,0.9206947702680097,-0.08058135103171599,-0.6370213106210101,-0.6181603221675769,-0.10109419860048333,-0.32895143489628353,-0.7522074337776669,-0.0982678434224345,0.09889550360199159,1.0711065354836593,-0.1256970081497188,-0.08230429761593962,1.1984803603025909,0.0,0.0,0.0,0.0
0.03142812309479077,0.0737632072920637,0.6861751608924959,0.0012844348846175124,-0.39017680242730224,0.00706278695184104,0.9207119691386151,-0.0802023132918764,-0.6430329658226549,-0.6206060611085014,-0.10361021232090672,-0.3278305944216292,-0.750291804672541,-0.10117507215817996,0.10194213791189351,1.0679109816605288,-0.1284032337687698,-0.0873594098041636,1.2062777628984682,0.0,0.0,0.0,0.0
0.031599775180527596,0.07441837611738811,0.6865465350709965,0.0012713287894843906,-0.3901226188239532,0.00701996542263796,0.9207352747074017,-0.07897091780909876,-0.6464931073341332,-0.6219357036725126,-0.10543911498938302,-0.32715841832984977,-0.7492379064125636,-0.1032812906224255,0.10364622876233627,1.0663330609048383,-0.1291819617622026,-0.0904926079101673,1.211752621392489,0.0,0.0,0.0,0.0
0.0316803765793102,0.07480187891384828,0.6866301359295232,0.0012795323571717226,-0.3900858908932183,0.0070193655615064,0.9207508289597708,-0.07677795544989453,-0.646188426049155,-0.6216193187768991,-0.10664262917774152,-0.3271826667073182,-0.7483953519668455,-0.104533157001421,0.10390776993870607,1.066502207021656,-0.12728097330423244,-0.0902046947208226,1.212549191055888,0.0,0.0,0.0,0.0
0.03165512745050147,0.07491491487830224,0.6864328988748072,0.001309249591761434,-0.3900669100821299,0.0070605090245334495,0.9207585138008774,-0.0736413005452724,-0.6421198585653458,-0.6196115640071496,-0.10721916689539723,-0.3279848619016898,-0.7475902199550054,-0.10493306676276128,0.10273199019499867,1.0683538348837216,-0.12270024392425642,-0.0864965858456051,1.2086161491554104,0.0,0.0,0.0,0.0
0.031517994782129674,0.07477008012775369,0.685973005196526,0.001361279308619665,-0.3900395940934054,0.007122998498852655,0.9207695286283537,-0.06975864950755963,-0.6354883298893548,-0.6163738777961373,-0.10713237487474317,-0.32961627275595184,-0.7468329850790546,-0.10455597255734063,0.10018340055106631,1.0716603823449076,-0.1162040632163663,-0.08090317512493497,1.2021873084054537,0.0,0.0,0.0,0.0
0.0312629735263133,0.07438621667308458,0.685301489498835,0.0014317712567268413,-0.38999776810606,0.007195646352232571,0.9207865733040062,-0.06532620522247165,-0.6274600865322257,-0.612344097030991,-0.10638108529659318,-0.33205758030770416,-0.7459779009758452,-0.10345921832893376,0.0965052327480591,1.0759808839640257,-0.10857693510375774,-0.07437664013549769,1.1945420635290054,0.0,0.0,0.0,0.0
0.030874521108930717,0.07378153649032516,0.6844787108077937,0.0015168313748339208,-0.389945576051937,0.007273142738233683,0.9208079323804789,-0.0604642195202515,-0.6188656514023356,-0.6077941339029899,-0.10497511982898942,-0.3353251582399305,-0.7447068296062352,-0.1016842522052551,0.09197734632771247,1.0808128625277655,-0.10032993765832669,-0.06748130110514282,1.186310379629034,0.0,0.0,0.0,0.0
0.030326488324080882,0.07297213917357026,0.6835598399694303,0.0016140265831219777,-0.38988947446837074,0.007352892276233049,0.9208308897903789,-0.055243263626487356,-0.6101955396981495,-0.6028518361995024,-0.10292725386253114,-0.3395104625046487,-0.742571821772665,-0.09926565207930527,0.08683394451901193,1.0856914653930534,-0.09171579180926291,-0.060555924708418966,1.177754104120852,0.0,0.0,0.0,0.0
0.029584692221734477,0.07197285050227775,0.6825897488581799,0.0017223060938196706,-0.38983458791393955,0.00743325614500897,0.9208532860509163,-0.04971683233675867,-0.6016878543566808,-0.5975616392068042,-0.10025380821171513,-0.34477940983756106,-0.7390375953145001,-0.0962393048616574,0.0812398780477492,1.0902268378330588,-0.08282890312857795,-0.05380248111387456,1.1689423501002258,0.0,0.0,0.0,0.0
0.02861052786979748,0.07079905445606584,0.6816034652219809,0.0018414352725373167,-0.38978371084760177,0.007512821530177412,0.9208739465239887,-0.043937336602665564,-0.5934184104752813,-0.5919416721846535,-0.09697955665947247,-0.3513564281384528,-0.7335099700988323,-0.09264945491623676,0.07530000500009891,1.0941028439057232,-0.07369638025372342,-0.04733509082388237,1.1598541567425389,0.0,0.0,0.0,0.0
0.027365171827680793,0.06946890326711534,0.6806289696573928,0.001971417385121532,-0.38973753933349764,0.007590220227779478,0.9208925846724242,-0.037956286970949375,-0.5853603114393056,-0.5860263108653891,-0.09314471872402726,-0.3595026033170636,-0.725357238648668,-0.08855527981748096,0.06908265165817881,1.0970607184837566,-0.06433662581074497,-0.0412072722517873,1.150438544964883,0.0,0.0,0.0,0.0
0.025815067431240055,0.06800544866313622,0.6796903550662831,0.002112035141777035,-0.3896953557529933,0.0076641766069010745,0.9209095120635068,-0.031812133674230886,-0.5774049285435313,-0.579895482834242,-0.08881233078506033,-0.3694869229580311,-0.7139405491520828,-0.08403674888253414,0.06264735317104829,1.0988834393462015,-0.05478784000155515,-0.03542319134399831,1.140656309715855,0.0,0.0,0.0,0.0
0.023939871406794853,0.0664382497180303,0.6788101916637733,0.0022625275739456613,-0.3896558668140128,0.0077335807382174614,0.9209252836986087,-0.025508447040110876,-0.5693462036612731,-0.5736969620007877,-0.08407412865714821,-0.3815435101674417,-0.6986743217332814,-0.07919879719277563,0.056072575804416665,1.099391241259556,-0.04511219757829667,-0.029931969835534276,1.1305226669726254,0.0,0.0,0.0,0.0
0.021744213101337242,0.06480421429556628,0.6780098093488904,0.002421443812000276,-0.38961808551909416,0.007797301824189749,0.9209403271279653,-0.018990095255093487,-0.5608367287201569,-0.5676737574215622,-0.07905300783761264,-0.39580416901408794,-0.6791440026134009,-0.07417366511722291,0.049478385778579874,1.0984616434544228,-0.03537767533840467,-0.02460194448743401,1.120164268360946,0.0,0.0,0.0,0.0
0.019274453379554926,0.06314856657159752,0.6773039445427694,0.002586746230089845,-0.3895820616300779,0.007853156856339921,0.920954642709069,-0.01214637559744055,-0.5513387843290694,-0.5622244408115289,-0.07390260379926054,-0.41219696968053243,-0.6553147886788133,-0.0691257901116417,0.043025273986748866,1.0961105976674952,-0.02562167982910917,-0.019176263695743167,1.1098932382363071,0.0,0.0,0.0,0.0
0.016640573173328434,0.061530909777747084,0.6766777847733876,0.002756235584471078,-0.3895515023123384,0.007894462015485113,0.9209667245243387,-0.004924730905026381,-0.5401355935737712,-0.558044344594885,-0.0688137462720902,-0.43032444938463765,-0.6278414129788773,-0.06427987516272467,0.036822666494365025,1.092764487487903,-0.015833155746488012,-0.013240905349062677,1.1003012332799864,0.0,0.0,0.0,0.0
0.01427017016729451,0.05995516694434363,0.6760504373465361,0.0029316591682242237,-0.3894182643329353,0.007916106255348157,0.9210223428561326,0.0029179727002143618,-0.5267536920501072,-0.556333382623292,-0.0638720136977285,-0.44734255964898595,-0.602815110433004,-0.05969609043544538,0.03110769113452132,1.08930767612708,-0.005636268559228207,-0.006149665037301803,1.0927541387251614,0.0,0.0,0.0,0.0
0.012409225098974103,0.05856587110589346,0.6755610432742004,0.0030826296495314836,-0.38927650933462365,0.007922409919561958,0.9210817184678898,0.010935087208057179,-0.5110566676390649,-0.5591758351788163,-0.059497097848223914,-0.4609786102297543,-0.5830526422369636,-0.05572831820865852,0.026889008048466192,1.085797750049338,0.004219159039728176,0.0012957554452896602,1.088272424917353,0.0,0.0,0.0,0.0
0.011345990129931371,0.057610175280283525,0.6753291811779097,0.003159481557283398,-0.38919930911098904,0.00789513838464051,0.9211143155188206,0.017363679530596487,-0.4944736111525047,-0.5701107019922367,-0.056354213267326134,-0.46870002445151826,-0.5719418321358495,-0.05302214514244587,0.02498347502276558,1.0828438801584612,0.011821874884040018,0.006529012211078579,1.0880595382095033,0.0,0.0,0.0,0.0
0.011351170137362606,0.057512589699829565,0.6752874625917257,0.003249566467761767,-0.38921547669456996,0.00793896039722456,0.9211067939859099,0.017379924294518834,-0.49447178144304366,-0.570121120895266,-0.05627660864396394,-0.4688179110720014,-0.5719194968076116,-0.0529380673346713,0.024975664778202965,1.0828042750610514,0.011815051161228055,0.006558045474649923,1.088070551937721,0.0,0.0,0.0,0.0
0.011351170137362606,0.057512589699829565,0.6752874625917257,0.003249566467761767,-0.38921547669456996,0.00793896039722456,0.9211067939859099,0.017379924294518834,-0.49447178144304366,-0.570121120895266,-0.05627660864396394,-0.4688179110720014,-0.5719194968076116,-0.0529380673346713,0.024975664778202965,1.0828042750610514,0.011815051161228055,0.006558045474649923,1.088070551937721,0.0,0.0,0.0,0.0
0.011150954282886417,0.0570301680971809,0.6748287603378904,0.0034043754291735056,-0.3890151511051561,0.00799151742720704,0.9211904027332137,0.018687792439525962,-0.49848446934440116,-0.5649379380293061,-0.055121452728768956,-0.47058835616418815,-0.5724560315095902,-0.051829122242914874,0.022672697844560656,1.0840025281625392,0.01292119346412315,0.0031268571299162763,1.0923752099784918,0.0,0.0,0.0,0.0
0.01135003378089253,0.05632859737346371,0.6742394593337487,0.0035048619687873127,-0.3888693303111961,0.008030976799653585,0.9212512487359488,0.020833217726996933,-0.5000230045917563,-0.5642463704062519,-0.05320913338621955,-0.4687842987005546,-0.5800857351495841,-0.04994170898242982,0.02056759470113042,1.0865566665588235,0.014881877938688948,-0.0005393186368543709,1.0993094374745365,0.0,0.0,0.0,0.0
0.012093284303689656,0.05541664294469641,0.6736852949868624,0.0035642991667058014,-0.3888502869533678,0.008074366297909636,0.9212586795882147,0.023720549568650863,-0.4974148805570069,-0.57007046259212,-0.05060779001974308,-0.4620027172140425,-0.5962708382726563,-0.04730297157672737,0.01980941819312647,1.0895628052382307,0.017691282903280987,-0.003265658404692808,1.1079969798766822,0.0,0.0,0.0,0.0
0.013523780151100138,0.05412761304213726,0.6735094426279803,0.0036006353688865424,-0.3890996044443069,0.008129559928267478,0.9211527796742497,0.027846702672004068,-0.4891022683891466,-0.5828021658568031,-0.04675082324335227,-0.44829685764650323,-0.6226633067570998,-0.043406456049267954,0.02270507490118543,1.0903726735308596,0.021865999258004157,-0.0031033323779470407,1.116892092216109,0.0,0.0,0.0,0.0
0.015966844278963686,0.05204733253361282,0.6749037105316376,0.003628488959854596,-0.39014540710466,0.008247705059103716,0.9207091672967449,0.03423987068685064,-0.47066748092727934,-0.6021524829658628,-0.04030161452716202,-0.4220357075947592,-0.6622535211797252,-0.03682839579118102,0.03676902668540204,1.08018016131074,0.028840744424240686,0.0066007410257729136,1.1201104354731628,0.0,0.0,0.0,0.0
0.01826804251327683,0.04976983977015422,0.6755491761622572,0.0040055552821148125,-0.38977049715219103,0.008179095910884653,0.9208669922777645,0.042109182688531366,-0.45618973651019457,-0.6237006300870969,-0.03012406938454521,-0.4590051115868834,-0.6175994479983147,-0.0250120938675133,0.02787604185327746,1.0847230406743138,0.0349807487210067,0.010816321056664349,1.1236401618041147,0.0,0.0,0.0,0.0
0.021127505551399132,0.04754423273911152,0.6763410135274553,0.00429399401845226,-0.38942600730251764,0.008203257915664933,0.9210112122071903,0.049593666993675393,-0.4376031375612851,-0.6522756020726543,-0.019685429793463997,-0.487305949178353,-0.5945605776714682,-0.011997975321955064,0.018854217346659936,1.0915913247817473,0.04153024782437046,0.017008333209134523,1.12670151640262,0.0,0.0,0.0,0.0
0.02391134609740339,0.045378055247224956,0.6772406204322216,0.004548049161471417,-0.3892627964278973,0.008253085561003869,0.9210785401607623,0.056803507638180706,-0.4200981768658477,-0.6774567492461474,-0.010180080669764235,-0.5081780455456318,-0.5844757763110575,0.0003664418167496908,0.011056977403643647,1.099993418428527,0.04813416593072481,0.024047248553414825,1.1290199865661075,0.0,0.0,0.0,0.0
0.02642339463750127,0.043321919654345196,0.6782322228213684,0.004778059548112925,-0.38922852467319263,0.00831048938511356,0.9210913426440749,0.06357361466759325,-0.40463069274852825,-0.6979274662367491,-0.0019213221909575393,-0.5238727382980917,-0.5815726124151187,0.011794399986874479,0.004292877403090017,1.1091956585669271,0.054521179048658136,0.031477070400062694,1.13009164072274,0.0,0.0,0.0,0.0
0.028566619591168612,0.04139976271740969,0.6792742183076018,0.004987366893398564,-0.38926302599757256,0.008372905252899233,0.9210750877210336,0.06979774368688381,-0.39161529960711516,-0.713524842704379,0.005434094539129773,-0.5362462715300153,-0.5826377915875354,0.022453946614659707,-0.0019293364064030807,1.1186531050413258,0.06055239955941488,0.03882583985088888,1.129891937389574,0.0,0.0,0.0,0.0
0.030317418570988044,0.03963108371400971,0.6803360615466549,0.005177713553864751,-0.3893281311306696,0.008441124085408655,0.9210458973454195,0.07539439672079776,-0.38104242130879784,-0.7246905729178983,0.012247255884211258,-0.5466190179138466,-0.5858457318368802,0.03254064846452159,-0.0079943654028933,1.1280592694766123,0.06612444436079915,0.04582205806678981,1.1285226830012811,0.0,0.0,0.0,0.0
0.031698159103877285,0.03803371058727002,0.6814005428595848,0.005349905411044218,-0.3894027624322257,0.008516009232788203,0.9210126734790306,0.08030354930505139,-0.3726543690941157,-0.7321540322753802,0.018721244124087544,-0.555873540023291,-0.5901381027888708,0.042178284863562863,-0.014141891904282451,1.137287005228595,0.07115523526300738,0.05237117998931049,1.1260967134018114,0.0,0.0,0.0,0.0
0.03275520474682768,0.03662189567245082,0.6824580002565128,0.005504420466804839,-0.3894767144570674,0.008597552310829096,0.9209797350350958,0.08449087958892532,-0.3660846686799686,-0.7367281429030519,0.024918959149612254,-0.5645779998398235,-0.5948974799885186,0.05142644859649276,-0.02050236463657321,1.1463170876270492,0.07558577067193431,0.05848306599417871,1.1227273296959714,0.0,0.0,0.0,0.0
0.03354353704775337,0.03540505165248392,0.6835009272393507,0.005641811323895512,-0.3895459933018893,0.008684956716217676,0.9209487828290276,0.08794705072250217,-0.360948770908722,-0.7391917473308091,0.03082440945483747,-0.5730911331543523,-0.5997697218544963,0.06031150391575694,-0.027137396214494392,1.155184788948762,0.07938099007235352,0.06420927342392832,1.1185394640266566,0.0,0.0,0.0,0.0
0.03411708822611596,0.034388083002719096,0.684520357673346,0.005762858767017044,-0.38960965819581767,0.00877700428162358,0.9209202288446106,0.09068185058306284,-0.3568967364548674,-0.7402309432684192,0.036392438809833214,-0.5816376739847928,-0.604562903553592,0.06885244507592278,-0.034066094222520354,1.1639458496672699,0.08252622948508485,0.06960044318620426,1.1136794990391201,0.0,0.0,0.0,0.0
0.03452330191395299,0.03357287723636586,0.6855033339611836,0.0058685185661888056,-0.3896677059523118,0.00887235731584053,0.9208940876688051,0.09271606042220526,-0.35364120266128124,-0.7404172494739607,0.041577025941449526,-0.5903523248550404,-0.6091854013096796,0.07707406175898684,-0.04127531788517144,1.172654593261258,0.0850204681597257,0.07467883824897126,1.108323062362767,0.0,0.0,0.0,0.0
0.034800432432052206,0.03296033382740675,0.6864306361325053,0.005959723812779836,-0.38971962018570294,0.008969670701135675,0.9208705904424899,0.094073480942586,-0.350971442270559,-0.7402062525130441,0.04634350589942116,-0.5992908039121948,-0.6136016607952297,0.08500422082127225,-0.048715806125774225,1.1813446694386829,0.08686834907389493,0.07941903722770145,1.10268451237338,0.0,0.0,0.0,0.0
0.03497628419368523,0.03255249184520617,0.6872745095542918,0.0060370648508111125,-0.3897634623264876,0.009067465709913408,0.9208505733010407,0.09477434451105936,-0.34876100273862654,-0.7399439114168844,0.05067090290044737,-0.6084043594035703,-0.6177909943248319,0.09264938453593784,-0.05628539306977088,1.1900008603019767,0.08807236504850392,0.08373266256842203,1.097029054045126,0.0,0.0,0.0,0.0
0.035067360489143495,0.03235452740801632,0.6879969972608786,0.006100353135527797,-0.3897956953029925,0.009163688621368215,0.920835559926814,0.09483043733092071,-0.34697285591463695,-0.7398695258010678,0.05454556739289134,-0.6174744809881041,-0.6216983770763435,0.09993902028737617,-0.06379776132068062,1.1985063063087813,0.0886256151514165,0.08745813033139795,1.0916822260555128,0.0,0.0,0.0,0.0
0.035077854488237935,0.03237645919571686,0.6885505956467322,0.006148106922755245,-0.3898123143487465,0.009254823025240663,0.9208272957586084,0.09424195082179586,-0.3456610413912417,-0.7401067083278856,0.05794090742204862,-0.6260136315644721,-0.6251715847842063,0.10663401895738983,-0.07092976058492588,1.2065434245509057,0.08850493190653518,0.09036345646439234,1.0870233321682996,0.0,0.0,0.0,0.0
0.03499891055021947,0.03263413209637153,0.6888841567671579,0.0061771934310770596,-0.38981225873682773,0.009334452750687327,0.9208263208725371,0.09299670054934704,-0.3449596192752307,-0.740640487226156,0.060776434402878846,-0.6331665684930485,-0.6278917868104155,0.11222165172793389,-0.07713028925461525,1.2134197886046922,0.0876646045147685,0.09217861472998197,1.0834417268407737,0.0,0.0,0.0,0.0
0.03481053361244642,0.03314799923477644,0.6889573862314619,0.006183395020126642,-0.38980418519637205,0.009391502366588533,0.9208291168901621,0.09107485602552991,-0.345038385767169,-0.7412945214177594,0.06287030647043604,-0.6377135968939767,-0.6293337575016587,0.11589516096187358,-0.08146148104405376,1.217786555663639,0.08603397976008849,0.09267909583369324,1.0812369182786823,0.0,0.0,0.0,0.0
0.0344908735785231,0.03393583138557694,0.6887630350951497,0.006164643097176453,-0.3898140335473094,0.009409497111237432,0.9208248898618973,0.08846853861525347,-0.3460051505769751,-0.7417551359048227,0.06398295053773168,-0.6384099889587218,-0.6288758865556378,0.11685786178666939,-0.08241699799525011,1.2173346435029908,0.083529802385751,0.09181870124249965,1.0804786086513891,0.0,0.0,0.0,0.0
0.03402446730148017,0.035004038692042286,0.6883031707909587,0.006120804411605367,-0.38984265587309114,0.009387336366321695,0.9208132912437326,0.08515107488844169,-0.34795588869116556,-0.7418429026528749,0.06409553482396771,-0.635262296164382,-0.6264910104712195,0.1150819683331567,-0.07999720116936593,1.212068156579413,0.08012513167189418,0.08959067943308653,1.0810945557967473,0.0,0.0,0.0,0.0
0.03340318021616424,0.036347964417835534,0.6875886781128369,0.006054068661123704,-0.38986679027610366,0.009339415155273399,0.920804001629561,0.08107449003841419,-0.3509687278424101,-0.741520351664503,0.06342440735182174,-0.6295182623395316,-0.6227658733244397,0.11131364069875042,-0.07571317062605779,1.2042868376981397,0.0758492237857236,0.0860285032605997,1.0828805785406703,0.0,0.0,0.0,0.0
0.03261820949262208,0.03795993119422052,0.6866622421302009,0.005968848928421879,-0.38988068099968903,0.009275305212492497,0.9207993245756121,0.07620307188072403,-0.3550549793314612,-0.7406234282325369,0.06214119816212169,-0.6223999461869293,-0.6181966908915433,0.10631722852483132,-0.07052128554678197,1.1953150224028302,0.07072449734407345,0.08134184244991648,1.0854176998189744,0.0,0.0,0.0,0.0
0.03165120871890159,0.03983524298726731,0.685576473009663,0.005868196520441625,-0.38988750784688475,0.009200415725068339,0.9207978322330199,0.07050185974121542,-0.3602559239036811,-0.7388379695973412,0.06032011730103915,-0.614772742092535,-0.6130715119986379,0.10057106393728701,-0.0649987409738204,1.185810531691781,0.06476054396833217,0.07578560275978595,1.0882071179825807,0.0,0.0,0.0,0.0
0.030473915957817156,0.0419719848581358,0.6843806087530748,0.005753234017067825,-0.3898924685507095,0.009117544507221525,0.9207972815163703,0.06393896206354639,-0.3666794161509498,-0.7357268729552341,0.0579849239225627,-0.6071435960054677,-0.6075171194955157,0.09429060088590646,-0.05949226302954781,1.176048365934507,0.057962145915865904,0.06958570232485974,1.090762270444513,0.0,0.0,0.0,0.0
0.02905128369041784,0.0443684042223408,0.6831162445143385,0.0056236485187257015,-0.3898994848583648,0.009028223632318295,0.9207959912285482,0.05649294367132749,-0.37449992958722444,-0.7307608826709561,0.05515201531137147,-0.5997609348278873,-0.6015759359326343,0.08753988254787692,-0.05420156368097401,1.1660961735897364,0.05034155084355574,0.06292025709001436,1.0926436865893236,0.0,0.0,0.0,0.0
0.02734557385263231,0.04701927841514629,0.6818184598680348,0.005478335235291329,-0.3899099433203938,0.008933689262693808,0.920793360716233,0.04816305767945729,-0.38394411976806697,-0.723340372393746,0.05185147140287347,-0.592716717227014,-0.595271940007155,0.08033422333113541,-0.04922691608325919,1.1559154405277958,0.041932188098355305,0.05593185496790885,1.0934572469536072,0.0,0.0,0.0,0.0
0.025321028380155125,0.049911693433758834,0.6805192286277995,0.00531592514353477,-0.3899222468205135,0.008835605579818101,0.9207900490602343,0.03898177018354415,-0.39527070402326386,-0.7128134552412113,0.048131883185213026,-0.5860135356105033,-0.5886560073952587,0.07271243820893926,-0.044596307328372026,1.1454195099984588,0.0328033494919034,0.04875246829793959,1.0928392479182756,0.0,0.0,0.0,0.0
0.02294979255705822,0.053020404387234946,0.6792509538978985,0.005135200221806094,-0.3899315563357328,0.008736674332652936,0.9207880763855928,0.029029029696697718,-0.40874471190936823,-0.6985039553566227,0.04405508835799255,-0.5795855157027356,-0.5818309366818029,0.06478194396407032,-0.04027731045123106,1.134513135257275,0.023075242801729078,0.04152971414786096,1.0904470348387751,0.0,0.0,0.0,0.0
0.020220286246598846,0.05630290256329358,0.6780482491833288,0.0049354529680460685,-0.38992958257309784,0.0086411760748497,0.9207909056970607,0.018447359105203693,-0.42460112676670897,-0.6797683912437386,0.039682869101849094,-0.5732700652390095,-0.5749579808387505,0.056739022238163,-0.03617254825137383,1.1231318999394935,0.012933217774209582,0.034445447366217886,1.0859737891201344,0.0,0.0,0.0,0.0
0.017149681312448442,0.05969394091442376,0.6769447522037024,0.004716833079663923,-0.38990444736082563,0.008555328831462344,0.9208034968235803,0.007457908015621018,-0.44299009669412637,-0.656110495395431,0.035059253548693735,-0.5667340969000454,-0.5682519950470832,0.04885556693830447,-0.0320927215296282,1.1112922533445695,0.0026403134424141626,0.027709948748139025,1.0792202123022072,0.0,0.0,0.0,0.0
0.013802642046968414,0.06309736321566804,0.6759565144940454,0.00448103828330782,-0.38983802710727833,0.008483943767757103,0.9208334570459275,-0.003602708545403205,-0.46389774095845787,-0.6274028434635017,0.030231417058961367,-0.5593881550749703,-0.5620179637282697,0.04140934216152356,-0.027704049987361555,1.0991498108394113,-0.007455474944642699,0.021478951884993346,1.0702945748201036,0.0,0.0,0.0,0.0
0.010311278277278192,0.06637587867068304,0.6750383265998151,0.004228932748749974,-0.3896784654037747,0.00844345876812158,0.9209025560461849,-0.014316369937365793,-0.4870992041934087,-0.5943543481177928,0.025710046566185404,-0.5505873293337952,-0.5567528711988924,0.03458585377791747,-0.022547905292604004,1.0870399280778649,-0.016873115942073198,0.0156036295913461,1.059994034892726,0.0,0.0,0.0,0.0
0.00715883728574868,0.0693860305879489,0.6741364553439196,0.003989919847750292,-0.3893724760123763,0.008390322571859588,0.9210335270503133,-0.024024632713970477,-0.5094561658623838,-0.5629421839733931,0.0215827062689714,-0.5399858226740177,-0.552878579074598,0.028338533056753903,-0.01619607346987058,1.0759589521367297,-0.025348256335149914,0.010278479237710213,1.049839579736433,0.0,0.0,0.0,0.0
0.004596351910295746,0.07184816674033043,0.6733887637628454,0.0037868831654787227,-0.3889786885643187,0.008340217349442824,0.9212012158769862,-0.031918820904937154,-0.528746177849488,-0.5360751002323619,0.01870561552073883,-0.5282501404558262,-0.5515467144349969,0.023214372196809278,-0.009557616454234986,1.0662495765860638,-0.032124493139370464,0.006137199442174097,1.0405502079422246,0.0,0.0,0.0,0.0
0.003020925782767749,0.07334839652323344,0.6728487507410457,0.0036763919755467777,-0.38860457224981676,0.008296882594674267,0.9213599363483249,-0.03669002116337486,-0.5416175384822336,-0.518601853395758,0.017972076020083192,-0.5181994259326834,-0.5544908277530178,0.020010276197929618,-0.004513865805180857,1.058677664754652,-0.0362191400550335,0.0032858402679591856,1.0346635435394083,0.0,0.0,0.0,0.0
0.0030627158385738043,0.07347157429288931,0.6727728255419302,0.0035871590124990386,-0.38862243508689653,0.008238421912187913,0.9213532784126547,-0.036808922428029384,-0.5417866018653644,-0.5185599722149212,0.01796486199271238,-0.5182089128070664,-0.5545146188722063,0.020035767424971915,-0.00447904046549591,1.0586817548471017,-0.03635565476867712,0.003333164174915594,1.034616549709184,0.0,0.0,0.0,0.0
0.0030627158385738043,0.07347157429288931,0.6727728255419302,0.0035871590124990386,-0.38862243508689653,0.008238421912187913,0.9213532784126547,-0.036808922428029384,-0.5417866018653644,-0.5185599722149212,0.01796486199271238,-0.5182089128070664,-0.5545146188722063,0.020035767424971915,-0.00447904046549591,1.0586817548471017,-0.03635565476867712,0.003333164174915594,1.034616549709184,0.0,0.0,0.0,0.0
0.0030627158385738043,0.07347157429288931,0.6727728255419302,0.0035871590124990386,-0.38862243508689653,0.008238421912187913,0.9213532784126547,-0.036808922428029384,-0.5417866018653644,-0.5185599722149212,0.01796486199271238,-0.5182089128070664,-0.5545146188722063,0.020035767424971915,-0.00447904046549591,1.0586817548471017,-0.03635565476867712,0.003333164174915594,1.034616549709184,0.0,0.0,0.0,0.0
0.0034475505111468867,0.07376351026658155,0.672141290320139,0.0034960986780151553,-0.3888548989495885,0.00818849651815199,0.9212559868905662,-0.03755026117639216,-0.5396465077246236,-0.5242074540476868,0.017290116440541875,-0.5172088026231964,-0.5572994944347481,0.019423642288727262,-0.00750398263911922,1.0667671520359328,-0.03707558623708965,0.0011173983195207583,1.040465675722321,0.0,0.0,0.0,0.0
0.004257099482064783,0.07418599240312398,0.6712702526274352,0.003473094277380608,-0.3889616996337296,0.008096389032527275,0.921211801009309,-0.038625160878877234,-0.5337735499111326,-0.5385247853001567,0.016401380077927703,-0.5134418867624395,-0.5669617912240543,0.018168744681094744,-0.011299723032728637,1.0775315976911373,-0.038510714275658824,-0.0017727299185129417,1.0481468849238122,0.0,0.0,0.0,0.0
0.005586611409008501,0.07486870893220626,0.6703549767325758,0.0034926292424220357,-0.3890545401404197,0.007978476934436395,0.9211735505554359,-0.04050657367176178,-0.5230344141795154,-0.5624189141802517,0.014789267384752123,-0.5060388680867703,-0.5834047796887362,0.015984490972853954,-0.014761399722448165,1.0903176381299653,-0.04093945775559588,-0.0038470285462048506,1.0561153851038398,0.0,0.0,0.0,0.0
0.007594790257926585,0.07611186853158917,0.6699712520723182,0.0035056586631024927,-0.3894165274370965,0.007899524988774977,0.9210212136650939,-0.044397748167919575,-0.5047242482443859,-0.5975119800388253,0.011141888034406184,-0.49300357125558264,-0.6056196746196646,0.012218544852429257,-0.01483454972066353,1.102635018812812,-0.0449944289781488,-0.0011637866767404657,1.0599464505391907,0.0,0.0,0.0,0.0
0.010660705713534929,0.07857998170353722,0.671699558825488,0.0034890787718447644,-0.39073405712649,0.00800597426388631,0.9204621813561287,-0.052941590898053434,-0.471422658442351,-0.6481642372504087,0.0025413315750047443,-0.46843179925000966,-0.632504803963885,0.005167109717175777,-0.0031356256846475587,1.1068671280551248,-0.05230921325942602,0.016559339829883262,1.0476835809599256,0.0,0.0,0.0,0.0
0.013671020940493092,0.08105578910096012,0.6728700799335745,0.003244658433111289,-0.3902789169041256,0.007987260928267051,0.9206563109405479,-0.052042087610271806,-0.49949970552183487,-0.6100851863814373,-0.005308838156857627,-0.44720866980415297,-0.6654136335281992,-0.0017284625493063262,0.004625191976605509,1.1081615217848333,-0.053615642942547476,0.007543980848555253,1.0613448690178153,0.0,0.0,0.0,0.0
0.017213377191458924,0.08362881844450858,0.6741189383903045,0.0031308824251915415,-0.3897394916508804,0.007897130270590939,0.9208859655551508,-0.05011685790454288,-0.5207894139502354,-0.5906609725684948,-0.013315209150908471,-0.42329277770783486,-0.7034254194297069,-0.009500911475621276,0.013756405918732062,1.1093741198568574,-0.05544475068324929,-0.0002194738357843536,1.0743002805483546,0.0,0.0,0.0,0.0
0.02053803974709194,0.0863719773631311,0.6753943405729568,0.0029853256437219985,-0.38948408050595096,0.00784578766480805,0.9209949416143139,-0.05003282111701656,-0.5369167334556408,-0.5821068624528694,-0.022169226025692018,-0.4022965329673999,-0.7336500974110608,-0.017732782798360033,0.02290493881612207,1.1112040304068325,-0.05885139909901067,-0.006680227298882911,1.0864784881925003,0.0,0.0,0.0,0.0
0.023441623462000967,0.08921151411169906,0.6767322817691664,0.002808347535547157,-0.3894264350620241,0.007816243473340676,0.9210201252942132,-0.05164362292643737,-0.5495321982840015,-0.5796581218096942,-0.03147383226266199,-0.3846353893428892,-0.755864171806675,-0.026245882271883878,0.031920096039948026,1.1125427540219135,-0.06375615920767672,-0.012469880750650017,1.097882245416485,0.0,0.0,0.0,0.0
0.025845792890885337,0.09208167149306716,0.6781262905960131,0.0026155213229811774,-0.38947640542806244,0.007789182887025016,0.920999792232874,-0.05445155701984046,-0.5598374682811837,-0.5805579407513817,-0.04086072334016464,-0.37033170778518654,-0.7708188456432786,-0.03490072622339965,0.040585057807493524,1.112887554609598,-0.06970033516326897,-0.01802681290160572,1.1085588968457896,0.0,0.0,0.0,0.0
0.02775376073639577,0.09492377593137692,0.6795571497252174,0.002420106852945117,-0.38957552851866334,0.0077551485794378145,0.9209586898079279,-0.05795399338251112,-0.5686832519266888,-0.5832115008178317,-0.05004880118744627,-0.35914367235360056,-0.779591798250325,-0.04353578531618525,0.048758385648382155,1.1120980608259894,-0.07618662743984478,-0.023579602464483485,1.118602327233832,0.0,0.0,0.0,0.0
0.029216568159443304,0.09768632298566779,0.6810058887266123,0.0022314246369438276,-0.3896897491077964,0.007710688381240432,0.9209112147590992,-0.0617393077131588,-0.5766705087876918,-0.586708392672277,-0.05882885841468806,-0.3506627113962322,-0.7833817786171711,-0.05198493038156827,0.056404274622812466,1.1101904683773536,-0.08282411679737355,-0.02924495412613251,1.1281399305653337,0.0,0.0,0.0,0.0
0.030308587456533167,0.10032607122155907,0.6824568145542401,0.0020552747579896413,-0.3898009581069307,0.007655556874175819,0.9208650179877256,-0.06550268371191097,-0.5842186277207221,-0.5905433581174211,-0.06705207929088217,-0.34439725366139423,-0.7833876457632728,-0.060096500881122984,0.06356578168972593,1.1072472181054438,-0.08935445208781374,-0.035083065423723254,1.1373136508165038,0.0,0.0,0.0,0.0
0.031110559446903562,0.10280875424111356,0.6838964085552748,0.0018947565708866826,-0.38990071526195885,0.007591176925536934,0.9208236618205654,-0.06903110051959091,-0.5916158614857491,-0.5944507303963681,-0.07462111360863383,-0.3398405452915456,-0.7807278697087713,-0.0677453993895858,0.07032211416400404,1.1033875792528647,-0.09563025693088772,-0.04112312034633486,1.1462640906473436,0.0,0.0,0.0,0.0
0.031698675647953284,0.10510882621947251,0.6853110096490663,0.0017510821096379766,-0.38998595229890287,0.007519768321004842,0.9207884359641804,-0.07218139031604805,-0.5990563317390303,-0.5983055917481643,-0.08148064579922132,-0.33652108960729504,-0.7763898575644592,-0.07483746202599607,0.0767496299225666,1.0987630434674311,-0.1015835874787324,-0.047372403251719104,1.1551192133414891,0.0,0.0,0.0,0.0
0.03213829364520995,0.10720824590161873,0.6866842327556574,0.0016242927985475012,-0.3900560292009052,0.007443802912459675,0.9207596024778278,-0.07486102374169364,-0.6066611468336597,-0.6020628320802406,-0.08760698995739345,-0.33403731894970673,-0.7712035156581881,-0.08130775429856754,0.08289163440124045,1.093562363776175,-0.10719756375773509,-0.05381532544274081,1.1639851761147995,0.0,0.0,0.0,0.0
0.032480894190841186,0.10909458967675667,0.6879942055036449,0.0015139046475100316,-0.3901106321684334,0.007365646638568355,0.9207372860981895,-0.07701367197225022,-0.6144778506074484,-0.6057149110890994,-0.09299765230211082,-0.3320801348285973,-0.765833153584951,-0.08711521299512248,0.08873528429493469,1.0880221627392843,-0.11247921016442983,-0.06040436413138488,1.172933936337618,0.0,0.0,0.0,0.0
0.03276293045037211,0.11075886891493707,0.6892106762166575,0.0014195413086336435,-0.3901483110035336,0.007287365546382266,0.9207220941342488,-0.07860811312430217,-0.6224512358886818,-0.6092544053285931,-0.09766203262787505,-0.3304476303548099,-0.7607796480984539,-0.09223588023960577,0.09419296748669687,1.0824417456755757,-0.11742333779021917,-0.06704276758635001,1.1819784069874633,0.0,0.0,0.0,0.0
0.03300537044815381,0.11219345369041443,0.6902925850720862,0.0013414597457746566,-0.3901661488149178,0.007210981068996019,0.9207152537873522,-0.07962913990031703,-0.6303607709986015,-0.6126306915240427,-0.1016149276850095,-0.3290552534108099,-0.7563803144045959,-0.09665554234120792,0.09908865439137861,1.0771987699761094,-0.12195451272880997,-0.0735554188806103,1.1910202605296796,0.0,0.0,0.0,0.0
0.03321326918198494,0.11339058546781813,0.6911873453530557,0.0012810008251135905,-0.39016239229460764,0.007139100896966381,0.9207174919128113,-0.08006593029271218,-0.6377309328234554,-0.6156899679397492,-0.10487244526884645,-0.32794169919841626,-0.752791105164072,-0.1003641079063303,0.1031559111377407,1.0727624571568366,-0.12584497417124663,-0.07963935500912167,1.1997537371360836,0.0,0.0,0.0,0.0
0.033438666630311364,0.11431522995764798,0.6918434270428755,0.001244201212078808,-0.3901226375115725,0.007075467391894071,0.9207348790099918,-0.07968262509454091,-0.6437263125606298,-0.618138286238351,-0.10738407493270109,-0.3267906922426555,-0.7509141910897612,-0.10328008000893828,0.10623212537816377,1.0695267596643945,-0.12855329117460773,-0.0846663240044597,1.2075735784894956,0.0,0.0,0.0,0.0
0.0336117572693,0.11497315033271366,0.6922164817411227,0.001230936429482117,-0.3900686668360367,0.00703282117796366,0.9207580894972047,-0.0784613864562725,-0.6471760210506381,-0.6194752416463136,-0.10921938756833581,-0.32611874400695445,-0.7498405251240982,-0.10540293286299066,0.10795195796710966,1.0679278866308666,-0.12933960449765672,-0.08778267328365384,1.2130569753589515,0.0,0.0,0.0,0.0
0.0336950075496266,0.11536086759848169,0.6923009388126536,0.0012390113667103788,-0.3900316789327493,0.007031996194900404,0.9207737535949039,-0.07628139963665588,-0.6468686872977348,-0.6191698214055024,-0.11043497317916007,-0.3261367781579009,-0.7489958320413451,-0.10667416777736848,0.10822461842702522,1.068094159033732,-0.12744613589040835,-0.08748429492685955,1.2138492906935638,0.0,0.0,0.0,0.0
0.033673380308253016,0.11548016597410725,0.6921037356083718,0.0012685772469668464,-0.3900122058567374,0.007072518218210424,0.9207816513596389,-0.07316393722657995,-0.6428052344913431,-0.6171771293773471,-0.11103081267505652,-0.32692860918704225,-0.7481998420205865,-0.10709790015534965,0.10705414352307886,1.069963945143818,-0.1228746435923856,-0.08377346086403041,1.2098982632567865,0.0,0.0,0.0,0.0
0.03354120153104652,0.11534423666915507,0.6916436574814637,0.0013204125227420818,-0.3899842528061117,0.007133990075572526,0.9207929437499128,-0.06930758185671045,-0.6361837386361233,-0.6139615401359291,-0.1109725502754712,-0.3285428439941272,-0.7474638146010533,-0.10675115047501486,0.10450781968753467,1.0733070917881526,-0.11639269354532857,-0.07818237833948881,1.2034429369652273,0.0,0.0,0.0,0.0
0.03329304378976546,0.11497264361135599,0.6909724592110614,0.0013905948568523668,-0.38994172328773413,0.007205310938478611,0.9208102965212847,-0.06490987802334819,-0.6281680150746295,-0.6099619267572675,-0.11026113286908884,-0.3309560157175359,-0.7466446859466477,-0.10569319005318004,0.10083232000049933,1.0776792555241224,-0.10878733133294295,-0.07165877086202267,1.1957666140549443,0.0,0.0,0.0,0.0
0.032913943217568936,0.11438443933348877,0.6901511352383228,0.0014751425321446658,-0.3898888226831131,0.007281262822591565,0.9208319679034792,-0.06009275050267734,-0.6195865696115547,-0.6054500732325047,-0.10890859878085436,-0.33418054707473765,-0.7454270767863824,-0.10396754618326179,0.09631001189301275,1.0825760946109224,-0.10057144782780157,-0.06476336386176935,1.1875013907339425,0.0,0.0,0.0,0.0
0.03237828385379251,0.11359661075351542,0.6892353454332226,0.0015715308091213763,-0.3898320390284307,0.00735931518526056,0.9208552286422964,-0.05492835633705362,-0.610928376499795,-0.6005528709534811,-0.10692994202562452,-0.33830435393018926,-0.7433659910499539,-0.1016109586562201,0.09117632878521735,1.0875329268972629,-0.09199920289225771,-0.05783283218055603,1.178910054284913,0.0,0.0,0.0,0.0
0.03165239393316939,0.11262483234945664,0.6882702743484114,0.0016786115207620327,-0.3897764914334841,0.007437863384921356,0.9208779219730663,-0.049471517551012686,-0.602430586420708,-0.5953128700861511,-0.10434353005146474,-0.3434899104711904,-0.7399301413027327,-0.09866133019065647,0.08559609122463745,1.092162101967575,-0.08316622827353033,-0.05106828528485735,1.1700621084541594,0.0,0.0,0.0,0.0
0.030698188757175025,0.11148521161318964,0.687291038760148,0.0017960380328083995,-0.38972492975625556,0.007515506311888657,0.9208988926797242,-0.043775812890182654,-0.5941688379028426,-0.5897448823650653,-0.10117578186957703,-0.34995796322619344,-0.734531309833512,-0.09516447646141951,0.07967280489062425,1.0961517770791143,-0.0741005307684261,-0.04458368487684186,1.160936839973871,0.0,0.0,0.0,0.0
0.02947738537006689,0.11019640763805078,0.6863254023092477,0.0019236730255529832,-0.3896779622486951,0.007590876455831518,0.9209178920047256,-0.03789402745104752,-0.5861173066046651,-0.5838776600005768,-0.09746788059060985,-0.3579654935109633,-0.7265465290829822,-0.09118035914441694,0.07347184255233113,1.0992498194623332,-0.06482080006099306,-0.03843248280063733,1.1514834460811982,0.0,0.0,0.0,0.0
0.02795697323215923,0.108781658108099,0.6853968176701791,0.0020611077568729597,-0.3896347285335545,0.007662703695270614,0.9209352925843793,-0.031866241019330895,-0.5781708614768266,-0.5777819337021393,-0.09328283173889751,-0.3677769078885421,-0.7153491944263698,-0.08678853786530241,0.06704771567315884,1.101248537145196,-0.055364614748727024,-0.032618047061410554,1.1416625105550913,0.0,0.0,0.0,0.0
0.026117123060173178,0.10727026046317532,0.6845266641531357,0.0022073080648218127,-0.38959371648744123,0.007729907358809061,0.9209517427079632,-0.02569771353432261,-0.5701318061194031,-0.571590854061761,-0.08871099972350152,-0.37962121488452394,-0.7003702549645637,-0.08209187028398217,0.06047133859383484,1.1019803451829957,-0.04579252976538914,-0.02708665821023936,1.1314878539761097,0.0,0.0,0.0,0.0
0.02396288549536101,0.10569823625161306,0.6837344847816282,0.002360415150040095,-0.38955361773808733,0.0077914513272120895,0.9209678065131828,-0.0193330933585788,-0.5616702217238655,-0.5655242767776805,-0.08387220995158107,-0.39362421309105816,-0.68121683902986,-0.07721817249165164,0.053852827776347714,1.1013367719017335,-0.03617010827108522,-0.02169964554070511,1.1210821655003205,0.0,0.0,0.0,0.0
0.021540851514711863,0.10410896258909139,0.6830329663409934,0.002517767052972163,-0.38951400670123365,0.007845392748524777,0.9209836856563962,-0.012653332205529399,-0.5522810059704787,-0.5599430096739085,-0.07891473468248573,-0.4097057517776275,-0.6578821124659621,-0.07232388932475113,0.04734280499669728,1.0993443021911635,-0.026531554177378402,-0.01618598347614048,1.1107492200700029,0.0,0.0,0.0,0.0
0.01896083547251414,0.1025582847476594,0.682406722118922,0.0026761941387217695,-0.3894767939110712,0.00788564953388201,0.9209986327466038,-0.005573396364184208,-0.5413011673001359,-0.5554820159454642,-0.07402019533447123,-0.4274533715685552,-0.6310626731285669,-0.06761863925394399,0.04105082263564859,1.096411776596524,-0.016857577085551446,-0.010107758991168052,1.1010625741501965,0.0,0.0,0.0,0.0
0.01660751356244818,0.10105736874276161,0.6817755534737107,0.002837032118274229,-0.38933716076844366,0.007905196409419368,0.9210570201476429,0.002137421953007139,-0.5283287013276766,-0.5532847293806686,-0.06929062596541045,-0.44436715974212054,-0.6061896880054849,-0.06318774389714038,0.035153310658278376,1.0933739891191008,-0.006811819621447172,-0.0028540994965844608,1.0932667426241338,0.0,0.0,0.0,0.0
0.014761328700581812,0.0997326040089566,0.6812728092682823,0.0029669653369528396,-0.38918253146329274,0.007909698452003037,0.9211219197212228,0.010103979873641887,-0.5133343688124107,-0.5552386556198678,-0.06509973582386203,-0.4579374074855863,-0.5865851669357682,-0.05932450154397452,0.03071348674561679,1.090282694407018,0.0029013048169993245,0.0048715097004551075,1.0883621879163736,0.0,0.0,0.0,0.0
0.013703710098114986,0.09882152629973066,0.6810208285958254,0.0030123055713590892,-0.3890856340033317,0.007881237521297369,0.9211629505806793,0.01655910669134265,-0.4978446500901674,-0.5646269294466226,-0.06208043624928493,-0.4656803558705744,-0.5755405345514151,-0.056638943894909984,0.028575927387326547,1.087657300054967,0.01039664312549237,0.01051965760613374,1.0874248959453334,0.0,0.0,0.0,0.0
0.013708676958953826,0.09872817011505322,0.6809810774604989,0.0030986505248565338,-0.38910057780029833,0.00792292498284911,0.9211559943788646,0.01657481650923279,-0.4978424071787813,-0.5646365554620996,-0.062005551121155814,-0.4657957149250627,-0.5755186760481164,-0.056558234026376365,0.028567804385054716,1.0876182124595795,0.010389931690726332,0.010548645958819608,1.0874358633652088,0.0,0.0,0.0,0.0
0.013708676958953826,0.09872817011505322,0.6809810774604989,0.0030986505248565338,-0.38910057780029833,0.00792292498284911,0.9211559943788646,0.01657481650923279,-0.4978424071787813,-0.5646365554620996,-0.062005551121155814,-0.4657957149250627,-0.5755186760481164,-0.056558234026376365,0.028567804385054716,1.0876182124595795,0.010389931690726332,0.010548645958819608,1.0874358633652088,0.0,0.0,0.0,0.0
0.013538120191160083,0.09826184289484251,0.6805359080049637,0.0032696397968128895,-0.3889034992920689,0.007980345430237701,0.9212381297909878,0.01780317458801457,-0.5015608777228727,-0.5599346156537189,-0.06093791132308338,-0.467298032710503,-0.5764615138830462,-0.05552994497799383,0.026361367555293183,1.0888254978913097,0.011412773611713552,0.0072455466597153885,1.0916687558152343,0.0,0.0,0.0,0.0
0.013768639509567542,0.09757659779520123,0.6799795355151054,0.0033813443365523776,-0.3887663107784205,0.008020883077580303,0.9212952770685792,0.019883883406002317,-0.502706808947589,-0.5597950779107336,-0.05909921444679959,-0.4651941405701321,-0.5844484287795484,-0.05371679458940357,0.02447448187746655,1.0912389366476405,0.013296598771386933,0.0038232318243023506,1.0983788417404052,0.0,0.0,0.0,0.0
0.014532078953944975,0.09664418970728507,0.6794373002951813,0.003451871952226871,-0.3887607272776627,0.008060373055206353,0.92129702696404,0.02284587322425894,-0.49991252493422,-0.5657851908666136,-0.05643921558825472,-0.458218626904716,-0.6009261419509201,-0.05105187835154207,0.023868973599237227,1.0941591410969957,0.01613265784457272,0.0011855942400607325,1.1071105137645694,0.0,0.0,0.0,0.0
0.015969680117437077,0.0953190112927824,0.6792650116968814,0.0034992711265843662,-0.38901662567065304,0.008111993764099873,0.921188371404336,0.027096366488897797,-0.4915568038637345,-0.5784707618471335,-0.05247385480395677,-0.44445833463117085,-0.6274540241630547,-0.047076628244264604,0.0268786242965841,1.094831058522019,0.020384222939280952,0.001367961305112385,1.1160896717546775,0.0,0.0,0.0,0.0
0.01840851717993617,0.09318907207982477,0.6806497789662793,0.0035332487422437353,-0.3900476861345458,0.008241981539635249,0.9207509915469614,0.03359936009735828,-0.473222773923676,-0.5977137357508784,-0.04591340461887235,-0.4182726550494784,-0.6671012578591131,-0.04031596973888927,0.04095808027144404,1.0844169255091116,0.027530012395075493,0.011011601829351136,1.1194050523192274,0.0,0.0,0.0,0.0
0.02068286335242182,0.0908462892561954,0.6812723641446493,0.003929231182171626,-0.38968260907795177,0.008167057969179558,0.9209046229054588,0.04168857848697809,-0.4590715948338458,-0.6185716428650997,-0.03536930345040726,-0.45630851163711533,-0.6208465594378946,-0.028022649727663683,0.032135887806833255,1.088339777700188,0.03381987071278273,0.015037213449912695,1.123251726491166,0.0,0.0,0.0,0.0
0.02351223492194422,0.08854926393942071,0.6820324371406565,0.004239017713459086,-0.38935601675213943,0.00818325249591927,0.9210412354104026,0.049415904138155005,-0.44081225624795634,-0.6464279893558388,-0.024457945383783753,-0.48537217125088133,-0.5967317365896962,-0.014601212318839828,0.023053278657590395,1.0948673673067983,0.04053204997797515,0.021003117235906872,1.1267203889620514,0.0,0.0,0.0,0.0
0.026263228226321624,0.08631696611532927,0.6829143480562468,0.004508732381623015,-0.3892113651691285,0.008228996330222274,0.9211006829738492,0.056834492353669795,-0.4235928090456456,-0.6709318596184691,-0.014603597611326007,-0.5067250557115236,-0.5860088759068715,-0.001914588791208944,0.015144354898891276,1.1030633913564973,0.04730983827059423,0.02789653552918539,1.1293139649702943,0.0,0.0,0.0,0.0
0.028747550796473377,0.08420732860293881,0.6838947439413603,0.004748095999388119,-0.3891866950272667,0.008285234478644654,0.9211094000648173,0.06376300289062269,-0.40833873237416346,-0.6909174707311417,-0.006146635880027465,-0.5227310943339527,-0.5827486963608389,0.009733543487549628,0.008291234106494152,1.112155487423858,0.05385703243082919,0.035227778779209955,1.130550925211894,0.0,0.0,0.0,0.0
0.030872132839217727,0.082246631721928,0.6849277136927944,0.004962062791269164,-0.3892235720099981,0.008348063076441675,0.9210921228452152,0.07009472827739958,-0.39546059549393947,-0.706235082528693,0.0012915197002869843,-0.5353066312228751,-0.5836302070578839,0.02053340152838922,0.002031388413739954,1.1215731540147413,0.0600188579318654,0.042508119892354125,1.130452025125628,0.0,0.0,0.0,0.0
0.03261442590884435,0.08045391753268344,0.6859806423947354,0.005153976584701884,-0.38928631486070686,0.008417326364158723,0.9210639229740866,0.07575437809041792,-0.3849538146231574,-0.7173055560511152,0.00811326928067901,-0.5458108178076228,-0.5867602718089138,0.030706698541874584,-0.004025478966585866,1.1309902377841332,0.06568589472041327,0.049456781195036416,1.1291495390978303,0.0,0.0,0.0,0.0
0.033995996020830595,0.07884489732908981,0.6870353923532028,0.00532588719378054,-0.3893559341303426,0.008493295078970236,0.9210328199482302,0.08069138376748841,-0.3765708501230419,-0.7248242770619825,0.01455348735964724,-0.5551523236318094,-0.5910386142332089,0.040397479475951126,-0.010135721925651865,1.1402649287742543,0.07077732826828599,0.05597240730190009,1.126776272441534,0.0,0.0,0.0,0.0
0.03506135245267025,0.07743091604724178,0.6880819652120189,0.005479147603942781,-0.38942373755848636,0.00857563514118583,0.9210024918801462,0.08488176367454449,-0.369958733684809,-0.7295650753562793,0.020695868499262235,-0.5639171168875282,-0.5958215347544852,0.049678796241966694,-0.016445619052050064,1.1493672013739542,0.07523979948519359,0.062058832772722776,1.1234585225471847,0.0,0.0,0.0,0.0
0.03586316032575507,0.07621831529062663,0.6891128698224467,0.005614889850276593,-0.3894867174704738,0.008663420495871692,0.9209742206334314,0.08832580710564587,-0.364748127291806,-0.7322671574195826,0.026537074270624943,-0.5724758835219919,-0.6007381112280248,0.05858541676023805,-0.023027807216983102,1.1583243210317804,0.07904579377383363,0.06776230106487595,1.119328945071597,0.0,0.0,0.0,0.0
0.03645298904128675,0.07520916369982113,0.6901193976714513,0.0057342586300691755,-0.3895445097837982,0.008755439160685913,0.9209481719729766,0.09104134993814461,-0.3606043748055643,-0.7335795419240779,0.03203957038242848,-0.5810610151560993,-0.6055854106966011,0.06714162227596977,-0.029907527363396403,1.1671859187392042,0.08218834737662405,0.07312925720721421,1.1145373693262328,0.0,0.0,0.0,0.0
0.03687614153162822,0.07440296304855315,0.6910890368898065,0.005838429029658207,-0.38959741046251006,0.008850437641495146,0.9209242315526973,0.09305535521666532,-0.3572540304463129,-0.7340413153768601,0.037162104254954476,-0.5898117050230574,-0.6102643457555998,0.07537570249036675,-0.03707416915304617,1.1760014138458144,0.08467321512598314,0.07817929917470838,1.109259366806857,0.0,0.0,0.0,0.0
0.03716910113196171,0.07379876526113761,0.6920031810747473,0.005928466100397969,-0.38964505336965494,0.008947180706568655,0.9209025646786196,0.0943959954986813,-0.35449781342275744,-0.7340814538653107,0.0418731950072447,-0.5987857761532611,-0.6147340690805203,0.08331794412251416,-0.044478852585653726,1.1848002310334222,0.08651032033758047,0.08288619151784234,1.1037063540375864,0.0,0.0,0.0,0.0
0.03735832559986441,0.07339731609057777,0.6928348581415472,0.0060050505166653195,-0.38968560992926476,0.00904428124730453,0.9208839588998544,0.09508626755243538,-0.3522175470527742,-0.7340255260612315,0.046154167963313,-0.607934654344258,-0.6189698992771699,0.09097640918068793,-0.05201883562647294,1.1935631259055186,0.08770567925404515,0.08716279710052692,1.0981381298734003,0.0,0.0,0.0,0.0
0.037459386827104466,0.07320303500012837,0.6935470540862279,0.00606806733292139,-0.38971568183052013,0.009139730998927804,0.9208698774590703,0.0951393348038934,-0.35038106072923947,-0.7340985348080399,0.04999320759594117,-0.6170382794190202,-0.6229136409889315,0.09828134352061138,-0.05950714447779666,1.2021688251486873,0.08825410439063423,0.09085080374157603,1.092872732745713,0.0,0.0,0.0,0.0
0.037475915877632146,0.07322568275267903,0.6940932929067071,0.006116086432892668,-0.3897314257690962,0.00923001455223722,0.9208619962220714,0.09455556799290858,-0.34904412593341977,-0.7344155753689975,0.053365389717358006,-0.6256060306416227,-0.6264107255592652,0.10499342910202866,-0.06662055990888942,1.2102940865062708,0.08813249037650392,0.09372299664113827,1.0882805789387446,0.0,0.0,0.0,0.0
0.037398806225426275,0.07348126929115699,0.6944233289555146,0.006145952253010322,-0.38973184794329835,0.009308726362376063,0.9208608263918691,0.093321935261,-0.3483403537630444,-0.7349587674464068,0.056192018007613656,-0.6327786969692135,-0.629141400986466,0.11059857969924522,-0.07280909280733026,1.2172383919352208,0.08729407061184821,0.09551422256640105,1.084742345409141,0.0,0.0,0.0,0.0
0.03720808616312205,0.07399069425585815,0.6944973033705051,0.006153255710802591,-0.38972533463354064,0.009364939537478403,0.9208629642332194,0.09141687968445225,-0.3484383583222143,-0.7355548187029062,0.058293338985746415,-0.6373334291752829,-0.6305818696212986,0.11428777304969899,-0.07713764868788212,1.221641250960723,0.08566706684611337,0.09600276675052792,1.0825515777456902,0.0,0.0,0.0,0.0
0.0368822629365388,0.0747722912971133,0.6943077374222094,0.006135524352140585,-0.3897370313831674,0.009382599822376946,0.9208579524172734,0.08882998099950065,-0.3494445636740727,-0.735900191874806,0.059431152091622017,-0.6380255817734589,-0.6301140358468268,0.11526241615386965,-0.07810356741071982,1.2211796594626236,0.08316808997434717,0.09514198528581298,1.0817762508280024,0.0,0.0,0.0,0.0
0.036406744663403705,0.07583311579750475,0.6938564071235754,0.006092556635075039,-0.3897677004477003,0.009360607951314133,0.9208454807730458,0.08553320561375935,-0.35144898370453415,-0.7358286488880859,0.05958421637820021,-0.6348619799922993,-0.6277119063187984,0.11349361881113214,-0.07570656632819206,1.2158600287965156,0.07976868435601842,0.09292537208872988,1.0823463708381176,0.0,0.0,0.0,0.0
0.035774735162920096,0.07716922733401158,0.6931538595793529,0.006026798187961052,-0.3897946690329204,0.00931295636966117,0.9208349811669703,0.08147837514302778,-0.35451958600522415,-0.7353184674981248,0.05896285189325512,-0.629090696711784,-0.6239611194049732,0.10972741359830115,-0.07145296232112258,1.208000187007223,0.07549523038431868,0.08938735540656496,1.0840635815512563,0.0,0.0,0.0,0.0
0.034978971884599704,0.07877374715882542,0.6922418659117368,0.0059427112957478,-0.38981225425226035,0.00924906392910646,0.9208287275241047,0.07662875094346257,-0.3586583606864376,-0.7342262654807162,0.0577327232162288,-0.6219369089430554,-0.619358700202357,0.104728453818338,-0.06629541026794503,1.1989395398644718,0.07036812460198526,0.08473557679234235,1.0865178775798117,0.0,0.0,0.0,0.0
0.03400271075819343,0.08064300051089249,0.6911718037290363,0.005843240635310084,-0.3898233908317315,0.009174289938023581,0.920825397620777,0.07094736580481778,-0.36389827365405253,-0.7322608416185514,0.055963243235299436,-0.6142693296147049,-0.614195465849652,0.09897447057694715,-0.060808823234567815,1.1893465701493784,0.06439472835302015,0.07922123778254864,1.0892205041394285,0.0,0.0,0.0,0.0
0.03281929884525486,0.08277641180288996,0.6899917059402227,0.005729323844765403,-0.3898329239757792,0.009091370950074324,0.9208229000231392,0.06439918008854309,-0.37033911773197875,-0.7290089278613231,0.05367426864306394,-0.6065968407054385,-0.608601973030616,0.09267934094374287,-0.05533826206337272,1.1795036032484112,0.057576580311705795,0.07306686507130096,1.0916932907203436,0.0,0.0,0.0,0.0
0.03139524347680281,0.08517387964794917,0.6887421794471247,0.00560041561451571,-0.38984438494887685,0.009001732217142053,0.9208197215991127,0.05695843067577254,-0.378147274474462,-0.7239652200410691,0.05087889549433985,-0.599168147225848,-0.602624961322548,0.08590498267752356,-0.05008138214431404,1.1694834854290088,0.04992157122103602,0.06644847102291034,1.0935019262749468,0.0,0.0,0.0,0.0
0.029694200589005557,0.08783205327814911,0.6874576007186635,0.005455120630714559,-0.3898586938256536,0.008906473626556086,0.9208154620959614,0.0486189844067537,-0.38754159619236067,-0.7165534218561701,0.04760423127647267,-0.5920742722452493,-0.5962935612202662,0.07866446845891924,-0.04513487850166206,1.1592517178809418,0.04145811567779825,0.059507924496901184,1.0942535417273263,0.0,0.0,0.0,0.0
0.027681462405573877,0.09073994024250369,0.6861695675865566,0.005291687250909908,-0.389873617054465,0.00880713984354171,0.9208110528543211,0.03940717002222458,-0.3987741283163363,-0.7061430195707966,0.043895620832861186,-0.5853163547671728,-0.5896655886718525,0.07099451702998806,-0.04052063542150663,1.1487251587899336,0.03225072910025845,0.05237761540076926,1.0935812725885705,0.0,0.0,0.0,0.0
0.025329582342645915,0.09387399296603399,0.6849105340011837,0.005108388363386409,-0.38988340969371554,0.008706397425649473,0.9208088997494528,0.02939664081928066,-0.4121057800068223,-0.6920744773327551,0.03980998037236204,-0.5788270680463896,-0.58285404416801,0.06300059145025969,-0.03619761788809375,1.1378119898540284,0.022416398851614824,0.0452065777343007,1.0911339983438155,0.0,0.0,0.0,0.0
0.022626278851780788,0.09719276267459633,0.6837158205717437,0.0049038790912068215,-0.3898785726952835,0.008608663164803161,0.9208129785366094,0.018724498198379343,-0.4277722660999229,-0.6737106131694879,0.03539975114304115,-0.5724419211126714,-0.5760353436586451,0.05487680636901199,-0.03206018502498763,1.1264511719736214,0.012140531511389335,0.03817944684985556,1.086589477060437,0.0,0.0,0.0,0.0
0.019586227146625813,0.10063085647458293,0.6826208684283539,0.004677631774186678,-0.38984590199575875,0.008520575118391806,0.9208288072479869,0.007608897398984746,-0.4459330821270407,-0.6505402809337135,0.030690609049033816,-0.565822448081016,-0.5694454580814263,0.04689196885229609,-0.027919279068877617,1.1146620288580302,0.001691431204019966,0.03151208662989541,1.079723408254625,0.0,0.0,0.0,0.0
0.016268938661295786,0.10409006784818754,0.6816453344953189,0.004430896540808887,-0.3897669337261155,0.00844830565209226,0.9208641217145965,-0.003614266779781645,-0.46659871415716614,-0.6223789433059671,0.02569295983469302,-0.5583611809194473,-0.5634120739626011,0.039320796229858665,-0.023464190148244128,1.1026013587709016,-0.0085697810359741,0.025372527303846523,1.0706087186433042,0.0,0.0,0.0,0.0
0.012799218631647645,0.1074265357055358,0.6807480657482432,0.004165883051022038,-0.3895964445406876,0.00840560062257962,0.9209378924215432,-0.014494983903024158,-0.4895883882352283,-0.5897799653539202,0.020812077850701452,-0.5493351119516912,-0.5584668998295592,0.032343705826801634,-0.01828589234437042,1.09060621181317,-0.01814810482681159,0.019623297188637437,1.0600342170639423,0.0,0.0,0.0,0.0
0.009658973991992469,0.11049373313603483,0.6798575300807743,0.003916013962458257,-0.3892814664839814,0.008353532900130401,0.9210726481525836,-0.024384714809587173,-0.5118116429642698,-0.558705950625864,0.01633380799874981,-0.5383776442426761,-0.5550294187147873,0.02585085020326655,-0.0119605855792837,1.0797779894792539,-0.02677347482269156,0.014375427823858103,1.0496684477676583,0.0,0.0,0.0,0.0
0.0070982385481094,0.11300472949728493,0.6791098363876708,0.0037071473799240107,-0.3888882194318361,0.008309638607093814,0.9212400120227405,-0.03246004593384613,-0.5310822208585645,-0.5319529935538038,0.013151904132232035,-0.5260866170680023,-0.5543327073096216,0.020393729693111054,-0.005480788317118828,1.070572204555923,-0.033673955935315046,0.010251341994046108,1.0402963184423553,0.0,0.0,0.0,0.0
0.00551896039182158,0.11453687435800794,0.6785609041091766,0.003599023150475636,-0.38852835824123394,0.008279844430076086,0.9213925363551343,-0.03739277200646889,-0.5440238870602757,-0.5143710657808986,0.012194706624667484,-0.5152586973767032,-0.5582651037332808,0.016843791804783348,-0.00082886518686906,1.0639173011177567,-0.037849049901344786,0.0073720334830127895,1.034490464479243,0.0,0.0,0.0,0.0
0.00556060889036206,0.1146611720676898,0.6784839553239858,0.0035085774479740534,-0.3885466867662407,0.008220879628755187,0.9213856842958859,-0.03751335546046902,-0.5441933678581199,-0.5143299370382032,0.012187146214657205,-0.5152680532167752,-0.5582892283839037,0.016869123190118556,-0.0007940667715342907,1.0639214451172692,-0.03798615152846402,0.007419040750647264,1.0344427068535051,0.0,0.0,0.0,0.0
0.00556060889036206,0.1146611720676898,0.6784839553239858,0.0035085774479740534,-0.3885466867662407,0.008220879628755187,0.9213856842958859,-0.03751335546046902,-0.5441933678581199,-0.5143299370382032,0.012187146214657205,-0.5152680532167752,-0.5582892283839037,0.016869123190118556,-0.0007940667715342907,1.0639214451172692,-0.03798615152846402,0.007419040750647264,1.0344427068535051,0.0,0.0,0.0,0.0
