zhuoxili-jackie/tripod-support-walk/examples/trajectory_walking_sideways_sc_v0.15.csv
root_pos_x,root_pos_y,root_pos_z,root_rot_x,root_rot_y,root_rot_z,root_rot_w,FL_hip_joint,FL_thigh_joint,FL_calf_joint,FR_hip_joint,FR_thigh_joint,FR_calf_joint,RL_hip_joint,RL_thigh_joint,RL_calf_joint,RR_hip_joint,RR_thigh_joint,RR_calf_joint,FL_foot_joint,FR_foot_joint,RL_foot_joint,RR_foot_joint
0.0,0.0,0.72963,0.0,-0.5231245161092812,0.0,0.852256264656019,0.0,-0.81,0.872,0.0,-0.81,0.872,0.0,0.65,1.0,0.0,0.65,1.0,0.0,0.0,0.0,0.0
0.0004503820581845697,-7.288012653176962e-05,0.7295656366184998,-0.00021431431365344922,-0.5231973779895528,0.00019455338552427072,0.8522114877676856,-0.00020727303789903743,-0.8126171109233384,0.8765420150524085,-0.00020727303789903716,-0.8117316174442533,0.8760445522009065,0.0030702653871419114,0.6503805477717759,0.9998466729475503,0.003070265387141909,0.6520398023269645,1.0008342130119805,0.0,0.0,0.0,0.0
0.0013707044462276077,-8.322147668698713e-05,0.729458694873493,-0.0003265712830460049,-0.5233705950539027,0.00029991349316020876,0.8521050543424897,-0.0003964935115598472,-0.8171113604598984,0.885322787228993,-0.0003960095655417804,-0.8156199714873553,0.884354302606959,0.0045434594824818875,0.652600257589525,1.0001863416518713,0.004560927325592756,0.655150859109692,1.0015054623741084,0.0,0.0,0.0,0.0
0.0027808093620697192,1.3589565507724532e-05,0.7293205826212393,-0.0003622763778364948,-0.5236525312842459,0.0003332216056379371,0.8519317955087657,-0.000711508958160917,-0.823606117859348,0.8985806398755447,-0.0007105584324645093,-0.8214493158251324,0.8967241233546925,0.00438881837936641,0.6567610825239322,1.0010099018297034,0.004411772640736788,0.6595437127556267,1.0017430422185152,0.0,0.0,0.0,0.0
0.0047027686893946884,0.00022795850312416733,0.7291732832778345,-0.00032460050599707164,-0.524057710840007,0.00029751355930222173,0.8516826414981845,-0.0011874373725269303,-0.8319879386686369,0.9162737259285999,-0.0011860624333846592,-0.8290517942864258,0.9130429867069545,0.002513839054030908,0.6631282425863648,1.0020928128059017,0.002524629169450357,0.6654471869163817,1.0012594106711543,0.0,0.0,0.0,0.0
0.007154172934542998,0.0005320888265145037,0.7290571612865256,-0.00018768727613743688,-0.5246216428146069,0.00016690364502212348,0.8513354619697,-0.0017029073222606462,-0.8417291039956225,0.9379038739988855,-0.0017012172036074483,-0.8382039467584054,0.9331769539074307,-0.0013557224499840463,0.6722355594984114,1.0029611317903069,-0.001358040907830687,0.6731182630467384,0.9997087488573221,0.0,0.0,0.0,0.0
0.010131530010279506,0.0008404943261820168,0.729027665023845,9.956540761230892e-05,-0.5253959785385129,-0.00013712136990994773,0.8508578242103777,-0.0018592610733287752,-0.851798067918101,0.9623628761254119,-0.001857848703566291,-0.848663349783537,0.956940230959246,-0.007716514181161871,0.684864542909647,1.002879397525236,-0.0076810817101495505,0.6827096607926217,0.9967610751357174,0.0,0.0,0.0,0.0
0.01266830573027325,0.0010872192644063923,0.7287931640179023,-0.00010459171406871,-0.5253001573920734,-5.372562654824326e-05,0.8509169940822625,-0.006283187407019957,-0.8540285076631792,0.9365440046307876,-0.0026080773964443494,-0.8611287872093294,0.9799862851156995,-0.007981326283817456,0.691217250049733,1.0024124827452454,-0.007881578532274922,0.6895560607512295,0.994847836719707,0.0,0.0,0.0,0.0
0.01500568101835686,0.0014232240790326795,0.7284511326097701,-0.0002358014223575743,-0.5253656330016906,-3.145971138511943e-05,0.8508765451396041,-0.013907775324880543,-0.8657458602945882,0.9168872224857918,-0.003480531232114488,-0.8717477599353174,0.9997609011802124,-0.00976704282585594,0.6972648198689453,1.0037524428617788,-0.009598357473914113,0.6954339573416274,0.9939770153206429,0.0,0.0,0.0,0.0
0.017004595491561764,0.0017563217649853833,0.7281330282344939,-0.000308102463863018,-0.5255820400653959,-5.4936195589223715e-05,0.850742864334214,-0.021975031727453413,-0.8823554337408203,0.9031454173671677,-0.004264972802686836,-0.8798285039530719,1.015457324855461,-0.012317225666673991,0.7030903763494902,1.0055152918020578,-0.012060022540256335,0.700598612228756,0.9934379268892217,0.0,0.0,0.0,0.0
0.01858030736184406,0.0020148934588367917,0.7278730435091226,-0.000358662042872567,-0.5258406126905381,-8.574596027602748e-05,0.8505830435968076,-0.029496821162387242,-0.9010673558687567,0.8927786425677864,-0.004849387112308332,-0.8856661880709664,1.0272390718656952,-0.01455220723859095,0.7080342028621859,1.0070460276316975,-0.014198029900526606,0.7048465045234679,0.9931606248725118,0.0,0.0,0.0,0.0
0.01972101995107421,0.00216000084416807,0.7276820444492171,-0.0003935556998044341,-0.5260889759565527,-0.00012014508268621716,0.8504294327315206,-0.036387265071753674,-0.9204557008900629,0.883965405866371,-0.0051322361771687615,-0.8896217774076818,1.0355286659449554,-0.016020873214223744,0.7118408884657133,1.008092965229782,-0.01558633592697481,0.7080872622218053,0.9931688499613451,0.0,0.0,0.0,0.0
0.02045592774420792,0.0021716022597269872,0.7275618349782778,-0.00040428064287612183,-0.5263109576230992,-0.00017080208733130935,0.8502920576305915,-0.04288978441147764,-0.9396617307323867,0.8756582056690587,-0.005027504248805988,-0.8920321270956423,1.0408332784316434,-0.016654215677115107,0.7145448559453169,1.0085679901900562,-0.016173621344916345,0.7103358891654176,0.9934812341566228,0.0,0.0,0.0,0.0
0.020823106998255403,0.002036575133429238,0.7275102697729605,-0.00038106976906631486,-0.5265015250604713,-0.0002515066831388308,0.8501740619656761,-0.04928889240386581,-0.9577852454580079,0.8674962139340824,-0.004467391487351988,-0.8931852543825344,1.043615553323884,-0.016491562742867373,0.7162608895047325,1.0084278808529255,-0.016005327994949626,0.7116391702227817,0.9941119313337913,0.0,0.0,0.0,0.0
0.02084502733321449,0.001739253182875704,0.7275261051763289,-0.0003192008110924167,-0.5266527947674753,-0.00036928703904409634,0.8500803464976311,-0.05576251255300234,-0.973461181425152,0.8598253804489401,-0.0033948915577475926,-0.8932832879410604,1.0441809407116371,-0.015485029418378097,0.7170371847858078,1.0076031517481696,-0.015035485011752118,0.712024459129298,0.995082731252467,0.0,0.0,0.0,0.0
0.02051503762658569,0.0012549191430659397,0.727614102620959,-0.0002206328261535684,-0.526748613482467,-0.0005222748073280485,0.8500209272391358,-0.062274321933214014,-0.9846942949615334,0.8537841594904817,-0.001751180605980428,-0.8924109065987397,1.042611001234752,-0.013405141218503388,0.7167961839527909,1.0059424960140397,-0.01303661987848195,0.7114808982556877,0.9964169541438482,0.0,0.0,0.0,0.0
0.019802602170575976,0.0005503550492623457,0.7277889145477832,-9.074341251937693e-05,-0.5267748338059114,-0.0007024220015544791,0.8500045722451847,-0.06852716397655792,-0.9891651198075166,0.8512717998359846,0.000528043677771364,-0.8904972702493302,1.0387594179695112,-0.009903751731299443,0.7154189995807206,1.003192135478402,-0.009653930144212754,0.7100065864244899,0.9981087388816083,0.0,0.0,0.0,0.0
0.018685655304542033,-0.00039891768735269455,0.7280732552596835,7.155253685331394e-05,-0.5267479585165015,-0.0009053865333172665,0.8500210370068247,-0.07416693161403008,-0.98538423049261,0.8542504596504015,0.0034867013301862287,-0.8872933001548234,1.0323485766738905,-0.004843022674859756,0.7130073406189112,0.999078735097025,-0.004711595816452037,0.7077158540684433,1.0000655955405646,0.0,0.0,0.0,0.0
0.017182041386339247,-0.0015752824921015517,0.7284553566458435,0.0002479094783108919,-0.5266440529745996,-0.0011162009429200362,0.8500851334441938,-0.07947645233530157,-0.9749897800858556,0.8609539244314081,0.007036526596121539,-0.8829143313329175,1.023487957400589,0.0017399826727705573,0.7095259783528547,0.9936197411201818,0.0018198490669634965,0.7045974496595672,1.0022325832452066,0.0,0.0,0.0,0.0
0.015336705636861432,-0.0029476436173802075,0.7289291521673013,0.00042782807692504787,-0.5264751562103659,-0.0013288829667849153,0.8501893676860868,-0.08488573097349858,-0.9605209659777713,0.8698582563803262,0.011072968831763893,-0.8773661659902086,1.012295144028085,0.009529649184776735,0.7052358965098414,0.9868456827392523,0.00970327422090823,0.7007950568781485,1.0044577672036092,0.0,0.0,0.0,0.0
0.013201484605696544,-0.004481491382269689,0.7294879123358335,0.000602445616558927,-0.5262701524891996,-0.0015415626566946511,0.8503158161782298,-0.09082385781878245,-0.9442923968900598,0.8803915551018405,0.015492979770578456,-0.8705911469244983,0.9988509554076052,0.01816101246089952,0.7004772637785291,0.9788271371411416,0.018631690434777675,0.6965009393869994,1.0066006599792534,0.0,0.0,0.0,0.0
0.010842623180995138,-0.006129261463335392,0.730091897869965,0.0007714606580082062,-0.5260821432555843,-0.0017647433560762007,0.8504315781278062,-0.09776947393462324,-0.9281829236980763,0.8931138562791762,0.020189387841175403,-0.8625660659296678,0.983258230395208,0.027088464971559045,0.6955731633191404,0.9700366080146695,0.028076657335963272,0.6918119664158385,1.0088000067886007,0.0,0.0,0.0,0.0
0.008374913907908916,-0.007784892874521126,0.7306107886992482,0.0009660346012395629,-0.5260292918314682,-0.002040632957824473,0.8504634540822814,-0.10628303504119109,-0.9139462177680325,0.909902530039828,0.024974258751728567,-0.8533760569015585,0.9657211446628562,0.03506736832623854,0.6908217842350002,0.9621508009334151,0.036715266125922574,0.6865679814542005,1.0118775413840742,0.0,0.0,0.0,0.0
0.006077792360373567,-0.009144512732738648,0.7308754330357551,0.0012556367449097629,-0.526356597370032,-0.0024154330506863005,0.850259561230913,-0.11710228547983992,-0.9037326068475393,0.9343973279230374,0.029143453334595247,-0.8429417724736082,0.9467879500734744,0.03952833686123292,0.687134395921489,0.9581474786657525,0.04169560249854818,0.6811161306294629,1.0164791330246283,0.0,0.0,0.0,0.0
0.004486980039810051,-0.010058854179824222,0.7308735090630449,0.001796481262920951,-0.5272412733214987,-0.00297824406724655,0.8497085043846934,-0.12903939511491178,-0.900341591903751,0.971426921997962,0.032487372435183536,-0.8329463704974442,0.930421860905459,0.03845718959863572,0.6867391189660926,0.9588135846046592,0.040686590615804985,0.6770343839119787,1.0220258137550637,0.0,0.0,0.0,0.0
0.003971856196498571,-0.010400204454599285,0.730772984782249,0.0026451731096075607,-0.5286663237190942,-0.0036056761048684394,0.8488179547608455,-0.1401289924430513,-0.9087269346639183,1.0239798705275696,0.034343176963913015,-0.8246465509682643,0.9199395713996957,0.03157964647384947,0.6912074442830268,0.9626744058143222,0.03340072867505346,0.6763190349121154,1.0264315076120545,0.0,0.0,0.0,0.0
0.003972798341963952,-0.010436689197693893,0.7307659196192651,0.0026681405837056353,-0.5286625243559853,-0.0036029353140701647,0.8488202608470803,-0.1401365077622192,-0.9087453826091784,1.023988794984169,0.03438500386144921,-0.8246515119654821,0.9198704934259443,0.03154076235636843,0.6912673265353574,0.9625429053897662,0.03343289771238875,0.6762596390703749,1.0265368313818974,0.0,0.0,0.0,0.0
0.003972798341963952,-0.010436689197693893,0.7307659196192651,0.0026681405837056353,-0.5286625243559853,-0.0036029353140701647,0.8488202608470803,-0.1401365077622192,-0.9087453826091784,1.023988794984169,0.03438500386144921,-0.8246515119654821,0.9198704934259443,0.03154076235636843,0.6912673265353574,0.9625429053897662,0.03343289771238875,0.6762596390703749,1.0265368313818974,0.0,0.0,0.0,0.0
0.004638431007692847,-0.010917302558551991,0.7325659147312327,0.002024646042338407,-0.5276197960945316,-0.0028076583532181992,0.8494735832456121,-0.14103590362855228,-0.9133442418830146,1.0335543465972001,0.03388141071489742,-0.8276089041047549,0.9298151615372898,0.016724818629199098,0.6694094496324081,1.0004341666711656,0.04670576658744252,0.6872755784770673,1.0101904896212888,0.0,0.0,0.0,0.0
0.005467388827009692,-0.011837388246194049,0.7349429039583923,0.0017577959189771254,-0.5271070263613751,-0.002434278510195623,0.8497936027072165,-0.13960295864913644,-0.9122308990348234,1.0394870545929076,0.03536144725119933,-0.8282480343249901,0.939658195769048,0.004848068725543185,0.6526808680600807,1.0326528181929613,0.05769992224667092,0.7016951436684662,0.9899489713963012,0.0,0.0,0.0,0.0
0.006289350510986875,-0.013129477914463117,0.7373209162307837,0.0017396704106671386,-0.5268316207996203,-0.0023709312726757086,0.8499645848842219,-0.1363789770961716,-0.9084475983204738,1.0427328790364512,0.03846632154512484,-0.8287774069796218,0.9496318710402615,-0.0025752267321953407,0.6396402511809575,1.0607546641891714,0.06768925189784405,0.7160598320752063,0.9704501994065732,0.0,0.0,0.0,0.0
0.007080435657249832,-0.01468540543507087,0.7395284583070715,0.0018615331641350869,-0.5266415722913849,-0.002506265824299102,0.8500817064614171,-0.13198483694905264,-0.9037014789152057,1.0444565227198337,0.04269390057570527,-0.8299982427514547,0.9599968816729892,-0.007476892158902548,0.6293709907665699,1.0866331673369107,0.07737340835243783,0.7293977498895112,0.9529078731445263,0.0,0.0,0.0,0.0
0.007821700843971043,-0.016376472127003352,0.7415358322766141,0.0020541982532629242,-0.5264783178983954,-0.0027322194377840513,0.850181684129549,-0.12704546357565813,-0.898709585522159,1.0452288966812924,0.04746910332957735,-0.8317643367761872,0.9703575037832765,-0.010859378404602,0.6210218400830956,1.1112608249238687,0.08700405694159463,0.7415755486579944,0.9373515118067556,0.0,0.0,0.0,0.0
0.008441484122893275,-0.018075865233935656,0.7433330299559462,0.002268520683288018,-0.5263287498453597,-0.002979790706903322,0.8502729101573643,-0.12203971994852922,-0.8935649205131265,1.044871568621709,0.05230907102387218,-0.8334525344125223,0.9796429105113745,-0.013575813131093455,0.6138555331113812,1.1349664441192149,0.0964163204906792,0.7523916913028306,0.9237123956505752,0.0,0.0,0.0,0.0
0.008905957318833726,-0.019681580575575053,0.7449124181682524,0.002478684329219717,-0.5262013032055678,-0.0032031878740856868,0.850350389084524,-0.11733366201503574,-0.8883426455753223,1.0433704459297128,0.056840733352584695,-0.8346391275332167,0.9872012904438834,-0.016069261605820367,0.6075429888632131,1.1574559147975338,0.1053262513887124,0.7617661333457858,0.9119425517899293,0.0,0.0,0.0,0.0
0.009178690935342276,-0.02115097615010595,0.7462452808396425,0.0026692813628155566,-0.5260905664357589,-0.003385258502138618,0.8504176214479461,-0.11306982602190048,-0.8831359698726684,1.040643114989187,0.06091530946955557,-0.8352170974397396,0.9927006321357095,-0.018813510428740066,0.6021043268497711,1.1776682517410504,0.11360917887375623,0.7694162863094769,0.90233707524175,0.0,0.0,0.0,0.0
0.009198732678133046,-0.022494316507882365,0.7472857662257628,0.0028249105323103012,-0.5259749183286644,-0.003515164330782823,0.8504881238379327,-0.10923340331134798,-0.8779839755654361,1.0363656999460444,0.06453822408795852,-0.8352196892916216,0.9958539530557486,-0.02244842926739903,0.5979209792471902,1.1933462438854976,0.12146977758072247,0.7748594243612927,0.8955273073828023,0.0,0.0,0.0,0.0
0.008883259743068209,-0.023770701916732816,0.7479764402594676,0.0029230573118256033,-0.5258089901615756,-0.0035795706651814896,0.8505901176683567,-0.10568569088805653,-0.8729233796373973,1.0300343600706456,0.06784116167054642,-0.8348204456990783,0.996432462603127,-0.02788247708029512,0.5961039832883345,1.200400539268241,0.12950941472222907,0.7774551861169751,0.8923918628082478,0.0,0.0,0.0,0.0
0.008171849344202581,-0.025064088815463986,0.7482930895415005,0.0029450097379986407,-0.5255412862110012,-0.0035727873119525294,0.8507554987163781,-0.1022100945680516,-0.8679466289424712,1.0212278569590647,0.07103868026780293,-0.8342585819442706,0.9944371677496597,-0.03603601688223361,0.5991728464818465,1.1927154394349029,0.13840129310015595,0.7767828866548696,0.8934595470485791,0.0,0.0,0.0,0.0
0.00703794984543792,-0.026382721352713523,0.7483012124753131,0.002904295268749566,-0.5251952078062002,-0.0034967496574049672,0.8509696419427825,-0.09877291536287545,-0.8625089310836839,1.0093907657559378,0.07413085623617016,-0.8330745730733702,0.9894068792872819,-0.046107630401636526,0.6042919698918822,1.1763960333451022,0.1479884574986021,0.7731258796426744,0.8981214841095222,0.0,0.0,0.0,0.0
0.005486565748362782,-0.027741278794340282,0.7480960213897824,0.0028104853242801086,-0.5247839700207896,-0.0033541543677339945,0.8512241982168613,-0.09533142268848634,-0.8561366431217038,0.9941959308985849,0.07713874675278173,-0.8308938890342141,0.9811436391310618,-0.057493657131298295,0.6100286153174779,1.1555946316885293,0.158165967454214,0.7670255683929276,0.9053623327439705,0.0,0.0,0.0,0.0
0.0035295568081389625,-0.029161565245834103,0.7477544923646917,0.002657524372253507,-0.5243021200568021,-0.003134899055855931,0.8515223995151643,-0.09185941512181377,-0.8485529618339781,0.9754642286291104,0.080082529132493,-0.8275005952764274,0.9695986332767309,-0.07020499206604212,0.6156921432099522,1.1328475744843134,0.1690616433874104,0.7589570911908559,0.9143202276916951,0.0,0.0,0.0,0.0
0.0012118561944464258,-0.030649503180131113,0.7473242242160122,0.0024275043872909545,-0.5237405593482303,-0.002818450135530001,0.8518697025102407,-0.08840454444235438,-0.8397919427728505,0.9534114606669837,0.08293060700778014,-0.8228893637685724,0.9550088542003369,-0.08508529717761192,0.6211129545351332,1.1099170300568113,0.18086101173232325,0.749365443343751,0.9243497821419367,0.0,0.0,0.0,0.0
-0.001323757176345565,-0.03217054519117587,0.7468105601485734,0.002090077227363639,-0.5230792696107401,-0.002376922653585483,0.8522781585370924,-0.08515510914971548,-0.8306757790398942,0.9294481962968613,0.08556259019516506,-0.8176522285840468,0.9385476751708252,-0.10430373378866553,0.6269657513559999,1.088503308845379,0.1936808698147768,0.7387670404644429,0.9350112848796492,0.0,0.0,0.0,0.0
-0.0037051872177577246,-0.03362713635702548,0.7461503215807486,0.0015795426659899485,-0.5221878801241813,-0.0017577843690881343,0.8528272000179707,-0.08256796854950968,-0.8243681859518418,0.9083757080221453,0.08773513561940077,-0.8143095777422323,0.9242402764874558,-0.1321884295931599,0.6354783958688571,1.0702255922625867,0.20770068949336618,0.72779078622745,0.9459775770254969,0.0,0.0,0.0,0.0
-0.005631968463203112,-0.03483883699346205,0.745393261051824,0.0008796002090673984,-0.5210877791911667,-0.0009389746578558373,0.853502121267242,-0.0811901040446563,-0.8226842713566734,0.8938621916062143,0.08899816351444066,-0.8138474729319775,0.9145023003261307,-0.17226553752793305,0.6469592370690815,1.0574128797280462,0.22216277865995285,0.7176601800769215,0.956065982685781,0.0,0.0,0.0,0.0
-0.0068857885338903715,-0.035609577488043775,0.7445971301774718,0.0002257034451584686,-0.5200213664437008,-0.0001298988596364395,0.8541532126183612,-0.08108182451542782,-0.8251767331889572,0.8871833106387265,0.0892542242245289,-0.8160493211452758,0.9101403346793627,-0.21678079855241478,0.6575954763244503,1.0527273932265366,0.23350833842316535,0.7092338121653626,0.9645616227870102,0.0,0.0,0.0,0.0
-0.006871482007979949,-0.03561980545969933,0.744571879107482,0.00019450847300925888,-0.5200235885197324,-0.00011624426628107128,0.8541518694218169,-0.08109725022308514,-0.8251912274886616,0.8871069977926931,0.08925689303976812,-0.8160622340376692,0.9101406450512902,-0.21677166883728466,0.6575874709253247,1.052718926601588,0.23349957894333512,0.7091950236686452,0.9645280947956753,0.0,0.0,0.0,0.0
-0.006871482007979949,-0.03561980545969933,0.744571879107482,0.00019450847300925888,-0.5200235885197324,-0.00011624426628107128,0.8541518694218169,-0.08109725022308514,-0.8251912274886616,0.8871069977926931,0.08925689303976812,-0.8160622340376692,0.9101406450512902,-0.21677166883728466,0.6575874709253247,1.052718926601588,0.23349957894333512,0.7091950236686452,0.9645280947956753,0.0,0.0,0.0,0.0
-0.007381227329103662,-0.03578932521364751,0.7446218874671684,0.0002834995064530177,-0.5205091855682592,-0.0001529751690723711,0.8538560089181869,-0.08044148273858921,-0.8186932555219252,0.8780789351006546,0.08951344169291175,-0.8106627091770576,0.9026057531309678,-0.21676642375607702,0.6578792846018915,1.0532334147436266,0.23414544320295644,0.7092504739800917,0.965835748476501,0.0,0.0,0.0,0.0
-0.007515137332305607,-0.03602450367689967,0.7445715894692976,0.0003601752336011293,-0.5208100876827825,-0.00021169559226650548,0.853672465308932,-0.07966405764928346,-0.8155746983668987,0.8739947713349119,0.09012831795828509,-0.8088176441541727,0.900285064058875,-0.21651867065867633,0.6583324220083423,1.0538402570302914,0.23547319658479748,0.7094626439788484,0.9676528378895011,0.0,0.0,0.0,0.0
-0.007180982748196652,-0.036283753702620006,0.7445164819853233,0.00042817973682491255,-0.5210418817454311,-0.0002782816244460532,0.8535309582485164,-0.07889543139131883,-0.8154518483408546,0.8752154308266749,0.09094082752253341,-0.8099428708073161,0.9032424825081832,-0.21660597576143728,0.6600716459812509,1.0539795198828108,0.23759172738836618,0.710986172186469,0.9691223133688399,0.0,0.0,0.0,0.0
-0.006340295805510508,-0.03656548388233271,0.7444754921523487,0.0004944603209925055,-0.5212406957314276,-0.000356371349494402,0.85340949468697,-0.07813019799043433,-0.8182299421993884,0.8818794287595746,0.0919534331824444,-0.8139481688843855,0.9115984179128019,-0.21725086310964245,0.6634618514007145,1.0535303511097571,0.24056887557879403,0.7141578459670296,0.9700835972483615,0.0,0.0,0.0,0.0
-0.0049816883182994195,-0.03689635440472432,0.7444635091320081,0.000569975702257218,-0.5214293027514637,-0.00046279908406388125,0.853294171535719,-0.07725616043903832,-0.8236264859661759,0.8937148802158726,0.09327210661058657,-0.8207058619980235,0.9252651159338439,-0.2185339229968019,0.6687469518946721,1.0523091532956015,0.2445224149511082,0.7191610643473528,0.970457991278996,0.0,0.0,0.0,0.0
-0.003116267027936268,-0.03731295889549423,0.7445151794755338,0.0006908294817753356,-0.5216614898052577,-0.0007366062983047456,0.8531519619739191,-0.07580616974546926,-0.8307484921997346,0.9097879596005455,0.09532897635769814,-0.8298392409303651,0.9437425561759929,-0.22159055195509636,0.6766409209571874,1.0500704085373176,0.24864012008707723,0.7260104754480382,0.9699940824841187,0.0,0.0,0.0,0.0
-0.0009742172953848315,-0.037512056125025166,0.7443634184638326,0.0007880640904210466,-0.5214249565386118,-0.0007663958945227068,0.853296435180078,-0.07570078263185755,-0.8433385327047555,0.9321048444873071,0.08291582425690978,-0.8301851282721973,0.9171727838751909,-0.2238457494500486,0.6825652483932066,1.0487360196964377,0.2525432763697508,0.7318002963356168,0.9696453390170899,0.0,0.0,0.0,0.0
0.0010546133910187242,-0.03788848948181923,0.7441260562878416,0.0008984936933481818,-0.5212602631571668,-0.0009131878612800288,0.8533967991798037,-0.07480243191947746,-0.8543674217976241,0.9517754491610062,0.06974975350003114,-0.8399948004898292,0.8969031772377576,-0.2258338924569898,0.6882278501602573,1.0479154078567035,0.25705680327204833,0.7369717084068422,0.9706793496488323,0.0,0.0,0.0,0.0
0.002779282402609737,-0.03840868828871886,0.7439337891230609,0.0010264942622101832,-0.5212028619790411,-0.001118137633188605,0.8534314692713291,-0.07329833466843567,-0.8624925953781316,0.9669505329816265,0.058142445691136115,-0.8545131173556206,0.8819709221270778,-0.22706496435100554,0.6935335732185579,1.0467330139860205,0.26201906919535456,0.7417175690492971,0.9720462863634137,0.0,0.0,0.0,0.0
0.004153359027833248,-0.0389991759115694,0.7437954918915484,0.0011606784490755025,-0.5212188205573729,-0.0013391910760841808,0.8534212327388982,-0.07148141860847831,-0.868000014688706,0.9778955895988453,0.04829115406706778,-0.8709470652544417,0.8701614164846486,-0.22749238703066071,0.6981356444674064,1.0452826525396544,0.26704609523334194,0.745833671501272,0.973494154193641,0.0,0.0,0.0,0.0
0.005214100376423448,-0.03960238190218519,0.7436971511988427,0.0012906035486036302,-0.5212745064641867,-0.0015524448893028254,0.8533866727151675,-0.06957769616921236,-0.8715536100359523,0.9855244032588857,0.03976589527868108,-0.8879703666544572,0.8599056434025802,-0.22726152004334974,0.7019228931020595,1.0437617443202576,0.2718705694711491,0.7492579820129172,0.9749460161883947,0.0,0.0,0.0,0.0
0.006032107393838586,-0.04018934974327925,0.7436244504653209,0.001411739682421404,-0.5213425747477338,-0.0017494787582651963,0.8533445178065814,-0.06770542803269436,-0.8738171034991247,0.9908348237755407,0.032109464438028375,-0.9048617216033967,0.850257864797312,-0.22654727198981925,0.7049625680842769,1.042274986596653,0.27636894596020817,0.7520496459422934,0.9763638841640628,0.0,0.0,0.0,0.0
0.0066775632259216495,-0.040754320887825296,0.7435642610630224,0.0015250872927849344,-0.5214014992891624,-0.0019315458627970543,0.8533079278773537,-0.06589620380308056,-0.8753238517622446,0.9946549511371482,0.025040466056695534,-0.9208593950248658,0.8408531169891622,-0.22548097944043916,0.7073712191041477,1.0408605492949412,0.28051748833359597,0.7542908061560205,0.9777548775543213,0.0,0.0,0.0,0.0
0.007198018791542103,-0.04130263655360755,0.7435032360023651,0.0016342839332878123,-0.5214348511572218,-0.0021036508046049034,0.853286938707,-0.06413735934923451,-0.8764263539933822,0.9975144894742823,0.01843975172774871,-0.9346954943795028,0.83196673152068,-0.22413343997606608,0.7092123394432962,1.0395550877797703,0.2843185213060531,0.7560046913722757,0.9791810647417818,0.0,0.0,0.0,0.0
0.007612092728918763,-0.0418398380169513,0.7434360271762958,0.0017431367109681888,-0.5214337036291649,-0.0022717179093001815,0.8532869936262475,-0.062405697279519334,-0.8772614187523325,0.9996151894962235,0.012226287051720875,-0.9443782653996737,0.8246677087928274,-0.22255005663641694,0.7105132897399586,1.0383631756860767,0.28773082656757293,0.7571754184337618,0.9806697063052802,0.0,0.0,0.0,0.0
0.007905546621681804,-0.04236264149710827,0.7433665358281281,0.0018535755533761252,-0.5213997485084255,-0.0024411231393068823,0.8533070417093939,-0.06069387496107252,-0.8777352530812845,1.0008138918565008,0.006232806485804062,-0.9474297333647108,0.8207703893548195,-0.22080113281311903,0.7112685458495563,1.037282736063723,0.2906146704048565,0.7577451488392064,0.9821925427524383,0.0,0.0,0.0,0.0
0.008067787414998572,-0.04285752514014669,0.7433244438161086,0.001962075079920214,-0.5213532640946605,-0.002612209422758091,0.8533346943850083,-0.059028737054276824,-0.8776140151254413,1.0009093731218641,0.0002803741630775366,-0.9422276372527706,0.8222568170819264,-0.21900316530910965,0.7116539082987723,1.0361381231941271,0.29287569028684096,0.7578689398867171,0.9834877132939839,0.0,0.0,0.0,0.0
0.00811755216811616,-0.04338330141793743,0.7432771271933941,0.002085025610471206,-0.5212687061923512,-0.0028031467998453634,0.8533854527590533,-0.05722647180249046,-0.8770866490444605,1.0000520118031972,-0.005345403212044681,-0.9304045621763265,0.8270424237352569,-0.21692262090004893,0.7115223403459258,1.035002839589601,0.29471115285880434,0.7573509404476845,0.9849347471362812,0.0,0.0,0.0,0.0
0.00808951543710748,-0.04398882849312433,0.7432242934912562,0.0022346272923051765,-0.52113954581195,-0.0030281898948483175,0.8534631862580481,-0.055134189261746305,-0.8762266588410869,0.9984224026348558,-0.010476094334903274,-0.914443506159378,0.8333230537495461,-0.21440516508352228,0.7109882045919459,1.0337031790061286,0.2963784784990277,0.7562858810650682,0.9866002229858203,0.0,0.0,0.0,0.0
0.007980127775044712,-0.04469783037748026,0.7431687483880055,0.002417948351363642,-0.5209677617469776,-0.003298347173085054,0.8535665560763497,-0.05266350614283418,-0.8749199634986934,0.9958764274066978,-0.01524404681442718,-0.8962548996772596,0.840003161284767,-0.21140600653313674,0.7100847970583605,1.032157925898121,0.29792885990676016,0.7546661928137132,0.9885141561104805,0.0,0.0,0.0,0.0
0.0077507048633717,-0.04549956106251154,0.743107904583244,0.0026356818668450323,-0.5207551401047031,-0.0036194553168809474,0.853694346226351,-0.04982253815556594,-0.8729811187630078,0.992062748624549,-0.020016485081718004,-0.8769600452316266,0.8466245552091206,-0.2080322378923702,0.7087084296556831,1.0304610607009537,0.2991308344770241,0.7523169461190811,0.9907078576463506,0.0,0.0,0.0,0.0
0.007376835490665015,-0.04634697645592541,0.7430466203090241,0.002886579842266676,-0.5204990606113247,-0.0039963876838258645,0.8538480101546313,-0.046718839693889895,-0.8703672375491371,0.98688142017787,-0.025237506272675764,-0.8572570892386907,0.8531176115014445,-0.20468078658408606,0.7068532222150061,1.0287180552225075,0.2994719045292958,0.7491015620249014,0.993025925285683,0.0,0.0,0.0,0.0
0.006873555277282851,-0.047134816501748646,0.7429686792959975,0.0031664258828142527,-0.520185845681294,-0.004427294662959692,0.8540357479414623,-0.04363510671903977,-0.8674871981758835,0.9808721597831773,-0.031200423436403443,-0.8380412222601041,0.8593652685355577,-0.2021888492118799,0.7045467563350689,1.0273268541423088,0.29811456957240273,0.7448633352624505,0.9953098132424575,0.0,0.0,0.0,0.0
0.006326505636386569,-0.04768021739964308,0.742788255367102,0.0034641159416647304,-0.519797289103654,-0.004889534319552746,0.8542686173536829,-0.04111546408099574,-0.8655475375943259,0.975638698486879,-0.03764000040098991,-0.8213652401561328,0.8648558229456841,-0.20191079669577527,0.7017240940241577,1.0274528810459955,0.29407597203579383,0.7393866307455573,0.9978050887360835,0.0,0.0,0.0,0.0
0.0058740319530259655,-0.04785936771687628,0.7425296043581057,0.003800320983980222,-0.5192355060041262,-0.005345079555862905,0.8546060361298645,-0.03961584628664528,-0.8660083753253904,0.9733875497333677,-0.04226454980280445,-0.8107488811686937,0.8676506356472795,-0.20455711083530648,0.6986262993132393,1.0288798051573642,0.2865127207569813,0.7328842571272419,0.9996567990962556,0.0,0.0,0.0,0.0
0.00587944805482988,-0.04787448673519717,0.7425250529593785,0.003820484282966516,-0.5192246192708146,-0.005351128461475134,0.8546125227652062,-0.039574018530893755,-0.8660239613209668,0.9733927773259247,-0.042275100455597056,-0.8107334741544768,0.8676636455822556,-0.20459447811427645,0.6986240920567415,1.0288363329378694,0.28654900989813004,0.7328577672108016,0.9996805082188347,0.0,0.0,0.0,0.0
0.00587944805482988,-0.04787448673519717,0.7425250529593785,0.003820484282966516,-0.5192246192708146,-0.005351128461475134,0.8546125227652062,-0.039574018530893755,-0.8660239613209668,0.9733927773259247,-0.042275100455597056,-0.8107334741544768,0.8676636455822556,-0.20459447811427645,0.6986240920567415,1.0288363329378694,0.28654900989813004,0.7328577672108016,0.9996805082188347,0.0,0.0,0.0,0.0
0.007265851214143846,-0.04896604918388797,0.7441932221476558,0.002399217991154347,-0.5206408870765787,-0.0035111978879727138,0.853765179628764,-0.04089594529604327,-0.8613023123653548,0.9763651680829653,-0.043595450966668135,-0.8018693169679836,0.8713769970499915,-0.1758681383750086,0.7078275975727925,1.0109026650314399,0.22512336997879343,0.7083005826729838,1.0208205544898261,0.0,0.0,0.0,0.0
0.009216290549741045,-0.050302142027466426,0.7456391144651431,0.001224461090770124,-0.5219819481438852,-0.0020207265865789686,0.8529532596637484,-0.04077970182282018,-0.8590675340799778,0.9838147336639496,-0.04347978458076475,-0.7985287407222609,0.8830390959215496,-0.14936023108392682,0.718576462631507,0.9930602748477686,0.16931207197890039,0.6865963426316583,1.0427242782206536,0.0,0.0,0.0,0.0
0.01150343030070006,-0.05166066012556058,0.7467045773428216,0.0005096352519373849,-0.5229503279466148,-0.0011128488968506682,0.8523622799841454,-0.03934819587285511,-0.8603068964248866,0.9956324054334745,-0.042075742766041764,-0.8018539608370214,0.9018863877810797,-0.12935820847850912,0.7295728880856543,0.9773348446020031,0.13213889148360028,0.6720300337101048,1.0650341721614174,0.0,0.0,0.0,0.0
0.013738569998012037,-0.052853091100108884,0.7475240721782384,7.65205900153824e-05,-0.5236767956235081,-0.0005705163252748098,0.8519168283237609,-0.0375373381009706,-0.8628165118549488,1.0082203909484257,-0.04030415094750046,-0.8074108521959142,0.9215928582946918,-0.11460283330644021,0.7399924954237302,0.9638430013394967,0.10692100353133899,0.6617582456502383,1.0881189603717292,0.0,0.0,0.0,0.0
0.015690893634671434,-0.05386072687763696,0.7482186550652901,-0.00020667683233511252,-0.5242420284439938,-0.00021330650824854947,0.8515692616563535,-0.03577860966588584,-0.8651187009836093,1.0192658326610937,-0.03858473391649624,-0.8127090254335378,0.9388948887238742,-0.10311128867469257,0.7492689115126657,0.9520128910059246,0.08838753365804766,0.6533488990497461,1.1116272813284622,0.0,0.0,0.0,0.0
0.017282547209027884,-0.05473699657660381,0.7488409160529336,-0.00040815563104130265,-0.5246827203539135,3.7902657823952514e-05,0.8512977592678054,-0.03410016868192602,-0.8666266225104808,1.0278948185200305,-0.0369431723176141,-0.8170275318322163,0.953024509094281,-0.09354543066728709,0.7571586421524417,0.9414304065460937,0.073277314247426,0.6456378504467059,1.1349215978410063,0.0,0.0,0.0,0.0
0.01849565074354048,-0.05555276665928744,0.7493859677329509,-0.0005602110387311555,-0.5250228884667248,0.00022494538206832278,0.8510878933160924,-0.03241285742030455,-0.8671570733202149,1.0337880079306363,-0.035291381693031046,-0.8203289033994984,0.9640644868873247,-0.0849233820273991,0.7634284399588316,0.9320473618464085,0.060006529555082705,0.6382024735753425,1.157212489316696,0.0,0.0,0.0,0.0
0.019320920235065906,-0.05637535630832129,0.749805435468786,-0.0006735239310776325,-0.5252791124281447,0.00036450361118812037,0.8509296490012157,-0.030583677660549324,-0.8666794091434886,1.036738400992178,-0.03349849924237967,-0.8228265374220739,0.9722620383856452,-0.07660059407525605,0.7677379525512175,0.9242123109712672,0.04799930479334197,0.6310465010172956,1.1771875730846828,0.0,0.0,0.0,0.0
0.01973061351671848,-0.05725169307784111,0.7500159194202434,-0.0007462249108540872,-0.5254589057662272,0.0004583873921016214,0.8508185302285913,-0.028501001262259816,-0.865233097990023,1.0364796775336478,-0.031454199362639684,-0.8247793924513857,0.9777041216841549,-0.06828074914102993,0.7695605753098644,0.9186951076456615,0.03735182205355429,0.6246218972361385,1.1924965118185002,0.0,0.0,0.0,0.0
0.01967631390245261,-0.05819625811235754,0.7499168128977163,-0.0007693363225417269,-0.5255573260939735,0.0004995882232231695,0.8507576949532591,-0.02611953516002758,-0.8629156252069751,1.0327059985904912,-0.0291126093213607,-0.8264051050175645,0.9802453627393451,-0.06004119048614878,0.7682420972519696,0.9165531783476482,0.028670336249038128,0.6202375053152868,1.1990804997265367,0.0,0.0,0.0,0.0
0.019124566495074997,-0.05919975475124147,0.7494492946687897,-0.0007357103543033219,-0.5255590093622837,0.00048532814756546146,0.850756693106201,-0.023466977449269767,-0.8598393475217527,1.0252701792922359,-0.026499098524011628,-0.8278230169022521,0.9797344158113938,-0.052096621274721464,0.7633717491775134,0.9184374960008586,0.022764241952315314,0.6206672292164139,1.190931099654257,0.0,0.0,0.0,0.0
0.01806792563045325,-0.06031067795731456,0.7486485129177626,-0.0006553362840078777,-0.5254809903663966,0.00042251928591094184,0.8508049839859654,-0.020431246714135154,-0.8556198300571759,1.0137363884405668,-0.023500342813463974,-0.8288420223669276,0.9760692051795129,-0.044000916770313224,0.7551177458028819,0.9238141577539346,0.01862067226854148,0.6230880036800798,1.1739762048418858,0.0,0.0,0.0,0.0
0.016524821921874586,-0.06154459145452343,0.7475959297167624,-0.0005443061441544585,-0.5253309514724231,0.0003279669685856671,0.850897753900883,-0.01701202203415942,-0.8499367844697017,0.997927811594092,-0.020111988496091956,-0.8291542534412385,0.9691675518800504,-0.03546708101936063,0.7439579972130022,0.9316782236114417,0.015368185385525729,0.6261001400874812,1.152157693166498,0.0,0.0,0.0,0.0
0.014517666608138264,-0.0628607928126249,0.7463678678367314,-0.0004204102737704827,-0.52511008410945,0.00021863253503012357,0.8510341797023093,-0.013357590163608879,-0.8426315943376902,0.9778748999585455,-0.016476858151708886,-0.82836625932483,0.9587794284115144,-0.02666546417932788,0.7303918572659502,0.9412394344914895,0.01243023854503509,0.6291101559860334,1.1277129108121735,0.0,0.0,0.0,0.0
0.012098313192849226,-0.06415517398856989,0.7450189653835391,-0.0003049586013242517,-0.5248228670594646,0.0001146687205006038,0.8512114026860892,-0.009787454347094854,-0.8338659512201924,0.9540786126918339,-0.01291041518211621,-0.8261022233936497,0.944673494143967,-0.018205562180089646,0.714937165452631,0.9521183388601346,0.009410766928250281,0.6319944210739188,1.1019029002786203,0.0,0.0,0.0,0.0
0.009401638419720344,-0.06526537745372682,0.7435592048662901,-0.00022701433666128207,-0.524458327484481,6.150156169078223e-05,0.8514360853371378,-0.006830990253096501,-0.8246329716692132,0.9282292797183748,-0.009943097131671168,-0.8224348862988964,0.9272908234086532,-0.010828573095911278,0.6980325361107832,0.9644366873744037,0.005974069123026786,0.6351695818889311,1.0754867550411857,0.0,0.0,0.0,0.0
0.006655238907419644,-0.06611901133076137,0.7419975115985953,-0.00019229315000903938,-0.5240587884287337,3.658780574438733e-05,0.8516820697627048,-0.004603522270732982,-0.8158464299789323,0.9023832408857925,-0.00769821608565203,-0.8179765616202392,0.9081572500051792,-0.005146801728140256,0.6806555256563477,0.9781201046483121,0.0013622807302449257,0.6393376212606189,1.0490083613060024,0.0,0.0,0.0,0.0
0.004444690070834399,-0.06675016916838977,0.7403376557318028,-0.00018462855150993805,-0.5236078988663756,5.432059123653643e-05,0.851959348329667,-0.0030619996535762757,-0.8105564343877999,0.8823668536960573,-0.0061425650897635325,-0.8158588000334818,0.8932211983414489,-0.0007906443161674343,0.6644893775926396,0.9923387579470578,-0.00402644725658634,0.6464209075832843,1.0230351231577197,0.0,0.0,0.0,0.0
0.0030898289574339387,-0.06704891889685549,0.7390038282472287,-0.0002140978296735176,-0.5232293834447597,0.00013065693373328832,0.8521918501082381,-0.002506151145077447,-0.808976992173437,0.8710908344313235,-0.005579059628224231,-0.8155836460209663,0.8842955154737671,0.0017878391895672432,0.6527756775017569,1.00363655269353,-0.009744732738531693,0.655164696405901,0.9991274114218471,0.0,0.0,0.0,0.0
0.0031076752816116397,-0.06704922975034468,0.7389718854845895,-0.0002291457426625748,-0.5232178472862951,0.00013323097716895363,0.8521989286679669,-0.0025105122258185578,-0.8090062822776709,0.8709892666347884,-0.005581553530192568,-0.8156293912105054,0.884263969059854,0.0017811811342545985,0.6527533601274698,1.00360923749447,-0.009749178659682518,0.6551751772771406,0.9991268440233879,0.0,0.0,0.0,0.0
0.0031076752816116397,-0.06704922975034468,0.7389718854845895,-0.0002291457426625748,-0.5232178472862951,0.00013323097716895363,0.8521989286679669,-0.0025105122258185578,-0.8090062822776709,0.8709892666347884,-0.005581553530192568,-0.8156293912105054,0.884263969059854,0.0017811811342545985,0.6527533601274698,1.00360923749447,-0.009749178659682518,0.6551751772771406,0.9991268440233879,0.0,0.0,0.0,0.0
0.0031076752816116397,-0.06704922975034468,0.7389718854845895,-0.0002291457426625748,-0.5232178472862951,0.00013323097716895363,0.8521989286679669,-0.0025105122258185578,-0.8090062822776709,0.8709892666347884,-0.005581553530192568,-0.8156293912105054,0.884263969059854,0.0017811811342545985,0.6527533601274698,1.00360923749447,-0.009749178659682518,0.6551751772771406,0.9991268440233879,0.0,0.0,0.0,0.0
0.003341702349854999,-0.06737079616828343,0.7388969626920767,-0.0006174400638556604,-0.5229794131965392,0.00047292697120066197,0.8523449586173728,-0.002376324494511509,-0.8121446757339096,0.8744210263661126,-0.005448915958495385,-0.8181049503002756,0.8882552972662304,0.008583841672163084,0.6509271511706783,1.0019156057226761,-0.0028917713702933563,0.6564869747718955,1.0006612364237877,0.0,0.0,0.0,0.0
0.0040691469577068045,-0.06761667380680077,0.738793005246259,-0.0008239483209220225,-0.5229302878416003,0.0006587972765937354,0.8523748008670915,-0.002133006814387185,-0.8165986001041083,0.8817843380887924,-0.005208758847277052,-0.8224895710508237,0.8963684291833214,0.012729345858847965,0.6515984886879165,1.0009213586673185,0.0013284114134134387,0.6589395318725316,1.0018923476538963,0.0,0.0,0.0,0.0
0.0053323039975990355,-0.06766121051914983,0.7386574711426098,-0.0008732305109247659,-0.5231239182386901,0.0007068151531284834,0.852255891177887,-0.002124622238772522,-0.8225516744861431,0.893578025443709,-0.005207366040459499,-0.82824749399265,0.9080530324102765,0.013760414038195147,0.6549884248543371,1.001093624901147,0.002318137955248001,0.6628343273299441,1.0024910350949632,0.0,0.0,0.0,0.0
0.007161552137185002,-0.06747963989906323,0.7385103909581313,-0.0007678315280696428,-0.5235821538408081,0.0006202131700502794,0.8519746204845474,-0.0024236186334905367,-0.8299244462855472,0.9098543222631829,-0.005517740380472269,-0.8351865776838058,0.9232005470780602,0.011510917473281354,0.6614049211582016,1.0022705046853508,-0.00014779376627867616,0.6684240518497111,1.0021488931855624,0.0,0.0,0.0,0.0
0.009583817000207608,-0.06713700980729939,0.7384089694022087,-0.00040699266865569853,-0.5244323743822481,0.000309709816329367,0.8514519499869591,-0.0026888817741209242,-0.8373405521402498,0.9293532905435483,-0.005797418570576201,-0.8428498458767513,0.9415756380313454,0.004975855494458425,0.6720469666712269,1.0039190467640926,-0.007080449091132951,0.6760312813585024,1.0005655193416305,0.0,0.0,0.0,0.0
0.012578320096807734,-0.06685426545830114,0.7384107335875737,0.0003591985912723145,-0.5257812272270407,-0.00043087799537013893,0.85061964850111,-0.0018910730491319956,-0.8427232651863407,0.9497849420170038,-0.005012653297697619,-0.8512683398632642,0.9633369603688531,-0.007260500821653299,0.6883829924285542,1.0050159649043993,-0.01975386526831946,0.6854210317113394,0.9977642188603406,0.0,0.0,0.0,0.0
0.014856129084510644,-0.06676728741871174,0.738177266061599,-2.6715734768247776e-05,-0.5254673110871052,-0.0002527171304248622,0.8508137518865153,-0.013844140390031272,-0.84996126439534,0.9297838987093288,-0.005511710900233698,-0.8636184081266569,0.9852289803415432,-0.004710597867935783,0.6928397583444216,1.0035889158609361,-0.017227951461319876,0.6915244906926714,0.9962194130368254,0.0,0.0,0.0,0.0
0.016922838569813064,-0.06661907776107794,0.7379198915061365,-0.00019198013402050643,-0.5255083551218991,-0.00026551066078372325,0.8507883763573602,-0.030879497295082232,-0.8646574377325437,0.9139279623722409,-0.005790254343914278,-0.8732092676684026,1.0031108657232088,-0.005175123163226579,0.6983332410910393,1.0037516111165332,-0.01777570284024597,0.6969714658829866,0.9953606638320182,0.0,0.0,0.0,0.0
0.018678151767852955,-0.06650760136503962,0.737679958639703,-0.0001774567175819616,-0.5258458388850518,-0.0004301320863589248,0.8505797653499511,-0.0482803801563186,-0.8830303237476725,0.9029585765599846,-0.005664768154213363,-0.8800511794423029,1.0169013337805048,-0.007646833514976327,0.7044701380649253,1.004703519587504,-0.020358656676395144,0.7016726450142913,0.9951680196887289,0.0,0.0,0.0,0.0
0.020015869297947252,-0.06652290833594714,0.7374838310505965,-0.000130264468308827,-0.5262147207691595,-0.0006184673018954709,0.850351496838337,-0.06452139043667736,-0.9029975905797489,0.894494622044847,-0.005154199436000512,-0.8849787647912396,1.0271804006753835,-0.00957123378404604,0.7096426637247547,1.0053904051577252,-0.022378339434041005,0.7053513039616953,0.9955415285700722,0.0,0.0,0.0,0.0
0.020904592560204625,-0.06670364087906522,0.7373537089229057,-9.537438585382673e-05,-0.526508705318108,-0.0007897851207374551,0.8501693656957061,-0.0795527985517203,-0.9233885776061322,0.8868281334631122,-0.00423880730382507,-0.888394473422566,1.0343249388259126,-0.009920391121751372,0.7132524031092864,1.005338172298475,-0.022821337480161536,0.7079505315688593,0.9963754301509823,0.0,0.0,0.0,0.0
0.021369540181794024,-0.06705736678586156,0.7372964085260761,-4.85495472994522e-05,-0.5267419744613916,-0.0009656275227378335,0.8500246805516551,-0.09380191106530072,-0.9433915557309084,0.8791688019322279,-0.0028540886691673585,-0.8904220936134528,1.0386064388512908,-0.008895049241335844,0.7154949673263789,1.0045233799302187,-0.021896844053295332,0.7095236139830792,0.9976407906314245,0.0,0.0,0.0,0.0
0.021451328470169916,-0.06758664571599204,0.7373078436379984,4.60076008963163e-05,-0.5269555011267436,-0.0011792867616789008,0.8498920560861225,-0.10771053606702723,-0.9621119240358189,0.8714047421639857,-0.0009259126882596152,-0.8911406355975307,1.040280828447556,-0.0069984687014387325,0.7167529117813911,1.0030448371041485,-0.02009216126952252,0.7101283167293484,0.9993687278186933,0.0,0.0,0.0,0.0
0.021172069593103093,-0.0683047731395622,0.737385524550815,0.0002070304363143737,-0.5271649390155025,-0.0014491540290409994,0.8497617219925713,-0.12152098536773728,-0.9781903177972274,0.8640347941927649,0.0016151906088882604,-0.8906419704869127,1.0395385443659448,-0.004436200008557177,0.7172224091489154,1.0008918700331335,-0.017594740242798976,0.709787262187029,1.0015944282933948,0.0,0.0,0.0,0.0
0.020516876888085324,-0.06924402028025015,0.7375394282308871,0.0004221967947570191,-0.5273363162981671,-0.0017653134873516776,0.849654703353802,-0.1351627750327137,-0.9896577168014432,0.8582188544249821,0.004827568863310402,-0.8890305165152479,1.0364542525502283,-0.0008079285661926716,0.7167422339696538,0.9977944694798987,-0.013987296965982868,0.708490869590233,1.0042984546836435,0.0,0.0,0.0,0.0
0.019443034932686072,-0.0704502770165142,0.7377954284787426,0.0006582139838750212,-0.5274087524376551,-0.002097192870019687,0.8496088372825307,-0.1482232437418982,-0.9942363277204381,0.8558026743165482,0.008758905378274593,-0.8863416228910731,1.0309510311037986,0.00467827994628691,0.7149678840007356,0.9932395634573405,-0.008437648547383355,0.7062543350738741,1.007368988630777,0.0,0.0,0.0,0.0
0.017924559545127807,-0.07195588608543793,0.7381890345221651,0.0009036572317961892,-0.5273762215761891,-0.002428216727541617,0.8496279233188807,-0.16019062404121776,-0.9904021239779,0.8587560849432121,0.013441345960343187,-0.8823529862975237,1.0227762356076455,0.012323961924761241,0.7119691149453461,0.9867244439876486,-0.0005544009170100755,0.7032377996398439,1.0105821135261037,0.0,0.0,0.0,0.0
0.015980470255524917,-0.07375452030536639,0.7387217035062138,0.0011149742959084372,-0.5271831540131087,-0.002725605398440614,0.8497465798885704,-0.17146625656145223,-0.9798507152970528,0.8653140477684328,0.018778643683740985,-0.8772669770483735,1.0121476787345658,0.022357364165451123,0.7076599929988173,0.9779723564244572,0.010032656736978958,0.6994980775958645,1.0137354610633078,0.0,0.0,0.0,0.0
0.013665036775008231,-0.07582227340801528,0.7393954009637069,0.0012398323495239083,-0.526787776259906,-0.002955041702200826,0.8499908054369921,-0.18281722256216923,-0.9652863247405955,0.87382248756317,0.024632497476236893,-0.8713205649866731,0.9994508622134796,0.034811668597162795,0.7021778634965449,0.966688291060761,0.02353335048684476,0.6952204326567835,1.0165128876927614,0.0,0.0,0.0,0.0
0.011059342684545732,-0.07810280679983526,0.7401751975202208,0.0012412335953754696,-0.5262050500142846,-0.003106337752724001,0.8503511364985596,-0.19519625022257683,-0.9493407788018837,0.8837260544843923,0.030841553569693002,-0.8646724113913002,0.9850198044070109,0.04913764359319031,0.6958840564953052,0.9530928092361411,0.03954084054188481,0.6905116218749525,1.0188423179413737,0.0,0.0,0.0,0.0
0.008268744708059743,-0.08046177864530733,0.7408810481438566,0.001145297390378301,-0.5255742293872514,-0.003235304773118173,0.8507408245176138,-0.2097705945708245,-0.9344291944833871,0.8958887788647673,0.037188995323525584,-0.8573735216666653,0.9688622514528752,0.06357087839855304,0.6890639704198339,0.9393786928295036,0.05619840615894579,0.6848885359697836,1.0218420565068598,0.0,0.0,0.0,0.0
0.005550042025252614,-0.08243697663414862,0.7412535134265564,0.0011968763599013493,-0.5254724374166472,-0.0035279112312511787,0.850802467582653,-0.22816128679788192,-0.9225496565466252,0.9140126071147087,0.04280951997806143,-0.8477022401628989,0.9495177326385327,0.07279393626930906,0.6835310422119288,0.9309085521504281,0.06729223597140344,0.6783810749245287,1.0269085039341028,0.0,0.0,0.0,0.0
0.003300718752711103,-0.08377467295905182,0.7413437456653258,0.0016614386304378882,-0.526289507405437,-0.004190951776721278,0.850293496352774,-0.2502461075061065,-0.9153829018205256,0.9432437033393343,0.04743872275715737,-0.8351955142468123,0.9281491055317104,0.07368069110077909,0.6819270380566339,0.9293471539955424,0.06868433720273837,0.6726537940130322,1.0331539771781262,0.0,0.0,0.0,0.0
0.001989990131758956,-0.08438224109103522,0.7413169441746763,0.0027698155614417986,-0.5282169746496858,-0.005264860788408881,0.8490885919941261,-0.2735428968445179,-0.915466008560203,0.9900502329313681,0.05081712251503492,-0.8207314480087178,0.9080627016317384,0.06481859438495151,0.6869314209337355,0.9338898451533225,0.058620821689835685,0.6700512493066939,1.0389318499513807,0.0,0.0,0.0,0.0
0.0017775242062920025,-0.08435838311351551,0.7412543781517011,0.004294752802539296,-0.5306720810270542,-0.006226618910720359,0.8475434659849141,-0.2936540567801705,-0.9270662020714313,1.0550331308411058,0.05200478572141234,-0.8078297962356826,0.8940019712229464,0.05029695480452211,0.6967103341540978,0.9412800287303961,0.042301020416295514,0.6712979730501291,1.0430547502764016,0.0,0.0,0.0,0.0
0.0017901680945201944,-0.08440345081546503,0.7412343169983664,0.004284812904423588,-0.5306667032692508,-0.006212218176414323,0.8475469891192156,-0.29368176038148314,-0.9270943404654343,1.0550320353545626,0.052045594893882996,-0.8078383965093391,0.893925370333136,0.05017076117137022,0.6968458555587135,0.9411036090058172,0.04241093971797996,0.6711960724305291,1.043220154948977,0.0,0.0,0.0,0.0
0.0017901680945201944,-0.08440345081546503,0.7412343169983664,0.004284812904423588,-0.5306667032692508,-0.006212218176414323,0.8475469891192156,-0.29368176038148314,-0.9270943404654343,1.0550320353545626,0.052045594893882996,-0.8078383965093391,0.893925370333136,0.05017076117137022,0.6968458555587135,0.9411036090058172,0.04241093971797996,0.6711960724305291,1.043220154948977,0.0,0.0,0.0,0.0
0.0015533168497493162,-0.08561131029239664,0.743531378794376,0.002703567299514717,-0.5284152775320313,-0.004530188669606751,0.848969647623059,-0.2949738778983468,-0.933139476888637,1.0618856967535526,0.05162395137786546,-0.8111174529643056,0.9017449141132222,0.02189575746035616,0.6668503619306345,0.9849233467114912,0.07334181468844378,0.682647754930217,1.024541564120899,0.0,0.0,0.0,0.0
0.0017373646918747742,-0.0874289827534463,0.7464539380586992,0.002035156754498446,-0.5273077068129325,-0.003721522271147021,0.8496638104242503,-0.2921191789562689,-0.9310590645226497,1.0647630986725405,0.05440230068450705,-0.8110829079068348,0.9099193169266232,-0.0035503799535162826,0.6477885062557209,1.0208931040104148,0.09557572233668063,0.6979646844254839,1.001899645031374,0.0,0.0,0.0,0.0
0.002014892039749252,-0.08970431167613506,0.7493657284778747,0.0019473849954679534,-0.5267929111049742,-0.003518928119045189,0.849984149055804,-0.2863917503220285,-0.9249238507216222,1.064499612897061,0.05955674306406672,-0.8102136692002758,0.9179584436870322,-0.02170958058723749,0.6346825796401594,1.0514141255025014,0.11320876190912166,0.7133323847184281,0.980360385099235,0.0,0.0,0.0,0.0
0.002299122202018598,-0.09231358518851855,0.752088531051113,0.002114550453904935,-0.52644945647251,-0.0036278084748799185,0.8501960582488292,-0.27906888761317683,-0.9177281716869395,1.0628802656857825,0.06621027970234832,-0.8100589347924999,0.9265509616687743,-0.03516843970815465,0.6247928961545567,1.0786382948092148,0.12960671447286257,0.727635144614748,0.9609939647684587,0.0,0.0,0.0,0.0
0.002559967663592821,-0.09514107073288178,0.7545846541045463,0.002398172959034291,-0.5261383926891016,-0.0039057069775005945,0.8503866097005487,-0.2708596226528103,-0.9104571432292904,1.0605405866001625,0.07378411482620599,-0.8108039577890724,0.9355707567443657,-0.04649310757355964,0.6168822722818063,1.1038885579212507,0.14571872443962228,0.7406012870712418,0.9438561960612003,0.0,0.0,0.0,0.0
0.002738464594767257,-0.09807197766411214,0.756861002613832,0.0027217221115270994,-0.52581099120955,-0.004232314707195094,0.8505865513069187,-0.262329394559227,-0.9032540635337744,1.0573326803336178,0.08171585492259552,-0.8119595263071376,0.944183229466336,-0.05647144429761023,0.6099781695385734,1.127613383525382,0.16193029114558563,0.7521928974406592,0.9287177490492305,0.0,0.0,0.0,0.0
0.0027364227359829804,-0.1010154554388421,0.7589130855742086,0.003046881313214498,-0.5254741477196437,-0.004552911700843216,0.8507919296676606,-0.2537672895080981,-0.8957516486844609,1.0524760592401377,0.08964024414032551,-0.812765810124771,0.9511052093276622,-0.06593086305354263,0.6035899385124246,1.1496547978681342,0.17808213950560858,0.7621553258547458,0.9156028493740922,0.0,0.0,0.0,0.0
0.002508019349177121,-0.10393565067609681,0.7607264813522387,0.0033654022378768957,-0.5251324069653386,-0.004845802961804556,0.8510000866135224,-0.24529577082552673,-0.8878251030379254,1.0456309962057453,0.097402846336133,-0.8129820099042903,0.9558602149952025,-0.07538271210696462,0.597823187913746,1.1690248062171316,0.19402053662903787,0.7702603755881432,0.9047137455632352,0.0,0.0,0.0,0.0
0.0019887414459496457,-0.10685787126394268,0.7622679347275558,0.003656758408724024,-0.5247567024743388,-0.0050944718221922125,0.851229156974226,-0.2368747575769264,-0.8794804822037526,1.0364234400296521,0.10503109751876522,-0.8126318556656246,0.9581625493798619,-0.08552813754440397,0.5930701249893835,1.1835335865944712,0.21002732015881886,0.7760600255847173,0.8965637723968062,0.0,0.0,0.0,0.0
0.0010982433521060215,-0.10985672746210799,0.7634906556364535,0.0038762419057404604,-0.5242768814986504,-0.0052665655573747505,0.8515227475305449,-0.2283816823403552,-0.8709063313958358,1.0245017413076378,0.112661076997385,-0.8119721373423056,0.9578920751925443,-0.0972552107330656,0.5903061714662725,1.1891435024820372,0.2269006612285843,0.7789415696181489,0.8918581330072396,0.0,0.0,0.0,0.0
-0.00021124020938320556,-0.11301834686958034,0.7643737541548433,0.003991243809050101,-0.5236335150628431,-0.005343356825909653,0.8519175197245441,-0.21964057530239608,-0.8622343184240855,1.0096385268650037,0.12048810660123437,-0.8112865596195469,0.955137241178861,-0.11141492515123635,0.5919654474644703,1.1798302432281416,0.24527703791629546,0.778506347462865,0.8909736345971426,0.0,0.0,0.0,0.0
-0.0019563370772300226,-0.11633528264182062,0.7649837960402947,0.004013001289913784,-0.5228589311115308,-0.005318899341949769,0.8523931858522479,-0.21066106235020057,-0.8528894793301287,0.9912652912854156,0.12844052310579032,-0.8100423677676198,0.9493700199284251,-0.1274440423320156,0.5953531850340391,1.1617664676351196,0.2647757655376033,0.7750665107877073,0.8931834185135447,0.0,0.0,0.0,0.0
-0.004119722771583117,-0.11977942874108814,0.7654096340034561,0.003939920088347838,-0.5219759493375211,-0.0051785022384751795,0.8529353835182693,-0.20154886281701861,-0.8424436170743675,0.9691165632079696,0.13637921935435346,-0.8077727711045054,0.940287809566044,-0.14501402794897827,0.5991468659050746,1.1392458488230872,0.2850104002389464,0.7691851224549971,0.8973672877329273,0.0,0.0,0.0,0.0
-0.006671274284785726,-0.12329086793331312,0.7657174764344331,0.003734366022222224,-0.5209805967488066,-0.004873932432711619,0.8535464352361334,-0.19258394457876105,-0.8308397383374763,0.9432796112703961,0.1440334877038681,-0.804186145289054,0.9277521062980941,-0.16464323160930922,0.6027948653329784,1.115052841271611,0.30581214105927623,0.7613743984238803,0.9024917138755645,0.0,0.0,0.0,0.0
-0.009530211461355128,-0.12674029398773265,0.7659355647737714,0.003324837436100021,-0.519850741843694,-0.0043236806358433405,0.8542396955458952,-0.1843218218407586,-0.818664234071245,0.9146764515816359,0.15092580367047764,-0.7993410229860629,0.9121031982192072,-0.18846387549186505,0.6066112628367815,1.091347483999528,0.32702698525762197,0.7521267201521189,0.9076916100637814,0.0,0.0,0.0,0.0
-0.012460455189686713,-0.12991146243291057,0.7659959365068862,0.0025353888145188772,-0.518411111431041,-0.00330760958270669,0.8551213662792202,-0.17796707182312127,-0.80899811008518,0.887336301721038,0.15620419787929876,-0.795107594407376,0.8960868876997948,-0.2207442910683934,0.6122937350575403,1.0697786463251022,0.34942187204525876,0.7417795155061837,0.9125112651636896,0.0,0.0,0.0,0.0
-0.015062497596815914,-0.132672314804099,0.7657599725397815,0.00134168402727294,-0.5165821844841103,-0.0018556558313061868,0.8562345491155046,-0.1739510698330304,-0.8053363899566509,0.8667777905242284,0.1598490133470463,-0.7945349100573642,0.8844565309314124,-0.26746345816622497,0.6213859019107244,1.0526129704135971,0.3723299304523192,0.7304842748910912,0.9175255981466258,0.0,0.0,0.0,0.0
-0.017284305199613662,-0.13483066053871098,0.7646906933924728,4.7881403516841954e-05,-0.5145825602598301,-0.0003088034742950219,0.8574407798934127,-0.17206273116784557,-0.8084552889022631,0.8538500750324001,0.162138376679441,-0.7989503606379754,0.8779111070681117,-0.32681489788699153,0.6322694144221408,1.0418539473201582,0.39183081920594626,0.7154014281364816,0.9283911770755696,0.0,0.0,0.0,0.0
-0.018791830958629286,-0.13607773822809655,0.7631535254288887,-0.0008566455339646432,-0.5128073936864003,0.0008414133770310053,0.858502845168564,-0.1719752116734026,-0.8161888260398409,0.8493509256254231,0.16317815626776488,-0.8069407102773759,0.8769799665959561,-0.38848808659206935,0.6406135929669216,1.0409825688692573,0.4024873974186238,0.6996492730876147,0.9417552898844455,0.0,0.0,0.0,0.0
-0.018770619554310055,-0.13612077802407144,0.76310570922339,-0.0009139731912413612,-0.5128144491970636,0.0008766545375390298,0.858498536297261,-0.17198831813369025,-0.8161982332558538,0.849178626160451,0.16322125893129913,-0.8070101465725192,0.8770328296367234,-0.3885176770921027,0.6405968652016182,1.0409788739978039,0.4025278013650474,0.6995603211225889,0.941639812733823,0.0,0.0,0.0,0.0
-0.018770619554310055,-0.13612077802407144,0.76310570922339,-0.0009139731912413612,-0.5128144491970636,0.0008766545375390298,0.858498536297261,-0.17198831813369025,-0.8161982332558538,0.849178626160451,0.16322125893129913,-0.8070101465725192,0.8770328296367234,-0.3885176770921027,0.6405968652016182,1.0409788739978039,0.4025278013650474,0.6995603211225889,0.941639812733823,0.0,0.0,0.0,0.0
-0.01932324866373759,-0.13644613332183506,0.7634898279477255,-0.0004990324587769212,-0.513872871146471,0.0005981391170494229,0.8578659950690926,-0.16998187024550426,-0.8037093360622858,0.8343586672559958,0.16382442742688572,-0.7970044214918749,0.8651010844766046,-0.39297074295624157,0.64505774432792,1.0396438653904327,0.4025738303656493,0.7025073906788916,0.9411929225074397,0.0,0.0,0.0,0.0
-0.019564677382998844,-0.13696008308732774,0.7636768440894801,-0.00021662709496932917,-0.5145679839020587,0.0003530419737250604,0.8574494844461901,-0.16783691449645277,-0.7958584317352596,0.8251622433246463,0.1651759854547742,-0.791702470695576,0.8591723627135692,-0.3948229231431788,0.6481298691435197,1.0387750119583428,0.4045564801909321,0.7044952097662761,0.9421509969049167,0.0,0.0,0.0,0.0
-0.01940070286369509,-0.13755976816587828,0.7637868870008366,-1.4574734593144397e-05,-0.5150321945044157,0.00014867200671283325,0.857170820961713,-0.1658015289191324,-0.7921547407199624,0.8220454741746247,0.16692941049205834,-0.7903995412531603,0.8592855317257743,-0.3955300749186632,0.651194730931509,1.0377580613218165,0.4081039101410559,0.7068237531653517,0.9433607294631171,0.0,0.0,0.0,0.0
-0.018790984417674808,-0.1382145984362801,0.7638650629930349,0.00014704054673170884,-0.5153333917593486,-3.4919232091148345e-05,0.8569897738582011,-0.16389027413119753,-0.7922725365144415,0.825065788427513,0.16902364526731342,-0.792770545886894,0.8653935705251228,-0.3959603663349864,0.6549218263690895,1.0363822938014038,0.41296629226544246,0.710017045934473,0.9444289485028192,0.0,0.0,0.0,0.0
-0.017725214646459885,-0.13894580119474512,0.7639375460133047,0.00029910924770805056,-0.5155152489567592,-0.0002310649065285171,0.8568803214193436,-0.16195425013548576,-0.7957708587031981,0.8338515061744302,0.1715712167027294,-0.7985283038348724,0.8772576286861209,-0.39654652947996843,0.6597157356999936,1.0344531631697662,0.41909332238694813,0.714335774147257,0.9452033204411763,0.0,0.0,0.0,0.0
-0.01621700497300079,-0.13977586973430878,0.7640368520165695,0.000544372354344083,-0.515636674872487,-0.0007358117285891744,0.856806852077109,-0.15916650893373765,-0.8016148119830229,0.847391933582291,0.1753224952826472,-0.8073185636637338,0.8942753645120921,-0.39989678840398046,0.6665557180642245,1.0318261998511713,0.4243219272082672,0.7195404928894616,0.9454484373493969,0.0,0.0,0.0,0.0
-0.014493498091390018,-0.1401715230513206,0.7639988118616499,0.0005996308597612665,-0.515451332765575,-0.0007067941793978315,0.8569183534240661,-0.15897529011433337,-0.8121255493839102,0.8664257023884846,0.15577368162361507,-0.8122350650311829,0.8784917649496716,-0.401051430189938,0.6714585155922534,1.0302466248515154,0.43081517632087735,0.7247464569252123,0.9453620224063811,0.0,0.0,0.0,0.0
-0.012855395665085013,-0.1406948841518462,0.7639367926170288,0.000676298068295769,-0.5152898053683093,-0.000868084420034102,0.8570152889732204,-0.15792815709774333,-0.8214805445728364,0.8835933666980047,0.13211351202789529,-0.8245253533069333,0.8649595764971995,-0.40266147748044673,0.676410498577182,1.0287295043752598,0.43684336365302967,0.7294024962814192,0.9457403436440069,0.0,0.0,0.0,0.0
-0.011519284335856358,-0.14141034296427832,0.763890069217236,0.0007746884492629417,-0.5152061565516686,-0.0011078243559130086,0.8570652185418917,-0.1560514640078084,-0.8280878841084781,0.89626437221756,0.11041537862029158,-0.8401520267836572,0.8536752789367362,-0.40315242609513546,0.6807957099053465,1.0269706689780034,0.4431595879891619,0.7333554290610022,0.9466110372675482,0.0,0.0,0.0,0.0
-0.010486739403953471,-0.14227581131874853,0.7638831688320286,0.0008945390165365102,-0.5151878719888068,-0.0013807363102347498,0.8570756967286112,-0.15356946273342062,-0.8321586179641067,0.9048119405430489,0.0920117380513808,-0.8568947921833908,0.8437630765692673,-0.40236548102599523,0.6845737487855016,1.0248009967925624,0.4496584420365158,0.7367131266077146,0.9476522170266747,0.0,0.0,0.0,0.0
-0.009704439882178083,-0.14322901424337303,0.763892872280634,0.0010268722609972504,-0.5152052965288851,-0.0016572054262174237,0.8570645842829573,-0.15075050693611436,-0.8344292364258411,0.9102842693141137,0.07633265853422067,-0.8737060659285628,0.8343848116364985,-0.40049099405253147,0.6876610510633252,1.0224707671091653,0.4561777600665464,0.7394571239274229,0.9488947580204642,0.0,0.0,0.0,0.0
-0.00909392312385871,-0.1442400270160749,0.7639000450225791,0.0011683738989782145,-0.5152288726385593,-0.001929414899936896,0.857049660789954,-0.14773491264758692,-0.8356436754427569,0.9138086830419854,0.06245948281126131,-0.8900453648218942,0.8250198287435403,-0.39776131819928207,0.6901244238686488,1.0201155871154008,0.4626651344162154,0.7416524160780984,0.9503631641383148,0.0,0.0,0.0,0.0
-0.008570887666453154,-0.14532135862060275,0.7639036704779534,0.0013251069063160829,-0.5152338164566543,-0.002207703199418235,0.8570457890438414,-0.14450698935749692,-0.8363777081764137,0.9163601010498961,0.0497280259938636,-0.9053212168845471,0.8155657292658447,-0.39431500822501,0.6921808562692711,1.017621360486211,0.469205818836414,0.743472696958678,0.951978695131721,0.0,0.0,0.0,0.0
-0.008086086970392639,-0.14650699124927924,0.7638943639750622,0.0015059467004293473,-0.5152024723783,-0.0025068865638963244,0.8570635099568632,-0.14097010686323458,-0.836953401142204,0.9184548037950796,0.03780539689185598,-0.9184035862021119,0.8064197015704941,-0.39013773298100896,0.6939194243940876,1.0149366881245936,0.47594423554798904,0.744960078381996,0.9538184315374632,0.0,0.0,0.0,0.0
-0.007637964807272554,-0.14783789032968134,0.763860227008517,0.0017208306313705377,-0.515131263811664,-0.0028426934505545345,0.857104858742314,-0.13698579369902555,-0.8373420060402078,0.9200192353358991,0.026598459426952104,-0.9273883576192646,0.7987139332320585,-0.3851179572052867,0.6953055150327834,1.012073378016932,0.4829981511107326,0.7460330841397145,0.9560563762096513,0.0,0.0,0.0,0.0
-0.007188370866783957,-0.14931775377247175,0.7637723879554841,0.001978672699859178,-0.5149970765914453,-0.0032290298123364867,0.85718356804309,-0.13253421952556235,-0.8379382236816889,0.9215757535094485,0.015830646707156226,-0.9297176968333044,0.793983365775152,-0.37943130471113656,0.6963009741511609,1.0092115904385073,0.4902740481050365,0.7465751373136905,0.9588924979938268,0.0,0.0,0.0,0.0
-0.006719675302435767,-0.1509445588931955,0.7636993639687099,0.002278428488392996,-0.5148212536494421,-0.003669266220953363,0.8572866626979798,-0.12759479010419034,-0.8384523670921643,0.9230367806740215,0.005364398142186606,-0.9238512534423995,0.7942889393820629,-0.3731715084494289,0.6973691740057323,1.0057428495144995,0.4977882057168062,0.7470507536434379,0.9616670050934115,0.0,0.0,0.0,0.0
-0.006179619025221865,-0.1527902586574371,0.763595508182931,0.002638446826853567,-0.5145669204854493,-0.004186596653434442,0.8574359424172308,-0.12196283687594253,-0.8393588375534753,0.9249861732180459,-0.004538986325002695,-0.9114424590142918,0.7975412455219454,-0.36614311465494004,0.6983952641588277,1.001807953605764,0.5058197625966389,0.747276345316381,0.9648194910126159,0.0,0.0,0.0,0.0
-0.005516925071297796,-0.154909709728798,0.7634239056080574,0.0030762785173947226,-0.5142047529224119,-0.004802405973703202,0.8576484976255415,-0.11546929433175199,-0.8410549201501805,0.9279479004824964,-0.013778026560701937,-0.8948044432758485,0.8016473150307377,-0.35827580826951516,0.699337283822738,0.9975109188456761,0.5145749449197011,0.747141922110894,0.9686762792940679,0.0,0.0,0.0,0.0
-0.004736509592584055,-0.15729425234748087,0.7632019501621056,0.003595186832742384,-0.5137354601959631,-0.00552267874248418,0.8579233366614916,-0.10810076884009957,-0.8433878917529527,0.9317631190637626,-0.022628012913962093,-0.875811136641723,0.8053911764664005,-0.3496786869381769,0.7003001912063248,0.9926780420607696,0.5238811364814049,0.7467108498618303,0.9730167101966581,0.0,0.0,0.0,0.0
-0.0038571609724617497,-0.15982683747246598,0.7629133647511848,0.004188026508037467,-0.513147173672929,-0.006346850946152873,0.8582669491880252,-0.1001346756043615,-0.8465177582562682,0.9365510180371891,-0.031898639071271814,-0.8554250255664837,0.8078147755465607,-0.3410937892313036,0.7011697145815593,0.9876863499949634,0.5328061096760528,0.7457427986979731,0.9777605681379011,0.0,0.0,0.0,0.0
-0.0029009684514603225,-0.16221042254971735,0.76240823960836,0.004826297301509287,-0.5124043060088209,-0.007228688184181389,0.8587003436036996,-0.09243679758532984,-0.8515836528292071,0.9433066544717884,-0.04271181732674041,-0.8340775528535372,0.8076814872701079,-0.3341432281712127,0.7010682493784753,0.9845832799456823,0.5396630415675622,0.7432778593000186,0.9838387871500461,0.0,0.0,0.0,0.0
-0.001945542128826879,-0.1641741250720425,0.7616420585195658,0.005497537313524062,-0.5114039844680898,-0.008120849576978596,0.8592844660272849,-0.08581046353177817,-0.8594996204974221,0.9526706098900967,-0.05509686657434934,-0.811696169542062,0.8025557601964044,-0.3298225816602267,0.6991281166252711,0.9842886751032032,0.5419804500895556,0.7383022812208071,0.9910945578287923,0.0,0.0,0.0,0.0
-0.0011709107982508242,-0.1655268107341719,0.7606665551538536,0.006226589913920745,-0.5100406574716403,-0.00905017590910648,0.8600801425564684,-0.08065671220196637,-0.8701340796336466,0.9638798453606368,-0.06866965236691439,-0.7893987942780241,0.7890292333372205,-0.3289919626609234,0.6947253448942167,0.9867107982197679,0.5364932151262771,0.7296726399937455,0.9986410266822909,0.0,0.0,0.0,0.0
-0.0008333035896407628,-0.16607229958731443,0.7596733321096725,0.007046608463367081,-0.5082700647587614,-0.010019852271363186,0.8611106137655885,-0.07744831482940938,-0.8822092239115383,0.9749370114397748,-0.08091682324519214,-0.7702256020879065,0.7635103066093663,-0.33229742576025784,0.6877846103828358,0.9905893980814923,0.5201893503127483,0.7169103614950779,1.0044518771513355,0.0,0.0,0.0,0.0
-0.0007931522363804873,-0.16614872596132735,0.7596536692991637,0.007151400993050256,-0.5082256899861577,-0.010030569154798573,0.8611358157598379,-0.07724827999590421,-0.8822822601324233,0.9749641213777943,-0.08094338364712461,-0.7702000036072416,0.7635198953277573,-0.3323823141513513,0.6877799292490729,0.990407604544465,0.520293305116635,0.7168258409728201,1.0045855749804713,0.0,0.0,0.0,0.0
-0.0007931522363804873,-0.16614872596132735,0.7596536692991637,0.007151400993050256,-0.5082256899861577,-0.010030569154798573,0.8611358157598379,-0.07724827999590421,-0.8822822601324233,0.9749641213777943,-0.08094338364712461,-0.7702000036072416,0.7635198953277573,-0.3323823141513513,0.6877799292490729,0.990407604544465,0.520293305116635,0.7168258409728201,1.0045855749804713,0.0,0.0,0.0,0.0
0.0012019248639291696,-0.16775478649531073,0.7623733272923142,0.005015334369637604,-0.5115944529131138,-0.007322182203893984,0.8591812077888258,-0.07892197783298156,-0.8662764408402789,0.9714967256470706,-0.08261960364964245,-0.7483831418406932,0.7605376991613269,-0.3032412676889508,0.7106754444793104,0.9666564276131638,0.43496248199456683,0.6998023708598005,1.0161274891237493,0.0,0.0,0.0,0.0
0.0038620360966486506,-0.16981282932293687,0.7640426535842503,0.0030664978785104346,-0.5147948319246282,-0.004756500434552509,0.8572947295522532,-0.07917116829243391,-0.8564446060172202,0.9747549128254052,-0.08287411410999378,-0.7363809657633477,0.7697276184734909,-0.27133081947668747,0.7300459161600117,0.9491756617920467,0.3480744440950871,0.681137732356733,1.034136925190372,0.0,0.0,0.0,0.0
0.0069007467431622446,-0.1721937560999379,0.7645730333798484,0.0015980372007498532,-0.5174062336767138,-0.0028139589507695456,0.8557337887828236,-0.07735725663077637,-0.8536914696890808,0.9845364950884897,-0.08112928837301003,-0.7366165879822434,0.7918072638994511,-0.2410099719952935,0.74425248659314,0.9390865347968347,0.2770445780883677,0.6667087996340021,1.0562140748179671,0.0,0.0,0.0,0.0
0.010188028021848601,-0.1747154055584881,0.7643784972383596,0.0007446904246530649,-0.5193191549186881,-0.0016847016883921417,0.8545783887689485,-0.07357088024929948,-0.8566183727113333,0.9997719343142624,-0.07750446648378077,-0.7474158578374477,0.824431639053443,-0.21615067645198835,0.7554245448057316,0.9333570167325586,0.2288340031233728,0.6590047131920772,1.08055249419785,0.0,0.0,0.0,0.0
0.013266142412337409,-0.17723345279753974,0.7638157212234615,0.00028920835798267486,-0.5207626046093634,-0.001111436601846235,0.8537007618057264,-0.06859051613944227,-0.8611859289082141,1.0149588964257248,-0.07273880967841898,-0.761974325065587,0.8582862341890084,-0.19544547830093054,0.7641156752385022,0.9301224024781403,0.1948563677960945,0.6547432997996532,1.1060533673142074,0.0,0.0,0.0,0.0
0.015870957106755918,-0.17961917987588277,0.7632684118014865,2.29763685292814e-05,-0.5219130231073762,-0.0007727952539318259,0.8529983578943756,-0.0633689962769958,-0.8647024276098707,1.0269421142964732,-0.06773037689881328,-0.7753974005117444,0.8876647810017452,-0.1766077354839855,0.77105989400732,0.9267486507483388,0.16811603324330202,0.650578014300352,1.1319269759511383,0.0,0.0,0.0,0.0
0.017930878781788052,-0.18183834993336492,0.7628163822114545,-0.00014456101100051,-0.5228276016158796,-0.0005541587447491478,0.8524382505488516,-0.058233947489930715,-0.866647894914181,1.0351224249596291,-0.06278714981583476,-0.7866477437383662,0.9116180468236659,-0.15887900920120357,0.7762458665487278,0.9229204472647992,0.14520921400075126,0.6456867434167027,1.1567830149371154,0.0,0.0,0.0,0.0
0.01943712127082359,-0.18392157404496473,0.7624153834101394,-0.0002544751561350322,-0.5235483288227096,-0.0004022052160424882,0.8519958455651688,-0.05323799161211512,-0.8670343943592862,1.0394338532862186,-0.057958842593113076,-0.7957891978431111,0.9304300308129667,-0.14179800377597468,0.7793893007179851,0.9192186547361686,0.12471295397171096,0.6402188433810553,1.179031191610323,0.0,0.0,0.0,0.0
0.020382483896299017,-0.18592065356636114,0.7619598224185294,-0.0003207473842477692,-0.5241031806303197,-0.0002964781131186791,0.8516546631558043,-0.04831118018727206,-0.866020272545706,1.0398100601423,-0.05317814887483695,-0.8032236821027664,0.9445457996586495,-0.12509358304201798,0.7799754212359563,0.9166921744724943,0.1062753961816956,0.6348239557454787,1.196213624843053,0.0,0.0,0.0,0.0
0.020744130427564792,-0.18787484596284001,0.7613198773731473,-0.0003423889668604367,-0.5245033866912729,-0.00023516489418106058,0.85140825977709,-0.043374104001579275,-0.8638143244756877,1.0361095232862292,-0.04836777527444154,-0.8094000900985142,0.9542386631427983,-0.10876778753872336,0.7773480424434847,0.9166245750747308,0.09020395445143653,0.630924208740256,1.204217879806735,0.0,0.0,0.0,0.0
0.02051372428979624,-0.1898049370293192,0.7604081616956019,-0.0003162973520240755,-0.5247469196920405,-0.00021700197451962822,0.8512582000426447,-0.038393731955615594,-0.8606150198868731,1.0283060284313434,-0.043494590641139266,-0.8146727236651664,0.9597454350763638,-0.09293636389881373,0.7710970628505209,0.9198405396321765,0.07704726363167867,0.6313377575852194,1.1970036665605504,0.0,0.0,0.0,0.0
0.019702192383954764,-0.1917829090881019,0.7592400862693409,-0.00025360818553699647,-0.5248604862622265,-0.00023544007146143763,0.8511881990555555,-0.033200519692974335,-0.8560820449710628,1.016033483765439,-0.038390003700892315,-0.8190290184792095,0.9612494772818199,-0.07712739962949448,0.7614151520878424,0.9259242955987992,0.06570280085308693,0.6333497485288441,1.1805248232983572,0.0,0.0,0.0,0.0
0.018347302177924487,-0.19383868699970017,0.7578799988486054,-0.0001725050478703829,-0.5248608404094011,-0.0002726509125467452,0.8511879898754595,-0.027764588291530445,-0.8499499232396798,0.9992060657734861,-0.033019958744936226,-0.8222968955318738,0.9588967259522915,-0.06106380324632721,0.7488071232659196,0.9339869480465784,0.055172178830101753,0.6356555991971553,1.15876788782785,0.0,0.0,0.0,0.0
0.016491031400224322,-0.19593082708264123,0.7563914852979567,-9.434077279311904e-05,-0.5247576388311913,-0.0003099788889989584,0.8512516170329545,-0.022244710121396775,-0.8421357988909646,0.9779873850966458,-0.027536778840987444,-0.8241608105164158,0.9525897988392819,-0.045022444197732894,0.7338215541178009,0.9433579690296459,0.0447247999677391,0.6377481403364385,1.1340115081317566,0.0,0.0,0.0,0.0
0.014203315195614899,-0.19793392513629554,0.7548190144950406,-4.608947664023682e-05,-0.5245590857063355,-0.00031929691434739126,0.8513739845262914,-0.017038971621665833,-0.8329498279751764,0.953103237942532,-0.022334891764912945,-0.8242735925034343,0.9421734510036512,-0.029790909041775816,0.7170075198894674,0.9538124545528998,0.03383658369428916,0.6395915498774497,1.107539867965624,0.0,0.0,0.0,0.0
0.011607597625991771,-0.19967598517526536,0.7531708640296231,-5.799887782923917e-05,-0.5242582127651076,-0.000253622419598868,0.8515593101247462,-0.01270764145317925,-0.8233397054816534,0.926157739259686,-0.017980232001488003,-0.8226161004006094,0.9279413943006046,-0.01621465228654795,0.6987860468549939,0.9655559709873319,0.022064079180032073,0.6415554996928143,1.0800597035885848,0.0,0.0,0.0,0.0
0.008895809151454376,-0.20106155120202854,0.7514703365979133,-0.00013341473042443198,-0.5239253535995023,-0.00015753000830521813,0.8517641582271719,-0.009365693576684543,-0.8138575312472434,0.8987605399131227,-0.014601978651765598,-0.8194047114023228,0.9108542255476113,-0.005245710896232554,0.6802499518882011,0.9785934908937064,0.008152544258749039,0.6440719753374682,1.0520905656150326,0.0,0.0,0.0,0.0
0.0067251244649044,-0.2021100220981021,0.7496872828932903,-0.00023955561155413157,-0.5235311695462395,-1.3906887042146525e-05,0.852006488785886,-0.007032372505449743,-0.8081310646430054,0.8776170249660993,-0.012238598803461013,-0.818271028626551,0.8975944988900549,0.003398175938397639,0.6630982620290978,0.9923784777626417,-0.007194289334584247,0.6494709621100125,1.0242662092208283,0.0,0.0,0.0,0.0
0.005409821668303961,-0.20265317287490858,0.7482550228499836,-0.00036619957901706324,-0.5232178289128038,0.0001755261409536494,0.8521988844138522,-0.006109181781712851,-0.8063355839427958,0.8657183414472384,-0.011298326229926731,-0.8184476230146316,0.8895908139621626,0.008785893643223505,0.6507045794035479,1.0036492415900478,-0.022077203192678686,0.6567608668440515,0.9984643732568698,0.0,0.0,0.0,0.0
0.005430952809310928,-0.20265595256856744,0.7482192124282051,-0.0003930931022423756,-0.5232094050177006,0.00018361911864206676,0.8522040426229248,-0.006120669083613173,-0.8063636419629583,0.8655990983642974,-0.011305530484415995,-0.8184927761451396,0.8895804120632325,0.008777312769278083,0.6506813972181054,1.003624065605417,-0.022082905598742812,0.6567676210724476,0.9984615874569726,0.0,0.0,0.0,0.0
0.005430952809310928,-0.20265595256856744,0.7482192124282051,-0.0003930931022423756,-0.5232094050177006,0.00018361911864206676,0.8522040426229248,-0.006120669083613173,-0.8063636419629583,0.8655990983642974,-0.011305530484415995,-0.8184927761451396,0.8895804120632325,0.008777312769278083,0.6506813972181054,1.003624065605417,-0.022082905598742812,0.6567676210724476,0.9984615874569726,0.0,0.0,0.0,0.0
0.005430952809310928,-0.20265595256856744,0.7482192124282051,-0.0003930931022423756,-0.5232094050177006,0.00018361911864206676,0.8522040426229248,-0.006120669083613173,-0.8063636419629583,0.8655990983642974,-0.011305530484415995,-0.8184927761451396,0.8895804120632325,0.008777312769278083,0.6506813972181054,1.003624065605417,-0.022082905598742812,0.6567676210724476,0.9984615874569726,0.0,0.0,0.0,0.0
0.00564053761776788,-0.20300236478381425,0.7481438801533217,-0.0007817582856242319,-0.5229583787513755,0.0005256376227187469,0.8523576987701849,-0.005936926609691734,-0.8093880549576257,0.8687603553407472,-0.011123055084072495,-0.8209572512402991,0.8934743103126404,0.015668070370584857,0.648751548942052,1.0018136976184386,-0.01499988951397862,0.6580213610803608,1.0001095727465616,0.0,0.0,0.0,0.0
0.006346591258958344,-0.20328127469161686,0.7480390422397797,-0.0009879336897580164,-0.5228958600204616,0.0007124842920206335,0.8523957038410153,-0.005621356011904263,-0.8137570670808866,0.8759050287401869,-0.010812535249418801,-0.8253628825139886,0.9015288781756042,0.0200123969343102,0.6493067300204786,1.0006849902746622,-0.010581862379907188,0.6604046423346949,1.0014399933971794,0.0,0.0,0.0,0.0
0.007592987832954546,-0.2033622357687113,0.7479020724448456,-0.0010340643317585559,-0.523081969273148,0.0007593319552619628,0.8522814133531629,-0.005528981975488178,-0.8196236506165978,0.8875146654389626,-0.01073166776254586,-0.8311331149393111,0.9131548708014936,0.021308303542322625,0.6525921123410239,1.000736491170468,-0.00948392243981508,0.6642315885060917,1.0021119506306357,0.0,0.0,0.0,0.0
0.009410199701783962,-0.20321893517522746,0.7477531656620513,-0.000922764443317093,-0.5235397859740398,0.0006696141411243568,0.8520004651553547,-0.005736479795466338,-0.8269028859680312,0.9036379928393862,-0.010957778653905754,-0.8380650940465671,0.9282330862858327,0.019392172214573344,0.6589148429720635,1.0018128786971139,-0.011945097394057726,0.6697579855554835,1.001811800663634,0.0,0.0,0.0,0.0
0.011824666342715773,-0.202917380360723,0.7476500589007045,-0.0005531267121951321,-0.5243989483191988,0.00035347698396410093,0.8514724376669983,-0.0058978305003978175,-0.8341956439140104,0.9229867665345902,-0.01114213734907784,-0.845697810782962,0.9465275157734581,0.013291292415354785,0.6694736615369237,1.003378243188072,-0.018998392956023055,0.6773022904571957,1.0002378937571015,0.0,0.0,0.0,0.0
0.0148133826531013,-0.20268179357342006,0.7476488873208798,0.00022584198645220153,-0.5257691234461533,-0.00039637430156824375,0.8506271925546901,-0.0049728263783905035,-0.8393908479009379,0.9432160643569545,-0.010236838886661166,-0.8540670678105656,0.9681984003197508,0.0016410714042425535,0.6857258373716617,1.004416290191474,-0.03193445478264645,0.686606795402651,0.9974452437516456,0.0,0.0,0.0,0.0
0.017101928549827602,-0.20263535262140492,0.7474142912026525,-0.0001248382231112154,-0.5254885285559932,-0.00024512546509517316,0.8508006409758878,-0.016923499487758866,-0.8474313495234912,0.9250752974753329,-0.010612983358661046,-0.8663751532384278,0.9900836786202157,0.00418802177246716,0.6903581820311977,1.00293839688579,-0.02970372858232889,0.6927319253777303,0.9959646283880836,0.0,0.0,0.0,0.0
0.01916072614532746,-0.20253068146425865,0.7471602447018276,-0.0002783379778745118,-0.5255360074962905,-0.0002654388525457383,0.8507712717852222,-0.03388961351883568,-0.8626615839786007,0.910331995614394,-0.01079018114630304,-0.8759420963094968,1.0079142855413918,0.004079542991767853,0.6958119366973222,1.002948086211908,-0.030258512252989124,0.698168043019377,0.9951276846586218,0.0,0.0,0.0,0.0
0.020899963459414892,-0.20245891127480456,0.7469244909667482,-0.0002573820983681136,-0.5258775559993281,-0.000433295822967803,0.850560134326409,-0.051212012714825575,-0.8813263540497626,0.8999790616367178,-0.010572779805526249,-0.8827352034582001,1.0216030367976074,0.0020406380761387945,0.7018502543112425,1.0037571545319275,-0.03282552843358224,0.702831373785505,0.9949523564856145,0.0,0.0,0.0,0.0
0.02221997551198709,-0.20250722120980993,0.746732677945444,-0.00020255108220240074,-0.5262545405128054,-0.0006260800422235978,0.8503268345680358,-0.06738829253396511,-0.9014287658951996,0.8918713294765852,-0.009978681067143644,-0.8875909342088882,1.0317568628856986,0.0004660910330280962,0.7069454827402949,1.0043345546992224,-0.03486167251539769,0.7064685650831244,0.9953526279817064,0.0,0.0,0.0,0.0
0.023089832759227057,-0.20271631086296782,0.7466073405063498,-0.00016597655958340487,-0.5265468514773043,-0.0007972143876508395,0.8501457228618747,-0.08237952521288405,-0.921883296754681,0.8843756896479247,-0.008995806406288947,-0.8909725850454262,1.0388145543661824,0.0004583984537224349,0.7104447134055871,1.004160056291269,-0.03521701546054702,0.7090283646635818,0.9962167527523703,0.0,0.0,0.0,0.0
0.023538353484388905,-0.20309209132856326,0.7465548424281824,-0.00011623396525991746,-0.5267812537253669,-0.0009739617483273428,0.8500003227127085,-0.09660057140523981,-0.9418855547173982,0.8768116612889747,-0.0075528370220901905,-0.8929654568797101,1.043022844170447,0.0017032579829731071,0.7126228065813863,1.0032440261146363,-0.034217155973491425,0.7105746499775506,0.9975202618600012,0.0,0.0,0.0,0.0
0.023606178874285857,-0.2036382016332996,0.7465706067326864,-1.9464826287150916e-05,-0.5269961429154474,-0.0011878209914355162,0.8498668448966897,-0.110488231892802,-0.9605702436073535,0.8690941829708104,-0.005576714802349589,-0.8936615471689541,1.0446494687446657,0.003740058629300926,0.7138425135959398,1.0016782414579852,-0.03232569972774991,0.7111621272656355,0.9992948339816756,0.0,0.0,0.0,0.0
0.023315323530619554,-0.2043683506969755,0.7466520954057664,0.00014293002817475356,-0.5272073828876342,-0.001456931792332109,0.8497353896063944,-0.12427810882224079,-0.9765904518782413,0.8617381166186947,-0.002997592139744763,-0.8931518012532491,1.043883551127895,0.006373978863500274,0.714298038770113,0.9994505770655994,-0.029729564415010918,0.7108133194132943,1.0015760834205731,0.0,0.0,0.0,0.0
0.022650333627041875,-0.2053149786155381,0.7468093632351006,0.0003575320770437024,-0.5273790694009962,-0.0017706879844727461,0.8496281857333917,-0.13789707270349785,-0.9879918234941979,0.8559020868407353,0.00024198690136940188,-0.8915466282618897,1.0408035305159842,0.010009638319737942,0.7138207407823718,0.9962847039032521,-0.025988186761617123,0.709518902231021,1.00434613487473,0.0,0.0,0.0,0.0
0.021568007478993567,-0.20652364472584675,0.7470678057081749,0.0005896577957706457,-0.5274475458189375,-0.0020978910480151563,0.8495848030458257,-0.15093583749863826,-0.9925158144002555,0.853422242333285,0.00418808956422561,-0.8888933304807701,1.0353413499207889,0.015430440875039227,0.7120574886721885,0.9916654272098399,-0.020240182949017575,0.7072918733685053,1.007499967252797,0.0,0.0,0.0,0.0
0.02004455227946887,-0.20802534839229647,0.7474620238333068,0.000832854160177843,-0.5274151902985347,-0.002426659951141317,0.8496038104421318,-0.16287289968078134,-0.9886271998273805,0.8562907430685869,0.008879814712441786,-0.8849483426539592,1.0272326324090604,0.022852435482256094,0.7091306433656366,0.985118371144802,-0.012176525763371089,0.7042942741714588,1.0108250705497963,0.0,0.0,0.0,0.0
0.018099099519801782,-0.20981371538140384,0.7479935349877802,0.0010463324377122873,-0.5272297808850699,-0.0027270296347818787,0.8497177335125365,-0.1741051555685635,-0.9780040124124757,0.8627555451985779,0.014225878692501689,-0.8799013746083626,1.0166835882001888,0.03247302607517793,0.7049729853726372,0.9763765181605987,-0.0014597403709039787,0.7005831010785897,1.0141231334960725,0.0,0.0,0.0,0.0
0.015783130149496803,-0.21186895386124752,0.7486672545078178,0.001171437550170958,-0.5268361854819408,-0.002959928379102756,0.8499608815850849,-0.18540640750182463,-0.9633441302299024,0.8711083422003807,0.02008869862028105,-0.8740330044117411,1.0041172204909818,0.044458750997013886,0.6996519102540999,0.9650795128251676,0.012245296394054818,0.6963440619451639,1.0170548694892128,0.0,0.0,0.0,0.0
0.013175691829553105,-0.21413902951108044,0.7494507428445981,0.0011655739769516214,-0.5262387923362041,-0.0031110104932734898,0.8503303455078788,-0.19773210138461825,-0.9472620264427111,0.8807311767027565,0.02630989981921346,-0.8675390087194488,0.9899018205526985,0.05837888592935771,0.6934761659680111,0.9513857199692592,0.028620093550631227,0.6916804515244779,1.0195232116793498,0.0,0.0,0.0,0.0
0.010381919882945874,-0.21649145498740527,0.7501618650711369,0.0010521131206679697,-0.5255748599026039,-0.00323377258473644,0.8507405611649241,-0.2122607396750853,-0.9321627396985072,0.8924347313824271,0.0326728369213288,-0.8604856892202352,0.9740559905192334,0.07254228889887099,0.6866986190007067,0.9374904857997609,0.04579603763228152,0.6860879590294983,1.0226466123210323,0.0,0.0,0.0,0.0
0.0076641423490446765,-0.21846196305276386,0.7505321838478037,0.001086028854463131,-0.5254488544596502,-0.00352069472076913,0.8508172110371603,-0.23060232121510493,-0.9199757487200206,0.9098934700506035,0.03831845465429564,-0.8510694264637542,0.9550470531197744,0.08162973643608573,0.681168614625371,0.9289225998047121,0.057283441953262335,0.6795717472983268,1.0278685624066237,0.0,0.0,0.0,0.0
0.005421248242525177,-0.21979641520667678,0.7506182425766157,0.0015366158406955968,-0.5262667372299892,-0.00418384230272555,0.850307859284298,-0.2526170639285306,-0.9123130733027677,0.9381701184661276,0.0429910061864456,-0.8387307845686738,0.9339542494724329,0.08254216720522084,0.6795796933238627,0.9273647153869292,0.05880998574078675,0.6738343394937191,1.034239046784459,0.0,0.0,0.0,0.0
0.004118473197971663,-0.22039930074669162,0.7505877923018175,0.002635360146332125,-0.5282260018741769,-0.0052646340267861295,0.8490834054729165,-0.27571745147208754,-0.9115525032926255,0.9835160259264516,0.04642120815266762,-0.8242648927473268,0.9139714790587258,0.0738851700488598,0.6846113587335478,0.9320313000715368,0.04854777736513294,0.6712251552128523,1.040070941311144,0.0,0.0,0.0,0.0
0.00390745814349725,-0.22036851208972344,0.7505262848899172,0.004157096616001903,-0.5307477238428215,-0.00624531234183664,0.8474966479326878,-0.2954423597398394,-0.9218077403536103,1.0463461265312146,0.047668178355040274,-0.8110775911319504,0.8996754288972078,0.059609659596692025,0.6944899771340246,0.9396276976982036,0.03170767988444689,0.6724873930822717,1.0441679706991684,0.0,0.0,0.0,0.0
0.003921745892020707,-0.22041250561486214,0.7505053668042474,0.004144740234158698,-0.5307436930808558,-0.006230900849911934,0.847499338794954,-0.295470567399174,-0.9218351116466225,1.046344707580096,0.04770666851963022,-0.8110842210760184,0.8996024900622385,0.05949354885964012,0.6946307473215305,0.9394555447711295,0.03180730406735893,0.6723872322088235,1.0443348152842131,0.0,0.0,0.0,0.0
0.003921745892020707,-0.22041250561486214,0.7505053668042474,0.004144740234158698,-0.5307436930808558,-0.006230900849911934,0.847499338794954,-0.295470567399174,-0.9218351116466225,1.046344707580096,0.04770666851963022,-0.8110842210760184,0.8996024900622385,0.05949354885964012,0.6946307473215305,0.9394555447711295,0.03180730406735893,0.6723872322088235,1.0443348152842131,0.0,0.0,0.0,0.0
0.0036166605051734025,-0.22164591611899193,0.7528280098383575,0.00252329099553629,-0.5283960904737379,-0.004505286309638619,0.8489822771824447,-0.29680443265955836,-0.9280884560757241,1.0530948002354992,0.04725151320904564,-0.8143929440703607,0.9072145957816755,0.029049810365480416,0.6645899385515862,0.9836325872806703,0.06406500588416261,0.683863888472454,1.025676688920247,0.0,0.0,0.0,0.0
0.0037881203574918736,-0.2234746160656693,0.7557638806220263,0.0018658857692025485,-0.5272881133208298,-0.003694652817726036,0.8496764758197161,-0.29392955065491533,-0.9259345758790074,1.0558759576846797,0.05005033368615165,-0.8142923977227564,0.915330881013481,0.0021402082858958497,0.6459485258815935,1.0200153549792064,0.08662137630625366,0.6992712546880328,1.003111830359732,0.0,0.0,0.0,0.0
0.00407165640879336,-0.22575520766960175,0.7586813638434741,0.0017867217200738755,-0.5267731298051367,-0.00349014022056554,0.8499968801484135,-0.2882165111443603,-0.9198546163112924,1.055698806587117,0.05522408869847201,-0.8135004285175708,0.9235288868210034,-0.01682987161451864,0.6331244339531117,1.0508433260899688,0.10449037288281271,0.7147197148171639,0.9816726924165152,0.0,0.0,0.0,0.0
0.004370714122787736,-0.2283616257602633,0.7614072854466545,0.0019620248390153326,-0.5264319738597378,-0.003600541075418435,0.850207364976707,-0.2809282166186996,-0.9127598716257344,1.0542481852919057,0.06189057045488395,-0.8134650667950226,0.9323499001453252,-0.03076801799212125,0.623439985917636,1.078288851405191,0.12103835991871631,0.7291039814360286,0.962401411495076,0.0,0.0,0.0,0.0
0.004653465068706168,-0.23117262643795483,0.7639063044981377,0.0022590145382608926,-0.5261360157666082,-0.0038853987797259526,0.8503885543931538,-0.27277516304262367,-0.9055529990557625,1.0520880556009315,0.06945468854599295,-0.814283647352132,0.9415707672650907,-0.042378362525437835,0.6157409055357375,1.1037267219597815,0.13714739342020243,0.7421810613357515,0.945337877709271,0.0,0.0,0.0,0.0
0.004853431269500659,-0.23407486380401352,0.7661833607541702,0.0025935548033655265,-0.5258254579624545,-0.004219820287012954,0.8505780706959252,-0.2643288748974873,-0.8984169134963257,1.049062997950009,0.0773502107607088,-0.8154865558615687,0.9503404331980057,-0.05257635447262272,0.6090103252746994,1.1276139908000937,0.153297669186058,0.7538756823399841,0.9302704955638676,0.0,0.0,0.0,0.0
0.004872794040460034,-0.23697743617471065,0.7682344610765263,0.0029249270758584553,-0.5255043817190305,-0.004544872382486599,0.8507737265164735,-0.25588873288035097,-0.8910021135112329,1.0444068977571346,0.08520303557936933,-0.8163272558562376,0.9573971550647618,-0.06221642063142738,0.6027579893749845,1.1497894735815293,0.16937622739814995,0.763941603993371,0.91721928843872,0.0,0.0,0.0,0.0
0.004666136485771657,-0.23984620012674904,0.7700444678876482,0.0032463858066795414,-0.525177490117408,-0.004840838287330755,0.8509727558141036,-0.2475676531985771,-0.8831849721389617,1.03778251358137,0.09286790098547357,-0.8165794009952271,0.9622828533072538,-0.07184459307470004,0.5971087697251616,1.1692762023550565,0.1852169297338692,0.7721413629718669,0.9063985035977581,0.0,0.0,0.0,0.0
0.004169883210726213,-0.24270728296597985,0.7715809966317881,0.0035402121042705965,-0.5248177289200976,-0.005093663955661698,0.8511920305647337,-0.2393172624822436,-0.874957799268805,1.028810742633313,0.10037911826331297,-0.8162676481798488,0.9647213676521242,-0.0821734473185883,0.5924806060555535,1.183894537200177,0.2010827472051266,0.7780325602552648,0.8983226116600715,0.0,0.0,0.0,0.0
0.003303401947464495,-0.24563619786999233,0.7727997319276433,0.0037628418948986724,-0.5243544716108605,-0.005272120815927145,0.8514754452505788,-0.2310099150497341,-0.8665007231072925,1.017135919848156,0.10787726996360544,-0.8156488873842015,0.9645983515238442,-0.09409635541646269,0.589858464468804,1.1896077363469797,0.21778273365170112,0.7810145006560458,0.8936837798148926,0.0,0.0,0.0,0.0
0.0020177289059791167,-0.24872089122731916,0.7736827943298445,0.0038810377138816803,-0.5237258234875017,-0.005356667104654422,0.8518612008280055,-0.22246692203479107,-0.8579456077933223,1.002529767179023,0.11556081951368455,-0.8150097424823193,0.9620082977814842,-0.10846795968598238,0.5916726142182598,1.1803855573705169,0.23599095966117928,0.7807010175516271,0.8928401980754304,0.0,0.0,0.0,0.0
0.0002967598626085501,-0.2519560192583642,0.7742975180649639,0.0039056611602362387,-0.5229631786240316,-0.00534119398113391,0.8523295907459781,-0.213692344983297,-0.8487218736499017,0.9844292226174094,0.12336464272822481,-0.8138293104710109,0.9564437649493454,-0.12471545011573591,0.5952260410382201,1.1623984919091117,0.25534481726460767,0.777406352896897,0.8950652731730289,0.0,0.0,0.0,0.0
-0.0018423721009964537,-0.2553171055534339,0.774733136782833,0.0038337542850723836,-0.5220872758394686,-0.005210098693435969,0.8528675357909978,-0.2047837910863798,-0.8384107526665596,0.9625746514852498,0.13115861244832955,-0.8116560214788282,0.9476227774078094,-0.14250930139758303,0.5991889318896507,1.139935934325066,0.2754923065625272,0.7716899933578747,0.8992444871542025,0.0,0.0,0.0,0.0
-0.004371567126448547,-0.2587496132319915,0.7750563408744306,0.003624447755476153,-0.5210902235974355,-0.004912959568536481,0.8534797625473731,-0.19601063174017497,-0.8269661206412128,0.9370508539109391,0.13868249107943476,-0.8082113117689049,0.9354171752479342,-0.16236068417887628,0.6029809230105376,1.115768379830101,0.29632265549761705,0.7640552056486428,0.9043482790262576,0.0,0.0,0.0,0.0
-0.007214777718072833,-0.26213086288796683,0.7752958569869522,0.003203199140065921,-0.5199478517746079,-0.00436666223322725,0.8541808375345237,-0.18791152532245362,-0.814956181341813,0.9087365246340364,0.14547045474378195,-0.8035374588737008,0.9201327835279128,-0.18635135052458118,0.6068528209737063,1.092038013814298,0.3177277783581405,0.7549807114751372,0.909513795779695,0.0,0.0,0.0,0.0
-0.01014654982455912,-0.26524972236280686,0.775387664216231,0.002403098254036317,-0.5185013486680554,-0.0033643814835617883,0.8550668146322965,-0.18163827254599546,-0.8052632657798499,0.8814310653273488,0.15069430732175243,-0.7993301128154243,0.9042816677426861,-0.21868588474306444,0.6124158873328485,1.0704471808314389,0.3403762737709095,0.7448166307534977,0.9142788332737136,0.0,0.0,0.0,0.0
-0.012753433413632663,-0.26797090781129945,0.7751791427316943,0.0011941247329996395,-0.5166600638695078,-0.0019251280664186277,0.8561876233340482,-0.17767548132735822,-0.801593155190029,0.8609077457466621,0.1543028622547629,-0.7987691070725367,0.8927632744015658,-0.26543642560832104,0.6214185577302244,1.053235343849525,0.36365481202067257,0.7336838658902199,0.9192858991529175,0.0,0.0,0.0,0.0
-0.014982995236459505,-0.2701043388106636,0.7741381365038872,-0.00012161542951075793,-0.514654764095048,-0.0003912258919077861,0.8573974025772759,-0.17579881565546418,-0.8046367561968067,0.8479439676526955,0.15657768994752377,-0.8030943967924292,0.8861871255144851,-0.32481980687798107,0.632252982049193,1.042481397395553,0.3835796210448108,0.718790410735609,0.9301190204934116,0.0,0.0,0.0,0.0
-0.016501696961688003,-0.2713460346845245,0.7726095607179347,-0.001060914532278475,-0.5128836496749211,0.0007461794810512508,0.8584571506910931,-0.17566878362705762,-0.8122847839190419,0.8433510391534765,0.157644911251236,-0.8109455542076491,0.8850947191781668,-0.38643504322566224,0.6405681474092414,1.0416849513142215,0.39468226010411794,0.7031324322565672,0.9435948443114001,0.0,0.0,0.0,0.0
-0.016480042404203376,-0.2713890847118434,0.7725620003276971,-0.001119357713062154,-0.5128915647617953,0.0007816626252684124,0.8584523159955056,-0.1756816880998648,-0.8122931940469151,0.8431823714588588,0.15768746386529123,-0.8110114111800137,0.8851494149004869,-0.38646337687140114,0.6405503286263219,1.041680521069837,0.39472041048074885,0.7030444998466345,0.9434815128597609,0.0,0.0,0.0,0.0
-0.016480042404203376,-0.2713890847118434,0.7725620003276971,-0.001119357713062154,-0.5128915647617953,0.0007816626252684124,0.8584523159955056,-0.1756816880998648,-0.8122931940469151,0.8431823714588588,0.15768746386529123,-0.8110114111800137,0.8851494149004869,-0.38646337687140114,0.6405503286263219,1.041680521069837,0.39472041048074885,0.7030444998466345,0.9434815128597609,0.0,0.0,0.0,0.0
-0.01701977736020549,-0.2717017133088006,0.7729395781008845,-0.0006711556827334699,-0.5139519093658238,0.0005113051551417449,0.8578185839536888,-0.17374464558337732,-0.7998359344307012,0.8284057880160247,0.15824577550775026,-0.8011966092936832,0.8735210043871214,-0.39118236154546077,0.6450560209196878,1.0404197283458072,0.3945337286351434,0.7059644304602879,0.943093177046506,0.0,0.0,0.0,0.0
-0.017249529719921514,-0.2722085596477536,0.7731229569368125,-0.00037200942122978876,-0.5146442626277035,0.0002758989695140934,0.8574036788077927,-0.1716562114234102,-0.7920692775657743,0.8193251639922617,0.15956576626185295,-0.7960635948357135,0.8678579730362892,-0.39313576095196506,0.6481443912051832,1.039577049278149,0.39643940239167197,0.7079575715526475,0.9440786905164769,0.0,0.0,0.0,0.0
-0.017075966762391617,-0.27280796213046415,0.7732300367411755,-0.00015892059251163606,-0.515105106079115,7.746204086191574e-05,0.8571270025119387,-0.1696514060973393,-0.7884606354138275,0.8163467026729044,0.1613101057220959,-0.7948930168859506,0.8681689963161431,-0.3938788902204011,0.6512173734841968,1.0385670262572366,0.3999784113293996,0.7103044857603398,0.9453106470902255,0.0,0.0,0.0,0.0
-0.016458543786716892,-0.2734698497789179,0.7733044930125604,1.3912110468218591e-05,-0.5154045646919999,-0.00010644196747874079,0.8569469780396047,-0.16774000858676763,-0.788664837660921,0.8195049200157337,0.1634216564145746,-0.7973576994963372,0.8744004288923521,-0.39433808031061907,0.6549574801702402,1.0371960507021076,0.4048549538312028,0.7135195922912543,0.9464119644113441,0.0,0.0,0.0,0.0
-0.015385912104104081,-0.2742159380496162,0.7733715871833894,0.00018104636199855342,-0.5155871511732512,-0.0003107049615305564,0.8568370674928184,-0.16577035794557216,-0.7922366925120283,0.8284250951991584,0.1660170442983098,-0.8031828917355803,0.8863307959236518,-0.39498275805928257,0.6597788781212749,1.0352781467268943,0.41099312035517516,0.7178586695419048,0.9472409499218647,0.0,0.0,0.0,0.0
-0.013869027748483765,-0.27507018131038946,0.7734632054396149,0.0004480878208427642,-0.5157195094943867,-0.0008314981410986452,0.8567569639956335,-0.16291203749023572,-0.7981053457448495,0.8420679123395113,0.16984973333372988,-0.8120034641774189,0.9033659012227878,-0.3984770432374052,0.6667024034917117,1.032690258461089,0.4162195743322706,0.7230953616708148,0.947584119245941,0.0,0.0,0.0,0.0
-0.012129073495699584,-0.2754896244168745,0.7734108100062045,0.0005275055913621868,-0.5155202822413033,-0.000818293334029389,0.8568768235468371,-0.1626667538518129,-0.8088541515189578,0.8614531569418633,0.15018206636519366,-0.8154842954653984,0.8847696617323243,-0.39971572666312216,0.6715944709337277,1.0311455920962334,0.4226561279281107,0.7282633940868897,0.9475795533581831,0.0,0.0,0.0,0.0
-0.01046831720900528,-0.27604112801614866,0.7733329773518636,0.0006259511210533752,-0.5153495006461616,-0.0009962351900976252,0.856979292564524,-0.16155146912087334,-0.818444108278067,0.8789835985095681,0.12657527249292116,-0.8268530580888688,0.8694661782166875,-0.4014118711159194,0.6765673399982549,1.0296775326971719,0.4286965625878828,0.7329085132994403,0.948075601311793,0.0,0.0,0.0,0.0
