zhuoxili-jackie/tripod-support-walk/examples/trajectory_tripod_lowstep_p2_v0.20.csv
root_pos_x,root_pos_y,root_pos_z,root_rot_x,root_rot_y,root_rot_z,root_rot_w,FL_hip_joint,FL_thigh_joint,FL_calf_joint,FR_hip_joint,FR_thigh_joint,FR_calf_joint,RL_hip_joint,RL_thigh_joint,RL_calf_joint,RR_hip_joint,RR_thigh_joint,RR_calf_joint,FL_foot_joint,FR_foot_joint,RL_foot_joint,RR_foot_joint
0.0,0.0,0.745913,-0.00590261038931276,-0.5534150365010598,-0.008528410562500118,0.8328410549308913,-9.86e-07,0.349071,-0.872662,2.4067e-06,0.349062,-0.872669,2.38753e-06,0.610854,0.872668,-3.27e-06,0.610866,0.872669,0.0,0.0,0.0,0.0
4.231944253368214e-05,-0.0001042088308146465,0.7459136636641521,-0.005904551017220712,-0.5534189165931533,-0.00852210827669475,0.832838527389713,0.00023547874360429173,0.34913612930720817,-0.8726981028864274,0.00023887238140787176,0.3495392386196356,-0.8734693527328572,0.0005726729317034305,0.6109819565250746,0.8723135256934716,0.0005670280611555801,0.6109304185971058,0.8731130180341858,0.0,0.0,0.0,0.0
9.576994863033097e-05,-0.00027098951819855944,0.7459122661370828,-0.005899353291914556,-0.553425871896,-0.008521291508344788,0.8328339507596452,0.0006295364965156967,0.3491483102313135,-0.8725898919367998,0.0006330258812825771,0.3502127691895298,-0.8746337729108007,0.0014028005057957283,0.6111711348374038,0.8717714634148479,0.001398197875054485,0.610969488315454,0.8738260742930853,0.0,0.0,0.0,0.0
0.00016021575476894332,-0.0005167727589836283,0.7459089004893189,-0.005887660372984174,-0.5534332184272875,-0.008525361567596939,0.8328291099659572,0.001220009194858286,0.349078280549166,-0.8722946274108193,0.001223864907911178,0.35111767267421945,-0.8762391949980369,0.002583617529981833,0.6114226154353426,0.8709685490015573,0.0025824168251053735,0.6109743747984366,0.8748609184475645,0.0,0.0,0.0,0.0
0.00026632681717517274,-0.0008951855244508434,0.7459103283939799,-0.005860540972869138,-0.5534411092846687,-0.008543033991957596,0.8328238764489602,0.00214799930247105,0.3490197540261937,-0.871882679167204,0.002152927686826054,0.3525580892123508,-0.8788038362161756,0.004303230742284154,0.6118846882632856,0.8696712923035685,0.004310813147194217,0.6110011165319826,0.8763615406324049,0.0,0.0,0.0,0.0
0.00043158111324855057,-0.0014661259621369474,0.7459653867002531,-0.005782635150758164,-0.5535349681419383,-0.008692984108070841,0.8327604890976237,0.0038072241897682884,0.34895004994190104,-0.8704548100176773,0.0038152635025973975,0.35469910392516024,-0.8822329328330064,0.006163384279569429,0.6133179169370485,0.8675646366376025,0.006186821076320117,0.6112965371549258,0.8781725583879729,0.0,0.0,0.0,0.0
0.0008768589429117503,-0.001942180528725593,0.745931662358498,-0.005727713614310524,-0.5534724362322981,-0.008719468751521159,0.8328021532708284,0.004953878868522145,0.3508347368917015,-0.8735774310242167,-0.004559334687661858,0.3498492228443297,-0.8773355363605021,0.008179086805673724,0.6141633685122828,0.8663640267612303,0.008227693599616549,0.6115572343321793,0.8804230263658471,0.0,0.0,0.0,0.0
0.0013860279558696072,-0.0025331579865501145,0.745905060767746,-0.005660542719432247,-0.5534485768928965,-0.008812282517000966,0.8328174918120954,0.006524579175147168,0.3528730277895714,-0.8765482286545893,-0.015402801154108935,0.3451934627864248,-0.8746545159434456,0.010434163264607735,0.6154306626788574,0.8648971248843169,0.010518948918088973,0.6119162460101065,0.8831014781869824,0.0,0.0,0.0,0.0
0.001917733988581824,-0.0032300044006577026,0.745888362117849,-0.005580890655354919,-0.5534432560337206,-0.00893639382539239,0.8328202428349615,0.008417025694301548,0.354832900449119,-0.8791322318778916,-0.026131914900282778,0.3409150723961027,-0.8732995722927988,0.013039442560835317,0.6169591554570021,0.8630186531113677,0.013176188505140067,0.6123352055690767,0.886083770433314,0.0,0.0,0.0,0.0
0.0024577604603674297,-0.00401089092801356,0.7458755309285467,-0.0054925196104240615,-0.5534447446648075,-0.009070216507111602,0.8328183943716356,0.010531561708902773,0.356666985514827,-0.8813819779263968,-0.03587193180786383,0.33697687020036377,-0.8726511485633894,0.015998278942148926,0.6186145934047015,0.8607923829373757,0.01620831947535984,0.6127788239727947,0.8893229903643268,0.0,0.0,0.0,0.0
0.003009079296529588,-0.004865739930090186,0.7458609696376395,-0.005396632570187595,-0.5534480142504781,-0.009206336823684592,0.8328153548304653,0.012827465769457147,0.35840939135015276,-0.88341736270184,-0.04456051018605893,0.33333131677008626,-0.8723943700179504,0.01929761114428715,0.6203425320186622,0.8582877046488323,0.019608162736849122,0.6132311604206906,0.8928289063348365,0.0,0.0,0.0,0.0
0.0036027003876045235,-0.005794065554575737,0.7458404041205227,-0.005289629417055793,-0.5534497291540077,-0.009346364781165146,0.832813341983282,0.015303963538652514,0.36024756743217456,-0.8855677589178924,-0.05243805394634864,0.32999069953307775,-0.8723013301280489,0.022908619019444968,0.6221777242315263,0.8555652194149586,0.02335284834963366,0.6137207690563827,0.8966464468093303,0.0,0.0,0.0,0.0
0.004264720821688326,-0.0068135014860385475,0.745810193615274,-0.0051658119911846614,-0.5534476000838374,-0.009496141992479397,0.832813839723603,0.018013368056765986,0.362301533190918,-0.8880245772295373,-0.05972395873023994,0.32707767013610256,-0.8721736915965775,0.026868707239868162,0.6241706639665725,0.8526096555227952,0.027488414273417607,0.6142614622422012,0.9008708375847028,0.0,0.0,0.0,0.0
0.0050246976052638875,-0.007950517855467663,0.7457675521592978,-0.0050166799061164835,-0.5534385298134032,-0.009664522708586712,0.8328188420307945,0.021035047714982474,0.3646932008855268,-0.890967485347788,-0.06655398280608893,0.3248555665065171,-0.8717239600082608,0.031234894690580516,0.6263961167372941,0.8493617989248046,0.03208403314677015,0.6148719304225535,0.9056107658709265,0.0,0.0,0.0,0.0
0.005919213283475435,-0.009232602896649306,0.7457123333057247,-0.004830557741430608,-0.5534201524520083,-0.009863334816795603,0.8328298236723961,0.024456317662943577,0.3675814485876632,-0.8946097024807986,-0.07300783127957165,0.3236717662649621,-0.8705091715607035,0.03604235182453073,0.6289710117588305,0.8457360678286557,0.0371899648061325,0.615599876079599,0.9109470434223327,0.0,0.0,0.0,0.0
0.00698744899496833,-0.01068234954188788,0.7456493270505985,-0.004593156589584768,-0.5533921133697801,-0.010107359966808439,0.8328468725084902,0.02835889530456551,0.3711457503460441,-0.8991590401381425,-0.07919591708143237,0.32369247072022855,-0.8679619285262917,0.041277988620686844,0.6320597209556068,0.8416175550007481,0.0428093631625811,0.6165320926515112,0.9168882462758483,0.0,0.0,0.0,0.0
0.008246392332344185,-0.01232201121854925,0.7455803783166987,-0.0042927477477883004,-0.553345011797431,-0.01041008369976225,0.8328760414329607,0.03282516759121826,0.3754299770592734,-0.9046596131900588,-0.08533718770219681,0.32449239464458185,-0.864188224091098,0.046946900818714825,0.6357483614217235,0.8368642676118674,0.04896695623950781,0.617685393279692,0.9234241886185206,0.0,0.0,0.0,0.0
0.009685374799077228,-0.014145717432882206,0.7455164343405185,-0.003920592611819475,-0.5532688095796883,-0.010784078159330385,0.8329237401815969,0.03787058024865711,0.3803696006081282,-0.9109650336078079,-0.09182444043018217,0.3253775294865868,-0.859069992469854,0.052924652228314495,0.6401090279613165,0.8313178901451399,0.05555011658363333,0.619079556570236,0.9303355097684274,0.0,0.0,0.0,0.0
0.011205934356091808,-0.016109209685031378,0.7454687354921533,-0.003478505134455213,-0.5531607666931193,-0.011235289282107765,0.8329914972364707,0.043407418933212726,0.38545048986017233,-0.9172180338858321,-0.09910978230497271,0.32556759763832616,-0.8522349331420362,0.0589585932562328,0.6450197900220767,0.8249216455443583,0.06229857754823977,0.6205803054256483,0.9372602395392063,0.0,0.0,0.0,0.0
0.012724991869358404,-0.01802336539071601,0.7453831487691279,-0.002976229203648353,-0.5530326019289997,-0.01175794492496023,0.8330713258746273,0.04897113916521841,0.3904948337820659,-0.9234303554057408,-0.10790564525486435,0.32420206213341685,-0.8428233165372735,0.06414143114018368,0.6498865442144135,0.8190067055861155,0.06821075614029506,0.6217609112848279,0.9440950656154804,0.0,0.0,0.0,0.0
0.014129261308977674,-0.01961333678518738,0.7451473230815985,-0.0024273665584953305,-0.5528696579301432,-0.012325583983152647,0.8331730487787464,0.05384196090552791,0.3953151950210012,-0.9300740253515051,-0.11853621251930392,0.31999133277061437,-0.8291649272384874,0.06721890353739828,0.6535138147186642,0.8158683233315803,0.07184179421767942,0.6217410788699917,0.9510074223616511,0.0,0.0,0.0,0.0
0.015274299554435536,-0.02069721739137499,0.7448032944761744,-0.001822099823793536,-0.5525861066621981,-0.012892923407370601,0.8333540947293399,0.05745279346910354,0.399553239118919,-0.9370252813574408,-0.12990647335103003,0.31063393687989677,-0.8078194836619466,0.06729245739838706,0.6554970171353959,0.8155505575592801,0.07210792829835178,0.6201936353897833,0.956812783060786,0.0,0.0,0.0,0.0
0.01587015942483996,-0.021153612105836907,0.7444129700572278,-0.0011259462259558281,-0.5521713764511625,-0.013456093215004133,0.8336212790161452,0.05943426765789405,0.4018632618245501,-0.9420297770706203,-0.13980364150625135,0.2931017765121564,-0.7753616726590655,0.06344523372146002,0.6555607076336218,0.8177948876546708,0.06793704600868163,0.6166170861780248,0.9604654363228935,0.0,0.0,0.0,0.0
0.015898839075452947,-0.0211893015229959,0.7444045414425755,-0.0010919096440356823,-0.5521605962048611,-0.01346317988300601,0.8336283503573155,0.059527446914876006,0.40189734000690136,-0.9420587935819686,-0.13982856130090113,0.29310103725591624,-0.7753459112797444,0.06341997706493324,0.6556316244796214,0.8177019196288069,0.06794827601878894,0.6165917768470451,0.960587745892091,0.0,0.0,0.0,0.0
0.015898839075452947,-0.0211893015229959,0.7444045414425755,-0.0010919096440356823,-0.5521605962048611,-0.01346317988300601,0.8336283503573155,0.059527446914876006,0.40189734000690136,-0.9420587935819686,-0.13982856130090113,0.29310103725591624,-0.7753459112797444,0.06341997706493324,0.6556316244796214,0.8177019196288069,0.06794827601878894,0.6165917768470451,0.960587745892091,0.0,0.0,0.0,0.0
0.015986668240119597,-0.02177198793489658,0.7456631619288561,-0.0019697041750165855,-0.5521107134936062,-0.01260064689219921,0.8336732597420539,0.059594377631108544,0.4024142077950045,-0.9401571845521679,-0.13962024251430197,0.29596338464841754,-0.7727342022878655,0.04456645415461455,0.6456217074567828,0.845306981811533,0.08058729849321648,0.6262063466630359,0.9511453464777582,0.0,0.0,0.0,0.0
0.016095002905937624,-0.022766441236876062,0.747139187190986,-0.00257562918975339,-0.5520767857593507,-0.011988386077457423,0.8337031050434912,0.06101382877074262,0.4023390581237858,-0.935319947250242,-0.13806932629487106,0.3004451529830989,-0.7730382626759542,0.02573896314947398,0.6393386127983494,0.8653038451863844,0.09285926858149358,0.6363622062497891,0.9404375757437482,0.0,0.0,0.0,0.0
0.0161721747106846,-0.024030571263221577,0.7485197927838708,-0.002942598696494159,-0.5520371293170017,-0.011599157054744846,0.8337336556262884,0.06341706545152226,0.40136077063743064,-0.9286091624222618,-0.1355761073431697,0.305586025847694,-0.7758103586948655,0.011469325561380379,0.6347323951123182,0.8796569468368378,0.10424666136776603,0.6452948317110094,0.9309965684728709,0.0,0.0,0.0,0.0
0.016238044003926456,-0.02543867116381228,0.7497459178050264,-0.003152585732837068,-0.5519806618088471,-0.011369870220303427,0.8337734322005215,0.06641577499063364,0.3998023559066272,-0.921119083405472,-0.13253043297932646,0.31105545339162555,-0.7804416681290302,0.00044975118361274824,0.6312434730917684,0.8906392467534646,0.11478236952559728,0.6528841560767391,0.9231377549153904,0.0,0.0,0.0,0.0
0.01628946507604316,-0.02688816400961806,0.7508280332840792,-0.003274178647187812,-0.5519122315272192,-0.011226652273889077,0.8338202028756275,0.06963974782351523,0.3978694141941721,-0.9133859078592347,-0.12927888498107776,0.3164756475276355,-0.7859229259902875,-0.008758018302886519,0.6286026567952864,0.8995786253191539,0.12462596871998075,0.6593825498509664,0.9165926453299202,0.0,0.0,0.0,0.0
0.01631871482812209,-0.028314510990668486,0.7517789437223927,-0.003350860779136766,-0.5518336212199291,-0.011126585383022271,0.8338732669423171,0.07286723196830601,0.3956778054762509,-0.9057011640688262,-0.12602753358271,0.3215836607330402,-0.7915722650831132,-0.017168443625183646,0.6266209143868203,0.9071647820581604,0.13385972361647486,0.6649592457378749,0.9111219198422226,0.0,0.0,0.0,0.0
0.016320380396591092,-0.029687417401708376,0.7526021806895067,-0.0034078637790457876,-0.5517423320159229,-0.011045629742929473,0.833934517566983,0.07599178095787051,0.39328415671005557,-0.8982434733209296,-0.1228783206087609,0.32625430699319846,-0.7970829656199879,-0.025400111227657087,0.6252328624347203,0.9136007366978481,0.14256582962862133,0.6696763423620213,0.906642374280069,0.0,0.0,0.0,0.0
0.016255269178517516,-0.030981899879029644,0.7532877753901422,-0.003465570658346698,-0.5516375148356835,-0.010967250841581485,0.8340046531374395,0.0789311420454749,0.3905241884407669,-0.8908666704469942,-0.11989832576790273,0.3301623260336245,-0.8018993805904233,-0.03397951382107856,0.6244842760472086,0.9186258095717804,0.15077433608835406,0.6734262654662372,0.9032018253061932,0.0,0.0,0.0,0.0
0.016103349721180188,-0.03220667033973625,0.7538243220698392,-0.0035358236994099406,-0.5515142537201959,-0.010882174704544213,0.8340869883698713,0.08169622272546055,0.38727054456079163,-0.8834602006352389,-0.11707478019585718,0.3332170290389204,-0.8059239425226637,-0.043363126711430985,0.6247329831791519,0.9215231017467889,0.15863211743280298,0.6761071566865129,0.9009517687746875,0.0,0.0,0.0,0.0
0.015881201985649584,-0.0334049909314238,0.754218130423699,-0.0036206222911504596,-0.55136475810668,-0.010789736252298981,0.8341866554937167,0.08439503794720696,0.3835447144998702,-0.8760387443376149,-0.11431286844999147,0.33567252716311047,-0.809612565090095,-0.053925347901842544,0.6267495214332476,0.921068855404731,0.1664058795388623,0.6777736545893484,0.8999573852667179,0.0,0.0,0.0,0.0
0.015595704962450227,-0.034605639693754554,0.7545164856921233,-0.003721551401347422,-0.5511737898601187,-0.010684441310535175,0.8343137576117767,0.08708470024984927,0.37936987712574494,-0.8685089317389245,-0.11155687181955584,0.3377022712533738,-0.8131395851610373,-0.06558355270642167,0.6297300745712442,0.9187865304786249,0.17426469747949988,0.6786748821734897,0.8997840808274299,0.0,0.0,0.0,0.0
0.01523840008755029,-0.0358195721276544,0.7547752993167341,-0.003847657150475059,-0.5509232676227516,-0.010555436322317509,0.8344802762740219,0.08977086298308509,0.374722321444179,-0.8607142057181524,-0.10879361617730966,0.339332665031727,-0.8163863210852454,-0.07868190180471536,0.6331945728459072,0.9157339238053829,0.18231329446789415,0.6790799420398655,0.8998334453006155,0.0,0.0,0.0,0.0
0.014807921527069605,-0.03704784859136818,0.7550432837985916,-0.004019694592212429,-0.5505852120609716,-0.010380566872318031,0.834704744293795,0.0924229420037617,0.36964925784916147,-0.8527287953940533,-0.10605371316532237,0.3406080600810871,-0.8192933089835075,-0.09441732556115927,0.6370060290838507,0.9127581314715116,0.19070707870405215,0.679237185623432,0.8995296399624544,0.0,0.0,0.0,0.0
0.01431712640908185,-0.03826909475989079,0.7553539683008448,-0.004275266986880747,-0.550119933617001,-0.010122588880189362,0.8350133615241017,0.09494330429028927,0.36434921331754966,-0.8450508904246284,-0.10344789488178563,0.3415954159267376,-0.8218855201721522,-0.11528972175933863,0.6413480790232807,0.910774700865957,0.19963085669174174,0.6793514945070476,0.8983667383348457,0.0,0.0,0.0,0.0
0.013807966417307294,-0.039419265683486915,0.7557042482031424,-0.004664301459355244,-0.5494734727371018,-0.009732690847781033,0.8354414532323537,0.09712924663998922,0.35931476370028725,-0.8389343520782887,-0.10121677243347928,0.34241400265702643,-0.824415559594087,-0.14504424774541086,0.6466641845050245,0.9109229742433095,0.2091468944397026,0.6794800091748786,0.8960688526246936,0.0,0.0,0.0,0.0
0.01333076985363981,-0.04031406889387343,0.7559590626357267,-0.005212488358834833,-0.5485785953246539,-0.009168617878873242,0.836032470160657,0.09850317990901498,0.35534129614990667,-0.836759273448904,-0.09990818436237085,0.34285511195058027,-0.8271512478805667,-0.18608030989900953,0.6529908841870788,0.9141612453507341,0.21844604043658475,0.6788740135747464,0.8933504882606377,0.0,0.0,0.0,0.0
0.012844654522621408,-0.040834118843160426,0.7555577798562013,-0.005606615703553033,-0.5475567269074307,-0.00873892969013435,0.8367041459121886,0.09923298231947132,0.35196731870530734,-0.8385966234424239,-0.09939853864253413,0.342009990211253,-0.8312027567420919,-0.22581038147632554,0.6556553799352156,0.921395529388671,0.22374467594387823,0.6737488122204219,0.8958661023646619,0.0,0.0,0.0,0.0
0.012844107669232272,-0.040842516828172144,0.7555531799330727,-0.00561620251742733,-0.5475514996945848,-0.008727200029578601,0.8367076248195292,0.09923207835015721,0.3519262665681366,-0.8385967276811008,-0.0993999472783181,0.34201003155303267,-0.831219258450782,-0.22583411030722755,0.6556650798840016,0.9214019866962793,0.22377657587759284,0.6737239019853409,0.895831617499698,0.0,0.0,0.0,0.0
0.012844107669232272,-0.040842516828172144,0.7555531799330727,-0.00561620251742733,-0.5475514996945848,-0.008727200029578601,0.8367076248195292,0.09923207835015721,0.3519262665681366,-0.8385967276811008,-0.0993999472783181,0.34201003155303267,-0.831219258450782,-0.22583411030722755,0.6556650798840016,0.9214019866962793,0.22377657587759284,0.6737239019853409,0.895831617499698,0.0,0.0,0.0,0.0
0.012924531390373716,-0.04107881904125073,0.7557084934760847,-0.005664448315479869,-0.548303821253821,-0.008700272950636675,0.8362147683904677,0.0996493826014941,0.3511617274526753,-0.8331767619435645,-0.09873158197838794,0.3424303354816318,-0.8278572589795543,-0.22569104689210287,0.6587833920350109,0.9214578194456853,0.22704602894389495,0.6769950411990926,0.897122584161692,0.0,0.0,0.0,0.0
0.013041858918854038,-0.04144518369741767,0.755802693690715,-0.005657921702310998,-0.5488056140179056,-0.008715580602422219,0.8358854135581042,0.10047755597501297,0.35048297602344747,-0.8290601462455615,-0.09776865399826297,0.34367673941888277,-0.8274733517211773,-0.22485173923762192,0.6610781486431438,0.9210769719133011,0.23022721537138702,0.6792287448731895,0.8986559129985358,0.0,0.0,0.0,0.0
0.013204201913022014,-0.04194683240886259,0.7558094558121676,-0.005609523640626563,-0.5491280435044185,-0.008763865142594432,0.8356734528207158,0.1017094836310509,0.34986246939678384,-0.8260055238864821,-0.09649903364761768,0.34573346699700314,-0.8297853331298491,-0.22332962992009442,0.6625884144176993,0.9207344885333792,0.23359067263832897,0.6805075850016689,0.9009398313748211,0.0,0.0,0.0,0.0
0.013445715724691575,-0.042624962446329406,0.7556874205935777,-0.005526511957469198,-0.5493573527256469,-0.008834046651415848,0.8355225408638678,0.10341976416693457,0.3493033039250494,-0.8237765980609798,-0.0948389629918504,0.34879769674278854,-0.834872264428225,-0.2210313466686787,0.6633929754292134,0.9210088651615091,0.23771583418332426,0.680961005724383,0.9047844378038776,0.0,0.0,0.0,0.0
0.013832342957475296,-0.043544400212506926,0.7552485572236377,-0.005540068239490371,-0.5496550828094563,-0.008812738961623887,0.8353268421507989,0.10562557351917067,0.348823482720275,-0.8227212914334955,-0.09277965786881043,0.3530940472472216,-0.8427535137242289,-0.21672617948353715,0.6627648905413552,0.9240762262536953,0.24496198423848195,0.6805524581427118,0.9128498562394817,0.0,0.0,0.0,0.0
0.014195892363167395,-0.044583451436252274,0.7555447221132293,-0.00611575456147433,-0.5500606071367804,-0.00824286359490633,0.8350616631256736,0.10727475179837785,0.3483523610060938,-0.819891768735394,-0.09110096738231815,0.3576762870933273,-0.8459957520857757,-0.20518507414195797,0.6648352831942163,0.9193162567243173,0.19379401931627405,0.6701294145769158,0.9073979996801725,0.0,0.0,0.0,0.0
0.014636449001323944,-0.04577264670928748,0.7555144438354554,-0.006756631827581719,-0.5505198981817555,-0.007610638030118543,0.8347600061221611,0.10923500505944139,0.3477494635604705,-0.8179956379383946,-0.08918300957518162,0.36284017117125167,-0.8511315015972557,-0.19230480743993522,0.6652507060784487,0.917501661690093,0.14575966777146687,0.6596164806518217,0.904557554252448,0.0,0.0,0.0,0.0
0.015098611104702819,-0.04702433793566766,0.7554357715153038,-0.007192566042885023,-0.5508931247779474,-0.007174492653537843,0.8345139655639515,0.11163006065597593,0.3470942139747294,-0.8159482557779608,-0.08686567186841097,0.3683938130684597,-0.8581516067041912,-0.18106686849148945,0.6657180186769646,0.9157787652118669,0.11218514910965359,0.6515233702717452,0.904446852952104,0.0,0.0,0.0,0.0
0.015523302743780412,-0.048255176812493736,0.755356778420022,-0.0074668431905780125,-0.5511711910098755,-0.006897476575055713,0.8343302639065774,0.11420252846557234,0.3462768381321558,-0.8136033652710973,-0.0843764659058848,0.3737605911206913,-0.8657890519313793,-0.17147105381852443,0.6662561099449285,0.913849251098856,0.08938584980710475,0.6453388188538899,0.9061910224098788,0.0,0.0,0.0,0.0
0.01588306855359425,-0.04943355565373549,0.7552790738152202,-0.00764997188824697,-0.5513794463962548,-0.006712053702041162,0.834192503177156,0.1167763807815182,0.3452057916420322,-0.8109226472721391,-0.08187247356432903,0.378644021800984,-0.8732066297865743,-0.1629951108181404,0.6667048110788835,0.9118313113836857,0.07266343965418776,0.6402558358175163,0.9089378427294487,0.0,0.0,0.0,0.0
0.016172808247318225,-0.050563852593629485,0.7551887947720846,-0.007788452974212575,-0.5515401944322762,-0.006573216094451942,0.8340860547665636,0.119296813479309,0.34382505301742566,-0.8079045849056706,-0.07940275011244452,0.38298989551754853,-0.8801340572051268,-0.15516450480130947,0.6669157762577819,0.909901125696087,0.05894144882090245,0.6357590328359736,0.9119990969022475,0.0,0.0,0.0,0.0
0.016396408289527615,-0.05166591525763948,0.7550578635890252,-0.007905841920982813,-0.5516686260470851,-0.006455769051100008,0.8340009279040406,0.12177465517071515,0.3420850981045845,-0.8045714056264646,-0.07695884980394174,0.3868426180944931,-0.8866261869693527,-0.14764142269802097,0.6667173899040296,0.908322645275052,0.04666688664378865,0.6316716669013622,0.9147800169389596,0.0,0.0,0.0,0.0
0.016560778322839653,-0.05276487739149465,0.7548447323371185,-0.008010595842498447,-0.5517749816804836,-0.006350359063446524,0.8339303765216347,0.12425871117918516,0.3399324722503981,-0.8009627577269327,-0.07449874899544125,0.39027215581500185,-0.892906473195117,-0.14022248257263362,0.6658986599376832,0.9074749533209054,0.035249156846517346,0.6281356114739747,0.9166080957258732,0.0,0.0,0.0,0.0
0.016673131399956555,-0.05388014146236471,0.7544985568410716,-0.008103612028857685,-0.5518645310861525,-0.00625321632549523,0.8338709540970553,0.1267922325639017,0.3373268914115753,-0.7971827649661211,-0.07198886143434463,0.3933294417525105,-0.8992430574424999,-0.13280359055225835,0.664200970223559,0.9078347000051438,0.024671290970418376,0.625628797042543,0.9165194246972916,0.0,0.0,0.0,0.0
0.016716011840797403,-0.05503994611811534,0.7539770092822363,-0.008184494733970104,-0.5519434006876517,-0.006160756906379713,0.8338186502817267,0.1294321310013113,0.3340461931351249,-0.7929947972239695,-0.06936817239714983,0.3959413141075619,-0.9056780648226985,-0.12520833292490735,0.6613593569243438,0.9097456846878855,0.015198851499988503,0.6249461475863234,0.9130359375592292,0.0,0.0,0.0,0.0
0.016685477526723568,-0.05626385039825824,0.7532845080329136,-0.008260768256761671,-0.5520097257055636,-0.006068391754008486,0.8337746680343535,0.13221928424110493,0.3300100104067805,-0.7882591097355889,-0.06659157865617665,0.3981247788734054,-0.9122280084089943,-0.11724743433241688,0.657372886819153,0.9130723232753158,0.006443284652718822,0.6253606341936341,0.9073779722989389,0.0,0.0,0.0,0.0
0.016614503437139185,-0.05753125490118214,0.7524453670243356,-0.008348713246304226,-0.5520603377330306,-0.005961900650710643,0.833741049864917,0.13509290557213655,0.32550051734921337,-0.7834083045939186,-0.06373153525844441,0.4000272897621089,-0.9189842533499969,-0.10889466419544808,0.6524103005931374,0.9176004587980828,-0.002168623755392682,0.6265662568258681,0.9002097421686492,0.0,0.0,0.0,0.0
0.01650451598761903,-0.05881259679127309,0.7514752868200297,-0.00847042528188122,-0.5520926258138873,-0.005819691858126275,0.833719446579092,0.13795349207303084,0.32062600172521016,-0.7786583205561424,-0.06088928976320447,0.4015868099079587,-0.9257127388862669,-0.10008284945054582,0.646498803820681,0.9232090045210096,-0.011158257365683643,0.628455559407318,0.8916282568973901,0.0,0.0,0.0,0.0
0.016357499543021903,-0.060043612700703894,0.7503811805746065,-0.008661233620734858,-0.5520961168073225,-0.005598122503052215,0.8337166916062573,0.1405841655129308,0.3156144387705525,-0.7745805714415479,-0.05829406150921119,0.40267054056815516,-0.9320608693550856,-0.09075868818916177,0.6395413199147187,0.929933120168555,-0.02116240210147264,0.6310901651533481,0.8812496468576332,0.0,0.0,0.0,0.0
0.01617104847510499,-0.061135509103483913,0.7491784713613183,-0.008973670048419626,-0.5520554262888344,-0.005234437609154565,0.8337426942491497,0.1426807393737117,0.31076549696163874,-0.7719376257683407,-0.056267321737488545,0.40308438162681276,-0.9374970629741533,-0.08081604779102691,0.6314097249914583,0.9377663732889144,-0.0330545126763107,0.6346876565423812,0.8681124762905033,0.0,0.0,0.0,0.0
0.015931573050539712,-0.06198194874065477,0.7479434463316548,-0.009472607835143544,-0.5519664787761732,-0.004670695445850879,0.8337994126960548,0.1439055407449143,0.3063892942438068,-0.7712433289531586,-0.05514828043942538,0.402581814572224,-0.9410879161290292,-0.07021365214782894,0.6223064301833755,0.946188221750374,-0.047395218706439396,0.6398116380544263,0.8505352644767495,0.0,0.0,0.0,0.0
0.015729600517383324,-0.06247181319304124,0.7469466057198559,-0.010185358697327732,-0.5518475053581688,-0.0038788611066008878,0.8338738176335123,0.14394243144025587,0.30354651572237445,-0.773252618457422,-0.05525206215474302,0.4016758242604741,-0.9423050881615227,-0.05934916377903907,0.6138730206125199,0.9529755557936018,-0.06039599670450714,0.6482655526777567,0.8271542352273908,0.0,0.0,0.0,0.0
0.015734709864470668,-0.06248108486732845,0.7469318017290443,-0.01019086738957555,-0.551853483951028,-0.0038747754182560166,0.8338698127336297,0.1439554175158335,0.3035018466981312,-0.7732141887988047,-0.055236653879239456,0.40168354337514517,-0.9423424472149254,-0.05932594330572475,0.6138401113820146,0.9529770288307754,-0.06040219505147408,0.6482634819252854,0.8271464120507807,0.0,0.0,0.0,0.0
0.015734709864470668,-0.06248108486732845,0.7469318017290443,-0.01019086738957555,-0.551853483951028,-0.0038747754182560166,0.8338698127336297,0.1439554175158335,0.3035018466981312,-0.7732141887988047,-0.055236653879239456,0.40168354337514517,-0.9423424472149254,-0.05932594330572475,0.6138401113820146,0.9529770288307754,-0.06040219505147408,0.6482634819252854,0.8271464120507807,0.0,0.0,0.0,0.0
0.015121426295707504,-0.06281876801639971,0.7473324302507504,-0.009510620972269278,-0.5524635714063284,-0.004517328136590958,0.8334705418334789,0.1315375627205646,0.3220322857097641,-0.8072798955866793,-0.05327785440937241,0.3989437205224944,-0.935786464818774,-0.06454366250124538,0.6181712163390005,0.9499340501503154,-0.06518758048494216,0.648544594585788,0.8247650192181504,0.0,0.0,0.0,0.0
0.013912647885267589,-0.06380167518902498,0.7476803887426152,-0.008962978658158585,-0.5528760852152768,-0.005099625674995057,0.833199671884584,0.117246134317863,0.33136659713320327,-0.829368425636005,-0.04971582608636053,0.39427651516870393,-0.9274676056097979,-0.06460940938927641,0.6201069741493438,0.9443947402246236,-0.06528196825875256,0.6468598801047207,0.8250228216978269,0.0,0.0,0.0,0.0
0.012432320974109682,-0.0653620579398764,0.7479194206028973,-0.008477532764878391,-0.553080966377821,-0.005650369470099173,0.8330652131698019,0.10417891748558551,0.3351121416754415,-0.8431277617693301,-0.04478041240166576,0.38930777360478147,-0.9202903700254952,-0.06057605742615947,0.620244892417809,0.9372358290906533,-0.06169339338842149,0.6434179921609876,0.8282471277961905,0.0,0.0,0.0,0.0
0.01082338433742928,-0.06729810554924867,0.7480226655937458,-0.00803044976545947,-0.5531993667612394,-0.0061392886173320385,0.8329875639088504,0.09371470898267728,0.3359099555138186,-0.8522933480578191,-0.039069460506416485,0.38428972673961004,-0.9140206776091216,-0.05387432775020348,0.6191352612534111,0.9296538811563211,-0.05564610654097712,0.6387242895976166,0.834196155400378,0.0,0.0,0.0,0.0
0.009205964713206161,-0.06936735584635399,0.7480471511233809,-0.007622356858844368,-0.5532876808695563,-0.006562096522241008,0.832929517284108,0.08566333456063031,0.3351156461390486,-0.8588946894142606,-0.03319041734523449,0.37936563306997095,-0.90821516466559,-0.04605029637070994,0.6175253938427905,0.9220519277684742,-0.04846207466556762,0.6336375842048084,0.8413494469504065,0.0,0.0,0.0,0.0
0.007642669583115147,-0.07130381688385197,0.7480904546181694,-0.0072720121362981035,-0.5533493933884682,-0.0069135196959623285,0.8328888100590122,0.07889625633139569,0.33350815557070346,-0.8638925487338154,-0.027786240845608375,0.3743865410486768,-0.9020265346890172,-0.03850745553923181,0.6160355341899473,0.9143943456109243,-0.041401775985196086,0.6290548217357251,0.8475794136746517,0.0,0.0,0.0,0.0
0.006266889657841123,-0.07304095682011624,0.7481425451589339,-0.006980736007065823,-0.5533850663258413,-0.007201717085404416,0.8328651589323243,0.07275729449852043,0.3317160438536313,-0.8677487313830337,-0.023009153249455495,0.3700069126428494,-0.8965276837646052,-0.031652947580089776,0.614861791247275,0.9071508371510119,-0.03487827784296951,0.6251642391206009,0.8528543376597749,0.0,0.0,0.0,0.0
0.00510239514231731,-0.07455641372115393,0.7481891746242,-0.006743524723481153,-0.5534053786105605,-0.007439228556038425,0.8328515291921466,0.06668020569639785,0.33032873175831573,-0.870711070043117,-0.018880498872326124,0.3663378118742286,-0.8919401634653729,-0.025645022387077027,0.6139647247023647,0.9006658195221519,-0.02908223150322384,0.6219039348184839,0.8573357618100658,0.0,0.0,0.0,0.0
0.004134554641708569,-0.07586480807198949,0.7482253907565551,-0.006552429284430834,-0.55341633429272,-0.007637957499741652,0.8328439759124833,0.060313991445013884,0.3298942456033832,-0.8727385625414938,-0.015333569569814824,0.3633485678440155,-0.8882630196764254,-0.0204444404083651,0.613280776934366,0.8950166451505249,-0.024011760774441546,0.6191741194180672,0.8611835324551006,0.0,0.0,0.0,0.0
0.0033367229594873835,-0.0769998599637214,0.7482537416282192,-0.0063991451850982485,-0.5534233382414852,-0.007807585611171646,0.8328389407547385,0.05349093872060707,0.33074663670920923,-0.8736220716072347,-0.01226257810251554,0.3609735997003283,-0.8854135534146554,-0.015914767523734136,0.6127809670788016,0.8901068976945844,-0.019559994118266984,0.6168977115847041,0.8645284886754729,0.0,0.0,0.0,0.0
0.0026674533578399688,-0.0779877789602209,0.748272946760449,-0.006274771152184187,-0.5534250387264976,-0.007957251953750378,0.8328373406007363,0.04614370561525542,0.33269236521314316,-0.8737879802416108,-0.009583397154955424,0.35903492755462724,-0.8831654267207185,-0.011972329906832668,0.612382362009057,0.8858553989564681,-0.01566031669816473,0.6149414361274521,0.8674649484347812,0.0,0.0,0.0,0.0
0.0020910115751540913,-0.07885146389945671,0.7482854845734476,-0.006172491421373797,-0.5534217755578775,-0.00809328987993675,0.8328389624332777,0.03825361996617849,0.3353737228587085,-0.8735854287616264,-0.0072268849064737635,0.35737621013697557,-0.8812911117932429,-0.008539684875648256,0.6120416443189113,0.8821491440283853,-0.01224677973692035,0.613220090210056,0.8700373412499302,0.0,0.0,0.0,0.0
0.0015815354636680588,-0.07960539970469128,0.7482964145145742,-0.006088022580120358,-0.5534146811797117,-0.008218985208547882,0.8328430674010342,0.02983169037325382,0.33849585217472294,-0.8732320622323115,-0.005151066203348641,0.3558799071763748,-0.8795964584565259,-0.0055649649948770604,0.6117473648378418,0.8788790051234812,-0.00927511086276717,0.6116972004130606,0.8722384028884932,0.0,0.0,0.0,0.0
0.0011216311480098677,-0.08024948736241085,0.7483125972282358,-0.006019755466786661,-0.5534049211094918,-0.00833387835465531,0.8328489072499807,0.020983854132199158,0.3418558982243087,-0.8728535122708827,-0.003356937493205874,0.354448209735686,-0.8778931455382342,-0.0030463773329382736,0.6115037029186097,0.8759700209011929,-0.00674871381168367,0.6103789017782575,0.8739945873344879,0.0,0.0,0.0,0.0
0.0006991609935628973,-0.08076341216457723,0.7483426129660168,-0.005968577822455411,-0.5533944242965475,-0.008432647860131004,0.8328552561437894,0.012069507886644815,0.3452719256831929,-0.8725672795605982,-0.0019042826846092417,0.3529727320811621,-0.8759426366888272,-0.001054565219522287,0.6113187050289317,0.8734043002561527,-0.00474251223317337,0.6093118756081686,0.8751488458594889,0.0,0.0,0.0,0.0
0.00031634449547475967,-0.08110802599746829,0.7483937274450468,-0.005937737774910347,-0.5533867327965992,-0.00850046194730191,0.8328598978108527,0.003961686708646528,0.34847354247924833,-0.8725882434867438,-0.0009196010731883555,0.35139190005035387,-0.8735516759880784,0.000294822827792556,0.6111967950073532,0.8712552855697894,-0.00337691725040817,0.6085912333557947,0.8755136493861368,0.0,0.0,0.0,0.0
3.7740364927889964e-05,-0.08126108747819939,0.7484642368347969,-0.005926969041133987,-0.5533930572047701,-0.008527616275045412,0.832855494690531,-0.0016732533116943817,0.3509540881847266,-0.8731606278661818,-0.0004822632016497979,0.3500467178793782,-0.8711991804277338,0.0009260940478747564,0.6112419006040967,0.8697165447404188,-0.0027332758803246273,0.6083756758477679,0.8751237920488922,0.0,0.0,0.0,0.0
3.808423873573628e-05,-0.0812620250038352,0.7484632959135815,-0.0059279597788603165,-0.5533923236391123,-0.008528691688834928,0.8328559640467498,-0.001682406320571492,0.350958638594432,-0.8731575990776513,-0.0004778836119911116,0.350043678000871,-0.8712000461706895,0.0009245290710841209,0.6112444229746266,0.8697122267049076,-0.0027311569549315325,0.6083700658673035,0.8751272293859854,0.0,0.0,0.0,0.0
3.808423873573628e-05,-0.0812620250038352,0.7484632959135815,-0.0059279597788603165,-0.5533923236391123,-0.008528691688834928,0.8328559640467498,-0.001682406320571492,0.350958638594432,-0.8731575990776513,-0.0004778836119911116,0.350043678000871,-0.8712000461706895,0.0009245290710841209,0.6112444229746266,0.8697122267049076,-0.0027311569549315325,0.6083700658673035,0.8751272293859854,0.0,0.0,0.0,0.0
3.808423873573628e-05,-0.0812620250038352,0.7484632959135815,-0.0059279597788603165,-0.5533923236391123,-0.008528691688834928,0.8328559640467498,-0.001682406320571492,0.350958638594432,-0.8731575990776513,-0.0004778836119911116,0.350043678000871,-0.8712000461706895,0.0009245290710841209,0.6112444229746266,0.8697122267049076,-0.0027311569549315325,0.6083700658673035,0.8751272293859854,0.0,0.0,0.0,0.0
0.0001595809037546842,-0.08147154522595665,0.7484695475252174,-0.005949374315876812,-0.5534533607530938,-0.008505521057411845,0.8328154888856818,-0.0012186092715072462,0.35127654051820284,-0.8732892128780839,-1.4728887397511849e-05,0.35117571854176927,-0.8727729709697718,0.002194499991478276,0.6116788870953578,0.8691261378096458,-0.0014614768884507183,0.6087436726540346,0.8761746100036287,0.0,0.0,0.0,0.0
0.0003245302484220384,-0.08184988275861324,0.7484677251350362,-0.005950155014543427,-0.5535057580993595,-0.008496953986806829,0.8327807473633755,-0.0003323063331019912,0.35154870551131795,-0.873281395840243,0.000871558710748432,0.3529357320265119,-0.8755803720620737,0.004161175865824462,0.6122541682676518,0.8680195901920359,0.0005096847470536963,0.6090266637428012,0.8779319155441033,0.0,0.0,0.0,0.0
0.0005299449127758645,-0.08241600855907821,0.7484552171379343,-0.0059400286854878115,-0.5535390304423423,-0.008496681331432755,0.83275870709499,0.0010160094351669177,0.35172812624772193,-0.8731278098093563,0.002221282575803198,0.3553420609631038,-0.8797003643787727,0.007000789083642197,0.6129186418362158,0.8662953816421229,0.0033676260914840463,0.6091972722048535,0.8804642353643989,0.0,0.0,0.0,0.0
0.0007945579013730097,-0.0832430825712978,0.7484363007908343,-0.005911303560045385,-0.5535530893693605,-0.008516973688151987,0.8327493589904786,0.0030250021370938304,0.35179400232915237,-0.8727079422116999,0.004234919660841983,0.358651356355163,-0.8855965745668027,0.010991760268540625,0.6138013678717377,0.8636509610267868,0.007407088371493611,0.6092708803606863,0.8839880008550405,0.0,0.0,0.0,0.0
0.001221910883267571,-0.0844386680742024,0.748459574434502,-0.0057484958175220745,-0.553681364512163,-0.008839498505827346,0.8326618549290886,0.006515133009696333,0.35213423058486865,-0.8711956963486785,0.007738122742909519,0.3635683277233896,-0.894166774500417,0.014853633271341656,0.6163039806054663,0.8600081344844731,0.011343505936027993,0.6093999080837976,0.8885137563001501,0.0,0.0,0.0,0.0
0.0020006768679382454,-0.08547075486863888,0.7483956052505369,-0.005659629190644524,-0.5535870952272942,-0.008864171427205835,0.832724878372287,0.00896256674875693,0.35500451031590824,-0.8758205435593518,-0.008499121969261544,0.3547517947433631,-0.8819593891310205,0.01954757055781646,0.6178632345215008,0.8571301222054811,0.016163744513218874,0.6099138177101971,0.8932204805614469,0.0,0.0,0.0,0.0
0.0030757395757880094,-0.08667994608392106,0.7483269296087608,-0.005492325449831415,-0.5535636934336333,-0.00905382340408247,0.8327395150676081,0.0121601818596903,0.3592826342601153,-0.8819451646256377,-0.02976507845911591,0.3475010256123655,-0.8735299316778176,0.024039546258825817,0.6205512622091145,0.8542649744880187,0.020817403034455118,0.6107781407475549,0.898786179488005,0.0,0.0,0.0,0.0
0.004199743369321081,-0.08816716146559175,0.7482484291192032,-0.005302818741344106,-0.5535533457743019,-0.009319519515356693,0.8327446907975309,0.016204498387474404,0.36326464713625206,-0.8872296131836392,-0.05073453206829477,0.34150270540008054,-0.8679981179989612,0.02955273453501018,0.6236165109348107,0.8505058071319993,0.026571407430746777,0.6115752019154014,0.9053445092496405,0.0,0.0,0.0,0.0
0.005344363723031485,-0.08989432361867762,0.7481557127890174,-0.005108460384547353,-0.5535294137509706,-0.009603647988625208,0.8327585854797998,0.020886477195819625,0.3668490433603064,-0.8917788568017977,-0.06957416604651392,0.336270063919539,-0.8641869408399705,0.036233468962100994,0.6268055635105081,0.8458283990115096,0.0336178630698229,0.6123252033334238,0.9127288356505134,0.0,0.0,0.0,0.0
0.006611951576663524,-0.09180045231248658,0.7480408055405775,-0.004884659883961857,-0.5535014402214555,-0.009906892382062585,0.832774969156688,0.02604038411091455,0.3707391226525708,-0.8967151924474729,-0.08624761560912335,0.3316053352290573,-0.8612567307286875,0.04364150072034984,0.6302904077433067,0.8406469235898131,0.04154081481188403,0.6132280164394366,0.9208524341600351,0.0,0.0,0.0,0.0
0.008077964499377005,-0.0938712116640972,0.7478960959224429,-0.004610819885522045,-0.5534754939469175,-0.010241978115698191,0.8327897212528962,0.03164996692166844,0.37537987545319584,-0.9027089951377839,-0.10123536683875306,0.3274337060882943,-0.8587336393448305,0.05156059064656949,0.6342271456589907,0.8351623099362462,0.050146725248855425,0.6144103824420944,0.9297425672508619,0.0,0.0,0.0,0.0
0.009754654967007424,-0.09614680785986018,0.7477152700708674,-0.004278941650777581,-0.5534414685683826,-0.010621548871913326,0.8328093504679104,0.03784626208077555,0.38073515418082543,-0.9097009164117903,-0.11498376448219941,0.32377004097037915,-0.8563594385771841,0.060124560003464264,0.6386488982915569,0.8292219616199193,0.05961626312365948,0.6158611448672152,0.9395054098813205,0.0,0.0,0.0,0.0
0.011652287110479047,-0.09868616672378394,0.7474927398977762,-0.0038762349534064407,-0.5533793914203515,-0.011063992077885892,0.8328468118646597,0.04481863244405464,0.38671792682918243,-0.917559547237147,-0.12783614113545108,0.3207541276151506,-0.853777407554347,0.06950919192016977,0.6436064216765184,0.8225430282741933,0.07019651140965658,0.6175448638752076,0.9502492668964503,0.0,0.0,0.0,0.0
0.013778191323063654,-0.10155787189542338,0.7472237679435066,-0.0033831998844125713,-0.5532677698147827,-0.011595345098222555,0.8329158881992659,0.05279629911713642,0.3931921965497591,-0.926040478072402,-0.14002838829922623,0.3185642062762469,-0.8504770524975225,0.07986619145368584,0.6491885756739787,0.814768436116992,0.08213569354980779,0.6194176573016572,0.9620696908514308,0.0,0.0,0.0,0.0
0.016145896167634993,-0.10480909585205012,0.746928034555839,-0.0027772157055288866,-0.5530886622820077,-0.012246719229524703,0.8330277525965972,0.0619684488938209,0.40010446266127897,-0.9349030373312799,-0.151872868401013,0.317157926516256,-0.845736408500674,0.09119071217001504,0.6556727820057581,0.8053569355325296,0.09553446301981558,0.6215938830412802,0.9747429564269431,0.0,0.0,0.0,0.0
0.018784331539870004,-0.10845520752155524,0.7466372648897073,-0.002034805076498359,-0.5528175534041982,-0.013049956597169931,0.8331976421289903,0.07245165584661403,0.4075564260319684,-0.9441368370377049,-0.16392615620105022,0.3158235343994668,-0.8392936157108435,0.10329506326312642,0.6634384055087361,0.7937233771640299,0.11029882773747797,0.6242674094237283,0.9878139231921363,0.0,0.0,0.0,0.0
0.021718565628625657,-0.11245620269158482,0.7463527568369974,-0.0011197159948387536,-0.5524566693300604,-0.014048696598375527,0.8334224672233848,0.0842460411574801,0.41568054089851086,-0.9537584793800714,-0.17692199365224667,0.3134454444267634,-0.8305657289436109,0.11560129143405988,0.6727403627798126,0.779924586698396,0.12586585451404678,0.6274735728085549,1.0010147240747866,0.0,0.0,0.0,0.0
0.02496994829109733,-0.1165242220921824,0.7460238927226498,-7.050901974597098e-06,-0.5520836888987939,-0.01526795147306748,0.8336489009529134,0.09670444200250457,0.42501500194021763,-0.9645080706883074,-0.19204923130124651,0.3089579828433406,-0.818424483747444,0.1264819313984675,0.6833729291285804,0.7659982422773053,0.14031324676448223,0.6311278000363306,1.0140789383052737,0.0,0.0,0.0,0.0
0.028479166546711406,-0.12016777213338542,0.7454598151084562,0.0013044459846382377,-0.5517806568540151,-0.016659058325873617,0.83382185202723,0.1085257445083081,0.4359984187454722,-0.9778730641954233,-0.21023235022647674,0.3009966930780527,-0.8007397349841091,0.13376326539087763,0.6936020841900657,0.7566988799419365,0.15079759209742746,0.6342609523686608,1.027619959736201,0.0,0.0,0.0,0.0
0.03187743465105202,-0.12320249281297942,0.7446555851706381,0.0027588880271487517,-0.5514223215898009,-0.018104150243511787,0.8340252103703629,0.11900276397234236,0.4470758474864035,-0.9924567208069432,-0.2309196317999568,0.28703632613656277,-0.7733269204866265,0.13699830702221436,0.7018961568004581,0.7526231749319462,0.15637322295611558,0.6356297204633882,1.0409761354574032,0.0,0.0,0.0,0.0
0.03469472252080289,-0.12541328151524925,0.7434885218085295,0.004393428094484492,-0.5509666445890239,-0.019518073327283194,0.8342874199899466,0.12729750077250118,0.4561295703065811,-1.0060244264584801,-0.252832364429529,0.2631439709649858,-0.7306027532758542,0.13485293402425733,0.7060191720524807,0.7562714324697501,0.15498821996897424,0.6329516293352184,1.0547995451747827,0.0,0.0,0.0,0.0
0.036205847704829396,-0.12653780367335882,0.7422044521600265,0.006039422008039419,-0.5502394755187674,-0.020583425817935704,0.8347313145822661,0.13196870261553095,0.4603175202870831,-1.015237899005633,-0.2718191674326949,0.22381039248750736,-0.664930382826208,0.12746139355836447,0.704699033276578,0.7652550483208636,0.1464727533746128,0.6252232398188406,1.0662707510761111,0.0,0.0,0.0,0.0
0.03630352922783389,-0.12663010914738018,0.7421579534158119,0.006139162662374819,-0.5501968238352233,-0.02059492330045213,0.834758417063096,0.13224832966611028,0.4603734398034339,-1.0153049224820792,-0.27187843751313545,0.22380029697580556,-0.6648958326033951,0.12734063223769007,0.7048630336190669,0.765062757555074,0.14654082925950865,0.625207615177119,1.0665829047368722,0.0,0.0,0.0,0.0
0.03630352922783389,-0.12663010914738018,0.7421579534158119,0.006139162662374819,-0.5501968238352233,-0.02059492330045213,0.834758417063096,0.13224832966611028,0.4603734398034339,-1.0153049224820792,-0.27187843751313545,0.22380029697580556,-0.6648958326033951,0.12734063223769007,0.7048630336190669,0.765062757555074,0.14654082925950865,0.625207615177119,1.0665829047368722,0.0,0.0,0.0,0.0
0.036229768795242895,-0.12794397389913734,0.7447505862319126,0.004053565799133462,-0.5497503129474091,-0.01883603733884363,0.8351067989879544,0.13286063486802185,0.4599429435899111,-1.0112969193297725,-0.27074324941800354,0.2290576601587694,-0.6588070975792392,0.08747015652315128,0.6866954113543644,0.8142796830890517,0.17841675597043666,0.6438295686114262,1.0473451264916196,0.0,0.0,0.0,0.0
0.036028531703237145,-0.12994507205951975,0.7477193785551259,0.0025865598770251643,-0.5493544165801023,-0.017541436515416675,0.8354013003921611,0.13561159429163305,0.45748253179429565,-1.0000895803810261,-0.2673373929292137,0.2369290979945714,-0.6582056088981602,0.048266819269670996,0.6759474207421162,0.8480808506664466,0.2079218406785917,0.6625163423357261,1.0252640957661716,0.0,0.0,0.0,0.0
0.0357534858083295,-0.13233197847610445,0.7504211857129176,0.0016622135395587088,-0.5490289725506637,-0.016688254276627162,0.8356350438530628,0.13987277197595172,0.45314476902429957,-0.9848310495636061,-0.2625201862094687,0.24610820904318143,-0.6628580823988297,0.01816908571657081,0.6689639706727671,0.8707987360678521,0.23370915568392941,0.6785000437254656,1.0054590739960036,0.0,0.0,0.0,0.0
0.035462098823022155,-0.13489319851501377,0.752750798216969,0.0010948742546847893,-0.548740629960343,-0.016147268158639098,0.8358359815251466,0.1449889220166538,0.44759714350972607,-0.9677903211411066,-0.25698133023358144,0.2559099589929205,-0.671308983020464,-0.00570803750430399,0.6645064234550956,0.8869426804938506,0.2563693616570564,0.6917343581962235,0.9887515111394053,0.0,0.0,0.0,0.0
0.03517305892471999,-0.1374784665790648,0.7547387388060304,0.0007391842979577488,-0.548459005956985,-0.015785061317178925,0.8360281121053661,0.15040162276532565,0.4413619482417185,-0.9503502732295037,-0.25124266475612145,0.2656991790203694,-0.681788495010784,-0.026170868097388535,0.6618139802436258,0.8991407379017108,0.27665220720121053,0.702681324985282,0.9748023075777135,0.0,0.0,0.0,0.0
0.03479831957706379,-0.13993782505051358,0.7564197862921469,0.00047792922544434693,-0.5481734747505799,-0.015500123936507662,0.8362208795058179,0.1555908924820434,0.43441907000064767,-0.9328667716451486,-0.24569974961421265,0.2741548723967522,-0.6914671096903928,-0.045206651948966066,0.6601265883010249,0.9086518743714264,0.2947825637095231,0.7114615102865589,0.963149677206799,0.0,0.0,0.0,0.0
0.03429379518167637,-0.14223111680150102,0.7578387579306605,0.0002468714414842013,-0.5478704398412099,-0.015242175637015121,0.8364242920220222,0.1603935566799486,0.42673713064838786,-0.915386549899061,-0.24046931481468026,0.2808599189854868,-0.6993163407178544,-0.06397113463060208,0.6589575999273938,0.916048855031588,0.31107073505094657,0.718255168825189,0.9533848846088412,0.0,0.0,0.0,0.0
0.03366906068833404,-0.14440706203915044,0.759046650151491,1.899694732341528e-05,-0.5475274414652399,-0.014988748505215387,0.8366534754005935,0.16490726077558593,0.41834724256867123,-0.8978819297672612,-0.2354764763235659,0.28617380849300816,-0.7057975222522367,-0.08307985331249496,0.6581759560898834,0.9213945531411799,0.32606410746620634,0.7233567840648165,0.945148298403679,0.0,0.0,0.0,0.0
0.032928899489519256,-0.1465359463039505,0.7600883202165779,-0.00022388153318649096,-0.5471192592617073,-0.014723737532681871,0.8369251325985189,0.1692852753799678,0.4091680860265258,-0.8801431550055604,-0.23058838173753382,0.2904829662869678,-0.7114886082091788,-0.10304707645744692,0.6579696566761237,0.9241505937638442,0.3403327379943599,0.7269973994454544,0.9381274581812816,0.0,0.0,0.0,0.0
0.03207985575567695,-0.1486932372904377,0.761013810106753,-0.0004963181730039223,-0.5466159616239071,-0.01443442666969049,0.8372588557268055,0.17369473274560007,0.39909503452994655,-0.8619061097501052,-0.2256557362464208,0.29418802272074573,-0.7170010197195833,-0.12444081118560237,0.6589206585232115,0.9231672240425638,0.35438545634858176,0.7294123516377041,0.9319126971302522,0.0,0.0,0.0,0.0
0.031133072121547953,-0.15093692916132004,0.761905419968301,-0.0008157868758538559,-0.5459739980303043,-0.014097857266242082,0.8376831014095241,0.17823703826315748,0.3881058012234652,-0.8430082330192031,-0.2205885141957082,0.29765325282500227,-0.7227721656260486,-0.14755151100069414,0.6601855182996078,0.9201219065802355,0.36857187753959564,0.7309764661839017,0.9256561993781358,0.0,0.0,0.0,0.0
0.030082820685957502,-0.153267648785427,0.762834669564083,-0.0012183854141567436,-0.5451430389382881,-0.013674581256654687,0.8382306296369548,0.18285695135136876,0.3762357611742603,-0.823567594991562,-0.2154392215011944,0.3008859932731556,-0.7286159930153225,-0.17357471420371048,0.6614053745004397,0.9162985220218426,0.382956403717152,0.7319575212713031,0.9184319505557647,0.0,0.0,0.0,0.0
0.028899410109296073,-0.15558284962313249,0.7638125077690254,-0.0017712044054941855,-0.544063792297803,-0.013103745117686904,0.8389396549272049,0.18724901146086936,0.3636883980601285,-0.804441026330067,-0.21051423743253198,0.30331989081843314,-0.7335149904875734,-0.20556739019138556,0.6628492945049622,0.9128820832830612,0.3971498240390001,0.7322383941749788,0.909652277975015,0.0,0.0,0.0,0.0
0.027625648862380718,-0.1576403255808319,0.7647273383257189,-0.0025693802261754326,-0.5426356680870977,-0.01223653680878265,0.8398751080796772,0.19068322789783265,0.35162536258000515,-0.7890394556857842,-0.20668420533407691,0.3043638313027724,-0.736725476485884,-0.2488480515787555,0.6660325262504566,0.910745265451475,0.41068411953442274,0.7312751329484508,0.8996259395575114,0.0,0.0,0.0,0.0
0.026238663862455474,-0.15927588535002962,0.7651327828096721,-0.0036174084213549604,-0.5407935965332595,-0.011112725278560645,0.8410741392064188,0.1929878482925305,0.34053168071952317,-0.7803037055822147,-0.20432375375503636,0.30328029922595,-0.7390544929721939,-0.30869257800969596,0.6712419834541392,0.9111455129483994,0.42232381002842606,0.7263106890784751,0.8924329584238839,0.0,0.0,0.0,0.0
0.02493816039960133,-0.16043725979543427,0.7645671166500527,-0.0046059952711454055,-0.5385164175776701,-0.009967136567886977,0.842543476026912,0.1944333509839329,0.33170028161495113,-0.7813353553740495,-0.2035341247476533,0.30134908544238365,-0.7454002684870872,-0.3805628359612203,0.6767886809594944,0.9151055568073732,0.42950180039212804,0.7147126313441206,0.8929836462246585,0.0,0.0,0.0,0.0
0.023927932861061586,-0.16102346643092863,0.763321156742977,-0.00521992825061211,-0.5360171142960505,-0.009084649186274099,0.8441420938917544,0.19506402629677358,0.32632096337341765,-0.7909909053728065,-0.2042134847778138,0.29946385669047487,-0.7560712303997407,-0.45201212790719836,0.6780077724653579,0.9246409650693379,0.42970664178299706,0.6987540600097512,0.8988899520680592,0.0,0.0,0.0,0.0
0.023930674314649632,-0.16104068062359414,0.7632894844066734,-0.005247944959286097,-0.5359961405822875,-0.009060950270141192,0.8441554925099989,0.19507902345636477,0.32615411386780974,-0.7910032209517642,-0.20423638951140238,0.2994201812603748,-0.7561366974811237,-0.45207919020786813,0.6780186720665773,0.9246507608404094,0.4297853913973077,0.6986966161861091,0.8987606202067512,0.0,0.0,0.0,0.0
0.023930674314649632,-0.16104068062359414,0.7632894844066734,-0.005247944959286097,-0.5359961405822875,-0.009060950270141192,0.8441554925099989,0.19507902345636477,0.32615411386780974,-0.7910032209517642,-0.20423638951140238,0.2994201812603748,-0.7561366974811237,-0.45207919020786813,0.6780186720665773,0.9246507608404094,0.4297853913973077,0.6986966161861091,0.8987606202067512,0.0,0.0,0.0,0.0
0.023989980750714766,-0.16155893691879625,0.7638087059844746,-0.005478053818738444,-0.5377403835160811,-0.008909016599241114,0.8430456098489402,0.19551159412208471,0.3231504176877593,-0.7765589891734297,-0.2024954823122178,0.2994103884659887,-0.7462012504430875,-0.4542450902056936,0.6863374172361734,0.923915018268582,0.4414974042643926,0.7078877920055229,0.899380979518536,0.0,0.0,0.0,0.0
0.02407433762241428,-0.1623272864560374,0.7641652746998902,-0.005514861993460153,-0.5388853719972052,-0.008920936323129285,0.8423138126848838,0.19695104883107872,0.31984866554707797,-0.764052209420641,-0.20026060485432032,0.30121735778855474,-0.7433557516976395,-0.45463558797915427,0.6923224636446605,0.9224668650586889,0.4511470522971519,0.714131239608264,0.9003678558569239,0.0,0.0,0.0,0.0
0.024327843768589638,-0.1633781807867569,0.7642306729729933,-0.005409524304439382,-0.5395993254819066,-0.009056364339111708,0.8418558589516547,0.1994346610423301,0.3169593846856797,-0.7545118471638562,-0.197526734930631,0.3057349897381748,-0.748661213272405,-0.4536953435631092,0.6960690045257782,0.9222671927271465,0.4601822195970582,0.7176611684070884,0.9037243915177466,0.0,0.0,0.0,0.0
0.02478397380853074,-0.1647511077267428,0.7638740375965741,-0.005206610569363335,-0.5400749293556052,-0.00924719969636004,0.8415500289262027,0.20291609729032592,0.31438844053538856,-0.7476137106824136,-0.19427308640022015,0.31294024279202526,-0.7615463566762125,-0.45163729909725536,0.6974888112233888,0.9252158426471312,0.47048047575419866,0.7186686132516672,0.9114557589261646,0.0,0.0,0.0,0.0
0.025420737351915655,-0.16652392279821793,0.7625767883498081,-0.005439308623763755,-0.5409860068687887,-0.008970899209224,0.8409661570249044,0.20680202991670932,0.31105858755985094,-0.7424952688432279,-0.19083061745083216,0.321340205225045,-0.7767772705981911,-0.4456539030481434,0.6949721537339462,0.9385876045625591,0.4926608806024048,0.7180932893493616,0.9309184317782769,0.0,0.0,0.0,0.0
0.02654481172593278,-0.16849979108222993,0.7633544753356681,-0.006638229882016802,-0.5421854127917362,-0.0076773005413806675,0.8401975786184375,0.20949457685965558,0.3110543251933107,-0.7367111553841899,-0.18801578581373793,0.3331608919487486,-0.7845328847264702,-0.42679969110662563,0.7033820986083792,0.9312553394348021,0.3950289969168857,0.7048441711176788,0.9189072642944117,0.0,0.0,0.0,0.0
0.02783562386704352,-0.17081481110582342,0.7632916215796137,-0.008138795141813449,-0.5437619833057941,-0.00607393425872661,0.8391780340592868,0.2126909252181427,0.31035817044348135,-0.7322857609132535,-0.1849013991040089,0.34609825947556916,-0.7948844205931802,-0.40435788368586634,0.7081551785134205,0.93263685747726,0.30141144443678625,0.692179507053322,0.912489609518092,0.0,0.0,0.0,0.0
0.029306891548204747,-0.17335846207343691,0.7628148351405806,-0.009212120981509865,-0.545085410171718,-0.004895013205005169,0.8383156155593636,0.21718594304279254,0.3099009568592806,-0.7292888554215021,-0.18091800806628186,0.3611720627661766,-0.8131098944361433,-0.38387511208316927,0.7110366325374249,0.9365360544369596,0.23384618234114415,0.6835748197443208,0.9109907961779674,0.0,0.0,0.0,0.0
0.030754742869736725,-0.17589207137258947,0.7622504762428788,-0.009895814038628083,-0.5460966009682248,-0.004128673754367279,0.837653585516408,0.22231505949182118,0.3093288624435796,-0.7264173650695271,-0.17647603840012824,0.3763007813893555,-0.834494095783524,-0.365988816872257,0.713128039001035,0.9399789138114034,0.18744220522319072,0.678010734471056,0.9125497577069476,0.0,0.0,0.0,0.0
0.03204671704458296,-0.17827283316633355,0.7616982819311907,-0.01034825345925153,-0.5468656374561928,-0.0036224125039387963,0.8371485927525807,0.2274673282070804,0.30831618633709024,-0.7231124683760409,-0.17199712795377656,0.39002777081032325,-0.8553223853197723,-0.3501459159197716,0.7145697071141455,0.9426065343579776,0.15362711798220793,0.6739645586756688,0.9155857538820122,0.0,0.0,0.0,0.0
0.03316096189362206,-0.18045987310784709,0.7611754511506164,-0.010685532863112492,-0.5474654222325178,-0.0032535162581326213,0.8367537543860561,0.2323483769086908,0.3068810676440584,-0.7194730039204816,-0.1677120022722439,0.4020483692983935,-0.8742895945559533,-0.33570697803787003,0.7153899641278207,0.9446705180851201,0.1262955279813403,0.6704783386845682,0.9190165804666459,0.0,0.0,0.0,0.0
0.03412123763126372,-0.1824753469530864,0.7606550452771156,-0.010972172515408806,-0.5479508966982533,-0.002948140120407773,0.8364333414610531,0.23690101618927284,0.30509511291364383,-0.7157081273352358,-0.16368033411846766,0.4125739886404673,-0.8913996028533876,-0.3221339440286183,0.7155374376186132,0.9466247177045186,0.10205440675901674,0.6671477622701133,0.9220573899788368,0.0,0.0,0.0,0.0
0.03496014705072992,-0.1843721378403841,0.7600774172792092,-0.011236797027630328,-0.5483579611903422,-0.0026716996118998633,0.8361639449371844,0.24120836625650757,0.3029572461381142,-0.7119596936029278,-0.15984897401643836,0.4219400046416646,-0.9072151687188379,-0.30902314883831333,0.714831876647236,0.9490860181701802,0.07932120685638733,0.6640234363653417,0.9239162811206914,0.0,0.0,0.0,0.0
0.035673593613989585,-0.1862349323063928,0.7593527876494708,-0.011486458498945471,-0.548707230241972,-0.002413931454432872,0.8359321800757935,0.2454534205383629,0.3000859723799681,-0.7078258897018671,-0.1560464803614085,0.4303243445062689,-0.9223415818654318,-0.2958733314727704,0.7128252368332166,0.9528194498034962,0.05767744187286031,0.6615005012416374,0.9234776496484399,0.0,0.0,0.0,0.0
0.036238870996604985,-0.18815152865629223,0.7583926410786913,-0.011722736183152765,-0.5490098476173086,-0.002170720744293875,0.8357308494049086,0.2498276071179404,0.2959518957962468,-0.7026732855441253,-0.1520761199496104,0.4377818048058567,-0.9372484841882355,-0.28213079171995387,0.7090029621130461,0.9585058936793948,0.03722035536778848,0.6603999413640164,0.9191102346414209,0.0,0.0,0.0,0.0
0.03664155193464544,-0.19018780706157912,0.7571546024053271,-0.011957340291223195,-0.5492647160718467,-0.0019336937356240803,0.835560622887538,0.25447127186881835,0.2901782053801586,-0.6960260501309162,-0.1477881534042322,0.44436009997218573,-0.9522200687482137,-0.2672234360084464,0.7030597827659428,0.9663463778230947,0.01745041786424823,0.6601063195602458,0.9118909526329775,0.0,0.0,0.0,0.0
0.03687504484478583,-0.1923722314597248,0.7556198660932943,-0.012215107257372269,-0.5494684627006322,-0.0016808972257539943,0.8354234700058476,0.25942158874834276,0.2825850153452739,-0.6877237804043487,-0.14313881052129776,0.450044352349264,-0.9672790687733668,-0.25066526374772047,0.6948055943440609,0.9763518257443617,-0.0022752174597987576,0.6604233721814504,0.9022099631363024,0.0,0.0,0.0,0.0
0.03692622476569224,-0.194682213241539,0.7537781094846566,-0.012539423944459225,-0.5496169842208058,-0.0013727044450107244,0.8353215244357554,0.2645734490726999,0.27315783330395943,-0.677959309866571,-0.13822868119270149,0.45464518917625935,-0.9820423658192761,-0.23209798116538308,0.6840438254499931,0.9885339021779243,-0.022790830849085827,0.6614667625857269,0.8897779255263683,0.0,0.0,0.0,0.0
0.03690041990985341,-0.19692498916672113,0.7516483716346307,-0.013006799050568054,-0.5496861095505546,-0.0009152766651661881,0.8352695172303728,0.2694123483113345,0.26346984372254223,-0.6698301419080233,-0.13371612613704079,0.45821736220194703,-0.9961641245304831,-0.21195446412754446,0.6709408942586543,1.0029569293474994,-0.045684008551290116,0.6637842707548912,0.8737460226552577,0.0,0.0,0.0,0.0
0.03675739230272688,-0.1989626547463579,0.7492628562137665,-0.013726511793579909,-0.549641574565074,-0.0001677766004613647,0.8352877912639567,0.273403002894864,0.2540344454010469,-0.664857670269383,-0.1301705777781175,0.4602413685738337,-1.0083292212074781,-0.1895085229143929,0.6550962451271081,1.0193703209671319,-0.07256477862165679,0.6678101163192334,0.8520676988690968,0.0,0.0,0.0,0.0
0.036453241794266074,-0.20062697641564153,0.7467815102069102,-0.014839361765685986,-0.5494347866617281,0.0010264225916819568,0.8354041866097103,0.2759037610107908,0.24557665419930094,-0.664611308042482,-0.12824537094874203,0.4602832454575928,-1.0167991477706964,-0.16398490272395017,0.636620968358936,1.0363744410713784,-0.10463637690506031,0.6746323447387015,0.821306541795269,0.0,0.0,0.0,0.0
0.036073730677927844,-0.2016993661080744,0.7447652518979311,-0.016408223532138475,-0.5490849139822527,0.002716202163334186,0.835601070896531,0.27627546560157445,0.23983886413123412,-0.6701320406387204,-0.12849536042505763,0.4588973296246774,-1.0196991424616386,-0.13642223212594368,0.6184980689360025,1.0493878826816345,-0.1342498404842474,0.6879242337307089,0.7784227082875703,0.0,0.0,0.0,0.0
0.03610279863372875,-0.20172202591314786,0.7447124916013725,-0.016446012091718868,-0.5491155140450195,0.0027363794160107898,0.8355801536352121,0.2763043267310429,0.2397208406484244,-0.6700814997661384,-0.12846889294564137,0.4589382465510846,-1.0197672239740694,-0.13640255842589583,0.6184099492983569,1.0493817237530887,-0.1342625190516997,0.6879190244163287,0.7784088185248822,0.0,0.0,0.0,0.0
0.03610279863372875,-0.20172202591314786,0.7447124916013725,-0.016446012091718868,-0.5491155140450195,0.0027363794160107898,0.8355801536352121,0.2763043267310429,0.2397208406484244,-0.6700814997661384,-0.12846889294564137,0.4589382465510846,-1.0197672239740694,-0.13640255842589583,0.6184099492983569,1.0493817237530887,-0.1342625190516997,0.6879190244163287,0.7784088185248822,0.0,0.0,0.0,0.0
0.034580848363088106,-0.20252560649901652,0.7459774966855303,-0.014820013477773324,-0.5506112083029652,0.0012025074565381992,0.834629389889599,0.252752557097284,0.28306325154814455,-0.7403322770844974,-0.12318905652379396,0.45352015923791694,-1.0059763332925997,-0.1508231868407163,0.6300403886623845,1.0401055872642833,-0.1459678991843163,0.6898460642809562,0.7695441891153945,0.0,0.0,0.0,0.0
0.031635986996456235,-0.2045589032361922,0.7472187089058477,-0.013457235975677023,-0.5516003878519405,-0.00024362069512666633,0.8339999134115306,0.22515959783423944,0.3071167591691701,-0.7837365365310854,-0.11464106168729238,0.4435472802384242,-0.9878936501415468,-0.1526596874043242,0.6349172078071824,1.026226132044324,-0.14764553274729086,0.6873930767610675,0.7659080494656361,0.0,0.0,0.0,0.0
0.028032775272160165,-0.2075796408131868,0.7481080428218299,-0.012303551342321141,-0.5522087286620047,-0.0015139135991789991,0.8336137299010097,0.1999362975715437,0.3196435385002208,-0.810406559270347,-0.10399966349952364,0.4318860985631556,-0.970193629439276,-0.14422078284712186,0.6342301509312855,1.0113998961228818,-0.1414583443712672,0.6806257237857126,0.7703107694257573,0.0,0.0,0.0,0.0
0.02426335815185059,-0.21134820536741628,0.7487617506464304,-0.011256887020611759,-0.5525665492525315,-0.002672278199277118,0.8333884748849006,0.1788736610068462,0.3257795505203832,-0.8268699013338094,-0.09189725089842937,0.42056764689382636,-0.9549826914169903,-0.12963877468423476,0.6311315245918389,0.9953550321567055,-0.13023122012211913,0.6715504928397952,0.7800471932330196,0.0,0.0,0.0,0.0
0.020695502942492526,-0.21564238837396854,0.7491461225884838,-0.010297502193357845,-0.5528002752750859,-0.0037102165811763,0.8332418924881824,0.16213292786199549,0.32830913050680555,-0.8375223851518835,-0.07897107896150093,0.41096342349665044,-0.943809615358555,-0.1116404079521818,0.6271635972794412,0.9792118065080543,-0.11571172587848537,0.6611572887460079,0.7944163489830756,0.0,0.0,0.0,0.0
0.01743240676158034,-0.22000006045011894,0.7493315167302569,-0.00944635709424779,-0.5530055162623644,-0.0045927896652353415,0.833111380071197,0.148635502246533,0.32878176160035777,-0.8452375213137894,-0.06636630201589351,0.4025974030624455,-0.9348148145202646,-0.0931592558892124,0.6232334734821792,0.9638612010830983,-0.10008201950839311,0.6507872762181439,0.8105197126184318,0.0,0.0,0.0,0.0
0.014501941440629995,-0.22399134913424956,0.7494989151652426,-0.008733938940232841,-0.5531561169090629,-0.005314770468941952,0.8330148749281359,0.13652733579512755,0.32816712475407184,-0.8510283388526988,-0.055071486051463295,0.39488064969474435,-0.926176037768089,-0.07631935912042995,0.6201028033793003,0.9489450654227032,-0.08519222235330831,0.6419120501779674,0.8243991763978042,0.0,0.0,0.0,0.0
0.011898041349447209,-0.22756248976489132,0.7496975529846133,-0.008139101195640014,-0.5532563619730498,-0.005912833998845534,0.8329502934522414,0.12486852716453634,0.32744286969351283,-0.8554758572006094,-0.045116414634187064,0.38783115893556164,-0.9178561007435031,-0.061425009059508734,0.6179223444659075,0.9343937006629066,-0.07154371552845161,0.6346186824453924,0.8355964396885344,0.0,0.0,0.0,0.0
0.009592597119020803,-0.23072266547548534,0.7498983303335648,-0.0076436542639206325,-0.5533211857042376,-0.006415363576062371,0.8329082080941075,0.1129563967654755,0.32738243166701797,-0.8588584774734307,-0.03640030450247931,0.3813840425009487,-0.9099521639869808,-0.04841956818220264,0.616415731067438,0.9206824373018767,-0.059285683405244524,0.6285024041026621,0.8447442768027266,0.0,0.0,0.0,0.0
0.007556566133198599,-0.2334972088496816,0.750074702864835,-0.007233042405364476,-0.5533659630075322,-0.006844236703528008,0.8328787129626107,0.10030060034711609,0.32845397372064666,-0.8611874849531621,-0.02879901038774059,0.3754781777464783,-0.902526354466982,-0.0371556859608239,0.6153238772060796,0.9081913487382466,-0.04843019565050554,0.6232345924393844,0.8524232777922837,0.0,0.0,0.0,0.0
0.005771245627860543,-0.2359088452387636,0.7501969086549226,-0.006895078547836879,-0.5533965594086175,-0.007216762340526426,0.8328581057226038,0.08659571234410783,0.3305410390304326,-0.8629998872707239,-0.02220966174364599,0.37009015520726557,-0.8957295158330323,-0.027510293137195194,0.6143768329018078,0.8973029502101009,-0.03896740512833506,0.618513540106976,0.8591536052102356,0.0,0.0,0.0,0.0
0.004226920188439516,-0.23800835438220394,0.7502795860083343,-0.006616103532220765,-0.5534174132353903,-0.007548469962187198,0.8328435714485224,0.0717259377842962,0.33338292881701076,-0.8646210638008851,-0.016468817079614114,0.36533571346970745,-0.8897701010661908,-0.019240796394127634,0.6135972963882647,0.8878406849879499,-0.03074249568302164,0.6143252610166099,0.865067536581104,0.0,0.0,0.0,0.0
0.002916873715158387,-0.2398318287214743,0.7503473123973223,-0.0063867720789528,-0.5534327660289433,-0.007848686623796813,0.8328323845446007,0.05568359899667759,0.33677657173884995,-0.8662103260498034,-0.011463210212359094,0.3613108354158765,-0.8847536354268788,-0.012168466639087822,0.61308499652541,0.8795349451608405,-0.02363195819755287,0.6107503396120486,0.8701195139288823,0.0,0.0,0.0,0.0
0.001838487573194348,-0.24136040404942713,0.7504095034822704,-0.006206613521468012,-0.5534436953333183,-0.00811591022184144,0.8328239225944865,0.03866688754385367,0.34059263713608645,-0.8678439677061176,-0.007234121188755824,0.3579985443376863,-0.8806140651213503,-0.006331147910735984,0.6128268382010505,0.8724252357769289,-0.017707606044982123,0.6078355444562651,0.8741984758342668,0.0,0.0,0.0,0.0
0.0009781455708329514,-0.24250037051267334,0.7504289438332565,-0.0060848327553292844,-0.5534370306903442,-0.008325682579059536,0.8328271794799852,0.021384726092135993,0.344633553206928,-0.8697160312554676,-0.00405095392392335,0.3551311202159967,-0.8770446896697756,-0.0020076081741772587,0.6124079368753628,0.8672254172032247,-0.013276825663715356,0.6053820249770895,0.8773562196675992,0.0,0.0,0.0,0.0
0.000274320405759442,-0.24319103779626017,0.7504349279064116,-0.006022258277120025,-0.553436492006367,-0.008463775635722934,0.8328266003334177,0.005416286750659756,0.34867658384407524,-0.8721435284212197,-0.002082544791406152,0.35223726347659995,-0.8730089643176953,0.0006045508345016047,0.6118325674031503,0.8639230247231899,-0.010567075777934087,0.6035279667295795,0.8791432548260002,0.0,0.0,0.0,0.0
-0.00016049354462545064,-0.24347684556396823,0.7504492593156666,-0.006009096389150184,-0.5534393015044169,-0.00850886480686563,0.8328243689581781,-0.005692395119121618,0.3522287600300759,-0.8751989326276819,-0.001282821919513083,0.3501419712138811,-0.8697806769021663,0.0017909016117464691,0.6114014954718264,0.8622448850733307,-0.00931809334671867,0.6026058204234193,0.8796438411154384,0.0,0.0,0.0,0.0
-0.00015838595952955318,-0.24348066608894273,0.7504457736266059,-0.006011708814724799,-0.5534380766604874,-0.008511415271548573,0.8328251379908886,-0.00571283139855568,0.352231644823555,-0.8751962611299209,-0.0012708105913010357,0.3501351483135128,-0.8697817626886318,0.0017818492381528664,0.6114169653760774,0.8622289281712247,-0.009308843319715841,0.602591852978463,0.879658910676893,0.0,0.0,0.0,0.0
-0.00015838595952955318,-0.24348066608894273,0.7504457736266059,-0.006011708814724799,-0.5534380766604874,-0.008511415271548573,0.8328251379908886,-0.00571283139855568,0.352231644823555,-0.8751962611299209,-0.0012708105913010357,0.3501351483135128,-0.8697817626886318,0.0017818492381528664,0.6114169653760774,0.8622289281712247,-0.009308843319715841,0.602591852978463,0.879658910676893,0.0,0.0,0.0,0.0
-0.00015838595952955318,-0.24348066608894273,0.7504457736266059,-0.006011708814724799,-0.5534380766604874,-0.008511415271548573,0.8328251379908886,-0.00571283139855568,0.352231644823555,-0.8751962611299209,-0.0012708105913010357,0.3501351483135128,-0.8697817626886318,0.0017818492381528664,0.6114169653760774,0.8622289281712247,-0.009308843319715841,0.602591852978463,0.879658910676893,0.0,0.0,0.0,0.0
-4.126814051032062e-05,-0.24370596998377358,0.7504551815083228,-0.006030253605000432,-0.5534971054254599,-0.008490013189909325,0.8327859929196286,-0.0052093489681413795,0.35250223447530366,-0.875234278992606,-0.0007699281197352707,0.35127153703495456,-0.8713700153490571,0.003087451567187945,0.6118862484459466,0.8615294800254845,-0.007998426020016814,0.6029582592630267,0.8807152345972298,0.0,0.0,0.0,0.0
0.00011692045558885544,-0.24410515362405827,0.7504552048914168,-0.006028880035998357,-0.5535471510040146,-0.008482810876570027,0.8327528121480481,-0.0042716944350742565,0.352706523614675,-0.8751066713788827,0.0001667827491229893,0.3530373796136675,-0.874205747423328,0.005120652396486016,0.612482308205393,0.8603048065308743,-0.005956853018420118,0.6032178428024696,0.8825204451010752,0.0,0.0,0.0,0.0
0.0003133586090914379,-0.24469464339610628,0.750442188459766,-0.006016937367888828,-0.5535788927356976,-0.008483761728609679,0.8327317886145347,-0.0028662829217540745,0.35280138011292667,-0.874812504147611,0.0015733106802833861,0.3554424141385421,-0.8783499639936355,0.008036593152390845,0.6131540033584042,0.8584772624584838,-0.0030165295953234923,0.6033466490330952,0.8851407486887921,0.0,0.0,0.0,0.0
0.000570531961380409,-0.24554560283655932,0.7504204260721491,-0.00598561126514434,-0.5535939221443497,-0.008505820731314095,0.832721797983159,-0.0007989250697528483,0.35279269756386394,-0.8742658452811033,0.003645455338968643,0.35875997507422747,-0.8842857995058349,0.012090080431689205,0.6140456894960661,0.8557579956173507,0.001095245020186133,0.6033691317076296,0.888791016114407,0.0,0.0,0.0,0.0
0.0009914332624462612,-0.2467658450437082,0.7504407935738387,-0.005820968673333718,-0.5537245758210733,-0.00882928706027197,0.8326327246424343,0.002749866784305588,0.35307134590467876,-0.872649544467698,0.007206860455562221,0.3636943161774897,-0.8929030385389236,0.01603066519077201,0.6165564567153461,0.8520441297474185,0.00511127363103681,0.603448018890065,0.8934559826691866,0.0,0.0,0.0,0.0
0.0017636432120581172,-0.2478195151881986,0.7503725365496571,-0.005732584704122403,-0.5536314279361428,-0.008853243183744336,0.8326950219372798,0.005241567408375777,0.3558781854753867,-0.8771808151327233,-0.008955013291351266,0.35501341164981903,-0.8810075881566365,0.020796849631679323,0.6181003899469393,0.84912836882292,0.010006769566819614,0.6039102648337716,0.8983021930487224,0.0,0.0,0.0,0.0
0.0028334301387224303,-0.24904848625854137,0.7502994238187572,-0.0055677645009266155,-0.5536072906661273,-0.009040060264872182,0.8327101806932468,0.00847401423784077,0.3601108902940222,-0.8832607122714016,-0.030174398851056383,0.347839769915462,-0.8727808380749263,0.02537624551231618,0.6207530800579355,0.8462404470596512,0.014738407001186152,0.6047230716684322,0.9040003506315886,0.0,0.0,0.0,0.0
0.003949743900496572,-0.25055584440228046,0.7502154154984997,-0.0053814194757942375,-0.5535975190093311,-0.00930224373330707,0.8327150145954286,0.012553163831756895,0.364036358550697,-0.8884850908297496,-0.051092641420293766,0.3418818133797624,-0.8673865586378757,0.03097670521023739,0.6237789343579847,0.8424635968865425,0.020574367548861956,0.605461902450116,0.91070736194866,0.0,0.0,0.0,0.0
0.005095266231902471,-0.25230026258003097,0.7501158972015354,-0.00518769354352974,-0.5535772990329548,-0.00958443409141906,0.8327264859809757,0.017264314900675756,0.3676228287153572,-0.8930575861545227,-0.069888698595238,0.336678773708712,-0.8636573420118405,0.037699543742032396,0.6269548939227392,0.8378056986828486,0.027662603774920205,0.6061665812301189,0.9182560397778334,0.0,0.0,0.0,0.0
0.006378285217325376,-0.2542191359813731,0.7499930311118909,-0.004961504094058969,-0.553554945011816,-0.00988692808133921,0.832739187851277,0.02243583001948038,0.3716113140394562,-0.8981668168501828,-0.08653789290635544,0.3320444831681259,-0.8607581551182535,0.04510148315635508,0.6304545658475265,0.8326948592991581,0.03557636597880935,0.6070481139665088,0.9265511503736387,0.0,0.0,0.0,0.0
0.007858381888599598,-0.2563051821512108,0.7498396416159304,-0.00468676234799451,-0.553534593743407,-0.010219956799199915,0.8327502868633773,0.028066658464191485,0.37633843261305444,-0.9043202871255769,-0.101496449185349,0.3278977488202539,-0.8582684408624789,0.05303930992270993,0.6343944894122154,0.8272785873663717,0.044195337497832644,0.6082079599814634,0.9356265165341526,0.0,0.0,0.0,0.0
0.009548150381440709,-0.2585980049438291,0.7496489743576042,-0.0043552215448733255,-0.5535056933877552,-0.010596187607061942,0.832766594095147,0.03428618181728185,0.3817718087018545,-0.9114693548719941,-0.11521740515493098,0.32425277891985144,-0.8559287321572121,0.061640848333434084,0.638806106021213,0.8214085994083401,0.05369625864277459,0.609632814158666,0.9455885884554522,0.0,0.0,0.0,0.0
0.01145814642403856,-0.26115606579390166,0.7494148334402903,-0.003953556852171422,-0.5534492451085603,-0.011034510864068627,0.8328004214978353,0.04128337317841057,0.3878265948429358,-0.9194836718004123,-0.1280453973102609,0.32125153555114044,-0.8533831959064425,0.07107325128375087,0.6437421538299325,0.8148115092803196,0.06432006963206555,0.6112864719433179,0.9565517370143126,0.0,0.0,0.0,0.0
0.013595737827926786,-0.2640475792008848,0.7491316637807384,-0.003461777295465891,-0.5533448176712057,-0.011561538157955374,0.8328648507950127,0.04928760554273463,0.3943673113876425,-0.9281177226658917,-0.14021572604769472,0.31907228240463387,-0.850123341498241,0.08148074460272063,0.6492921866439196,0.8071411929561607,0.07631016068488668,0.6131233520423223,0.9686196751473944,0.0,0.0,0.0,0.0
0.01597478236461196,-0.26731775527271784,0.7488204884125507,-0.0028573155850337,-0.553175368324319,-0.012208623212034697,0.8329704659507251,0.058484007648638356,0.4013476517563278,-0.9371346485719301,-0.15204469824031125,0.3176756923109509,-0.8454246701626982,0.0928488414663887,0.6557457066644575,0.7978492513304455,0.08975867480227363,0.6152689425162663,0.9815522383151092,0.0,0.0,0.0,0.0
0.01862391514483336,-0.27098196763518756,0.7485129290859345,-0.0021168674067810417,-0.5529170240336899,-0.013007751894843078,0.8331320914457396,0.06898963723826321,0.4088675125953098,-0.9465194149997993,-0.16408678812075736,0.3163511585560115,-0.8390275981823309,0.10499335117032194,0.6634836098595722,0.786349643580543,0.10457666399746388,0.6179182504755205,0.9948986877738407,0.0,0.0,0.0,0.0
0.021567866910506744,-0.2750005886168,0.7482116764306092,-0.001204099610231935,-0.5525717593695754,-0.014003035600841963,0.8333468160887773,0.080806526740153,0.41705772332647767,-0.956281161279734,-0.17706972929057557,0.31398533288399433,-0.8303479935081659,0.11734217135639007,0.6727660418740187,0.7726841644328556,0.12020476584829726,0.6211126975206717,1.0083768214976876,0.0,0.0,0.0,0.0
0.024828332593203085,-0.2790850157464321,0.7478687899803423,-9.521208978996532e-05,-0.5522149790569525,-0.015218677377781152,0.8335628348832849,0.09328457776698149,0.42645888500101736,-0.9671652568184097,-0.1921815456957221,0.30951898364206815,-0.8182565255700123,0.12828810987551006,0.6833793932954034,0.758877098593357,0.1347263917392086,0.6247787070403572,1.0216811398233352,0.0,0.0,0.0,0.0
0.028346734032714236,-0.2827426561940785,0.7472945517545516,0.0012089486252146908,-0.5519262241933539,-0.016603315278741315,0.833726760643224,0.1051149594022814,0.43750895709843673,-0.9806697300828923,-0.21035110351898928,0.3016033112979598,-0.8006274661410978,0.13569237997058695,0.6935545965960629,0.749704943664675,0.14531492495386591,0.6279561599046108,1.0353908620053989,0.0,0.0,0.0,0.0
0.031752702703826255,-0.28578776760920377,0.7464859820231232,0.0026538784460300806,-0.5515808672196286,-0.01804197750096958,0.8339220532485578,0.11559297631747935,0.4486459439938429,-0.9953688195028852,-0.23101251220172328,0.2877278853657026,-0.773277894189884,0.13907847270879745,0.7017856047284314,0.7457424668461626,0.15100296321742832,0.6294008716001821,1.0488237946020014,0.0,0.0,0.0,0.0
0.0345740220014446,-0.28800530202072006,0.7453167406901136,0.004278686509017962,-0.5511357769905758,-0.019452954815170276,0.8341778172018905,0.12388874064407811,0.45773561051071027,-1.0090118896947706,-0.25287652296856666,0.2639740420309021,-0.7306407456585121,0.13709095866164278,0.705812668427578,0.7495364738860931,0.14971477383079712,0.6267937042577644,1.062652734959692,0.0,0.0,0.0,0.0
0.036086393927103735,-0.28913307764572727,0.744035565372421,0.0059145684647363235,-0.550416278652545,-0.020520945816153588,0.8346171750311459,0.12856911989005823,0.46194109344876,-1.018250112210202,-0.27179535745681255,0.22480475248107995,-0.6650876883446941,0.12983816072141646,0.7044279990322292,0.758610876004577,0.14129316328681613,0.619138639678411,1.0740495783393633,0.0,0.0,0.0,0.0
0.03618413906871491,-0.2892253340387842,0.7439888097589237,0.006014407940915089,-0.5503742987010608,-0.020532964730525544,0.8346438495465062,0.1288495200806994,0.461997960533805,-1.018317283204116,-0.27185443441987023,0.22479476138756743,-0.6650533117323261,0.129717825241971,0.7045930461493696,0.7584223149909537,0.1413596870281349,0.6191254708185001,1.0743633609725503,0.0,0.0,0.0,0.0
0.03618413906871491,-0.2892253340387842,0.7439888097589237,0.006014407940915089,-0.5503742987010608,-0.020532964730525544,0.8346438495465062,0.1288495200806994,0.461997960533805,-1.018317283204116,-0.27185443441987023,0.22479476138756743,-0.6650533117323261,0.129717825241971,0.7045930461493696,0.7584223149909537,0.1413596870281349,0.6191254708185001,1.0743633609725503,0.0,0.0,0.0,0.0
0.036113911841191726,-0.29054868083457924,0.7466802577947753,0.00393683083806813,-0.5499080545456764,-0.018762085521433432,0.835005159897607,0.1294418985390635,0.46168910411453407,-1.0141672563036652,-0.2707223937172098,0.23019599000115845,-0.6588947585627511,0.08933789828384109,0.6857746944489123,0.8091725087633583,0.17323242229063213,0.6381537061325395,1.0544484245256842,0.0,0.0,0.0,0.0
0.035920356587586605,-0.2925721810735409,0.7497690260846143,0.002476399430423385,-0.5494989184323488,-0.017463940104266388,0.8353082166982284,0.13223009393514396,0.4593739635636039,-1.0027280216469623,-0.2672645959391337,0.2382794660695993,-0.6582516530340047,0.04970616004081741,0.6747074873871959,0.8438699480500906,0.20278526384972667,0.6573653799156138,1.0315242563028713,0.0,0.0,0.0,0.0
0.0356510881283915,-0.29499117701093513,0.7525772834000649,0.0015585316359217412,-0.5491640379970267,-0.016611162179727166,0.835548023539628,0.13656564338150345,0.4551293431915007,-0.9871924074376772,-0.2623649719476239,0.24767517495295743,-0.6629217546791732,0.019408885147098712,0.6675489052620732,0.8670485999664688,0.22867491272762933,0.6738295714856308,1.0109623357062432,0.0,0.0,0.0,0.0
0.03536509923631247,-0.2975886408297049,0.7549910799133266,0.0009979644314206857,-0.5488695283271244,-0.016073489017165245,0.8357528868581722,0.14177463008986738,0.44963150382628175,-0.9698823584832922,-0.2567318702587074,0.2576886773994805,-0.6714628001607228,-0.004517067328032472,0.6630032489333171,0.8834065476068661,0.2514638289748129,0.6874565693257251,0.9936639407413027,0.0,0.0,0.0,0.0
0.03508284374125547,-0.3002091174301291,0.7570416137683814,0.0006492040732577699,-0.5485843630551899,-0.01571637046947396,0.8359472297009358,0.1472823678878843,0.44342676558206934,-0.9522199343862566,-0.2509019761541971,0.2676786525316482,-0.6820871835000947,-0.02495818677312924,0.6602825269780297,0.8956915421120051,0.2718784065976324,0.6987084070487838,0.9792930380499915,0.0,0.0,0.0,0.0
0.034713208469148917,-0.3026953612853789,0.7587660483778017,0.00039399048897421327,-0.5482978903541902,-0.0154366994482429,0.8361405243825847,0.15254781668214554,0.4365005293292916,-0.9345675257150722,-0.24528691524728236,0.27627428443035823,-0.6918642279296392,-0.04395676156767879,0.6585995525083298,0.9052260920900891,0.2901102259538801,0.7077053028783292,0.9673644739743954,0.0,0.0,0.0,0.0
0.034215824022631576,-0.30500730643159524,0.7602130693783736,0.00016889898334636712,-0.5479960147944007,-0.015184478450955299,0.8363430939852141,0.15740935537644704,0.4288495115619248,-0.916998785215692,-0.24000495879905595,0.28309090062798803,-0.6998098006491708,-0.06268475714535157,0.6574611506836269,0.9126278564053625,0.3064693613537725,0.7146524812783045,0.9574431837314935,0.0,0.0,0.0,0.0
0.033597417546557456,-0.3071905164050883,0.7614352840944784,-5.37279022218965e-05,-0.547656739579483,-0.014936738483135873,0.8365697738682466,0.16195601788145783,0.4205029837748493,-0.8994797380799162,-0.23498660481039146,0.2884574364357773,-0.7063229269222253,-0.08176761218055498,0.6567261499350296,0.9179756895667492,0.32148726875728395,0.7198442204019607,0.9491574100322295,0.0,0.0,0.0,0.0
0.032863783378442556,-0.30931569710554363,0.762479331353581,-0.0002914890559321208,-0.5472549205186004,-0.014677884589246565,0.8368372163726321,0.1663432969098603,0.4113899968358317,-0.8818076955864548,-0.2300977609149843,0.29277194098776893,-0.7119961595814444,-0.10171256654576004,0.6565851962780463,0.9207412636317693,0.33573413529300455,0.7235217270737181,0.942185834527872,0.0,0.0,0.0,0.0
0.032018712079922226,-0.3114563974682037,0.7633960824060423,-0.0005591817163596852,-0.5467619425977903,-0.014395092069235414,0.8371641695431171,0.1707329291626042,0.4013989621131449,-0.8637018878322748,-0.2251913504355416,0.2964086357803105,-0.7173867813400783,-0.12307525939192722,0.6576182804994186,0.9197727544577254,0.3497113886439461,0.7259202218470868,0.9361167570442656,0.0,0.0,0.0,0.0
0.03107854245788889,-0.3136768446168057,0.7642692054098046,-0.0008719852179067277,-0.5461336382948291,-0.014067902939901001,0.8375794785401002,0.17524650902909028,0.3905248131089956,-0.845010191844901,-0.22016276958726602,0.29979498293960527,-0.7230465101175109,-0.1461210777838568,0.658996156578026,0.9167360761843802,0.3637963826651044,0.7274305289607902,0.9301091431439183,0.0,0.0,0.0,0.0
0.030035968958938838,-0.3159791317302794,0.7651704821881596,-0.0012653000326347606,-0.54532049318651,-0.013657847313306866,0.8381153989358597,0.1798331983543585,0.37879062604662983,-0.8258222989067859,-0.21505827817153075,0.3029330378382373,-0.7287804743255326,-0.17200836386294666,0.6603609527260461,0.9128775879472804,0.3780631389629761,0.7283175395724188,0.9232484476660362,0.0,0.0,0.0,0.0
0.0288603332586569,-0.3182653002259208,0.7661127952868938,-0.0018051857194683722,-0.5442636544615922,-0.013105016061333638,0.8388099154699251,0.18419833832488164,0.36637949421724525,-0.806943943932303,-0.2101714739733682,0.30526893760225304,-0.7335900881245194,-0.20372940953850788,0.6619731045131326,0.909322847857391,0.39214998315527233,0.7284712426854131,0.9149454855982861,0.0,0.0,0.0,0.0
0.027592778129717666,-0.32030537372904305,0.7669931874924601,-0.002585169461842262,-0.5428645903125068,-0.012267857820716759,0.8397266538274096,0.1876503678320307,0.35439731469465735,-0.7916207728250512,-0.2063265613993086,0.3062482906278735,-0.7367776677880146,-0.24654781291090844,0.6652992983641962,0.9069132372536689,0.4056149083785754,0.7273854894293368,0.905449233025103,0.0,0.0,0.0,0.0
0.026226896714169178,-0.32192946057363137,0.7673999587909457,-0.0036192306721421767,-0.5410543963283161,-0.011170278062539646,0.840905622689698,0.18997560569587182,0.34345844521226465,-0.782928695832552,-0.2039403947126814,0.30522671639727844,-0.73912574172347,-0.3059306426134721,0.6708046444737543,0.9067983537138941,0.41731766879495785,0.7225628023202869,0.8984340957387097,0.0,0.0,0.0,0.0
0.024941946940854148,-0.32308840388525684,0.766837453683532,-0.004596732808208762,-0.5388175665153099,-0.010058712175509875,0.8423498812081472,0.1914720147908066,0.3346978984597353,-0.7838030992284165,-0.20307573609172752,0.30335301899859424,-0.7454607511965146,-0.37717729232407826,0.6767923453558519,0.909813596074586,0.42461327439404667,0.7111396976568878,0.8991281739968977,0.0,0.0,0.0,0.0
0.02394591267319179,-0.3236810994470948,0.7656001400071323,-0.005206374228705827,-0.5363621552135011,-0.00921675584909022,0.8439215505802284,0.1921874963775589,0.32934488723041255,-0.7931799029744668,-0.2036335140888741,0.30155002314793655,-0.7561367430280949,-0.44790553538764066,0.6787864394246553,0.9177327102514243,0.424967553513657,0.6953922217291829,0.9050921910934391,0.0,0.0,0.0,0.0
0.023948747599931937,-0.3236982385653005,0.7655696046897907,-0.005233699930581283,-0.5363418739667728,-0.00919324764061364,0.8439345275628113,0.19220219826766494,0.329183738455509,-0.7931921030243055,-0.20365512698448926,0.30150797408511376,-0.7561996315219743,-0.44797113114696097,0.6787974784884163,0.9177420749744984,0.425044009940122,0.6953353543483661,0.9049669250935375,0.0,0.0,0.0,0.0
0.023948747599931937,-0.3236982385653005,0.7655696046897907,-0.005233699930581283,-0.5363418739667728,-0.00919324764061364,0.8439345275628113,0.19220219826766494,0.329183738455509,-0.7931921030243055,-0.20365512698448926,0.30150797408511376,-0.7561996315219743,-0.44797113114696097,0.6787974784884163,0.9177420749744984,0.425044009940122,0.6953353543483661,0.9049669250935375,0.0,0.0,0.0,0.0
0.024012429392077622,-0.32420443589508025,0.7660659141101461,-0.005448448837603801,-0.5380692333234979,-0.00903936333361956,0.8428345653011925,0.19261046519808656,0.3262617069396929,-0.7790316530274853,-0.20197720328898056,0.3014945945592624,-0.7464313778893245,-0.4501592825081001,0.6869205517940726,0.9172220661597345,0.436529282394454,0.7043526448420022,0.905777731268675,0.0,0.0,0.0,0.0
0.02410247887248841,-0.3249670931185636,0.7663979677734531,-0.005483220794216129,-0.5392045465179814,-0.009042365409704673,0.8421084413137403,0.19403224663678698,0.323042621748109,-0.7668210196675581,-0.1997907649803728,0.303319543288237,-0.7437294637889265,-0.45049719100785796,0.6927265008411498,0.9160144425971772,0.44615104815984313,0.7104625819885132,0.9070039321757201,0.0,0.0,0.0,0.0
0.02434933364312777,-0.3260242428325482,0.7664437848105254,-0.005382562657627193,-0.5399152665968001,-0.009167645112915858,0.8416522364955888,0.1965188273783886,0.32012703974212625,-0.7573622301498524,-0.19706412752955224,0.30781133886528955,-0.7490560395970907,-0.44939822274046554,0.6963007219364364,0.9160056175767097,0.4552857579863884,0.7138917045284162,0.9105690402544143,0.0,0.0,0.0,0.0
0.02479444567677579,-0.32740538694629356,0.7660609896710184,-0.005188454703387608,-0.5403890838745955,-0.009347795161606805,0.8413473341566983,0.2000069901689154,0.317499682842681,-0.7505266812111292,-0.1938083554346551,0.3149650025940815,-0.7619319831927575,-0.4471502388897852,0.6974881140458831,0.9192332179595049,0.4657378364582362,0.7147795568456308,0.9185561685761078,0.0,0.0,0.0,0.0
0.02540992364598541,-0.3291806881570794,0.7647336293533006,-0.005409434389187829,-0.5412822724618305,-0.00908065522529052,0.8407745127195669,0.20391316452496955,0.3140796608506953,-0.7454320441816055,-0.1903511631864109,0.3232652994770572,-0.777234075973203,-0.4411227566583945,0.6946224995890442,0.9329379445023812,0.4876992380224067,0.7139906045981601,0.9381836387090633,0.0,0.0,0.0,0.0
0.026503851004356038,-0.3311369770172417,0.765456701581874,-0.0065948662243089035,-0.5424617131558122,-0.0077959062169698405,0.8400184648838387,0.20657944359746933,0.31398468298948584,-0.7397720344525938,-0.1875753214545833,0.33482641447045436,-0.7848931271181931,-0.42247498564650915,0.7026212966862719,0.9261136166733528,0.3904714822618496,0.701824190608996,0.9240866059484217,0.0,0.0,0.0,0.0
0.027751311064058183,-0.3334338215853687,0.7653351243646973,-0.008071558779889442,-0.5440065588510242,-0.006212119242095916,0.8390191436674446,0.20976413809552139,0.31312678315445325,-0.7353819073419772,-0.1844814028321175,0.3474566795365493,-0.7951835587496371,-0.40029717670268894,0.7068678064197097,0.9280740747904916,0.2969957995204209,0.6896736207337749,0.9163479155505738,0.0,0.0,0.0,0.0
0.02917952138342074,-0.3359646983053698,0.7648165986398344,-0.009127462972062116,-0.5453010411734335,-0.005048932122033116,0.8381753827208779,0.21424925183398622,0.3125046983014759,-0.7323567884556066,-0.1805062911914215,0.362249719876572,-0.813296914717678,-0.38001524077548454,0.709311507420187,0.9324052833972392,0.22949000634961658,0.6813002986775425,0.9140268443994592,0.0,0.0,0.0,0.0
0.0305886464461929,-0.3384923020247755,0.7642267564346674,-0.00980304012922282,-0.5462916405043988,-0.004290009202400249,0.8375266800169896,0.21936840699103763,0.3117745227225882,-0.7293988830093605,-0.176063621756525,0.3771424540084908,-0.8345156991492946,-0.3622306776227755,0.7110807296211309,0.9361270071332538,0.18311600288328203,0.6758130703540992,0.9150857173310555,0.0,0.0,0.0,0.0
0.03184825319927555,-0.34087365461090324,0.7636580774409545,-0.010253819762534188,-0.5470467199756376,-0.003785144369357163,0.8370307151032613,0.22451676842188534,0.3106187461781127,-0.7259871363373276,-0.17157523007711814,0.39069060530937877,-0.8551907555710747,-0.3464101971436269,0.7122810826142012,0.9389399159801568,0.14931644955263818,0.6717630162130283,0.91781259025732,0.0,0.0,0.0,0.0
0.03293577496381277,-0.34306659400662376,0.7631227025450262,-0.010592788176016575,-0.547636843128103,-0.0034145243518467574,0.8366421110073257,0.22940237416486137,0.3090523455357225,-0.7222338682277509,-0.16727240307896327,0.40258069585736583,-0.8740417729615394,-0.33194533563370987,0.7129091944031158,0.9411402578324158,0.12199574047839025,0.6682300726802032,0.9210421158912808,0.0,0.0,0.0,0.0
0.033873414885306,-0.3450913380639731,0.7625914419778086,-0.01088235346653299,-0.5481148222729171,-0.0031061257276452877,0.8363265319064809,0.23396619565017657,0.3071436618095171,-0.7183547887333565,-0.16321749442149117,0.41300878078165776,-0.8910708499578013,-0.3183238855601928,0.712893226524065,0.9432039065530995,0.09776901540751126,0.6648294598629503,0.9239386863752764,0.0,0.0,0.0,0.0
0.03469157211967413,-0.3469996273425084,0.7620049063877112,-0.011149973257614468,-0.5485152235855847,-0.0028267361590374354,0.8360614434082567,0.238290076187912,0.3048828163913071,-0.714478381431874,-0.15935735300810877,0.4222948905770885,-0.9068244764439262,-0.30515655227654787,0.7120446636779562,0.9457468636952101,0.07505449475388151,0.6616231040877402,0.9256766717898528,0.0,0.0,0.0,0.0
0.035386502378827664,-0.3488735944762181,0.7612758765302589,-0.011402322933187117,-0.5488575601698102,-0.002566083654316067,0.8358341826527851,0.2425510221804792,0.3019042561739358,-0.7102255332597032,-0.1555268367790009,0.43061415569574757,-0.9218959981541369,-0.2919612766933174,0.7099262529339571,0.9495137157702599,0.05343391050441257,0.6590181808925122,0.925122835183271,0.0,0.0,0.0,0.0
0.035935099471319454,-0.3508000086415386,0.7603189605846804,-0.011640936285777748,-0.5491522743573234,-0.002320010443809836,0.8356380111759577,0.24693773022104198,0.29768431244009297,-0.7049644749908685,-0.15153123216361147,0.4380193778150577,-0.9367413153555052,-0.27819305337762346,0.706036667788041,0.9551564005978025,0.03300196530490183,0.657842075012237,0.9206321961305751,0.0,0.0,0.0,0.0
0.03632035196555708,-0.35284530698662825,0.759093759026438,-0.01187766853260587,-0.5493976497454902,-0.002080007228424618,0.8354740073840065,0.251590416707438,0.2918304421941891,-0.6981892796965499,-0.14721851370509487,0.4445483018719721,-0.9516238945047604,-0.26327520434414875,0.7000721854280504,0.9628545804776432,0.013259495877445786,0.6574720242386503,0.913273741804102,0.0,0.0,0.0,0.0
0.036536976637761905,-0.35503613711124943,0.757584366800139,-0.012137732661043938,-0.5495901217011243,-0.0018237213657485293,0.8353442689183739,0.2565417260075905,0.28418074390153375,-0.6897611198301643,-0.14254998668188712,0.4501920785982113,-0.9665619538584517,-0.24673960083491742,0.6918617306408219,0.9725976934419299,-0.006449403605025116,0.657707116011315,0.9034405562209114,0.0,0.0,0.0,0.0
0.03657431814538002,-0.35734770224800483,0.7557832546675141,-0.01246492334251284,-0.5497248954808143,-0.0015110651509377614,0.8352513882998236,0.2616818355389827,0.2747486835601244,-0.6799137048069873,-0.13763303531561755,0.454773718380963,-0.9811797680343447,-0.2282476051529727,0.6812279328503937,0.9843794549458017,-0.026985926334771176,0.6586531436340202,0.8908487000853201,0.0,0.0,0.0,0.0
0.03653592503633424,-0.35959204801486494,0.753712254967999,-0.012936237898289652,-0.5497790623456116,-0.0010481725475393862,0.8352092777799642,0.2665044692299626,0.2650708478855517,-0.6716629221781202,-0.13311233018582272,0.4583553797029365,-0.9951306888384607,-0.208190685983248,0.668340471702824,0.9982412517239673,-0.04996803011435404,0.6608242186700594,0.8746581662203535,0.0,0.0,0.0,0.0
0.036382945747407025,-0.3616331360084763,0.7514026458402062,-0.013661633058428713,-0.5497184635547513,-0.00029557172581245143,0.8352382194598947,0.27048297015299533,0.2556592235366637,-0.6665247345545895,-0.12954902378768712,0.46043041027923476,-1.0071264854358872,-0.1858546646014678,0.6528026871864755,1.013945064095619,-0.07708306541858652,0.6646278464582908,0.852838618510152,0.0,0.0,0.0,0.0
0.03607214512201658,-0.36330203045971005,0.7490041269675457,-0.014781954627754718,-0.5494980235803736,0.0009003057559647107,0.8353637563051153,0.2729824082117363,0.2472337465923615,-0.6660754316932027,-0.1275909323279977,0.46055375449591746,-1.0154433739138662,-0.16052131392843952,0.6347054482432458,1.0302000504720172,-0.10956365432553578,0.671135185009173,0.822010030113663,0.0,0.0,0.0,0.0
0.03569486446648281,-0.3643772970265444,0.7470502709145885,-0.016356997052925995,-0.5491440174176389,0.002585150934773009,0.835563650344168,0.2733680009413153,0.2415583095674042,-0.6714539663175927,-0.12779928027706028,0.4592652709690075,-1.0182715788226901,-0.1333014613040605,0.6169628467452004,1.0426850797583156,-0.13960229973206614,0.6840787742806961,0.7792728415198875,0.0,0.0,0.0,0.0
0.03572265643011386,-0.3644000417329712,0.7469993313913409,-0.016394621991525513,-0.5491733958865989,0.0026052284242454138,0.835543541896527,0.2733967674991174,0.2414415949838705,-0.6714031825477423,-0.12777155006153493,0.4593064955409009,-1.0183388314869948,-0.13328276793589047,0.6168726426240003,1.0426772962647242,-0.13961469921389594,0.6840759673211738,0.7792606043013176,0.0,0.0,0.0,0.0
0.03572265643011386,-0.3644000417329712,0.7469993313913409,-0.016394621991525513,-0.5491733958865989,0.0026052284242454138,0.835543541896527,0.2733967674991174,0.2414415949838705,-0.6714031825477423,-0.12777155006153493,0.4593064955409009,-1.0183388314869948,-0.13328276793589047,0.6168726426240003,1.0426772962647242,-0.13961469921389594,0.6840759673211738,0.7792606043013176,0.0,0.0,0.0,0.0
0.034207310871769814,-0.3651878148751101,0.7482487893626728,-0.014768969197050601,-0.5506374355558693,0.0010667161046143832,0.8346131764057314,0.2499098523800282,0.2843922015261198,-0.7411672784792835,-0.12254643530469873,0.4538617061635087,-1.0046908926857254,-0.14760373210134797,0.6283569481693274,1.0334462491918524,-0.15131157094879943,0.685875220073791,0.7703858882838973,0.0,0.0,0.0,0.0
0.03128339303785073,-0.3671985544053752,0.749472159153772,-0.013416065426823063,-0.551611601273427,-0.00037098917279553527,0.833993113218606,0.22236000743749942,0.30820424655936035,-0.7843052623779939,-0.11409089600708178,0.44391077258649336,-0.9867182761755897,-0.14949969810358774,0.6332671320980034,1.0195852307244402,-0.15294616799252123,0.6833901757754672,0.766809674981978,0.0,0.0,0.0,0.0
0.027708784479886946,-0.3701930292597092,0.7503413335065513,-0.012276250061572203,-0.5522156976269381,-0.0016240328806815614,0.8336093086668492,0.19716193936824886,0.32055539875276773,-0.8108293229406333,-0.10356481442636165,0.432304432668403,-0.9691196548315043,-0.14126192048674804,0.6327137036713861,1.0047904271437784,-0.14672926712864973,0.6766269541615316,0.7713386121716399,0.0,0.0,0.0,0.0
0.023967989463078106,-0.3739332156662586,0.7509663794385738,-0.011244949513607489,-0.5525751925959403,-0.0027618234561335962,0.8333826131910799,0.17611377607672735,0.32655990916865524,-0.8272295832099708,-0.09158608513633776,0.4210351697036347,-0.9540044325569621,-0.12695331774186358,0.6297455131840008,0.9888619558029343,-0.13549533891635518,0.6675090510099136,0.7813282170684938,0.0,0.0,0.0,0.0
0.020426631213200108,-0.37820097355287274,0.7513209531321716,-0.010301597621768233,-0.5528155113595586,-0.0037761164751376947,0.8332314374956546,0.1593739857856415,0.3289906751255393,-0.837852195955548,-0.07878096425063677,0.41148141888762324,-0.9429119507668828,-0.10920973536541136,0.6258918463577485,0.972865668007003,-0.12096607356052955,0.6570646143386301,0.7960057105708074,0.0,0.0,0.0,0.0
0.017186477799253176,-0.38255203538554267,0.7514690947017799,-0.009462517407675921,-0.5530303331985064,-0.004638870723529021,0.8330944677556493,0.14589780417298728,0.329392575595385,-0.8455704372646561,-0.06624044890760586,0.40319379214747986,-0.9340908125452173,-0.09087992883679387,0.6220140348302027,0.9577103242160652,-0.10527235294935994,0.6465667427174157,0.8125957461136257,0.0,0.0,0.0,0.0
0.014276290621965036,-0.38653657578497747,0.7516012482891813,-0.008759889909391258,-0.5531889169822544,-0.005346060987001944,0.8329926206688142,0.13378751941139802,0.3287274033046551,-0.85138309595707,-0.05499746810470226,0.3955450117782843,-0.925623415281496,-0.07418577715218305,0.6189160982362921,0.9429897391121739,-0.09033839850717482,0.6375674742165717,0.8269106213799772,0.0,0.0,0.0,0.0
0.011690582332274269,-0.39009821624918023,0.7517720429056367,-0.00817304141543532,-0.5532946997172208,-0.00593365804520112,0.8329243473215647,0.12210845287625711,0.32796774372675613,-0.8558505746212607,-0.04508972874838834,0.38855473621710324,-0.9174523729887828,-0.05944165993202344,0.6167792955204723,0.9285862317704857,-0.07667283270467141,0.6301853083365687,0.8384299746687651,0.0,0.0,0.0,0.0
0.009401141686207504,-0.3932461022442033,0.7519514269345786,-0.007684277990962678,-0.5533632582289112,-0.006428658408406464,0.8328797804395957,0.11016577540643936,0.327880810254652,-0.8592469735540663,-0.036419956618207,0.3821562680493566,-0.9096690468168501,-0.04658744817267611,0.6153239203250065,0.9149848934111404,-0.06442115313346712,0.6240087847340589,0.8478069025873246,0.0,0.0,0.0,0.0
