zhuoxili-jackie/tripod-support-walk/examples/trajectory_tripod_com_tilt_v0.15.csv
root_pos_x,root_pos_y,root_pos_z,root_rot_x,root_rot_y,root_rot_z,root_rot_w,FL_hip_joint,FL_thigh_joint,FL_calf_joint,FR_hip_joint,FR_thigh_joint,FR_calf_joint,RL_hip_joint,RL_thigh_joint,RL_calf_joint,RR_hip_joint,RR_thigh_joint,RR_calf_joint,FL_foot_joint,FR_foot_joint,RL_foot_joint,RR_foot_joint
0.0,0.0,0.72963,0.0,-0.5231245161092812,0.0,0.852256264656019,0.0,-0.81,0.872,0.0,-0.81,0.872,0.0,0.65,1.0,0.0,0.65,1.0,0.0,0.0,0.0,0.0
-0.00010441498556741806,0.0001341443616619114,0.729585640408387,-0.00019442305614145928,-0.5230417339806256,-4.0689396570024896e-05,0.8523070485796704,-9.979085524828264e-05,-0.8106581353368363,0.872276394851234,-9.979085524828194e-05,-0.8095085024208368,0.8706771530396895,4.615292007900767e-05,0.6491380004653787,1.0007851105489534,4.615292007900553e-05,0.6493826879017592,0.9998645861170524,0.0,0.0,0.0,0.0
-0.00023125737323630085,0.00026373243783100336,0.7295440220771283,-0.0003825750170750187,-0.5229495438517265,-7.907203754339269e-05,0.8523635503523367,-0.00019871929942811032,-0.8112260779485292,0.8723464691420358,-0.00019835726819273974,-0.8089608773861374,0.8691975465220824,9.901535036347422e-05,0.6482002827802796,1.0015273209851068,9.951022323157237e-05,0.6486876255587934,0.9997195172523023,0.0,0.0,0.0,0.0
-0.00035227961871028206,0.00035914625273755714,0.7295230991107596,-0.000518752828678209,-0.5228594837073571,-0.00010296587325639923,0.8524187237448552,-0.0002852185715703498,-0.8116021068802081,0.872229723826914,-0.00028432685192666344,-0.808509305551562,0.867937854368885,0.00015137245759438828,0.6474101368358889,1.0019584657577927,0.00015253007089538215,0.6480917697491271,0.99950469842288,0.0,0.0,0.0,0.0
-0.0004576389949345613,0.0004228674316357618,0.7295180788153017,-0.0006064709308642055,-0.5227715557577801,-0.00011319254142282188,0.8524725918591451,-0.00036090021946693675,-0.8118649215299559,0.8720494482168076,-0.000359523528040692,-0.8082125925927965,0.8669937244761929,0.0002029099936952447,0.6467713107461536,1.002122942020061,0.0002045718992766686,0.6476024581462387,0.9992471873431605,0.0,0.0,0.0,0.0
-0.0005425688575591619,0.00046654702667736495,0.729516048407306,-0.0006631974634613144,-0.5226824198563031,-0.00011423762145176053,0.8525272048985003,-0.00043147928207807034,-0.8121507563424899,0.8719623569891861,-0.0004297143123728075,-0.8081085984330271,0.8663839449540043,0.0002549701354501073,0.6462177084555089,1.0021682251854487,0.00025692550912830307,0.6471713861381538,0.9990131299591417,0.0,0.0,0.0,0.0
-0.0006039358159448389,0.0005052437557503434,0.7294997661770638,-0.0007115288596427655,-0.5225880265851798,-0.00011195646707012937,0.8525850313383638,-0.0005042457649559082,-0.8126192801906396,0.87213864591356,-0.000502127921031867,-0.8082293605717681,0.8660995157665192,0.0003092052079347354,0.6456531326161089,1.0022928315010902,0.0003113560410069375,0.6467253845600816,0.9988958810878112,0.0,0.0,0.0,0.0
-0.000621437169571022,0.0005687599597733657,0.7294396777328088,-0.0007959349296506985,-0.5224836410389435,-0.00011833484977012934,0.8526489297073794,-0.0005927823235489577,-0.8136264557829294,0.8730330265387878,-0.0005901338862969184,-0.8086799752466884,0.8662417890287778,0.0003650646679445325,0.6449606159878222,1.002842928610732,0.00036761614643666116,0.646190875170216,0.9990322700351952,0.0,0.0,0.0,0.0
-0.0005697728359906481,0.000694500940234532,0.7292966166259621,-0.0009721500550275222,-0.5223587042779338,-0.0001481425459664395,0.8527252881456809,-0.0007152649131641401,-0.8156515840471324,0.8752416323808798,-0.0007115258172845406,-0.8096249499399268,0.866964952326008,0.00042300840108099464,0.6439705424365791,1.0042614948001158,0.00042663734158727924,0.6454537425265251,0.999603234361437,0.0,0.0,0.0,0.0
-0.0004442957963576026,0.0009083345787390756,0.7290335790732158,-0.0012785201699762147,-0.522184448306249,-0.00020993909819574399,0.8528315913818205,-0.00089000514505004,-0.8191161121955726,0.8791753927737708,-0.0008840080035341887,-0.8112665667699294,0.8683792019351235,0.0004915115923802508,0.6424225967417915,1.006906284662037,0.0004976595949651075,0.6442979245955338,1.0007903746835292,0.0,0.0,0.0,0.0
-0.00031950917394991257,0.0011792535688138334,0.7286446835098743,-0.0016683736782113366,-0.5219099451830163,-0.0002865963093140347,0.8529989117876331,-0.0011181970190404307,-0.8238144440381924,0.8841733995548635,-0.0011082851271270414,-0.8136532015742675,0.870199022789044,0.0005961965662334614,0.6399535766533558,1.010666555285809,0.0006068402709528778,0.6423329918107096,1.0027149593335853,0.0,0.0,0.0,0.0
-0.00027104912035572033,0.0014452556328019173,0.7281619236584385,-0.0020471883305762267,-0.5214718740943386,-0.0003466438986894345,0.8532659452869807,-0.0013925194977869966,-0.8293659888746202,0.8894073619854206,-0.0013772591602902906,-0.8169157214640075,0.8723347868318684,0.0007676681385072129,0.6363647774142478,1.0149535701814705,0.000783805624028432,0.6392963950634593,1.0052380467822928,0.0,0.0,0.0,0.0
-0.0003810590166126252,0.0015504579013228795,0.7278363131027841,-0.0021896651993199645,-0.5210453976676483,-0.0003419011420073703,0.8535260874977906,-0.0015905286893360042,-0.8328385907007768,0.8917844100716552,-0.0015718124759659061,-0.819434185408579,0.8734951280162551,0.0009693041561630703,0.6332060586163208,1.0174049789629054,0.0009871555332124052,0.6364726750804549,1.0070536445605829,0.0,0.0,0.0,0.0
-0.00026121811532209055,0.0009366168852052182,0.7281612143679329,-0.0021214978867930036,-0.5217111573145665,-0.0009484266187009062,0.8531190233883903,0.0016261085300229856,-0.8260418883371243,0.8858448590596131,-0.004692803233792448,-0.8337139484349932,0.8648895743553011,0.0008707715284557755,0.6381555770909101,1.014291766420127,0.0008893729006795789,0.6388045801994189,1.0069024957327244,0.0,0.0,0.0,0.0
-0.00010220543439107716,8.232821286369076e-05,0.7286047240846637,-0.0017376576859726976,-0.5223777157822826,-0.0014988653157970223,0.852711121073612,0.005071556396222139,-0.8180437577267482,0.878684666317936,-0.007906904102787073,-0.8578169144144505,0.8540710569263629,0.0007723286698397182,0.644017439608964,1.0092430925535236,0.0007915295698966188,0.6416177802459897,1.0064479888398712,0.0,0.0,0.0,0.0
9.883822240868502e-05,-0.0007771510831219323,0.7289643946211297,-0.0013533001167556622,-0.5229341996721452,-0.0020469107770662584,0.8523695217148005,0.008494970134775924,-0.8111244937783608,0.8725639893343823,-0.01117229482882209,-0.8856648435540759,0.8414797526871657,0.0007058764158573377,0.6493324308441656,1.004620410293824,0.0007313701364252298,0.6438847515968005,1.0064852892889844,0.0,0.0,0.0,0.0
0.0003730011077564558,-0.001579640737209449,0.7291903828351386,-0.0010593883572780772,-0.5233902025602207,-0.002617494040587301,0.8520884474543866,0.01187883804364162,-0.8058288247729195,0.868232495977814,-0.014508938626448876,-0.9143464946892403,0.8280072140889544,0.0006615288487302996,0.6539288064238273,1.0011021583190012,0.0007001703860894053,0.6455227550789859,1.0072465926968486,0.0,0.0,0.0,0.0
0.0007422912413196047,-0.0023348541989928785,0.7292948156087535,-0.0008468532851187643,-0.523762132929608,-0.003213802832890343,0.8518580764539903,0.01526190191163012,-0.80211550651508,0.865798992570305,-0.017943881804432738,-0.9425598273333163,0.8138421728881955,0.0006293404245784779,0.6579830531352897,0.9985799245427042,0.0006872787127294301,0.6466803918277119,1.0086676691373375,0.0,0.0,0.0,0.0
0.001217548405071451,-0.003078627479182912,0.7293082916547978,-0.0006707882505904662,-0.5240584721715787,-0.0038308414095745828,0.8516734071476039,0.018698710785624125,-0.7997503686426417,0.8650954076632247,-0.02150775990517745,-0.9695601312169587,0.798937306508126,0.0006035082133771567,0.6617324948102697,0.9966690794039581,0.0006863721586719574,0.6475241792633629,1.0105945162480354,0.0,0.0,0.0,0.0
0.0017943910777583863,-0.003853224827697106,0.7292603513030782,-0.00047815887179105803,-0.5242791223300236,-0.004461805685785562,0.8515346531662559,0.022246603459730643,-0.7984332661574075,0.8657852943693017,-0.025234491620858588,-0.994342947812333,0.7834992697558544,0.0005830855549350779,0.6653493586237527,0.9949602866658683,0.0006963398503642836,0.6481457256799714,1.0128972175341702,0.0,0.0,0.0,0.0
0.002468352682330154,-0.004686613948234235,0.7291607418118713,-0.0002362503206619027,-0.5244119068573821,-0.005104260385174732,0.8514493776249477,0.025951936371290025,-0.7980520356250927,0.8677011449852399,-0.02916352781390794,-1.0150156419138008,0.7683246088640678,0.000570428213806831,0.6688663234636091,0.9932467519358273,0.0007198597571187586,0.6485226837873728,1.0155507609291972,0.0,0.0,0.0,0.0
0.0032107212109401336,-0.0056027881838167405,0.728991322719597,7.948494368391821e-05,-0.5244421750221021,-0.005759635552495244,0.8514265824711682,0.02986796055166467,-0.7984790510188412,0.8704970110154986,-0.03334475512588239,-1.028790881583908,0.7552626234353389,0.0005707097265535628,0.6721012134753874,0.9916099084922434,0.000762881217124691,0.6484229915367539,1.018782602215886,0.0,0.0,0.0,0.0
0.0038932168135605493,-0.006635869431732558,0.7288025179604044,0.0004938528839222691,-0.5243986333943629,-0.006439459946937681,0.8514483911306928,0.034090922397790664,-0.7985366826174813,0.8724026273196537,-0.03783103320546384,-1.0331489479863183,0.748277862255524,0.0005953921750791574,0.6750380248161765,0.9896661927484439,0.0008386456442052604,0.6477401235542325,1.0224080836884688,0.0,0.0,0.0,0.0
0.004466425257374536,-0.0077513372366241,0.7286862449331327,0.0009260471024261097,-0.5243642965770569,-0.0071862231199370415,0.8514632024399428,0.03868843135391766,-0.7973224269015693,0.8725265444950204,-0.04267109515088989,-1.0267382996347636,0.7517665240657593,0.0006351412356354275,0.6781972737649323,0.986938612949541,0.0009424838954255891,0.6469758743731623,1.025679074124157,0.0,0.0,0.0,0.0
0.00499904573516748,-0.009019437108261533,0.7286431449654837,0.0014689408964761656,-0.5243005590491895,-0.00798430415837588,0.8514945783036182,0.0437307781721089,-0.7951119916488388,0.8713569928476059,-0.0479291263582514,-1.0104859588240442,0.7609753163324939,0.0006841176823945916,0.6817574863405896,0.9830230854163652,0.0010708413674688404,0.6461757402090943,1.0286766810002823,0.0,0.0,0.0,0.0
0.005547436611238467,-0.01054300572002979,0.7287007894963627,0.002255776709228669,-0.5242130930676603,-0.008814729784652342,0.8515385164904158,0.04932895949389803,-0.7915936897274064,0.8687230645480261,-0.05367138352328631,-0.9864383973425176,0.7716161965283431,0.0007246246440664004,0.6861551714701476,0.9772400289958504,0.0012114844627116822,0.6455706268666005,1.0314285961370897,0.0,0.0,0.0,0.0
0.0061067917571256064,-0.012402158245272542,0.7289481082241817,0.003369104659772924,-0.5241616359750916,-0.009682459690453043,0.8515570905582607,0.055614347605353644,-0.7856943509183792,0.8635411203024597,-0.05996822148666664,-0.9568499667591595,0.781222210727699,0.0007356907308518914,0.6920979448615674,0.9685787719011009,0.001355483507543032,0.645648649509181,1.0334829634145164,0.0,0.0,0.0,0.0
0.0067167066926102905,-0.014585395693314034,0.7294126552413398,0.004747909077315647,-0.5242241857486726,-0.010634694069042402,0.8515006539736729,0.0626907699547244,-0.7770438964550709,0.855689481349899,-0.06691408521809533,-0.9231494269167556,0.7881608103085196,0.0006807834288164678,0.7001410810914691,0.9568815392865435,0.0014849916885831247,0.6468450242833772,1.0346135245256365,0.0,0.0,0.0,0.0
0.007384137404472323,-0.016939847813672918,0.7299671509931093,0.006122416476085294,-0.5245305371716636,-0.011774032212607793,0.8512882025238901,0.0706001698453995,-0.7659165703211116,0.845517406112025,-0.07461204736535317,-0.8862187156500478,0.7911563810808283,0.0005171578523904025,0.7100102721985454,0.9440884222408947,0.0015721504705225485,0.648996633486282,1.035644245361651,0.0,0.0,0.0,0.0
0.008063193336195255,-0.019119005984803657,0.7302646117431223,0.006951656285773803,-0.5252586636127623,-0.013267234562493234,0.8508107846411465,0.07929020467947544,-0.7536631058112782,0.8342122016727216,-0.08317196687387723,-0.8465094771085628,0.7883245777152328,0.0002096512191967129,0.7200584434625091,0.9352263973241149,0.0015739224986093293,0.6509982253331964,1.0389118860168574,0.0,0.0,0.0,0.0
0.008727716860283903,-0.020775808890308726,0.7301553757348808,0.006744530196586215,-0.5263527306089838,-0.01521634136840144,0.8501033920931348,0.08855613617403896,-0.7426779665114196,0.8244874881686239,-0.09265570898648995,-0.8022054073335829,0.7720625010277292,-0.00019486877846054543,0.7288832693759826,0.9331161858915991,0.0015133677007489025,0.6521568646646273,1.0446057960719421,0.0,0.0,0.0,0.0
0.009156402652677852,-0.021577348821085127,0.7296997732138438,0.005089547872225872,-0.5274653346364432,-0.017635547988778772,0.8493782459578635,0.09798267844723739,-0.7354955183040205,0.8185976267986007,-0.1030003428002069,-0.7529315365877833,0.7284156078515918,-0.0005352441384146609,0.73473070066083,0.9380319564768873,0.0015518176119608405,0.65143077747923,1.0508422882026252,0.0,0.0,0.0,0.0
0.009232616508423903,-0.021711566483825447,0.7296595614340635,0.005130740545652564,-0.5274061393036906,-0.017727195082764522,0.8494128479607116,0.09851872609340723,-0.7355773781869488,0.8187053033784182,-0.10371226795180151,-0.7527126512441901,0.7284183525172455,-0.0005972043926098407,0.7349898877137159,0.9376567575796662,0.0015986823234468092,0.6511513696236804,1.0512701413979113,0.0,0.0,0.0,0.0
0.009232616508423903,-0.021711566483825447,0.7296595614340635,0.005130740545652559,-0.5274061393036903,-0.01772719508276451,0.8494128479607117,0.09851872609340723,-0.7355773781869488,0.8187053033784182,-0.10371226795180151,-0.7527126512441901,0.7284183525172455,-0.0005972043926098407,0.7349898877137159,0.9376567575796662,0.0015986823234468092,0.6511513696236804,1.0512701413979113,0.0,0.0,0.0,0.0
0.009553040233202576,-0.02177281259243189,0.7292735244041806,0.0052121697421366716,-0.5269888476825438,-0.01768767845241412,0.849672133081795,0.0986960199443963,-0.7407639079449,0.8248056812376359,-0.10392559250960662,-0.7587735986563019,0.7358566876695262,-0.0003658650143013632,0.7329921605800986,0.9397552573750902,0.001823816934641712,0.6492605279633707,1.053714505040727,0.0,0.0,0.0,0.0
0.009974675165102514,-0.02181663732710911,0.728890178677804,0.005252471717661764,-0.5268056773625026,-0.017675831985309344,0.8497857111078752,0.09890813965857718,-0.7451313527130617,0.8306128378255921,-0.10405764366714051,-0.7638098784574152,0.7426521061030814,-0.00021865584489312654,0.7319555733120156,0.9422902927342447,0.0019750605950104422,0.6483163758346974,1.0563934812972215,0.0,0.0,0.0,0.0
0.010448724092639425,-0.021921226332068437,0.7285474561005282,0.00537179487704416,-0.5267760152006442,-0.01765658529596093,0.8498037530070198,0.09916400262053719,-0.7484024647661432,0.8355079551857315,-0.1040928611649696,-0.7683999060448133,0.7494426772184745,-0.0001268897019075639,0.7317762102796689,0.9444610226417112,0.0020790151306022383,0.6480990464839413,1.0591094315294682,0.0,0.0,0.0,0.0
0.010966967402926868,-0.022131284270262157,0.7282547138014167,0.005639351175455833,-0.5268562873005219,-0.017610132806455226,0.8497532191599916,0.09947535878570933,-0.7505524192458107,0.8393584984311475,-0.10402631300774014,-0.773003750594941,0.7567956936030797,-7.931257670454531e-05,0.7323994587901296,0.9459127287283651,0.0021474586365717763,0.6484945494503723,1.0618384224260815,0.0,0.0,0.0,0.0
0.011525808059772212,-0.022492780418017895,0.7280235271693493,0.00612684033552347,-0.5270105649622892,-0.01751643409372309,0.8496561073647809,0.09985514960917996,-0.7515164790761408,0.842011925976514,-0.10385113846172928,-0.7780472913045237,0.7652599702476371,-6.898281010191307e-05,0.7338126118333388,0.9462830479146267,0.002189453501010804,0.649432967442311,1.0645504723707313,0.0,0.0,0.0,0.0
0.012133132218432562,-0.023065558701626965,0.7278754405002251,0.006927487705310435,-0.527202817255355,-0.01734999344580709,0.8495340941478099,0.10032093306437426,-0.75118406636918,0.8433104827300244,-0.10355691603490685,-0.7840576806759609,0.7755856015223054,-9.365360690516167e-05,0.7360980952065843,0.9450490312008891,0.0022131674070548007,0.650919044157538,1.0671573005179062,0.0,0.0,0.0,0.0
0.012807296222015685,-0.023920771781493724,0.7278431841239298,0.008152370107861608,-0.527392843433863,-0.017080501475039263,0.8494107275198086,0.10089225411032766,-0.7494217855291962,0.8431140642389918,-0.10313080974676396,-0.7916493403747322,0.7886897105948166,-0.0001568773705435946,0.7394280391958161,0.9415097981456273,0.0022285694132145218,0.653026284339101,1.0694858517777877,0.0,0.0,0.0,0.0
0.013583838142991182,-0.02511755737478595,0.7279594585744504,0.00989479241561279,-0.5275404644142891,-0.016682042587635053,0.8493084604216022,0.10158422619630487,-0.7462285940893254,0.8415156297495625,-0.10256599218872471,-0.8014163198910204,0.8054872967666703,-0.00027196809593206967,0.7440322120139446,0.9349669394403375,0.002248604771487264,0.6558903338906437,1.071302663985253,0.0,0.0,0.0,0.0
0.01445949667000503,-0.026584519101997918,0.7282111701744257,0.01204971782686694,-0.5276294569361867,-0.016179636804497417,0.8492350556980042,0.10236362005484062,-0.7420425621718304,0.8390424100965322,-0.10189094851001013,-0.8129410032780415,0.8252348219611392,-0.00044960884447629927,0.7497623325009456,0.9257316456294006,0.002292724586768857,0.6594435578359269,1.072466442568896,0.0,0.0,0.0,0.0
0.015250149455736977,-0.027803245413317218,0.7283533620780372,0.013834760777912455,-0.5277671834792694,-0.01577420396284133,0.8491298922579017,0.10304481101403505,-0.7386458869182044,0.8372426137740496,-0.10126699744515998,-0.8224000030590083,0.8414656468932145,-0.0006478970815510202,0.754651123567194,0.9186202936476809,0.0023593368317739232,0.6625182300654978,1.0739780950209106,0.0,0.0,0.0,0.0
0.015993156347773853,-0.028679631564217534,0.7283651667037242,0.0151021878366925,-0.5280216550554637,-0.015508354972121037,0.8489549732707223,0.10361962787877374,-0.7364173901873519,0.8368779924514645,-0.10073359992966605,-0.8293413385218753,0.853822329525807,-0.0008595945548389339,0.7587642071497112,0.9143877837434415,0.0023947069819056817,0.6653373773583153,1.0758363279653713,0.0,0.0,0.0,0.0
0.016693071607062435,-0.029279406131182798,0.7282900347788142,0.015950580433800973,-0.5283725523258006,-0.01535558908212287,0.8487238837316203,0.10410949139144929,-0.7350616364748414,0.8376218814682516,-0.10028195526972558,-0.8342491452334032,0.8631420103721197,-0.001071858472803216,0.7623091069540067,0.9123561446461479,0.0023849657504700817,0.6680169047017716,1.077827657353977,0.0,0.0,0.0,0.0
0.017348571791542505,-0.029687807899307906,0.728174874026307,0.01650872262418881,-0.5287833135518373,-0.015280306005210513,0.8484587094460425,0.10453523998337727,-0.7342203601995743,0.8390058987514474,-0.0998913829116706,-0.8376880569296301,0.870297932254992,-0.0012806510962802419,0.765494458352542,0.9116647463815916,0.00233461519456067,0.6706230776375407,1.079740989648102,0.0,0.0,0.0,0.0
0.017977424272380575,-0.029956974899085578,0.7280486311344291,0.016854353926960008,-0.5292420469471787,-0.0152620043458082,0.8481661734119167,0.10491316903932653,-0.7337040558382159,0.8408646256592154,-0.09954585257748802,-0.8400232970920635,0.8759202388311016,-0.0014933107672763432,0.76854696635735,0.9117690069317772,0.0022432489908019945,0.6732840032998548,1.081439671417104,0.0,0.0,0.0,0.0
0.018598685466299038,-0.030116882073844903,0.7279273854177666,0.017031224241109,-0.5297522509029667,-0.015290144587431956,0.8478435595925611,0.1052551024005345,-0.7333878189535826,0.8431294567707984,-0.09923184530244988,-0.8414461777057396,0.8803892848683678,-0.0017205718405261254,0.771656436167462,0.9123643070365237,0.002106900598416911,0.6761275418182165,1.0828540703675997,0.0,0.0,0.0,0.0
0.019238073558611072,-0.030177390732761728,0.7278188539629294,0.017051579041779303,-0.5303326500775456,-0.015363512915999087,0.8474789002593454,0.1055704658317327,-0.7332183753081606,0.8458664713246439,-0.0989392981040168,-0.8420102440464822,0.8839189287022364,-0.001976149346620392,0.7750175489960328,0.9133271366698921,0.0019158791703324813,0.6793170164241235,1.083940701846032,0.0,0.0,0.0,0.0
0.01991879480880121,-0.03014457428054494,0.727733656002417,0.016921097710605466,-0.5310041135991896,-0.01548270161466205,0.8470587900162057,0.10586730005128132,-0.7331260255874485,0.8491248603013763,-0.0986574097575476,-0.8417121899662214,0.8866506935420242,-0.0022735537913413915,0.7788372115487805,0.9145244193378357,0.0016605374046477284,0.6830302341039306,1.0846223629770084,0.0,0.0,0.0,0.0
0.020626563887472932,-0.030060879394160436,0.7277072056218937,0.016702046284381333,-0.5317544586179045,-0.01563124948160575,0.8465895708249289,0.10615199439376408,-0.7327788652639726,0.8524653506964714,-0.09836226184317395,-0.8406560243815827,0.8887743990082518,-0.00261683194973802,0.7832643439164403,0.915425211936327,0.001348754732531193,0.6873312533470026,1.0847085110665768,0.0,0.0,0.0,0.0
0.02132623846610419,-0.030019144866548886,0.727824020295474,0.016535048637664276,-0.5325295104794247,-0.015770208703402396,0.8461029565913036,0.10643431806355011,-0.7315764061555934,0.8550508088069831,-0.09801560001613939,-0.8391922259205388,0.8908191265347597,-0.0030014882598317955,0.7885398714215575,0.91478485118337,0.001006788057381329,0.692294293297366,1.083699446379865,0.0,0.0,0.0,0.0
0.021946417478860825,-0.03025028870646656,0.7283235807392945,0.016774114958192914,-0.5331611847796234,-0.01580021068489102,0.8456997892006776,0.1067359142123393,-0.7282141290106634,0.8551192705798772,-0.09754215038693573,-0.8383834290656231,0.8944166749553462,-0.003401660165271709,0.7953299093843519,0.9091749411166169,0.0007061603527639576,0.6981773245714347,1.0800476474720369,0.0,0.0,0.0,0.0
0.02255561614349717,-0.031304792168764764,0.7301478468416255,0.018229501136941866,-0.5332222105567458,-0.015499319908052292,0.8456367603999152,0.10713787818764615,-0.7197815714377018,0.8504434564391959,-0.09677022196370567,-0.8409506878855743,0.9054281729789994,-0.003779213407851561,0.8078414759033088,0.8863334933357679,0.0005892486781590862,0.7078824073577131,1.066487709325526,0.0,0.0,0.0,0.0
0.022414052528029155,-0.03228715380512303,0.7329855119249139,0.019168367810433323,-0.5319463569094336,-0.015064867916053314,0.8464270180003337,0.10738065376362915,-0.7135027520958089,0.8459190561043642,-0.09628359769183609,-0.8428287714558066,0.9137109850855577,-0.007492108815192989,0.7567233942608319,0.9676507341696131,0.00463545399236266,0.7168267284240125,1.0430617545709764,0.0,0.0,0.0,0.0
0.022346713072266943,-0.03337279808097232,0.7360310933642757,0.020208196332486637,-0.5306896995472995,-0.014594371584791774,0.8471995490517152,0.10764825744448053,-0.7062517385444947,0.8407705050929273,-0.0957184646305326,-0.8445759654823229,0.9227044594682613,-0.011287643070739182,0.7167417356799308,1.0318436819897745,0.00863219688916347,0.7273665528695984,1.0172128707946513,0.0,0.0,0.0,0.0
0.02229594649350976,-0.034423069223809916,0.7388825225237616,0.021168169112530034,-0.529527672057034,-0.014138294966292835,0.847910644913559,0.10792962106996398,-0.6992488879737846,0.8355850705401732,-0.09514103563502617,-0.8460358647695279,0.9309663868195714,-0.015211234076308047,0.6865571898683995,1.0850158798908502,0.012582599442460353,0.7377916567263503,0.9922834214272677,0.0,0.0,0.0,0.0
0.02220517131706555,-0.03535940362483292,0.7414514504975115,0.02193680294316406,-0.528455789939,-0.013723845140852434,0.8485663856358736,0.10820718939649576,-0.6929647131175082,0.8306293758883849,-0.09458913184490093,-0.8469124634571974,0.9376580751917599,-0.01931688512385634,0.662961481538727,1.1326263578610207,0.01655605731102476,0.7474334934084754,0.9691351373940396,0.0,0.0,0.0,0.0
0.022009579136975804,-0.03616202253362544,0.7437379791971565,0.02248307729860297,-0.5274169913072518,-0.013351605408940087,0.8492040762670626,0.10846961532897759,-0.6875712126373273,0.8258410256934198,-0.09408375798723305,-0.8471770343208012,0.9424418468481275,-0.02366218585497315,0.6433386079583463,1.1774374221430997,0.020653660946103398,0.7558470130092401,0.947924490017001,0.0,0.0,0.0,0.0
0.02163034747729667,-0.036837993908745,0.7457620976294793,0.02280928400671171,-0.5263264767029306,-0.013008339847159277,0.8498770261508435,0.10870745131861541,-0.6831382005692609,0.8209446317861416,-0.09363854339250562,-0.8469288502346916,0.9451177014866596,-0.02830862600286212,0.6258626266990994,1.220368224288883,0.02499567255361189,0.7625860657548235,0.9286200273695394,0.0,0.0,0.0,0.0
0.02096304580659473,-0.03740493160705666,0.7475360062786678,0.02292653623085911,-0.5250760516294429,-0.012672696883358451,0.8506520538359925,0.10890957776093035,-0.6797245636158721,0.8154774269255932,-0.09326617877808767,-0.8463181811947793,0.9454112155159237,-0.03332233865875678,0.6094043385694933,1.2607555370221821,0.02972329809119081,0.7670538212547063,0.9112351959282048,0.0,0.0,0.0,0.0
0.01985508054162785,-0.037894365829341345,0.7490244971281965,0.02286084331390109,-0.523526926395815,-0.012311771884425376,0.8516133861410318,0.1090639417071913,-0.6774221888994417,0.8086522686907616,-0.09297951330951156,-0.8456194910005689,0.9428781311474478,-0.03877517875210814,0.5934699157253167,1.2959104273909028,0.035004558173317685,0.7682073328121651,0.8962567061148643,0.0,0.0,0.0,0.0
0.01812657209790883,-0.038367400325510226,0.7501738157751829,0.022670958766954623,-0.5215049656964272,-0.011874661746721998,0.8528643448936978,0.10916290107907357,-0.6763102605886783,0.7994155790221757,-0.09278954681801221,-0.8453235322906535,0.9371662959712469,-0.04474558638245609,0.5781975371511452,1.320583402858216,0.04103148982730602,0.7647456437749246,0.8843654814078009,0.0,0.0,0.0,0.0
0.015693577399553932,-0.03890895575079192,0.7511493772434213,0.02241541365765238,-0.5188050624262499,-0.01129806496232253,0.8545239669895506,0.10920033411061388,-0.676291861868397,0.787243471930752,-0.09271584166117018,-0.8458557124498182,0.9286887161330302,-0.05131871445346827,0.5645266446061109,1.327139071999171,0.04801772040712797,0.7568068459042823,0.8737163424714329,0.0,0.0,0.0,0.0
0.012513356074329119,-0.03963474110874687,0.7521505428110161,0.022172318037772188,-0.5152055570073046,-0.0104995929735695,0.8567154608672672,0.10918197445359906,-0.6773075503185382,0.7717868077107686,-0.09278374618481024,-0.8478712624090015,0.9183582672976099,-0.058588027368926175,0.5558541797593237,1.3047923936518875,0.05618432800984013,0.7449729114331637,0.8617670658469087,0.0,0.0,0.0,0.0
0.008482072400364391,-0.04059177950813513,0.7531869800528596,0.02190454807467299,-0.5105648380261939,-0.009420307586964109,0.8595085774731382,0.10910534818845437,-0.6794976937583717,0.7524232390218789,-0.09303423266885716,-0.8515227627844185,0.9058475733014529,-0.0666443046103194,0.5479737608167095,1.26385318823537,0.06570916426316345,0.7290785099507183,0.8475982500239023,0.0,0.0,0.0,0.0
0.003548362737013342,-0.04182190866772072,0.7542715859933912,0.021538038810659344,-0.5047588731749334,-0.007998967925507512,0.862954581277305,0.10897889922035434,-0.6831669523643381,0.7289165206272021,-0.09352625868099355,-0.8569803440635283,0.8910479308463498,-0.07558749714240953,0.5388526364308089,1.211570471211474,0.07675405142107375,0.7094058536682104,0.8298132883220102,0.0,0.0,0.0,0.0
-0.002277406514721454,-0.0433526879473121,0.7553562744267814,0.02095854736364097,-0.49771278011513753,-0.006180910027658847,0.8670666203664495,0.10882995834865175,-0.6888961498168581,0.7015209315173371,-0.09433456908254917,-0.8644940407012779,0.8740614880715097,-0.08552821396991794,0.5272174050531825,1.152319127992648,0.08943397358383548,0.6864721534647782,0.8071929138736227,0.0,0.0,0.0,0.0
-0.008811809659273369,-0.04517567264954477,0.7562812507151216,0.02001875057833299,-0.4894912387583939,-0.0039477518636343075,0.8717694603846126,0.10873208091903837,-0.6978506513075925,0.6719360436352428,-0.09553905533632438,-0.8746184907021609,0.8558732797204432,-0.09658996455220248,0.5123876282772025,1.0890642435434117,0.10372987475168048,0.6611690159122757,0.779448998151911,0.0,0.0,0.0,0.0
-0.015462238730467473,-0.047233065556165924,0.7565433770068131,0.01862734773628037,-0.48037080454398606,-0.0013575875853518906,0.876866619853911,0.10889662534891777,-0.7136067310259616,0.6464818634319053,-0.09724159225935558,-0.8900318344098206,0.841011573194272,-0.10892817292848288,0.49724883394122055,1.021862806973809,0.11935930657251485,0.6336203975887251,0.7507306909173301,0.0,0.0,0.0,0.0
-0.02175545990834668,-0.04940543757520571,0.7559415534770977,0.016651761983145663,-0.47071433907768084,0.0014713027053082,0.8821272952799205,0.10944996871175723,-0.7381253589475971,0.6300351170550109,-0.09947751748934133,-0.9113386006784353,0.8319019908339506,-0.12271180767475909,0.48197957396770436,0.9499369385642701,0.13607292074606966,0.6045543966350478,0.7237058057021948,0.0,0.0,0.0,0.0
-0.02718380645803455,-0.05146504109804573,0.7547402324797688,0.013864141681865906,-0.46093997612807364,0.00434747103389083,0.8873123595882599,0.11043114968289544,-0.7723442235486332,0.6276271158215515,-0.10224079998291785,-0.9372575712537019,0.8298954592998841,-0.138114843368343,0.4678352348817018,0.8741145612533989,0.15362514277605083,0.5772063328568277,0.6966168053279608,0.0,0.0,0.0,0.0
-0.030901313890542827,-0.05289785931691863,0.753242095325838,0.010039242473334025,-0.45232849653342805,0.006802636019656873,0.8917689549303419,0.11179542914899541,-0.8143680664091733,0.6439750640699275,-0.1052261682743744,-0.9631078471555753,0.8345390636848572,-0.15505448917082526,0.45753286383232117,0.8082724096084781,0.17109211463362778,0.5564745377983983,0.6710532895425024,0.0,0.0,0.0,0.0
-0.03082678265827366,-0.05305181051641961,0.7527980917846795,0.009677528761998693,-0.4523752981401036,0.006955557306785645,0.8917480335230715,0.1119318615025065,-0.8151924336906908,0.6431562182360226,-0.10544836246504656,-0.9634365957987668,0.8344431304660768,-0.1563520767483959,0.4575709509859537,0.8083462680926323,0.17181801147426679,0.556857391963787,0.6709359262747696,0.0,0.0,0.0,0.0
-0.03082678265827366,-0.05305181051641961,0.7527980917846795,0.009677528761998693,-0.4523752981401036,0.006955557306785645,0.8917480335230715,0.1119318615025065,-0.8151924336906908,0.6431562182360226,-0.10544836246504656,-0.9634365957987668,0.8344431304660768,-0.1563520767483959,0.4575709509859537,0.8083462680926323,0.17181801147426679,0.556857391963787,0.6709359262747696,0.0,0.0,0.0,0.0
-0.030939387960983073,-0.05278139233131109,0.7528594391415231,0.009330202219040686,-0.4538594909833827,0.006702502134666379,0.8909992066416172,0.11166251186926766,-0.8054017050764111,0.6324852020931182,-0.10489803783220794,-0.9529731300792956,0.8234343368837428,-0.15785978920933375,0.45919240231035946,0.8152471126272856,0.17164942757978266,0.5602408898535791,0.6729506344697308,0.0,0.0,0.0,0.0
-0.031102277639374877,-0.052403359115334044,0.752972674817078,0.008883119317101031,-0.4549873108419183,0.006438302922562359,0.8904303372075297,0.11137141199849582,-0.7981670599357399,0.6247038001659716,-0.1045306276079499,-0.9436839701737076,0.8130882717821113,-0.15918256575988415,0.4605647520249742,0.8202149607587168,0.17151502553737444,0.5630061924662194,0.6736505288312965,0.0,0.0,0.0,0.0
-0.03126106657959737,-0.051985884938797425,0.7530965628676105,0.008406196794144723,-0.4558492636952552,0.006187622314110848,0.8899957853687004,0.11107371878916322,-0.7929975731258888,0.6193424519007573,-0.10431497473474113,-0.935714112249724,0.803910393276635,-0.16032269757855772,0.4616617354072501,0.8239901527132689,0.17137662847017948,0.5653079216460825,0.6735686109533915,0.0,0.0,0.0,0.0
-0.0314131541645198,-0.051511028210731204,0.7532084050140916,0.007862630117743186,-0.4565180382087683,0.005936930410592159,0.8896596049585195,0.11076128860263147,-0.7896083945375847,0.6161082286746252,-0.10423552167671794,-0.928624715425743,0.795436819174705,-0.16129971558031636,0.46238325545764597,0.8272501212006588,0.17122182056926316,0.5672710871275377,0.6728846603797954,0.0,0.0,0.0,0.0
-0.03157115923832744,-0.05093074132270747,0.7532890306493448,0.0071803799326807406,-0.45704280577863815,0.005660652849887969,0.8893977022903339,0.11042200098008831,-0.7879270195074095,0.6149343088761179,-0.10428805200213113,-0.921880920424623,0.7869560431273367,-0.16213628335808622,0.4625751622835505,0.8306033465577993,0.17104791973322708,0.5689479875483393,0.671676419729593,0.0,0.0,0.0,0.0
-0.0317418971341629,-0.05019411229486277,0.753324581228087,0.006286735809556305,-0.45745585936902533,0.005332786703253433,0.8891941155157208,0.11004696280322111,-0.7880259191273854,0.6159611154888981,-0.10447240416495762,-0.9150415575497286,0.7778639154816347,-0.16285788575322327,0.4621158404348839,0.8345248504912556,0.17085860148292858,0.5703842762766218,0.6699578086730954,0.0,0.0,0.0,0.0
-0.03192841424026743,-0.04923236861298953,0.7532986600154686,0.005085826943409531,-0.45777848418894185,0.004919564223952944,0.8890381272284237,0.10962804037357853,-0.7901790178561678,0.6196060538716774,-0.1047955738815258,-0.9076608499285084,0.7675142268731769,-0.1634924204388133,0.46084829046168135,0.8395265211726035,0.17066209757168307,0.5716119313070986,0.6676948686026789,0.0,0.0,0.0,0.0
-0.03212254365853768,-0.04797470718103927,0.7531939098720402,0.003479220830108429,-0.45801995906981824,0.004386230754392247,0.8889242786063764,0.10916123343123446,-0.7948068889232508,0.6264982794611406,-0.10526670370683877,-0.899397650038478,0.7553974594756777,-0.16406847983466302,0.45862690279067714,0.8460760111894237,0.17046972013846695,0.5726649099579932,0.6648208433931331,0.0,0.0,0.0,0.0
-0.03233199626285818,-0.046446113135263985,0.7530169992489986,0.001498258906746096,-0.4581756710919446,0.0037411142968427446,0.8888525264089159,0.10864915246347844,-0.8016319048931779,0.6361772480648109,-0.10585900478443536,-0.8902652186356483,0.7414945860247447,-0.16457893143475052,0.4555309626889505,0.8539341602553763,0.17027164436454084,0.5735584366083613,0.6612699705733497,0.0,0.0,0.0,0.0
-0.0325505977976366,-0.045204144024251,0.7528748910947973,-9.772934163537811e-05,-0.45823065610069696,0.0032316797726700507,0.8888274368539415,0.1081717164274957,-0.8071756020170875,0.6436448200669808,-0.10638316565283693,-0.8827972460139293,0.729741228640994,-0.1649286418255628,0.4528799394907927,0.8598512352893541,0.17002294396836845,0.5741785105719012,0.6579159838917479,0.0,0.0,0.0,0.0
-0.032791437165558296,-0.04428392823282789,0.7527845469536624,-0.0012612718900544783,-0.45819553316015,0.00287147507256549,0.8888458905885839,0.10774370636051966,-0.8111177518117625,0.6484936674031976,-0.10682819074753748,-0.877083971850251,0.7203508416721143,-0.16509897269550786,0.4507559877896415,0.8636344414258104,0.16971177496222117,0.5745614110237183,0.6547472774950381,0.0,0.0,0.0,0.0
-0.03308211565638276,-0.04363259406182429,0.7527342229282638,-0.002065687110998141,-0.4580730036492674,0.00263549001898778,0.888908268865161,0.10736272679377828,-0.8136532725286963,0.6509314964537097,-0.10720886494107618,-0.8727801712632197,0.7127416990110983,-0.16507882980314878,0.44894497975610265,0.8656377290687607,0.16932780387874835,0.5746465171962499,0.6516990445116785,0.0,0.0,0.0,0.0
-0.03344890584993204,-0.04319847814254049,0.752713314623284,-0.0025825631247283656,-0.45785621756549966,0.0025003049997349472,0.8890189890431075,0.10702195190490246,-0.8150014869177051,0.6511685531095015,-0.10754048153592186,-0.869564804794433,0.7063324273276523,-0.16485285430593827,0.44724996563160196,0.8661266695429097,0.16885726842128843,0.5743832161403182,0.6486355412911419,0.0,0.0,0.0,0.0
-0.03392249234334597,-0.04294781118755612,0.7527203849383906,-0.0028589105933492344,-0.45753033088327144,0.0024514985654213585,0.8891860396490979,0.10671225573165279,-0.815252034774692,0.6492028719263064,-0.1078336622716278,-0.867176217005974,0.7006129405197039,-0.16439299630770884,0.4455396610818683,0.86514988584069,0.16827745225755636,0.5737531772683981,0.6453163832275797,0.0,0.0,0.0,0.0
-0.034536327755952494,-0.04286689393139588,0.7527707975385189,-0.0029142577842733194,-0.4570733047137527,0.002484623455300823,0.8894207822318416,0.1064230295472972,-0.8143410725914562,0.64481714233329,-0.10809416620345828,-0.8654175291851441,0.6951870562499026,-0.1636563533834674,0.4437987448579491,0.8624583144585163,0.16755557323318784,0.572831309779285,0.6413011515688557,0.0,0.0,0.0,0.0
-0.03529649625638587,-0.042965449413979104,0.7529196899782208,-0.0027360065350930975,-0.4564592522549725,0.0026066503043449076,0.8897362927706512,0.10614599525938492,-0.8121386109733105,0.6378760765233908,-0.10832441543121725,-0.8642841184276261,0.6901285191362715,-0.16259689482637707,0.4423417291492343,0.8572759840812789,0.16665862784667754,0.5720246421117036,0.6356727832292538,0.0,0.0,0.0,0.0
-0.03607843291781762,-0.0432958278101147,0.7532889561260552,-0.0022528014563647156,-0.45565567415750213,0.002844320339907583,0.8901487186619292,0.10589891269311322,-0.808980650756329,0.6295026288423049,-0.10853763210020075,-0.864680256012139,0.6874120776927835,-0.161209798880294,0.4422230503342782,0.8479890767409932,0.16559012283893193,0.5724572575270228,0.6267955830835088,0.0,0.0,0.0,0.0
-0.0364341881737056,-0.043806684610388835,0.7539969383223694,-0.0015319105398805702,-0.45459126352748586,0.00317682340002197,0.8906931818351742,0.10576444938062086,-0.8083282282585577,0.6263761372188885,-0.10885511645614476,-0.8693339806130501,0.6925230889782822,-0.1596485318395971,0.4450202200288317,0.8334082720103766,0.16447435323691662,0.5760526423664917,0.6126008849298981,0.0,0.0,0.0,0.0
-0.03613034575986295,-0.04444560450804414,0.7552206551720503,-0.0006419944880723862,-0.4531871935999095,0.0035854623359282455,0.8914079312301147,0.1057654677171398,-0.8121229293193873,0.6324532561811587,-0.10934552039944405,-0.8793495326148266,0.7080634094507606,-0.15790884990257242,0.4522728224985811,0.811359945839268,0.163304617055819,0.584942743034526,0.5896379891979847,0.0,0.0,0.0,0.0
-0.035023327129555595,-0.04503792293884282,0.7559321779129404,0.00018354740733876197,-0.4513850877551856,0.003994243061681472,0.892320298371026,0.1060682769005653,-0.8259777960125663,0.6533377765354647,-0.11029140500275807,-0.8978130721929265,0.7355640507442213,-0.156412568154451,0.45779667164209215,0.7935141506484981,0.16245269853471095,0.5915793332548903,0.5717037397363652,0.0,0.0,0.0,0.0
-0.03247937811207641,-0.04549580323919719,0.7564970353235323,0.0008524572531732728,-0.4496848832769653,0.004370611283369531,0.8931761734539403,0.10659986293917388,-0.8494663780485908,0.6925432327284563,-0.11167874295364599,-0.923371139204525,0.7770597304080606,-0.15572737772846856,0.4653402012384857,0.7792368001352664,0.16245613332642558,0.600087871796323,0.5571310234386881,0.0,0.0,0.0,0.0
-0.026835038759571682,-0.0455366995851191,0.7588594692234513,-0.004846699759877188,-0.4614264979740859,0.005803283369952161,0.8871462215277347,0.10450918812132552,-0.8183634558316344,0.6964621724546902,-0.10912243893025313,-0.8671670487711719,0.7583107009238158,-0.14055692343152673,0.49884416251602304,0.8120205196989513,0.1439960722239969,0.5881629185708781,0.6836197883701725,0.0,0.0,0.0,0.0
-0.020098613302895335,-0.04536516886328988,0.7606217298939433,-0.009874550601405128,-0.4726064246174152,0.007126905802517094,0.8811894619628889,0.1029991437908469,-0.7971564196950978,0.7153269882616473,-0.10733236538543119,-0.8208524508877922,0.7511481062011115,-0.12683033248320338,0.5365102735190902,0.8399884055284925,0.12718299529613297,0.5746501184680913,0.809521564310736,0.0,0.0,0.0,0.0
-0.012865716077805397,-0.04504916365330347,0.761445941656035,-0.014255563548098257,-0.48263481911453815,0.00827824987044308,0.8756665351977804,0.10205898375045774,-0.7866689124940666,0.7460078675887108,-0.10626732861059951,-0.7868627117064327,0.7557695250827032,-0.1145882491469758,0.5733417556620815,0.8658662156682213,0.11211920248152818,0.5674589617087622,0.9154387487203772,0.0,0.0,0.0,0.0
-0.005491839932228339,-0.04469147273941083,0.761293336105401,-0.018062337354981115,-0.49144537129552374,0.00927256717337472,0.8706717053513884,0.10156653162909948,-0.7850595734693984,0.7842005280516805,-0.10578318782464029,-0.7645149588789542,0.7706191078188863,-0.10355680333864342,0.6071896815287804,0.891351846476364,0.0985811246880922,0.5696270170595227,1.000934990260767,0.0,0.0,0.0,0.0
0.0011726357194982023,-0.04445913192224738,0.7609520528970217,-0.021076346192818153,-0.49886439953075096,0.01015070758945691,0.8663642776842874,0.10128502018802452,-0.7850262389689181,0.8185525763369891,-0.10554290246957158,-0.7486542263692867,0.7878358606734301,-0.09341992425206788,0.6391612512706013,0.9088544321028409,0.08639427160130352,0.5737449559966121,1.0721719406999655,0.0,0.0,0.0,0.0
0.006801136051996814,-0.044513495146030486,0.7608146500286399,-0.023112928370853894,-0.504829916242792,0.010988209150147263,0.862839386831693,0.10113382011480462,-0.7838417557448886,0.8452984727191926,-0.10540739146116071,-0.7375917008447952,0.8051649716871827,-0.0839164659130151,0.6684682310867476,0.9168021419739687,0.07538465247219768,0.5769284818457663,1.1334596754132942,0.0,0.0,0.0,0.0
0.01136427207760962,-0.044852332855516805,0.7608991316257911,-0.024268586758578646,-0.5095063710653893,0.011803828886275968,0.8600435821306631,0.10107115292216601,-0.7811728004618821,0.8644870731616043,-0.10531959636661105,-0.7301407091000737,0.8214473897120009,-0.07493976193454564,0.6938181554039381,0.9179550044232592,0.0654078597881945,0.578885538326422,1.1867771319748823,0.0,0.0,0.0,0.0
0.014951944778807008,-0.04541747864354812,0.761072040897863,-0.024740559927123488,-0.513124526228394,0.012596450599737864,0.8578650562353423,0.10107123541030812,-0.7774765958687272,0.8772695191074111,-0.10525200237888281,-0.725475765108973,0.8361090080776482,-0.06645019248381932,0.7144082444702129,0.9157131464990708,0.0563343942826366,0.5801198890003952,1.231934450785199,0.0,0.0,0.0,0.0
0.01768396893716917,-0.04614611175700179,0.761172760584394,-0.02472507209669781,-0.5158988503298316,0.013361073928341098,0.8561883722298805,0.10111817591904933,-0.7733596338293418,0.8849084873421872,-0.10518987327786307,-0.7230637955453046,0.848932100187489,-0.05842791453931564,0.7298987966213032,0.9129148455299922,0.04804719996168897,0.5815295991479541,1.2660893796707087,0.0,0.0,0.0,0.0
0.01967873913544356,-0.046985415103217396,0.7610864507687685,-0.024380835864282312,-0.5179912021195855,0.014093329757102785,0.8549222581180251,0.10120266804860657,-0.7693633067284703,0.8885483199045385,-0.10512756479920118,-0.7225798437641002,0.8599576962980072,-0.0508482480575834,0.7403218603783381,0.911382747854719,0.04043986818678771,0.5849877502501634,1.2829354611295385,0.0,0.0,0.0,0.0
0.02106740284525144,-0.04788838921320326,0.7607726788177113,-0.023834575819133345,-0.5195186588727266,0.014788978496402738,0.8539985727117103,0.10132035770585916,-0.765954912445265,0.8893660153521799,-0.10506875507731939,-0.7238094461751973,0.8694935939751081,-0.04367944408973984,0.7461308661534797,0.9118535504204389,0.03341549015661384,0.5946154303106836,1.2727267210706315,0.0,0.0,0.0,0.0
0.02189065371286885,-0.04884846289955689,0.7600348949395149,-0.023155190927320626,-0.5206288295691941,0.015456032138840043,0.8533291100302705,0.10146734090268174,-0.7633077316192477,0.8874803994884042,-0.10500707139420946,-0.7266164737311485,0.8773088411148864,-0.03687802028056082,0.746838644190111,0.9165843519159687,0.02687171779881556,0.6062718648072971,1.2462138775566736,0.0,0.0,0.0,0.0
0.022208341486316972,-0.0498480248528872,0.7587408486140099,-0.022409782798487786,-0.5214409901225773,0.016095394630822928,0.8528411538654715,0.10164115559012529,-0.7616219381971081,0.8832291012388171,-0.1049437086747783,-0.7308750444311573,0.8833344644758636,-0.030399970463203994,0.742319852569728,0.9270151330077813,0.020714222013909774,0.6185124008542785,1.210741274301423,0.0,0.0,0.0,0.0
0.022081716748086302,-0.05085606260575917,0.7568107023186534,-0.021671468417660947,-0.5220357164853762,0.016700454048303823,0.8524846937070499,0.10183896482873629,-0.7611485498395338,0.8770889604788263,-0.10488812256179528,-0.7364437785482114,0.8875199875711818,-0.024194934277998806,0.732677171119164,0.9438623732160005,0.014854943923226806,0.63131333777248,1.170431913802623,0.0,0.0,0.0,0.0
0.021579172873211167,-0.05181806416783048,0.7541874605945341,-0.02104212740225447,-0.5224753153714963,0.01725304374986413,0.8522201043059288,0.10205743971572614,-0.762270803026346,0.8697697445897948,-0.10485792334263815,-0.743107426309372,0.8897373818869234,-0.018214267650753853,0.7181656066351129,0.9674778172392438,0.009210447605554423,0.6454688241152287,1.1271357445769363,0.0,0.0,0.0,0.0
0.020791502294932734,-0.05262788378522511,0.7508096879787293,-0.020700960522394493,-0.5228138759078952,0.017710981464598544,0.8520114098573885,0.10229220797662418,-0.7657787505724785,0.8625937599840916,-0.10488736288141734,-0.7505346438818509,0.8897143935323817,-0.012418437304640866,0.6991218953647259,0.9982127767719531,0.003700230901624881,0.6625094555388112,1.080999600779976,0.0,0.0,0.0,0.0
0.019874186282643643,-0.0531816429044938,0.7468234277235997,-0.020805555811678818,-0.5230522868763617,0.01803550845154701,0.8518557122398543,0.10254106039367393,-0.7723547593888188,0.8573762339009262,-0.10501687210156055,-0.7583427194368519,0.8877579746452506,-0.006746513354516479,0.6769975368551115,1.0341591587732637,-0.0017537520035278698,0.68432914648226,1.030519151397865,0.0,0.0,0.0,0.0
0.019017421872622228,-0.05348676101926953,0.7428474925905625,-0.02130571353713131,-0.523107934966549,0.018244776162476075,0.8518047212175379,0.1027961221223353,-0.7812175447079854,0.8551093257864125,-0.10524018507625095,-0.7659233327820137,0.885145868986943,-0.0010792320493988091,0.6552024964166094,1.06888364477693,-0.007227597691005388,0.7126333612255151,0.9721126859424079,0.0,0.0,0.0,0.0
0.018442430884270822,-0.0535551160642207,0.7398855845995549,-0.022115214901539927,-0.5229159333034634,0.018367037123526476,0.8518993461169749,0.10302568555211274,-0.7904849736710661,0.8565438508092993,-0.10548920113043295,-0.7717581201968853,0.8831774746267389,0.004693205329021001,0.6385303489572323,1.0935463488825712,-0.012794431138976287,0.7481096179640832,0.9022243518832076,0.0,0.0,0.0,0.0
0.018456001045660527,-0.0535613674536079,0.7398054045404896,-0.022139238878321067,-0.5229219178059968,0.018362436350131548,0.8518951478387902,0.10306254508612506,-0.7906110307423062,0.8564515380570837,-0.10547391584368107,-0.7718637911925448,0.883102853026301,0.004870219309386989,0.6385317963604817,1.0934670545661258,-0.013029428358723085,0.7482421578285925,0.9023290072262419,0.0,0.0,0.0,0.0
0.018456001045660527,-0.0535613674536079,0.7398054045404896,-0.022139238878321067,-0.5229219178059968,0.018362436350131548,0.8518951478387902,0.10306254508612506,-0.7906110307423062,0.8564515380570837,-0.10547391584368107,-0.7718637911925448,0.883102853026301,0.004870219309386989,0.6385317963604817,1.0934670545661258,-0.013029428358723085,0.7482421578285925,0.9023290072262419,0.0,0.0,0.0,0.0
0.01871431976217187,-0.053935997730572095,0.7394591103141195,-0.021628102953872498,-0.5238959573664315,0.01850318736216468,0.8513065740819623,0.10316385081914103,-0.7854388347531284,0.851150345515832,-0.10513815114664395,-0.7703300097733594,0.8829924901115774,0.005232487834568137,0.6408412416540552,1.0963708881211307,-0.013062024151257266,0.7494166239952145,0.9088778926942762,0.0,0.0,0.0,0.0
0.018942297117362714,-0.05437085605039321,0.7390773236879881,-0.021030656685482055,-0.5246849379221008,0.01865924774823957,0.8508320985191664,0.10333044150979062,-0.7810247752171804,0.8462611255097927,-0.10481780655615347,-0.7701657561809576,0.8841703287216489,0.005575332553217117,0.6423403751854175,1.0992762208081521,-0.013078872918019676,0.7498424986631256,0.9155861931292789,0.0,0.0,0.0,0.0
0.019017755100964696,-0.0548041384050453,0.7388042363472441,-0.02043484787855335,-0.5252105461850115,0.01880349335439564,0.8505190931459995,0.10352793704484098,-0.7770094389709353,0.8411894218686032,-0.10448947720228555,-0.7704584368212087,0.8852377782172175,0.005863389662495818,0.6430556312825905,1.1010816303754623,-0.013058709900663486,0.7496841646772121,0.920867082616707,0.0,0.0,0.0,0.0
0.018858692164081862,-0.055255347590456326,0.7386650089805371,-0.01981110172292508,-0.5254600760887482,0.018944592258327134,0.8503765819385529,0.10374143007046743,-0.772845151390722,0.8349687283896835,-0.10413068000602699,-0.7708855968001174,0.8855541977044398,0.006091973965442149,0.6428009905068239,1.1015849849233075,-0.012992189191565952,0.7487028583011204,0.9247313903696922,0.0,0.0,0.0,0.0
0.018405842068941063,-0.05576290146513167,0.7386561087622543,-0.019102263906953364,-0.525433988706273,0.019099387338690668,0.8504054564906859,0.10396312043019874,-0.7680136798158034,0.8266723586509276,-0.10372274228291273,-0.7713432308710031,0.8847986630215852,0.006264543911261096,0.6413853561313995,1.1007694140387474,-0.01287348911206746,0.7466292572631319,0.9275000929936515,0.0,0.0,0.0,0.0
0.01760950259359969,-0.056371136938398306,0.7387642891027127,-0.0182431347098787,-0.5251335942013808,0.01928723923146037,0.8506056070118073,0.10418766393463132,-0.7620234741171384,0.815398201466601,-0.10324970966137476,-0.7718226151916304,0.8827834238046034,0.006387036705918301,0.6386261560751436,1.0986546070194898,-0.012698005194808586,0.7431979811741771,0.9295590661582158,0.0,0.0,0.0,0.0
0.016430481481042886,-0.05712739668724686,0.738960331140251,-0.017166121366411297,-0.524565418420294,0.019528883304355833,0.8509730129631963,0.10441087993809445,-0.7544111062505736,0.8002595864609421,-0.10269898060142746,-0.7723874094023123,0.8794160172578134,0.006467278531897221,0.6343430121431347,1.095353829667881,-0.012462777285390737,0.7381299322886483,0.9314168358973078,0.0,0.0,0.0,0.0
0.01486243704102445,-0.05807163666594438,0.7391821610351327,-0.015818439650834994,-0.5237591190431407,0.019842236906581094,0.851488372099531,0.10463015674318758,-0.7448475160290399,0.7805889015388552,-0.1020662115870967,-0.7731758156044052,0.874759532132495,0.006515551265799148,0.628404645045702,1.0912466909882266,-0.012169674318621983,0.7311730978405632,0.9338266177099548,0.0,0.0,0.0,0.0
0.012999735118985084,-0.05918406775893705,0.739345078065825,-0.014239627577085164,-0.522802328641856,0.020220766065482666,0.852095111353682,0.10484416051926367,-0.7335417920346068,0.7568411397338831,-0.10136926508521191,-0.7742561715853107,0.8691371111679498,0.006541588982850911,0.6210552093248081,1.0870428957882843,-0.011834053201551377,0.7224991483959619,0.9374585863265736,0.0,0.0,0.0,0.0
0.011373448732513499,-0.060075202877097944,0.7395654832474967,-0.013007484272532188,-0.5218893815245489,0.020508027020454213,0.8526674027031595,0.10504934458564232,-0.7239230967412296,0.7363423819826231,-0.10074756005467465,-0.774907489322702,0.8638458448962039,0.006535020834084759,0.614927648773105,1.0825635896079224,-0.011517530765296383,0.7152579300428812,0.9392182161985049,0.0,0.0,0.0,0.0
0.010121696483796428,-0.06076186152460797,0.7397697282944932,-0.012083425928719109,-0.521140730796151,0.020715369005551123,0.8531337544664627,0.10525975436897556,-0.7164243399793019,0.7202968234911727,-0.10022211238360461,-0.7755036601049534,0.859882012895951,0.006535464692768912,0.6103713758734085,1.078574478103536,-0.01125266171822997,0.7097817513127708,0.9400249060859657,0.0,0.0,0.0,0.0
0.009219114712638522,-0.06127341365191802,0.7399113666044786,-0.011416975977270762,-0.5205826976777189,0.02085594848871295,0.8534801327217636,0.10547249163316176,-0.7109206052371412,0.7084595790887974,-0.09978707608154141,-0.7760988188757414,0.8571832061113629,0.006552794306070623,0.6070940806557024,1.0755836991513361,-0.011042128645925535,0.7057611659812901,0.9406138338731134,0.0,0.0,0.0,0.0
0.008603579486494112,-0.06163493364171137,0.7399870390569505,-0.010967391225805308,-0.5201993496227993,0.020940065685159513,0.8537176738423645,0.10568149236867674,-0.7071230801019115,0.7002254481205407,-0.0994299433832115,-0.7766265804344855,0.8554347263172458,0.00658555697938936,0.6048026122042695,1.0736521834360175,-0.010879538559287243,0.7028962624434616,0.941216651250759,0.0,0.0,0.0,0.0
0.008187231564553131,-0.061905419073254975,0.7400318328489598,-0.010643806318369631,-0.5199560830042795,0.020992602150067333,0.8538686619081841,0.10587912291123837,-0.7043029864438589,0.6942971691310039,-0.09912351134338823,-0.7770258681245413,0.8543231024820334,0.0066314428514227496,0.6032956515886873,1.072352447581951,-0.010750998227427304,0.7009352704917919,0.9418030025803471,0.0,0.0,0.0,0.0
0.007889314151150618,-0.062127720470240295,0.7400866982015339,-0.010381700032779257,-0.5198137697267292,0.021031157800674005,0.8539575841389779,0.10605803144046985,-0.701830015815018,0.6895302607081165,-0.09884406928226117,-0.7771919264809035,0.8534981735654709,0.0066855245329558305,0.6024249800421202,1.0712088333158014,-0.01064362196066172,0.6996908534814928,0.9421822670861917,0.0,0.0,0.0,0.0
0.0076342853325429005,-0.06232003941682496,0.7401917189249044,-0.010155034625542726,-0.5197371176071952,0.021062310013547386,0.8540061960840868,0.10620910910060313,-0.6992117845162538,0.6850033140218716,-0.09857215445845327,-0.7769032061937262,0.8524654826895989,0.006740751686179209,0.6020642237630524,1.0698177013875583,-0.010547809731186884,0.6990244003586813,0.9420624526741043,0.0,0.0,0.0,0.0
0.0073664953900049596,-0.06251825054359196,0.7403880426166436,-0.009909824228851158,-0.5197053548023938,0.021100979177896516,0.8540274516964927,0.10632549795172444,-0.6958664971705563,0.6797523468015616,-0.09828643322888973,-0.7760370795985533,0.8509653285520341,0.006794815061862473,0.6021994090992937,1.0677190470645912,-0.010454259329832842,0.6988859813017525,0.941220018781259,0.0,0.0,0.0,0.0
0.006989017291458448,-0.06279051600682746,0.7407006478284252,-0.009545567467359573,-0.5197029975821963,0.021175565223124936,0.8540311890576872,0.10639418079053124,-0.6907642848548577,0.6719809397518589,-0.09795148085394029,-0.7744235499126055,0.8485197478838012,0.006847183504776791,0.6026497486921873,1.064540478255761,-0.010348840638688616,0.6990040465680805,0.9397716099352434,0.0,0.0,0.0,0.0
0.006307722833657609,-0.06332625117508324,0.7410024403148464,-0.00878943079067656,-0.5197438736124464,0.021365094936868532,0.8540097098201189,0.10639790549015249,-0.6817962080140718,0.6575723588462034,-0.09750254379062818,-0.7722380636379863,0.8444891122877246,0.006910560381661573,0.6023816816912847,1.0610042698039654,-0.010204410753704764,0.6980149254355272,0.939936850420687,0.0,0.0,0.0,0.0
0.005136612444960404,-0.06447521765497019,0.7412272371804338,-0.007123558071667987,-0.5198886964425184,0.021819119218403855,0.8539255964475075,0.10631443086481057,-0.6651465630315124,0.630067016978542,-0.09682522898764259,-0.7699698054033076,0.8390031103956151,0.007006583062014766,0.6008738974669873,1.0568854351722852,-0.009974578016108763,0.6948576457378288,0.9441000102841931,0.0,0.0,0.0,0.0
0.0032420851608677076,-0.06670705210126293,0.7418042361526819,-0.0038289565031041535,-0.5207490059382737,0.022740241709040297,0.8533983204303905,0.10593791738570665,-0.629532733664742,0.5742683202142285,-0.09556177658222237,-0.7635381073709123,0.8284388998344588,0.007159761965348884,0.6013358553738298,1.0483352271827246,-0.009610356791302276,0.692158503469475,0.9515325593506574,0.0,0.0,0.0,0.0
0.0016082533567588313,-0.06856609880843594,0.7421441162709395,-0.00433198586183504,-0.5206043710446399,0.0203141264885414,0.8535453467817133,0.09371542037889848,-0.7075367127801475,0.6826109221848726,-0.08384460482171735,-0.763809341364971,0.822616896221075,0.007307032831927565,0.6016852185607535,1.0428030869014042,-0.009767526285232923,0.6833452368344349,0.9545082551709663,0.0,0.0,0.0,0.0
-0.00012029408025631132,-0.0709491455465359,0.7424765132021142,-0.0037657112068228056,-0.5205419734812896,0.018373210928713413,0.8536300711569855,0.08252059448949842,-0.7685688436516049,0.7381408187074436,-0.07289346624001714,-0.7651200207786509,0.818436598853174,0.0074279493669977105,0.602073797652044,1.0356373289511387,-0.0097772582088901,0.6744038608987658,0.9599258666927062,0.0,0.0,0.0,0.0
-0.0018628345701870504,-0.07353789645720114,0.7426039067158017,-0.0025640145807814627,-0.5207405381576329,0.016844538255163754,0.8535449485993686,0.0724910034810588,-0.8192766276868251,0.7654176291789859,-0.06298774612350405,-0.7659032820865589,0.813801431743947,0.007566704103611897,0.6020721319841883,1.0297761765845708,-0.009706415502070426,0.6653700917540651,0.9686940004059039,0.0,0.0,0.0,0.0
-0.0034845880418594667,-0.07600722781301059,0.7428011687681816,-0.0012584086670279888,-0.5210133318297901,0.01554090649289364,0.8534061194347194,0.0634768596600978,-0.862324606874544,0.7766325469324731,-0.05406841725552419,-0.7657248209341045,0.8087648065781002,0.0076892795544489054,0.6027347626589734,1.0233875309921239,-0.009599216317735117,0.6577400198806765,0.9764033348731785,0.0,0.0,0.0,0.0
-0.004872946391392044,-0.07824535604421555,0.7430603017340591,-6.221579977673826e-05,-0.5213025317472049,0.014368278798051342,0.8532509707510036,0.05533046714143968,-0.899445619071666,0.7782750573351004,-0.046033711783001294,-0.7651975161960338,0.8043002943047162,0.007795810269791855,0.6041532732550208,1.0167638503243372,-0.009484571392402658,0.6516620721631501,0.9825161270975695,0.0,0.0,0.0,0.0
-0.005936322555299129,-0.08022306898707349,0.7433007593661008,0.0009476421737191493,-0.5215990871076956,0.013280601932384813,0.8530868185097239,0.04792592229982521,-0.9317730466613152,0.7740036584975251,-0.03878574756091749,-0.7651428617805575,0.8015432563774946,0.007898941676477984,0.606151811612746,1.0107152325894073,-0.009381509206002394,0.6469343760125487,0.9876200230684692,0.0,0.0,0.0,0.0
-0.006700744020842215,-0.08193486576271071,0.7434842450760972,0.0017343637837896645,-0.5218851529821182,0.012247460828001438,0.8529260687670198,0.04114770373995104,-0.9597794739184515,0.766286479713159,-0.03222040987634607,-0.7657280291660827,0.8004727295960372,0.008001470587834498,0.6084052693119343,1.0056640191244872,-0.009298991131711712,0.6431945684508448,0.992062691497679,0.0,0.0,0.0,0.0
-0.0072296677937006785,-0.08340350069212771,0.7435973732748887,0.002306625279165466,-0.5221280559717533,0.011254736882760429,0.8527897182451715,0.03489548985426941,-0.9826997628114771,0.7572484519256538,-0.026239331472159268,-0.7670079765753715,0.8008400669370461,0.008102020494365649,0.6105946568855456,1.0016856195843111,-0.00923600420564809,0.6400493063050933,0.9960468597170933,0.0,0.0,0.0,0.0
-0.007640441986736072,-0.08466940890897325,0.7436318689790284,0.002700763541894684,-0.5222922806511325,0.010298625047609866,0.8527000749212222,0.029081404345765244,-0.9986245762091249,0.7495604380450867,-0.020749368099987425,-0.7687718918955887,0.8018740923216657,0.008194720366982794,0.612292819912818,0.9987552446810423,-0.009184029289201983,0.6369652094133044,0.9998136436873342,0.0,0.0,0.0,0.0
-0.008056175091390387,-0.0858202956767716,0.7436688764867312,0.0030256283164560903,-0.5223706389651421,0.009396810124592585,0.8526613988447713,0.023625799374259748,-1.005002474007454,0.7469936224361601,-0.015646710173906345,-0.7704970794286407,0.8026907043076739,0.008271575842033646,0.6136140506514796,0.9959161071244165,-0.009125893522753814,0.6338715971047391,1.0030164887943431,0.0,0.0,0.0,0.0
-0.008559954214921926,-0.08691992566150716,0.7437676373495794,0.003356606997911095,-0.5224008778425977,0.008557721562246755,0.8526504684924578,0.018458801762098135,-1.0003624666895419,0.7534481236275364,-0.010844932345663945,-0.7715564841174686,0.802426489017137,0.008330299613039542,0.6147794800870064,0.9925517243750959,-0.009053278976342753,0.6308433885546505,1.0054809265806308,0.0,0.0,0.0,0.0
-0.009106684725258116,-0.08791202782241617,0.7438334923220967,0.003591852281559842,-0.5223333169261973,0.007738486343621959,0.8526987278371967,0.013514329152719766,-0.9863961098258153,0.7654185841410269,-0.006305502402901988,-0.772585304325624,0.8016819176443972,0.008373639490673478,0.6152998999560034,0.989598505134173,-0.008977894051696713,0.6274448479886997,1.0077066560427996,0.0,0.0,0.0,0.0
-0.009566305154461946,-0.08876808784883991,0.7438372043000392,0.003674128991798395,-0.5221866476012909,0.006908181604717741,0.8527953346905651,0.008722381401106073,-0.9656665130570897,0.7796666431819876,-0.001970853424296313,-0.77421095116589,0.8016637725116461,0.008411556543127991,0.6154276130664907,0.9874103954602611,-0.008915651810938351,0.6239556842948136,1.009785739020439,0.0,0.0,0.0,0.0
-0.009823730400330776,-0.0894843595756461,0.7437755367476513,0.003585834890768107,-0.5219987349051556,0.006050170873655146,0.8529172632664629,0.004021321968160292,-0.940356760784342,0.7941783723533535,0.0022156391125576465,-0.7768804854871518,0.8034133243316597,0.008453683870645311,0.6155594120066459,0.9860733738565387,-0.008876836426231709,0.620769305142084,1.0117296086792116,0.0,0.0,0.0,0.0
-0.009834113934368904,-0.09007848410779933,0.7436616484469949,0.003340106730634812,-0.5217896899360965,0.005158432691492762,0.853052022877613,-0.0006439046423058941,-0.9118881014595905,0.8076890225907292,0.00631189186072828,-0.7807702941784886,0.8073900725515999,0.008503276236859876,0.61595247511906,0.9854464305646267,-0.008862408802147137,0.61809632922519,1.0134966545476813,0.0,0.0,0.0,0.0
-0.009715595127895393,-0.09055471499970105,0.7435683215522355,0.0029236861224246997,-0.5215563233879034,0.004216835104315677,0.8532014251601161,-0.005326832391201557,-0.8817930428095708,0.8197651322217957,0.010379273842847349,-0.7849881598367623,0.8121802350050009,0.008548498812008917,0.6166539382324754,0.9849260589093921,-0.008868146888946373,0.6159190923938734,1.0145137103830266,0.0,0.0,0.0,0.0
-0.009502247628043243,-0.09094735762342467,0.7435614149557794,0.00237039168343792,-0.5212953212368583,0.0032237626846816432,0.8533669648246178,-0.010078270618735246,-0.8512354224200408,0.8290335031870887,0.014482048094750986,-0.7892837432287597,0.8175123756278161,0.008583353554245539,0.6179350987515372,0.9838055437140346,-0.008886147380868674,0.6144090816569253,1.0143177636173484,0.0,0.0,0.0,0.0
-0.009260594619354773,-0.091271819771432,0.7437063490615253,0.001685517799415037,-0.521000871624455,0.0021686466128959456,0.8535517253032615,-0.014945127312273526,-0.8226705427145661,0.8333367626275336,0.01867824123575799,-0.7931573861056891,0.822662610393173,0.008598869793478015,0.6199550037288999,0.981462564808105,-0.0089103807773899,0.6136528347229518,1.0123933989906015,0.0,0.0,0.0,0.0
-0.009103586284820612,-0.09148544035965785,0.7439628381007184,0.0008196323069348649,-0.5207066071791663,0.0010476297875109412,0.8537346542777042,-0.01987153158440122,-0.8026890221904147,0.8325800155653903,0.022893912915516616,-0.7957047587882207,0.8260093565710038,0.008592146047241685,0.6222341143141348,0.9785534736472601,-0.008938246094521011,0.6132741207518544,1.0091018827996878,0.0,0.0,0.0,0.0
-0.009103342566676489,-0.09149978908820096,0.7439617950270896,0.0007904639458743799,-0.520707270664663,0.0010031961201644457,0.853734330480655,-0.0202168737972347,-0.8026673148624786,0.8325976687466354,0.023076781762268454,-0.7957254066316374,0.8260063348329506,0.008595143856214679,0.6222910467817682,0.9785480892622916,-0.008919956061057837,0.6132247375870857,1.009114080157835,0.0,0.0,0.0,0.0
-0.009103342566676489,-0.09149978908820096,0.7439617950270896,0.0007904639458743799,-0.520707270664663,0.0010031961201644457,0.853734330480655,-0.0202168737972347,-0.8026673148624786,0.8325976687466354,0.023076781762268454,-0.7957254066316374,0.8260063348329506,0.008595143856214679,0.6222910467817682,0.9785480892622916,-0.008919956061057837,0.6132247375870857,1.009114080157835,0.0,0.0,0.0,0.0
-0.009306031817349498,-0.09134771907188363,0.7436654912454209,0.0006027220508221441,-0.5205532389544608,0.000977609965942321,0.8538284408585274,-0.020414001867108914,-0.8040322979678551,0.832640262162552,0.02289462466186692,-0.7958421407705458,0.8243051006915492,0.008586994566978097,0.6197026349130738,0.981593060882489,-0.008898354465900446,0.6109830162132319,1.0110769136835744,0.0,0.0,0.0,0.0
-0.009537975296459257,-0.09118279658233913,0.7434336574484782,0.0003920284168593615,-0.5203901460490921,0.0009424802697725111,0.8539280144951716,-0.020600909868081482,-0.8051354308289425,0.832403198629171,0.022717031849850817,-0.7955929580619484,0.8221706985001199,0.008573346721504232,0.6173327941508017,0.9840759098706277,-0.00888119471075497,0.6089565648386404,1.0123969471677599,0.0,0.0,0.0,0.0
-0.009754070903095881,-0.0910369376610458,0.7432867626237238,0.00020848685829162776,-0.5202329000168933,0.0009144248253252397,0.8540239165857604,-0.020775668180109206,-0.8059447219465602,0.8320663334955519,0.02254788583887293,-0.7952055567214196,0.8201574766882279,0.008558814070841619,0.6154659958889424,0.9857003763011796,-0.008863957149943735,0.6073882028164518,1.0130151016123323,0.0,0.0,0.0,0.0
-0.009941735568677796,-0.09091306025445205,0.7431957097221895,5.715792804450313e-05,-0.5200908530303974,0.000895454189722801,0.8541104726491059,-0.020940152788549847,-0.8065539670776329,0.831734402306578,0.022387068056777124,-0.7947983266525895,0.8184064762496396,0.008546043099133436,0.6140134440172879,0.9867441238633573,-0.008846782557460516,0.6061933727147945,1.013221138949433,0.0,0.0,0.0,0.0
-0.0101009861797512,-0.09080693305054462,0.7431329974717713,-6.808784257153377e-05,-0.5199675889815727,0.0008839524240275759,0.8541855304328492,-0.021096963103681594,-0.807045159328974,0.8314499530584986,0.022233051170309555,-0.7944190526067315,0.8169119903301071,0.008536266952255253,0.6128417604826645,0.987487098876425,-0.008830175031526737,0.6052503682362635,1.0132575280205198,0.0,0.0,0.0,0.0
-0.010238572004606422,-0.09071149000259926,0.7430792657799076,-0.00017776028192392713,-0.5198634202593945,0.0008769333670674473,0.8542489237133145,-0.02124903486063043,-0.8074680963217857,0.8312071774454092,0.022083301521192533,-0.794059258057355,0.815585078335228,0.008529974541757112,0.6118300996138594,0.9881391769931547,-0.008814250631849554,0.6044520107813728,1.0132791472895204,0.0,0.0,0.0,0.0
-0.010350041036743286,-0.09063111252553456,0.7430270562877214,-0.00026475589103846587,-0.5197846368219355,0.0008771428993215461,0.8542968405937956,-0.021397552224336834,-0.8078143970076663,0.8310000570828164,0.021936716514210988,-0.7937465779036142,0.8144728741487389,0.008529112299032696,0.6109713000817867,0.9887644997514679,-0.00879829452928977,0.6037875746525552,1.0133814157803716,0.0,0.0,0.0,0.0
-0.010351950733836782,-0.09062996440949411,0.7430231258457533,-0.000266146321353975,-0.5197839650992232,0.0008769489825430347,0.8542972490605054,-0.021399207512789085,-0.8078240024331476,0.830994344223754,0.02193531250890058,-0.7937458051860484,0.8144524609804137,0.008529086747591143,0.6109442584043575,0.988802488986244,-0.008798157148666632,0.6037634531169692,1.013411131153662,0.0,0.0,0.0,0.0
-0.010351950733836782,-0.09062996440949411,0.7430231258457533,-0.000266146321353975,-0.5197839650992232,0.0008769489825430347,0.8542972490605054,-0.021399207512789085,-0.8078240024331476,0.830994344223754,0.02193531250890058,-0.7937458051860484,0.8144524609804137,0.008529086747591143,0.6109442584043575,0.988802488986244,-0.008798157148666632,0.6037634531169692,1.013411131153662,0.0,0.0,0.0,0.0
-0.009649473999076466,-0.090637065643928,0.7435519247095226,-0.00024842824602417507,-0.520242522240305,0.0008755355452809525,0.8540180851562578,-0.02138137305953899,-0.8072624445291422,0.835003537707516,0.021947451671014934,-0.7933045976679182,0.8186254636620208,0.00852965715948938,0.6166574538576481,0.9845624817003059,-0.008910759305591542,0.6094168163660952,1.0092593944119745,0.0,0.0,0.0,0.0
-0.008571965757353802,-0.09051038647713404,0.7438839513177975,-0.0004191121887537394,-0.5207230238951664,0.0008155335106933171,0.8537251850774581,-0.021439492678241294,-0.809803761778286,0.8439139498773085,0.02193063897287938,-0.7949413302218157,0.8262458784006398,0.008493711303928295,0.6224095207879673,0.9824015622823621,-0.009121993303974039,0.6153310956292584,1.0061513921448024,0.0,0.0,0.0,0.0
-0.007588776018575084,-0.0903455173279396,0.7440512397739409,-0.0006485460840064336,-0.5211638931557808,0.0007423244493259545,0.8534560473821126,-0.02152343768684213,-0.8126609143067647,0.8523768631115979,0.02189264443018777,-0.7965782646082931,0.8329833958365214,0.008475164197326973,0.6269739773505473,0.981803522823987,-0.009314680703799386,0.6201430595906997,1.0043085038245358,0.0,0.0,0.0,0.0
-0.006788682604600242,-0.09021228427390543,0.7441274415347595,-0.0008333491715054373,-0.5215247436994552,0.0006892009464840263,0.8532354729149693,-0.021611368055849428,-0.8151128875001157,0.8592425149924411,0.021845579648890414,-0.7980457940161912,0.8384784446430503,0.008486108309168627,0.6304092884201803,0.98182416585915,-0.009450911629249685,0.6238013686009857,1.0033258934064118,0.0,0.0,0.0,0.0
-0.006183583624341944,-0.09013049525775042,0.7441547355370228,-0.0009431720874263252,-0.5217949269624019,0.0006652326982988186,0.85307017418743,-0.021695708540191525,-0.8169835055049764,0.864339428064738,0.02179393675617348,-0.7993178899424361,0.8427677388809033,0.008528100830195487,0.632864630222343,0.9820134992005054,-0.009521216093639798,0.6264254835051895,1.0029066552980617,0.0,0.0,0.0,0.0
-0.005743707401021486,-0.09008580664730215,0.7441430149940307,-0.0009984373308206972,-0.5219749329523549,0.0006638153812340087,0.8529599825557004,-0.021781823305331637,-0.8184809194398269,0.8680836573619224,0.02173474442495056,-0.8004861799704929,0.8460976219579233,0.008598481662349743,0.634452174691242,0.9823329511808536,-0.009530606953524144,0.6281512639097174,1.0029054872477585,0.0,0.0,0.0,0.0
-0.0054233148856131135,-0.0900464312370824,0.74407848935248,-0.0010459088597950322,-0.522067031929571,0.0006707389810876574,0.8529035527866704,-0.021883270714649128,-0.8200196913212534,0.8711537768255403,0.021660111865151065,-0.8017148070858394,0.8487912945902701,0.008693956766399738,0.6352091721123141,0.9830084629074276,-0.009489310394445474,0.6290660367294519,1.0033113320027411,0.0,0.0,0.0,0.0
-0.005180477251223734,-0.08997652001833044,0.7439314529940182,-0.0011386113612762575,-0.5220664149504978,0.0006707296255920594,0.8529038117318224,-0.02201815576896668,-0.8220952504428792,0.8742595578729223,0.021559047140090888,-0.8032176513680453,0.8511634682478858,0.008813733763324002,0.6350659555025541,0.9844064738208561,-0.00940490555003316,0.6291582190049839,1.0042249148822624,0.0,0.0,0.0,0.0
-0.004993420083689831,-0.08984972092900523,0.7436646435698882,-0.001315327710795482,-0.5219521628474281,0.0006540783919997033,0.8529734941915618,-0.022205791489901823,-0.825174431504567,0.8779438644516259,0.021419358582982124,-0.8052537953264594,0.8534716017824819,0.008962217989842812,0.6338258558197323,0.9869007790222183,-0.009274833771057967,0.6282789724830838,1.0058280507045745,0.0,0.0,0.0,0.0
-0.004873377609561322,-0.08967109860143277,0.7432520817467245,-0.0015674060147159454,-0.5216805452207982,0.0006268690854433363,0.8531392377634881,-0.022459968328546243,-0.8295221323950197,0.8823414142138178,0.021232356931923855,-0.8081276396602843,0.8559211361661602,0.009150546842832853,0.6312205375053467,0.9906129257684232,-0.00907965699309005,0.6261648656704336,1.0082886572475993,0.0,0.0,0.0,0.0
-0.004864407950162625,-0.08952037508115061,0.7427355028429656,-0.001773164786907889,-0.5211965374419277,0.0006295595008796402,0.8534346072781549,-0.022768989652519462,-0.8347850836375543,0.8867989220823296,0.021007186332606318,-0.8121183398461201,0.8587685513090306,0.009393143381287751,0.627250114040061,0.9947641654195736,-0.008783586232163559,0.6227080201980519,1.0114304189405716,0.0,0.0,0.0,0.0
-0.004990723733585786,-0.08963228098413,0.7424306653990229,-0.0015883650660724082,-0.52072554284013,0.0007436354369534284,0.8537223396026402,-0.0229524899622897,-0.8375274101706296,0.8880172555570885,0.02087376687097803,-0.8156707717186091,0.8613006412581501,0.009633632959285189,0.6241783869405079,0.9961385839146506,-0.008453124445603137,0.619730429362274,1.0137238248326956,0.0,0.0,0.0,0.0
-0.0048026273594314745,-0.09048438223003717,0.7428698901863269,-0.0016465224789211056,-0.521702364739904,-0.00025719223331790205,0.8531259376203925,-0.01788039301157572,-0.8280977255968416,0.880056735694061,0.01579600646850208,-0.8296266615004958,0.8546721273158019,0.009619780353375207,0.6312757261739987,0.9921920795614156,-0.008643270763390155,0.6228873446939871,1.013663493082668,0.0,0.0,0.0,0.0
-0.00455182096253919,-0.09161222462250462,0.7433984030838512,-0.001288809658095458,-0.5225856804016318,-0.0011296524838065346,0.8525850511791152,-0.01278377893570831,-0.8181042373197492,0.8714249826716891,0.010836133805081239,-0.8541477800622916,0.8462479576177676,0.009600183826093681,0.6390009807664763,0.986104368365186,-0.008798414457001866,0.6262532267364538,1.0135189525317614,0.0,0.0,0.0,0.0
-0.0042545798383340685,-0.09272164860092494,0.7437994710131585,-0.0009044394271242309,-0.5232655289835781,-0.0019432850358422152,0.852166997606765,-0.00797454492800533,-0.809975725597097,0.8645083584029236,0.006070588130839129,-0.8822786710711368,0.8350077509092559,0.009615159631951574,0.645671049509827,0.980641491607569,-0.00888506361314659,0.6287365241334264,1.0140094257505825,0.0,0.0,0.0,0.0
-0.0038778069115805868,-0.09373656191063943,0.7440329091207301,-0.0006109201936928017,-0.5237871737396723,-0.0027387637682184116,0.8518445413192158,-0.0034317948596128203,-0.8040904806583702,0.859980741542988,0.0014538113549798061,-0.9110981094282358,0.8222651531030993,0.00965399012009187,0.6512308554814246,0.9765678018829359,-0.008933228753589656,0.6303894206938525,1.0153013770068235,0.0,0.0,0.0,0.0
-0.0033999411190992223,-0.09466734283018279,0.7441232847130577,-0.0004046655560283428,-0.5241912553055708,-0.0035267835661389082,0.8515931692449367,0.0009186648232431469,-0.8002308208738415,0.8578180735557184,-0.0030659625096392208,-0.9393683321737545,0.8085412602645746,0.009705469568296996,0.6559807334792292,0.9737295260586473,-0.00896386803010106,0.6314677036748199,1.017271167298823,0.0,0.0,0.0,0.0
-0.0028129037638468,-0.09555466502357277,0.7441100322384668,-0.00023947185926886098,-0.5244998377027021,-0.0043062273235486975,0.8513996237427555,0.005158707770555194,-0.7980270358437264,0.85772133975755,-0.00754026178594874,-0.966415782121522,0.7939649896078592,0.009762287267869813,0.660242266510306,0.9716753467885475,-0.008985923725811511,0.6321958245004896,1.0197317945517206,0.0,0.0,0.0,0.0
-0.0021245628057414913,-0.09644529984348109,0.7440263787284657,-6.047083682004057e-05,-0.5247218524039828,-0.005072916559293296,0.8512586207907636,0.009365989800135937,-0.797079604504018,0.8592397848676642,-0.012019664355729143,-0.9913020035882447,0.778834676124501,0.009820937771970753,0.6642353893038854,0.9699609804521256,-0.00899959411758709,0.6326884877563048,1.022555604263908,0.0,0.0,0.0,0.0
-0.0013126391920196987,-0.09735512925331641,0.7438746435205671,0.00014454144283176988,-0.5248438721215728,-0.005831873996035424,0.8511785231371265,0.013591835249861243,-0.797506093584747,0.8625773967225896,-0.016559154870995213,-1.0121374111814685,0.7639141553298036,0.009880220474682183,0.6680285996014206,0.96846444704483,-0.009004970204781693,0.6329683257379949,1.0257155295163545,0.0,0.0,0.0,0.0
-0.000436588236557973,-0.09832224726426216,0.7436560796738627,0.0004170777336043794,-0.5248550863010785,-0.006581993403455544,0.8511660483083712,0.01790862631070519,-0.7988664106401038,0.8669285053964825,-0.02121670264262157,-1.0262751107056018,0.7511875596248334,0.00994475896585963,0.6714743449185552,0.96706681463411,-0.008985809645374187,0.6328070859327124,1.0293407841753528,0.0,0.0,0.0,0.0
0.0003604582919589258,-0.09939736728939125,0.7434059021448763,0.0008074659743162695,-0.5247761285064398,-0.0073272509275108255,0.8512083612972432,0.022423311437396388,-0.799922804681401,0.870326631021879,-0.026055554636870037,-1.0310718669470726,0.7444387239628041,0.010020580878709481,0.6744464366115043,0.9654390215474858,-0.00891700148973844,0.6319561243317302,1.0334321842078664,0.0,0.0,0.0,0.0
0.0010292035848475155,-0.10055084923081828,0.7432254071678854,0.0012410759834278794,-0.5247013974535366,-0.00811112072768222,0.851246799090164,0.027217751376852416,-0.799649115455709,0.8717704907238923,-0.031132628012133342,-1.0250609690688326,0.7480922337440452,0.01009942256427002,0.6775516603385056,0.9630192045990968,-0.008812548721698328,0.6309816220348464,1.037201701478884,0.0,0.0,0.0,0.0
0.0016355889213632718,-0.10184715983773615,0.7431022368307633,0.0018020615284407367,-0.524580809568218,-0.008919112170598207,0.8513120322449866,0.032355484320760006,-0.798462391975189,0.871872191268218,-0.036514755915622484,-1.0092808783315634,0.757478061003462,0.01017761214785825,0.6808622820282718,0.9595206691701432,-0.008667683636806643,0.6298331547670561,1.0408121234954626,0.0,0.0,0.0,0.0
0.0022566949480647197,-0.10337071673362622,0.7430429147182025,0.0025986067834119224,-0.5244106462579752,-0.00973610113370501,0.8514058548476117,0.037933284334567004,-0.7963824078524006,0.870897231506639,-0.04227237408180818,-0.9858489779298902,0.7683616565898959,0.010239869231927075,0.6847331834150661,0.9544814915606025,-0.008494617775930604,0.6286911604725928,1.0443876154713643,0.0,0.0,0.0,0.0
0.002905336824738393,-0.10517525345858966,0.7431489225674409,0.0036766942264753666,-0.5242630855688296,-0.010574398974093922,0.8514827544441236,0.044068778462747454,-0.7924477749451212,0.8680444267021047,-0.04847530166013149,-0.9570411196989422,0.7784204798091187,0.010266650713083657,0.6900014849078328,0.946869274901404,-0.008309365062790003,0.6282014471423831,1.0473000148394807,0.0,0.0,0.0,0.0
0.0036123118980577657,-0.10725361023817663,0.7434442173383342,0.0049859463195156585,-0.5242176609679327,-0.011476859726187488,0.851492375749445,0.05086619455508004,-0.7862424258247358,0.8631089504444418,-0.055214558466232994,-0.9242319010644153,0.7859745988398852,0.010234058093543103,0.6971635088180571,0.9365782376454267,-0.008141286699759338,0.6287504668848408,1.0493944262412047,0.0,0.0,0.0,0.0
0.0043788559326757605,-0.10947212731067404,0.7438274703093821,0.0062881854555318275,-0.5244024521976683,-0.012539085167426264,0.8513549777830121,0.05837959445986939,-0.777853883957117,0.8562511017789458,-0.06258830335618756,-0.8882659040045686,0.7897252195613866,0.010122449122170715,0.7060117127209228,0.9253074706418342,-0.008043452068845141,0.6302529295202413,1.0513259454313153,0.0,0.0,0.0,0.0
0.005151999338729225,-0.11151568668178295,0.7439799016217681,0.0070894366237853265,-0.5249853362195736,-0.013921114584944556,0.850967883772056,0.066580413041452,-0.7683849664329562,0.8483551491068587,-0.07070386754021889,-0.8498346849075915,0.7879360660112982,0.009932375654144666,0.7149327372794438,0.9177990603265775,-0.008099318641551424,0.6316598906942389,1.0552280374404923,0.0,0.0,0.0,0.0
0.005887273416591738,-0.11309959365353106,0.7438047130979297,0.006970702708768157,-0.5259376884332394,-0.015725599026976622,0.8503491416615233,0.07534018219486681,-0.7594493274877235,0.8411996390336238,-0.07963326738630729,-0.8080186970341204,0.7743152113189146,0.009710367669365326,0.7228704302648638,0.916236082116375,-0.008306696734173774,0.6324859832574519,1.0610502248333598,0.0,0.0,0.0,0.0
0.006366624215074224,-0.11386166710975076,0.7433332843786504,0.005479876186299799,-0.5268814470624984,-0.01797948759771218,0.849730927837768,0.08421688186587506,-0.7539181601787743,0.8373124161616409,-0.08930776690240078,-0.7623915282321255,0.735347118051382,0.009588987126038588,0.7278605680707901,0.9211731353256756,-0.008469153832853736,0.6315097619316269,1.067004274061251,0.0,0.0,0.0,0.0
0.006429499908483957,-0.11397492435269435,0.7432981917135667,0.005508862003406828,-0.52683365167768,-0.018063240901375024,0.8497585982074716,0.08469652622628726,-0.7539834670740552,0.8374119441868023,-0.08994988593994992,-0.7621880023681371,0.7353671546446795,0.009541928533117167,0.7280841415386953,0.9208724913860364,-0.00843243712069559,0.6312669665861681,1.0673697664011899,0.0,0.0,0.0,0.0
0.006429499908483957,-0.11397492435269435,0.7432981917135667,0.005508862003406828,-0.52683365167768,-0.018063240901375024,0.8497585982074716,0.08469652622628726,-0.7539834670740552,0.8374119441868023,-0.08994988593994992,-0.7621880023681371,0.7353671546446795,0.009541928533117167,0.7280841415386953,0.9208724913860364,-0.00843243712069559,0.6312669665861681,1.0673697664011899,0.0,0.0,0.0,0.0
0.006728260475377575,-0.114063905623294,0.7428865354032818,0.005637684571117757,-0.5263329980852663,-0.018003194045785105,0.8500692187365693,0.08485784859563869,-0.7594793837415255,0.8435440366262972,-0.0901627320126435,-0.768868239599264,0.7433210563166989,0.009785797765937954,0.7256491916097964,0.923010391542411,-0.008142640315360364,0.6289870833242535,1.0699703645717005,0.0,0.0,0.0,0.0
0.007122786192819293,-0.11416793365554015,0.7424974940643428,0.005773390440458728,-0.5260736357720057,-0.01795886280850542,0.8502297789157178,0.08506187430550709,-0.7638613650927643,0.8490309021032401,-0.09027957814279232,-0.774563850126847,0.750760875189189,0.009976725048785178,0.7242801906461361,0.9253088193823021,-0.007959306715329878,0.6277168391910691,1.0727560768005207,0.0,0.0,0.0,0.0
0.007576201900781051,-0.11434203208755943,0.742162388012611,0.006001441971092127,-0.5259830535600053,-0.017903256121500746,0.850285412953914,0.08531196300551605,-0.7670196866780601,0.8535335310011026,-0.0902959748097237,-0.7797503292867549,0.7582053395554899,0.010127659090847438,0.7238935971438699,0.9271077949515137,-0.007842873631523818,0.6272805839756327,1.0755234186100984,0.0,0.0,0.0,0.0
0.008084305936324048,-0.1146165190095303,0.7418829058388551,0.006369754957212027,-0.5260198579954802,-0.017821426324217498,0.8502616844124933,0.08561511623146406,-0.7690375654983415,0.8570670053510308,-0.09021393764468696,-0.7848325736872162,0.7661326360845935,0.01024361822436072,0.7244086218592706,0.9281743901849328,-0.00777529587895502,0.6275574845745674,1.0782723547220636,0.0,0.0,0.0,0.0
0.008652537424321257,-0.11502382806443726,0.7416634737856951,0.006929391151805329,-0.5261545346173947,-0.017698331845312994,0.850176545365556,0.08598066626521333,-0.7699526014832568,0.8596433533859263,-0.09003236306317665,-0.7901874293500165,0.7750376456516264,0.0103248543239779,0.7258191859373855,0.928259278133993,-0.0077448261542857715,0.6284990279907852,1.0809961224940252,0.0,0.0,0.0,0.0
0.009297248731685174,-0.1156054376509996,0.7415181903672153,0.007745173566442875,-0.5263625111326946,-0.017515649386347355,0.8500445407077702,0.08642091305942348,-0.7697500416326425,0.8612702503268426,-0.08974625629121494,-0.7962309240968158,0.7855372356694256,0.010366404055390143,0.7282237288035797,0.9269812377368417,-0.007742507274703214,0.6301440633861046,1.083627634586786,0.0,0.0,0.0,0.0
0.010041718273759086,-0.11641063557459924,0.7414714371879967,0.00889427375504282,-0.5266184076682174,-0.017251724721998738,0.8498801813158592,0.08694880415516806,-0.7683779890444713,0.8619491539646955,-0.08934799133279124,-0.8034128964547087,0.7983364503392487,0.010358304410546191,0.7318024344429889,0.9238124714594398,-0.007757948240801288,0.6325962814777188,1.0860228414875297,0.0,0.0,0.0,0.0
0.010919159599531754,-0.11748288692268304,0.7415503465715275,0.010445737241726547,-0.5268957095097515,-0.01688702494958711,0.8496979617852712,0.08757427028671697,-0.7658500525016713,0.861805379356378,-0.08883272803386062,-0.8121713447459129,0.8141419970429027,0.010284952561076201,0.7367803332433286,0.9181914780675888,-0.007779274424159795,0.636005230073264,1.0879785082111693,0.0,0.0,0.0,0.0
0.01191125543259264,-0.11876941412650063,0.7417482836287862,0.012323443099996688,-0.527169790691068,-0.016440217072844984,0.8495115442390966,0.08827087468025828,-0.7624620101998043,0.8611196686950165,-0.08822171055738683,-0.8221853714988421,0.8323219572183798,0.010141874477623587,0.7429741447489554,0.9103160589305386,-0.007788095306559295,0.6402562453360078,1.0893498413563782,0.0,0.0,0.0,0.0
0.012816611188870947,-0.11983852693101099,0.7418361630809573,0.013879746845459551,-0.5274711187280766,-0.0160819290420336,0.8493073313551133,0.0888909441452924,-0.7597970953131845,0.860950989164012,-0.08765750361942418,-0.8305105528837784,0.8474878216354638,0.009997663424939804,0.7482441635089521,0.9044643632556354,-0.007793957545667551,0.6439523964719012,1.091097481853349,0.0,0.0,0.0,0.0
0.013628088593410095,-0.1206497828193137,0.7418174023219951,0.015049964507834144,-0.5278127413416991,-0.015829678386893337,0.849079872525454,0.08942821960751407,-0.7579638381962442,0.8614789359588734,-0.08716254024520298,-0.8369544997169217,0.8594532315944604,0.009872082928129114,0.7525409810970757,0.900879241052899,-0.007825429839182026,0.6471135832450446,1.0931306527586535,0.0,0.0,0.0,0.0
0.014358532467086633,-0.12125131042091399,0.741732425597746,0.01590471700033289,-0.528184512459491,-0.015663510398481052,0.8488361533400104,0.08989744303473458,-0.7567522765838726,0.8625380874466615,-0.08673049365201661,-0.8418661397547865,0.868888268486039,0.009767763486530317,0.7561148807917888,0.898967349161515,-0.007890425224311255,0.6498989870183871,1.0952316303716496,0.0,0.0,0.0,0.0
0.015022233678033901,-0.12169916341694904,0.7416183728641382,0.01652750604863409,-0.5285737407298612,-0.015560100924416106,0.8485838352301296,0.09031358305300823,-0.7559333112953152,0.8639223166899862,-0.08634785709779139,-0.8456139170868998,0.8764547802373751,0.009678998288161707,0.759222035127043,0.89809750420842,-0.00798770240069269,0.6524540786934243,1.0972205067679994,0.0,0.0,0.0,0.0
0.015634912912682857,-0.12203708232194149,0.7415024800911697,0.01698345798226373,-0.5289747780225882,-0.0155018027743252,0.8483259635786613,0.09068888187483531,-0.75532702928021,0.865487501534253,-0.08600091843307953,-0.8484716359800394,0.8826591507866134,0.009597050152146722,0.7620844891247562,0.8977885532882856,-0.008116425741930357,0.654911688799004,1.0989713382728128,0.0,0.0,0.0,0.0
0.016214059395744145,-0.12229544362187678,0.7414042755986133,0.017317363523223932,-0.5293902611630545,-0.015477206807593569,0.848060443822109,0.09103333420909297,-0.7547992525860636,0.8671576722214348,-0.08567729362979587,-0.8506171036858222,0.887868339625877,0.009512651538338407,0.7649001392800604,0.897702606239991,-0.008279352221041977,0.6574054147404854,1.100392965302291,0.0,0.0,0.0,0.0
0.016776721551530687,-0.12249655577647031,0.7413407229200273,0.017561552780622727,-0.5298279996551553,-0.015478710088683388,0.8477819838728237,0.09135525814817226,-0.7542287080099844,0.8688796340826946,-0.08536513859907437,-0.8521572276741979,0.8923512839697498,0.009416935300889464,0.7678583554538756,0.8975706857897549,-0.008481471754180594,0.6600747015278355,1.1013986864606067,0.0,0.0,0.0,0.0
0.017334339070913387,-0.1226631151565229,0.7413336234483281,0.0177487616068892,-0.5302940319851164,-0.015498551831272692,0.8474862925106952,0.09166169375676539,-0.7534582048494586,0.8705438107753497,-0.08505107636466741,-0.8531644631832641,0.8963239745188943,0.009301279402847184,0.7711513496430965,0.897077816976419,-0.008725396038949075,0.6630586766291967,1.1018639122637945,0.0,0.0,0.0,0.0
0.017884259421570948,-0.12283112648984416,0.7414215416966471,0.01793202927967267,-0.5307814174472645,-0.01552267344476401,0.8471768267768618,0.0919583718655762,-0.7522177405850126,0.8718590069848612,-0.08471681693819211,-0.8537271833549303,0.9000080419987861,0.009156650890174176,0.7749899685090922,0.8956818969973454,-0.009002546519770553,0.666485730175011,1.1015569705261026,0.0,0.0,0.0,0.0
0.01840018698292655,-0.12307218410295984,0.7416858987001395,0.01821873375272732,-0.5312499184202867,-0.015520434505793127,0.8468770383188089,0.09225046011680897,-0.7500052398363866,0.8721835431779895,-0.08433342425684835,-0.8540491260748903,0.9037760879720551,0.008971122208250982,0.7796728104196973,0.8922378213368226,-0.009278132365125353,0.6704921134590962,1.0999653241701202,0.0,0.0,0.0,0.0
0.01884306652754757,-0.12354233755945021,0.7423461982443943,0.01884144835731859,-0.5315812977012957,-0.01542374628282588,0.8466572103328525,0.09254814752520742,-0.745866655696741,0.8704131074010071,-0.08384974090462445,-0.8547089468646812,0.9087278541309847,0.00872116636366258,0.7860455173901747,0.8837381080475385,-0.009463004651993923,0.6755272635946947,1.0955470878804556,0.0,0.0,0.0,0.0
0.01934597719491369,-0.12462882295157668,0.7443077251500698,0.02033993229179243,-0.5314773596612511,-0.015079235125712772,0.8466939943036645,0.09290246473598446,-0.7374973043480277,0.8655814181500842,-0.08313453932534942,-0.8571874750082501,0.9193605254335583,0.008325498414529047,0.7989064320942346,0.8586483608669984,-0.009367195638139156,0.6849802791323605,1.0810665958839563,0.0,0.0,0.0,0.0
0.019360353252188628,-0.12545602719460852,0.7473850589804303,0.02086514758190154,-0.5304434646874095,-0.014712859894788407,0.8473357706013117,0.09317522235119369,-0.7310776487597892,0.8625661861671334,-0.08260736187414883,-0.8565618658125548,0.9260126652669061,0.0032793048428876627,0.7472528829423678,0.9464032036678051,-0.004268502881878152,0.696499834443772,1.0555552828716395,0.0,0.0,0.0,0.0
0.01951598543600044,-0.12633191689158862,0.7506290802608002,0.02143122300088732,-0.5295059515270296,-0.0143373376650093,0.8479142590656327,0.09346879009566018,-0.7239234363544942,0.8595530388912325,-0.08202988645187025,-0.8555881634475399,0.9332908891373892,-0.0016921319028077551,0.7078156520421741,1.0148408740276151,0.0005870711195660331,0.7098605130614895,1.027779399893397,0.0,0.0,0.0,0.0
0.01968405599237287,-0.12718741550931004,0.753630102147625,0.02197000397776188,-0.5286527485922381,-0.013968743787955842,0.848438839591915,0.09377627774214474,-0.717067323089653,0.8564137870395108,-0.08145263152791214,-0.8546400547566707,0.940064982179372,-0.006651290121600042,0.6783203239320605,1.070562792644129,0.0052760968704700685,0.7228235632639126,1.0013095869181525,0.0,0.0,0.0,0.0
0.019793454366243104,-0.12797338722051996,0.7563191701370495,0.0224101178517086,-0.5278522210983189,-0.013622102420680158,0.8489312443449614,0.0940841210164214,-0.7108613774221477,0.8531864844135219,-0.0809006092280536,-0.8535903290596655,0.9456909341049294,-0.011667850974820225,0.6552764678100542,1.1196631732618227,0.009896371494279785,0.7346699936542092,0.9769223326576759,0.0,0.0,0.0,0.0
0.019774489477238127,-0.12867310528673426,0.7587100895615507,0.022719455667451986,-0.5270429088500891,-0.013297423240886454,0.8494308548081851,0.0943801451983511,-0.7054299370057038,0.849748899718732,-0.08038877603109691,-0.8523749637417535,0.9498026162206386,-0.016812898281011467,0.6360579162519278,1.1653565136845243,0.014563698259675559,0.7449888094588148,0.9546734183036073,0.0,0.0,0.0,0.0
0.019542627434878324,-0.12928588290057622,0.7608250768132251,0.02288443094073935,-0.5261436954339733,-0.012985259183092237,0.8499885279340826,0.09465252419299197,-0.7008365879577418,0.845811769374387,-0.07992878481443487,-0.8509945864999274,0.9520640110033554,-0.02215972655051796,0.6189134384457714,1.2088352843310797,0.01940785832630978,0.7533410581616339,0.9345114198915946,0.0,0.0,0.0,0.0
0.018978524447571022,-0.12981786241568558,0.7626582307573959,0.022897295460614708,-0.5250520758910286,-0.012668979660237029,0.8506676956470601,0.0948871625753394,-0.697163594459329,0.8408632212593304,-0.07953350911320119,-0.8495001790872475,0.9519809573017076,-0.027784924336300722,0.6028327219245012,1.2494972739306316,0.024578217346612963,0.7590133971963907,0.9166332442083815,0.0,0.0,0.0,0.0
0.01788623275886069,-0.130302400144768,0.7640794352723715,0.02279313787387261,-0.5236331607154567,-0.012313224633545438,0.8515498636980263,0.09507360394518226,-0.6945824068482255,0.833843343819966,-0.07921209459799132,-0.8482627290726172,0.9488454009433701,-0.03376973898516419,0.5874761091193522,1.284391290061633,0.030247342393408823,0.7603440203011308,0.9025678939793416,0.0,0.0,0.0,0.0
0.016158588236802905,-0.13078177182299017,0.7651770759147443,0.022590205256911036,-0.5217332690111813,-0.011879477741031775,0.8527267772516337,0.09519955836334607,-0.6930604526570318,0.824209623651263,-0.07897897402244465,-0.8474510542682919,0.9425314230031038,-0.04019998334090173,0.5727673388592994,1.3090012495405152,0.03660044427051767,0.7570284739866828,0.8914914553247503,0.0,0.0,0.0,0.0
0.013715264610001216,-0.13133799161780935,0.7661079085925174,0.022344769200998673,-0.5191565841777953,-0.011306566330028198,0.8543121876410417,0.09525940384560978,-0.6925107295755926,0.8114664470163712,-0.07885081906196865,-0.8474648788788404,0.9334135998446225,-0.04716782389116318,0.5596848785364964,1.3156979849795614,0.04384630881483438,0.7492059660100229,0.8816367321931742,0.0,0.0,0.0,0.0
0.010513640823324472,-0.13207901632953395,0.7670690503970298,0.02212532575228864,-0.5156896073673772,-0.010515470230364086,0.8564252002944973,0.09525430416416684,-0.692878257215903,0.7952906926704426,-0.07885192360577596,-0.8488795586699691,0.922298161541727,-0.05477288554650872,0.5516727378388517,1.2936585715397872,0.052207119705340234,0.7374649448741749,0.8704958445103285,0.0,0.0,0.0,0.0
0.006446907557433044,-0.13304927565690722,0.7680704264955927,0.021891999220180508,-0.5111871277146275,-0.009448200406192042,0.859138633945708,0.09517842912057853,-0.6943216557208998,0.775072015021679,-0.07902271262882575,-0.8518411229876489,0.9088246898978226,-0.06311078532269455,0.5443472865255529,1.2531248740087806,0.061865014620555075,0.7216135140938421,0.8571547276466559,0.0,0.0,0.0,0.0
0.0014607643641511344,-0.13428543395315581,0.7691254119294193,0.02156372765084461,-0.5055173822370111,-0.008044970665850725,0.8625093972549084,0.09503461827774054,-0.6971959091945642,0.7506206257385706,-0.0794226838368957,-0.8565228640122,0.8928544584195365,-0.07228559061309445,0.5355044761444516,1.201267393495036,0.07298811709671398,0.7018992707774121,0.8402076328503001,0.0,0.0,0.0,0.0
-0.004433973167278036,-0.13579777108812396,0.77018586343089,0.021001105284609516,-0.4985952472100939,-0.00625695964648238,0.8665578939068712,0.09484112522720736,-0.7022286659020716,0.7223782595061841,-0.08013194775593699,-0.8631553589939275,0.8744283370569403,-0.08241132442414505,0.5238184672174101,1.142438782067023,0.08569927092120488,0.6788228726409501,0.8183740921521482,0.0,0.0,0.0,0.0
-0.011072260621750138,-0.1375515434471318,0.7710017637392235,0.020027891547015352,-0.490485647866607,-0.004075949101807869,0.8712095611481633,0.09466396302145529,-0.710899794916482,0.6921959183244728,-0.08123640192573951,-0.8723848624441944,0.8543289076402212,-0.09361418283791603,0.5090320825310669,1.0792425549112385,0.0999746568446708,0.6527189027338258,0.7923055834820055,0.0,0.0,0.0,0.0
-0.017800819887940668,-0.13947348315172592,0.7710638043600284,0.01853170840025727,-0.48141395016557975,-0.0015616115315152182,0.8762960377287833,0.09470374993008022,-0.7275167828501243,0.6674713548326658,-0.082857229080426,-0.8874390051148322,0.8378851677404433,-0.10605222296167152,0.4945667902879056,1.0119021430054431,0.11555106094774803,0.6237282976360129,0.7660269487987004,0.0,0.0,0.0,0.0
-0.024162437326555108,-0.1414537475098695,0.770246550317162,0.016377049682917113,-0.4717263260282073,0.0011730180544981498,0.881592133361146,0.09506362763696999,-0.7537524637062673,0.6527380674704265,-0.0850193977885328,-0.9087252741685304,0.8274168990861804,-0.1198943378888523,0.4802122645718725,0.9397158561617105,0.13220731590999046,0.5929876663664154,0.7412980343111872,0.0,0.0,0.0,0.0
-0.02962772603199204,-0.14330021045747385,0.7688543952155161,0.013372420087264842,-0.4618351878256469,0.003946895806803542,0.8868561662865909,0.09579289083737322,-0.7902811005207354,0.6527282843973393,-0.08770001454627735,-0.9351555110998485,0.824733963826417,-0.1353170614050171,0.467336484059143,0.8629078657163027,0.14969778639891682,0.5640713135282323,0.7158847232790004,0.0,0.0,0.0,0.0
-0.03333221720982441,-0.14458719758344932,0.7672612767360898,0.009390724671850197,-0.45304590202095674,0.006323674079617395,0.8914152994526681,0.09688736025612489,-0.8342385966382149,0.6709463164241916,-0.09055837506173171,-0.9621628866243378,0.8299142599617203,-0.15225322438928207,0.45895089991824867,0.7937444930136509,0.1671072088776086,0.5424168888671778,0.6907743593584553,0.0,0.0,0.0,0.0
-0.03324617095328797,-0.14473650537680377,0.7668184118091778,0.009025760430775196,-0.4530967317403221,0.00646420866555153,0.8913922264307744,0.09700638472340041,-0.8350551002239591,0.6701231588870716,-0.09075378495413139,-0.962490827097792,0.8298162174182337,-0.15353380063261796,0.4589829852161236,0.793805874571597,0.16780331593583567,0.5428218752931326,0.6906745828161073,0.0,0.0,0.0,0.0
-0.03324617095328797,-0.14473650537680377,0.7668184118091778,0.009025760430775196,-0.4530967317403221,0.00646420866555153,0.8913922264307744,0.09700638472340041,-0.8350551002239591,0.6701231588870716,-0.09075378495413139,-0.962490827097792,0.8298162174182337,-0.15353380063261796,0.4589829852161236,0.793805874571597,0.16780331593583567,0.5428218752931326,0.6906745828161073,0.0,0.0,0.0,0.0
-0.033308928953226666,-0.1445171735106162,0.7669035615356635,0.008750462316872284,-0.45473145962414,0.0062167013536602415,0.89056391217117,0.09680246510269198,-0.8243251692698268,0.6588306065570746,-0.09017001365733446,-0.9515246448274876,0.818714915512303,-0.15517947104610313,0.4609966792906876,0.8011276528342666,0.1677031593038449,0.5465279572661282,0.6933287835419374,0.0,0.0,0.0,0.0
-0.033396624664118225,-0.14418389216563277,0.7670414016234005,0.008366738194438122,-0.4559726616869371,0.0059591629960671745,0.8899345020070308,0.09657238648136923,-0.8165401007305776,0.650941363805278,-0.08978563951747538,-0.9420836047605226,0.8087425474954637,-0.15662268366332044,0.4628105357846347,0.8063155406137315,0.1676379528192712,0.5496559874434015,0.6944703069224043,0.0,0.0,0.0,0.0
-0.03348389522576451,-0.14379167934464768,0.7671836266170781,0.007925770796725368,-0.4569211056907037,0.005709622183939674,0.8894535881911878,0.09632273521469313,-0.8110739524475931,0.6457183446401326,-0.08956595857126741,-0.9340518311964257,0.7999674608453113,-0.15785986226931886,0.4642654410050635,0.8102988881849601,0.1675620125768495,0.5522732307284115,0.6947072657535757,0.0,0.0,0.0,0.0
-0.033570075779246165,-0.1433240927010159,0.7673081681081241,0.007392872088643576,-0.4576558303709627,0.005454092065548381,0.8890819643033403,0.09604663519185247,-0.8075745142028268,0.6427873932119453,-0.08949171437231421,-0.9269433271193624,0.7918707335031463,-0.1589138285152659,0.46525880426778665,0.8137878004292026,0.16746155209337055,0.5545046683039139,0.6942492492466253,0.0,0.0,0.0,0.0
-0.033660334046718705,-0.14274358553814304,0.7673999581833845,0.006710553718739459,-0.45822911214730533,0.00517066736402992,0.8887937406668044,0.09573632535330269,-0.805914001587519,0.6420430552456271,-0.08955413799904194,-0.9202832896325747,0.783865905697621,-0.15981167522627943,0.4656877885828297,0.8173361048742654,0.16733423571422382,0.5564323972179696,0.6931825273684443,0.0,0.0,0.0,0.0
-0.03375641381107863,-0.1419999970038953,0.7674456166134037,0.005807092232937399,-0.45867535523651093,0.004832667030498828,0.8885717987353814,0.09538538565330215,-0.806163766678654,0.6436451720843098,-0.08975190134448498,-0.9136538653519016,0.7754034587777221,-0.16058278576354823,0.4654423502186169,0.821433297404449,0.16718435274550747,0.5581157532220328,0.691529790986329,0.0,0.0,0.0,0.0
-0.033853808761630196,-0.14102475746449247,0.7674274296533581,0.004586748958935871,-0.4590157168847059,0.004405360535088871,0.88840538392412,0.09498850576668126,-0.808628884010215,0.6480711151414696,-0.09009179986093664,-0.9066675751877945,0.7659382538467248,-0.16125896807768017,0.4643680603238013,0.8266197011342447,0.16702097593838547,0.5595913174399306,0.6892778865261181,0.0,0.0,0.0,0.0
