zhuoxili-jackie/tripod-support-walk/examples/trajectory_tripod_com_left_tilt_v0.10.csv
root_pos_x,root_pos_y,root_pos_z,root_rot_x,root_rot_y,root_rot_z,root_rot_w,FL_hip_joint,FL_thigh_joint,FL_calf_joint,FR_hip_joint,FR_thigh_joint,FR_calf_joint,RL_hip_joint,RL_thigh_joint,RL_calf_joint,RR_hip_joint,RR_thigh_joint,RR_calf_joint,FL_foot_joint,FR_foot_joint,RL_foot_joint,RR_foot_joint
0.0,0.0,0.72963,0.0,-0.5231245161092812,0.0,0.852256264656019,0.0,-0.81,0.872,0.0,-0.81,0.872,0.0,0.65,1.0,0.0,0.65,1.0,0.0,0.0,0.0,0.0
-9.745395767352309e-05,-0.00013329189938013513,0.729594384541111,0.00019155672862888122,-0.5230594136378558,4.2326637051707896e-05,0.8522961992871363,9.503165922624569e-05,-0.8094196768907161,0.8706415275938191,9.503165922624551e-05,-0.8105514261436275,0.8722219017690194,-2.3622342610575586e-05,0.6494839873138352,0.9998160021384922,-2.3622342610578073e-05,0.6492550229377783,1.0007351918726,0.0,0.0,0.0,0.0
-0.0002174210550758798,-0.0002645229496996258,0.7295612998626191,0.00038066717506814976,-0.5229869497546951,8.354633495969228e-05,0.852340600053049,0.0001892956515961326,-0.8087605758612935,0.8690986779701444,0.00018964849225570598,-0.8110108756793254,0.8722398418941838,-5.385592753209317e-05,0.6488956838246259,0.9996198660302417,-5.3304081339207386e-05,0.6484368336157895,1.0014429167292773,0.0,0.0,0.0,0.0
-0.00033370020537105266,-0.0003652405050164014,0.7295492566943691,0.0005235615323225826,-0.5229190381038087,0.00011220248424928289,0.8523821870983179,0.00027109413271490026,-0.8081548493597246,0.8677167636641994,0.00027198210114302536,-0.8112663981922984,0.8720561616695769,-8.279244170149483e-05,0.6484102320525791,0.9993446378975684,-8.144424220603046e-05,0.6477658519634846,1.0018567640964313,0.0,0.0,0.0,0.0
-0.00043762081894849853,-0.0004367205963516661,0.7295559647156344,0.0006220685203799469,-0.5228575581798571,0.00012886853185186442,0.8524198321706591,0.0003409775793980303,-0.8076407849160123,0.86657165895957,0.0003423805343231498,-0.8113658151812084,0.8717602096645694,-0.00010908186457949434,0.6480473001098048,0.9990034262628491,-0.00010703033835049909,0.6472606441231727,1.0019991723477275,0.0,0.0,0.0,0.0
-0.0005256662342106582,-0.0004873150806195487,0.7295731584446554,0.000688825796318059,-0.5228020524103144,0.0001369585789107665,0.8524538232402578,0.00040246770401129235,-0.8072314276520794,0.8656652846561833,0.00040429420042447994,-0.8113923701582166,0.8714526279897546,-0.00013303650423797473,0.6477820238027794,0.9986384515766867,-0.00013047470385295728,0.6468842714714963,1.0019710396136248,0.0,0.0,0.0,0.0
-0.0005954328876344507,-0.0005260958391746399,0.7295923903587165,0.0007375319087016164,-0.5227515018116281,0.00014013637682894464,0.8524847821293744,0.0004594924001491265,-0.806934373429584,0.8649867625718574,0.00046166477759656177,-0.8114302961888186,0.8712303262839858,-0.00015531294638233516,0.6475846220151665,0.9982907853287579,-0.00015239272992056133,0.6465935947480087,1.0018770055910229,0.0,0.0,0.0,0.0
-0.000644479156092908,-0.0005618311232793399,0.7296056314174747,0.0007813640946582443,-0.5227043773805914,0.00014188002434194422,0.8525136381357066,0.0005160425968089083,-0.8067602787932375,0.8645295371653681,0.000518535783404365,-0.8115644836403183,0.8711911426336365,-0.00017667706633958105,0.6474260201647589,0.9979976541777867,-0.00017345546906296567,0.6463463698742177,1.0018156779736946,0.0,0.0,0.0,0.0
-0.0006704974734853961,-0.000603569655622349,0.72960380866572,0.0008338809925112393,-0.5226586690262193,0.00014573507619888244,0.8525416113571929,0.000576376617704381,-0.806723943505267,0.8642880734938786,0.0005792407089614322,-0.8118864379294668,0.8714373819335511,-0.00019802056893308394,0.6472707604739851,0.9978039161743387,-0.00019443636310021762,0.646093345252539,1.0018952402853507,0.0,0.0,0.0,0.0
-0.0006638087861637399,-0.0006662198078570745,0.7295725052998601,0.0009173219344228779,-0.5226106272355342,0.00015760322688902629,0.8525709741611973,0.0006474374862211816,-0.8068824761479476,0.8643157665661837,0.0006508638511861766,-0.812578995020809,0.8721992964019549,-0.00021981483740759702,0.6470789924903795,0.9977723616996053,-0.00021559444251709265,0.6457724972302097,1.0022830359062562,0.0,0.0,0.0,0.0
-0.0006183182821027942,-0.0007643932088815502,0.7294948990159001,0.001053394650760225,-0.5225505006866028,0.000182802034217876,0.8526076654448439,0.0007374719168745835,-0.8073182550368339,0.864668988970607,0.0007418498043735668,-0.8138484262044801,0.8737060785090205,-0.00024485682814925176,0.6467739305708814,0.9979795583552271,-0.00023944852635889876,0.645283449069927,1.0031570041786866,0.0,0.0,0.0,0.0
-0.0005615115208133074,-0.0008942796900861464,0.7293614077997592,0.0012363311736288145,-0.5224598438440542,0.00021814992268309684,0.8526629671014725,0.0008496211660327785,-0.8080387860503113,0.8652065222959601,0.0008554682481878883,-0.8156739502741351,0.875771746447612,-0.00028297107367647825,0.6461816205170097,0.99851263843349,-0.00027569871880068846,0.6444505396684842,1.0045733016634024,0.0,0.0,0.0,0.0
-0.0005271894864445741,-0.0010491141030951985,0.7291621481569658,0.0014556370236430405,-0.5223083681521967,0.00025826873500561326,0.8527554063014231,0.0009888295225986797,-0.8091021086434564,0.8658095952076705,0.000996787044852009,-0.8180623752277097,0.8781980105117612,-0.00034851050294062335,0.6450774210468264,0.9994529532131231,-0.0003386749974767637,0.6430475794605452,1.0065594235878548,0.0,0.0,0.0,0.0
-0.0005761073852359995,-0.0012030287587540755,0.7289095161685782,0.001672211165137665,-0.522058081448083,0.0002891027378621488,0.8529082481276477,0.001154202242703244,-0.8104777394016143,0.8662089143196231,0.0011647584727849888,-0.8207752806466163,0.8804139770019205,-0.00046222288625539463,0.6432338285370635,1.0007535930306155,-0.00044972372279321175,0.6408672331273116,1.0088793862572645,0.0,0.0,0.0,0.0
-0.0007877773827833642,-0.001309125838107983,0.7287636446668746,0.001825573084138724,-0.5218783385236467,0.00030708820321619784,0.8530179205383366,0.0012735723322503324,-0.8104079983171014,0.8646334334444159,0.0012863478709722596,-0.8216585583288524,0.8801269271867769,-0.0005887304243545925,0.6415745006282475,1.0015296963658629,-0.0005744315526920512,0.6389451290778453,1.01034936587525,0.0,0.0,0.0,0.0
-0.0008090885720945264,-0.0010033515450666726,0.7289702555022235,0.001825335803466169,-0.5223131919061286,0.000642859775877568,0.8527515373432902,0.0029500538106979517,-0.823957389151697,0.8615747120552998,-0.0004249881847639223,-0.8170656443657259,0.8756660396626793,-0.0005362112869393274,0.6429520177311362,1.001301489751794,-0.0005206753544055786,0.6416967587401551,1.0086915090586013,0.0,0.0,0.0,0.0
-0.0008085093429726976,-0.0005708514470335515,0.7292668690045637,0.001664707044590335,-0.5227917161922532,0.0009568837319218781,0.8524582890703438,0.004682890809815275,-0.844360951116313,0.8553497909439497,-0.002285332541382682,-0.8114982230144093,0.8702854338529915,-0.000473293383145576,0.6448195360569722,1.0007498009613272,-0.0004574196644816031,0.6451867552694077,1.0058637689276908,0.0,0.0,0.0,0.0
-0.000791955499488012,-0.00013947973203340142,0.7295234876577723,0.00150868229774592,-0.5232197150527649,0.0012704660614071062,0.8521955406911108,0.006438494236099193,-0.8671698771851657,0.8470242103862525,-0.0041334974410161245,-0.8064337868713924,0.8653773914863983,-0.0004303801547197712,0.6464203764960922,1.0004333431857824,-0.000412595785619417,0.6484010494302886,1.0032672641972886,0.0,0.0,0.0,0.0
-0.0007423770052389755,0.0002571287552872334,0.7297048256118802,0.001404567025017761,-0.5235920622796627,0.0015948079412098923,0.8519664524480014,0.008221718133446224,-0.8902618892215894,0.8377194222891678,-0.005949750213478227,-0.8022559177276544,0.8614169915958868,-0.00040511447717855463,0.6476461602444653,1.0005332604841084,-0.00038316852132096033,0.6511781909907347,1.001318443990204,0.0,0.0,0.0,0.0
-0.0006461360730526165,0.0006242265712541571,0.7298161057196844,0.0013466173127957913,-0.5239158542112478,0.001930816042879286,0.851766773405326,0.01004172411248528,-0.9128270090295968,0.8278365565931247,-0.007749800759428627,-0.7989657352731623,0.8584896767200945,-0.0003916872092475322,0.6485716457714085,1.0010227362293198,-0.000363492091677351,0.6536078494149452,0.9999624432465721,0.0,0.0,0.0,0.0
-0.0004931985696029264,0.000979532568385498,0.7298750043896499,0.0013123722159867877,-0.5241987430927135,0.002276054030236962,0.8515919063713778,0.011909514325405629,-0.934734734071362,0.8173902425718682,-0.009559239920191769,-0.796445808549825,0.856539920632595,-0.00038499014679816134,0.6493129541926197,1.0018066383071655,-0.0003487288282272598,0.6558428988087376,0.9989891302317393,0.0,0.0,0.0,0.0
-0.0002756285795803994,0.0013416067719039951,0.729898903274284,0.0012787062758551297,-0.5244456824791411,0.002628064910433145,0.8514388905341795,0.013837875245173804,-0.9560737279427183,0.8062872012104273,-0.01140417435323068,-0.794577364107041,0.8554933741365311,-0.0003813731273886426,0.6499716839270462,1.00279021777549,-0.00033544428927084736,0.6580233468552624,0.9981817260417488,0.0,0.0,0.0,0.0
1.1859639571241043e-05,0.001726225385549153,0.7299002221999615,0.0012265606823644907,-0.5246565595618852,0.0029851140696566083,0.8513078639079811,0.01584152355617872,-0.9768135135974896,0.7944967943339087,-0.013307901610741735,-0.7932829813522869,0.8552962573094212,-0.00037927026056873956,0.6506077389076093,1.0039055772063792,-0.0003222358648163454,0.6602416948830254,0.9973685427909991,0.0,0.0,0.0,0.0
0.00036842932040391063,0.002146322975520303,0.7298855337138923,0.001140810857715969,-0.5248245090614008,0.003345931313243539,0.8512031120612128,0.017937307346474928,-0.9965316348873811,0.7821986280031215,-0.015290486658781553,-0.7925218827339879,0.8558927592682898,-0.0003800927649683245,0.6512206770740954,1.0051197304250215,-0.0003106489724211951,0.6625229162333308,0.9964316170643475,0.0,0.0,0.0,0.0
0.0007806006563711776,0.0026120968774804776,0.729855416036816,0.0010103794786978635,-0.5249363769452046,0.003709897554250127,0.851132783972682,0.02014460516636568,-1.0141940543416736,0.7699901399371468,-0.017369857089077404,-0.7922522523295266,0.8571551863229042,-0.0003890938118022672,0.6517305405254076,1.0064434311129178,-0.0003060217229997296,0.664805312656785,0.9953156025548763,0.0,0.0,0.0,0.0
0.0012149072630503565,0.0031286605939476455,0.7298026095543285,0.0008326247120025518,-0.5249815037184222,0.004079102522771083,0.8511034534134154,0.022484798459699216,-1.028056834157667,0.759187449903439,-0.019564170110411654,-0.7923545988807514,0.8587741845363924,-0.0004141882583243031,0.6519702685463127,1.0079642814750416,-0.00031611654035676397,0.666932324709048,0.9940797174200214,0.0,0.0,0.0,0.0
0.0016780987958846727,0.0036616987771798675,0.7296933797282662,0.0006618895194364428,-0.5249452497369052,0.004469864396079079,0.8511240021249565,0.024987840313921563,-1.035808982516119,0.7519009726708368,-0.021871449145988195,-0.7932057625335134,0.8611630034294978,-0.0004595489248917649,0.6517821143879835,1.0098312376544116,-0.0003436529423100178,0.6686988138617633,0.993120825914212,0.0,0.0,0.0,0.0
0.0020983097567040237,0.004218755186568175,0.7295363377370538,0.000501926837380694,-0.5248673112069214,0.004894242582868203,0.8511698420911109,0.027682875950102694,-1.0357752044356925,0.7511842234631112,-0.02434464006329395,-0.7941129260768944,0.8632833935965392,-0.0005260761426720623,0.6510801072169982,1.0121265195334461,-0.0003887148731797655,0.6700581223628489,0.9924945239433424,0.0,0.0,0.0,0.0
0.0024729606595742253,0.004808461959897347,0.7293359411294059,0.0003486015082225546,-0.524750784934422,0.00535752185616278,0.8512389729959838,0.0306014820931235,-1.0279223165459543,0.7569625730797231,-0.027017282126994554,-0.7949923900831769,0.8650381006173369,-0.0006140343956259998,0.6498724786417052,1.0148405068620954,-0.00045088191608429743,0.6710473804720443,0.992146670888524,0.0,0.0,0.0,0.0
0.0028628744814953168,0.005449075361815454,0.7290994608796206,0.0001770070887715672,-0.5245644773792286,0.005854664923944753,0.8513505744632911,0.033776983153039744,-1.0138539626860377,0.7661454975704025,-0.029909451908157702,-0.7962536007577854,0.8671154945762363,-0.0007229818878210679,0.6482791366808988,1.0178462219579512,-0.0005294729452922812,0.6718173038999362,0.9918260978231009,0.0,0.0,0.0,0.0
0.003266635708063512,0.006204467179390723,0.7288836333131696,-9.289233217827647e-05,-0.5243324322344523,0.006376288060191631,0.8514897737663627,0.037243981849329706,-0.9956912033379862,0.7765557629846492,-0.03310066564878871,-0.7972757831456992,0.8688806284367872,-0.0008468160171228575,0.6465725782755587,1.0208836572342215,-0.0006181045880995049,0.6727686432325513,0.9908443132801916,0.0,0.0,0.0,0.0
0.003708640819756041,0.0071164688351273,0.7287346456936317,-0.0005063671571424503,-0.5240814891036667,0.006923719618152269,0.8516398290814226,0.04104752210461602,-0.9749032009297919,0.7867432053341747,-0.036666379163486154,-0.7976857521620779,0.8700987008887302,-0.0009758038720488285,0.6450715857677768,1.0236930407863183,-0.0007049287703694614,0.6743247502417478,0.9886661624178226,0.0,0.0,0.0,0.0
0.004188887328363659,0.008231852291226839,0.7287039985558937,-0.0011110179695345591,-0.5238473971042223,0.007500933653016353,0.8517783785589627,0.04523880917473016,-0.9521780347007208,0.7958450898846918,-0.040695020237995864,-0.7968836496088935,0.8701908775476817,-0.0011022211429366378,0.6440643540089644,1.026019990456853,-0.0007782862122433917,0.676897924676127,0.9847262244798497,0.0,0.0,0.0,0.0
0.004696064010713645,0.009593352145852174,0.7288430334666917,-0.001943636771515001,-0.5236705468278924,0.008117657081573498,0.851879970597139,0.04987703420459756,-0.9275681316078147,0.8032380917681493,-0.04528066539015628,-0.7941931338240226,0.8684516821115182,-0.0012201170623611592,0.6438174407329049,1.0276115454063721,-0.0008253904469909336,0.6808880711574214,0.9784820508221889,0.0,0.0,0.0,0.0
0.005220977592527995,0.011213651827300641,0.7291819804291748,-0.002991858214487784,-0.5236027137612267,0.00879931594237499,0.8519118610309693,0.055030587476902926,-0.9007975100386019,0.8082769550960184,-0.05050918486658386,-0.7890685929911785,0.8643259288250961,-0.0013221058818316694,0.6445526053376552,1.028315212818569,-0.0008284388005520835,0.6866246347588243,0.9696933861498205,0.0,0.0,0.0,0.0
0.005761478753915769,0.013018037912578466,0.7296739666967715,-0.0041113920349966585,-0.5237269499584021,0.00960808537198146,0.8518220841456792,0.06077801841171002,-0.871662155849535,0.8101532651000769,-0.05643106324443141,-0.7814369465645065,0.8577802009521127,-0.0013923696811547397,0.6462868622927547,1.0284274069238144,-0.0007604962981578567,0.6941098620850109,0.9591949883861959,0.0,0.0,0.0,0.0
0.006282777788627079,0.014713285932498786,0.7299767406603198,-0.004848712581486884,-0.5241844335329718,0.010681731898645788,0.8515239692643214,0.06721013061011584,-0.8406588998816722,0.8077514899473073,-0.06298791025190585,-0.7726384499662748,0.8499360551028746,-0.0013978790857577638,0.647842220785645,1.0303338355618645,-0.0005894364827716364,0.701730016496609,0.9515931117780544,0.0,0.0,0.0,0.0
0.006762636437754485,0.016056864591678377,0.7299625398066022,-0.004846132014842893,-0.5249801580111569,0.012109525731788542,0.851014516965267,0.07438990906427634,-0.8070349889217444,0.7961383751468285,-0.07007431980909366,-0.7640771659047446,0.8423362010156551,-0.001344461182920366,0.6487203172288205,1.0344353040336742,-0.0003336117935371208,0.708531088124748,0.9491424831964619,0.0,0.0,0.0,0.0
0.007053487244996191,0.016714829497083146,0.729596781958421,-0.003695851567049576,-0.5257767451127343,0.013910258965300378,0.8505008287329128,0.08224476574275025,-0.7698097203066817,0.7636123924485251,-0.07726090609248827,-0.7587807422832689,0.8378355763611741,-0.0013725956054889666,0.6477241281757957,1.0395608843723974,-0.00014316630594546915,0.7125493814801115,0.9529003381286418,0.0,0.0,0.0,0.0
0.0071101103646512,0.016822435103804125,0.7295696517336836,-0.003738155016706037,-0.5257302187710108,0.013979000719038756,0.8505282774881463,0.08277669365924141,-0.7695883504919044,0.7636315016829642,-0.07767877006478213,-0.7588494864394493,0.8379376796606356,-0.0013902858373172713,0.6474970134509496,1.0398902080985357,-0.00010444738004217384,0.712731543164354,0.9526021867936652,0.0,0.0,0.0,0.0
0.0071101103646512,0.016822435103804125,0.7295696517336836,-0.003738155016706037,-0.5257302187710108,0.013979000719038756,0.8505282774881463,0.08277669365924141,-0.7695883504919044,0.7636315016829642,-0.07767877006478213,-0.7588494864394493,0.8379376796606356,-0.0013902858373172713,0.6474970134509496,1.0398902080985357,-0.00010444738004217384,0.712731543164354,0.9526021867936652,0.0,0.0,0.0,0.0
0.007356641009276345,0.01682039561221452,0.7292349846910412,-0.0037235926858645084,-0.5253725936471958,0.013965330202396124,0.8507495179277308,0.08294256363312383,-0.7742221348674622,0.7690431964305476,-0.0777760043452763,-0.7634203592618098,0.8431982304936382,-0.001591822323164488,0.6457863454105792,1.0419063795858488,-0.0003187040488714098,0.710851514262912,0.954690825126571,0.0,0.0,0.0,0.0
0.007679952347487082,0.01679455914058082,0.7289053065859004,-0.003661868817310857,-0.5252111583855117,0.013977665657486048,0.8508492549722785,0.08304921132763056,-0.7779151274541137,0.7738058425948904,-0.07789748802398645,-0.767292850347156,0.8481904518071675,-0.0017366004226612394,0.6448533791661697,1.0440885578701047,-0.00046764441973823204,0.7097554691386596,0.9571630980037917,0.0,0.0,0.0,0.0
0.008043537864711495,0.01680377475291879,0.7286098641375183,-0.003643195332953876,-0.5251818394724562,0.013988810567944574,0.8508672492198693,0.08308607522133575,-0.7810973538914522,0.7783781974625033,-0.0780511222455511,-0.7702937833561933,0.8524944986162614,-0.0018457990686210138,0.6445285472363322,1.0462763253410612,-0.0005753834462655404,0.7093560758299315,0.9594105453857071,0.0,0.0,0.0,0.0
0.008442583849636046,0.01687302886459199,0.7283471466582286,-0.0037062224627566814,-0.5252521888373176,0.013987202330730688,0.8508235776044424,0.08305213426748503,-0.7840863204276832,0.7831195754309025,-0.07824468531750794,-0.7724853409229775,0.8561035841383926,-0.0019280390778731336,0.6446949909426376,1.0485013674378778,-0.0006515306815973787,0.7095663783655942,0.9612833235747519,0.0,0.0,0.0,0.0
0.008879752652466206,0.017021166006444464,0.7281133832360462,-0.003880227350844309,-0.5254023669858788,0.013964545315769865,0.8507304438395663,0.08294603926007679,-0.7871325757858747,0.7883343584722575,-0.07848617343926523,-0.7739259330169721,0.8590499043924805,-0.001987454805161871,0.6452844978250201,1.0508113794271379,-0.0007002871051823372,0.7103389891834399,0.9626976595767104,0.0,0.0,0.0,0.0
0.009359710909782557,0.017272120911435578,0.7279111245029549,-0.004202392859800063,-0.5256150636192584,0.013910649699269854,0.8505984003134023,0.08276373192309232,-0.7904863661444477,0.7943555101491162,-0.07878496628188124,-0.7746221333895467,0.8613217468347973,-0.0020269979318968457,0.6462688529434337,1.0532162129977485,-0.0007237690235160108,0.711673767464403,0.9634957390168795,0.0,0.0,0.0,0.0
0.009894790800876067,0.01766681491220362,0.7277544324949069,-0.004736075424229751,-0.5258701824635779,0.013808435959400355,0.8504395615689891,0.082496185060422,-0.7945092477006943,0.8017222033563111,-0.07915577611844707,-0.7745169442451584,0.862865534047105,-0.002048815273349088,0.6476809067927944,1.0556634626855674,-0.000721542039555811,0.713656291364014,0.9633337869954103,0.0,0.0,0.0,0.0
0.010496281311485904,0.01826364064548332,0.7276709699491022,-0.005572174908737364,-0.5261378817187677,0.013632980150032063,0.8502717342941039,0.0821298832279003,-0.7996548891983276,0.8111147383202747,-0.07961591066531487,-0.7734748939028311,0.8635290597974645,-0.0020584618031413496,0.6495799571561718,1.0580177991251014,-0.0006931860077238547,0.7164218522701693,0.9616547672772245,0.0,0.0,0.0,0.0
0.011184676721431499,0.019136180926608414,0.7277006925733271,-0.00682571952060995,-0.526377922913571,0.013352451032756688,0.8501184646116319,0.08164873907959722,-0.8065092546230221,0.8234292628034118,-0.08018534323683986,-0.7713496082523559,0.863179882589948,-0.0020651931040347876,0.6520766444124855,1.0600522826203456,-0.0006345241302757391,0.7201815677857145,0.9576893488567386,0.0,0.0,0.0,0.0
0.011997817315201742,0.020346530741927542,0.7278813222013694,-0.00859507199207626,-0.5265456602087005,0.012939016817250865,0.8500049260425715,0.08104310518115002,-0.8156796381063437,0.8396028320722743,-0.08087949075886293,-0.7681564828394593,0.8619429067871226,-0.0020822874198172634,0.6553220160123601,1.061491620907796,-0.0005326648282841392,0.7251824391106757,0.9506789279567801,0.0,0.0,0.0,0.0
0.012921232114119389,0.02182072886593448,0.728193532220802,-0.010771260496506422,-0.526624559418446,0.012418925480883924,0.8499390117264557,0.08034051282813962,-0.8267261517512212,0.8588179091834212,-0.08166131360320202,-0.7642956001512387,0.8602385361515511,-0.0021318668142810207,0.6591897465886305,1.0622453093806632,-0.00037923765556499057,0.7312128244037357,0.9410035096055508,0.0,0.0,0.0,0.0
0.013741931311417968,0.023036825392359146,0.7283737160840817,-0.012561556280957429,-0.5267505975701714,0.012000372982191306,0.8498423420326595,0.07970055155263987,-0.8357659815344425,0.8745182252836922,-0.08233736389781579,-0.7612194660440548,0.8590756529632085,-0.0022145107287124223,0.6624326059723326,1.063510096126516,-0.00021604620782886727,0.7362410076929512,0.9336724937055684,0.0,0.0,0.0,0.0
0.01448531211652391,0.02390920190632362,0.728403882254636,-0.013831613150742824,-0.52698132958927,0.011722467167244044,0.8496834401737428,0.07916176508522839,-0.8423990453848792,0.8863717512717482,-0.082898541775215,-0.759237560884068,0.8590623494256279,-0.0022814250923715567,0.6652170617305927,1.0652805478627443,-5.5559948154483205e-05,0.7402855000449394,0.9293760845358671,0.0,0.0,0.0,0.0
0.015148085222431398,0.02451299807790959,0.7283348526614022,-0.014695126206390545,-0.5272851077486033,0.01155334395079484,0.8494827771390522,0.07871323326979414,-0.8471245698860705,0.8951995357610498,-0.08336696617509286,-0.758024653017872,0.8598020721774067,-0.002323913902352374,0.6676314368705621,1.0673041333258202,8.618788942534695e-05,0.7435349828342475,0.9273318160830416,0.0,0.0,0.0,0.0
0.0157408821733607,0.024928843338753507,0.728215302949677,-0.015274214597011908,-0.5276260831606815,0.011458699310880248,0.8492620990878286,0.07833678503384534,-0.8505020952817838,0.901895881865417,-0.08376511007113609,-0.7573141328649861,0.8609998085340141,-0.0023447884532679627,0.669788598129358,1.0693348409163181,0.0002066237362768301,0.7462349892288879,0.9266825517327458,0.0,0.0,0.0,0.0
0.01627471422175517,0.025218654358600913,0.7280793087327219,-0.015662728889853376,-0.5279795155578143,0.011412460350587014,0.8490359626210217,0.07801472530084429,-0.8529460115184541,0.907119591260758,-0.08410998477587533,-0.756903211786295,0.862436626929797,-0.0023491107781151667,0.6717774693512573,1.0712133698511823,0.0003092621583868311,0.7485822114559364,0.9267910459910051,0.0,0.0,0.0,0.0
0.016762963381805916,0.025421222790439294,0.7279467869070148,-0.015919222076320766,-0.5283357150864727,0.011399025773490622,0.8488097623990699,0.07773320118709101,-0.8547128812648779,0.9113027046791425,-0.08441392550385757,-0.7566657658102289,0.8640057425356937,-0.0023385408981831256,0.6736828124777507,1.072854751084201,0.000400712224764392,0.7507312431884525,0.9272730528375787,0.0,0.0,0.0,0.0
0.01722344057940138,0.02555504130628729,0.7278267107095286,-0.016070948682289046,-0.5286995111323153,0.011412163012165792,0.8485801753943382,0.07748256456050945,-0.8559287239455181,0.9147071692826485,-0.08468609365714869,-0.7565447896855506,0.8657156030473907,-0.0023095483498356485,0.6756036374511918,1.0742246799203918,0.0004895333516544326,0.7528176431849318,0.9279534830409872,0.0,0.0,0.0,0.0
0.01767713434832394,0.025624319154718373,0.7277213423994925,-0.016122866289483007,-0.5290865233169911,0.011452312605178655,0.8483374025486226,0.07725609648670927,-0.8566237021503008,0.9174755281904641,-0.08493359920007411,-0.7565262893018789,0.8676520203317512,-0.0022543627600818635,0.6776558711742692,1.0753154210352664,0.0005853623549271771,0.7549717422094084,0.9287943307105838,0.0,0.0,0.0,0.0
0.018144054397448522,0.025627088147845426,0.727631717329499,-0.016069977521051125,-0.5295169171022794,0.011522835487632872,0.8480688737285996,0.07704775388101451,-0.8567701027268377,0.9196749973146597,-0.08516227566489097,-0.7565982993035133,0.8699085822509195,-0.0021637646403380876,0.6799633463511288,1.0761173487002953,0.0006977623697213019,0.757323736980171,0.9298016134115757,0.0,0.0,0.0,0.0
0.018635800088990923,0.025567163245093023,0.7275659226590626,-0.01591580635887104,-0.5300054214111863,0.011624398695181665,0.8477651878543215,0.07684870116206419,-0.8563343231098974,0.9213513089755835,-0.08537739154109998,-0.7566874031284756,0.8724752506455151,-0.002031994982278749,0.6826385344905237,1.0765769016715652,0.000834320330403152,0.7600034507045399,0.9308893671927669,0.0,0.0,0.0,0.0
0.019144707703808876,0.025473786103403766,0.7275533993727754,-0.01570312998065198,-0.5305450314129231,0.011745786278426052,0.847429889640773,0.07664183550364961,-0.855366755112427,0.9226289550708376,-0.08558494339032162,-0.7565587789013091,0.8750685014636893,-0.0018646034853084213,0.6857578181572154,1.076521356663752,0.0009975570375614202,0.7631444169925369,0.9316523023032873,0.0,0.0,0.0,0.0
0.019633805493903075,0.025435858047688647,0.7276748892892624,-0.015567748310029396,-0.5310804432270333,0.011848278601400197,0.8470955237330186,0.07639289060254367,-0.8541784564541176,0.9239567456049225,-0.0857952776425416,-0.7556605928637546,0.876906887689079,-0.0016900192888403185,0.6893727295134737,1.0754773643765345,0.0011806526838345154,0.7669450257249929,0.9309184157185338,0.0,0.0,0.0,0.0
0.020054000136745073,0.025667534462902035,0.7281568056567952,-0.015838826878961248,-0.531459476555948,0.011837281846270788,0.8468529005089773,0.07603517905054683,-0.8537317274319179,0.9268659535039634,-0.0860342395293318,-0.7528776212966023,0.8765698179076583,-0.001576618395526306,0.6938163185285218,1.0719566004179562,0.001363713720452388,0.772097322516677,0.9254848587992995,0.0,0.0,0.0,0.0
0.020532916303620388,0.02665845825519887,0.72984838134163,-0.01724201274230501,-0.5313259549433397,0.011508952790538108,0.8469138011662152,0.07541897430238075,-0.8564048073614031,0.9367336660767493,-0.08638721008689967,-0.7458636126710156,0.8727176992130682,-0.001653252264574855,0.7020443932710392,1.0593270387402056,0.0015305287832739515,0.7826470278354619,0.9044015134939696,0.0,0.0,0.0,0.0
0.020569023890835866,0.027557912725880096,0.7323066648542422,-0.018259681537154064,-0.5304926307689537,0.011134887840672899,0.8474197112427654,0.07494716119227496,-0.8574395538872798,0.943998606485001,-0.08659659960139682,-0.7392586624392504,0.8684453031175072,-0.003912843835173959,0.7108673926800514,1.0392110776451082,0.003393588453115174,0.7410937521796996,0.9701657502245424,0.0,0.0,0.0,0.0
0.020739768345413023,0.028524979499305735,0.7349414715732119,-0.01935094122572025,-0.5297290441675817,0.010746756192902157,0.8478780502350024,0.07441353454878827,-0.8583350295397953,0.9521323008267206,-0.08683551117140835,-0.7319393777204172,0.8641653278977649,-0.006068024183622773,0.7213558114057247,1.0170826582004693,0.005282697670318452,0.7090425301069412,1.0216603256091412,0.0,0.0,0.0,0.0
0.021029841072533917,0.029485743302006078,0.7374234942856099,-0.02042976865622405,-0.5290765762839587,0.010370263746064609,0.8482647338007956,0.07386640265730286,-0.8594594318575216,0.9606772949971428,-0.08710509573739601,-0.724960387601002,0.8604704274097453,-0.008101672985764596,0.7321243693482689,0.9957156879002391,0.007217861130231422,0.6854165265121454,1.0639438831721792,0.0,0.0,0.0,0.0
0.02135493779474553,0.030349702258775254,0.7396682780694239,-0.021362750488589096,-0.5285497769696017,0.010038966394587305,0.8485740894646,0.07333980704880182,-0.8602005929814805,0.9683492778705599,-0.08737361369882721,-0.7185683565913445,0.8572825977504596,-0.01006195552640856,0.7425186316820164,0.9759008322438036,0.009225927246386902,0.667469654002608,1.1016190543537585,0.0,0.0,0.0,0.0
0.021695584857171053,0.03110190218041897,0.7416762109310663,-0.02212962339540871,-0.5281320270442155,0.009756271874254846,0.8488177996117077,0.07284668043345531,-0.8605413737305069,0.9750397067478908,-0.08763612532761536,-0.712871572927378,0.8546795471686062,-0.011989156775335992,0.7523687147846281,0.9577458852955836,0.01133529065460514,0.6531158579382808,1.1373008619014366,0.0,0.0,0.0,0.0
0.02203808751427614,0.031745370886368404,0.7434671846478641,-0.022734824313374632,-0.527800431607275,0.009518316101276231,0.8490107383403407,0.07239193545228738,-0.8605339950233757,0.9807951578933054,-0.08789141189813417,-0.7078876438876139,0.8526615584503754,-0.013924582601322549,0.7616096483291227,0.9411785402011367,0.013576167725533606,0.6409293968229621,1.1723728130995235,0.0,0.0,0.0,0.0
0.022362066405703273,0.032281710042746554,0.745056831028053,-0.023178721935287038,-0.527530943388118,0.009321607713276586,0.849168392162078,0.07197951665655647,-0.8601995364819907,0.9855856090003104,-0.0881372757916939,-0.7036263872512631,0.8511779769635485,-0.015912360587293912,0.7701489455320671,0.9261394030417848,0.01598079717886569,0.6300457088285971,1.2074319844196109,0.0,0.0,0.0,0.0
0.022635351914020704,0.032705750590119896,0.7464506690224838,-0.02344987153649363,-0.5272989108648308,0.009164946357493035,0.8493067560569322,0.07161479238045752,-0.85950161092422,0.989238739239002,-0.08836905248773742,-0.7001107541069987,0.850128318379133,-0.018002030131899743,0.777819107694647,0.9126446367063415,0.018583834385282088,0.6199923400805777,1.2424804890035297,0.0,0.0,0.0,0.0
0.02282232459428285,0.03301492137076738,0.7476472326937131,-0.023539870725813098,-0.5270746304759771,0.009045512753622174,0.8494447522316259,0.0713025893860028,-0.8584454841392745,0.9915967669842398,-0.08858321472529193,-0.6973872799283163,0.8493999500539526,-0.020247854592258155,0.7843974773312371,0.9007751056232154,0.021422831145657684,0.6105412128634985,1.276915994521291,0.0,0.0,0.0,0.0
0.022863579937724875,0.03320878610950118,0.7486373755971064,-0.023441325932389703,-0.5268128061524383,0.008957677316958195,0.8496108118011506,0.07104818157757281,-0.8570389076046363,0.9923827864359279,-0.08877329388937169,-0.6954975039284622,0.8487389663330503,-0.022721233041020594,0.7895079222222545,0.890700590428695,0.02453886512374791,0.6015773148551624,1.3092099390084881,0.0,0.0,0.0,0.0
0.022667385409259305,0.03329797104022947,0.7494070089248729,-0.0231600796317268,-0.5264393536442048,0.008888007206176062,0.8498507051088602,0.07085618370848533,-0.8553522766643672,0.9912383960988763,-0.08892990081893118,-0.6944635471734434,0.8476769821683756,-0.025519677295067555,0.7925683246782873,0.8826709835801918,0.02797718476985104,0.5931472554907115,1.3363573011168726,0.0,0.0,0.0,0.0
0.022109963104687047,0.033314619229987984,0.7499436414285665,-0.022729208816462954,-0.5258407836621095,0.008809948762578092,0.8502336373650462,0.07072916201547641,-0.8535951848791307,0.9878248278661277,-0.08904248059331601,-0.6942794560281247,0.8455079428007972,-0.028771796975684473,0.7927970425253628,0.8769525367732185,0.03178788023428189,0.5858488870471625,1.3531056095358107,0.0,0.0,0.0,0.0
0.02106466420692986,0.03331873821406552,0.750257178557559,-0.022216186106692293,-0.524870998510243,0.008682228998714295,0.8508475156556239,0.07066610236348721,-0.8521623179353662,0.9820428240913838,-0.0891047381544179,-0.6949075547482969,0.8414402139911287,-0.03262671053314753,0.7894432574489697,0.873569013742874,0.036026527264841464,0.5816778559793524,1.3516155688340392,0.0,0.0,0.0,0.0
0.019432496128613502,0.03336009807483039,0.7503962474647673,-0.021663025664232838,-0.5234062238649353,0.00846872297950366,0.8517657652603892,0.07066776560002011,-0.8512437431822273,0.9737578582112332,-0.08911008838587654,-0.6962287895491207,0.8347987282300946,-0.0372208372476805,0.7821578668991717,0.8720146019019028,0.04074992497557598,0.5803794830639535,1.3315146397854754,0.0,0.0,0.0,0.0
0.01714316412236176,0.03347969698711565,0.7504463676045847,-0.02108650761913921,-0.5213410048571748,0.008136373123899383,0.8530490696808289,0.07073945938498588,-0.8508546927525656,0.9628267441475319,-0.08905158721946316,-0.6980654380310827,0.8250387314204306,-0.04268240600993589,0.7709979290451748,0.8712319530217949,0.046016613204599696,0.5794348259600047,1.2998567550045252,0.0,0.0,0.0,0.0
0.01413478378788687,0.03374667822336523,0.750514638604107,-0.020529095589926147,-0.5185366226597434,0.007633917215319874,0.8547748536912139,0.0708908818834041,-0.8512268184292349,0.9494142161298815,-0.08892730022195311,-0.7002624714616492,0.8116141772618171,-0.049163664519639765,0.7561475198048285,0.8697990743171938,0.05189216354843515,0.5776148945716348,1.2611202616199448,0.0,0.0,0.0,0.0
0.010342828833016555,0.03424410612775675,0.7507051676910629,-0.02003099870198407,-0.5148289058414027,0.006895896245713504,0.8570311566192408,0.07114283332185818,-0.8527248756997973,0.9337965477532355,-0.08873714809350575,-0.7027489860798696,0.7939693505805864,-0.05683904771371172,0.7378178169365918,0.8661143138671729,0.058449891276514676,0.5740786464272039,1.2176042892168903,0.0,0.0,0.0,0.0
0.005726058391834895,0.035045657833010405,0.7510971471273251,-0.019591712611765434,-0.5100619640159488,0.005854211509790285,0.8598945783459327,0.07153271332141231,-0.8557467969556805,0.916307829388829,-0.08848526231964676,-0.70565340978777,0.771794305469651,-0.06587846742176146,0.7163651239062055,0.8584871350539037,0.06577178138922662,0.567936707844832,1.1703542998332557,0.0,0.0,0.0,0.0
0.00032007058202068814,0.036188610879940505,0.7517132525957062,-0.019137283872523052,-0.5041408795562828,0.004456010420479407,0.8633978699865621,0.07211632618179338,-0.8606932622535164,0.8974709060957208,-0.08818839305371726,-0.7094948631699214,0.745515801872988,-0.07640083815931342,0.6924710220901612,0.8453519900376084,0.07394948125654144,0.5582601745473776,1.1200517988535246,0.0,0.0,0.0,0.0
-0.005666862604770763,0.03764771438195243,0.752454494724415,-0.018515113911717698,-0.49709553978728344,0.0026896069417715433,0.8674940811872576,0.07296422076435333,-0.8682781337003972,0.8786424619060518,-0.08790079932057605,-0.7156669554336857,0.7173347694325403,-0.0883995367429032,0.6671723573023279,0.8260050540488816,0.08308578589855305,0.5447361447332572,1.0677037012423634,0.0,0.0,0.0,0.0
-0.011711644415686825,0.039279125441816234,0.7528760650585999,-0.017493222543813025,-0.48911359433891033,0.0006278658337388967,0.8720444282159019,0.07419397589364343,-0.8807871909716509,0.8635655247960694,-0.08776333624787663,-0.7281971016098773,0.6938590030159577,-0.10166793573016629,0.6407460557177871,0.8033854153581355,0.0933070319030886,0.5301291075057573,1.01289680339249,0.0,0.0,0.0,0.0
-0.01738860480012822,0.04100689502764684,0.7524719087112327,-0.016023981684521165,-0.4805690818671881,-0.0016375587455286498,0.8768089346976665,0.07580759825416719,-0.8997740810385422,0.8549842956193147,-0.08791892829078556,-0.7494350949242639,0.679506716486682,-0.11590181856372189,0.6123116930694277,0.7832684392001525,0.10475961272849775,0.5154556339830211,0.9534736572000979,0.0,0.0,0.0,0.0
-0.022245432883125176,0.04263132162548616,0.7515085559111944,-0.013876659675143793,-0.4717775548904791,-0.003955396060142307,0.8815995303196507,0.07782706287675706,-0.9242537760337077,0.8542953404004304,-0.0883975817197607,-0.780373498900976,0.6788426113396451,-0.130925664951263,0.5848886131207285,0.7634821051872576,0.11759259326825842,0.501962667637496,0.8893376702521776,0.0,0.0,0.0,0.0
-0.02555402025491747,0.04378432012205067,0.7502792023570062,-0.010869744298420103,-0.46378643844703277,-0.005980630839830228,0.8858601583919785,0.08005058766483517,-0.9504316182949525,0.861456729231577,-0.08920388034275403,-0.8191009123253736,0.6952575230359455,-0.14600818619461237,0.563210882321215,0.7442646017124797,0.13178198502514488,0.4924032351727715,0.8301923417184587,0.0,0.0,0.0,0.0
-0.025502734233428172,0.04391526683538781,0.7499415464656892,-0.010592999430305053,-0.46381489519300556,-0.006111628447636493,0.8858477179277987,0.0801859234162623,-0.9507135512077185,0.8613559673194331,-0.08928965040837852,-0.8197525823032442,0.694590129032565,-0.14661809736566084,0.5635406733804914,0.7441499368591997,0.1328649707319852,0.4924061374292682,0.8302436634801202,0.0,0.0,0.0,0.0
-0.025502734233428172,0.04391526683538781,0.7499415464656892,-0.010592999430305053,-0.46381489519300556,-0.006111628447636493,0.8858477179277987,0.0801859234162623,-0.9507135512077185,0.8613559673194331,-0.08928965040837852,-0.8197525823032442,0.694590129032565,-0.14661809736566084,0.5635406733804914,0.7441499368591997,0.1328649707319852,0.4924061374292682,0.8302436634801202,0.0,0.0,0.0,0.0
-0.02556939288932829,0.04370274107392313,0.749978769803559,-0.010329387897527105,-0.46523223735875274,-0.005911731077727323,0.8851086489824265,0.07980765930345794,-0.9412275823655653,0.8516931403972182,-0.08908158058942468,-0.8108016579813477,0.6851997896602435,-0.1465001159988365,0.5667609062440684,0.746501300794113,0.13426165199158174,0.49430953068459255,0.8364655619467318,0.0,0.0,0.0,0.0
-0.025652334292412846,0.04341145510910795,0.7500634633473692,-0.009993381947988047,-0.466312700300973,-0.005707907196922059,0.8845450907956518,0.079579066700056,-0.9331475791980578,0.8431596861960476,-0.08885377861739106,-0.8042480953498267,0.6785521881813305,-0.14642434505819846,0.5694143025201016,0.747676075716635,0.1355004372627696,0.4959614583243346,0.8409733387004891,0.0,0.0,0.0,0.0
-0.025720045319526333,0.04311025393547032,0.7501650751568432,-0.009662898851201378,-0.4671410223667491,-0.005526570404551817,0.8841127476897408,0.07946530300956817,-0.9265049173127754,0.8360495188905387,-0.0886165599258961,-0.7994756537151994,0.6739513555556541,-0.14634739603325445,0.5716395478125783,0.7481372770861691,0.13657472411625246,0.4973899832673134,0.8442712553646593,0.0,0.0,0.0,0.0
-0.025773906972295976,0.042789445330102344,0.7502666725205988,-0.009315090917584177,-0.4677868847232151,-0.005359014416622663,0.8837759560695397,0.07945257540682955,-0.9208868771867442,0.8299331825414408,-0.08836255034372846,-0.7961316553371427,0.6710043449798855,-0.14625595579256162,0.5735575530849532,0.7480604168033638,0.13749995224310527,0.4985514390454483,0.8468942138249289,0.0,0.0,0.0,0.0
-0.02582411078829454,0.0424202007251982,0.7503567867404118,-0.008905093482342872,-0.46829802800734655,-0.005189207125944892,0.8835104574389062,0.07953602203453222,-0.9158619817287016,0.8242755112328113,-0.08808191935782603,-0.7940326671020298,0.6695042345532785,-0.14614649874597813,0.575238828393428,0.7475214676651982,0.13829497368921548,0.49937897436221595,0.849275498519051,0.0,0.0,0.0,0.0
-0.025880540507710364,0.04196520944732752,0.7504271174001405,-0.008378632829693774,-0.4687080204369895,-0.004998110936031756,0.8832992748649887,0.07971592586257385,-0.9110334811723588,0.8185548042592383,-0.08776499035664789,-0.7931236275744352,0.669409041410321,-0.1460204624317834,0.5767358976626348,0.7465347446825257,0.13897983681523182,0.49980286855689604,0.8517793048917234,0.0,0.0,0.0,0.0
-0.025947177877047704,0.04138179402487736,0.7504704221844202,-0.007675168233591719,-0.4690403607087583,-0.004764683112638493,0.8831305280725041,0.07999631346791998,-0.90606439537333,0.8123213212079925,-0.08740370409718871,-0.7934760524010573,0.6708590938690008,-0.14588276134299397,0.5780999399813302,0.7450739592569328,0.1395759823331072,0.4997565062837493,0.8547348824307144,0.0,0.0,0.0,0.0
-0.026024137931456855,0.040609397832322015,0.7504753097666081,-0.006709484926815825,-0.4693117194267507,-0.004459927205907569,0.8829958107885006,0.08038765132210203,-0.9006032603527305,0.8050806721545943,-0.08698950829733122,-0.7953362198166087,0.6742351222809021,-0.14574143924530616,0.5793726784824806,0.7430783981148971,0.14010664393394426,0.49912982852751064,0.8585520124955188,0.0,0.0,0.0,0.0
-0.026101582139735895,0.039569086676554344,0.7504247367761123,-0.005370474583490537,-0.46953105566892955,-0.004046373721900995,0.8828903514167947,0.08090652424122878,-0.894318243847349,0.7963512312595536,-0.0865146422582125,-0.7991677285368691,0.680229248029751,-0.1456088466027226,0.5805958270265137,0.740454571586828,0.1405990092334414,0.49777564369860905,0.8637325259782397,0.0,0.0,0.0,0.0
-0.02615546081477111,0.038180723338367424,0.7502988133417959,-0.00354443939575587,-0.46969574731831304,-0.0034854928180989408,0.8828143594438619,0.08156941011844115,-0.8870049379503061,0.7858267604529433,-0.08597503420436657,-0.8055814504700249,0.6897424188535086,-0.14550012462203113,0.5818154965447312,0.7370853893825154,0.14108177071562691,0.49555672783091986,0.8707524440762571,0.0,0.0,0.0,0.0
-0.02619732289849941,0.03648464909070169,0.750105421299688,-0.0012840642023895508,-0.4697954454450085,-0.002792384047768162,0.8827699548634287,0.08234395008705658,-0.8787528618939743,0.7735791792377992,-0.08537454340204237,-0.8142214901853467,0.7021708380975237,-0.1454049445143563,0.583009781759981,0.7329438041879084,0.14154486447574743,0.49256320766871575,0.8792731684423455,0.0,0.0,0.0,0.0
-0.026259380136392334,0.035090843685956524,0.7499559589525135,0.000559905918340487,-0.4698297980010916,-0.0022376519213076888,0.8827540089569093,0.08301708075603866,-0.8719099239902169,0.7632038436287008,-0.08480771391598446,-0.8212426051299658,0.7120064365796808,-0.14527622697590176,0.5839756886232765,0.729152475031088,0.14190026056529328,0.49008426963614615,0.8858495693831694,0.0,0.0,0.0,0.0
-0.026350315288943153,0.03404461347584229,0.74986649039845,0.0019235235190581707,-0.4698124233103967,-0.001839893341795138,0.8827622566427357,0.08357885102599763,-0.8666087869737207,0.75498277546305,-0.08429748226317108,-0.8263370360558099,0.7189036582982997,-0.1451034935088009,0.584731798850133,0.7257910241611071,0.1421312594934584,0.4882102337485235,0.8902866750981611,0.0,0.0,0.0,0.0
-0.02648639306136937,0.033285002945423005,0.7498224416817731,0.002892504783931276,-0.4697491389727695,-0.0015705681301984465,0.8827938112414274,0.08404951613083253,-0.8625333871990839,0.7484067998034529,-0.08384403225606267,-0.8298087786106936,0.7232703868494749,-0.14488254817479146,0.5852261272883008,0.7228279537388252,0.1422334223878649,0.4867283074382013,0.8930268537161238,0.0,0.0,0.0,0.0
-0.02667830726833581,0.03274628750721686,0.7498082105089473,0.0035594804489654376,-0.469637479393156,-0.0013996478662409468,0.8828510684334175,0.08445005418868246,-0.8593916926004042,0.7429791519904559,-0.0834413120284462,-0.8320306911240736,0.7255860299725564,-0.14461073439460106,0.5854171362085914,0.7201775992029027,0.14220469000833896,0.4854355434273334,0.8944760203331316,0.0,0.0,0.0,0.0
-0.026939064439969726,0.032378835562366017,0.7498142804201824,0.003994437635305015,-0.46947022143196787,-0.0013049466640822152,0.8829383063220219,0.08479611016514443,-0.856945393798201,0.7382731987640034,-0.08308105559991115,-0.8332643334024679,0.7261532667612569,-0.14428122210365554,0.5852754567522431,0.7177152626049615,0.14203730584320143,0.48417873790409766,0.8948824676667714,0.0,0.0,0.0,0.0
-0.02729102215792498,0.03215060328416498,0.749837817502999,0.004242507638808067,-0.46923653143840094,-0.0012728212898925444,0.883061412710666,0.08509772904946374,-0.8549767403649025,0.7338726603479845,-0.08275352488035184,-0.8336141951914748,0.7250216393926674,-0.14387943272730416,0.5847702919129008,0.7152804688703259,0.1417128232098951,0.4828389802659679,0.8943363065540867,0.0,0.0,0.0,0.0
-0.02776134793617585,0.032047121989490106,0.7498860181567002,0.004323993790509672,-0.468921690608824,-0.0012981846479950092,0.8832282071304571,0.08536067776640453,-0.8533120570304402,0.7294295761181452,-0.08244899439736966,-0.8330517364919388,0.7220471940016362,-0.14338389315976136,0.5839024368191514,0.7126351199421209,0.1412024903600191,0.48135938311091303,0.8927380707889833,0.0,0.0,0.0,0.0
-0.02836698768924339,0.032071821372878756,0.7499840157987254,0.0042340476424856405,-0.468506327704841,-0.0013846395545047262,0.8834489099627604,0.08558862516661535,-0.8518983833736872,0.7248417618248291,-0.08216016741539926,-0.83148484428445,0.7170585225691187,-0.1427706233890486,0.5827924297224691,0.7093647310128298,0.14047207043140722,0.47982593908553167,0.8897165578909199,0.0,0.0,0.0,0.0
-0.029107550348846385,0.03223265585494178,0.7501871097473015,0.003961641416971953,-0.4679691248202089,-0.0015383650567276123,0.8837345964967329,0.08578522253080809,-0.8507288077025308,0.7202104091684577,-0.081879062634595,-0.8288111581674069,0.7099989345119136,-0.14201569529854324,0.5818103107358138,0.7046712267932739,0.13948587085453323,0.4785497183874438,0.8845537652928919,0.0,0.0,0.0,0.0
-0.029844046665085708,0.03255758430024911,0.750588885916751,0.003467922960148502,-0.46727218258677644,-0.0017745362344130388,0.8841049326364407,0.0859736160793487,-0.8507459246147648,0.7174925041394001,-0.08162425399199572,-0.8256656817652643,0.7023599236301672,-0.14113519816843298,0.5818606780809745,0.6973163534682013,0.13825464433778578,0.4783930155810023,0.8760331668507262,0.0,0.0,0.0,0.0
-0.03014865941870276,0.032966516951949104,0.7512666460527728,0.0028639245500012137,-0.4663283645528415,-0.0020576852389707963,0.8846046689234132,0.0862638882646301,-0.8545263409050201,0.7216839594742539,-0.08145771789756015,-0.8254573791683918,0.700394269754611,-0.14023951236979068,0.5844974505664883,0.6856693408588681,0.13691393291466603,0.4806062554702257,0.8634070857477991,0.0,0.0,0.0,0.0
-0.029831892398784997,0.033391374669803124,0.7523233204345167,0.002241727650956948,-0.4650649423843464,-0.002360305829786094,0.8852705817876099,0.0867176947151276,-0.8629894352823888,0.7347715245171463,-0.08139262918848085,-0.8299150727357912,0.7073364538416115,-0.13933143373616513,0.5910193425637511,0.6676143220361102,0.13546865905159777,0.4861100088762899,0.8454799561768422,0.0,0.0,0.0,0.0
-0.028769842988134436,0.03370865507836153,0.75298578572386,0.0017724823963003883,-0.4634010341149981,-0.002627768905094104,0.8861430103080916,0.08751849406971676,-0.878884964579359,0.7584668095902994,-0.0815227160643031,-0.8433393873051123,0.7273171462120205,-0.1386401478407185,0.5963480724878876,0.6522961414081535,0.13417672503619996,0.49043008132912275,0.8306093397451185,0.0,0.0,0.0,0.0
-0.02649363361893436,0.03390878190299157,0.7533666893635129,0.0014534874420338182,-0.4617648441490269,-0.002859061742057435,0.8869965850262536,0.08866289091873455,-0.9015159542102769,0.7943884120851115,-0.08182338906792479,-0.8650627806909528,0.7620383729141642,-0.1386291069870673,0.6024934904646491,0.6408987923163113,0.13354063204344083,0.4957102932299844,0.8198388071541362,0.0,0.0,0.0,0.0
-0.021609443572441493,0.03395129932871433,0.7550377753132914,0.005913278327355495,-0.47211741213979536,-0.004010184202605128,0.8815067218782322,0.08700287506058156,-0.8530311664596888,0.7770408038709459,-0.0804231656970804,-0.8356354701059322,0.7621178753804279,-0.1232091894713404,0.5866504521723551,0.7666329796821927,0.12088857522640292,0.5264820088966875,0.8469836934157028,0.0,0.0,0.0,0.0
-0.01576053386457508,0.03377533751380254,0.7562323016521093,0.009900910493876121,-0.48172165669383155,-0.005018148931188091,0.8762539789495092,0.08591867756437445,-0.8148646698734726,0.7719358154787576,-0.07942428784129248,-0.816447722789237,0.7767059171854633,-0.10925639724534342,0.5798742931788057,0.8660696318355238,0.10949825125844288,0.5601743410061106,0.8697065283161866,0.0,0.0,0.0,0.0
-0.009465847627669291,0.033393050091714664,0.7566051046702591,0.013533320355913757,-0.49018832038723226,-0.00583227499249996,0.8714919646012235,0.08536935277239274,-0.7881112267986867,0.7779297857030626,-0.07879012690540481,-0.8081338199653183,0.8032130610158675,-0.09680231197796509,0.5796771252554892,0.942114430812886,0.09936560954791401,0.5920941157036046,0.8917545653332267,0.0,0.0,0.0,0.0
-0.003072954901412418,0.03291911174188346,0.7563411075178305,0.01679747897698491,-0.497481796753672,-0.006486548250066238,0.8672875136254156,0.08520928796950215,-0.7711267258404464,0.7926200446549606,-0.0784235643117143,-0.8078911195565591,0.8368557763627777,-0.08567783950060942,0.5841562313874675,1.0039644391389888,0.0902869275862164,0.6216835348125642,0.9121107973016045,0.0,0.0,0.0,0.0
0.002816564600335277,0.03257859408025314,0.7563479013740417,0.01937964997464651,-0.5035590140606734,-0.007074680933047865,0.8637144767889434,0.08517520491392513,-0.7590872998174308,0.8100218207333458,-0.07818052678363599,-0.8085647205870008,0.868084133225481,-0.0757134663000818,0.5885201432179721,1.0573982553421304,0.08198112893924837,0.6514744933543893,0.922262760717456,0.0,0.0,0.0,0.0
0.007918727891352133,0.032448294526648803,0.7567323534288412,0.021217403316748335,-0.5084616512260344,-0.007641166542692021,0.8607892794423359,0.08519163967950016,-0.7501938448522545,0.8272442093029658,-0.07801560325247699,-0.8081840835579615,0.8937861757750468,-0.06677391703325783,0.5913442644426762,1.1051253762864426,0.07427461582304672,0.6798354152984486,0.923354228189628,0.0,0.0,0.0,0.0
0.012167259113039576,0.03251106709904006,0.7573818130620784,0.022412038231894048,-0.5123383618504298,-0.008193630484884142,0.858452076669506,0.08522933829609317,-0.7434923265320833,0.8429014862424338,-0.07790346390069398,-0.806572876266038,0.9136707999955787,-0.05873997645647705,0.592687309767825,1.1488868363132014,0.06708215778255326,0.7052670852005968,0.9185231935287845,0.0,0.0,0.0,0.0
0.015611996886840396,0.0327268062234857,0.7581669052719552,0.023103294378263382,-0.5153695391094584,-0.008729957621392117,0.8566120847775289,0.08526917859167492,-0.7384066384321251,0.8565114105573124,-0.07782905497756161,-0.8040056832382919,0.92838578660257,-0.05150590164764762,0.5929585408690142,1.1896915891451814,0.06036453222579442,0.7271317441953773,0.9104236405104776,0.0,0.0,0.0,0.0
0.018350111418539726,0.033059622457535034,0.7589769103503191,0.023416414476054703,-0.5177264612532174,-0.009248250406511125,0.8551756852926332,0.08529761620886127,-0.734599847152083,0.8680773774390447,-0.07778548090690118,-0.8008212824004391,0.938788019474972,-0.04497733626954624,0.5925301467152324,1.2277691955273673,0.05409962915073458,0.7453377073872725,0.9009947932964768,0.0,0.0,0.0,0.0
0.02048038618082352,0.03348501263504027,0.7597068455775631,0.02344726753492532,-0.5195559739207696,-0.009748911955386566,0.8540589993226887,0.08530622396613358,-0.7319061912565481,0.8777811959036848,-0.07777109410916994,-0.7973300910266388,0.9456324219121904,-0.03906969777930134,0.5916999037250955,1.2623447077397,0.04826760997341477,0.7599266199161836,0.8917917321674151,0.0,0.0,0.0,0.0
0.02207602607435965,0.033985102223123606,0.7602364337055786,0.02327071834512194,-0.5209766740429522,-0.010232207217681371,0.8531922882365381,0.08529152601206796,-0.7302762826704722,0.8857614976362354,-0.07778571980304223,-0.7938399342047201,0.9494779916245601,-0.033706819849700656,0.5908741885154023,1.291181106446913,0.042845631210131734,0.7707647040298603,0.8843792532660967,0.0,0.0,0.0,0.0
0.023177813780373875,0.03453680224278368,0.7604231171490988,0.02296131703295419,-0.522079124100916,-0.010693373685397283,0.8525208606581759,0.08525543646075576,-0.7297187075971471,0.8919969548710505,-0.07782737933768759,-0.7907276601072784,0.9507588583768012,-0.028819785779145124,0.5910534903525857,1.3098511691359345,0.037808148446928154,0.777428646448443,0.8805286584819121,0.0,0.0,0.0,0.0
0.023820958132200185,0.03510416530009204,0.7601446681389744,0.022604483856283903,-0.5229281194340981,-0.011120603021374801,0.8520044315630931,0.08520555615329996,-0.7302382294828,0.8964265465041716,-0.07789223048849986,-0.7884422288201355,0.9499969549891553,-0.024346041586410197,0.5946586062552881,1.3112601110284798,0.03312898698815889,0.7795135038467963,0.8817718212878519,0.0,0.0,0.0,0.0
0.02406217296472012,0.03568185934143397,0.7593808303013011,0.022225294944968294,-0.5235804232834832,-0.011516059270741992,0.8516084528689052,0.08514217916149348,-0.7317932976202267,0.899248585650824,-0.07798130210704417,-0.7870416735836727,0.9475022218803115,-0.020224641330930528,0.6017158251654348,1.2955723223678106,0.028772571816843263,0.7772533067343034,0.8883446745328512,0.0,0.0,0.0,0.0
0.023982266374072178,0.03629717746285657,0.7582133703015019,0.021786448576812608,-0.5240856909722476,-0.011897331294943969,0.8513037017919105,0.08505852146819425,-0.7343017055091,0.9009409083358624,-0.07810011135809838,-0.7861919829538905,0.9433765195299927,-0.016395976101391693,0.6099357530582571,1.2701823793855547,0.024692531728373962,0.7715442083633457,0.8991552727570075,0.0,0.0,0.0,0.0
0.02366106495938586,0.036964839540374606,0.7567431644759983,0.021265385872525973,-0.5244720419252358,-0.01227667719560227,0.8510735243206085,0.08495348128480715,-0.7376667429844077,0.9019547128921188,-0.07825106121368092,-0.7856473568660718,0.9378466066866331,-0.012805153701116609,0.6184889186417332,1.239851905242137,0.020840197385308682,0.7633236444829729,0.9128820213436101,0.0,0.0,0.0,0.0
0.023150173030342995,0.03768672107653858,0.7550372722247739,0.020660146919763134,-0.5247521580132135,-0.012660130278926613,0.8509101316185217,0.08483030998585842,-0.7417991397586128,0.9025347698554004,-0.07843212047927195,-0.7852980788552475,0.9311174314187823,-0.009401001605832543,0.627183229491131,1.2072103689389597,0.017166206611806952,0.7531903435090657,0.928641529103946,0.0,0.0,0.0,0.0
0.022475520888087366,0.038454477421699905,0.7531190315571612,0.01998719193072244,-0.5249321278054543,-0.0130484506369294,0.8508093272245776,0.08469539329513186,-0.7466247233421687,0.902731989394738,-0.07863813329520355,-0.7851593962220057,0.9233558747082375,-0.0061351890650617824,0.636087436576513,1.1735124292941175,0.013623219250625155,0.7413920596459658,0.9460889185668473,0.0,0.0,0.0,0.0
0.02165187164603544,0.03924666415387479,0.7509709643499599,0.019286208132399847,-0.5250202465782196,-0.013435700457710573,0.8507651055444329,0.08455852597657866,-0.7520741386122847,0.9024590396192559,-0.07886250746072587,-0.7853880722785247,0.9147844278671452,-0.0029613740684996297,0.6455107423359515,1.1391464734319845,0.010170005828761956,0.7279319337593638,0.9653531328670054,0.0,0.0,0.0,0.0
0.020702316933797926,0.040018242815237796,0.7485432913272843,0.01863571671174949,-0.5250346862752041,-0.013804408677067519,0.8507647892170984,0.08443500222163186,-0.7580481748211549,0.9015377723717669,-0.07909809298893139,-0.7863455228205205,0.9058695665998275,0.00016552315085789637,0.6561446640057396,1.103918531617335,0.006776399031936187,0.7127139074983262,0.9869293723430731,0.0,0.0,0.0,0.0
0.01971461394432506,0.040677667609797956,0.7457887762852349,0.01818594759576814,-0.5250102145384863,-0.014115149548054713,0.8507845253021076,0.08435288618589187,-0.7644261761253892,0.8999845135674457,-0.07934163356666356,-0.7888205437800141,0.8979142437911489,0.0032907897390713372,0.6693288396980668,1.0671011227919016,0.0034317852914639816,0.6959217207224728,1.0113227443600783,0.0,0.0,0.0,0.0
0.018737859290403693,0.0411658285782639,0.7427563819762292,0.018029358596557257,-0.5249451728256495,-0.014344362077609724,0.850824157527413,0.08433159543761504,-0.7709678247174955,0.8977310889241276,-0.07958397334503026,-0.7931675667129588,0.8916890038965358,0.006458034304097495,0.6864219034705934,1.0269027387322414,9.904450811038705e-05,0.677996571698952,1.0380039035544946,0.0,0.0,0.0,0.0
0.017857213098908423,0.041439919412896487,0.7397241186730839,0.018221001131559694,-0.524797195325767,-0.014479021621152754,0.8509090767108238,0.08437825859449241,-0.7772202336234892,0.8950920957149759,-0.07981491183311858,-0.7993296037192431,0.8880561959607968,0.009712640920271775,0.7090961435156724,0.9800375287498801,-0.0032800911421392233,0.6603975958287196,1.0642998080858075,0.0,0.0,0.0,0.0
0.017265086417380646,0.04149589707723062,0.7374422408166783,0.018723718560612494,-0.5245310549461912,-0.014532192470687658,0.8510613433485823,0.0844582545973188,-0.7820274992866388,0.8931252302603435,-0.08001620449007006,-0.806039772831993,0.8879072677359929,0.013097772216629446,0.737788861238432,0.9235636776833515,-0.00677355622639694,0.6469117012264045,1.083500264493881,0.0,0.0,0.0,0.0
0.017267013166982436,0.041496655313235854,0.7373970588725716,0.018739324189186037,-0.524521762208781,-0.014521673425685364,0.8510669067113614,0.08443287225857761,-0.7821132767895552,0.8930567552139671,-0.0800546022318824,-0.8061285915276727,0.8878430171102815,0.01317250113292185,0.7379231662583521,0.9236691878400171,-0.006784992385034097,0.6468951545485332,1.083426133242016,0.0,0.0,0.0,0.0
0.017267013166982436,0.041496655313235854,0.7373970588725716,0.018739324189186037,-0.524521762208781,-0.014521673425685364,0.8510669067113614,0.08443287225857761,-0.7821132767895552,0.8930567552139671,-0.0800546022318824,-0.8061285915276727,0.8878430171102815,0.01317250113292185,0.7379231662583521,0.9236691878400171,-0.006784992385034097,0.6468951545485332,1.083426133242016,0.0,0.0,0.0,0.0
0.017617356276391005,0.04164740943231583,0.737134105722205,0.018571146955748595,-0.5251246960275057,-0.014551916674138892,0.8506981884569149,0.08422278776488419,-0.7818023882970625,0.8942738073964278,-0.08022877615477997,-0.8044924116224343,0.8872052691796606,0.013215008654488334,0.7391242176587471,0.9274651447348766,-0.006972014271824405,0.648718464614861,1.0856586901071494,0.0,0.0,0.0,0.0
0.017947983442902975,0.04182228516103864,0.7368465642309157,0.018369001011418903,-0.525634000458837,-0.014587809772693852,0.8503873665392246,0.08401709325526847,-0.7821580434227172,0.8960697725037753,-0.08043096645021959,-0.8032984294465818,0.8868292332204051,0.01325406157935189,0.7398989558451099,0.9313897493273499,-0.007156088310456464,0.6500851016728473,1.0879769662516112,0.0,0.0,0.0,0.0
0.01816947482618785,0.04200926941743721,0.7366212452641898,0.01814775146352853,-0.5259931105154039,-0.01462340693960639,0.8501694318055824,0.0837995881109286,-0.7827316237469497,0.8976787238142376,-0.08064874576143499,-0.8021779193486757,0.8860721614575833,0.01327098479935944,0.7402453235480737,0.9346038840797057,-0.007316001289946507,0.6509436250144794,1.0896479526420233,0.0,0.0,0.0,0.0
0.018230286780521764,0.04222315618735274,0.7364758067744951,0.017884148205362375,-0.5261931072380068,-0.014665005513173082,0.8500505330575816,0.08355665905625441,-0.7833324900801958,0.8987195375203336,-0.08087730697297382,-0.8007846329976597,0.8843345135633389,0.013257364063280609,0.7400305868695265,0.9370870372805146,-0.007447510621211153,0.6511842574492515,1.090519422125437,0.0,0.0,0.0,0.0
0.01809492672197551,0.042485311920363984,0.7364100292715432,0.017545578773542986,-0.5262326436934964,-0.01472183616463033,0.850032131696677,0.08327760188215828,-0.7838941151749966,0.8989967348933866,-0.08111531768677493,-0.7988382760573693,0.881116494621029,0.013208045513951588,0.7391063603828602,0.9389946115128779,-0.0075512948410857835,0.6506929409169377,1.0905704318957334,0.0,0.0,0.0,0.0
0.017729477484185695,0.042821186640780495,0.7364222398615212,0.017093255625428096,-0.5261078697644863,-0.014804997360874414,0.8501171343039396,0.08295238789338584,-0.7843952303324111,0.8983720355465681,-0.08136227525631716,-0.7960622312217122,0.8759134259522493,0.013118305438214503,0.7373204532212184,0.9404916458821924,-0.0076293666536234196,0.6493533407466445,1.0897692333805766,0.0,0.0,0.0,0.0
0.017094775793217488,0.04326175100629421,0.7365125310653083,0.016480154829111474,-0.5258098774948373,-0.014928142664077819,0.8503114298786496,0.08257044965848334,-0.7848346955122929,0.8967129360503742,-0.08161734341826789,-0.7921403528830079,0.8681363297442266,0.012982576640716538,0.7345020962806246,0.9417338144286902,-0.007683984904469774,0.6470356083372544,1.088040101020299,0.0,0.0,0.0,0.0
0.01614691287901502,0.043844819990974566,0.7366782252630012,0.015649741032452178,-0.5253273023737345,-0.015108111302354243,0.8506221581637924,0.08212070824690891,-0.7852347480671923,0.8938914446513571,-0.08187893194644473,-0.7867040737533093,0.8570829436148859,0.01279445577142897,0.7304475776852837,0.9429175124907937,-0.0077177487178991915,0.6435907253444579,1.085294939271083,0.0,0.0,0.0,0.0
0.01484722698270286,0.04461321545690974,0.7369017655059013,0.014540145122934153,-0.5246549584473341,-0.01536415081941694,0.8510521145182757,0.08159340067621498,-0.7856628866603761,0.8898280345018343,-0.08214477407617038,-0.7793683885365598,0.8419944928367222,0.01254821657657447,0.7249186282862,0.9443839009818459,-0.007734287766291253,0.6388592196783516,1.0815361590461088,0.0,0.0,0.0,0.0
0.013189461774134232,0.04560069653452238,0.7371338886295989,0.013107178224569714,-0.5238103986860998,-0.015711730980781848,0.8515891084419094,0.08098563066033423,-0.7862505376807349,0.8845851047429273,-0.0824122903378927,-0.7698832848738348,0.8223316177645326,0.012242740686215725,0.7177013841655613,0.9467115872604903,-0.0077382940226354505,0.63272735699049,1.077035350122918,0.0,0.0,0.0,0.0
0.011266952925278576,0.04677234078626415,0.7373026334888946,0.011414310267532856,-0.5228612713053261,-0.016136343298259394,0.8521886075952056,0.08031580062506946,-0.787067680725983,0.8784736593552451,-0.08267752380470855,-0.7585948667840043,0.798728187939343,0.0118917329931727,0.7089774508057195,0.9503649610532597,-0.007731174451350132,0.6254187637532973,1.072426150158031,0.0,0.0,0.0,0.0
0.00958328225825272,0.047723641605879,0.737514533824827,0.010073594202009227,-0.5219588454234789,-0.01646547028665128,0.852752235219751,0.07971155726252409,-0.7875254936663865,0.8727594082731168,-0.08292527716533657,-0.7489384565335618,0.778229612483068,0.011562323901519173,0.701603054479252,0.952331406182372,-0.00769442072267262,0.6192774167995586,1.067686634143268,0.0,0.0,0.0,0.0
0.008282888417487522,0.04846164120494797,0.7377051377386223,0.009060242846125279,-0.5212055414342184,-0.016706155886004555,0.8532195496666406,0.07919729310433737,-0.7880629148055854,0.8685290821536248,-0.08317035793927537,-0.7414744123246519,0.762211674125607,0.011289170857761944,0.6959353263464877,0.9533629602939455,-0.007665304056906118,0.6146449333740147,1.0635104119876229,0.0,0.0,0.0,0.0
0.0073332162268904206,0.0490114725917313,0.7378361148643544,0.008328329291404691,-0.5206206954862359,-0.016870497850572777,0.8535807616534687,0.07876940692516705,-0.7886942598973182,0.8656518614157142,-0.08341053141331582,-0.7360811918403961,0.7504251757729762,0.011074739485330254,0.6916740421002807,0.9540871444583752,-0.007652293932550403,0.6112188397121753,1.0603459023485589,0.0,0.0,0.0,0.0
0.006669683178269497,0.04940137890774204,0.7379040764880145,0.007831026074245365,-0.5201887138163213,-0.0169710366574637,0.8538468018113771,0.07841745880253499,-0.7893517591209852,0.8638061716659993,-0.08364167177771673,-0.7324524641094754,0.742239156527169,0.010911925288697766,0.6885154236415945,0.9547438137809349,-0.0076543530955052565,0.6087025908880798,1.0582430703042611,0.0,0.0,0.0,0.0
0.006216559060967188,0.04967888863523442,0.7379287901225368,0.007494451813172043,-0.5198826824253009,-0.01702864850899866,0.8540350430961546,0.07812316512249733,-0.7899754439616072,0.8626894507499796,-0.08385994064674258,-0.7300395041262125,0.7366447078599732,0.01078823944675689,0.6862048258314175,0.9553921799018847,-0.007669222643781201,0.6068837041756869,1.0569339892440883,0.0,0.0,0.0,0.0
0.005908332348461836,0.04988621172444723,0.7379332009020779,0.007254591661749473,-0.5196748477814831,-0.01706160944531374,0.854162938183488,0.0778693446013833,-0.7905177410988207,0.8620514843601311,-0.08406258981342081,-0.7283356569729531,0.7327119296769566,0.010691689634152525,0.6845454882525709,0.9560090163012731,-0.007694001806469045,0.605611772341534,1.056100433941333,0.0,0.0,0.0,0.0
0.005691587167965936,0.05005439608784765,0.7379362382464641,0.007065303328321839,-0.5195409509885823,-0.017083061385166038,0.8542455447636055,0.07764199879260268,-0.7909291184087612,0.8616692212306601,-0.08424763689676901,-0.7269411966281719,0.7296924397427964,0.010612643426399941,0.6833799153566871,0.9565495192316061,-0.007725747801908354,0.6047672427966105,1.0554782984930173,0.0,0.0,0.0,0.0
0.005520286008732817,0.05019625083009214,0.7379532797559795,0.006908726123505501,-0.5194604530692155,-0.01709777422262412,0.8542954836103887,0.07743097229184386,-0.7911009334121537,0.8612549897671755,-0.08441242297166505,-0.7255845373291773,0.727046477041533,0.010544674191971378,0.6825818557951776,0.9569251806604467,-0.007760594858266972,0.6042403897056721,1.0548891876504514,0.0,0.0,0.0,0.0
0.005359773329350295,0.05032922541448297,0.7380015764217933,0.006759333925514193,-0.5194196062012368,-0.01711286656460471,0.8543212123648678,0.07722601596777469,-0.7909597246940431,0.860625300836202,-0.08455523858542648,-0.7239856024920747,0.7242762077797158,0.010481978076863541,0.6820824302061571,0.9570505007545442,-0.0077965679614935305,0.60398388720415,1.054126848358535,0.0,0.0,0.0,0.0
0.005164872797014796,0.050478316569283026,0.7381061956914802,0.0065800944999434285,-0.519405220925763,-0.017138834509771706,0.8543308370783989,0.0770127814429377,-0.7903839528076512,0.8595242000148304,-0.08467240539056045,-0.7217273110775617,0.7206759280915247,0.010417126624037078,0.6818146769700115,0.9568093810102087,-0.007831571903805694,0.6039608273878376,1.0529030314734273,0.0,0.0,0.0,0.0
0.004863648001038906,0.050688051046037436,0.738294461827987,0.006304979738609594,-0.5194044975507622,-0.01719478223836606,0.854332227308739,0.07676867955805117,-0.7891902441722598,0.8575415141386232,-0.08475667477718461,-0.7181042875840499,0.7150414270892249,0.010338747650477768,0.6816270430316919,0.9561705586688566,-0.007863631175449939,0.6040776418425534,1.0508703506292116,0.0,0.0,0.0,0.0
0.004329258208065807,0.051067280268098224,0.7385446438969383,0.005773551423674347,-0.5194182880608753,-0.017328194360029924,0.8543249041272816,0.07645371258090261,-0.7872646547221113,0.8541007221081687,-0.08479689369873983,-0.7117663783029005,0.7049272703889145,0.010226247223074166,0.6809414865164893,0.9559014033586914,-0.007895985078960934,0.60392163592085,1.0479777320201384,0.0,0.0,0.0,0.0
0.003378678657678552,0.05186422008248704,0.7387695243907567,0.004617642281011164,-0.5194953605173036,-0.017649102102327535,0.8542785008273022,0.07599335764802996,-0.7847320272940642,0.8487354504880568,-0.08477606933479398,-0.7000338750138939,0.6856261797499605,0.010040617956433573,0.6786937876315356,0.95809024745296,-0.007944846576319964,0.602813384521984,1.0444385498793318,0.0,0.0,0.0,0.0
0.0019110379608641224,0.05353222178940853,0.7392159051472704,0.0021449553380115706,-0.5200926609290067,-0.018357913059803836,0.8539098373027868,0.07515896675648825,-0.7795800325745222,0.8402283532845001,-0.08461599826748002,-0.6753285829796435,0.6473178076699998,0.009743618057629662,0.6766066702758986,0.9632355794279805,-0.00804844274765062,0.6030875542563305,1.0375960561282247,0.0,0.0,0.0,0.0
0.0007401811506564937,0.055000454403759245,0.7394452631564808,0.002467550775259444,-0.5201485679815406,-0.016495590126343492,0.8539129194047294,0.06606306060092916,-0.7791904970635863,0.8355448411982299,-0.07520673348787668,-0.7329454460112819,0.7265394533591967,0.009852344878024184,0.670461825241377,0.9660248954275941,-0.008146681990974597,0.6040529771910325,1.0336515334591176,0.0,0.0,0.0,0.0
-0.0005508756484918806,0.05683920045377547,0.7396764172888372,0.001982547538041348,-0.5203358453720732,-0.015035679862856565,0.8538270350939065,0.05768815098193315,-0.7787615513489036,0.8310229531132315,-0.06670308487805245,-0.7796931042137885,0.7678263050846186,0.009854216680461905,0.664334457946292,0.9707341807205487,-0.008238506256816621,0.6050550525301885,1.0286268732770694,0.0,0.0,0.0,0.0
-0.0018662425025217856,0.05880155583068009,0.7398163329896166,0.001055086874537143,-0.5206508223188608,-0.013886040030222783,0.8536561286037021,0.05016817103692986,-0.7779840174348027,0.8262059686682846,-0.05913805706547608,-0.8188487454079144,0.7880210922562694,0.009794238205367711,0.6582518658739499,0.9771613981849919,-0.008339734929560602,0.6057817776934643,1.0240164657873374,0.0,0.0,0.0,0.0
-0.0030987649232919376,0.06066780667241396,0.7400261212780949,5.053195379760238e-05,-0.5209771625920643,-0.01291359736483832,0.8534729242964549,0.04344297099474927,-0.7767018884646575,0.8213130676041094,-0.0523906145213997,-0.8519283856925532,0.7962370245767542,0.009705821131757506,0.6531589917900321,0.9825894112089135,-0.008428851664011156,0.6069153742069673,1.0188094382199184,0.0,0.0,0.0,0.0
-0.004202778888103647,0.06236624232123802,0.7402806356352079,-0.0008909825785634139,-0.5212883807856268,-0.012055378411505705,0.853294965448232,0.03743071629239629,-0.7751567301047851,0.8166387369662964,-0.046349894732010205,-0.8804739145240396,0.7975140084573683,0.009608492738492617,0.6490009286835685,0.9868961842862756,-0.00850492285678857,0.6083758646273698,1.0134131617922377,0.0,0.0,0.0,0.0
-0.005135593954996662,0.06388444077292424,0.7405351409586456,-0.0017254578963901187,-0.5215865132138185,-0.011280355165479285,0.8531220813083198,0.03204775001366815,-0.7737271748823753,0.8126885970787058,-0.04091810888250981,-0.905846140067148,0.7945099050123664,0.00951455787584647,0.6456524626143969,0.9904295460639991,-0.008574397254817043,0.6100730118663843,1.0082866281392961,0.0,0.0,0.0,0.0
-0.005894657149408526,0.06522496077298492,0.7407659910553183,-0.002435620705474773,-0.5218728884605598,-0.010568230512252311,0.8529543179710454,0.02721485031539727,-0.772562463908683,0.8095972310605277,-0.03600887769889708,-0.9291895041998215,0.7886880307260338,0.009430691510464922,0.6429700155019873,0.9934260638314039,-0.008640771936219253,0.6119037486591709,1.0036795262045093,0.0,0.0,0.0,0.0
-0.006501113376274505,0.06639606863156598,0.7409668624541808,-0.0030150455239246064,-0.5221418085798736,-0.009903738252958873,0.8527958473175419,0.022859383600836704,-0.771676744142434,0.8072766122855526,-0.031546010974757115,-0.9512168702938838,0.7809263158279294,0.009359717218582576,0.6408102709377974,0.9959828810553516,-0.008704659266289522,0.613768875538559,0.9996613937707296,0.0,0.0,0.0,0.0
-0.006969509309009477,0.06741235037251483,0.7411355256316101,-0.003468756152007482,-0.5223833301331373,-0.009276406063955257,0.8526532545063721,0.018915471743127448,-0.77114993901196,0.8057541906076838,-0.0274621893254464,-0.9719407470967878,0.7718642165724754,0.00930208102183685,0.6390587356324468,0.9981643971342898,-0.008766477654871065,0.6156048615017424,0.9962206020109727,0.0,0.0,0.0,0.0
-0.007331019894505164,0.06828800316483395,0.741271792519002,-0.003802227883268464,-0.5225820618484137,-0.008677121518501776,0.8525363565617231,0.015323237166741721,-0.7709821451290158,0.8048897053629096,-0.023697277837258578,-0.9905841945326647,0.7623565550461483,0.009256253970554223,0.6375531834011329,1.0000128624569378,-0.008824681407406044,0.6173007839109135,0.9933200286416363,0.0,0.0,0.0,0.0
-0.007615436323497944,0.06904624749951453,0.7413712500024987,-0.004035977297178885,-0.5227260866068651,-0.008102378518350956,0.8524526384088879,0.012026747985156853,-0.7712035512196557,0.8045880718736156,-0.020197696403912016,-1.0054095626985988,0.7537955053948475,0.00921852920381345,0.6361209960537361,1.0016458504897505,-0.008878232031264153,0.61874609078298,0.9909299641868671,0.0,0.0,0.0,0.0
-0.00783145844064628,0.0697334803098023,0.7414245876416162,-0.004228257532451628,-0.5228132555665463,-0.007561768971626893,0.8524032152052032,0.008973607098355983,-0.772013601612153,0.8050706919575352,-0.016918032977719388,-1.013884937987659,0.7483096936865653,0.009181302312941838,0.6346399923772246,1.003313874923701,-0.008928901117335377,0.6199065012277957,0.9889850583041825,0.0,0.0,0.0,0.0
-0.008079835399900856,0.07037749734853656,0.7414534445399015,-0.004408745619128449,-0.5228599826793339,-0.007056895739434309,0.8523779688009042,0.006118002578793223,-0.7727748015881809,0.8052455230135529,-0.013819233910974634,-1.0143061420888726,0.7492073061570997,0.009138251119553006,0.6329361104946066,1.0050227131743066,-0.008972121532108962,0.6206778947916879,0.9872999955609442,0.0,0.0,0.0,0.0
-0.008367932673669419,0.07098529194945111,0.7414591621757343,-0.004577529814000419,-0.5228656418431905,-0.006580227949578473,0.8523774207478996,0.003422528855592819,-0.7734736146236209,0.8050678212505732,-0.010862628480888977,-1.0066790971582824,0.7565024667872561,0.009089418205416875,0.6309771739206735,1.0067799805106943,-0.00900787701760945,0.6210595791412962,0.9858496507726084,0.0,0.0,0.0,0.0
-0.008604303489307082,0.07154402500507064,0.7414232447340942,-0.004707399149933289,-0.5228116649551711,-0.006116474966321428,0.8524132754210434,0.0008563609463180287,-0.774766890791252,0.8056196394014817,-0.008008687520271108,-0.9927155065700989,0.7669977429386399,0.009041158326646708,0.628887211249278,1.0085927093942189,-0.009040893554940243,0.6211666828169753,0.9847591310276087,0.0,0.0,0.0,0.0
-0.008798964221534212,0.0720205135742298,0.7413602591906666,-0.004738912235052509,-0.5226982934463685,-0.005640562076230646,0.852485906510217,-0.0016079070210357244,-0.7764130082134292,0.8065609441238379,-0.005221173028013028,-0.975003866693962,0.7787761900643609,0.009001472259382578,0.6267197163494301,1.010210331052085,-0.009068999293049168,0.6210258943697518,0.9840329921266763,0.0,0.0,0.0,0.0
-0.008914866379985661,0.07241241508522323,0.7412748837017885,-0.004661624994700288,-0.5225402039622455,-0.005143441005392763,0.852586388297472,-0.0039983470899206015,-0.7785146663603668,0.8081890996901674,-0.0024689749256722794,-0.9552692720924117,0.7906021803853537,0.008974724163452068,0.6246334489704336,1.0115827361118717,-0.009095306896377128,0.6208033359681977,0.9836557704348116,0.0,0.0,0.0,0.0
-0.008931844970924155,0.072725042933053,0.7411707217130271,-0.004476004741030048,-0.5223542414215121,-0.004619369660110197,0.8527043293395772,-0.006344926672420267,-0.7810948572204456,0.8106430774938512,0.0002777866965289078,-0.9344156653786831,0.8019157692692915,0.00896302479214209,0.6227336991341219,1.0127144480311192,-0.009121973156560447,0.6206244692059497,0.9836097694846287,0.0,0.0,0.0,0.0
-0.008847755036366188,0.07296765401740182,0.7410550236018697,-0.004187595632422743,-0.522150609486278,-0.004064066047734227,0.8528333298031259,-0.008679005497625356,-0.7841144697059953,0.8139157621043239,0.003048176309466402,-0.9127135837885356,0.8125160777935134,0.0089661295614264,0.621072090715253,1.0135892603243974,-0.009149255930316989,0.6205710009216531,0.983824636106088,0.0,0.0,0.0,0.0
-0.008672279883631985,0.07315233431299022,0.7409424610147852,-0.0038053275372012508,-0.5219333486061318,-0.0034739998648258084,0.8529707090047488,-0.011033864149831561,-0.7874896780370362,0.8179090177539893,0.005871180240232664,-0.8900984892741256,0.8222898257032735,0.008982032159847862,0.6196846026863397,1.014128007008134,-0.009175836385856461,0.6207176527715093,0.9841434356037837,0.0,0.0,0.0,0.0
-0.008424527917832079,0.07329383998784009,0.7408602880095778,-0.0033412151120571433,-0.5217024762347384,-0.0028460712661817307,0.8531162068853604,-0.01344546204423632,-0.7910771525940202,0.8224412491395683,0.008776266448811763,-0.8665532689689247,0.8309456176329036,0.009007344735357067,0.6186287327435386,1.0141442313183318,-0.009198978266320235,0.6211693842806351,0.9842797053385575,0.0,0.0,0.0,0.0
-0.008135654615860327,0.07340908846565196,0.7408520234564744,-0.0028095077385215097,-0.5214554422063369,-0.0021771208821887915,0.8532711108459756,-0.015952857121870133,-0.7946382781942551,0.8272050958394905,0.011793647127218372,-0.8426108544162468,0.8376726483729086,0.009037489554085083,0.6179977479324256,1.0133139431312228,-0.009214343836748769,0.622074921623019,0.9837913986645798,0.0,0.0,0.0,0.0
-0.007860487551432005,0.07351278269423575,0.7409630297745523,-0.002221072529033918,-0.5211915579523161,-0.001462706378757716,0.8534355788494571,-0.01859371736811033,-0.7977756352320188,0.8316145611235726,0.01495131358976131,-0.82010718591231,0.840852712004027,0.009067478099210128,0.6178339006746035,1.011306665125443,-0.009216085004708953,0.6235285766373275,0.9822468011285349,0.0,0.0,0.0,0.0
-0.007696256564129012,0.07359672654602266,0.7411421233253384,-0.0015728052693218995,-0.5209529919658248,-0.0007086639387200017,0.8535836246325618,-0.021326568673746993,-0.7998051840233453,0.8343962196529122,0.018213690882999303,-0.8041176307052346,0.8399674364273367,0.009094539588447288,0.6177399325321985,1.0087146300159409,-0.009204762880782992,0.625091314068485,0.9802966110413519,0.0,0.0,0.0,0.0
-0.007696550402153791,0.07360636785269646,0.741141684841194,-0.0015532484075372875,-0.5209540816038423,-0.0006790191821842215,0.8535830195198543,-0.021448271248817666,-0.7998179521102384,0.8343931554650563,0.018448359265317432,-0.8041036780893983,0.8399833741318383,0.00908403867328986,0.6177070494389953,1.0087237104900837,-0.009207689162671307,0.6251306523079322,0.9802929313791267,0.0,0.0,0.0,0.0
-0.007696550402153791,0.07360636785269646,0.741141684841194,-0.0015532484075372875,-0.5209540816038423,-0.0006790191821842215,0.8535830195198543,-0.021448271248817666,-0.7998179521102384,0.8343931554650563,0.018448359265317432,-0.8041036780893983,0.8399833741318383,0.00908403867328986,0.6177070494389953,1.0087237104900837,-0.009207689162671307,0.6251306523079322,0.9802929313791267,0.0,0.0,0.0,0.0
-0.007877202264858845,0.0734709720683494,0.7409278292920609,-0.0013809624507666865,-0.5208534091266541,-0.0006500324877262292,0.8536447719055138,-0.021302513446148037,-0.7995490726461694,0.8325966424839052,0.018599312770961732,-0.8049413262468357,0.8397393885159348,0.009075104353314226,0.6160305707095637,1.0101072499673316,-0.009196070063050635,0.6231710571313445,0.9826343337128214,0.0,0.0,0.0,0.0
-0.008085059406571777,0.07332666475627603,0.7407637143429523,-0.001192087736822179,-0.5207382578107544,-0.0006139009639447769,0.8537153324760276,-0.02116201344270006,-0.7990211361656256,0.8304667279129083,0.01874145374164934,-0.80559504041621,0.8392731614487228,0.009067849852039912,0.6144862273857239,1.0109870670579837,-0.009178774082450776,0.621347701132971,0.9845288129149509,0.0,0.0,0.0,0.0
-0.008277065594630937,0.0732018283708072,0.7406630160880503,-0.0010310895068583294,-0.5206254470788578,-0.0005852079111099026,0.8537843628458354,-0.02103057714982401,-0.7984444982395494,0.8285105159886887,0.018872666193401565,-0.8060422723302197,0.8387564723430663,0.009059574115368134,0.613286704327685,1.011353068098874,-0.009160829238038631,0.6199095171819509,0.9857573809104152,0.0,0.0,0.0,0.0
-0.00843555716175862,0.07310048702484706,0.7406035040600571,-0.0009046087787404188,-0.5205259838836684,-0.0005663052645281703,0.8538451622415177,-0.020908681075907168,-0.7979390679739466,0.8269102664045139,0.01899398874191895,-0.8063680137648853,0.838320481985431,0.009051203774985127,0.6123990757498842,1.0114353340615188,-0.009145208181637275,0.6188230088352521,0.9865273916145906,0.0,0.0,0.0,0.0
-0.00856008323616854,0.0730187841909441,0.7405671277947274,-0.0008069585480648212,-0.5204430554086753,-0.0005555521469469632,0.8538958169803833,-0.020795228101214536,-0.797530259406722,0.8256573106312923,0.019107079554448354,-0.8066282625225671,0.8379998060809429,0.009043553448728274,0.611747284889588,1.0113911869106336,-0.009132689244720297,0.6180034252197001,0.9870281660561147,0.0,0.0,0.0,0.0
-0.008658034309184217,0.07295120050391284,0.7405431544205878,-0.0007298507664136528,-0.5203748287730225,-0.0005504733353215686,0.8539374695353362,-0.020688550376252255,-0.7971994972568378,0.8246670628878369,0.019213646677480073,-0.8068496262726285,0.8377744936083205,0.009036810821178288,0.6112572370061877,1.0112994334293146,-0.009122888675177838,0.617367523111101,0.987380115237443,0.0,0.0,0.0,0.0
-0.008737739007004837,0.07289290064903937,0.7405248078271929,-0.0006660740364828014,-0.5203182922247768,-0.000548962923604875,0.8539719724682878,-0.020586890093854945,-0.7969199230975704,0.8238493088113629,0.019315349404905823,-0.8070452564129278,0.8376116626172154,0.009030830535721525,0.6108682514038744,1.0112032117251104,-0.009115246999195609,0.6168469485278985,0.9876619644400015,0.0,0.0,0.0,0.0
-0.008804755178823351,0.07284095034637314,0.7405067678728052,-0.0006113826413976888,-0.5202717197645343,-0.0005499094265027672,0.8540003872505809,-0.020488637427081267,-0.7966753388489716,0.8231447268624656,0.019413747073885743,-0.8072233893335068,0.8374868090619153,0.009025331340123304,0.6105367197375381,1.0111401869332473,-0.009109632606431996,0.6163929011467641,0.9879328872052421,0.0,0.0,0.0,0.0
-0.008859195590322961,0.07279746067046577,0.7404871227292575,-0.0005693058299731826,-0.5202375414271184,-0.0005547104428671802,0.854021234324454,-0.020392860937968226,-0.7964645161220285,0.8225524892190438,0.019509589863239914,-0.8073655864258988,0.8373738430763943,0.009019906560074165,0.6102580259914057,1.0111410934415357,-0.009106726631474089,0.6160026603153149,0.9882079421259434,0.0,0.0,0.0,0.0
-0.008859941907013027,0.07279682111696174,0.7404836933975673,-0.0005685777521382264,-0.5202375379388415,-0.0005546536722755787,0.8540212369712922,-0.020391944072480437,-0.7964680222603897,0.8225449531484093,0.019510651950356526,-0.8073745474416857,0.8373739147271186,0.009019957282747595,0.6102401648701159,1.0111700263359626,-0.009106783035272457,0.6159829424159564,0.9882417412229348,0.0,0.0,0.0,0.0
-0.008859941907013027,0.07279682111696174,0.7404836933975673,-0.0005685777521382264,-0.5202375379388415,-0.0005546536722755787,0.8540212369712922,-0.020391944072480437,-0.7964680222603897,0.8225449531484093,0.019510651950356526,-0.8073745474416857,0.8373739147271186,0.009019957282747595,0.6102401648701159,1.0111700263359626,-0.009106783035272457,0.6159829424159564,0.9882417412229348,0.0,0.0,0.0,0.0
-0.008211523160979744,0.07270985672413868,0.7409136320697612,-0.00045181688765411646,-0.5206620373031896,-0.0005131719472058642,0.8537625989860089,-0.02036423622158811,-0.7958335143732114,0.8258859763188082,0.01953772405924581,-0.807377669724478,0.8416405063428655,0.009169596842189756,0.6152595314775265,1.0074843920176402,-0.009078462935616673,0.6209136589015551,0.9851774376203065,0.0,0.0,0.0,0.0
-0.007203166774063741,0.07248015861441903,0.7411614114868851,-0.00013051368468488842,-0.5210987568118635,-0.00040774562451506455,0.8534962813971799,-0.02030862319332407,-0.7971579361609019,0.8324744884801987,0.01963475449461942,-0.8104368929266097,0.850713999223264,0.009414060666220496,0.6205506987909295,1.0046681245881532,-0.009016566323443354,0.6258891923809422,0.9840775163236671,0.0,0.0,0.0,0.0
-0.00630146005696431,0.07223663542769211,0.7412788247999477,0.00021448475666635918,-0.5215066856255819,-0.0002987753210938276,0.8532471163604464,-0.020241659410341957,-0.7983532059616384,0.8381014265050564,0.01974370532274872,-0.8134773401656091,0.8589648313605384,0.009637882712014224,0.6248724428692081,1.002942275893563,-0.008969092455871207,0.6298607664820264,0.9841764181601941,0.0,0.0,0.0,0.0
-0.00559176316763967,0.07205359977016958,0.7413353394902428,0.00047192098133402844,-0.5218400378119487,-0.0002223265862585307,0.8530432010149899,-0.020175219677248186,-0.7993327791399345,0.8425082750536409,0.019844506309456916,-0.8158316665607689,0.8653058531682745,0.009801023039893098,0.6281476456685472,1.0019393448926506,-0.008949253511540937,0.6328608537921921,0.9845377024346945,0.0,0.0,0.0,0.0
-0.005087528117720163,0.07195065218425792,0.7413730945327954,0.0006114122943916866,-0.5220906034150271,-0.00018723410903977392,0.8528897894476914,-0.02011403452647853,-0.800042414525319,0.8456924972524505,0.019928826373477006,-0.8173014116921992,0.8695388477966574,0.009894966583578633,0.6304984335301704,1.0013648921060665,-0.008958765619953561,0.6350373832679425,0.9847200789067466,0.0,0.0,0.0,0.0
-0.0047600371065954425,0.07191482352670463,0.7414064072181473,0.0006514158355696577,-0.522263633860889,-0.00018700548435617693,0.8527838163525251,-0.020056633294099357,-0.8005265365983051,0.8478553338617416,0.019999336452124757,-0.8180376982107216,0.8720234296546694,0.009926766387925143,0.6320907656929969,1.0010458633049375,-0.008994070715680638,0.6365352565312125,0.9846494070873364,0.0,0.0,0.0,0.0
-0.004561702245889203,0.07191841404970713,0.7414320799699964,0.0006329014584123479,-0.5223707726861362,-0.00020831267851538878,0.852718201919521,-0.019998512402064447,-0.8008821961626705,0.8492859741843843,0.020064408694402232,-0.8183543706457479,0.8733588693140141,0.009910716602627198,0.6330890631785001,1.0009051161847233,-0.009049244069887552,0.6374794527887219,0.9844561335848049,0.0,0.0,0.0,0.0
-0.00444278643187192,0.07193036658959384,0.7414374155412177,0.0006021111241422776,-0.5224240809999043,-0.00023649944811537175,0.8526855581758205,-0.01993386823153687,-0.8012272651007466,0.8502802294129056,0.020134581506056532,-0.8186103090534314,0.8741826134207379,0.00986217889271497,0.6336238282747735,1.0009336622652167,-0.009118550505007247,0.6379571655450901,0.984362700393121,0.0,0.0,0.0,0.0
-0.00436265671201455,0.07192263183284549,0.7414045648915186,0.0006007842973417826,-0.522430662691428,-0.0002587833952390786,0.8526815201288097,-0.019856230261796573,-0.8016859889469093,0.8510890327297826,0.020220889232568214,-0.8191479111932213,0.8750533902281192,0.009792922779885464,0.6337618367447372,1.001174958282446,-0.00919842630959796,0.6379945706869625,0.9846209173847477,0.0,0.0,0.0,0.0
-0.004297990331024686,0.0718743562789377,0.741312476521108,0.0006597934630921116,-0.522387599376779,-0.00026644997604291493,0.8527078571787421,-0.019758646772417742,-0.8023866353058688,0.8518856576181754,0.02033420979986799,-0.8202591994706222,0.8763735409273514,0.009707219477481701,0.6334762247614429,1.0017199607446101,-0.009289016796230403,0.6375313265562962,0.9854754295728916,0.0,0.0,0.0,0.0
-0.004250024439981018,0.07177702977077328,0.741139217966194,0.0007914113113715569,-0.5222770314404486,-0.0002574796738192301,0.8527754744375019,-0.019634143472564588,-0.8034651366068608,0.8527454110170577,0.020484466375218585,-0.8221491653236789,0.8783104433497303,0.009598074691014485,0.632621402103714,1.0027004902081367,-0.00939550454997472,0.636402265474948,0.9871176515800127,0.0,0.0,0.0,0.0
-0.004250461687852495,0.0716440558026108,0.7408706428952576,0.0009748488144570376,-0.5220625691603681,-0.00024109145268966467,0.852906598301582,-0.019477597676819218,-0.8050657928792548,0.8536476493605774,0.020677955400974807,-0.8248604541034209,0.8806901351399894,0.009443871813597524,0.6309430901384563,1.0042417515098543,-0.00952902066709853,0.6343614800159868,0.9895663277736011,0.0,0.0,0.0,0.0
-0.004359116957878802,0.07152918128630088,0.7405337989445386,0.00112849005340158,-0.5216979976390519,-0.0002453474804249241,0.8531294541710636,-0.01929254701790031,-0.8072709247498936,0.8545074765281659,0.020907671400715366,-0.8280552676306399,0.8828235167867343,0.009209992204000074,0.6282553538258706,1.0062407667142552,-0.009704564517048013,0.6312902847303759,0.9923111241980781,0.0,0.0,0.0,0.0
-0.004623580542964576,0.07155519959449695,0.7403616067172799,0.0010769469535209062,-0.5213987966561835,-0.0003049102859815952,0.8533123941795645,-0.019164390456725692,-0.8082616114100976,0.8538970826609894,0.02104851322212638,-0.8289337696354953,0.8819545127476567,0.008957714440927878,0.6259786734942602,1.0075019630549464,-0.009878114583763017,0.6288666159464611,0.9932862903792727,0.0,0.0,0.0,0.0
-0.004596554731461425,0.07210159428859854,0.740712772635707,0.0011809415477235404,-0.5221624362938168,0.00040613314743700486,0.8528451386720999,-0.01564658740499192,-0.8210622240962473,0.8522762894393671,0.017564743891747073,-0.8213139090567466,0.8749896796027657,0.009110904592573885,0.628356033555755,1.0071262677100392,-0.009858223233760609,0.6339198579681503,0.9905189108029011,0.0,0.0,0.0,0.0
-0.004542025129618992,0.07281102176567669,0.7411361064370923,0.001021622683556376,-0.5228712458302618,0.0010236817144298781,0.8524104461154556,-0.012268362814826322,-0.8414832378425033,0.8478726130895456,0.014124566872970512,-0.8132413283313044,0.867475495791064,0.009239410090746372,0.6309391599971038,1.0065514214829838,-0.009837548460008295,0.6393923150341345,0.9863082886331401,0.0,0.0,0.0,0.0
-0.004472983492684541,0.07349009200425213,0.7414672898890763,0.0008510634459569938,-0.5234255593415108,0.0015883352153168795,0.8520695022768279,-0.009087826131600023,-0.8643273785044722,0.8405016853100555,0.010949048791829659,-0.8065475856070943,0.8611668271247916,0.009312185179414803,0.6328312747767054,1.0064033754813462,-0.009846580516713221,0.6439862597556028,0.9826176472230497,0.0,0.0,0.0,0.0
-0.004362505539384921,0.07408870900441585,0.7416775595204039,0.0007476029948415657,-0.5238602012254495,0.0021282276228771573,0.8518012686706793,-0.0060757855691313655,-0.8874095077257788,0.8316364230194101,0.008023278750111575,-0.8014850554650677,0.8565326485704626,0.009352564882722222,0.6340809642005704,1.0068183240813784,-0.009876299913549118,0.647684912317827,0.9799755508349746,0.0,0.0,0.0,0.0
-0.0041935652631586145,0.0746133513047422,0.7417863839247774,0.0007106894284621788,-0.5242106927786864,0.002652294694388031,0.8515841765967003,-0.00319937771318686,-0.9099267937627854,0.8219570963026548,0.005295773388115779,-0.7978626740029257,0.8535312363490705,0.009378259850345303,0.6349007104274978,1.0076984918671879,-0.009917158864316917,0.6507356710175627,0.978266695688287,0.0,0.0,0.0,0.0
-0.003957810791295832,0.07508890329091933,0.7418240925258685,0.0007136003019010429,-0.5245015545174859,0.003161909921174842,0.8514033194726224,-0.000427201524995177,-0.9317661693948565,0.81162184894343,0.002711226707427744,-0.7953892454388458,0.8519475576322104,0.009399445467714785,0.6354922681999403,1.0088929026176223,-0.00996237326706984,0.653405818447563,0.9771809845657451,0.0,0.0,0.0,0.0
-0.00365110084975834,0.07554216534891268,0.7418173300230606,0.0007265753508464675,-0.5247474381812286,0.003656762684748297,0.8512498025240092,0.002270802553329399,-0.9530348204574334,0.8006066431776098,0.0002194025643010378,-0.7938065738925636,0.8515565010093973,0.009421413409198016,0.6360036350258654,1.0102722446601295,-0.010007649700590272,0.6559099644091905,0.9764106152786979,0.0,0.0,0.0,0.0
-0.0032725131217310136,0.07599650174254191,0.7417845043879442,0.0007240477060348733,-0.5249533159385563,0.004136561647537814,0.8511206616560132,0.004923860876637777,-0.9737202837038775,0.7889140997567876,-0.0022224694811311197,-0.792933652578064,0.852178469310465,0.009445417644444423,0.6365139796468071,1.0117523463122908,-0.010051085617593674,0.6583841105246474,0.975714798885886,0.0,0.0,0.0,0.0
-0.0028274369027389023,0.0764716024160367,0.7417355652630303,0.0006847280548642315,-0.5251140191150971,0.004600914306744344,0.8510191711494062,0.007560872014703676,-0.9934171301608163,0.7767361073735384,-0.004650035612656309,-0.7926564130068042,0.8536564488287418,0.009467964962019428,0.63702253663026,1.0132976660739172,-0.010093420328969484,0.660872932897599,0.9749260382135065,0.0,0.0,0.0,0.0
-0.002334079288730769,0.07698400938775492,0.7416728613829117,0.000591023723748545,-0.5252155075161626,0.005049352607638572,0.8509540677344115,0.010211053178837415,-1.0111041314572309,0.764661367231915,-0.007093588456303166,-0.7928806036192819,0.8557784971496374,0.009479840436630815,0.6374362605849072,1.014923863916196,-0.010138293047652038,0.6633183588025309,0.9739498379340817,0.0,0.0,0.0,0.0
-0.001830103075308731,0.0775450833654979,0.7415911991184178,0.00043293614413442594,-0.5252434623131795,0.005483322271353974,0.8509342225110159,0.012904344536453945,-1.025043828610612,0.7539699533333891,-0.00958118136196422,-0.7934525006997785,0.8581717967779064,0.009467823233245307,0.6375724934368345,1.0167135432681838,-0.010191319062363357,0.6655617596973464,0.9727979243366218,0.0,0.0,0.0,0.0
-0.0013414928115177856,0.07814177454935058,0.7414703066764908,0.0002370888505220763,-0.5251897565382097,0.005915085669843458,0.8509645557705275,0.015674985741930644,-1.0329774175032245,0.7468271122651198,-0.012133533538237392,-0.7943958386845106,0.860719905753975,0.009424333018035394,0.6372407558498155,1.0188043107839468,-0.010256491098406779,0.6674000942582299,0.9717189306608975,0.0,0.0,0.0,0.0
-0.0009050689747052146,0.07876421953339645,0.7413071611422366,3.135163999328986e-05,-0.5250922267464416,0.006362877868850931,0.851021542743052,0.0185590024540434,-1.0331190669642911,0.7461719999311685,-0.014794994989860248,-0.7953278769455239,0.862881156951251,0.009355550831253119,0.6364095231871905,1.0212872324436435,-0.010330605762818688,0.668814267312263,0.9709031421690443,0.0,0.0,0.0,0.0
-0.0005216797908921411,0.07941971859696313,0.741104208731449,-0.00018560257401438097,-0.5249596284702801,0.00683361645390146,0.8510996743708641,0.021590550580291183,-1.0254473422680155,0.7519729770424305,-0.0176020059202964,-0.7961528448089291,0.8645559755653639,0.009263525723880988,0.6350967502824179,1.0241751605498377,-0.010412171084994372,0.6698522820774293,0.9703299796927685,0.0,0.0,0.0,0.0
-0.00010921416259120753,0.08011376373181159,0.7408585262911023,-0.00041936837880072385,-0.5247541641723701,0.007327395365652031,0.8512221805093401,0.024805959453060935,-1.0116094040299601,0.7611861785327904,-0.020568063865362723,-0.7975272735271755,0.8667916528854305,0.009150602398684177,0.6334260086793035,1.0273602992326096,-0.01050043157794777,0.6706502636100937,0.9698567413331922,0.0,0.0,0.0,0.0
0.0003233095404446012,0.08090624581115388,0.7406202283414892,-0.0007454455754189053,-0.5244971598590255,0.007833784234386043,0.8513758308968367,0.02824034744489667,-0.9937688791423703,0.771671138582954,-0.023765088009162556,-0.7988501585317618,0.8689311517914042,0.00901778031477806,0.6316144707330874,1.0306344391182618,-0.010590874661628235,0.6715516573336933,0.9688544743760347,0.0,0.0,0.0,0.0
0.0008099115121267908,0.08182560625186973,0.7404246409159833,-0.001191275505928282,-0.5242108358084295,0.008356803584704052,0.8515466777091808,0.03193894463941736,-0.9734163347567666,0.782010930419995,-0.02725626686119112,-0.7999243247743837,0.87096771683242,0.008876596207521424,0.6299550780010138,1.0337778439064698,-0.010675016494771565,0.6729334074834227,0.9669105780941645,0.0,0.0,0.0,0.0
0.0013569484904357486,0.08290592288102845,0.7403125093127036,-0.0017888749555292917,-0.5239271881812322,0.008901746035785972,0.851714658984108,0.035951430400907,-0.95124816544308,0.7913698038242776,-0.031116403051539527,-0.8003001881883149,0.872507636333972,0.008735608792011115,0.6287045658404987,1.0365824826762777,-0.010744095607246616,0.6751548061183582,0.9635821507701202,0.0,0.0,0.0,0.0
0.0019536827620004827,0.08418199162650195,0.7403286490730321,-0.00256737400782639,-0.5236824668914217,0.009477151125525109,0.8518569516460864,0.040333836583262075,-0.9273145536414682,0.7991427528591718,-0.035427854306682875,-0.7993925068866112,0.872945318910684,0.008600522940119199,0.6280971002504849,1.0388259119075873,-0.010788865985030236,0.6785657869355147,0.9584013382984571,0.0,0.0,0.0,0.0
0.0025847168485992646,0.08566839800213727,0.7405070421448734,-0.0035215846710087814,-0.5235249821913102,0.010103858044314204,0.8519431339682324,0.045149643701157594,-0.9013242455895797,0.8046876494694853,-0.04027162592831686,-0.7966354535905963,0.8716887999982789,0.008480841679589384,0.6283432187858995,1.0403364625043805,-0.010797975060008683,0.6834759799925509,0.9510936054467013,0.0,0.0,0.0,0.0
0.003234726392263306,0.08731057121913377,0.7408239714932544,-0.004540554676999626,-0.5235329903120486,0.010834551592645665,0.8519244120870911,0.05047090732534922,-0.8730575530214641,0.8071569116713984,-0.04570660449069554,-0.7917617115379767,0.8684654026769958,0.008402243620517749,0.629499005191751,1.0412787494319737,-0.010758215744846707,0.6899351527664689,0.9422436053096801,0.0,0.0,0.0,0.0
0.0038526204386911244,0.08887366341052574,0.7410096137438043,-0.005255901839473114,-0.5238344134115016,0.011789666707792433,0.8517223060250336,0.056380906360372136,-0.8430459942264316,0.8053613863418959,-0.05171080037036576,-0.785591043079531,0.8638120061559253,0.008424093476336124,0.6305977574149332,1.0435450878295238,-0.01066559212007185,0.6965882644235761,0.9356378168689051,0.0,0.0,0.0,0.0
0.004395420180529281,0.09015131146386152,0.7409509481062079,-0.005346158029090786,-0.5244963701289178,0.013067490813611138,0.8512956108190347,0.06295105154547352,-0.8113700496118834,0.7955841784092312,-0.05824693274781077,-0.7787898169256614,0.8583812802451167,0.008575968664632335,0.6312661500578723,1.0476305218990483,-0.010533382297165505,0.702694909906974,0.9334335594360359,0.0,0.0,0.0,0.0
0.004724138677629976,0.09077570746445492,0.7405812830288286,-0.004357969745570994,-0.5251382912613338,0.014698980699330193,0.8508787946101511,0.07009996107683833,-0.7769526099863381,0.7663192270481879,-0.06485185559748008,-0.7748686596694894,0.855482350242306,0.008682132104268273,0.6301046125122476,1.0524372606120376,-0.010486989147732807,0.7060234943746724,0.9370127241251655,0.0,0.0,0.0,0.0
0.00476913308791992,0.09086377621200385,0.740558267194932,-0.004388673087774708,-0.5251009841187965,0.014759741723710204,0.8509006087964971,0.07056281529622345,-0.7767444895977506,0.7663571405223664,-0.06521347756376086,-0.7749244707726781,0.8555717884194758,0.008668848955659397,0.6299106328865766,1.0527095205388637,-0.010457082021251477,0.7061730814112422,0.9367793806605692,0.0,0.0,0.0,0.0
0.00476913308791992,0.09086377621200385,0.740558267194932,-0.004388673087774708,-0.5251009841187965,0.014759741723710204,0.8509006087964971,0.07056281529622345,-0.7767444895977506,0.7663571405223664,-0.06521347756376086,-0.7749244707726781,0.8555717884194758,0.008668848955659397,0.6299106328865766,1.0527095205388637,-0.010457082021251477,0.7061730814112422,0.9367793806605692,0.0,0.0,0.0,0.0
0.004985050509540548,0.09088655728003892,0.7402147985174378,-0.004412934545357967,-0.5247055123530464,0.014732881193321572,0.8511448722319656,0.07070552593845832,-0.7816056715973728,0.7718711337304516,-0.06530176374514522,-0.7794440333909368,0.860506602354991,0.00842737423305552,0.62797319328509,1.0548216881672252,-0.01067091033373606,0.7040485725796369,0.9388507024208209,0.0,0.0,0.0,0.0
0.005261480392375312,0.09092189743816911,0.7398943554581039,-0.004445097593039305,-0.5244985981182306,0.014716917637033707,0.8512725027948829,0.07077758201546731,-0.7856174051822712,0.7768662383428786,-0.06542250636475036,-0.7830003617037882,0.8647933595785235,0.008262106231366055,0.6267974697536545,1.057063220769983,-0.010847955667860466,0.7027374108506946,0.9410115784516409,0.0,0.0,0.0,0.0
0.005580519017069647,0.09100303603051027,0.7396185777604486,-0.0045363700405288265,-0.5244272201168946,0.014694897985352721,0.8513163760439015,0.07077891184009144,-0.7891285645634846,0.7817371530003646,-0.0655786203773963,-0.7856071768828281,0.8683383380230199,0.008145996808186923,0.6262806107538216,1.0592647324395403,-0.010999379999361252,0.7021893235854724,0.942817635486479,0.0,0.0,0.0,0.0
0.005939786129521878,0.09114671657697984,0.7393805814613059,-0.004713313409546681,-0.5244599359686127,0.014658049592722641,0.8512958955748813,0.07071257654486397,-0.7924336885374957,0.7868015439073746,-0.06577460477785671,-0.7873901209809404,0.8712163993256024,0.008066206720591695,0.6262974812645783,1.06147883356263,-0.01113082706222306,0.7022965074985799,0.9441980486915663,0.0,0.0,0.0,0.0
0.006343840450980031,0.09136585279480489,0.739173230746418,-0.0049964465615770556,-0.5245776794211483,0.014600055937715958,0.8512227276932259,0.07058012328214706,-0.7957653403277869,0.7923338569892238,-0.06601559309657647,-0.78845132884624,0.8735169025012894,0.008016308981713,0.6267767237045697,1.0637634278685035,-0.011244524524306064,0.7029995986611193,0.9451205039282985,0.0,0.0,0.0,0.0
0.00680861428522046,0.09167865892677383,0.7389958482873841,-0.00541405708351995,-0.5247687605351805,0.014513074306934638,0.8511038753445012,0.07038004073392232,-0.799379796429569,0.7987097282411909,-0.06630976961622345,-0.7888604491985345,0.8753519370708059,0.007994722448173565,0.627727902270469,1.0661377443880136,-0.011338962973397936,0.7043310096725474,0.9454743305618184,0.0,0.0,0.0,0.0
