zhuoxili-jackie/tripod-support-walk/examples/trajectory_tripod_com_tilt_v0.15.csv
root_pos_x,root_pos_y,root_pos_z,root_rot_x,root_rot_y,root_rot_z,root_rot_w,FL_hip_joint,FL_thigh_joint,FL_calf_joint,FR_hip_joint,FR_thigh_joint,FR_calf_joint,RL_hip_joint,RL_thigh_joint,RL_calf_joint,RR_hip_joint,RR_thigh_joint,RR_calf_joint,FL_foot_joint,FR_foot_joint,RL_foot_joint,RR_foot_joint
0.0,0.0,0.72963,0.0,-0.5231245161092812,0.0,0.852256264656019,0.0,-0.81,0.872,0.0,-0.81,0.872,0.0,0.65,1.0,0.0,0.65,1.0,0.0,0.0,0.0,0.0
-0.00010616673338026227,0.00027671675661329175,0.7296147189419021,-9.893938085493602e-05,-0.5230711886327442,0.00011187631099122002,0.8522889822806687,-0.0009433534467394438,-0.8107836416390549,0.8725548865724638,-0.0009433534467394424,-0.8088228193041443,0.8699335767564674,-0.0005480548577291992,0.6491791211331059,1.0009430819334157,-0.0005480548577292001,0.6497669053144788,0.9993013323611696,0.0,0.0,0.0,0.0
-0.00023006395572296807,0.0006087824999704072,0.7296030552682989,-0.00021666219019234628,-0.523024239209986,0.00024109521540478335,0.852317745989961,-0.002062794898644779,-0.8116050247135701,0.8731345083921223,-0.0020613110009018967,-0.8073056462033855,0.8673739388309104,-0.0012431058409670538,0.6482965559087013,1.0020480177358748,-0.001241325878300805,0.6495633846604579,0.9984261415506998,0.0,0.0,0.0,0.0
-0.0003397100396840061,0.0009109467081579535,0.7295956829941439,-0.0003239355880688913,-0.5229865523106509,0.0003536377638974557,0.8523407981014903,-0.0030679207970735513,-0.8123167513808499,0.8736488956784579,-0.003063533550222456,-0.8058998545190456,0.865033280306868,-0.0019058375171717985,0.6475449599477926,1.003033317223565,-0.0019003365923179912,0.6494068345780104,0.9976000044891918,0.0,0.0,0.0,0.0
-0.000411488948624699,0.0011530104039613632,0.7295899333867045,-0.000405106957957058,-0.5229643180993857,0.00043409003905475074,0.852354368469497,-0.0038499060158808185,-0.8128998573616152,0.8741584201475018,-0.003842204776490057,-0.8048274470817629,0.8632844324309032,-0.0025278203971316154,0.647043723825357,1.0038321878152352,-0.002517483745092385,0.64932136842272,0.996926412699069,0.0,0.0,0.0,0.0
-0.00044423825685365034,0.0013326728075801822,0.7295837116979513,-0.0004587388059895229,-0.5229601778236214,0.00048182587465731653,0.8523568559079118,-0.004401939179050017,-0.8133448381321761,0.8746541516007439,-0.0043913624765245275,-0.8040984379421491,0.8621459583168767,-0.003107221566183386,0.6467951804733304,1.004462838331169,-0.003091602016656687,0.6493029777643003,0.9964374889223335,0.0,0.0,0.0,0.0
-0.00044926302518090737,0.0014552547790231591,0.7295761540615981,-0.0004912667752475872,-0.5229702665637986,0.0005036008140236096,0.8523506352044122,-0.004751687537291097,-0.8136509901238412,0.8750821506191211,-0.004739039770515683,-0.8036475299208946,0.861491685098769,-0.0035974741837725512,0.6467278184014583,1.0049459558094538,-0.003576797636745622,0.64932680711826,0.9961336219119533,0.0,0.0,0.0,0.0
-0.0004426158882204687,0.0015249164741546468,0.7295675769788049,-0.0005116578613121533,-0.5229872094537765,0.0005078030456030792,0.8523402249630434,-0.004926743186575418,-0.8138125349018357,0.8753588550578861,-0.004912873019440405,-0.8033961321774487,0.8611612435244574,-0.003917210264218805,0.6467443111735145,1.0052816860711875,-0.003892674795784946,0.6493594287156845,0.9960070074088334,0.0,0.0,0.0,0.0
-0.000435447153321602,0.0015390928645313395,0.729558902390696,-0.0005268958332600286,-0.523002107899015,0.0005001073036536088,0.8523310785174109,-0.004931567026904496,-0.8138340863471427,0.8754279436844199,-0.004917307187320122,-0.8033222920378205,0.861083802420409,-0.003968385371297258,0.6467669416866855,1.0054372592588716,-0.003942449038105906,0.6493745502659305,0.9960568844647028,0.0,0.0,0.0,0.0
-0.0004441801128854109,0.0014924782751124226,0.7295518192966598,-0.0005490395614290708,-0.5230002376033004,0.0004895174698627922,0.8523322183251657,-0.004769519822105378,-0.8137309630083718,0.8752127164847909,-0.00475557345856234,-0.8034020569664649,0.861165898891731,-0.0035809017123118263,0.6466736668440375,1.0053516232116122,-0.0035576341921693764,0.6493359521404187,0.9962818906842951,0.0,0.0,0.0,0.0
-0.0004899088223983514,0.0013811754553433957,0.7295482966400467,-0.0005977408301966474,-0.5229600814502526,0.0004904357391349539,0.8523568239817352,-0.00445744459138174,-0.8135564652241806,0.8746499220797542,-0.004444219109532711,-0.8036031247131432,0.8612821567211099,-0.0025132608644963224,0.646288711287528,1.0049486994683898,-0.0024977214047953223,0.6492010971222851,0.9966700201895754,0.0,0.0,0.0,0.0
-0.0005952528864479348,0.0012165287640365397,0.7295547921341327,-0.0006906307924565988,-0.5228778865396804,0.0005085760823153353,0.8524071680524948,-0.004028069025373277,-0.8132539457165897,0.8735955286300574,-0.0040156005782060866,-0.8037408655966778,0.8611311194352759,-0.0007006079746638418,0.6455339705031716,1.0042097536268833,-0.0006941927214186689,0.648959414480544,0.9971433165178121,0.0,0.0,0.0,0.0
-0.0007701487699438309,0.0010783433977124503,0.7296772580986868,-0.0006625910886853292,-0.5231405295896892,0.00028657135530629345,0.8522461294429721,-0.0030794296980101677,-0.8096496259534631,0.8693281849328518,-0.0030702822346324495,-0.8015066985365692,0.8583520725075817,-0.0013487700539907962,0.646822756386619,1.0035449970103003,-0.0013381117501299706,0.649197188999787,0.9969729525569819,0.0,0.0,0.0,0.0
-0.0007247563208140536,0.0008170851402266912,0.7296802562497885,-0.0007919772840088594,-0.5231257606820582,0.0002656408493280238,0.8522550913416351,-0.0022758886597722,-0.8095244515252082,0.8690837338071121,-0.012898050392440205,-0.8154699455103537,0.8552144193275133,0.0010899241546200285,0.6466735742968475,1.002544999878459,0.0010927640006661585,0.649556140978099,0.9977907219994941,0.0,0.0,0.0,0.0
-0.0005309993439110703,0.0004726605534449692,0.7297085203646285,-0.0008154301445299288,-0.5232847357875295,6.310121973761781e-05,0.852157506793017,-0.0008313462107442222,-0.8084397688241385,0.8686673076193553,-0.026481116664446674,-0.834654475244414,0.8478698940359459,0.0022809761582975752,0.6481036998157517,1.0014626550326016,0.00228779230493623,0.6503675460928062,0.9986900786678818,0.0,0.0,0.0,0.0
-0.000243901864216238,3.8998720299664256e-05,0.7297519305520869,-0.0007704327195078233,-0.5235279680348348,-0.0002417728648627726,0.8520081071589773,0.0010741025462785644,-0.806825451844363,0.8681495026709922,-0.04048636951211937,-0.8556488265459751,0.8385557573600441,0.0030112285156958934,0.6504148962228012,1.0001394830618324,0.0030205917130584964,0.6514434097550177,0.9997309600298272,0.0,0.0,0.0,0.0
0.00011148670467591061,-0.0004957523790819602,0.7297943544936174,-0.0006806134960514949,-0.5237815209102515,-0.0005978067933049942,0.851852157211127,0.0033436041082368366,-0.805122121760841,0.8677594923140027,-0.053609240702424496,-0.8767544608495177,0.8282850074502092,0.00382685004699938,0.6531005072230692,0.9984868549709816,0.0038387362101566973,0.6526069062409112,1.0010205014851135,0.0,0.0,0.0,0.0
0.0005360995531732019,-0.0011500298957239647,0.7298235717010716,-0.0005469746211059052,-0.5240050917005027,-0.000987675866562616,0.8517143824000474,0.005976887229908018,-0.8035933695888746,0.8676996450531879,-0.06554730894357598,-0.8973124175072428,0.8174093342959181,0.004969948378111379,0.655947809712008,0.9964450253853588,0.004987256381019642,0.6537535728172411,1.0026616646668474,0.0,0.0,0.0,0.0
0.0010445947992912914,-0.0019490374628698,0.729829370283501,-0.0003587851666166247,-0.5241753408741904,-0.0014138202821212986,0.8516091147967125,0.009038724761678598,-0.8024007365276661,0.8681448518690634,-0.07635509292292544,-0.9170363396289943,0.8060557209694003,0.006533237955272069,0.6589012278503004,0.9939567459991524,0.0065630710243618565,0.65481348641814,1.0047615238560323,0.0,0.0,0.0,0.0
0.001652379969518747,-0.0029212029619921794,0.7297995089392412,-9.631769669412854e-05,-0.524288019188533,-0.0018932666853011036,0.8515388888356915,0.012637109302572256,-0.8015502446408824,0.8691187203983174,-0.08604954599202423,-0.935439336233529,0.794575580283096,0.008481728001715705,0.6619979251819805,0.991023806912573,0.008537507164322155,0.6557148137114466,1.0074748797236404,0.0,0.0,0.0,0.0
0.002475892501532591,-0.00402776574684447,0.7297061081737068,0.0002882488333514243,-0.5243557003193208,-0.0024546552575787613,0.8514957375834662,0.01672594853918311,-0.8016285977861122,0.8717967776156981,-0.09481841546930388,-0.9509142005657563,0.7833931939920404,0.010067203429033602,0.665649727087315,0.9879805786539669,0.010163564371047342,0.656552746085293,1.0107879800712705,0.0,0.0,0.0,0.0
0.003442304396136833,-0.0053058220667888695,0.7295361681022129,0.0007749427128088137,-0.5243424857759411,-0.003089645680523956,0.8515015039115712,0.0213971997362008,-0.8024208507035056,0.875508040528569,-0.10261170712742727,-0.961591445926337,0.7740275422313654,0.011720287380843207,0.6694251340665817,0.9847798297665559,0.01187732038961475,0.6570387025470154,1.0149296403871397,0.0,0.0,0.0,0.0
0.0044398083331536175,-0.006767215481658923,0.7293005056356144,0.0013170208032596954,-0.5242076286180418,-0.003771117850520198,0.8515811213413613,0.0266450585362765,-0.8035934079659344,0.8793401700276958,-0.1095546615621595,-0.9651300713805855,0.7688603208005407,0.01399180600467732,0.6727992954239121,0.9812532655618504,0.014244197310683007,0.6569430466381638,1.0198824009053764,0.0,0.0,0.0,0.0
0.0054266102495333975,-0.00837460649755956,0.7290709938096482,0.0019041202329744364,-0.5240041761134779,-0.004498190518358893,0.8517016872261285,0.03237867866049328,-0.8044637858123761,0.8825872853717701,-0.11568209117216208,-0.9600073772097834,0.7707441388455458,0.016693356768692005,0.6761413110704162,0.9770101177424768,0.017086036760030676,0.6566298652608982,1.0250117124135487,0.0,0.0,0.0,0.0
0.006455603485574175,-0.010187920608628146,0.7288117142905752,0.0025508391579613858,-0.523661137664039,-0.005283609584750644,0.8519064441532007,0.038786250704597416,-0.8056272789368814,0.8859435898673199,-0.12101431366753578,-0.9476442102569925,0.776584887277888,0.02005426265588367,0.6792887068029615,0.9719684342393347,0.020654013751329657,0.6558885934507684,1.030620506381629,0.0,0.0,0.0,0.0
0.007631287911764839,-0.012247240779793228,0.7284886982989035,0.0033100389224378925,-0.5231828289315464,-0.0061747667425876744,0.8521916705819125,0.046081973142036776,-0.8073864311426248,0.8901099341862522,-0.12555727980615733,-0.9303087448978805,0.7836552581033073,0.02370022809766684,0.6826069904954345,0.9662281151331046,0.02458999802811477,0.6547324142385365,1.0369654658431877,0.0,0.0,0.0,0.0
0.009070766518530714,-0.014482338351678914,0.7281284245895422,0.004223369041874799,-0.5226375232030214,-0.00720518162301996,0.8525140866002899,0.054167998251410505,-0.8098282266852997,0.8958914676515874,-0.12982622204576658,-0.9095888673323752,0.7902042370186276,0.026666808758608218,0.6869599204647698,0.9598203933706445,0.0279073520798632,0.6536543086153969,1.0435217475279506,0.0,0.0,0.0,0.0
0.010754901907204397,-0.01677576879443918,0.7277337682784756,0.005268806989754194,-0.5220651047022277,-0.008355075157496523,0.8528484383782791,0.06271802083742983,-0.812895638314493,0.903285557723193,-0.13477456823275322,-0.8862959115412518,0.79487974086419,0.028420780257908635,0.6923872354982605,0.9531934212757196,0.03002808243075794,0.6527339595009235,1.0499833668768594,0.0,0.0,0.0,0.0
0.012493517800843765,-0.018918106401742883,0.7271895573836413,0.006358843351275978,-0.5215011809392723,-0.00953264111758743,0.8531736119591965,0.07100986964790808,-0.8165928795699291,0.9114394614115453,-0.14172904892768218,-0.8609154239658662,0.796244291122313,0.028680793365381804,0.6975409109117711,0.9483779061465124,0.03061318436432656,0.6511667289190701,1.0570726406180908,0.0,0.0,0.0,0.0
0.014161894322239679,-0.020711387496629294,0.7265080726236989,0.00741749292986366,-0.5209616177372164,-0.010643568101600451,0.8534815101109833,0.07831933303044647,-0.8210484571953485,0.9201736631900772,-0.1517570188340673,-0.8333976402235848,0.7917260505519724,0.027154531680104822,0.7018282901819324,0.9461334328920386,0.029309192863862712,0.6488407708183276,1.0643475062197578,0.0,0.0,0.0,0.0
0.015552329813925785,-0.021989339973205416,0.7257755425431107,0.008303139557429237,-0.5203456453315873,-0.011507292918367228,0.8538378355798218,0.08380123583148508,-0.8266938815661025,0.9292514196181078,-0.16482286972227977,-0.8040240747839917,0.77658207101721,0.02471106983592601,0.7041266984036174,0.946184661333142,0.02699144846447231,0.6457109545060038,1.0708264870379194,0.0,0.0,0.0,0.0
0.016338450823478193,-0.022556200271086478,0.7251547944692848,0.008816497775408303,-0.5195589195372399,-0.011871439109023,0.854306658893487,0.08633293385302218,-0.8334993408907156,0.9375835183070047,-0.17849256499532382,-0.7745138467160001,0.7446840980692149,0.022910726950531448,0.7030424443377868,0.947739332074095,0.025244376031451077,0.6419582757693009,1.0750579174550907,0.0,0.0,0.0,0.0
0.016380624378282284,-0.02259810307393139,0.7251378415765134,0.008871720314166047,-0.5195385467732303,-0.011865199225364022,0.8543185635597352,0.08643160035827645,-0.8335311127219416,0.9376323449587268,-0.17848555489579093,-0.7744481533498931,0.7446964594928538,0.022884717378194818,0.7030977746777081,0.9476350532704236,0.0252482498218083,0.6419506040660506,1.0752064824670897,0.0,0.0,0.0,0.0
0.016380624378282284,-0.02259810307393139,0.7251378415765134,0.008871720314166047,-0.5195385467732303,-0.011865199225364022,0.8543185635597352,0.08643160035827645,-0.8335311127219416,0.9376323449587268,-0.17848555489579093,-0.7744481533498931,0.7446964594928538,0.022884717378194818,0.7030977746777081,0.9476350532704236,0.0252482498218083,0.6419506040660506,1.0752064824670897,0.0,0.0,0.0,0.0
0.01667038531042386,-0.02267685934517649,0.7250870489388507,0.008587420083976524,-0.5195438222125971,-0.011507131676424514,0.8543231583760376,0.08592289297141097,-0.8359197469862643,0.9408948985250238,-0.17922032648850733,-0.7751272673619464,0.7471363368469445,0.027789590135907642,0.702338021950397,0.9469734284259804,0.030379165646696325,0.6442260720127257,1.0759189051014442,0.0,0.0,0.0,0.0
0.017048431066257617,-0.022836027146020007,0.7249997887052131,0.008468238515548116,-0.5197178126746969,-0.011313478821416744,0.8542211009580774,0.08592679735847981,-0.8370906132596505,0.9433127145243633,-0.17938972774818365,-0.7764320885192509,0.7507128794171982,0.03112491322882099,0.7027577595742635,0.9467772651543663,0.03396801905221891,0.6464890672062528,1.0772079926804885,0.0,0.0,0.0,0.0
0.017474723355021198,-0.023127205218917334,0.7248823049432289,0.008468877679149948,-0.5199888559303799,-0.01125758538650008,0.8540568684755926,0.08654930194574274,-0.83721167942212,0.9447667474170023,-0.1789196972669967,-0.7785811779816653,0.7555793198985226,0.033750300818711734,0.7039209374115962,0.946646697308493,0.03686184509408112,0.6486433506750612,1.0791132283132039,0.0,0.0,0.0,0.0
0.017931062272231606,-0.023612468402187413,0.724746883191463,0.008561205407066463,-0.5203009331479845,-0.011319373685545269,0.8538650458396113,0.08792374254207119,-0.8363785995238512,0.945167847417151,-0.17770515975228512,-0.7818883786455268,0.7621269948656099,0.03640903732043638,0.7055767348250356,0.946097403813453,0.039843461908626504,0.6506961932026494,1.0816462444939534,0.0,0.0,0.0,0.0
0.018430311149987246,-0.024359429893863832,0.7246020420561274,0.008747739724055759,-0.5206316722600196,-0.011510547214625525,0.8536589753480459,0.09025865114372593,-0.8345245867522337,0.9444174904302859,-0.1755582031714921,-0.786794192750828,0.7710145111346347,0.03948114577079674,0.7077655345930749,0.9447256157938535,0.04333898273368661,0.6527098008715972,1.0848563833199836,0.0,0.0,0.0,0.0
0.01903080504845979,-0.025451452045375494,0.7244517230718379,0.00906919545856707,-0.5209937519412591,-0.011884028412273734,0.8534295694435484,0.09388649289881731,-0.8314153034782947,0.9424543566044543,-0.17216505319439607,-0.7939978928388051,0.7833784245872997,0.04295202157941374,0.7109022522326851,0.9421620399968555,0.04737010523442316,0.6548252701089653,1.0888357851147645,0.0,0.0,0.0,0.0
0.019784296136972218,-0.02695504765495049,0.7243116245127089,0.009554323040353122,-0.5213875018203815,-0.01247798466957683,0.8531752972017697,0.09906042952174368,-0.8268913659419249,0.9392857598050293,-0.16727791906088504,-0.8040127612665815,0.800072427106499,0.0468621872255512,0.715365825014058,0.9379387926676865,0.05202280978275333,0.6572348700076533,1.093513171604853,0.0,0.0,0.0,0.0
0.020719616477159565,-0.02889705099191762,0.7242161511698448,0.010215255179853684,-0.5218079818054188,-0.01331431416508427,0.8528978882164497,0.10588817327101681,-0.8208001369299788,0.9348918832695896,-0.16075990306779595,-0.8169081669601624,0.8212809880429979,0.05117656179149907,0.7215028858643517,0.9315415180558226,0.05730368727320384,0.660161150166976,1.0985652147028349,0.0,0.0,0.0,0.0
0.021842959535671343,-0.03119582526771196,0.7241867863151642,0.011022066210617043,-0.5222294137087342,-0.014368910126312173,0.8526127420673834,0.11410503518756643,-0.8134906936624786,0.9297499990141681,-0.15283582420198677,-0.8321674730439844,0.8462117982381483,0.05565714787856772,0.7293345853111587,0.9229184188430768,0.06297534261626753,0.6637037451465044,1.1035045233942424,0.0,0.0,0.0,0.0
0.02281546580524393,-0.0331899678803462,0.7240770958108311,0.011707317393876577,-0.5225666390066493,-0.015238010586555849,0.8523818683841751,0.12111098445902498,-0.8074579127548993,0.9252948270425728,-0.14601399789434127,-0.8451399361646232,0.8670059054371995,0.06004496748425661,0.7355454791761351,0.9159302529526443,0.06862514305196285,0.6666702626943906,1.1083731605900076,0.0,0.0,0.0,0.0
0.02362196578359611,-0.03475842258246753,0.7239173462431019,0.012244194536788077,-0.5228544670273929,-0.01589847798941219,0.8521857335154505,0.1265611996150665,-0.8029251767344563,0.921988146785838,-0.14067274287748685,-0.8552847565393034,0.883132959062493,0.06378521964652548,0.7402101399559209,0.9109673306840339,0.07354634580435337,0.6691259734110732,1.1127382545124647,0.0,0.0,0.0,0.0
0.024294102153271713,-0.03593104677050628,0.723739700609947,0.012656525378980361,-0.5231262620723741,-0.016388645889534467,0.8520036024462716,0.13062194601482943,-0.7996432521905388,0.9198136756089687,-0.13667988203901335,-0.8629290413292097,0.8953508871454615,0.06665991614421324,0.7437769140212676,0.907749928396852,0.07742768908994402,0.6712302698703986,1.1164384204753437,0.0,0.0,0.0,0.0
0.024875932337150245,-0.036771808764486824,0.7235621453639306,0.012975529234057084,-0.5234018955987578,-0.016753737561013674,0.8518224014443737,0.13355944584311086,-0.797360001285341,0.9187032408814246,-0.13379414451054347,-0.8685965144565178,0.9046100484065688,0.06860865898424767,0.7466686523556061,0.9059093380376849,0.08016164422862132,0.673120569879115,1.1194595299935344,0.0,0.0,0.0,0.0
0.025401712245976104,-0.037348528699560485,0.7233938150157513,0.013227721359711212,-0.5236893556033286,-0.01703180098705932,0.8516363096830345,0.13563252297014602,-0.7958495009881427,0.9185248936047632,-0.1317697023588161,-0.8727717398819977,0.9117115428615554,0.06967822292477795,0.7491869897155573,0.9050990194969736,0.0817863503855106,0.6748835651845276,1.1218563422060064,0.0,0.0,0.0,0.0
0.025897965777778913,-0.03771876181299314,0.7232400154721551,0.013439335342709437,-0.5239975911155252,-0.017255656535440096,0.8514388710225791,0.13705668108586186,-0.7948815966916885,0.9191058287759551,-0.1303920994810235,-0.8758292875337843,0.9172612074964109,0.06987843554983536,0.7515873794403701,0.9050457070341859,0.08231294820810652,0.6765805593393345,1.123693841278214,0.0,0.0,0.0,0.0
0.026369027346951644,-0.03794085923640435,0.7231077484147623,0.013632988741890357,-0.524329140913621,-0.017450852394799904,0.8512276789187735,0.13802743802798365,-0.7941636583161709,0.9201012308755223,-0.12945403068728845,-0.8780329680437752,0.9216511441871363,0.06928678148658719,0.7540254128889626,0.9054629364605045,0.0818431612180913,0.6782209219654438,1.1250452095390981,0.0,0.0,0.0,0.0
0.026808368660740947,-0.03807229300140509,0.723010733895768,0.013826834258103533,-0.5246766653308246,-0.017635139546613107,0.8510065906706578,0.1387189943760729,-0.7934112862292412,0.921130879210536,-0.12876708729860126,-0.8795979752171859,0.9251860547009321,0.06804674816301319,0.7566031327704498,0.9059910201750039,0.08056398786382615,0.6798071311893681,1.1259296086910062,0.0,0.0,0.0,0.0
0.02717846677411046,-0.038199034715295024,0.7229817867943944,0.01403267917614642,-0.5250061104680142,-0.017816821332108036,0.8507962322225024,0.13935256422564035,-0.7922274213635877,0.9215358238426892,-0.12808734895505225,-0.8807387835793774,0.9281186387702546,0.06659834697613888,0.7593025377491259,0.9059553238960998,0.07902057734676846,0.6813191495166351,1.1262944565540833,0.0,0.0,0.0,0.0
0.027409320314807327,-0.03847375549595137,0.7231041407934373,0.014254369199763086,-0.5252322142303893,-0.017993867927530046,0.8506492548696941,0.14029080084944975,-0.790021306686186,0.9202765540813517,-0.12702302307243118,-0.8818203918534511,0.9309189842721576,0.06597752400671966,0.7620487272165112,0.903862589440222,0.07846897588312159,0.6828312370523549,1.1258279462800882,0.0,0.0,0.0,0.0
0.027445408719797122,-0.03919670585558718,0.7236407189351299,0.014493307734878417,-0.5251812643986065,-0.01816419323323429,0.8506730544925993,0.1422534675760303,-0.7857459456166301,0.9159703066847538,-0.12481974515863621,-0.8836869774769605,0.9351907665098248,0.06825230808325053,0.7654471257760787,0.895659470666177,0.08140413508199157,0.6851620628178221,1.122967609424545,0.0,0.0,0.0,0.0
0.027537206453485768,-0.04103124056577903,0.7257313131719528,0.014842393905145405,-0.5246185872556302,-0.018538676959989286,0.8510060861742673,0.14722091825701553,-0.7756253956394552,0.9069117903525175,-0.11931737036206105,-0.8880592984133483,0.9469802954682821,0.07546866926225154,0.7763200052957204,0.8666526376884726,0.09039875420181584,0.6931443289916983,1.1090468516782308,0.0,0.0,0.0,0.0
0.02684731528423186,-0.043106318616052415,0.7291730043246761,0.013972341096911615,-0.5227222627619605,-0.017589734455129288,0.8522070235213305,0.15010454244772597,-0.769241546971416,0.8987995388233752,-0.11621654014722975,-0.8878998292020361,0.9541624762081802,0.04151007737369924,0.735519130647573,0.9408837965665388,0.12038838012228405,0.7066176324121575,1.0843902079896828,0.0,0.0,0.0,0.0
0.02639540105521023,-0.04526919898528993,0.732727406430049,0.013329416167157451,-0.5211633888721753,-0.016887806612807015,0.8531857070718666,0.15359778188574233,-0.7603523812854348,0.8893092614834823,-0.11228140049166307,-0.8875903179230487,0.9624105307783813,0.013807678496678088,0.7056370481609883,0.9963166888051164,0.14527285054293965,0.7208964277975494,1.057538144002982,0.0,0.0,0.0,0.0
0.026201085424651955,-0.04735036210859959,0.7359187330511391,0.01298800912130142,-0.5199524826130788,-0.016434926220580463,0.8539383002557533,0.15734001816827325,-0.7508388730617611,0.8798712710174984,-0.10803216930656434,-0.8881794460976221,0.9716213363562867,-0.003738055415777524,0.6842607067099702,1.0387798052999708,0.16452863828904268,0.7342336746373365,1.0324549414346833,0.0,0.0,0.0,0.0
0.026189469246475215,-0.04925371728874092,0.7386793745954338,0.012851884169962469,-0.5189924544248815,-0.016158602404925997,0.8545294382826367,0.1610014763289119,-0.741788758129246,0.8712934206897897,-0.10387848023393716,-0.8895061756234306,0.9810721897740508,-0.015009644519444656,0.6687565463987654,1.0742326700434748,0.17945905693513492,0.7462159777383839,1.010023862906576,0.0,0.0,0.0,0.0
0.02622891400692159,-0.05091420174655355,0.7410463640032549,0.012802301960155115,-0.51819224864374,-0.015958575426413744,0.855019425732787,0.16424100735459946,-0.7336895903305755,0.8636428068148161,-0.1001827348464261,-0.8908370717203818,0.989507678677047,-0.02315088200095529,0.6567571677208812,1.1058976255119106,0.19139871886801205,0.7566646890430273,0.9902384627895982,0.0,0.0,0.0,0.0
0.02626687720618362,-0.0523453814536211,0.7430680272348761,0.012776589436268164,-0.5174850216197981,-0.015782730880708362,0.8554512940942232,0.1670105489132119,-0.7267603710156806,0.8569797642931788,-0.09701697612793732,-0.8920595664197118,0.9967571930480655,-0.02989625767080043,0.6468042025966484,1.1353182845638283,0.20133725262391378,0.7656146169724064,0.9729248680060353,0.0,0.0,0.0,0.0
0.02625212929631088,-0.053569265311768276,0.744776775091202,0.01273164344471525,-0.5168239569181432,-0.015592058299443982,0.8558550055521418,0.16929876981992714,-0.7210582301075539,0.8511563613547203,-0.09440114316317287,-0.8930736997720782,1.0026381083850409,-0.03620782141406128,0.6380384615335821,1.1627880730578206,0.20999864541025742,0.7730260669599524,0.9580086197011255,0.0,0.0,0.0,0.0
0.026124026296295875,-0.05461165800806045,0.7461794355822408,0.012630522150457048,-0.5161648134463849,-0.01534969460087944,0.8562585720129903,0.1711064029933447,-0.7166231111218417,0.8459003368340486,-0.09233971534197405,-0.8938177340273686,1.0069139167218288,-0.04276875540209203,0.6300811519110686,1.1873414672894336,0.2180229681140846,0.7786998101768738,0.945634947161428,0.0,0.0,0.0,0.0
0.02580528656842143,-0.05550663748483145,0.7472555144656008,0.012432969169186648,-0.5154545096562962,-0.015012842059003122,0.8566952108690329,0.1724462062758995,-0.7135368956092017,0.8408288796877553,-0.09082734793848463,-0.8942893127115688,1.0092917967468173,-0.05037167253815655,0.6230750358637929,1.2064102007627593,0.22612637517769024,0.7822406627530682,0.9362196524689281,0.0,0.0,0.0,0.0
0.025212069652297067,-0.05630213419288472,0.7479644890876612,0.012093315922404028,-0.514626882142585,-0.01453170086492879,0.8572057825027635,0.17335757128747944,-0.7119580109048762,0.8355338355414993,-0.08983991844562406,-0.8945990229714694,1.0095400714922294,-0.060124296722787525,0.618131542788766,1.2152016014737161,0.23515467012716273,0.7831168777467795,0.9303748692348196,0.0,0.0,0.0,0.0
0.02430333628477088,-0.057049031142615246,0.7482872693009861,0.011581199138099662,-0.5136278781210746,-0.013873819596374841,0.8578227064919496,0.17391767350684828,-0.7120152590685249,0.8298067501565431,-0.08931781798618439,-0.8949611001799627,1.007741683229696,-0.07314814491623899,0.6181608680164932,1.2066374094425314,0.2456983040143565,0.781011054022938,0.9284132669902878,0.0,0.0,0.0,0.0
0.023085471205991467,-0.05772307556764327,0.7482762289729856,0.010915512892707438,-0.5124894613464432,-0.013048411427488731,0.8585249807351797,0.17404245467022336,-0.713392730305661,0.8234774623819812,-0.08931476130948761,-0.8950378673665137,1.003650726279845,-0.08842352193087896,0.6202853873319815,1.1878409979294915,0.2571689961509343,0.7761596453660792,0.9297602769306759,0.0,0.0,0.0,0.0
0.021598771615169248,-0.05830934630522097,0.7480134050488645,0.010115695883433874,-0.5112326573275087,-0.01206842136054703,0.859298083312486,0.17368452036218882,-0.7158460601983708,0.8166319920585752,-0.08986061284413101,-0.8946182662854378,0.9973451522253721,-0.10517375979922605,0.623329557740983,1.1637145841217433,0.26905163109037455,0.7690641610286264,0.9334546220900362,0.0,0.0,0.0,0.0
0.0198753144543528,-0.058812109001905866,0.747572168386847,0.009182677113339343,-0.5098498134927532,-0.010927178818097271,0.8601450127074587,0.17281841048190283,-0.7192951116758861,0.8094221741585585,-0.09097948915047574,-0.8936132769139569,0.9889978731015936,-0.12330628833419005,0.6269506693146318,1.1371194241115856,0.2812286550317381,0.7601702260577642,0.9386225844901385,0.0,0.0,0.0,0.0
0.017943878321750102,-0.059245001049401745,0.7470115924402566,0.008100792246503473,-0.5083161031442184,-0.009601066792346843,0.8610789371281267,0.17141951499105665,-0.7238313853423725,0.8021133017353228,-0.09270919643964635,-0.8920210772285372,0.9788439245487511,-0.14361733460963608,0.6312097279477614,1.1096874732799404,0.2938560379394818,0.7498519193639485,0.9445340373612262,0.0,0.0,0.0,0.0
0.015862917314757974,-0.05961919957949179,0.7463785530955487,0.006847755862399036,-0.5066073669702119,-0.008064008483344523,0.8621119740140133,0.16946609111058333,-0.7297682056786591,0.7953360737154183,-0.09510377705578642,-0.8899858128310421,0.9673696164705011,-0.1680984141313268,0.6365843421449073,1.0825500076469776,0.30716621417578355,0.7385314067215057,0.9505448446623924,0.0,0.0,0.0,0.0
0.0138191576486449,-0.05996961007108141,0.7456972363963925,0.005425609640823409,-0.5047068575364757,-0.006331397594074963,0.8632505222241031,0.16712488795962652,-0.7379005999458588,0.7908057005385125,-0.09808517882069553,-0.8884626747926748,0.956414949163985,-0.20009383565677802,0.6443493417289228,1.0569226316882585,0.321374835124377,0.7268878217065547,0.9561638112430986,0.0,0.0,0.0,0.0
0.012173492772767722,-0.06017918535230393,0.7449673669200846,0.0038718682312605,-0.5026397156043694,-0.00448422239498874,0.8644756888907118,0.16438554628080462,-0.7501492305033399,0.7926062600698942,-0.10184698712444913,-0.8888599979965851,0.9487779692563991,-0.24378255315017608,0.6566308570989409,1.0340298200086253,0.335461847817187,0.7159680237454561,0.9607541441188843,0.0,0.0,0.0,0.0
0.011145236834214891,-0.06022379220364128,0.7443304233444823,0.002547391500799064,-0.5007271773694579,-0.002909236978533222,0.8655965232025599,0.1618261626526096,-0.7638579556132233,0.7995323869532984,-0.10558140591209306,-0.8913092063127878,0.9457251318123928,-0.2899270584304864,0.6700459669949814,1.0160699621887967,0.34585389199068217,0.7071348490279682,0.9634402569622789,0.0,0.0,0.0,0.0
0.011159887194072475,-0.0602472922427444,0.7443058668971506,0.0025030503725906967,-0.5007323674066988,-0.002884275481534888,0.8655937337602795,0.16180620011339988,-0.7639259806681424,0.7994702515960396,-0.10559608355674227,-0.8912706332493832,0.9457473326268652,-0.2899496536989291,0.6700430991722417,1.016070720807041,0.34585857442351664,0.7070797610499902,0.9634007889064331,0.0,0.0,0.0,0.0
0.011159887194072475,-0.0602472922427444,0.7443058668971506,0.0025030503725906967,-0.5007323674066988,-0.002884275481534888,0.8655937337602795,0.16180620011339988,-0.7639259806681424,0.7994702515960396,-0.10559608355674227,-0.8912706332493832,0.9457473326268652,-0.2899496536989291,0.6700430991722417,1.016070720807041,0.34585857442351664,0.7070797610499902,0.9634007889064331,0.0,0.0,0.0,0.0
0.011449529335760327,-0.060383397658598036,0.7442057741004182,0.002258702959921295,-0.5013967148540671,-0.0027075168305525626,0.8652103223766465,0.1617046645769946,-0.7622646258068194,0.7987098545819665,-0.10550524519694135,-0.8888600883738282,0.9450856778455873,-0.28898170639234727,0.6721901062382024,1.0179267750652394,0.3524492616171997,0.7106043190263938,0.9659754751311893,0.0,0.0,0.0,0.0
0.011716010326176932,-0.06033439774725577,0.7440941895703092,0.002042472490377887,-0.5019384711952899,-0.002525358029600185,0.8648972320496138,0.16116707889723728,-0.7618692456109337,0.7995022813331345,-0.10595005276587348,-0.8865679650715661,0.9440693792308195,-0.2890259716946522,0.6739058939056317,1.020037074222616,0.3574777081749768,0.7135618011046896,0.9680267340278405,0.0,0.0,0.0,0.0
0.011906567971480549,-0.06002901815663007,0.7440101530515101,0.0018283029956109617,-0.5023677376325586,-0.0023108981630596288,0.8646490462862843,0.15992899425512663,-0.7626288362809835,0.8016530185329994,-0.10715579710971841,-0.8836534158648689,0.9417029611214732,-0.2901772314810156,0.6751641807624544,1.0222924086143779,0.3604257323346755,0.7159566068047674,0.9690752101651017,0.0,0.0,0.0,0.0
0.012021229009134465,-0.059406279896498944,0.7439519786887749,0.0015821246413610358,-0.5027063365129817,-0.0020308795996566635,0.8644534178539454,0.1577656161613854,-0.7647615951374938,0.8054823897594413,-0.10934454245021992,-0.8796834511626366,0.9374784823243036,-0.29252402044840564,0.6759565897150144,1.0249043563869584,0.3612438028689808,0.7178855428007017,0.9690590182266243,0.0,0.0,0.0,0.0
0.01209291503302675,-0.058380079744970406,0.7439064826018578,0.0012668538507530913,-0.5029624225865189,-0.0016478047301268543,0.8643057799684045,0.15439890949221363,-0.7688623773510808,0.8118825350897646,-0.11282198684551874,-0.8743884632456193,0.9311235866019856,-0.2963096716912867,0.6762990769262198,1.0281732267646293,0.3598649198731001,0.7194900043097648,0.9679044410518786,0.0,0.0,0.0,0.0
0.012138159025548273,-0.056872913415031395,0.7438670018942756,0.0008588364122136527,-0.5031341499709836,-0.0011334994923771192,0.8642071538189751,0.1495773533131995,-0.7753646022929431,0.8214688096844922,-0.11784655638815626,-0.8674983206685702,0.9222910630434203,-0.3017970701893291,0.6761841917690431,1.0322942205259815,0.3560919084581271,0.7208383594577703,0.9654668536859082,0.0,0.0,0.0,0.0
0.012156212506826271,-0.05483303396281475,0.7438369672868466,0.0003535962544592992,-0.5032100681616407,-0.00048668837113337125,0.8641639111909702,0.1431569090903066,-0.7844018299282689,0.834405056790552,-0.12453793545572099,-0.858809606532451,0.9106386254502936,-0.30929971173308496,0.6756283759234518,1.0372930406204084,0.3495391092747536,0.721903688926146,0.9615234245469334,0.0,0.0,0.0,0.0
0.012159822488987821,-0.052245723983433294,0.7438190877894185,-0.00024193910603487724,-0.5031763376737504,0.0002842341088674505,0.8641836806383654,0.13509822701233365,-0.7959809411163,0.8506895826300988,-0.13290004357149512,-0.8483096114673138,0.896103590436916,-0.3190132197107996,0.6747009878750571,1.0430789520792494,0.34001356740255895,0.7227064538375768,0.9558945225601756,0.0,0.0,0.0,0.0
0.012203387831863123,-0.049223820706667705,0.7437925395919875,-0.0009079109711856076,-0.503036327171418,0.0011802383707439118,0.8642639852967071,0.1256470443613174,-0.8098425736363422,0.8699447426294036,-0.1426550232687473,-0.83653772045634,0.8795415862735674,-0.3303628310313429,0.6734955326278895,1.0494595442957466,0.32846968986613384,0.7234622548659139,0.9489140815858071,0.0,0.0,0.0,0.0
0.01227761376858535,-0.04660630822496567,0.7437520270224054,-0.0015131372262510822,-0.5029064683863976,0.001944754549853939,0.8643373255856747,0.11744061279387971,-0.8217282812982106,0.8863313953450908,-0.1509995720098515,-0.8261961620636469,0.8649253323275677,-0.3402224014335319,0.6725554802133065,1.054930417030263,0.3187595623698419,0.7242670743888691,0.9427758419220441,0.0,0.0,0.0,0.0
0.012342294114436873,-0.04451152682167733,0.7437141863893433,-0.0020229225191522237,-0.5028236910764018,0.002575970398165371,0.8643827901186444,0.11077851731050425,-0.830982914692716,0.8990026496377075,-0.15766312363177065,-0.8174939337166578,0.8526606312844267,-0.34794918462482594,0.6718641764900741,1.0592845723392403,0.31145074415213536,0.7251257562912636,0.9378429737020009,0.0,0.0,0.0,0.0
0.012400878475520582,-0.04291732378196631,0.7436803762063049,-0.0024354630648338775,-0.5027881421057232,0.0030774533620716972,0.8644007646678357,0.10563415767327575,-0.8378771381908886,0.9084296590377561,-0.16274119912379578,-0.8105323826514562,0.842935218187879,-0.35368156546986923,0.6714159249016117,1.0626303980605034,0.3063405714579281,0.7259963295242183,0.9341361871179316,0.0,0.0,0.0,0.0
0.012460974739031204,-0.041746273910324906,0.74365232440359,-0.0027631690206658785,-0.5027939341433717,0.003469498455798278,0.864394925520771,0.10179044742217078,-0.8428752389945852,0.9153137711841238,-0.16649755463074647,-0.8051534518153515,0.8355630760096683,-0.3577529851473874,0.6711988175965611,1.0651370392034272,0.30305938981215713,0.7268853272718885,0.9314846522775032,0.0,0.0,0.0,0.0
0.012530729161164747,-0.04091025523306718,0.7436322500985372,-0.0030224374914594953,-0.5028322659941364,0.003774409615114474,0.8643704824777796,0.09898796321759669,-0.8464406372237377,0.9203279307103698,-0.16921728119064786,-0.8011121874872131,0.8302185923811111,-0.36053150414466467,0.6712031816786859,1.0669595674235188,0.3012146048042502,0.7278179188078319,0.9296479975553837,0.0,0.0,0.0,0.0
0.0125953444017444,-0.040305681738332017,0.7436276467273835,-0.0032287693852210155,-0.5028914278429617,0.0040162045688231915,0.8643342275712479,0.09690938329573003,-0.8489395749676174,0.9239491417290734,-0.17121497410251274,-0.7979541369807415,0.8262071088659203,-0.3624219654660288,0.6713596923915581,1.0682352054823152,0.3002644844762437,0.7287638841163966,0.9282897167153155,0.0,0.0,0.0,0.0
0.012661112824325221,-0.03986585604048441,0.7436409509045442,-0.0033982305655128903,-0.5029672170919133,0.004213844566505162,0.8642885363545031,0.09534633597319175,-0.8506794368791503,0.9266175099466002,-0.1727008495652178,-0.7954228477600405,0.8231838486576925,-0.3636756834312886,0.671672200083011,1.0690625224366008,0.2999716485891328,0.7297770530609177,0.927205817147611,0.0,0.0,0.0,0.0
0.012741876063191365,-0.03954917309999842,0.7436715796781447,-0.0035470250469326454,-0.503065022259227,0.004385997716934983,0.8642301574329994,0.09415419010334207,-0.851880109948972,0.9286733183363041,-0.17382011797054292,-0.7933379905711473,0.8209597665489187,-0.36442109803885375,0.6721817029643453,1.0695273649291015,0.3003239127200427,0.7309652583429258,0.9263018514930775,0.0,0.0,0.0,0.0
0.012868666755297223,-0.03934469941780505,0.7437130495352411,-0.0036944001685912213,-0.5032068734543628,0.004555439494910324,0.8641460767061825,0.09325839320425765,-0.852691272507356,0.9304077626637229,-0.1746511451594326,-0.7916234809676367,0.819590743929898,-0.3646267015160981,0.6729999402533648,1.069724816127237,0.30167003402972814,0.7325478497729766,0.9256496155577206,0.0,0.0,0.0,0.0
0.013152736941783155,-0.03931843579595792,0.7437483480200647,-0.0038709512503097357,-0.5034481438389892,0.004758347943264934,0.8640036691625476,0.09276503639344173,-0.8533117025697855,0.9323892534981434,-0.1751277071092179,-0.7906814702786328,0.8201616568954266,-0.3638564932007239,0.6745241041342561,1.0696846113196319,0.30536175335678556,0.735159297191638,0.9256408246433401,0.0,0.0,0.0,0.0
0.013723805220071687,-0.03949246118322223,0.7438167282092762,-0.004122517666304755,-0.503857119959352,0.005053592446046005,0.8637623913540966,0.09261246605687964,-0.8539648636065464,0.9354510856060652,-0.1753301288805511,-0.7905189908503276,0.82346600335644,-0.3617378300205745,0.6774618480015272,1.0690189622074506,0.31279397063719744,0.7398906084626742,0.9259991310831076,0.0,0.0,0.0,0.0
0.014952709420280137,-0.03990043666254232,0.7443297692380793,-0.004629399283513241,-0.5047240466753276,0.00565156443123806,0.8632498277957751,0.09242614264168013,-0.8540294106763103,0.9412768514613716,-0.17552038809737197,-0.7893802267221849,0.8304398230280048,-0.35670935618163013,0.6852789027644582,1.0641855297451146,0.32849719675460864,0.7518039631676015,0.9230763904394171,0.0,0.0,0.0,0.0
0.01634350904662306,-0.04070092609114098,0.7461306606790896,-0.006090589534643346,-0.5061561747408864,0.0072260721231273,0.86239005987573,0.091083083715107,-0.8498033619059705,0.9446767685587495,-0.1761329634940272,-0.7791082709640005,0.8324433346894922,-0.33512911776477095,0.697250334029026,1.047589323057855,0.26370174736408813,0.7172979336977375,0.9673207355583655,0.0,0.0,0.0,0.0
0.018201219235899995,-0.041774690118667135,0.7478867612088037,-0.0076422535862596406,-0.5079032733085909,0.008903025984614588,0.8613341959140247,0.09034946508022977,-0.8455799429571178,0.9496633864430638,-0.17623582602706558,-0.7699208026600095,0.8382195534349846,-0.31125422806346753,0.7111555964682563,1.0303739174091866,0.20731281138382923,0.6929074326038904,1.0034991010634675,0.0,0.0,0.0,0.0
0.020143865695956973,-0.042831552465031744,0.7493600841628276,-0.008957330479926202,-0.5095753302548669,0.010319148836090078,0.860317536839518,0.09023539325354912,-0.8421364922992877,0.9554226324527648,-0.17593000738069758,-0.7632501551549234,0.8461675468254886,-0.28997180992627347,0.724522722415561,1.014915916792072,0.16710082165219445,0.6769494730298625,1.0350311168232276,0.0,0.0,0.0,0.0
0.021986710855109514,-0.04377388679594131,0.7505880086971475,-0.010028789746547485,-0.5110658110812921,0.011466584067932961,0.8594065845511388,0.09044995930942644,-0.8393827902041742,0.9612355713576636,-0.17545050379343075,-0.7584036770986661,0.854598607750058,-0.2717926836252195,0.7366609118420246,1.0013052450846351,0.13815683407505341,0.6661283781048641,1.0641578665316271,0.0,0.0,0.0,0.0
0.02366163908112326,-0.04460695970466095,0.7516391446234739,-0.010911300898982451,-0.5123703472792167,0.012406438393173923,0.8586056434871967,0.09083907510889339,-0.8370315466870264,0.9665966869203246,-0.17488725656415435,-0.7546909677286844,0.8626811635683986,-0.25605823961301405,0.7474825318030085,0.9891658694576663,0.11545545057884476,0.6581261188185622,1.091955500288529,0.0,0.0,0.0,0.0
0.02515472061174172,-0.04538234689668448,0.7525466304879961,-0.011653225787948052,-0.5135184478734403,0.01319491710567399,0.8578979544123895,0.09139440129905856,-0.8348170501714144,0.9711419073208819,-0.17420997698975021,-0.7517806610496922,0.8702281010720747,-0.24190535332803104,0.7569951441084367,0.978271509205078,0.09588093778864826,0.6516108891172216,1.1187465305763353,0.0,0.0,0.0,0.0
0.026465312602299687,-0.046161721017325935,0.7532936674120915,-0.012284975865260162,-0.5145468991033502,0.013869854037783909,0.8572620341179745,0.09217924642924243,-0.8325658332855435,0.9745690427107111,-0.1733388773663075,-0.7496204380722846,0.8773183565893151,-0.22861253425762956,0.7650793526333087,0.9687888310830765,0.07791595580170296,0.6459143679275174,1.1441730775801418,0.0,0.0,0.0,0.0
0.027581537028362905,-0.046999025425829136,0.7538128102324906,-0.012820321451069266,-0.5154880686195741,0.014451069787264076,0.856678969655936,0.093274942412918,-0.830209483037059,0.9765671730788511,-0.1721892974804288,-0.748330534686851,0.8840408943049431,-0.21572132350376744,0.7713811674211218,0.9613772684059892,0.06111041407878855,0.6408343696466132,1.167006399273457,0.0,0.0,0.0,0.0
0.0284687040303979,-0.04792882330268537,0.7539907244847351,-0.01325983721361342,-0.5163627388759089,0.01494259675138969,0.8561369151134436,0.09474314101473967,-0.8277987899548749,0.976804399704849,-0.17070309918642257,-0.7481308410467639,0.8903560393231118,-0.2031049858041466,0.7752787334564921,0.9572040167323784,0.04577104957310202,0.6367100085654481,1.184699141186495,0.0,0.0,0.0,0.0
0.02907628887338966,-0.04895852308225001,0.753690494215795,-0.01359505375637967,-0.5171746796549461,0.0153355879253981,0.8556344692566723,0.09660223178366531,-0.8255161340698433,0.9750160247850523,-0.16887068584991027,-0.749293061460639,0.8961021305510033,-0.1909937319216134,0.7760030116550075,0.9577274231271229,0.032832892656405946,0.6349045193292954,1.1926901995699455,0.0,0.0,0.0,0.0
0.029383144538772478,-0.050078471729378946,0.7528244130469115,-0.013820177999876445,-0.5179175896311293,0.01562324615983975,0.8551761732006814,0.09883185563301024,-0.8235952482540427,0.9712143119578396,-0.16672569275048169,-0.7520436691433662,0.9012467369380984,-0.17968904499332483,0.7731168089959418,0.9638575124706441,0.023499460301476753,0.6385505884455982,1.184175231998327,0.0,0.0,0.0,0.0
0.029408863453802288,-0.051345735261777055,0.751411063644251,-0.013957098689302505,-0.5186328719991415,0.01582655231098419,0.8547366048789807,0.10153162632786786,-0.8217130217969664,0.9650797783332198,-0.16414695461765702,-0.7562722386333689,0.9059038630029178,-0.168476101089814,0.7668136474339093,0.9752028132987248,0.01636623726460146,0.6446349332701592,1.1658910540214953,0.0,0.0,0.0,0.0
0.0292069957398553,-0.052798365993349534,0.7495149511000107,-0.014036172949310375,-0.5193503664646121,0.015976729265583165,0.8542967440087691,0.10474231288370146,-0.8196578569561103,0.9566338526155579,-0.16107923252885317,-0.7618082719666851,0.9103088778431289,-0.1565545330581851,0.757568998479207,0.9908001590416663,0.010174619996741139,0.6519219640030921,1.142225561765329,0.0,0.0,0.0,0.0
0.02882341496882379,-0.05443450553740877,0.7471873538911062,-0.014091776904950845,-0.5200803553001019,0.01610517472649525,0.8538492075311718,0.10840697107560004,-0.8174375594184881,0.9461142855941052,-0.15757080041371696,-0.7684440044884321,0.9145173542169979,-0.1433722043609945,0.7457344336645594,1.009866446604361,0.003970255197567348,0.6602482567153366,1.1153893313550218,0.0,0.0,0.0,0.0
0.028300385707074983,-0.056197261518606316,0.7444603757178588,-0.014170728002968338,-0.5208238395417731,0.01624926438327846,0.8533918678074179,0.11232258755504253,-0.8153447438653049,0.9340850651221874,-0.1538211572163778,-0.7758507998080133,0.9183157986638293,-0.12871385563046941,0.7315509365500971,1.0319366392584863,-0.003183681230039757,0.6700935734499465,1.0860753066370663,0.0,0.0,0.0,0.0
0.027762326296950808,-0.05789679851791428,0.7413589253372963,-0.014362120896827518,-0.5215602521154359,0.016478060931958055,0.8529344092042193,0.11592240685439649,-0.8147291019775593,0.9227537381710721,-0.15045129149954228,-0.7836474646282763,0.9215866088540511,-0.11301189254261541,0.7154585360562282,1.0567965816024085,-0.012732367364299056,0.6826540186945208,1.0537907520566052,0.0,0.0,0.0,0.0
0.02724563458758376,-0.05939680190084831,0.7379919675009802,-0.014746145156915871,-0.52225290401343,0.016894946510680978,0.8524957573119947,0.11865346233223661,-0.8163308895288717,0.9133847132276173,-0.1480154469894647,-0.7910273139816548,0.9236615044629412,-0.09578844809941432,0.6976916032287156,1.083452190636842,-0.026126365554262884,0.699021752780198,1.0166100100812971,0.0,0.0,0.0,0.0
0.026774850211988884,-0.06058359876976459,0.73465152546891,-0.015402940540982922,-0.5228280337559476,0.017574653808988202,0.8521177900296854,0.12008683437449515,-0.8203952898245254,0.9069961488625427,-0.14691190614589197,-0.7969354978503894,0.923945004229246,-0.07651275975479355,0.6790726203552505,1.1093610443675859,-0.046103502593178344,0.7203144671606359,0.9706022661424792,0.0,0.0,0.0,0.0
0.026459524857899756,-0.06130950943753806,0.7320952496168901,-0.01635609140066122,-0.5231958177184145,0.018553542860722923,0.8518534971715312,0.11978012376729077,-0.8261727621818967,0.9049269496048247,-0.14746964493258863,-0.7995108322755132,0.9222332351169839,-0.05564949580329315,0.662738951371258,1.1283315361991695,-0.07034188973291797,0.7474631487131449,0.9124564095651275,0.0,0.0,0.0,0.0
0.026487276796230013,-0.061307560477046684,0.7320283265862632,-0.016362647982522228,-0.5232290566534703,0.01855004153931397,0.8518330317517684,0.11977618546539699,-0.8261884142541175,0.9048682767342066,-0.14747962150489288,-0.7995666926354279,0.9222331377198029,-0.05561053445738219,0.6627553583412146,1.1283535199091819,-0.07034843906256022,0.7474410540984419,0.912431916192524,0.0,0.0,0.0,0.0
0.026487276796230013,-0.061307560477046684,0.7320283265862632,-0.016362647982522228,-0.5232290566534703,0.01855004153931397,0.8518330317517684,0.11977618546539699,-0.8261884142541175,0.9048682767342066,-0.14747962150489288,-0.7995666926354279,0.9222331377198029,-0.05561053445738219,0.6627553583412146,1.1283535199091819,-0.07034843906256022,0.7474410540984419,0.912431916192524,0.0,0.0,0.0,0.0
0.026522675483079936,-0.06097328118107554,0.731785871809795,-0.0160165349513781,-0.5231050424083791,0.01811498899391769,0.8519251330890699,0.11992366168079659,-0.8272967276160716,0.9065029622154265,-0.14754517489810834,-0.8016195123563944,0.9231413038076389,-0.06505631124219916,0.6642670665590806,1.1311574956225217,-0.07854199594450684,0.7439897339530078,0.9124028072412802,0.0,0.0,0.0,0.0
0.026464051502380608,-0.06072610493472526,0.7315606389624147,-0.01576821596402091,-0.5229813516308914,0.017756013962163444,0.8520132588051745,0.12012497893081124,-0.8279952923555407,0.9071447621330424,-0.14748611011032728,-0.8031321154786895,0.9233115914714491,-0.07241563465687792,0.6649395030808936,1.1337532740387442,-0.08466509444561825,0.7407883164599424,0.9128373844995998,0.0,0.0,0.0,0.0
0.026247570188230523,-0.06068003712106029,0.7314142819290477,-0.015544770225497375,-0.5228166233907409,0.017436890669184895,0.8521250455588848,0.12070490803798295,-0.8274544381882671,0.9055657177709372,-0.14695585780330678,-0.8044230087809612,0.9230464708265125,-0.07727914614397645,0.6646903471354859,1.1353379744623968,-0.08860655103246286,0.7376491621554,0.9136270159550635,0.0,0.0,0.0,0.0
0.02581606124578136,-0.060872939147303094,0.731374999459537,-0.015296412496532777,-0.522566779963537,0.017108862950019208,0.852289426809833,0.12184915663075516,-0.8252470183490146,0.9010633019892206,-0.14575874986643964,-0.8056982021782103,0.9223678745481887,-0.07992209517801578,0.6634516745107369,1.1356088527230834,-0.09072869920214485,0.7342163046087131,0.9146146217811959,0.0,0.0,0.0,0.0
0.02511360132301088,-0.06133466468002315,0.731454500427495,-0.01498920391606993,-0.522194141339304,0.016738103090117366,0.8525306084955625,0.12369013772749204,-0.8210333316794991,0.8929925273944167,-0.1437494019150852,-0.8070913792684332,0.9211940898528385,-0.08052988142984155,0.6610788178191002,1.1344134516296345,-0.09123516624322925,0.7301447242457917,0.9157784306867526,0.0,0.0,0.0,0.0
0.024085507216159232,-0.062110831104166646,0.7316487187566426,-0.01459833234487225,-0.521669733740447,0.01630471753877831,0.8528667737565465,0.12636300943416146,-0.8144442310611875,0.88059329728816,-0.1407748610139978,-0.8087347508452029,0.9194495938272982,-0.07904986338494238,0.6573494271896336,1.1316715292231465,-0.0900860000201424,0.7250968781899798,0.9173249171152147,0.0,0.0,0.0,0.0
0.022686939654855662,-0.06326025336436884,0.7319265388435524,-0.01410811166315105,-0.520979211059012,0.015801085653902175,0.8533064798311257,0.13000365156930366,-0.8051072847915008,0.8630262404897467,-0.13667992578051918,-0.8107899519961207,0.9171074475559537,-0.07527368044452688,0.6519962040569957,1.1274632270606268,-0.08707186642604453,0.7187146542549746,0.9197714282102626,0.0,0.0,0.0,0.0
0.020909839722836155,-0.06481709077179441,0.7322142667874495,-0.013519708255777875,-0.5201351516311107,0.01522904341119666,0.8538411548778496,0.13467190936062073,-0.792858203015277,0.8397424638617842,-0.13139547904989757,-0.8134194157116125,0.914190261277374,-0.06920027131955288,0.6448439626902887,1.1222413190687341,-0.08209988456645026,0.7106417056404374,0.9239023077132836,0.0,0.0,0.0,0.0
0.01885745352363019,-0.06667382750067799,0.7324193558391072,-0.012872112337436358,-0.5191945941531186,0.014595023967491799,0.8544344722689617,0.1401101779765632,-0.7783497031445715,0.8117429615648035,-0.12521068587018114,-0.8165787649168748,0.9107574121658927,-0.061881725605942184,0.6363165890072202,1.1169103317707942,-0.07591233342817279,0.7009121824487661,0.9299762660309925,0.0,0.0,0.0,0.0
0.017079383675032755,-0.06821119322849456,0.7327016563267766,-0.012341247567317616,-0.5182818229249763,0.014054300857708108,0.8550053346391745,0.14460945299375466,-0.7657179724646994,0.7872433879502679,-0.12003806337381988,-0.8190931839461434,0.9075274795473902,-0.05626531322936357,0.629438361376094,1.1111725895452467,-0.07092970810425085,0.6928895451870428,0.9334746129424449,0.0,0.0,0.0,0.0
0.015714923176990137,-0.06940985343294043,0.732971046289992,-0.011943362747795708,-0.5175160158113654,0.013615577115213101,0.8554818206863456,0.1481644724880835,-0.7557404803430849,0.7678815379209273,-0.11595686526011782,-0.821227753264321,0.9052987119313718,-0.052160315731251995,0.624447927937116,1.1059933064403236,-0.0671733436657333,0.6868356453862147,0.9353969674961639,0.0,0.0,0.0,0.0
0.014733087923321576,-0.0702980996747867,0.7331656087347738,-0.011663189736567896,-0.5169276923317808,0.013266596221346003,0.8558467902203106,0.15087639265858604,-0.748406630527938,0.7535698229450386,-0.11286964376349459,-0.823060576938094,0.9039791718258373,-0.04933578376562848,0.6209286730346626,1.1020457504943004,-0.06453660379833824,0.6823412296155034,0.9366689959242877,0.0,0.0,0.0,0.0
0.014065068208864379,-0.07091943202222328,0.7332734915253623,-0.011476836019111711,-0.5165054768707142,0.012986786225416361,0.8561084732562118,0.15288367496536096,-0.7433751946536725,0.7436452043805424,-0.1106174739579986,-0.8246134731119263,0.9033269552425808,-0.047617649170349545,0.618511888997594,1.0994670543235223,-0.06290430841492253,0.679017869528423,0.937696616586473,0.0,0.0,0.0,0.0
0.013644694395733747,-0.07130852303552863,0.7333083131287217,-0.01136290625890209,-0.5162199287488912,0.0127544552178434,0.8562856961294735,0.15430426582562068,-0.7402810905425454,0.7374152303198206,-0.10906009704414497,-0.8258936215340574,0.90311195827409,-0.046945529537739554,0.6169598021079288,1.0981218308277196,-0.06223222853265015,0.6765808226498399,0.9385212005833105,0.0,0.0,0.0,0.0
0.013394975829914174,-0.0715299328269061,0.7333056971069718,-0.011294788863391945,-0.5160314066075173,0.012547343251139749,0.8564032807717031,0.1553195941139228,-0.7385049005409745,0.7337858143336335,-0.10797979859153373,-0.8269365003453985,0.9031605332763403,-0.04710146935650903,0.6160806792882217,1.0975667730139649,-0.06232302993577083,0.6748002997787335,0.9390633290331121,0.0,0.0,0.0,0.0
0.013213871155623695,-0.07167529869652951,0.7333158639946767,-0.01123915774709229,-0.5158925384530251,0.012341375981064428,0.856490665763804,0.156166394860673,-0.7371253732693087,0.7311496843803241,-0.10708353617508361,-0.8277461356901769,0.9032140488939816,-0.04773404198713315,0.6156527236135857,1.0971547414876681,-0.06285225390842568,0.6734187390955347,0.9392130487963906,0.0,0.0,0.0,0.0
0.01304525586627076,-0.07180159928633778,0.7333715907709841,-0.011174187897070132,-0.5157675544045344,0.012116801421358457,0.8565699915778757,0.15700732425930788,-0.7356181202796775,0.7285892555553567,-0.1061798310849759,-0.8284006625832366,0.9032185975362566,-0.04866997666137801,0.6155704394260721,1.0964491313399798,-0.06365597842935684,0.6722792301888273,0.9388540432988828,0.0,0.0,0.0,0.0
0.012789355428803776,-0.07205136442883114,0.7334859122869961,-0.011061915841934285,-0.5156248892947307,0.011856500134075581,0.8566609778449543,0.15817898743861333,-0.7328908949355715,0.7241312153008548,-0.10487184712523089,-0.8290821281913561,0.9031238431632463,-0.04918893317361522,0.6154506856858545,1.0949907010302238,-0.06409317043433625,0.6709953243200787,0.9384664631531437,0.0,0.0,0.0,0.0
0.0122253244941136,-0.07275893790921316,0.7335287450783997,-0.010826066674110745,-0.5154311933905341,0.01152751190551522,0.8567850358343367,0.16046879382174065,-0.7267461672800233,0.7133096291980305,-0.10226267696658836,-0.8304930007885855,0.9028674105176145,-0.04755240113648167,0.6138299165362019,1.093126555395812,-0.06263893135910445,0.6680044341889891,0.9407725393846083,0.0,0.0,0.0,0.0
0.01109963882802703,-0.07427748933103058,0.73363219388947,-0.010359956944183539,-0.515104678442404,0.011064426189689289,0.856993243854323,0.16473837191599705,-0.7138698943345251,0.6905922614760511,-0.0972915953937216,-0.8328014402227724,0.902163810863211,-0.04223784991532386,0.610284033525566,1.0888576863706247,-0.057916656516962664,0.6627635227612075,0.9459477298673442,0.0,0.0,0.0,0.0
0.00902870176366471,-0.07703489971168893,0.7343715810446844,-0.009481129138086587,-0.5150677421159658,0.010362441707899935,0.8570343919725031,0.17176828182701703,-0.6844120544425965,0.6428903361098064,-0.08840853912049676,-0.831652281123749,0.8965943073947218,-0.03224272457025606,0.607696259830107,1.0771927404712516,-0.04893887087125956,0.6576050572010793,0.9513082626909484,0.0,0.0,0.0,0.0
0.007110336305652331,-0.07924035638467682,0.7351968620234183,-0.00812270633101132,-0.516254349724804,0.009528136173630984,0.85634378765373,0.15609960434421152,-0.7355757384356272,0.7201233471039915,-0.08067187258882501,-0.8230279204507036,0.8836550532876553,-0.03095031325409999,0.6113711780913896,1.068491552747759,-0.04791085987917871,0.6552610741757998,0.9554734883816611,0.0,0.0,0.0,0.0
0.0049340286435792064,-0.08190306585978999,0.7361106684433616,-0.006698225726023588,-0.5173089870002494,0.008509656321450124,0.8557301744651696,0.14123999924011277,-0.778787181475729,0.762684286566394,-0.07141395780058582,-0.8148846320120839,0.8705056884703019,-0.02794188215800093,0.614570054211568,1.057670254812825,-0.04527294817640208,0.6519005520194643,0.9602732018687569,0.0,0.0,0.0,0.0
0.002676304130106609,-0.08489540112037723,0.736831438478013,-0.0052862028629202295,-0.5181804055117941,0.0074780349837496604,0.8552223116802475,0.1303880672432582,-0.8148129431234938,0.782676227862759,-0.06145946142553788,-0.8083472786219758,0.8584692681332795,-0.022731903106054142,0.6161223851326013,1.0469901689160515,-0.04048666820168952,0.6470392516188357,0.96763765308311,0.0,0.0,0.0,0.0
0.0005439147469656108,-0.08787112021141509,0.737488203091824,-0.00395844360271338,-0.5188997692120022,0.0064761439914789625,0.8548013920174538,0.12294441832673499,-0.8453667952516148,0.7902736726616335,-0.051727409138332986,-0.8027595516231619,0.8476372845993562,-0.017085806666389463,0.617407206545575,1.0361773518196826,-0.03512094332242377,0.642181800993516,0.9748682217914507,0.0,0.0,0.0,0.0
-0.0012549237509489413,-0.09063748478864334,0.7380562000488697,-0.0027833035435632313,-0.5195099675167267,0.005560364879679143,0.8544417646712729,0.11777459233304446,-0.8716406375263384,0.7906700736154704,-0.042797703364208725,-0.7984355662500543,0.839100222749319,-0.011561389763818024,0.618905214307517,1.02593774406221,-0.02973144985519032,0.6380765740375207,0.9814829854004807,0.0,0.0,0.0,0.0
-0.0027235079283636295,-0.0930727041929111,0.7385216954202876,-0.0017794971477471655,-0.5200421778717973,0.004728650270578836,0.8541256385865474,0.11346210649234764,-0.894960306629488,0.7871350484550478,-0.03491540850216768,-0.7950483944081951,0.832388464119343,-0.0068062574391368124,0.6205809502045897,1.0169431900935013,-0.024988628649165175,0.6346796248323494,0.9873153436844606,0.0,0.0,0.0,0.0
-0.0038808263756719766,-0.0951527096463756,0.7388983365252615,-0.000947287287846069,-0.5204926476631555,0.003979815465646048,0.8538563505908074,0.10908663485132357,-0.9156353230571853,0.7814633306662463,-0.028105237198928993,-0.7925745028015564,0.8274336725180059,-0.002902445864196141,0.6223538241850449,1.009258794276971,-0.021029210742353616,0.6319504318872063,0.9922454331598802,0.0,0.0,0.0,0.0
-0.004776906073431792,-0.09688823738577099,0.7391830380961674,-0.0002779975780165683,-0.5208558711909691,0.003309575493758788,0.8536381732755948,0.1040236098312054,-0.9330356081874353,0.7751770194274348,-0.022309317591009063,-0.7909522792951779,0.823975105150342,0.00019479809785335686,0.6240000227633586,1.0029852477053718,-0.017848341688637137,0.6296668900367719,0.9964285755309613,0.0,0.0,0.0,0.0
-0.005499117186104575,-0.0983170611842053,0.7393658240997055,0.00024635132789716733,-0.521121040137466,0.002715180086793098,0.853478428921414,0.09795514409183338,-0.9455577071990738,0.7701084998020129,-0.01741888148561078,-0.7900058910428444,0.821456798925115,0.002632063783084032,0.6251652041498084,0.998187435159637,-0.015318714975232421,0.6274595371453957,1.0001715799405257,0.0,0.0,0.0,0.0
-0.006136320295057585,-0.0995241800610341,0.7395030882615571,0.000661588470415901,-0.5212866283428892,0.002185048247407968,0.8533786023657699,0.09085724784472007,-0.9510602366321979,0.7688853562092746,-0.013198835764436947,-0.7894131070482208,0.8193342550862495,0.004679764303923235,0.6258904363318506,0.9941733433758488,-0.013171503334911478,0.6252791665466302,1.0033291118052343,0.0,0.0,0.0,0.0
-0.006748817629554865,-0.10057612305126509,0.7396480804574169,0.0009977299612958217,-0.5213781606302201,0.0017136662134317907,0.8533234331136592,0.08285566115651471,-0.9480997004985693,0.7741285314121226,-0.009480632047971636,-0.7887559962456775,0.8170724621689789,0.006547216681218251,0.6263581614098946,0.9903467233485859,-0.011195127529740811,0.6232327451688287,1.005750524139966,0.0,0.0,0.0,0.0
-0.007303520534579601,-0.10142664325462046,0.7397423934261587,0.0012354156661976378,-0.5213726902888499,0.0013072987331661495,0.8533271837572742,0.07394266069393504,-0.9379989640564447,0.7833903707993695,-0.006386801082373576,-0.7884000539634289,0.8150396093825916,0.008090266845367084,0.6262891359605053,0.9873228781160343,-0.009540388462807354,0.6210929597051147,1.0077489560544541,0.0,0.0,0.0,0.0
-0.007714273186957624,-0.10203597266266058,0.7397613811361194,0.001356571108741819,-0.5212922047578188,0.000962071594444897,0.8533766292744408,0.0638985708479412,-0.9229560601175146,0.7945153352563341,-0.003991666606862204,-0.7886736604083984,0.813913739571968,0.009155563694655802,0.6258431913020442,0.9854708225726321,-0.008382929001674762,0.6190402770800761,1.009403474008399,0.0,0.0,0.0,0.0
-0.007902176113950082,-0.10240328882522133,0.7397105624069604,0.001353985584924427,-0.5211696637420141,0.0006776411498452583,0.8534517497319599,0.052630278563820916,-0.9047149485018057,0.8060845448015828,-0.002288150759635869,-0.789813714682251,0.8143596008561713,0.009796480003126712,0.6253275744378439,0.9847780253947239,-0.007686143855202272,0.6174148710139795,1.0106899045388609,0.0,0.0,0.0,0.0
-0.007847002104904379,-0.10255001550749752,0.7396095200421573,0.001234863757962842,-0.5210122876585868,0.0004516395103654383,0.8535481633991241,0.04025240924339789,-0.8843521552945046,0.8171059526209102,-0.0012194355354417424,-0.7919094390415798,0.8166397176228709,0.01009753562977428,0.6249156558125679,0.9850048670929733,-0.007366309428234346,0.6163758022458019,1.0115125819922308,0.0,0.0,0.0,0.0
-0.007677109901380721,-0.1024688205455706,0.7395291658475256,0.0010327000854080024,-0.5208028518424317,0.0002687218833944998,0.8536763150233659,0.026966468289767224,-0.8631835245227795,0.8274051345499036,-0.0007853660912780096,-0.7941631627872808,0.8193857741980064,0.009715393385109695,0.6246384026716721,0.9855935316085644,-0.0077521241657831615,0.61577257569506,1.0112378504119799,0.0,0.0,0.0,0.0
-0.007430519076386874,-0.10223477405163749,0.739511914538098,0.000777314532872812,-0.5205370044067623,0.00013014217434133103,0.8538387470057597,0.013573561830620043,-0.8420889637721944,0.8359356268896273,-0.0008231157046856148,-0.7964788191494919,0.8224877778291269,0.008943724753210487,0.6246130444049284,0.9859045546289569,-0.008530401935052154,0.6156791639729821,1.0097503101388843,0.0,0.0,0.0,0.0
-0.007171433611952961,-0.10196864322671688,0.7395590606441728,0.0005122640696666148,-0.5202326134883197,4.256488442344454e-05,0.8540244514279822,0.0016880822729106008,-0.822845412136294,0.8410904160616265,-0.0010775790449701658,-0.7987290725291541,0.8256712641839165,0.008316241887764763,0.624727992514382,0.9855828145899731,-0.009148578173634762,0.6159617966420948,1.0075285740586966,0.0,0.0,0.0,0.0
-0.007004942750191806,-0.10185317322184001,0.739554161900966,0.000305121687639482,-0.5199564208596017,2.6235681606926945e-06,0.854192734282343,-0.005681148172686612,-0.8089499402706313,0.840695569534261,-0.0011232039376336312,-0.8008334921852062,0.8283895005639897,0.008563380435587875,0.6243312991006814,0.9852979652823336,-0.008872902039803579,0.6158791879696506,1.0064546099577045,0.0,0.0,0.0,0.0
-0.006997200407610897,-0.10183966661081154,0.7395521010019148,0.00028736272314783956,-0.519951572403073,-1.6744813320254156e-08,0.854195691734767,-0.005693194067290711,-0.8089153384832468,0.8406964740527552,-0.0011388924737093667,-0.8008492510024685,0.8284129112611578,0.008567786739259549,0.6243162160181752,0.9853469488232163,-0.008867479430719334,0.6158950521259347,1.0064095531930826,0.0,0.0,0.0,0.0
-0.006997200407610897,-0.10183966661081154,0.7395521010019148,0.00028736272314783956,-0.519951572403073,-1.6744813320254156e-08,0.854195691734767,-0.005693194067290711,-0.8089153384832468,0.8406964740527552,-0.0011388924737093667,-0.8008492510024685,0.8284129112611578,0.008567786739259549,0.6243162160181752,0.9853469488232163,-0.008867479430719334,0.6158950521259347,1.0064095531930826,0.0,0.0,0.0,0.0
-0.007192643631032967,-0.10144761981914234,0.7393815457365354,0.00014505980530145996,-0.5199307090214496,3.232731747904182e-05,0.8542084263978261,-0.006681711518866834,-0.8097101399817271,0.8407462293435811,-0.002123787284937722,-0.7991524763128796,0.824845155980141,0.007137360696871323,0.6226879613562645,0.9883211750727376,-0.010309129217683805,0.614615323226481,1.0067463192879658,0.0,0.0,0.0,0.0
-0.007426552079335679,-0.1009668987319004,0.7392631841002759,4.569879349248587e-06,-0.5198525549973756,5.968624054206323e-05,0.8542560023080725,-0.007882731115001205,-0.8106803185140755,0.8409839601655728,-0.003318736193183341,-0.797202953698018,0.8207687117000528,0.005107025542511836,0.6211087165067024,0.9910138461197927,-0.0123316482286987,0.6133027903645113,1.0061939415729686,0.0,0.0,0.0,0.0
-0.007651007002319573,-0.10051314797577524,0.7392001467272739,-0.00012320811781838293,-0.5197553655641728,8.94726465252746e-05,0.8543151273281179,-0.009030998894776047,-0.81155962611567,0.841228835434879,-0.004459273245861691,-0.7953202528079218,0.8169320787915136,0.003185582569227914,0.619792075157862,0.993041503165141,-0.014225199530876564,0.6122436788421309,1.0051784210379267,0.0,0.0,0.0,0.0
-0.007838481143323538,-0.10012900060015895,0.739163375367016,-0.00023680509276740978,-0.5196668539829359,0.0001261728254284907,0.8543689418952706,-0.010031853231971088,-0.8123246535193351,0.8414891693210581,-0.005451820767470338,-0.7936892976213269,0.8136845139670598,0.001659920981824781,0.618719594579776,0.9945689110940686,-0.015715912741791602,0.6114612510084279,1.0041592543536089,0.0,0.0,0.0,0.0
-0.007991409372437062,-0.09981540178251318,0.7391340229792255,-0.0003380987310103798,-0.5195959590202109,0.0001714378355415382,0.8544120175115656,-0.010886082860755068,-0.812970729131031,0.8417155999563958,-0.006297947353313743,-0.7923033010237592,0.8109819004564616,0.0005546984007856941,0.617806240257252,0.9957906552237499,-0.016788392564988274,0.610880485917264,1.0033377273261075,0.0,0.0,0.0,0.0
-0.008125438016551245,-0.09956368085704714,0.7391027676505215,-0.0004304034179538244,-0.5195441473072651,0.00022839546770922063,0.8544434689241734,-0.011621832454750873,-0.8134621392267468,0.8417884549395447,-0.007026209392160649,-0.7910645030098186,0.8086202927963719,-0.00014901205945902127,0.6169561272453925,0.9968346871696777,-0.017465188717130632,0.6104210359647617,1.00278867138071,0.0,0.0,0.0,0.0
-0.008243682802701848,-0.09938733142744695,0.7390696274274504,-0.0005162729997705345,-0.5195230881850501,0.0002992563878357483,0.854456204114917,-0.012208829237959254,-0.8136847594433974,0.841560322385437,-0.007607034574117732,-0.7899110449023821,0.806544458438025,-0.0003409797807391137,0.6161782101191356,0.9976812136667067,-0.01764060483066365,0.6101119858947465,1.0025919424640422,0.0,0.0,0.0,0.0
-0.008244619806555893,-0.09938112042140068,0.739065663974933,-0.0005176897917220144,-0.51952313759507,0.0003004765380131909,0.8544561727874073,-0.01222721480335183,-0.8137084230733349,0.841579314765646,-0.007624617348830717,-0.7898927162938176,0.806501848642043,-0.000363709336163552,0.6161536778099312,0.9977358002367788,-0.01766166748915486,0.6100949572931806,1.0026068243186634,0.0,0.0,0.0,0.0
-0.008244619806555893,-0.09938112042140068,0.739065663974933,-0.0005176897917220144,-0.51952313759507,0.0003004765380131909,0.8544561727874073,-0.01222721480335183,-0.8137084230733349,0.841579314765646,-0.007624617348830717,-0.7898927162938176,0.806501848642043,-0.000363709336163552,0.6161536778099312,0.9977358002367788,-0.01766166748915486,0.6100949572931806,1.0026068243186634,0.0,0.0,0.0,0.0
-0.007556062021334676,-0.09952745499869979,0.7394717564672517,-0.0005733258950030971,-0.5199113372448214,0.00029523953482743135,0.8542199866166424,-0.011805406657779568,-0.8136346688537546,0.8455738046193763,-0.007204430671320981,-0.7904659614253967,0.8116041712306126,0.0008415083276208148,0.6209632597508437,0.9939466522067667,-0.016569680479722924,0.615061167648233,0.9998518718857305,0.0,0.0,0.0,0.0
-0.006440887690354458,-0.09960342874903545,0.7397276697609811,-0.0004064021098704402,-0.5205040013401974,0.00011904645220504457,0.8538591249463293,-0.011239641021330526,-0.8147012249107877,0.8527879205931121,-0.006641838516600733,-0.7930828878763618,0.8205357002501291,-0.0006576801896798623,0.6274585809701605,0.992130389662549,-0.0182496058351815,0.620314936909374,0.9981070533086334,0.0,0.0,0.0,0.0
-0.0053685621805172985,-0.09962959204656419,0.7398389640006287,-0.000228413245076768,-0.5211073010762555,-5.7681865810368914e-05,0.8534911395352694,-0.010808751773375045,-0.8159541179342854,0.859747385024165,-0.006212146735809435,-0.7956536935076556,0.828819810489315,-0.0026027645224990393,0.633236970663377,0.9917925466520523,-0.02037661043452773,0.624752678028492,0.9974770868027993,0.0,0.0,0.0,0.0
-0.0044670666254437875,-0.09965432492799549,0.7398689593342658,-0.00010472807044531682,-0.5216250017199638,-0.00017992807702074242,0.853174843885218,-0.010497463932654291,-0.8171699947190277,0.8656054092936826,-0.005900445529088009,-0.7978232000058878,0.8356604599627657,-0.003971772830989754,0.637767433851472,0.9920144180123921,-0.02190277860808898,0.6283065917399215,0.9975330421169327,0.0,0.0,0.0,0.0
-0.003773703880610035,-0.09970908378472114,0.7398588109357612,-4.602178840674239e-05,-0.5220238049607321,-0.00024128661661665187,0.8529308803866132,-0.010234683224294444,-0.818199632344968,0.8700660160350983,-0.0056368303496847185,-0.7995459294242745,0.8409630220013722,-0.004405937685097627,0.6409845986248695,0.9922908717487468,-0.022468417247623922,0.6310279909804715,0.9980123947386859,0.0,0.0,0.0,0.0
-0.003274752823012632,-0.09980451728028862,0.7398331252617414,-3.7720233476835756e-05,-0.5223120943652586,-0.00025685083582295206,0.8527543659721768,-0.009960120772845842,-0.8189402390043148,0.8731458054807096,-0.005361877988464161,-0.8008636907954751,0.8449079983022415,-0.003973480428061044,0.6430907370300359,0.9924136517487026,-0.022145503658112776,0.6330440158323112,0.9987447358481347,0.0,0.0,0.0,0.0
-0.002935697958643943,-0.09993962847311201,0.7398045175932494,-6.014328870990909e-05,-0.5225138065541994,-0.0002458376442435124,0.852630786394016,-0.009635917307143594,-0.8193480311424636,0.8750165073957177,-0.005038131601324617,-0.8018491807329095,0.8477659867128402,-0.002904631781158402,0.6443675694916137,0.9923334162526115,-0.021165171746979,0.6344987263293057,0.9996246887300441,0.0,0.0,0.0,0.0
-0.0027218953541350145,-0.100111335347485,0.7397785007360483,-9.988551047657915e-05,-0.5226501693632589,-0.00022224612196175664,0.8525472075457774,-0.00924032177494195,-0.8194336521271619,0.8758873753002457,-0.004643919021875452,-0.8025845094900049,0.8497987090739061,-0.001391074777853277,0.6450475277421549,0.9920503056416868,-0.01971853589093722,0.6355151454746789,1.0005950952385951,0.0,0.0,0.0,0.0
-0.002610175464989645,-0.10031925194778635,0.7397573720693917,-0.00015556747666917585,-0.522729793485868,-0.0001902104500925727,0.8524983886324751,-0.00876429684084507,-0.8192554195097657,0.8759395948217029,-0.004170039206477841,-0.803145450914295,0.8512019978869336,0.000522552479103491,0.6452450764139558,0.9915493460736755,-0.01784886204328176,0.6361782972576554,1.0016287292693502,0.0,0.0,0.0,0.0
-0.002592631311498636,-0.10056309722156143,0.7397426092165449,-0.00024049027310842522,-0.522746294066865,-0.00014201720251364572,0.8524882603501948,-0.008221690634785232,-0.8189211005713535,0.875317221622878,-0.0036299001353654846,-0.8035765457486199,0.8520645620069983,0.002954145297032736,0.6449400425402986,0.990786019516218,-0.0154338078032678,0.6365375191467827,1.002701374846753,0.0,0.0,0.0,0.0
-0.002673270917493351,-0.10082787129993492,0.7397417895086874,-0.0003713000955103018,-0.5227047309493114,-7.381223523405164e-05,0.8525137071808294,-0.007650403259143585,-0.8184196558928216,0.8740220092041817,-0.003061051474308741,-0.8037312853221502,0.8522122779280281,0.005917260756286352,0.6441487601361863,0.9897468368919868,-0.012452377863340691,0.636655765002261,1.0037114587770968,0.0,0.0,0.0,0.0
-0.002850489301811251,-0.10102700175548059,0.7398699077019879,-0.0003793357330061289,-0.5230088775980049,-0.0002466294056434798,0.8523271139838349,-0.0066511670109261345,-0.8145153418281755,0.8693642938733491,-0.002072159493197506,-0.8012138219750022,0.8492556901312988,0.006220463940419578,0.6453726240656334,0.9888358925764538,-0.012163009000045336,0.6372159811955619,1.0038466393063719,0.0,0.0,0.0,0.0
-0.002800636075794436,-0.10132175296434062,0.7398655301033426,-0.0005300386323594771,-0.5230756595467726,-0.0002392813879577104,0.8522860530321814,-0.0058256436517199394,-0.8139365143363628,0.8686340522404772,-0.011820685119774106,-0.8159506551354337,0.8483549310940047,0.00912890673493618,0.645328422500816,0.98790495468364,-0.009255756512217541,0.6378656264291164,1.0050527321629816,0.0,0.0,0.0,0.0
-0.002612748387036186,-0.10167833129083653,0.7398894411127843,-0.0005768509264193619,-0.5233036772512775,-0.00041015268515678233,0.8521459736412972,-0.004418791040258694,-0.8124755067866511,0.8677934432914801,-0.025413760292366114,-0.8355485826716286,0.8424040602025193,0.01073807722207133,0.64678378704159,0.9869303718443485,-0.007682085081275359,0.6389174528245484,1.0062294935680687,0.0,0.0,0.0,0.0
-0.0023345196863159036,-0.10211613060180363,0.7399315376368066,-0.0005544581389315328,-0.523600815858417,-0.0006832237049053015,0.8519632688173483,-0.002571242689998851,-0.8105759724805535,0.8669442889827162,-0.039432446955229385,-0.8567441916009684,0.8338834371580269,0.011855348165693905,0.6490798219967544,0.985689227405237,-0.006625775471587851,0.6401937231362993,1.0074657617566694,0.0,0.0,0.0,0.0
-0.00198650838851656,-0.10265298842950976,0.7399740574414876,-0.0004839491195508584,-0.5238974906939067,-0.0010096983118718932,0.8517805853312206,-0.000360693739998412,-0.8086593828003186,0.866308836823755,-0.052542907909393685,-0.877930221812255,0.824053624629814,0.01301511189220574,0.6517443208729908,0.984089509547513,-0.0055334373932512905,0.6415286917062134,1.008905584722942,0.0,0.0,0.0,0.0
-0.0015658980320860192,-0.10330991555281559,0.7400030291980354,-0.00036591969341577616,-0.524156422383394,-0.0013729854810771921,0.8516208228360129,0.0022204552716667387,-0.8069793172714136,0.8660831027895841,-0.06444440871416947,-0.8984965980306118,0.8134208837600784,0.014459125190606954,0.6545756413290595,0.982081535908115,-0.004151160870468908,0.6428221311787561,1.0106801279329676,0.0,0.0,0.0,0.0
-0.0010574645970174241,-0.10411319219257252,0.7400066658389103,-0.0001901663837871238,-0.5243563341323033,-0.001775552740415825,0.8514970617122203,0.005240004029022606,-0.8056921408514541,0.8664361958008502,-0.07520031710431377,-0.9181874523066729,0.8022033657885241,0.01628571887961589,0.6575185437145579,0.9796212260286395,-0.0023720525982217464,0.6440049861919459,1.0129180064939425,0.0,0.0,0.0,0.0
-0.00044546919212794397,-0.10509131462278323,0.7399712222700823,6.343618352832959e-05,-0.5244964222327096,-0.002235310127007258,0.8514097147845883,0.008808508496467032,-0.80478835540391,0.867376608672633,-0.08483015222593004,-0.9365361184697314,0.7908118751116386,0.01845358880935367,0.6606147778507514,0.976732073467975,-0.00023235545062737228,0.6450056603086421,1.0157927374957774,0.0,0.0,0.0,0.0
0.00040060494825006326,-0.10619877077387752,0.7398684640656452,0.0004468601407305235,-0.5245937087725258,-0.00278357172111307,0.8513480444335174,0.012866904863807867,-0.8049133023811058,0.8702183576982694,-0.09355818701776446,-0.9519157423761476,0.7796775254758204,0.02015610358225266,0.6643244602055208,0.9737896650490022,0.0014327055133476997,0.6459526976103507,1.019264595147584,0.0,0.0,0.0,0.0
0.0013860045954626737,-0.10748478982966353,0.73968495657668,0.000931495571199147,-0.524604960945141,-0.003407209479258321,0.8513384510236293,0.017531079585797853,-0.805767835664234,0.8740758274444668,-0.10130885527314638,-0.9625436511835448,0.7703616660649708,0.021967739912576802,0.6681138655918081,0.9706960672665701,0.0032282676007621765,0.6465063367383449,1.023614199598063,0.0,0.0,0.0,0.0
0.0024001053834696736,-0.10895701589425491,0.7394340003566313,0.00147094286410531,-0.5244916047893309,-0.004078834615042341,0.8514045782944709,0.0227840244388798,-0.8070097695555793,0.8780435223851916,-0.10822753233632684,-0.9660623229997753,0.7652368747244227,0.024386924880444392,0.6714958281098315,0.9672675636853219,0.005694731408988581,0.6464604454269635,1.0287882037609863,0.0,0.0,0.0,0.0
0.0034012186412322202,-0.11057657971157125,0.7391872750730798,0.0020554435998118396,-0.5243089320746901,-0.004797501539004158,0.8515121272637809,0.0285313552397805,-0.8079455322776339,0.881407933418137,-0.11434494568758208,-0.9609510575097819,0.7671645114687698,0.027217567539632767,0.6748473308949452,0.963121124715553,0.00864264477311528,0.6461820175531087,1.0341566872633838,0.0,0.0,0.0,0.0
0.004442240686606706,-0.11240363420776346,0.7389079411792636,0.002698493773631296,-0.5239854811458843,-0.005576109677517167,0.8517046675230412,0.03496240688845226,-0.809180612470421,0.884872088656543,-0.11967584183302712,-0.9486344373369362,0.7730489792015529,0.03068652599726885,0.6780026352828619,0.9581801626088172,0.012331704919496263,0.6454574152783921,1.0400302060456657,0.0,0.0,0.0,0.0
0.0056270783493907114,-0.11448151704240668,0.7385601619948925,0.0034510516258058365,-0.5235223939204888,-0.006462038159375911,0.8519804195926473,0.04230147437090511,-0.8110378642734969,0.8891462426127387,-0.1242187990438865,-0.9314004299713945,0.7801645224926733,0.03446982889654187,0.681293844735826,0.9525507315391439,0.01643886159313828,0.6442847457594136,1.0466872696374756,0.0,0.0,0.0,0.0
0.007075910210464021,-0.11673800693974579,0.7381737176561032,0.004358482097194022,-0.5229978359180737,-0.007493280327053142,0.8522899260279687,0.05045491604573711,-0.8135440633141728,0.8950026366730027,-0.12845145528331423,-0.9108541350678598,0.7868291492185049,0.03757880024355671,0.6856332410756956,0.9462754694635471,0.01991020951622352,0.6431865016652148,1.0535821851958376,0.0,0.0,0.0,0.0
0.008821557157145303,-0.11902495612016754,0.7377496046655344,0.005413606927130885,-0.5224632692784482,-0.008656812578830147,0.8526006595768557,0.05902989172094805,-0.8168855938243204,0.9029752203446503,-0.1334097579452761,-0.8876266715694154,0.7915833356618346,0.03916732061564724,0.6912706283452993,0.9399266670680737,0.02180745926822144,0.64235983910946,1.0602874301414895,0.0,0.0,0.0,0.0
0.010629347455369371,-0.12115811930916014,0.7371812870310803,0.006519846323580416,-0.5219472301821536,-0.009856622216863101,0.8528959066073473,0.06735937428954271,-0.8207874720876946,0.9116825201380316,-0.1403248430640209,-0.8623532001256228,0.7930904923609999,0.03919865412587526,0.6967079367890495,0.9354002756428119,0.022052844914077864,0.6409332892646672,1.0675497764615465,0.0,0.0,0.0,0.0
0.01236524592253241,-0.1229401669452128,0.7364836257923297,0.007595785977031797,-0.521454008238293,-0.010992192359799698,0.8531747728541523,0.07470574526239697,-0.8254007384943125,0.9209177671022308,-0.1502980747152779,-0.834980170154704,0.7887259937273241,0.03744568395149915,0.7012852575709226,0.9334116968607087,0.020372008359101558,0.6387692734477091,1.0748991868728723,0.0,0.0,0.0,0.0
0.013814055066312779,-0.124210439838563,0.7357514577419221,0.008504143819935379,-0.5208896035425646,-0.011889746585610386,0.8534988777879498,0.08024674638306556,-0.8310135326765175,0.9302776362688006,-0.1632902784548986,-0.8057970225953413,0.7737998258752479,0.034689287711315624,0.7039684297513877,0.9335970000640995,0.017612031642946623,0.6358373494645936,1.0813171252358043,0.0,0.0,0.0,0.0
0.014640350952226273,-0.12476816505775211,0.7351443471955279,0.009043076568716462,-0.5201492468462957,-0.012286263787686531,0.8539391263395436,0.08281721999406735,-0.8376539581188144,0.9386847053331147,-0.17682344831089178,-0.7764296546173972,0.7421091973581943,0.03246810736384138,0.7033004546130569,0.9351698350356802,0.015431077683369963,0.6322788391241104,1.0853800358784145,0.0,0.0,0.0,0.0
0.014682275270163874,-0.12480884167590871,0.7351271133821872,0.009096527444983188,-0.5201297255241197,-0.012279702147411094,0.8539505434917279,0.08291327414523249,-0.8376859962800506,0.938733042500702,-0.17681501936627714,-0.7763643931336093,0.7421225752375169,0.03244091125048369,0.7033560175750515,0.935071061372333,0.01543482722167249,0.6322738501282176,1.0855275022171158,0.0,0.0,0.0,0.0
0.014682275270163874,-0.12480884167590871,0.7351271133821872,0.009096527444983188,-0.5201297255241197,-0.012279702147411094,0.8539505434917279,0.08291327414523249,-0.8376859962800506,0.938733042500702,-0.17681501936627714,-0.7763643931336093,0.7421225752375169,0.03244091125048369,0.7033560175750515,0.935071061372333,0.01543482722167249,0.6322738501282176,1.0855275022171158,0.0,0.0,0.0,0.0
0.014925183741197954,-0.1249468352148044,0.7350760164131338,0.00879014936002718,-0.5200658703496774,-0.011886545516204078,0.8539982048033545,0.08247633063323108,-0.8401762120929392,0.9417479699538823,-0.1774979033384049,-0.777304716913716,0.7447466932261679,0.03802229099219058,0.7021579345805515,0.9340455982799948,0.021325328663247635,0.634390010219245,1.086393067210421,0.0,0.0,0.0,0.0
0.015257436127859358,-0.12516501241520275,0.7349915004485695,0.00865345152452191,-0.5201786283040816,-0.011661167279504671,0.8539340311816108,0.08255833726400165,-0.8413926334185905,0.9438817916333988,-0.1776042687999424,-0.7788350267151014,0.748479439182665,0.04201592222760107,0.7021732187678354,0.93348948064209,0.025610922475515947,0.6365067781871914,1.0878111804287125,0.0,0.0,0.0,0.0
0.015653234709748342,-0.12550479215941607,0.7348751089963879,0.008645155976471853,-0.52040837227014,-0.0115822583952565,0.8537951971285335,0.08325136275032148,-0.8415282265348631,0.9451186752066973,-0.17707473591926887,-0.7811783764802522,0.7535159253761453,0.045150978126706,0.7030451358157516,0.9330946304178006,0.029011144420828826,0.6385623500053924,1.0898346489218407,0.0,0.0,0.0,0.0
0.01609882984595512,-0.1260224196317506,0.7347366613939055,0.008738118747861942,-0.5207039226900559,-0.011630018187339757,0.8536133860553609,0.08467372323245724,-0.8406937922229092,0.9454106820427818,-0.1758187378385209,-0.784632318847272,0.7602343807095249,0.04810981362270589,0.7045519759995463,0.9324172337180334,0.03225840937031924,0.6405767290264168,1.0924831165311146,0.0,0.0,0.0,0.0
0.016601707774466776,-0.12678240723991027,0.7345840815337009,0.008927895220623688,-0.521036586540531,-0.01180939211290196,0.853405944689305,0.08701317145470189,-0.8388688235478458,0.9446792163287012,-0.17366998503291692,-0.7896044335041015,0.7692263148511632,0.05132655353819528,0.7066808993132627,0.9310474350562681,0.03584458855704968,0.6426019679641085,1.095803701207697,0.0,0.0,0.0,0.0
0.01720732795186519,-0.1278617356077926,0.7344217321808292,0.009245065006470878,-0.521411962479246,-0.012162393385637358,0.8531683130213524,0.09056337167205526,-0.8358563659601227,0.9428454120085147,-0.1703505583221929,-0.7966952758609057,0.7814545969207024,0.054879376471620056,0.7097503941268111,0.9286215585469277,0.03988279382131022,0.6447583807695405,1.0998809025165328,0.0,0.0,0.0,0.0
0.01797026350625559,-0.12933058437275616,0.734262666035062,0.009722590483174894,-0.521836903560998,-0.012731992719651619,0.8528948432705833,0.09559749867810936,-0.8314616254544962,0.9398918011410636,-0.16559247023493642,-0.8064458539111269,0.7978232714712301,0.05878315460710519,0.7141699778664825,0.9246947623215483,0.04442360795674719,0.6472373205159457,1.104682433882659,0.0,0.0,0.0,0.0
0.01891891118285241,-0.13121731042862572,0.7341414436022125,0.010373204843653566,-0.52230713723595,-0.01353881873217454,0.8525868585669119,0.10222376027047578,-0.8255299178141299,0.9357952262532505,-0.15926028321152252,-0.8189349677590662,0.8185379491491477,0.06302230142129864,0.7202857336437912,0.9187430569338738,0.049490618665213905,0.6502664149085776,1.109894099220726,0.0,0.0,0.0,0.0
0.020052521874791642,-0.13344670881460619,0.7340845274382973,0.011165740124619397,-0.5227918485185655,-0.01455931502228768,0.8522628911997123,0.11019478405972515,-0.8183788644924522,0.9309691702984695,-0.15156239784923745,-0.8336588661936086,0.8428192656891113,0.06740844041338283,0.7281038497600655,0.9106463953853852,0.054900389635399414,0.6539368973330048,1.1150072534521567,0.0,0.0,0.0,0.0
0.021040497934508847,-0.13538264552862608,0.7339507524970548,0.011839434370728869,-0.5231833692525425,-0.015400598336552725,0.851998715669346,0.1169984796933119,-0.8125190353981269,0.9268542743629614,-0.144936391126909,-0.8462409104230795,0.863178169687259,0.07170757588500258,0.7343197069216867,0.9041111369212638,0.06031605209776008,0.657034704896984,1.1200156489801794,0.0,0.0,0.0,0.0
0.021867954085562306,-0.1369137489022444,0.7337730743039509,0.012368708574257734,-0.5235113214775036,-0.01604218148163275,0.8517778816959228,0.12232075255314401,-0.8081479131244449,0.9238723344631911,-0.13972753317785047,-0.8561829566104243,0.8791332260312389,0.07541641447393155,0.7390115697707157,0.8994560635075154,0.06508142294507618,0.6596222865650166,1.1244811039672582,0.0,0.0,0.0,0.0
0.022564382098574837,-0.13806905694110122,0.7335832456578716,0.012775501592535689,-0.5238081895441973,-0.01652017454369081,0.8515802081768548,0.12632134277791315,-0.8050174645522503,0.9219960942729399,-0.13580653358514808,-0.8637841831950431,0.8913919993784152,0.0783447932323541,0.7426096971743699,0.8964009832638667,0.0689091540283573,0.6618540229043697,1.1282492256717584,0.0,0.0,0.0,0.0
0.02316887386237643,-0.13890983458084566,0.7333979328747727,0.013091110484644512,-0.5240980838828548,-0.01687888030794816,0.8513899956519039,0.12925543681042442,-0.8028420783608816,0.9211040691495169,-0.13293659093214316,-0.8695096508269705,0.9008139768092269,0.08042506256836453,0.7455247695995438,0.8946112025610334,0.07167545078033527,0.6638553970570161,1.1313253229460738,0.0,0.0,0.0,0.0
0.023720801087587576,-0.13949407452994872,0.7332239598649836,0.013343321514610592,-0.5243974415245283,-0.017156884982132786,0.8511961703339581,0.13135712670354607,-0.8014086043863518,0.9211159272537764,-0.13089498777966416,-0.8738017570212908,0.9081608698867509,0.08163235220311868,0.7480898720366946,0.8938112310956622,0.07332450424157642,0.6657272150704003,1.1337642048594108,0.0,0.0,0.0,0.0
0.024250115780002926,-0.13987249343877833,0.733064944516411,0.013558308964302563,-0.5247205101912981,-0.017386668604483454,0.8509889906440918,0.13282398112806443,-0.8005033562470604,0.9219020112751838,-0.12948530504458025,-0.8770067570776579,0.9140128293804156,0.08193875299733183,0.7505764668857361,0.8937758081107556,0.07381172292149377,0.6675414240059622,1.1356310436451564,0.0,0.0,0.0,0.0
0.02475758701267673,-0.14010357213287908,0.7329276698536517,0.013757222552402346,-0.5250692998915698,-0.017591751169788165,0.8507664188423286,0.13384761404654869,-0.7998296453821508,0.9230973894737335,-0.12850363235870524,-0.879369744952623,0.9187295394668263,0.08144228277939956,0.7531224585112135,0.8942170333301213,0.0732638182467333,0.6693015213199515,1.1370069847528517,0.0,0.0,0.0,0.0
0.025233982995918166,-0.1402448719076179,0.7328262082257595,0.013957674911986108,-0.5254363941110712,-0.01778857817763273,0.8505323894720439,0.13459931607098374,-0.7990957082136286,0.9243041327595297,-0.1277637583604805,-0.8810901846377446,0.9225908342665309,0.08029158177384958,0.755824722827976,0.8947676759477877,0.07188239709340137,0.6710072948336757,1.137913980204377,0.0,0.0,0.0,0.0
0.025638064487608005,-0.14038292737126312,0.7327944240234407,0.014170799296993419,-0.5257860943989403,-0.017983623183196986,0.8503086267239665,0.13529756301568624,-0.7978996665443524,0.9248447092969038,-0.12702423832169596,-0.8823686770055432,0.9258240261931743,0.07892366905082848,0.7586632513868398,0.8947287357692442,0.07024136019468932,0.6726350743059442,1.138299144711184,0.0,0.0,0.0,0.0
0.025892874310597495,-0.14067235216586385,0.7329187102829249,0.014399790699274105,-0.5260298233713052,-0.018172278448575,0.8501500098498841,0.13630324947698208,-0.79563359004436,0.9236375143169707,-0.12589363644081952,-0.883547607707335,0.9288581346193694,0.078357334562165,0.7615716679029532,0.8925446806281256,0.0696525728106953,0.6742557159811885,1.1378448094455789,0.0,0.0,0.0,0.0
0.02593390890552894,-0.14141982623362612,0.733475152184099,0.014644419575728637,-0.5259869458138359,-0.018349011617962402,0.8501685642161599,0.13834287122482675,-0.7912116143628954,0.9192429739075866,-0.12360813663531534,-0.8854453369753763,0.9332740208377516,0.0806378188251615,0.765231317438387,0.8839445300586157,0.07273253739407828,0.6767203735218935,1.134928863041184,0.0,0.0,0.0,0.0
0.026019809106500754,-0.1433210830686147,0.7356789168138753,0.015003064902870383,-0.5254102270190325,-0.018732955474621057,0.8505104806917518,0.14348864810411424,-0.7806574490427941,0.9099158798580194,-0.11790640001851005,-0.8898279074504095,0.9454171406619474,0.08779061125406341,0.7770503210320725,0.8531335192458801,0.08223184944294692,0.6851446285595553,1.1204124880504989,0.0,0.0,0.0,0.0
0.0252709689747179,-0.14547935333332634,0.7393142606778317,0.014089750012379637,-0.5234137899798126,-0.017744422643817523,0.8517773293934248,0.14647542176834916,-0.7739591946698828,0.901479195220775,-0.1146907976807589,-0.8895394618634622,0.9527800191689708,0.05082636700583306,0.7349094339523043,0.9307455223297312,0.11373472627438444,0.6992616995472883,1.0946377633274837,0.0,0.0,0.0,0.0
0.02477405182016925,-0.1477233199654975,0.7430555378047916,0.013416158137690449,-0.5217849544915993,-0.01701145379846411,0.852801898688486,0.15008014583654347,-0.7646346013857169,0.8915993869310009,-0.11062148284421752,-0.889033606065633,0.9611758432234973,0.020984964279389742,0.7042165298649192,0.9881268526697895,0.1397190804932642,0.7141676067021951,1.0666152208035915,0.0,0.0,0.0,0.0
0.024548592249615583,-0.14987543463414316,0.7464018264210384,0.013057987471012535,-0.52053292638044,-0.016535882735952922,0.8535815872540627,0.15392415619214198,-0.7546594846365525,0.8817554587445247,-0.10624299769919132,-0.889411390429217,0.9704856441966883,0.002333244301987829,0.6823302569673466,1.031569281464086,0.1597286263173196,0.7280603306931628,1.0405103713227821,0.0,0.0,0.0,0.0
0.024514496310595775,-0.15183808140304528,0.7492829539510696,0.012912876590220656,-0.5195530500428802,-0.01624365421680537,0.8541861796511291,0.1576735029632114,-0.7451670908282773,0.8727749986257028,-0.10197240440469386,-0.8905259092461679,0.979976028697481,-0.009414222002302488,0.6664973544298343,1.0674629044529356,0.17520863346101176,0.7405135998580475,1.0172728900380892,0.0,0.0,0.0,0.0
0.024555478843374008,-0.15352902672737814,0.7517371104278745,0.012862103926878154,-0.5187520973089853,-0.016039239553409856,0.8546774658399807,0.16096106459020698,-0.7367754957955402,0.8649726301742466,-0.09821043953439293,-0.8916909324787425,0.9884812537666148,-0.017822952186014998,0.6543969074761706,1.0993058459622933,0.1873656595524609,0.751368048918984,0.9968542515274491,0.0,0.0,0.0,0.0
0.024597497471133427,-0.15497833973104097,0.7538216107798862,0.012838245647722065,-0.5180520696854578,-0.01586576569568573,0.8551055549007922,0.16376625352757282,-0.7296065479280813,0.8581983246216003,-0.09499305846803523,-0.8927654574863032,0.9957575214265926,-0.024705926514654537,0.6443877273090863,1.1287632309632794,0.1973884006001605,0.7606280058587233,0.9790821178324396,0.0,0.0,0.0,0.0
0.024589843677826528,-0.15620950162496006,0.7555738453014039,0.012795504273216124,-0.5174030257866632,-0.015681163143031238,0.855502475215403,0.16607573285067406,-0.7237312345882909,0.8523283014729195,-0.09234418351477013,-0.8936519768032236,1.0016417774094108,-0.03111500768019413,0.6355986681641073,1.1562068871982607,0.20605334432807698,0.7682783142973403,0.9638478351003134,0.0,0.0,0.0,0.0
0.024472724109792003,-0.1572498244891825,0.7570033064758548,0.012696927963227586,-0.5167609463278465,-0.015448006538204957,0.8558961803073085,0.1678921315937915,-0.719181505155899,0.8470901920697351,-0.09026618772026868,-0.8942884095716531,1.0059098308144852,-0.03776455012025714,0.6276566375256549,1.1807292289984008,0.21402029343929485,0.77413752086755,0.9512809621011076,0.0,0.0,0.0,0.0
0.024170070077008245,-0.15813446920087773,0.7580906114591374,0.012502972905927553,-0.5160734617906246,-0.01512378096917016,0.8563195250332384,0.16923084006586842,-0.7160321635942644,0.8421012628114457,-0.08875081132409836,-0.8946758328321263,1.0082816390287002,-0.04545734882417978,0.6207240133418531,1.1998049342898534,0.22201434052423424,0.7778226395749194,0.9417916004952096,0.0,0.0,0.0,0.0
0.023599349732788245,-0.1589116961339199,0.7587956408316319,0.012169130037758007,-0.5152757811595825,-0.014659658024379558,0.8568126259872192,0.17013321299788306,-0.7144333097395577,0.8369526741209969,-0.08777119388496328,-0.8949263656894352,1.0085336778917224,-0.05531249243343174,0.6159422323358109,1.2086805522851476,0.23088094319499702,0.778812492374689,0.935990122566999,0.0,0.0,0.0,0.0
0.022720186755391617,-0.1596321342624344,0.7591001088213337,0.01166570384260575,-0.5143151334746556,-0.014024156249215887,0.8574072415569519,0.17067709247682447,-0.7145055084227623,0.8314341677264717,-0.08726587998245164,-0.8952497177056442,1.0067482675186916,-0.06846531254842013,0.6162401086071259,1.2003067793704107,0.24121196879957296,0.7768006759190077,0.934184348799623,0.0,0.0,0.0,0.0
0.02153919104452952,-0.16027139361196038,0.7590568195954271,0.011012443844191908,-0.5132223752836749,-0.013226889102587841,0.8580830781418715,0.17077928998444375,-0.7159378300179572,0.8253841293677362,-0.08728866538914277,-0.8953157473524033,1.002688537171739,-0.08386557802365896,0.6187121096851088,1.1817620595278695,0.25241946411866184,0.7720223759196997,0.9357979830992853,0.0,0.0,0.0,0.0
0.020096396674734316,-0.16081386669444359,0.7587484246155888,0.01022961140356955,-0.5120181073677489,-0.012281739509135043,0.8588259262811703,0.17039273474727817,-0.7184859537140387,0.8188917213206676,-0.08786910374503694,-0.8949143922534578,0.9964325692803455,-0.1007105411759481,0.6221575772472829,1.1578957829054168,0.2639800625836552,0.7649766901041499,0.9398681645631844,0.0,0.0,0.0,0.0
0.018423422602815518,-0.16126291968485484,0.7582483285398823,0.00931944093189555,-0.5106950265413005,-0.011183856548499078,0.8596386794691127,0.16949319926424355,-0.7220640793865546,0.8121049736774015,-0.08902926596787843,-0.893956211473078,0.9881494359361948,-0.1188814722609589,0.6262324647487452,1.1315147787750315,0.2757600642867335,0.756104098526055,0.9455263394472828,0.0,0.0,0.0,0.0
0.01654797222049525,-0.16163215785018625,0.7576151937931408,0.008267933433426269,-0.5092287740192768,-0.00991219893412854,0.8605343951869995,0.1680607868369237,-0.7267497503088499,0.8052712966440088,-0.09080063016860714,-0.8924413013848332,0.978069983706472,-0.1391311039573094,0.6310235957973697,1.1041791599292567,0.287902206623548,0.7457696980685157,0.9520557228061545,0.0,0.0,0.0,0.0
0.014525968157709991,-0.1619353957462637,0.7568965235918664,0.007053808680685054,-0.5075949908799658,-0.00844319124269267,0.8615255547796031,0.16608471862143753,-0.7328264388774469,0.7989748906450863,-0.09322341617322356,-0.8905160245781599,0.9666759886072516,-0.16338380712756836,0.637059185016201,1.0769060155463397,0.3006492149272689,0.7343879963552602,0.9588235049710303,0.0,0.0,0.0,0.0
0.012540227384278936,-0.16221539630058301,0.7561230307944372,0.005674757336304636,-0.5057729521033963,-0.006791218161640013,0.8626212363521261,0.16374992491613038,-0.7410543479860898,0.7948667482839322,-0.09619794764435136,-0.8891342973626662,0.9558123467964171,-0.19491948019877758,0.6456908941970355,1.050705750853922,0.3142999262768189,0.7226560716790943,0.9652985493456896,0.0,0.0,0.0,0.0
0.010898221588800217,-0.16239431776004082,0.7553287385100009,0.004162362340867882,-0.5037884045493864,-0.005029030967501393,0.8638024236067267,0.16109668053268686,-0.75284359646689,0.7961926960986621,-0.09981862146130376,-0.8894391570331296,0.9479046291611569,-0.23751451034512125,0.6588072157430964,1.0265009204327395,0.3280540402225102,0.7116295851096066,0.9706609405318698,0.0,0.0,0.0,0.0
0.009891203214011154,-0.16242176328273222,0.7547115620570135,0.0028446404786600364,-0.5019466824969838,-0.0035107075158504358,0.86488676188479,0.15860282418083066,-0.7660656404174642,0.802793745591718,-0.10342775285097491,-0.8916178078210607,0.9446694327508645,-0.28317162248654226,0.6736965052011825,1.0062426166306027,0.3384959357562058,0.7031830027812808,0.973305584036692,0.0,0.0,0.0,0.0
0.00990517108540296,-0.162443944952558,0.754688459046263,0.0028027681587705876,-0.5019509852534233,-0.003487125710756643,0.86488449682489,0.1585833803883584,-0.7661308819272709,0.8027356449300138,-0.10344189577176549,-0.8915809760169462,0.9446880115300869,-0.28319511429402633,0.6736929204752118,1.006243775186784,0.33850196625379037,0.7031293650347342,0.9732676216982371,0.0,0.0,0.0,0.0
0.00990517108540296,-0.162443944952558,0.754688459046263,0.0028027681587705876,-0.5019509852534233,-0.003487125710756643,0.86488449682489,0.1585833803883584,-0.7661308819272709,0.8027356449300138,-0.10344189577176549,-0.8915809760169462,0.9446880115300869,-0.28319511429402633,0.6736929204752118,1.006243775186784,0.33850196625379037,0.7031293650347342,0.9732676216982371,0.0,0.0,0.0,0.0
0.01017316248203355,-0.16252371295638507,0.7545504843893761,0.002562710134151946,-0.502595091107217,-0.003290391577199795,0.8645118739699098,0.1582950274744752,-0.7648271386929164,0.8022783700769669,-0.10356564635184037,-0.8890991787392328,0.9437005828779831,-0.2823858979801275,0.6754753632779469,1.0085707217728388,0.3447403914196974,0.7063760894045049,0.9760519918186025,0.0,0.0,0.0,0.0
0.010421348022415101,-0.16242006894668107,0.7544081774660742,0.0023454381431281383,-0.5031242087299739,-0.0030877711351665537,0.864205412606963,0.15757279016902406,-0.764739060348975,0.8033413508768478,-0.10421553281382132,-0.8866847848891983,0.9423424267209712,-0.28257134336655615,0.6768899319130823,1.0111026815652557,0.3494612915918103,0.7091218328911777,0.9782584454997845,0.0,0.0,0.0,0.0
0.010600359620824706,-0.16206761882197407,0.7543044841795329,0.0021271626889781525,-0.5035454523806034,-0.002853513484748431,0.8639614054033319,0.15616947038533108,-0.7657468445718526,0.805730952683677,-0.10560153817638478,-0.8836393361902476,0.9396894292859926,-0.2838184764137678,0.6779327292347357,1.0136671118092444,0.35217097084533616,0.7113880989291038,0.9793766889785596,0.0,0.0,0.0,0.0
0.010713517188789136,-0.16140573966733637,0.7542353617672807,0.0018746971539442265,-0.5038789827553104,-0.0025555346304199414,0.8637684443708321,0.15386524681921013,-0.7680933650680783,0.8098024089761011,-0.10794380536773987,-0.8795654247143453,0.935277594142441,-0.2862252254720519,0.6785906980493153,1.0164924717101154,0.3528197019924416,0.7132655279332002,0.9793609080179007,0.0,0.0,0.0,0.0
0.01079938278789005,-0.16034588640228,0.7541843244916454,0.0015493939654665733,-0.504132233575785,-0.0021569166181558907,0.8636223932708856,0.1503803633686832,-0.7724222187615165,0.8165209743104548,-0.11155378921469475,-0.8742255070196181,0.9288806698040065,-0.2900535064110477,0.6788788106954116,1.0199139391563488,0.3513438865442092,0.7148984765272198,0.9781551856148365,0.0,0.0,0.0,0.0
0.010875594451188504,-0.1588134349326791,0.7541428256317764,0.001127276718071452,-0.5043037329530684,-0.0016311366626325667,0.8635240665841277,0.1454743240425869,-0.7791573150463378,0.8264845499825298,-0.1166783320453024,-0.867370209215803,0.9201778953683993,-0.2955592294566682,0.6787863886658108,1.0241406798291441,0.3475625416739611,0.7163503061425553,0.9756374916645044,0.0,0.0,0.0,0.0
0.010944117933845077,-0.1567582277275827,0.7541123536679579,0.0006025219491308713,-0.5043822864772372,-0.0009787036702215185,0.8634796976156538,0.13901306011429634,-0.7884403002467538,0.8398695532758447,-0.12342861684039026,-0.8588212809508418,0.9088646869043109,-0.3030592661224718,0.6783340106638192,1.0292132630452455,0.3411032238792159,0.7175920678063062,0.9716046921532637,0.0,0.0,0.0,0.0
0.011013102160742678,-0.1541654886167347,0.7540943768622004,-1.8649820856726386e-05,-0.5043549512105622,-0.00020569911067558005,0.8634964044681666,0.13094896630496725,-0.8002581866693497,0.8566255840531076,-0.13181456985477968,-0.8485414559013025,0.8948367351841718,-0.3127298335499916,0.6775686944230626,1.0350585140775919,0.3317816830275174,0.7186273280777346,0.9658980477853049,0.0,0.0,0.0,0.0
