zhuoxili-jackie/tripod-support-walk/examples/trajectory_tripod_com_left_tilt_v0.15.csv
root_pos_x,root_pos_y,root_pos_z,root_rot_x,root_rot_y,root_rot_z,root_rot_w,FL_hip_joint,FL_thigh_joint,FL_calf_joint,FR_hip_joint,FR_thigh_joint,FR_calf_joint,RL_hip_joint,RL_thigh_joint,RL_calf_joint,RR_hip_joint,RR_thigh_joint,RR_calf_joint,FL_foot_joint,FR_foot_joint,RL_foot_joint,RR_foot_joint
0.0,0.0,0.72963,0.0,-0.5231245161092812,0.0,0.852256264656019,0.0,-0.81,0.872,0.0,-0.81,0.872,0.0,0.65,1.0,0.0,0.65,1.0,0.0,0.0,0.0,0.0
-9.762814482069891e-05,-0.00012324528776388143,0.729588542039203,0.00017855303299249822,-0.5230460244357831,3.6758024885510566e-05,0.8523044192596821,9.3449433072092e-05,-0.8095556107509979,0.8707821480417198,9.344943307209058e-05,-0.8106133758222918,0.8722522795080828,-4.591630838057483e-05,0.649419487754165,0.9998790632590785,-4.591630838057483e-05,0.6491918007269407,1.0007235813243254,0.0,0.0,0.0,0.0
-0.0002159737440923199,-0.00024174434847787206,0.7295499082044744,0.000350473751144685,-0.5229584674317324,7.109748875599753e-05,0.8523580899215719,0.00018576631842934167,-0.809063113948436,0.8694247556715526,0.00018607262904249007,-0.8111426309570499,0.8723126703642599,-9.863950502314864e-05,0.6487672264683169,0.9997478196914266,-9.823321696304647e-05,0.6483143206584884,1.001402243633812,0.0,0.0,0.0,0.0
-0.0003285884274050011,-0.0003284246078444524,0.729530370344263,0.00047398206556563876,-0.5228726882750788,9.190257306686008e-05,0.8524106514766875,0.0002665041146004775,-0.8086636229696098,0.8682770229363761,0.00026725568739187545,-0.8114967287718576,0.8722038351492005,-0.00015113629040931968,0.6482068829267553,0.9995526347057028,-0.00015019432982418796,0.6475736980943534,1.0017921817163196,0.0,0.0,0.0,0.0
-0.0004260677051663742,-0.00038594580296491364,0.7295250770720811,0.0005528639859746463,-0.5227886028989961,0.00010007101603449235,0.8524621757040722,0.00033753381277759327,-0.8084133600009964,0.8674293002052618,0.0003386908580615169,-0.8117534184213415,0.8720461054062373,-0.0002028486906100559,0.6477441933133614,0.999320589925018,-0.00020150974057420406,0.6469717910545323,1.0019390399292964,0.0,0.0,0.0,0.0
-0.0005035462765057431,-0.0004255926972707023,0.7295215327468741,0.0006040172338033196,-0.522702930851278,9.993586115514117e-05,0.8525146750968507,0.00040447696585852594,-0.8083504940425983,0.8669024561952448,0.00040595986377173324,-0.8120461878937932,0.871994026009909,-0.0002550071241202657,0.6473330777205987,0.9991153031571928,-0.0002534444634446949,0.646445247587297,1.0019852121302786,0.0,0.0,0.0,0.0
-0.0005574987800189748,-0.0004620599337944139,0.7295029166339294,0.0006494605989477921,-0.5226114892004783,9.718133337457904e-05,0.8525707009464829,0.0004744851699873623,-0.8085101662623239,0.8666938364416081,0.00047627267092345516,-0.8125347340430795,0.8722198121087242,-0.0003093450027353996,0.6469029853113052,0.9990269417123838,-0.00030762870514272557,0.6459009409276879,1.0021234857957535,0.0,0.0,0.0,0.0
-0.0005697697763445649,-0.000523341320127171,0.7294408650698314,0.0007309546472923003,-0.5225094054440023,0.0001030154373052894,0.8526332015091123,0.0005602624908477039,-0.8089905644226795,0.8668924278102007,0.0005625201590483858,-0.8135530193596999,0.8731444791872996,-0.0003658752448541053,0.6463782206785648,0.9991894427115222,-0.00036382126309710407,0.6452221673492137,1.0026843799045124,0.0,0.0,0.0,0.0
-0.0005141189685961665,-0.0006470607076210209,0.7292961434668939,0.0009045339768079584,-0.5223861251671403,0.00013228815474161882,0.8527085671851724,0.0006797363269221199,-0.8099605229826212,0.867660813958222,0.0006829864406293874,-0.8155864419930781,0.8753751122335673,-0.00042537159111970366,0.6456473050855496,0.999782716955138,-0.000422371065898658,0.6442416580812603,1.0041114318093205,0.0,0.0,0.0,0.0
-0.0003857577413721993,-0.0008588283789750326,0.7290318899271088,0.0012081474315348232,-0.5222130333798839,0.0001934479533784667,0.8528141947258226,0.0008505192863946465,-0.811622800144846,0.8691110163045181,0.0008558660560098589,-0.819054727572801,0.8793214204781701,-0.0004970010837429013,0.6444954898499425,1.0009881715491051,-0.0004917213572509756,0.6427008019230832,1.0067604115372792,0.0,0.0,0.0,0.0
-0.00025978646426047774,-0.0011269314876976467,0.7286424917781004,0.0015940535508513435,-0.5219394383209347,0.00026906062590567007,0.8529810134609584,0.0010730537373483927,-0.8140233748299983,0.8709539914004385,0.0010820905253391166,-0.8237439533100237,0.8843106341844708,-0.0006069677857413042,0.6425319148733688,1.0029282998549331,-0.0005975221978382808,0.6402369540614732,1.010516803907964,0.0,0.0,0.0,0.0
-0.00020959672515719763,-0.0013907258023362536,0.7281581141232035,0.001969727663861136,-0.5215024033347975,0.00032823038678248315,0.8532474762656925,0.0013407794108253827,-0.8173029125980698,0.8731155017135501,0.001354919653210013,-0.8292946171100274,0.8895458810145822,-0.0007845295577862041,0.6394935704731443,1.0054750038799778,-0.0007699082646988988,0.6366492998329438,1.0148122303759446,0.0,0.0,0.0,0.0
-0.00031809773049805456,-0.0014948595689362341,0.7278240591403117,0.0021108074782174168,-0.5210814444557939,0.00032341168745525294,0.8535042871248707,0.0015336480952485695,-0.8198270693770293,0.8742761129642469,0.0015511127897696966,-0.8327638367336431,0.8919117256129455,-0.000986527809766667,0.6366461728064337,1.007381386484973,-0.0009702560975772271,0.6334703097008788,1.0173471150566331,0.0,0.0,0.0,0.0
-0.00020118124968433228,-0.0008813720969086232,0.7281473536178744,0.0020437469614711756,-0.521742717004121,0.0009301783931463766,0.8530999326688944,0.0046552848357631045,-0.8339066777843834,0.8657250029800291,-0.0016655045745404243,-0.8259852755429543,0.8859724191952831,-0.0008914305128631166,0.6389519792806783,1.00723484103369,-0.0008745378388644767,0.6383917868334896,1.014240960657826,0.0,0.0,0.0,0.0
-4.289745336980889e-05,-2.4677947545928623e-05,0.7285903621669344,0.0016582062608786745,-0.5224058221256788,0.0014812541042775252,0.852694091246954,0.00787482006577714,-0.857868192216667,0.8549172658928392,-0.00511728240321751,-0.8179954332843543,0.8788119297015426,-0.0007954534524075424,0.6417498621132158,1.0067837963431931,-0.0007778513928863057,0.64424357965047,1.009181468092334,0.0,0.0,0.0,0.0
0.00015905849080403452,0.0008379179803553864,0.7289486722138775,0.0012708323998929577,-0.5229597651382482,0.0020295175219365385,0.8523540051470326,0.011145182645788997,-0.8856904025571822,0.8421908130169519,-0.0085468706883986,-0.8110868816884828,0.8726987226601082,-0.0007364827904776481,0.6440040599900406,1.0068354124840677,-0.0007124367836590958,0.6495521963928014,1.0045536064707403,0.0,0.0,0.0,0.0
0.0004360346632067854,0.00164294798952133,0.7291723327387806,0.0009744064046549603,-0.5234143235248065,0.0026003050647269298,0.8520737848771068,0.014486063419528038,-0.9144450342721092,0.8285034059618466,-0.011935866743443022,-0.8058104856878034,0.8683919335773437,-0.0007057639028753028,0.6456337645793417,1.0076183560940468,-0.0006684395852309447,0.654145620213936,1.0010413280781982,0.0,0.0,0.0,0.0
0.000809543172692092,0.002399498051495267,0.7292736380177395,0.0007608345316272362,-0.5237856998098029,0.003197063312146956,0.8518437301475832,0.01792466252528807,-0.9427609375627822,0.8141289608229345,-0.015322850194847146,-0.8021258740555594,0.8660002437132166,-0.0006928295112995498,0.6467869957401369,1.0090645070634086,-0.0006361061515748235,0.658198665488539,0.9985368741618684,0.0,0.0,0.0,0.0
0.0012895805665977642,0.003143297178470961,0.7292834848195716,0.0005854132363142054,-0.5240817938900889,0.0038148332088589853,0.8516591910217829,0.021491776493101536,-0.96981396371118,0.7990900341459083,-0.018762379906355525,-0.7997974311579794,0.8653505359072213,-0.00069168904319741,0.6476279099799258,1.0110162506630709,-0.0006099381626494957,0.6619459603022666,0.9966527427695083,0.0,0.0,0.0,0.0
0.001871057451476971,0.003916995784420389,0.7292320312483079,0.00039460971272685803,-0.5243020734840498,0.004446698888777325,0.8515206438439958,0.025221467740775577,-0.9945386535465957,0.7836488407603707,-0.022312137136024195,-0.7985201805397922,0.8660982563704046,-0.0007014905592182654,0.6482475771504393,1.0133391430387155,-0.0005892068556710045,0.6655597631056512,0.9949723441548395,0.0,0.0,0.0,0.0
0.002548241598835168,0.0047502765956460935,0.729129873816299,0.00015336402931210463,-0.5244341299016194,0.005089736670901178,0.8514357958498261,0.029153513028350182,-1.0150284588200322,0.7686276807500612,-0.02601984960774774,-0.7981663896653276,0.8680524192076958,-0.0007251316217775759,0.6486219665496032,1.0160069975620734,-0.0005764880925957079,0.6690738533239021,0.9932758987403533,0.0,0.0,0.0,0.0
0.003285900641447098,0.005674220598176007,0.7289571239389362,-0.00017248259372256268,-0.524463571592606,0.005743599832866044,0.8514134972990751,0.03333902980094856,-1.0285838650370214,0.7558475389490704,-0.029945101077159822,-0.7985465744801369,0.8707579192672321,-0.0007688142436863682,0.648486234436902,1.0192929027372717,-0.0005772749127686282,0.6722850179643087,0.991643032581256,0.0,0.0,0.0,0.0
0.003963603880034821,0.006711729401174402,0.7287706289420816,-0.0005920751189149656,-0.524420695653171,0.006423091979275396,0.8514348638076336,0.037828553633899246,-1.0328385355072678,0.7491087923374986,-0.034174870702121204,-0.7985447755817575,0.8725763170515859,-0.0008455061255906011,0.6478003955341187,1.0229134533192241,-0.0006024829815513509,0.6752260990623122,0.9896670520990126,0.0,0.0,0.0,0.0
0.004532261742829676,0.007829680906135231,0.7286568745821804,-0.0010273119601869967,-0.5243852193674842,0.0071695012792391865,0.8514503418229737,0.04267061464059515,-1.0264968594693615,0.7523952550492254,-0.038775503641102584,-0.7972913209114914,0.8726377642303507,-0.0009506914295168454,0.6470317551909385,1.0261684289207957,-0.0006431284069624819,0.6783840288014519,0.9869079547563997,0.0,0.0,0.0,0.0
0.005059443190637,0.009096800028462974,0.7286183616086489,-0.0015680202214448464,-0.5243229467174638,0.00796860952742254,0.8514807632121234,0.04792972713813134,-1.0104368806040027,0.761361767358984,-0.043818892733298476,-0.7950300528472192,0.871399914170991,-0.0010802735472258086,0.6462431244254432,1.0291264189274356,-0.0006926863349248048,0.6819545853167299,0.9829605907949577,0.0,0.0,0.0,0.0
0.005611322176684676,0.010611440394205269,0.7286815543554362,-0.0023406766614247425,-0.5242392169695347,0.008803329624919334,0.851522322673605,0.05367397404788861,-0.9865481498872337,0.7718891975303114,-0.049415099378852995,-0.7915266674430728,0.8688236076150099,-0.001220659660982739,0.645691203617562,1.031799936694999,-0.0007319558132031996,0.6863948362999979,0.9771611519564642,0.0,0.0,0.0,0.0
0.0061686613829449195,0.012465021880973808,0.7289307812671663,-0.0034447372155022244,-0.5241911093700506,0.009674162759330578,0.85153873970467,0.05997262702101859,-0.95701989389432,0.7815110270955191,-0.055700197180404185,-0.7856122775922701,0.863630047659962,-0.001365055209585327,0.6457855203883583,1.0338241760347848,-0.0007423442989991936,0.6923475796639499,0.9685092222569016,0.0,0.0,0.0,0.0
0.006774483137166168,0.014644012083479417,0.7293984562561389,-0.004816030465687464,-0.5242564806655533,0.010629136651557347,0.851480457664628,0.06692013587957915,-0.9233003713466283,0.7885721867714159,-0.06277689801025783,-0.776929365741261,0.8557386002470582,-0.0014954704360865463,0.6469953601139342,1.034919033429214,-0.0006872080151757291,0.7003999678922128,0.9568062875764877,0.0,0.0,0.0,0.0
0.007438379340863088,0.01699695542587784,0.7299580660375228,-0.006186638189286314,-0.5245651045117925,0.011770547249222304,0.8512664863918354,0.07462023989552449,-0.8863406505879857,0.7917480269739294,-0.07068853114856939,-0.7657568984720976,0.845514461677658,-0.0015834580965703665,0.6491681381231827,1.035902992153042,-0.0005233231350634049,0.7102915640253483,0.9439764612755113,0.0,0.0,0.0,0.0
0.008115911627537505,0.0191737344603692,0.7302571380369522,-0.007011206759154497,-0.525296384566333,0.01326567957779013,0.8507870315693928,0.08318159242673843,-0.8466934201333347,0.7890955577511943,-0.07937887026757978,-0.7534786985849906,0.8341822816505252,-0.0015853681344864022,0.6511843927908939,1.0391515833843834,-0.0002153489559812878,0.7203528498632692,0.9351121866567271,0.0,0.0,0.0,0.0
0.008778395468909468,0.020825858090921495,0.7301409952212708,-0.0067981976729949885,-0.5263931547179138,0.015215561655200072,0.8500779481071358,0.09266209914542617,-0.8025061279900201,0.7728132092813206,-0.0886385278453181,-0.7425076357850876,0.8244562274599226,-0.0015245927486819272,0.6523186728921876,1.044895722385438,0.00018905576762542333,0.729141087888079,0.9330885699381948,0.0,0.0,0.0,0.0
0.00919496571203266,0.021621728107480025,0.7296662606308636,-0.0051420490630240375,-0.5275047954663976,0.017630135182429278,0.8493535355932985,0.1029850506698638,-0.7531797488951122,0.7288328598474347,-0.09804052786824277,-0.7353525876101199,0.8185067130489597,-0.0015641026966653454,0.6514767373113568,1.0512955128682175,0.0005265229824479232,0.7348423027058109,0.9382128235979584,0.0,0.0,0.0,0.0
0.009272161654023647,0.02175895090130166,0.7296253778091212,-0.00518442743371511,-0.5274439323682335,0.01772412118307818,0.8493891189839945,0.1037144992819207,-0.7529456823748951,0.7288415125345875,-0.09859005917612043,-0.7354365036665973,0.8186164516177652,-0.001609299320637205,0.6511879119210693,1.0517308784418193,0.0005906757731395325,0.7351044053421716,0.937829992091769,0.0,0.0,0.0,0.0
0.009272161654023647,0.02175895090130166,0.7296253778091212,-0.00518442743371511,-0.5274439323682335,0.01772412118307818,0.8493891189839945,0.1037144992819207,-0.7529456823748951,0.7288415125345875,-0.09859005917612043,-0.7354365036665973,0.8186164516177652,-0.001609299320637205,0.6511879119210693,1.0517308784418193,0.0005906757731395325,0.7351044053421716,0.937829992091769,0.0,0.0,0.0,0.0
0.009594728962928368,0.021823795071527406,0.7292438185201999,-0.005270531608498545,-0.5270254890766282,0.017683147480415752,0.8496491403251641,0.10392655010819844,-0.7590312686966932,0.7363321641693826,-0.0987683690472695,-0.7406102687506816,0.8247143364460922,-0.001834866941212512,0.6493204735659226,1.0541391848154331,0.00035901367184797747,0.7331344046187824,0.9398710484298959,0.0,0.0,0.0,0.0
0.010016512362603052,0.021870440665160834,0.7288644304996071,-0.005314675602801742,-0.5268404109734771,0.01767016220501295,0.8497639089512941,0.10405740067997939,-0.7640821487678057,0.7431557602554332,-0.09898135999737283,-0.7449639257762698,0.8305089489466939,-0.001986979147201404,0.6483896604072509,1.0567859614997108,0.00021097837306809992,0.732114743221585,0.9423551125005123,0.0,0.0,0.0,0.0
0.010491276861126534,0.021976414446223533,0.7285244268365539,-0.005435798784149597,-0.5268095645020615,0.017650426216685968,0.8497826765091743,0.10409185024683322,-0.7686810878754793,0.7499654854802277,-0.09923804235555955,-0.7482306766625871,0.8354050198132371,-0.0020917046702656748,0.6481844133514929,1.0594772794539271,0.00011858280189533105,0.7319490379548319,0.9444919181343929,0.0,0.0,0.0,0.0
0.01101059976047037,0.02218703785649838,0.7282333897359412,-0.005703985836556597,-0.5268890888495965,0.017603862627835982,0.8497325794727413,0.10402476487826393,-0.7732913738855104,0.757332793907857,-0.09955021502959839,-0.750382410161636,0.839264441984478,-0.002160956864076445,0.6485902017113127,1.0621884441180292,7.048677582750397e-05,0.7325827942970682,0.9459222655903912,0.0,0.0,0.0,0.0
0.0115706198561722,0.02254853521889223,0.7280031972445523,-0.006191299212771543,-0.5270427785342899,0.017510300425262044,0.8496357847854163,0.10384920628634653,-0.7783393484831014,0.7658066732431272,-0.09993075740620938,-0.7513523717770654,0.8419311485232355,-0.0022039556341470513,0.6495369035219739,1.064887199153441,5.963994695931191e-05,0.7340033649278243,0.9462798665442157,0.0,0.0,0.0,0.0
0.012180112016742921,0.023121268695476472,0.727855594280552,-0.006991715705823688,-0.5272344787405933,0.017344055647660176,0.849514039950085,0.10355472790612223,-0.7843602296705028,0.7761514704365867,-0.10039757822212256,-0.7510321248391758,0.8432532038674049,-0.0022288112841856197,0.6510323676382379,1.0674837314616086,8.396834160161485e-05,0.7362970993325902,0.9450365769224819,0.0,0.0,0.0,0.0
0.012856253805062322,0.023975943746517202,0.7278239796183844,-0.008215633533731151,-0.5274237779443418,0.01707499975926616,0.8493910207953567,0.10312827955008744,-0.7919578077310128,0.7892670738715524,-0.1009698314777216,-0.7492833221086616,0.843081658231811,-0.0022455413098635894,0.6531490836966062,1.06979870016166,0.00014703945712571566,0.7396347285754077,0.9414880854536473,0.0,0.0,0.0,0.0
0.013634388565914006,0.025171821244631763,0.7279415535784076,-0.0099565279790589,-0.5275701733291642,0.016677172497371294,0.8492893804125485,0.1025629332681606,-0.8017260584912502,0.806068528105861,-0.10166265585846086,-0.7461036506569657,0.8415078621620663,-0.002267126437994839,0.656023282166612,1.0715944011522016,0.00026218306879844733,0.7442470676806084,0.9349304246953128,0.0,0.0,0.0,0.0
0.01451288550541642,0.026638823134043536,0.7281953953948384,-0.012111389718651598,-0.5276568161883932,0.016175002237461412,0.8492172677658111,0.1018874538983087,-0.8132674186019806,0.825844512482487,-0.1024434703401577,-0.7419364734090244,0.8390701030509776,-0.0023130736644695034,0.6595908066152522,1.0727291762463393,0.0004400453098427933,0.749991327492487,0.9256643621314279,0.0,0.0,0.0,0.0
0.01530534180357021,0.027856678383123053,0.728338625866256,-0.013894997153361361,-0.5277935959521486,0.015770166895963143,0.8491125667201502,0.10126299022217557,-0.8227279440464842,0.842079899340016,-0.10312553612233366,-0.7385533690350043,0.8372956681793217,-0.0023811323403255006,0.6626757004866217,1.0742224612023201,0.000638593819726796,0.7548888940998942,0.9185399449402252,0.0,0.0,0.0,0.0
0.016049251485099295,0.028732464448319416,0.7283509324867653,-0.01516142010027336,-0.5280471753510376,0.015504749097888418,0.8489381100526381,0.10072909085855261,-0.8296701876608716,0.8544371060750303,-0.1037011249598346,-0.7363343710778125,0.8369465472087828,-0.0024178936042338513,0.6654997847253149,1.076069154277261,0.0008501377960422043,0.7590055140921192,0.9142998326583186,0.0,0.0,0.0,0.0
0.016750162729165782,0.029331892675709896,0.728275931771233,-0.016009201341508593,-0.5283973639576687,0.015352276702206668,0.8487073929423808,0.1002770874164936,-0.8345819500793346,0.863761747227277,-0.10419180873338432,-0.7349878693544564,0.837705116395516,-0.0024094110785818235,0.6681831992391154,1.078053311801218,0.0010620590837816938,0.7625530129424437,0.9122635646332488,0.0,0.0,0.0,0.0
0.017406619343469376,0.029740224457705734,0.7281605961230907,-0.016567177136959915,-0.5288079087184334,0.01527714676154428,0.8484422980411667,0.0998861419482072,-0.8380248351762001,0.8709232457175936,-0.10461828395607396,-0.7341525543612463,0.8390992489038742,-0.0023601976073698203,0.6707930162489584,1.0799639604046802,0.0012704581306431442,0.765740812956907,0.9115705289398718,0.0,0.0,0.0,0.0
0.01803717505134675,0.030008822590110253,0.7280337504262036,-0.016911856941710452,-0.5292673147487044,0.015259240815194105,0.8481493112673163,0.09954044614818326,-0.8403620164973002,0.8765513783732669,-0.10499693608295697,-0.7336449174784702,0.8409749700293985,-0.002269508200167786,0.6734606454922251,1.0816627835133665,0.0014829221534720918,0.7687980372343003,0.911680089068504,0.0,0.0,0.0,0.0
0.018660909490993242,0.030167525174778276,0.727911628388124,-0.01708675564378923,-0.5297789163353602,0.015288090846497722,0.8478258175276158,0.0992265129075999,-0.8417845623770281,0.88102621314885,-0.10533963275215741,-0.7333412985413453,0.8432655577331727,-0.002133309105369977,0.676314319004745,1.0830779567810704,0.0017102251653746952,0.7719149329715902,0.9122861305214438,0.0,0.0,0.0,0.0
0.019301504256200388,0.030227685300258364,0.7278026626751308,-0.017106463956250977,-0.5303601071916013,0.015361761162977924,0.8474606432658677,0.09893370838616514,-0.8423485572854509,0.8845588183086469,-0.10565559659957693,-0.7331758266512997,0.8460121258886377,-0.0019426780053440982,0.679509938989512,1.0841645460089562,0.0019656166537964956,0.7752808802805599,0.9132522760471735,0.0,0.0,0.0,0.0
0.01998095352281788,0.030196361321214095,0.7277178654342588,-0.016978233809808427,-0.5310306097016237,0.015480369105221556,0.8470410788792875,0.0986509284456623,-0.8420549423645685,0.8872918793255059,-0.10595284217315305,-0.7330731002911206,0.8492506635260055,-0.0016884936191750145,0.6832195477295145,1.0848447233180594,0.0022622806440908846,0.7790982817139722,0.9144374336139737,0.0,0.0,0.0,0.0
0.02068679026656078,0.030114710964974707,0.7276921673999079,-0.01676232768626259,-0.5317793661278717,0.015628059851284192,0.8465727930169159,0.09835481473593852,-0.8410054595792433,0.8894180126591753,-0.10623784533198993,-0.7327121580756983,0.8525640893027893,-0.0013780719696912067,0.6875142779721687,1.084928079988669,0.0026045992818244123,0.7835212189748721,0.9153205177004882,0.0,0.0,0.0,0.0
0.02138231342165999,0.030076459494492155,0.7278103589435965,-0.016600833514945915,-0.5325511727631557,0.01576541490592773,0.8460881233110653,0.09800684516195945,-0.8395520527027358,0.8914625917481103,-0.1065200969057925,-0.7314851536767837,0.8550986878044992,-0.0010383828878728412,0.6924612531008171,1.083915920255638,0.0029876187777635797,0.7887843981777403,0.9146512728601857,0.0,0.0,0.0,0.0
0.021994096300577123,0.030313214289347436,0.7283129640892099,-0.01684887756675935,-0.5331761417185412,0.01579265059499011,0.8456890145993708,0.09753157925392493,-0.8387570365667784,0.895050364802759,-0.10682074917982222,-0.7280809253778611,0.8550759713886775,-0.0007420303781065059,0.6983105791183565,1.0802546197789242,0.00338475510488534,0.7955474037822299,0.908988602227173,0.0,0.0,0.0,0.0
0.02258888410437587,0.031377465205126416,0.7301486888425986,-0.01831930103525689,-0.5332184743220706,0.015486897713542115,0.8456374032943631,0.09675741996694723,-0.841367955706733,0.9060738798445551,-0.10722150885756494,-0.719597926410693,0.8502747487528063,-0.0006336893650346537,0.7079604751697184,1.0666178087958385,0.003756534404752569,0.8080236278152662,0.8859824770066486,0.0,0.0,0.0,0.0
0.022458085463382484,0.03235628510996538,0.7329738406910894,-0.01925269535616635,-0.5319558829262621,0.015055049882981631,0.846419291967453,0.09626948763400697,-0.8432411472373885,0.9143710965982925,-0.10746682393112297,-0.7133497981440545,0.8458203444538276,-0.004670423805777542,0.7169212619298294,1.0432946441429247,0.007470463173156666,0.7566363348386748,0.9671918149539697,0.0,0.0,0.0,0.0
0.02240065131271584,0.03343659157018963,0.7360088532089446,-0.02028479543022932,-0.5307087909454706,0.014587541356393226,0.8471858768444656,0.09570548352091743,-0.8449862209238649,0.9233774099014865,-0.10773600437603688,-0.7061505277148618,0.84076725430685,-0.008660899294907643,0.7274680823157827,1.0175315844753312,0.011266842999444068,0.7166557504471829,1.0313516872369868,0.0,0.0,0.0,0.0
0.02235632062815994,0.03448322511544214,0.7388527858342563,-0.02123993739008606,-0.5295521132508051,0.014133395762161844,0.8478936675878065,0.09512945211273816,-0.8464506932875064,0.9316518030046153,-0.10801820350995121,-0.69918903866685,0.8356522162368791,-0.012608489650328108,0.7378874547935291,0.9926700707019067,0.015191061111724753,0.6865371825072034,1.0845125941490112,0.0,0.0,0.0,0.0
0.022269592942289362,0.03541746689296341,0.7414165337273405,-0.02200611303414823,-0.5284830835265849,0.013720051671835076,0.8485476542878915,0.0945786765493366,-0.8473354240553364,0.9383560698362473,-0.10829623857585195,-0.6929343310862459,0.8307440788243534,-0.01658103803266901,0.7475177721710614,0.9695755908140022,0.019297370446815204,0.6629973184478425,1.1321277071393658,0.0,0.0,0.0,0.0
0.022077340915635284,0.03621870079446182,0.7436993876660155,-0.022550940530063342,-0.5274464201148683,0.013348596249596728,0.8491840459920244,0.09407416647800378,-0.8476082290470546,0.943153951861881,-0.10855902917341624,-0.6875630215652807,0.8259936053001907,-0.02067818825031613,0.755921746751289,0.9484081002660215,0.02364348516585897,0.6434041981102334,1.1769567286480997,0.0,0.0,0.0,0.0
0.021701639933395956,0.03689353329296392,0.7457206996636,-0.022876055632045318,-0.5263583136796183,0.01300606348078882,0.849855548909226,0.09362961772856546,-0.8473669970437964,0.9458462919174551,-0.10879723866195348,-0.6831477887314124,0.8211326755329952,-0.025019545997513565,0.7626561681980419,0.9291404777541458,0.028290952607380824,0.6259227868674985,1.2199029972678588,0.0,0.0,0.0,0.0
0.021038022833463538,0.03745970497484125,0.7474924940968912,-0.02299280059683097,-0.5251105351714156,0.012671030993977121,0.85062900370623,0.09325774390382552,-0.8467631973488317,0.9461596569000248,-0.10899970476581035,-0.679747419096646,0.8156976531464801,-0.02974652768568533,0.7671229507437092,0.911788394822772,0.033305932307004404,0.6094096313174384,1.2602759831378987,0.0,0.0,0.0,0.0
0.019933444753337873,0.03794900906380716,0.7489809527167287,-0.022927423555643426,-0.523563360434,0.012310380594767429,0.8515892175161505,0.09297151876940103,-0.8460709151424521,0.9436502168566983,-0.1091540909541184,-0.6774515258462553,0.808898291288135,-0.03502815365587669,0.7682821584945982,0.8968246765070874,0.0387602822728001,0.5933686524458813,1.2953632351945015,0.0,0.0,0.0,0.0
0.01820600599496999,0.03842287998344746,0.750130406227093,-0.02273920747638324,-0.5215414851386242,0.01187289841349984,0.8528402206779456,0.09278195028835641,-0.8457854967659421,0.9379582591774073,-0.1092526578447022,-0.6763410635310217,0.7996691086108053,-0.04105728535105144,0.7648137079025462,0.8849507579479857,0.04473247481660192,0.5779862583816636,1.3199120529278325,0.0,0.0,0.0,0.0
0.01577364371650028,0.03896569190275516,0.7511074483961026,-0.022485716516694166,-0.5188408168761934,0.011295626277723366,0.8545004436060692,0.09270868024524143,-0.8463291513409684,0.9295033670319969,-0.10928947999726346,-0.6763215534431601,0.7875012342164172,-0.04804683319806184,0.7568698963418243,0.8743078458590294,0.051307794385270174,0.5642800232690826,1.326425303835722,0.0,0.0,0.0,0.0
0.012595928985075347,0.03969215517306839,0.7521117457481648,-0.02224363251728227,-0.5152417330010637,0.0104968581834256,0.8566918893947658,0.09277688893255231,-0.8483514266284863,0.9192022651687434,-0.10927070270563051,-0.6773371114282584,0.7720639822330223,-0.05621655554660505,0.7450461739165571,0.8623495573068055,0.05858011806356814,0.5557173865193954,1.3043863107870222,0.0,0.0,0.0,0.0
0.008567469081150088,0.04064994904099543,0.7531523356472137,-0.021976882637349177,-0.5106009927761559,0.009417145645818055,0.8594852879330941,0.09302782640004505,-0.852011933675195,0.9067275396856488,-0.10919356543696772,-0.6795296501234357,0.7527267696529136,-0.0657449972687593,0.7291636369542994,0.8481656648961369,0.06663970524432337,0.5479712535629125,1.2638169285942773,0.0,0.0,0.0,0.0
0.003635244999506973,0.04188112926327869,0.754240958122812,-0.021611639826796057,-0.5047937710713912,0.007994965041403292,0.8629323648151734,0.09352060236593548,-0.8574818790798857,0.8919623704354839,-0.10906627463954371,-0.6832037462838967,0.7292428390248924,-0.07679446017510544,0.7094906871005929,0.8303735602968197,0.0755862826912122,0.5388905768558916,1.21180541513609,0.0,0.0,0.0,0.0
-0.0021917107675130092,0.04341298617615654,0.7553295219194968,-0.021032885871180913,-0.49774454346664393,0.006175559729707118,0.8670466248265642,0.0943302698152766,-0.8650060034834073,0.8749964909092719,-0.10891585406056689,-0.688939196520343,0.7018587050460945,-0.08948061194572367,0.6865399848676108,0.8077519078270761,0.08553029351377052,0.5271529256992581,1.1526627832095828,0.0,0.0,0.0,0.0
-0.00873322584232686,0.0452365150257579,0.7562583774524997,-0.020091581983907134,-0.4895166347850303,0.003940458543995529,0.8717535577149005,0.09553696861658977,-0.8751238460555787,0.856781905336082,-0.10881535147437184,-0.6978942390760076,0.6722488578523496,-0.1037858513343384,0.6611960864695043,0.7800023340357751,0.0965950675257364,0.5120892875264923,1.0893242066533138,0.0,0.0,0.0,0.0
-0.015396660530092218,0.047297885598788086,0.7565359932096936,-0.018699403236478167,-0.4803828792869577,0.0013455519927445918,0.8768584897783716,0.09724124051067444,-0.8905059052324573,0.8418612845143396,-0.10897589250623775,-0.7136050736400089,0.6466919729891017,-0.1194315582493002,0.6336567318730335,0.7511211818164791,0.10893541227013696,0.496607275830375,1.0219236405446013,0.0,0.0,0.0,0.0
-0.021705463041469145,0.049474561725166004,0.755951638097459,-0.016720123499165192,-0.4707093049148368,-0.0014891521298852984,0.8821286585088922,0.09947934047028419,-0.911773820699326,0.832671048693763,-0.10952603980635167,-0.7380790025968783,0.6301249624033294,-0.13616392607581027,0.6046290769252146,0.7238500177472212,0.12272039581431275,0.4812064429039226,0.9497114281306874,0.0,0.0,0.0,0.0
-0.02714924522867236,0.05153437393733237,0.7547626859837684,-0.013921835569377075,-0.4609195554116315,-0.004368812204957436,0.8873219592760234,0.10224425637682996,-0.9376372947130707,0.8305479377581413,-0.11050696110826579,-0.7722812570270099,0.6276283076880371,-0.15373126986553842,0.5773241496163587,0.6965152309419935,0.13812375977437288,0.46736361875994126,0.8736616247968148,0.0,0.0,0.0,0.0
-0.030879020353403425,0.05295825632628283,0.753262538910096,-0.010081755681685515,-0.45231068573396366,-0.006818098510535818,0.8917773911161614,0.10522252469852149,-0.9633700950317523,0.8349891596888597,-0.1118766422618775,-0.8142666317864795,0.6438862717574924,-0.17118309544565813,0.5565888335480388,0.6708988398769292,0.1550459518505961,0.4577028183442502,0.8079168791516236,0.0,0.0,0.0,0.0
-0.03080469909771377,0.05311176417370602,0.7528164963184912,-0.00972057579067809,-0.45235797497259284,-0.006970852548153503,0.8917562335637159,0.10544610089328868,-0.9637009734735631,0.8348917493010352,-0.1120118833678844,-0.8150930797558554,0.6430669355445363,-0.17190388729169498,0.5569726277060235,0.6707831739571463,0.15634129532930738,0.4577449877778851,0.8079920005850213,0.0,0.0,0.0,0.0
-0.03080469909771377,0.05311176417370602,0.7528164963184912,-0.00972057579067809,-0.45235797497259284,-0.006970852548153503,0.8917562335637159,0.10544610089328868,-0.9637009734735631,0.8348917493010352,-0.1120118833678844,-0.8150930797558554,0.6430669355445363,-0.17190388729169498,0.5569726277060235,0.6707831739571463,0.15634129532930738,0.4577449877778851,0.8079920005850213,0.0,0.0,0.0,0.0
-0.030916664588458372,0.05283944488584349,0.7528727460118627,-0.009370726906985555,-0.4538422101264981,-0.006716477106514294,0.8910074784871381,0.1048966114481188,-0.9532523801395693,0.8238921124445517,-0.11174437320378287,-0.8053308788338204,0.6324260920904612,-0.1717350496900612,0.5603319780194136,0.672842517678029,0.15785204259009744,0.4593315784248251,0.8149621004481135,0.0,0.0,0.0,0.0
-0.03107893923927573,0.05246050366647724,0.7529825102770128,-0.008922520102706534,-0.454970065069457,-0.006451547300745343,0.8904386593489397,0.10452964870762363,-0.9439769918659137,0.8135583257621406,-0.11145452400511718,-0.7981158361636135,0.6246663057950981,-0.17160059948449827,0.5630788352733239,0.6735778103044879,0.1591773814327222,0.46068181206750203,0.8199747768963184,0.0,0.0,0.0,0.0
-0.031236726082725767,0.05204405656083229,0.7531042850740705,-0.008447097042086928,-0.4558319263367029,-0.006201039642007817,0.8900041845918987,0.10431363892031865,-0.9360281448106214,0.8044075905507264,-0.11115820307676241,-0.7929544981631234,0.6193141093786027,-0.17146218483831466,0.5653673326158062,0.673525089642963,0.16031962066254,0.46176880412697574,0.8237711504658859,0.0,0.0,0.0,0.0
-0.03138767301614539,0.05157155531009929,0.7532150061543926,-0.007906808281181479,-0.4565006884462845,-0.005951131125960238,0.8896680211568777,0.10423324677269577,-0.9289632466715416,0.795969747153838,-0.11084718615381767,-0.7895631965067645,0.6160769889648532,-0.17130741721238885,0.567321563042379,0.6728653096391684,0.16129835724765448,0.46248864035466253,0.8270365388687336,0.0,0.0,0.0,0.0
-0.03154571320972328,0.05099266780292938,0.7532944687107903,-0.007226452157936214,-0.45702571773495676,-0.005675203781598542,0.8894060173959326,0.10428487526639771,-0.9222316250737315,0.7875047112264271,-0.11050891223654671,-0.7878759026483739,0.6148915248505161,-0.17113341002082952,0.5689878623334933,0.6716796009180159,0.1621361430056867,0.4626751101944589,0.830399819979135,0.0,0.0,0.0,0.0
-0.0317173329238184,0.05025733122817728,0.7533287890714611,-0.006334495757756266,-0.4574392236628542,-0.005347633149694626,0.88920224563252,0.10446816488978378,-0.915398453679256,0.7784178489381122,-0.11013475211349658,-0.7879629544366469,0.615895603253806,-0.17094384859808587,0.5704111683342712,0.6699852308498829,0.1628585715446053,0.4622081388485118,0.8343329880427622,0.0,0.0,0.0,0.0
-0.03190567655002506,0.049297121036581064,0.7533014311521814,-0.005135549389206596,-0.45776253069208206,-0.004934800608514405,0.8890459714603097,0.10478999569942474,-0.9080193955101387,0.7680644298403057,-0.10971665975995587,-0.7900959559716488,0.6195025963626177,-0.1707469349094847,0.571621757810098,0.6677516499561067,0.16349357296472888,0.4609301275367272,0.8393483563184084,0.0,0.0,0.0,0.0
-0.032103153041094956,0.04804145842181973,0.7531946124993429,-0.0035314852625342244,-0.4580050118207606,-0.004402044542575958,0.8889316957802498,0.10525936649498792,-0.8997518628833286,0.7559301981787002,-0.10925064503195961,-0.7946914496374579,0.6263330168154606,-0.17055387562257487,0.5726489093753927,0.6649190474011193,0.16406966221338745,0.4586920453481024,0.8459174790067154,0.0,0.0,0.0,0.0
-0.03231920195805884,0.04651586240366655,0.7530146106166932,-0.0015543742570481756,-0.4581625126579883,-0.0037579556160012174,0.8888591416446004,0.10584897045465855,-0.8905995884968091,0.7419774021395699,-0.10873888437605135,-0.801455864928761,0.6358975193748712,-0.1703545098861563,0.5735008554361383,0.661430578940917,0.16457923989100404,0.4555685541074504,0.8538039169345063,0.0,0.0,0.0,0.0
-0.03254161194082833,0.045276463727835836,0.7528708130198064,3.828760965241822e-05,-0.458218545544409,-0.003249434400258671,0.8888336201051936,0.10637126132006539,-0.8831246933792308,0.7302022164703768,-0.1082621894653806,-0.8069621507457491,0.6432965939852177,-0.1701048725727277,0.5740953849755162,0.6581165373063883,0.16492827758762957,0.4529031306228346,0.859733530348586,0.0,0.0,0.0,0.0
-0.03278506145164159,0.04435799030330433,0.7527796719581881,0.0011996311928424359,-0.45818409954652545,-0.002889824472888188,0.8888518103273777,0.10681490605675954,-0.8774059411928302,0.7207968533036018,-0.10783483368128284,-0.8108787268863049,0.6480998607822241,-0.16979288809805435,0.5744630912816273,0.6549705762789149,0.16509784912190187,0.4507713926342676,0.8635213093659344,0.0,0.0,0.0,0.0
-0.03307763886471553,0.043707910111850226,0.7527291694698857,0.0020025219555688018,-0.45806190331682584,-0.0026542686602728386,0.8889140776776254,0.10719453425957103,-0.8730978430763003,0.7131772074554733,-0.10745435909018557,-0.8133954370107794,0.6505049284602755,-0.16940811757590818,0.5745398912354412,0.6519327313660179,0.16507670936477467,0.44895690748928363,0.8655229127426952,0.0,0.0,0.0,0.0
-0.033445779148654375,0.04327489130613995,0.7527087563336714,0.0025181007463041475,-0.4578451560907169,-0.0025194976541093035,0.8890248164952818,0.1075253118362797,-0.8698798524990181,0.706762574930922,-0.10711393313978186,-0.8147280713253952,0.6507164818382806,-0.168936737313306,0.574274780474957,0.6488680346128765,0.16484940133083612,0.44726313782556937,0.8660023011959836,0.0,0.0,0.0,0.0
-0.03391985197020146,0.043025545327360255,0.7527172262589907,0.0027928620408343282,-0.45751899646464655,-0.0024712646121927305,0.8891920268686737,0.1078178240746295,-0.8674939156762671,0.7010497992139849,-0.10680453468376784,-0.8149656358197984,0.648733120479052,-0.16835608364494173,0.5736511469634381,0.6455347434591665,0.16438790279260565,0.4455612742108371,0.8650044219756475,0.0,0.0,0.0,0.0
-0.034533954770945174,0.04294582486569897,0.752769931064522,0.0028468338928180795,-0.4570613233109453,-0.0025049713098131044,0.8894271006601785,0.10807781412546702,-0.8657378584610592,0.6956329963651221,-0.10651535465712668,-0.8140422990988686,0.6443323933091085,-0.16763304105234397,0.5727431810805556,0.641490054280644,0.1636489124656161,0.44383419605130847,0.8622806460851183,0.0,0.0,0.0,0.0
-0.03529376141829203,0.0430448399129267,0.7529222674063014,0.002668277181081879,-0.45644626204492694,-0.0026272884362696387,0.8897431019780774,0.10830781682386496,-0.8646055329951428,0.6905856589542537,-0.10623812216118095,-0.8118332538743537,0.6373888034098238,-0.16673472604947667,0.5719619600390176,0.6358105585920913,0.16258665590408455,0.44239844905730813,0.8570542730342128,0.0,0.0,0.0,0.0
-0.03607136502409255,0.0433744579479338,0.7532964746492415,0.0021865258171321483,-0.45564123516667754,-0.0028646336980144506,0.8901562097713028,0.10852150294761334,-0.8650191464466293,0.6879190633468141,-0.10599157302717094,-0.8086999533190204,0.6290745791763598,-0.16566601373599082,0.5724418167957085,0.6268552247271018,0.16119809376478716,0.44231739664806685,0.847710969021395,0.0,0.0,0.0,0.0
-0.03642104222522461,0.043882082196561506,0.7540100442992572,0.001470752658513751,-0.45457557210442384,-0.0031953663669234225,0.8907012269927186,0.10883889359843092,-0.8696828744449369,0.6930751816978955,-0.10585876579715048,-0.8080971675276276,0.6260540696890714,-0.1645510129807351,0.5760989860238493,0.6125609529545606,0.15963628841250363,0.4451586651395826,0.8330752470956672,0.0,0.0,0.0,0.0
-0.036108656408004175,0.044515173730097626,0.755236995380224,0.0005898359199665276,-0.45317025183952114,-0.0036006009626178203,0.8914165191502794,0.10932899534127055,-0.8797131836400184,0.7086654337610647,-0.1058637587234893,-0.8119829755803455,0.6323016403279399,-0.16338409325544193,0.5850447251072155,0.5895160947915189,0.15789822089649153,0.4524451304515542,0.8110055669881061,0.0,0.0,0.0,0.0
-0.03499505293001044,0.04511008481023093,0.7559250846608799,-0.00023796345467170027,-0.4513693964678043,-0.0040099546103423206,0.8923281524023028,0.11027614360720753,-0.8982810065079467,0.7362650144616765,-0.10617517715588747,-0.8259386825874674,0.6532918855758191,-0.16254643686483006,0.5914950171636734,0.5719611023735639,0.1564118730933255,0.4578432413528682,0.7934216635660606,0.0,0.0,0.0,0.0
-0.03243662913973807,0.0455756781915438,0.756472274588768,-0.0009175392141411291,-0.44968998872997423,-0.004389481809756079,0.893173445981948,0.11165960428736811,-0.9238749449458108,0.7778477891865523,-0.10671106761080333,-0.8494023918008016,0.6925094837779984,-0.162578326129778,0.5998550034101824,0.5578664826428416,0.1557560767380942,0.4653327007074916,0.7794313856010332,0.0,0.0,0.0,0.0
-0.02680535460059651,0.04562637383549426,0.7588163664952184,0.00477831849225682,-0.46145064462994373,-0.0058289686445954884,0.8871338644012731,0.10909891110012084,-0.8675697193512871,0.7589334901086536,-0.10461391261504845,-0.8181348350643595,0.6961269042222902,-0.1440745940121377,0.5889054998607602,0.6843497416615969,0.14055181795332916,0.4987232741652507,0.8124575542007191,0.0,0.0,0.0,0.0
-0.02008727796767204,0.04546429629069762,0.7605871045751622,0.00978672146738038,-0.47261612336405573,-0.00715523524699873,0.8811850104420818,0.10730788613949767,-0.8212755590472951,0.7517305586767001,-0.10310266691874137,-0.796821665322737,0.7147668538825236,-0.1272501674121214,0.5754809813433894,0.8102465212152534,0.12681958788502334,0.536423674549491,0.8401802618432503,0.0,0.0,0.0,0.0
-0.012875737427395704,0.04514948596548254,0.7614211749899933,0.014158239457854332,-0.48262162346878695,-0.008304790210440493,0.8756751356955198,0.10624468618352624,-0.7872974118792705,0.7562691773026253,-0.10216215291405303,-0.7863087576268444,0.745321577900864,-0.11218023720723704,0.5680652647026226,0.9158150133061911,0.11457433589606932,0.5732288603957765,0.8658542143807005,0.0,0.0,0.0,0.0
-0.005523200087160401,0.044793766341882583,0.7612694715862632,0.017958174570404033,-0.49142221427782035,-0.009298244143864258,0.8706866565741225,0.10575828413784912,-0.7649095316491912,0.7709710658761815,-0.10166897255028857,-0.7846390428024955,0.7833472169282826,-0.09863621394615275,0.5699222047125121,1.001068979075749,0.10353947925479948,0.6069858295198406,0.8913289176731044,0.0,0.0,0.0,0.0
0.001126679771558321,0.04456221082387796,0.7609288373302867,0.020968593529733685,-0.4988374097355019,-0.010175512378416155,0.8663821418298028,0.10551523520514364,-0.7490066398280818,0.7880742424799936,-0.10138686653563593,-0.7845645478622173,0.8175973083562477,-0.08644448373523078,0.5737531229727534,1.0722121702425516,0.09340106513439689,0.6388855209779193,0.9088595627753568,0.0,0.0,0.0,0.0
0.006747139904391161,0.04461603372802934,0.7607930484639849,0.02300461401524373,-0.5048018924925755,-0.011012085771299857,0.8628583725252306,0.10537761180717654,-0.7379099957835794,0.8053321517851134,-0.10123506767274415,-0.7833610723642705,0.8443010695197815,-0.07543102019278268,0.5767747228677809,1.1335468302438216,0.08389686102144164,0.6681519980783244,0.9168316084872126,0.0,0.0,0.0,0.0
0.01130716237953171,0.04495384421351209,0.760881813272966,0.024160961164777353,-0.509477858951589,-0.011827019884628273,0.8600631841872709,0.1052885120691991,-0.7304338332988499,0.8215806380614853,-0.1011716495801132,-0.7806838065814383,0.8634838494857706,-0.06545112088761332,0.5787227190301069,1.1870333601017697,0.07491907035460929,0.6934963025961433,0.9179729622105998,0.0,0.0,0.0,0.0
0.014895519673444171,0.04551767811371505,0.7610618080411102,0.02463427866816699,-0.5130957088773898,-0.012619188102531967,0.8578850167346093,0.10522028335998947,-0.7257481610334516,0.8362346432462594,-0.10117081352584724,-0.7769834164748073,0.8762838082163121,-0.05637505338382359,0.5800799472383883,1.232456979694974,0.06642811614807038,0.7141117705767247,0.9156810260098998,0.0,0.0,0.0,0.0
0.01763149554316873,0.046244400127757206,0.7611708448055974,0.024621313305201346,-0.5158709650342745,-0.01338331676304446,0.8562078165948693,0.10515784041206566,-0.7233140689205896,0.8490642251161269,-0.10121684453516121,-0.7728652051479996,0.8839590585762074,-0.04808553772206337,0.5816817464472095,1.2669264670390064,0.05840520247577811,0.7296509934053903,0.9128141442762168,0.0,0.0,0.0,0.0
0.019632017718266576,0.0470811031478828,0.7610923313543994,0.02428091720002784,-0.5179651214697399,-0.014114900969613285,0.8549405473899229,0.10509556147715353,-0.7228072833161853,0.8601010700063697,-0.10130046827113187,-0.7688731839317127,0.8876480247624244,-0.04047589165812942,0.5852848071833663,1.2840099513260377,0.050825246978153486,0.74013089507837,0.9112144454928262,0.0,0.0,0.0,0.0
0.021026513338410418,0.04798059939153925,0.7607850257429695,0.023740063302893855,-0.5194937762145511,-0.014809488811552696,0.8540159863315563,0.10503714040769421,-0.7240163964328221,0.8696463401850849,-0.10141746510253606,-0.7654798842310861,0.8885248350008431,-0.033448664327121645,0.5949010581629666,1.2737140391522368,0.04365565457623842,0.7459902063666541,0.9116283797783314,0.0,0.0,0.0,0.0
0.021856612625539333,0.04893743524912786,0.7600537875252861,0.02306572907014129,-0.5206052922664958,-0.015475664904286457,0.8533455370495292,0.10497612370285704,-0.726807420409608,0.8774808772570485,-0.1015639107461438,-0.7628491134795381,0.8867034472839621,-0.02690189854109646,0.606469944064344,1.2470309852973764,0.03685298173539055,0.7467530875609852,0.9162982577307105,0.0,0.0,0.0,0.0
0.02218279075594323,0.049934680519136715,0.758768378912298,0.022323665420042545,-0.5214185441308784,-0.016114687167875768,0.8528567714781485,0.10491376783330549,-0.7310573216130569,0.883546353017792,-0.10173735924446767,-0.761176447193402,0.882521654526892,-0.02074138764985703,0.6186312548205839,1.2114251419700999,0.03037286316800003,0.7423043390881644,0.9266423145891044,0.0,0.0,0.0,0.0
0.02206634196776272,0.05094122136353925,0.756850007448736,0.021586995596590688,-0.5220140249262533,-0.01671987294850727,0.8524997391495153,0.10485932226141605,-0.7366222631071252,0.8877916170209896,-0.10193500828117584,-0.7607111781983624,0.8764571235403168,-0.014879078608074085,0.6314013457086303,1.1710459669712023,0.02416537639312793,0.732750207835382,0.9433701212791115,0.0,0.0,0.0,0.0
0.021575230337953062,0.051902544284448134,0.7542416099452852,0.020957573249498325,-0.522453862900826,-0.01727300444544021,0.8522349350859331,0.10483022424887885,-0.743287394783855,0.890087363294016,-0.10215364143703216,-0.7618370524705743,0.8692188494494851,-0.009231497731712987,0.6455765496901521,1.127722685288431,0.01818226338626677,0.718341277165892,0.9668391555526448,0.0,0.0,0.0,0.0
0.02079951204138185,0.05271373194870678,0.7508810639573303,0.020612721342618334,-0.5227932529850678,-0.01773243524480048,0.8520257572940101,0.10486017453466198,-0.7507214133404577,0.8901601766568986,-0.1023889200526827,-0.7653321480695241,0.8621109910097089,-0.0037181548178415987,0.6626756941227779,1.0815690166602823,0.012383860302038283,0.6994094350123586,0.9974121009708511,0.0,0.0,0.0,0.0
0.01988484712458573,0.053266893604826275,0.7468855320808382,0.020718786743226438,-0.5230365172598974,-0.018056940103054493,0.8518670555917985,0.10499036206515423,-0.7585460308570966,0.8882198818184066,-0.10263843106175889,-0.7719326037877484,0.8569223954701345,0.0017391210878402973,0.6845944206527221,1.031022494905383,0.006711316448183067,0.6772458104060101,1.0334825549267193,0.0,0.0,0.0,0.0
0.01902621161297882,0.053570552520026134,0.7428815415848978,0.02122315752765697,-0.5231006885890966,-0.01826534308542882,0.8518107914461643,0.10521494010716917,-0.7661526212685578,0.8855777375797212,-0.10289438921580996,-0.78084357532819,0.8546591045941769,0.007216161806032168,0.7129287369342237,0.9724799867582065,0.0010445684511756178,0.6553301300225626,1.0684984550854002,0.0,0.0,0.0,0.0
0.018452487635924157,0.053638764673578226,0.7398829350943443,0.022035335148926704,-0.5229201752954439,-0.01838722068559693,0.8518983767969721,0.10546679540437993,-0.7720393186969111,0.8836054228726591,-0.10312552160492373,-0.7901765178817668,0.8561101617423394,0.012786165037533905,0.7482004282177032,0.902354223716643,-0.004727812831348909,0.6385324020557902,1.0934970714577552,0.0,0.0,0.0,0.0
0.018468703189052894,0.05364552599762027,0.7398002464578857,0.022057645007499127,-0.5229301945905779,-0.018384475723436246,0.8518917084551051,0.10545642263743076,-0.772141815437576,0.8835371232155244,-0.10315732986334727,-0.7902973507927222,0.8560180681314613,0.01301213566366044,0.7483108346756169,0.9024440781711207,-0.004911993594066682,0.6385454213133529,1.0934290448530901,0.0,0.0,0.0,0.0
0.018468703189052894,0.05364552599762027,0.7398002464578857,0.022057645007499127,-0.5229301945905779,-0.018384475723436246,0.8518917084551051,0.10545642263743076,-0.772141815437576,0.8835371232155244,-0.10315732986334727,-0.7902973507927222,0.8560180681314613,0.01301213566366044,0.7483108346756169,0.9024440781711207,-0.004911993594066682,0.6385454213133529,1.0934290448530901,0.0,0.0,0.0,0.0
0.018727637834428063,0.05401898380693166,0.7394566765188123,0.021547234219894844,-0.5239025307904389,-0.018524636569502036,0.8513041129753891,0.10512143903775818,-0.7706072642124033,0.883430839515006,-0.10325845735644938,-0.7851302633933914,0.8507292112250451,0.013049254715792099,0.7494982636948723,0.908954972470285,-0.005274615013764381,0.6408671103323762,1.0962991776734998,0.0,0.0,0.0,0.0
0.01895422493382324,0.05445416603472852,0.7390739628403498,0.020948651474603865,-0.5246912534022384,-0.018680821460711396,0.8508297535430556,0.1048013612466244,-0.770442047098219,0.8845996008512118,-0.10342433717076699,-0.7807082458862348,0.8458208340632416,0.013069269919916488,0.7499142680695521,0.915673793167564,-0.005616971092265752,0.6423588770592354,1.0992076574007545,0.0,0.0,0.0,0.0
0.01902750352631634,0.05488777802115644,0.738799666363094,0.02035187705573228,-0.5252165527580404,-0.018825240521355993,0.8505168923240632,0.10447318786768477,-0.7707308899646469,0.8856508963359475,-0.10362078102777247,-0.7766825455546397,0.8407233607126529,0.013051317942923281,0.7497421228105688,0.9209691282849124,-0.0059038032364520186,0.643062215370207,1.1010218735196824,0.0,0.0,0.0,0.0
0.01886584407301244,0.05533901711970769,0.7386599175790429,0.01972769691069062,-0.5254651596364007,-0.018966446023487397,0.8503748925668784,0.10411467194384254,-0.771152019746785,0.885947652920669,-0.10383290084110028,-0.7725085690039956,0.8344770586635346,0.012986263545573693,0.7487477481222912,0.9248397554355526,-0.006130603736975132,0.6427952054885772,1.1015296975481712,0.0,0.0,0.0,0.0
0.018409992498879216,0.05584627485184275,0.7386513633820808,0.019018967204066487,-0.525437323276976,-0.01912127348272788,0.8504047713262292,0.10370722132655893,-0.7716019813377916,0.8851697861470935,-0.10405288482018976,-0.7676685067472896,0.8261557173835452,0.012868413794647647,0.7466620824765053,0.9276045439948419,-0.006300941015597159,0.6413671761289366,1.100711780253665,0.0,0.0,0.0,0.0
0.017610179890763574,0.05645382253314138,0.738760733761948,0.01816059307248152,-0.5251342146187048,-0.019309050187218863,0.8506064954354153,0.10323492311370545,-0.7720721652947604,0.8831290910577169,-0.10427537287932416,-0.7616712611719524,0.8148570839909534,0.012693249390222094,0.7432191450726505,0.9296490266764775,-0.006420790406896767,0.6385950833177765,1.0985875195003656,0.0,0.0,0.0,0.0
0.0164272545750341,0.05720876128609868,0.7389587621399493,0.017085371967978026,-0.5245622402219013,-0.019550393993688388,0.8509761032442613,0.10268523572359933,-0.7726259517850649,0.8797323339696349,-0.10449619736008292,-0.7540552879259643,0.7996966826831797,0.012457910476135751,0.7381398213850711,0.9314805296650089,-0.0064979668513101265,0.6342984230768957,1.095270465063504,0.0,0.0,0.0,0.0
0.01485520880676565,0.05815052118974149,0.7391834123077048,0.015741339171599672,-0.5237509262674606,-0.019862969679888046,0.8514943569458094,0.10205393823241553,-0.7734012076941699,0.8750427405507604,-0.10471285709008814,-0.7444964439000583,0.7800146317111815,0.012164459941012522,0.7311737392316291,0.9338485057301337,-0.006542710028800859,0.6283470378884739,1.091140199919931,0.0,0.0,0.0,0.0
0.012989080372353648,0.059258594556719224,0.7393501044932193,0.014169112126913519,-0.5227874055137129,-0.02023988395761531,0.8521049888336283,0.10135916612162402,-0.7744688787955736,0.8693879620961628,-0.1049244030159418,-0.7332145604560626,0.7562827906817978,0.011828615644271968,0.7224947591993771,0.9374168079083948,-0.006564698934879314,0.6209863778829003,1.086905462608298,0.0,0.0,0.0,0.0
0.011356519663556532,0.06014656103674918,0.7395737267317166,0.012941753312506986,-0.521868347698787,-0.02052607718439561,0.8526808423125011,0.10073898998170552,-0.7750971695207042,0.8640415551904157,-0.10512669473751841,-0.7235970139383829,0.7357594081671612,0.011512010962571283,0.7152379334550915,0.9391271974737697,-0.006554894892407408,0.6148389096807835,1.0823996707138237,0.0,0.0,0.0,0.0
0.010100804585389282,0.06083145638259923,0.7397801535157704,0.012020229659742946,-0.5211154306808633,-0.02073298411247519,0.8531496734776479,0.10021506036425476,-0.7756813502959662,0.8600458787652925,-0.10533487901954672,-0.716097496948916,0.7196945705355247,0.011247528907633187,0.7097522956558503,0.9399001343007707,-0.006553043200278917,0.6102710422075587,1.0783890553082223,0.0,0.0,0.0,0.0
0.009195550557635901,0.061341502237455596,0.7399227639437127,0.011355900421500819,-0.5205547069649741,-0.020873201068248765,0.8534975981567795,0.09978142378284631,-0.7762671536675686,0.8573227397046341,-0.1055458010630257,-0.7105945876022063,0.7078449603823205,0.0110377111427487,0.7057240222177846,0.9404694521435446,-0.0065685293590545734,0.6069846880557732,1.0753884822740225,0.0,0.0,0.0,0.0
0.008578011838113003,0.061701824763327966,0.7399984641574068,0.010907966205132917,-0.5201697339122283,-0.020957030866983674,0.8537360640456684,0.09942546267514103,-0.7767874738559579,0.855554257580346,-0.1057533467502003,-0.7067979480343958,0.6996009424947534,0.010876005793306475,0.702850929639041,0.9410646656051296,-0.006599751056314297,0.6046842715575742,1.073456654253598,0.0,0.0,0.0,0.0
0.008160288084204794,0.061971405070283744,0.7400427281236207,0.01058558848095408,-0.5199256062784022,-0.021009360054006408,0.853887531260803,0.09912000637384517,-0.7771814405243381,0.8544275857383253,-0.10594981712941319,-0.703978839939258,0.6936653893041747,0.010748409126434747,0.7008822773866755,0.9416511511854417,-0.006644331912092093,0.6031693413042774,1.072162188098104,0.0,0.0,0.0,0.0
0.007861400884882932,0.062194739459392065,0.7400969547275754,0.010321721562100605,-0.5197831116737246,-0.021048536319639898,0.8539765441752927,0.09884099534418239,-0.7773501497669819,0.8536013899911538,-0.10612785919747558,-0.701494282489432,0.6888749878702587,0.010641781060308863,0.6996306367963231,0.9420408784666761,-0.006697511718059463,0.6022936197172104,1.0710204214366543,0.0,0.0,0.0,0.0
0.007605160414819059,0.0623872658737542,0.7402008302641961,0.010094643952222076,-0.5197062616253385,-0.021079897006820926,0.8540252559105468,0.09856956290987569,-0.7770604814824145,0.8525601302781666,-0.10627810208419772,-0.6988698222883178,0.6843303480303059,0.010546690677960345,0.6989543463870582,0.9419331597285635,-0.006751829059359907,0.6019243015354125,1.0696384108500172,0.0,0.0,0.0,0.0
0.007335815717501828,0.06258600951088841,0.7403955162035594,0.009848621393257045,-0.5196743639027895,-0.02111887849933626,0.8540465755038267,0.09828414371903363,-0.7761942322118139,0.851050340429261,-0.10639371378359395,-0.6955151254352252,0.67905435289793,0.010453697667834504,0.6988024705336973,0.9411092458728687,-0.006805124909226855,0.602047966958049,1.067552630057974,0.0,0.0,0.0,0.0
0.006956401210215605,0.06285948258707828,0.7407061371580163,0.009482624982938646,-0.5196721290434172,-0.0211940525597145,0.8540502153006057,0.09794921517611313,-0.774581142476154,0.8485945351839838,-0.10646154344965014,-0.6903950938528357,0.6712431300918934,0.010348591371691819,0.6989043185012348,0.9396862061118596,-0.006856914356388862,0.6024852137262123,1.0643885392050039,0.0,0.0,0.0,0.0
0.006274266833277882,0.06339591929772624,0.7410085306478805,0.008725439841774575,-0.5197137799590642,-0.021383979184701467,0.8540282074114749,0.09750004142459487,-0.772387242872193,0.8445535913497463,-0.10646408208144756,-0.6814017823044501,0.6567948777370032,0.010204333641847283,0.6979174433726693,0.9398502438325205,-0.006919711292769241,0.6022211366646574,1.0608455874732188,0.0,0.0,0.0,0.0
0.005108991588314639,0.06454133817155724,0.741245620541859,0.0070642406830284995,-0.5198599588558741,-0.02183679706096617,0.8539431327530301,0.09682308356758755,-0.7700856635192287,0.839076940267421,-0.10637876543626248,-0.6647433700966602,0.6293283443480732,0.00997465844704413,0.6948468655548443,0.9438777437833614,-0.007014906094020941,0.6007916112996597,1.0566247771581188,0.0,0.0,0.0,0.0
0.0032387860727377694,0.06676817359837467,0.7418491430451338,0.0037751321028494642,-0.5207084425331252,-0.022756757146533024,0.8534228707132864,0.0955666772433167,-0.7637473165240719,0.8287634998110643,-0.10600400417055211,-0.6292827139180552,0.5738683655351748,0.009609895745883052,0.6923280814437497,0.9509903416098374,-0.007166364439036981,0.6014183656675061,1.0478076059925039,0.0,0.0,0.0,0.0
0.001587160936051258,0.0686345973401468,0.7421558735724277,0.0042779994211031075,-0.5205614478672421,-0.020324955167310428,0.8535715400086629,0.08381981851317472,-0.7640754823160996,0.8228626671261638,-0.09375276682646355,-0.7068921396389194,0.6818006546342422,0.009767250649955466,0.6832748650075644,0.9543141038656167,-0.0073153567609351286,0.6015688601245852,1.0425551333209222,0.0,0.0,0.0,0.0
-0.00014526992100895655,0.07101822451055324,0.7424770277383668,0.0037124386264591916,-0.5205013492446567,-0.018383215240003817,0.8536548603688591,0.07286421315248587,-0.7653856682702028,0.8186423342195008,-0.08255443659640388,-0.7681522757144228,0.7372356574127986,0.00977719176820192,0.6742717309716334,0.9598435079534263,-0.0074369729930918015,0.6019031314712175,1.0354912621419006,0.0,0.0,0.0,0.0
-0.0018889932957172914,0.07360802915282132,0.7426052447186997,0.0025093093908500654,-0.5207037249509257,-0.01685491946187808,0.8535673645814637,0.06295588998818566,-0.766138186169637,0.8139721263377389,-0.07252314555122177,-0.8190666246968825,0.7645264356766989,0.00970610462652456,0.6652485904815271,0.9686133952283739,-0.00757623011085218,0.6019145400387018,1.0296250722069487,0.0,0.0,0.0,0.0
-0.0035144057884532033,0.07608234875888022,0.7428062521725264,0.0011964460279664073,-0.5209800897588039,-0.015553361515372873,0.8534262753966407,0.054033016761049754,-0.7659248851204715,0.8088961739508896,-0.0635075100813189,-0.8621848780641573,0.7758630990374427,0.00959794250152164,0.6576322495348571,0.976315071643116,-0.007699094365503924,0.6025991402553688,1.0231934634592903,0.0,0.0,0.0,0.0
-0.004910962243113619,0.07832592821481263,0.7430708412863002,-7.781251915055031e-06,-0.5212706953928442,-0.014383275473902713,0.8532701702572021,0.04599589529646081,-0.7653456182528061,0.8043549242325949,-0.05536081889032193,-0.899296726148973,0.7776939878362248,0.009481723794877474,0.651557669070792,0.9824058441059379,-0.007805351472510503,0.6040302710542202,1.016507252402479,0.0,0.0,0.0,0.0
-0.005984597157163747,0.08030968119842997,0.7433173588408873,-0.0010262247826069721,-0.5215679710970403,-0.01329811923791785,0.8531054790664204,0.03874485839832346,-0.7652307851511219,0.8015033518045419,-0.047955998681498746,-0.9316075885919002,0.7735698412831267,0.009376951888829536,0.6468278882513953,0.9874843131132823,-0.007907900669213926,0.606038264478051,1.0103876272499062,0.0,0.0,0.0,0.0
-0.006758489141992437,0.08202698851652991,0.7435058510205813,-0.001820623849396657,-0.5218547136182439,-0.012267119090886612,0.8529442308805598,0.032176626581652705,-0.7657607038575477,0.8003441386712542,-0.04117772884086003,-0.9596685443684076,0.7658834207323326,0.009292906039174717,0.6430832835750171,0.9919083745002066,-0.008009875485524018,0.6082982851772673,1.0052756260852505,0.0,0.0,0.0,0.0
-0.007293251934576905,0.08350093381348535,0.7436232071479174,-0.0024000989187059948,-0.5220990556404044,-0.011276139248169057,0.8528069326103267,0.026192014544252996,-0.7670032784204655,0.8006581624906894,-0.03492507052581271,-0.982726815328714,0.7566995121267501,0.009228775272172765,0.6399416031114074,0.9958790160700607,-0.008110137817107232,0.6105024866472479,1.0012438928867355,0.0,0.0,0.0,0.0
-0.007704445363415534,0.0847722702267831,0.7436652287252179,-0.0028017837755210566,-0.5222646839291446,-0.010321813188049778,0.8527163714275556,0.020698499832531473,-0.7687520101658025,0.8016958817555179,-0.02911052265721285,-0.9988111606442832,0.748731955166144,0.009175796973768725,0.6368925061731676,0.999598665926399,-0.008202815424287049,0.6122466298177892,0.9982264071610136,0.0,0.0,0.0,0.0
-0.00812121333724844,0.08592393916365054,0.7437019631735611,-0.003127494613076787,-0.5223423609854606,-0.009420122899744575,0.8526780975151957,0.015595212213380345,-0.7704760266303274,0.802505470416235,-0.02365534082911571,-1.0052649828016091,0.7459279645834185,0.009117311939683447,0.633792692413066,1.0028046777032111,-0.008279728170772426,0.613564804422834,0.9953828718885839,0.0,0.0,0.0,0.0
-0.008627554650224571,0.08702115672393652,0.7437956218334257,-0.003455257822149279,-0.5223717956692765,-0.008580547872009918,0.8526676623872013,0.010796459835462352,-0.7715278721587057,0.8022060820259427,-0.01849061484367761,-1.000572678785559,0.7526070791078782,0.009044836172546783,0.6307335417760356,1.0053054018884988,-0.008338507993243606,0.614695770711047,0.992069497148286,0.0,0.0,0.0,0.0
-0.009174611900988828,0.08801186228879665,0.7438552879662355,-0.0036887346995387667,-0.5223044030636205,-0.00776110817558045,0.8527158195885417,0.006259094673388008,-0.772564403724065,0.8014536187356889,-0.013547873076127384,-0.9864472482927398,0.7648289485161409,0.008969775970239503,0.6273069369281302,1.0075809121905406,-0.008382123284164265,0.6151855450108047,0.989175144547731,0.0,0.0,0.0,0.0
-0.009628856857531516,0.08886680664700743,0.7438540283643397,-0.0037698789617861715,-0.5221583270165713,-0.006930788627837168,0.8528120740871725,0.001926365595271205,-0.7742266068604758,0.801489699503268,-0.008757524354060232,-0.9655827697652236,0.7791916566487734,0.008908069224762394,0.6238127857891178,1.0096968074672183,-0.008420716996290038,0.615305036479875,0.9870320456364002,0.0,0.0,0.0,0.0
-0.009876860064584483,0.08958102371294821,0.7437857963365639,-0.0036793150782388558,-0.5219713728742631,-0.006072502810326332,0.8529334518295848,-0.00225776165828834,-0.7769562535545375,0.8033346843260573,-0.004058241300858901,-0.94022057352853,0.7936508228100844,0.008870170216513968,0.6206266630842229,1.0116872232833538,-0.008463898581420977,0.6154310133463046,0.9857575767745265,0.0,0.0,0.0,0.0
-0.009881477447569835,0.09017137041643662,0.7436664030862077,-0.003428782702929218,-0.5217629835451091,-0.00517975527290295,0.8530678768929206,-0.006351222910719525,-0.78087669900289,0.8073564672509013,0.0006048668306382673,-0.9117934230219398,0.8070329864486288,0.008856857611396889,0.6179487749276551,1.013487525571158,-0.008514255326146856,0.6158105676198241,0.98519220086159,0.0,0.0,0.0,0.0
-0.009760223257817453,0.09064421177887126,0.7435688577585468,-0.003008306768128142,-0.5215288702028091,-0.004237521591672065,0.8532178098505272,-0.010415231569422784,-0.7851142031779021,0.8121675271606988,0.005284983717831651,-0.8817532069465253,0.8189755392474982,0.0088634147870754,0.6157605152126365,1.0145270338838015,-0.00855994135945537,0.6164930928673826,0.9847188801572899,0.0,0.0,0.0,0.0
-0.009546980979281413,0.09103487455544769,0.7435599813601477,-0.0024532222490685368,-0.5212662586226644,-0.003244628610999954,0.8533844044200145,-0.014514311409056988,-0.7894173370263143,0.8174999699069065,0.010032895612007618,-0.8511959392208127,0.8282195002953812,0.008881792765954825,0.6142392772344069,1.0143386591613868,-0.008595004401661568,0.6177575649076827,0.9836191485734997,0.0,0.0,0.0,0.0
-0.009307115586937214,0.0913594877203879,0.7437059799505725,-0.001769816826268438,-0.5209699597157997,-0.0021907263350278475,0.853570365898585,-0.01870700236550682,-0.7932897582580732,0.8226420672644115,0.014895958892084294,-0.8225627631245962,0.8326736055515046,0.00890598250741638,0.6134797340850541,1.0124028750627239,-0.00861061533647285,0.6197724568643093,0.9812614210245838,0.0,0.0,0.0,0.0
-0.009153772705404071,0.09157539522081687,0.743963915022568,-0.0009066164066046173,-0.5206754311431799,-0.0010698319485433435,0.8537535527950422,-0.022926472849476652,-0.7958225309534513,0.8259608783514836,0.019826047336758156,-0.8024655453124278,0.8320525110284366,0.008933823293636322,0.6130948985259173,1.009106986831088,-0.008604186158590505,0.6220507472869814,0.9783325518007729,0.0,0.0,0.0,0.0
-0.00915332808714435,0.09158941482140379,0.74396282850576,-0.000876958067123527,-0.5206760193457876,-0.0010253272680495926,0.8537532796579859,-0.023109053400884864,-0.7958434982121406,0.8259586050192512,0.02017134669944339,-0.8024440064037592,0.8320689918972253,0.008915078982989683,0.613046179777582,1.0091180681915217,-0.008607731179329564,0.6221073710998567,0.9783283900219962,0.0,0.0,0.0,0.0
-0.00915332808714435,0.09158941482140379,0.74396282850576,-0.000876958067123527,-0.5206760193457876,-0.0010253272680495926,0.8537532796579859,-0.023109053400884864,-0.7958434982121406,0.8259586050192512,0.02017134669944339,-0.8024440064037592,0.8320689918972253,0.008915078982989683,0.613046179777582,1.0091180681915217,-0.008607731179329564,0.6221073710998567,0.9783283900219962,0.0,0.0,0.0,0.0
-0.009358464356923803,0.09143845956839851,0.743665337943636,-0.000690983281658,-0.5205220806381191,-0.001000108470428379,0.8538473434363517,-0.022927470709338614,-0.7959542469152162,0.8242386920498591,0.0203676232051729,-0.8037933852924809,0.8320795629216442,0.00889323836539248,0.6107910055315774,1.0110978993873345,-0.008599395357305082,0.6195074935732978,0.9813812271805663,0.0,0.0,0.0,0.0
-0.00959353637347236,0.09127485678412749,0.7434330700380671,-0.000482281314588986,-0.5203578102776542,-0.0009654863327435486,0.8539476474140085,-0.022750420129382106,-0.7957014041346673,0.8220858559866584,0.020553726008372263,-0.8048819143912443,0.8318087076480667,0.008875713976166356,0.6087497119700285,1.0124260279402728,-0.008585541690225292,0.6171251331897671,0.9838619310001457,0.0,0.0,0.0,0.0
-0.009813115215520743,0.09113000379434216,0.7432862822256608,-0.0003001947641156022,-0.5201988823713745,-0.0009377959716087413,0.8540445850196535,-0.02258174235010555,-0.7953083330239236,0.8200505810963526,0.020727751960287557,-0.8056773935359886,0.831438417126832,0.00885811309217663,0.607167185854723,1.0130451098448263,-0.008570759627740338,0.615246147666253,0.9854795240167211,0.0,0.0,0.0,0.0
-0.010002832570601961,0.09100702609419443,0.7431951696145033,-0.0001501348929854327,-0.520055621903795,-0.0009191452554489207,0.8541318883859625,-0.022421419582218924,-0.7949007180544786,0.8182897765904819,0.020891586931738836,-0.8062790126336653,0.8310865195573771,0.008840703469432916,0.6059627075544834,1.0132531848062771,-0.008557861931564539,0.6137856471021201,0.986518580214549,0.0,0.0,0.0,0.0
-0.010163333080789467,0.09090128343429167,0.7431322235240582,-2.5355478718670492e-05,-0.5199314897921636,-0.0009077073629151659,0.8542074814393422,-0.0222678577992979,-0.7945219396529795,0.8167893401149812,0.021047854491896306,-0.8067676756352707,0.8307919907535167,0.008824008632776931,0.6050126744074129,1.0132915368815254,-0.008547994842257914,0.6126078256337569,0.9872607618439272,0.0,0.0,0.0,0.0
-0.010302745855956414,0.09080679621125164,0.7430782130027117,8.29802924839995e-05,-0.5198264597215657,-0.0009010305471405575,0.8542714047839641,-0.022118631994217756,-0.7941617569647705,0.8154535464342626,0.021199255726035357,-0.8071825600482637,0.8305295332896718,0.008807918783714308,0.6042050470190294,1.0133180051253332,-0.008541587400301143,0.6115886326743125,0.987910775127817,0.0,0.0,0.0,0.0
-0.010416352384067129,0.09072750797527658,0.7430256222902354,0.00016843702304854862,-0.5197472558200898,-0.0009016371790010786,0.8543195823266916,-0.021972587915074414,-0.7938449816123881,0.8143272057873133,0.02134701793016735,-0.8075160308482803,0.8302959798454662,0.008791850223597769,0.6035309237772597,1.0134277293910623,-0.0085405797938608,0.610722078023826,0.9885357637662071,0.0,0.0,0.0,0.0
-0.01041826876621707,0.09072636092629623,0.7430216840170415,0.0001698247499697798,-0.5197465762428778,-0.0009014428817459362,0.8543199956948753,-0.021971186997488547,-0.7938442247099465,0.8143067449599368,0.02134866782386344,-0.8075256464015975,0.8302902216218668,0.008791713879448129,0.6035067367286029,1.0134574790516795,-0.008540554925094274,0.6106949710397593,0.9885737748071471,0.0,0.0,0.0,0.0
-0.01041826876621707,0.09072636092629623,0.7430216840170415,0.0001698247499697798,-0.5197465762428778,-0.0009014428817459362,0.8543199956948753,-0.021971186997488547,-0.7938442247099465,0.8143067449599368,0.02134866782386344,-0.8075256464015975,0.8302902216218668,0.008791713879448129,0.6035067367286029,1.0134574790516795,-0.008540554925094274,0.6106949710397593,0.9885737748071471,0.0,0.0,0.0,0.0
-0.009708311465065136,0.09073665728633727,0.743553736979985,0.0001474969985393486,-0.5202112018408813,-0.0009012108352783784,0.8540371605164097,-0.021985025663305163,-0.7934120016072741,0.8185400808401591,0.02132900132179634,-0.8069474970191053,0.8343233205150076,0.008904530450268608,0.6092086574303491,1.0092984559802936,-0.00854213570946688,0.6164616171172633,0.9843036450815524,0.0,0.0,0.0,0.0
-0.008620578933872025,0.09061276509006728,0.7438891211555375,0.00031410175028805055,-0.5207018086448048,-0.0008418418200938934,0.8537381443489974,-0.021970906759147226,-0.7950466438349412,0.8262233358338573,0.021384058966501182,-0.809464739717347,0.8432671556452012,0.009118255458143315,0.6151893530706796,1.0061874211371646,-0.008506132715716111,0.6222847890490159,0.9821214915750819,0.0,0.0,0.0,0.0
-0.007620658393039539,0.0904461168503972,0.7440549356430028,0.0005460275527132058,-0.5211513488301199,-0.0007674170237713359,0.8534637570146549,-0.021934068251716576,-0.7967232900118342,0.8330821787093625,0.02146756945869428,-0.812375765045357,0.8518731957024085,0.009314763565113673,0.6200632290878239,1.0043596764844567,-0.008487374517336234,0.6269077445253904,0.9815547942506399,0.0,0.0,0.0,0.0
-0.006802348163274101,0.09030908518650281,0.7441281500968571,0.0007364083584383233,-0.5215209673408614,-0.0007121704938101676,0.8532378514457557,-0.02188765165356751,-0.798233215639031,0.838701573207207,0.021555870918334993,-0.8148996654670045,0.8589063360352016,0.009455414801450273,0.6237828184958432,1.0033960866507832,-0.00849795213173141,0.6303981428624079,0.9816255035876257,0.0,0.0,0.0,0.0
-0.00618050520962242,0.09022351216131054,0.7441522325455173,0.0008518820263837497,-0.5217989963333364,-0.0006861461477135664,0.8530677645568375,-0.021836477725759283,-0.7995446820875551,0.8431034632974737,0.021640778408692666,-0.8168386708700727,0.8641576131237256,0.009529623312761649,0.6264613728244851,1.0029958601009874,-0.008539776251732046,0.6329020286728644,0.981864203970943,0.0,0.0,0.0,0.0
-0.005726751024963776,0.09017609474534223,0.7441377647901305,0.0009112766917883136,-0.5219854649055644,-0.0006832369241801902,0.8529536196003967,-0.021777748550504388,-0.8007470572988951,0.8465282249879775,0.021727309906848617,-0.8183908366458786,0.8680262284789033,0.009541893613336825,0.6282319454299431,1.0030119721853563,-0.008610344827656873,0.6345300786646311,0.982222909698116,0.0,0.0,0.0,0.0
-0.005395701919571584,0.0901353690629401,0.744071247681882,0.0009608325575042143,-0.5220825651171179,-0.0006893862943493965,0.8528941298590722,-0.021703631648576645,-0.8020038391180776,0.8492979335486763,0.021828886845121378,-0.8199677524903203,0.8711865635185289,0.009502340487086366,0.6291815807493673,1.00343251795789,-0.008706392919671724,0.6353195572710156,0.9829244352981328,0.0,0.0,0.0,0.0
-0.005145169551171872,0.09006542248567835,0.7439230469771687,0.0010536432876189514,-0.5220856689624971,-0.0006892876791718121,0.8528921203659345,-0.021603135102145787,-0.8035290002540316,0.851728842494577,0.021963595441042965,-0.8220654789679878,0.8743508383842418,0.009418667696452034,0.6293001164513103,1.0043578129774182,-0.008827076777427235,0.6352020795658412,0.9843353627859672,0.0,0.0,0.0,0.0
-0.00495276762765144,0.08993964934837481,0.7436558686215762,0.001228855031708366,-0.5219742170234961,-0.0006731041302205597,0.8529601125544202,-0.02146405390781598,-0.8055819939829865,0.8540814223179246,0.022150774892909297,-0.8251531537606978,0.8780677793911508,0.009288591303389987,0.6284412785266381,1.0059694668904084,-0.008976683472905566,0.6339832232867868,0.9868312299739761,0.0,0.0,0.0,0.0
-0.004828859448507585,0.0897627248016952,0.7432434996065893,0.001478385634526462,-0.5217050222437527,-0.0006467244628264978,0.8531244140739557,-0.02127767758049726,-0.8084678934308569,0.8565651188268567,0.022404281513954002,-0.8294993429603417,0.8824804919359627,0.009093047488468883,0.6263445255531829,1.008436676450119,-0.009166175601959904,0.6313970479906826,0.9905378684337969,0.0,0.0,0.0,0.0
-0.004816373344421472,0.08961393612414878,0.7427264629618652,0.0016811831751489402,-0.5212237248389654,-0.0006503866746762737,0.8534181737491295,-0.02105315119352918,-0.8124699388213339,0.8594433146326578,0.02271256521457049,-0.8347582315723904,0.8869474971399495,0.008796739026028542,0.6229011989823655,1.011593108070075,-0.009409680827460831,0.6274422957034341,0.994690020287045,0.0,0.0,0.0,0.0
-0.004938594782970804,0.08972757858951272,0.7424143188066303,0.0014937091174061104,-0.5207573889369455,-0.0007651009816536433,0.8537030662479405,-0.02092104625197966,-0.816045577333609,0.8620088204446731,0.022895000682069695,-0.8375094155441706,0.88817982145369,0.008467930401212291,0.6199102318791534,1.0139655753176293,-0.009649609042960054,0.6243595316870266,0.9961329489892354,0.0,0.0,0.0,0.0
-0.004755994938049517,0.09057841008247405,0.7428514561601197,0.001553089218010371,-0.5217299744092726,0.0002349875899953446,0.8531092347979906,-0.015846355301006282,-0.8297979538009512,0.8553879399246369,0.01782813289926502,-0.8280869953683989,0.8801958547004689,0.008654606594457392,0.6230348873937479,1.0139132018657624,-0.009638838338205892,0.6314183790087046,0.9922013766965786,0.0,0.0,0.0,0.0
-0.004507228821034364,0.09170859342235409,0.7433794386569533,0.0011938073972872464,-0.5226094153630952,0.0011080636107594812,0.8525706692074132,-0.010879786437389844,-0.8541945840679385,0.8470123458809194,0.012725470685747274,-0.8180975501147978,0.8715530910579925,0.008807164537159039,0.6263811812990965,1.0137715012391542,-0.00962130699148067,0.6391289529583785,0.9861026860716136,0.0,0.0,0.0,0.0
-0.004210266046979787,0.09282140376185925,0.7437793505912526,0.000806139729136692,-0.5232864403212124,0.0019218515003590858,0.8521543041031371,-0.006107864216509561,-0.8823013885860862,0.8356692714251369,0.007909824784131924,-0.8099731883009972,0.8646314131531243,0.008892091585906621,0.6288486366572111,1.0142751985645622,-0.009637661288435897,0.6457899111440492,0.9806318549707961,0.0,0.0,0.0,0.0
-0.00383170186026519,0.09383930270777537,0.7440108374996363,0.0005095487499320867,-0.5238064429207581,0.0027174192338764364,0.8518328277000607,-0.0014856657335200084,-0.9111903128452077,0.8227296104507659,0.0033615905274415837,-0.8040996338922781,0.8601157394386864,0.008939563123543522,0.6304912839859071,1.0155870593104572,-0.009677325559172466,0.6513452633550041,0.9765597651568811,0.0,0.0,0.0,0.0
-0.003350393994589707,0.09477194596452332,0.7440986152975261,0.0003015639032299523,-0.5242099484516678,0.003505773112648614,0.8515817920542892,0.0030387362875680096,-0.9395598102358849,0.8088046566326916,-0.00099325992653962,-0.8002603617133635,0.8579827169868222,0.008970410775510494,0.6315648057208348,1.0175794153868771,-0.009729258318387073,0.656094007159854,0.9737339105988734,0.0,0.0,0.0,0.0
-0.0027591136621724277,0.0956597360906785,0.7440822539826107,0.0001364238399590719,-0.5245184608465592,0.0042858911920001415,0.8513882761445466,0.007517057771392146,-0.9666587545553496,0.7940980362293315,-0.005236519561161252,-0.7980852402850226,0.8579292711619829,0.00899316341405187,0.6322907628889878,1.0200625068105338,-0.009786371183236104,0.6603542971652289,0.9717020537897219,0.0,0.0,0.0,0.0
-0.00206641301704504,0.09654943304829167,0.7439952406772422,-4.068229605273843e-05,-0.5247405305330352,0.005053598441126905,0.8512472232575302,0.012000000078698066,-0.9914896807947895,0.7789669359136018,-0.00944588564246818,-0.7971725512294922,0.8594993472349396,0.009007680921426809,0.6327822106839534,1.022906067203349,-0.009845292580423914,0.6643444090376525,0.9700172217006475,0.0,0.0,0.0,0.0
-0.0012507080035301375,0.09745743236697099,0.7438400686443511,-0.00024260894291060754,-0.5248622316534304,0.005813786235032043,0.8511673036567458,0.016542945921698627,-1.0121504255380345,0.764198196609847,-0.01367322792623971,-0.7976363367324837,0.8628891433146819,0.009013696465475734,0.6330588954077088,1.0260827862832438,-0.009904958528586905,0.6681308945024566,0.9685534927555308,0.0,0.0,0.0,0.0
-0.00037813762821968077,0.09842740427119699,0.743617963206313,-0.0005187019577418213,-0.5248733373496048,0.006563527224866119,0.8511548806169976,0.02120400942941149,-1.0260755982258694,0.7517432112879349,-0.01799471745412482,-0.798973249458025,0.867186912082193,0.00899376045165906,0.6328703689251346,1.029747791131253,-0.009970135971099007,0.671553011933326,0.9671789623466749,0.0,0.0,0.0,0.0
0.0004140986009176903,0.09950703375815831,0.7433690930550372,-0.000914520540319112,-0.5247949181214191,0.007308335030610196,0.8511968314116276,0.02604689655825549,-1.0307745055964834,0.7452460243575748,-0.02251654053412255,-0.7999731017934665,0.8704983367288673,0.008923878236913523,0.6320113362544626,1.033843288101537,-0.010046255071320828,0.6745251856206597,0.9655261673394447,0.0,0.0,0.0,0.0
0.0010784810030412576,0.10066199614471497,0.7431910342086913,-0.0013499657739533925,-0.5247189758155509,0.00809196409799309,0.851235980283097,0.031126036863666915,-1.0248344833743714,0.7486969029243868,-0.02731317032264697,-0.7996656942992999,0.8718874047428048,0.008817693916002619,0.6310334872236932,1.037594043323932,-0.010125757866991816,0.6776290151831588,0.9630774907533505,0.0,0.0,0.0,0.0
0.0016805111409712167,0.10195562104142053,0.7430754361468139,-0.0019063897583958952,-0.5246007504744578,0.008901531465390846,0.8512997010555656,0.03650906650838756,-1.0092444787704806,0.757854437170099,-0.03245108124875418,-0.7984256588971868,0.8719317768028442,0.008671863036583705,0.6299172130366968,1.041133926626312,-0.010204357458738074,0.6809695793948728,0.9595253882227102,0.0,0.0,0.0,0.0
0.0023013921963795673,0.10347531679449615,0.7430191069276456,-0.0026963679271704236,-0.5244329590865313,0.00972094363921076,0.8513919803935842,0.04226894431473899,-0.9859555282737705,0.7686094296300576,-0.03802984303789778,-0.7963334367191754,0.8709551058890628,0.008499186679008792,0.6287980390741905,1.0446718088224989,-0.010266312582086198,0.6848595899221492,0.9544761136386511,0.0,0.0,0.0,0.0
0.0029469840686027044,0.10527556639115929,0.743128146838849,-0.003767337308105239,-0.5242883174583634,0.01056170263780435,0.851466979855165,0.048473230157596595,-0.9571959285741981,0.7786802518974583,-0.04416531280538157,-0.7923700151572948,0.8680708738893606,0.008313780436079542,0.6283248056896367,1.0475487235029635,-0.010293019449960986,0.6901396954623586,0.9468586120565992,0.0,0.0,0.0,0.0
0.003650834130958689,0.10735105479898023,0.743427587651155,-0.005071053566961949,-0.5242459482941464,0.011466566096791005,0.8514745962005209,0.05521437938000323,-0.9243689248244488,0.7863649458927436,-0.0509645076914779,-0.786124898415094,0.8630920552714471,0.008145624006193107,0.6288942697743761,1.0496024201670695,-0.010260118361114864,0.6973211496999406,0.9365468446104424,0.0,0.0,0.0,0.0
0.0044150921800579605,0.10956816065736753,0.7438161658197971,-0.00636975092292607,-0.524433542732614,0.012530732583791022,0.8513353430176694,0.06258982547129814,-0.8883771217132163,0.7902851559690142,-0.058480157952985494,-0.7776922403844725,0.8561894503179214,0.00804783107889197,0.6304236534255209,1.0514859661006044,-0.010148174337112953,0.7061985169115718,0.9252362792508534,0.0,0.0,0.0,0.0
0.005187363163321447,0.11160919337694959,0.7439701992943031,-0.007166404177317251,-0.5250196787130585,0.013914618604850503,0.8509461575236624,0.07070632564216336,-0.8500050226402238,0.7886526993766145,-0.06668101586580705,-0.7682008812366261,0.8482722522979311,0.00810462421494416,0.6318469416689947,1.0553688564613997,-0.009958194824476536,0.7151339934899295,0.9177264156096716,0.0,0.0,0.0,0.0
0.0059215156901057065,0.11318871156390169,0.7437889337531731,-0.007042334807820332,-0.525974185792874,0.015719844005625257,0.8503260832788893,0.0796327582893685,-0.8083142800345395,0.7750230514980148,-0.07543493339293365,-0.7592818130951878,0.8411228676776846,0.008313421457685283,0.6326529110130621,1.0612328046498885,-0.009737205542420089,0.7230391397731519,0.9162409428370437,0.0,0.0,0.0,0.0
0.006389798384135042,0.11394558775976033,0.7432991227334125,-0.005550789402950168,-0.5269173268069636,0.017969380769038198,0.8497084328182138,0.08928699051588226,-0.7626487209533414,0.7357456557704116,-0.08428870631391079,-0.7537752547843577,0.8371784274563301,0.008475605624156625,0.6315679691603497,1.0673423106953779,-0.009618651791663277,0.7278895798997411,0.9213799613280742,0.0,0.0,0.0,0.0
0.006453333356391211,0.11406146459257133,0.7432634180295125,-0.005580298898518571,-0.5268679280940772,0.01805569852288291,0.8497370407137188,0.08994720999965711,-0.7624281971001663,0.7357735851084439,-0.08478192181618284,-0.7538426003921745,0.8372794488581492,0.008440298726344116,0.6313153226208881,1.0677140916470464,-0.009569525707724569,0.7281153696736362,0.9210729460145266,0.0,0.0,0.0,0.0
0.006453333356391211,0.11406146459257133,0.7432634180295125,-0.005580298898518571,-0.5268679280940772,0.01805569852288291,0.8497370407137188,0.08994720999965711,-0.7624281971001663,0.7357735851084439,-0.08478192181618284,-0.7538426003921745,0.8372794488581492,0.008440298726344116,0.6313153226208881,1.0677140916470464,-0.009569525707724569,0.7281153696736362,0.9210729460145266,0.0,0.0,0.0,0.0
0.006753777929078768,0.11415324694164096,0.7428557085906404,-0.005712619050331473,-0.5263662533361906,0.017994485135103648,0.8500483114724301,0.0901588372552647,-0.7691260054320741,0.7437666994474599,-0.08494423626483004,-0.7593286049783577,0.8434109331488706,0.00814960933345224,0.6290554554130755,1.0702826560881478,-0.009813616592540434,0.725704568408829,0.9231609177456993,0.0,0.0,0.0,0.0
0.0071472882959289314,0.11425976070408052,0.7424702252075903,-0.0058516899601255695,-0.5261047976938577,0.017949103987762595,0.8502101676845274,0.09027432706314362,-0.7748292798692192,0.7512196166675843,-0.08514907982683888,-0.7636950421519606,0.8488780923796905,0.00796454911602973,0.6277926572957055,1.073040450700714,-0.010005208116893318,0.7243469665000962,0.9254131681760204,0.0,0.0,0.0,0.0
0.007599818361377926,0.11443519534300428,0.7421376599046616,-0.006081483832064268,-0.52601236490962,0.017893014202324052,0.8502669272407016,0.09028958425514183,-0.7800194348251449,0.7586689760939562,-0.08540001948204401,-0.7668454166201389,0.8533700349600686,0.007846644240976804,0.6273606932977838,1.0757858389961097,-0.010156770155862156,0.7239668815145639,0.9271799076058772,0.0,0.0,0.0,0.0
0.008106576527608817,0.11471045156519248,0.7418600850364112,-0.0064507496309489185,-0.5260472293469891,0.017810989954124008,0.8502443583831704,0.09020639169937068,-0.7851018491957474,0.7665925029351208,-0.08570401277385639,-0.7688577483612917,0.8568929122150365,0.007777560026863517,0.6276376387530332,1.078516958526042,-0.01027334611277272,0.7244832036289601,0.9282225247163319,0.0,0.0,0.0,0.0
0.008673070625733822,0.11511850377168918,0.7416423906658777,-0.007011324459545553,-0.5261798504373105,0.01768777089998955,0.8501604254984361,0.09002340781641016,-0.7904554747425451,0.7754897288473901,-0.08607049233002848,-0.7697660971902376,0.859455202359604,0.007745554571944792,0.6285769810710066,1.081224437486088,-0.010355034561187033,0.7258928431179781,0.9282851264177819,0.0,0.0,0.0,0.0
0.00931516297361845,0.11570107781125245,0.7414987459333612,-0.007828415576957192,-0.5263851680800058,0.017504869543051787,0.850029970222944,0.08973566131392224,-0.7964974183000519,0.7859767311058228,-0.08651166525873263,-0.7695546454609458,0.8610606185710782,0.00774119235407534,0.6302150796991223,1.0838409513778535,-0.01039707823167056,0.7282919052340837,0.9269844432204294,0.0,0.0,0.0,0.0
0.010056081664423164,0.11650770969438118,0.7414535772732384,-0.008979568543488275,-0.5266375090055181,0.01724049227634816,0.8498676761021711,0.0893355406674345,-0.8036800640079216,0.7987614638070796,-0.08704047903920925,-0.7681715987881597,0.8617099726748378,0.007753767376009472,0.6326548010713156,1.0862224064020982,-0.010389592921401661,0.7318600573309038,0.9237907108281637,0.0,0.0,0.0,0.0
0.010929157405406209,0.11758198709365048,0.7415341905060978,-0.010533993148374927,-0.5269102160850271,0.016875038849046634,0.8496881146852786,0.08881819740254934,-0.8124428697943005,0.8145531822849256,-0.08766685922582135,-0.7656308153518182,0.8615293829361095,0.0077712055184257335,0.6360463561211137,1.0881641807339735,-0.010316953079820695,0.7368233851659772,0.9181397396829661,0.0,0.0,0.0,0.0
0.011917620112257143,0.11887175502794091,0.7417342987992154,-0.012416508898494952,-0.5271783655307465,0.016426889675928678,0.8495051256576849,0.08820511840237627,-0.8224777851139448,0.8327427728391473,-0.08836470235209662,-0.7622338188894322,0.8608122944661538,0.007775228590398466,0.6402801811839123,1.0895183790273595,-0.010174449312149359,0.7430051641935197,0.9102207303438219,0.0,0.0,0.0,0.0
0.012818963626637264,0.11994302642777731,0.7418236260602346,-0.013975945665591785,-0.5274753407723232,0.01606776426088858,0.849303399717398,0.08763874112924047,-0.8308093418249672,0.8478985770667831,-0.08898557921727243,-0.7595564989946548,0.8606081662026391,0.0077769722351242075,0.6439589494779626,1.0912556894395136,-0.010030635552874072,0.7482616634689386,0.9043405038797754,0.0,0.0,0.0,0.0
0.013626961566587445,0.12075570220938375,0.7418058753965726,-0.015148163693883488,-0.5278138114014151,0.01581502838492443,0.8490777340784522,0.08714181620865738,-0.8372541720123928,0.8598497220674969,-0.08952350573650465,-0.757712041552267,0.8611056594334423,0.007805146422558456,0.6471055582920473,1.093282124602969,-0.009905431772320554,0.7525465685729698,0.9007365127525895,0.0,0.0,0.0,0.0
0.014354866992846115,0.12135813120336107,0.7417216199397881,-0.016004129913585744,-0.5281835159829688,0.015648634064258943,0.8488351792435921,0.08670807330079011,-0.8421645675840014,0.8692722114956609,-0.08999334395633789,-0.7564916589293137,0.8621423194996969,0.007867667072790165,0.6498808794240224,1.0953784450871265,-0.009801489317291976,0.7561120036146844,0.8988123750873557,0.0,0.0,0.0,0.0
0.015017040899473578,0.12180645262362239,0.7416080165349226,-0.016627481530511513,-0.5285716628341954,0.015545217056917505,0.8485834492454465,0.08632400528243923,-0.8459099924155362,0.8768291827446171,-0.09041009488495565,-0.7556665883031299,0.8635124667313098,0.007963231159555164,0.6524305223691055,1.0973643805555569,-0.009713097480461966,0.7592143578314874,0.897935906736129,0.0,0.0,0.0,0.0
0.01562909521920739,0.12214449876512098,0.7414922992473445,-0.017083489297432038,-0.5289724891421379,0.015487080836384913,0.8483256511808202,0.08597587185252051,-0.8487645718105716,0.8830268034880031,-0.0907859907483113,-0.7550564691113042,0.8650707080818264,0.00809088376588434,0.6548867541612894,1.099114044142165,-0.009631533115927265,0.7620752413678665,0.8976252646746969,0.0,0.0,0.0,0.0
0.01620828988243126,0.12240282750946824,0.741394050921391,-0.01741722856637335,-0.5293884670930087,0.015462718964312621,0.8480597829046086,0.08565123751041455,-0.8509064521667905,0.8882316253766327,-0.09113098817074365,-0.7545257842982624,0.866738241161767,0.00825316903364274,0.6573823013637002,1.1005362394298537,-0.009547576912371283,0.7648919453270019,0.897541032466454,0.0,0.0,0.0,0.0
0.016771303742354016,0.12260402460729067,0.741330366323745,-0.017661462450247755,-0.5298269283972888,0.015464388586969528,0.8477808392354971,0.08533819026269014,-0.8524442796626271,0.8927132220718755,-0.09145342265097554,-0.753952362776146,0.8684587324485731,0.008454784348192808,0.6600546530003775,1.1015435804075295,-0.009452360288252571,0.7678524114407398,0.8974112040146268,0.0,0.0,0.0,0.0
0.017328980227164944,0.12277120273108334,0.7413232520288162,-0.017849585596632498,-0.530293505731595,0.015484108924988802,0.8474847682664995,0.085023235883292,-0.8534511226535195,0.8966865233995409,-0.09176023564391135,-0.7531756445768817,0.8701157188435344,0.008697890949655757,0.6630407703280171,1.102011050637944,-0.009337316487520425,0.7711473268048062,0.8969169787067754,0.0,0.0,0.0,0.0
0.017877669277247224,0.12294094390272906,0.741411568614724,-0.018035552805652607,-0.5307804168379057,0.01550751324369935,0.847175533741013,0.08468793650295368,-0.854016939561934,0.9003716148305957,-0.09205703951336727,-0.7519216910958803,0.8714083669267684,0.00897322141707289,0.6664646635023679,1.10170615223601,-0.009193424588134762,0.7749841507501632,0.8955106298606986,0.0,0.0,0.0,0.0
0.018389333614316262,0.12318561232936602,0.7416772248487767,-0.01832795564216692,-0.5312459613018063,0.015503526571486933,0.84687747360899,0.08430318265809822,-0.8543470793208724,0.9041367297210795,-0.09234874531581017,-0.749682783652222,0.8716798115457782,0.009244801657184352,0.6704547892234789,1.1001146091536858,-0.009008787344401713,0.7796551975502906,0.8920385708755788,0.0,0.0,0.0,0.0
0.01882195787338891,0.12366226111346691,0.7423410349332903,-0.018960853641482117,-0.531569189238513,0.015403445787283164,0.8466625165550761,0.08381766233656818,-0.8550209597055035,0.9090723876618443,-0.09264497666172732,-0.7454966406935476,0.8698025373200353,0.009421240180027086,0.6754487536759769,1.095686426860253,-0.008760062388191601,0.7859973480289266,0.8834745129195747,0.0,0.0,0.0,0.0
0.019305005485443793,0.12476081091497032,0.7443151424817053,-0.020477530599329188,-0.5314397007430838,0.015052301316565838,0.8467147946266974,0.08310113501981657,-0.8575607283076229,0.9197143829831951,-0.09299693219762796,-0.7370773462071633,0.8648152033240596,0.009306512678533427,0.6848175047186343,1.0811221066970134,-0.008366065132171,0.7988058217745215,0.8581812914686119,0.0,0.0,0.0,0.0
0.019330144837991323,0.12558408246167052,0.7473763776417236,-0.02099547112305374,-0.5304205059408651,0.01468865812826302,0.8473473434148175,0.0825724312312943,-0.8569307620924916,0.9263755176805646,-0.0932725737487098,-0.7306955482580111,0.8618701620292686,0.0042164669935320104,0.6963454484660596,1.0557408792856544,-0.003316791418900277,0.7468545784696677,0.9458110812490093,0.0,0.0,0.0,0.0
0.019496285276448717,0.12645320571856658,0.7506051184725521,-0.02155068208281605,-0.5294940370734359,0.014316731874913181,0.8479190197146553,0.08199643919637671,-0.8559581620348881,0.9336628426493848,-0.09356806721901394,-0.7236115210429652,0.8589673373009291,-0.0006331030902897283,0.709701200706137,1.028086415091275,0.0016573366986211736,0.7074419950888837,1.0142340371024288,0.0,0.0,0.0,0.0
0.019670866240634577,0.12730391618805703,0.7535948608439521,-0.02208210205913201,-0.528646740603336,0.013950499021549611,0.8484399731243035,0.08142102837637262,-0.855019284114534,0.9404466680733555,-0.0938765860015854,-0.7168136868269944,0.8559106686401343,-0.005319853831536893,0.7226451428398283,1.0017143681154514,0.006618644528365554,0.6780544975451699,1.0699699555302722,0.0,0.0,0.0,0.0
0.019783472376084216,0.1280872912757714,0.7562765962419922,-0.022518247903754486,-0.5278483694008885,0.013605036675353335,0.8489310516227042,0.08087050375137071,-0.8539826746671689,0.9460823261640702,-0.09418489939030802,-0.710648601546933,0.8527346545679225,-0.009940322415358145,0.734466844987788,0.9773984970023069,0.011637084831764316,0.6551008142865827,1.1190887962539984,0.0,0.0,0.0,0.0
0.019766382002535707,0.12878558588028483,0.7586633416922685,-0.022825256912592642,-0.5270395303785611,0.013280980779460454,0.8494303718461893,0.08035976199594558,-0.852779386027004,0.9502046031340081,-0.09448118743826435,-0.7052455692378005,0.8493320487591892,-0.01460838493964274,0.7447657006355587,0.9551957216924287,0.016783902706009605,0.6359284374573253,1.1648000521464945,0.0,0.0,0.0,0.0
0.019536548005433835,0.12939746059734222,0.7607760267498815,-0.022988583938013344,-0.5261405670289921,0.012969265629460554,0.8499878980808891,0.07990056614024875,-0.8514098438642203,0.9524806293230731,-0.09475389610570885,-0.7006739500283808,0.8454258042300038,-0.019452711446124225,0.7531065566402934,0.9350629016778305,0.022132479386028914,0.6187767334136562,1.2082860870498218,0.0,0.0,0.0,0.0
0.018975348242846943,0.12992916604642377,0.7626079774081566,-0.023000727281517277,-0.5250496195244213,0.012653195104076299,0.8506666563557314,0.07950591555332968,-0.8499276942555157,0.9524211060646235,-0.0949889470619793,-0.6970174724675916,0.8405074654101142,-0.024622801316605894,0.7587768314553262,0.9172038572430524,0.027759436316425867,0.6026271740969471,1.2489243877116183,0.0,0.0,0.0,0.0
0.017887743894393356,0.13041373983546248,0.7640327238745703,-0.022895959257905933,-0.5236316360152382,0.012297493479212183,0.8515482701924737,0.0791852948113803,-0.8486953449641881,0.9493193771683036,-0.095175383244119,-0.6944426729496107,0.8335225042147008,-0.03029228880724327,0.7601366564019656,0.9031076433476486,0.03374601380467049,0.5871551997701099,1.2837430641773677,0.0,0.0,0.0,0.0
0.016163693489600246,0.1308939414397948,0.7651321842626082,-0.02269369798768918,-0.5217315098634904,0.011863260491743726,0.8527253313568861,0.07895311251384547,-0.8478994839102403,0.9430433652425982,-0.0953013995302368,-0.6929300589033399,0.8239167353406504,-0.03664642968000354,0.7568356892156796,0.8920170322000682,0.040178109515646966,0.57232685870896,1.308228730593305,0.0,0.0,0.0,0.0
0.013724965987066899,0.1314511953888982,0.7660641886116684,-0.022449197397299215,-0.5191555068702636,0.011289609323906121,0.8543103288289393,0.07882630722348362,-0.8479320452944558,0.9339711056498701,-0.09536107500806258,-0.6923905913100097,0.8112060138826318,-0.04389449888997164,0.7490299793262561,0.8821556937064805,0.047148009457603286,0.5592102390317605,1.3148881310940193,0.0,0.0,0.0,0.0
0.010530585291103898,0.13219203858246933,0.7670268454813172,-0.02222883441433463,-0.5156915688743399,0.010498542156124965,0.8564215465091347,0.0788286773873489,-0.849359410572766,0.9229068657997191,-0.0953561918857686,-0.6927726243101873,0.7950841693366854,-0.05225603619969601,0.7373202575418241,0.8710044018773125,0.05475574961674553,0.5513170174227979,1.2931541688702775,0.0,0.0,0.0,0.0
0.006471722899139106,0.13316147489044763,0.7680301600331086,-0.021993727730299343,-0.5111932625440577,0.009431597314443367,0.859132567909159,0.0790008659877016,-0.8523275734632767,0.9094823041685535,-0.09528023376016811,-0.6942296883108584,0.7749248819437933,-0.06191433147146631,0.721503979529739,0.8576533273306509,0.06309642639534321,0.5441443457601841,1.2529850017185395,0.0,0.0,0.0,0.0
0.0014924760493744763,0.1343966113889032,0.7690863607705531,-0.021663487478725308,-0.5055268481856964,0.00802862896705027,0.8625015015584636,0.07940256763764664,-0.8570191457813177,0.8935591365668508,-0.09513616383480894,-0.6971230106606193,0.7505344894257171,-0.07303792985565037,0.7018111243035453,0.840710096970357,0.07227388075634314,0.5353720360815822,1.2013914280179507,0.0,0.0,0.0,0.0
-0.00439720910321533,0.13590824654527955,0.7701467758227004,-0.021099288742734517,-0.4986063713126167,0.006240379492890934,0.8665492277792419,0.08011417255973258,-0.8636686626570151,0.8751781056624071,-0.09494212998920168,-0.7021809416131954,0.7223492477508829,-0.08575090337873778,0.6787340668094524,0.818901705757209,0.08240195456610405,0.523631306932375,1.1426655514231123,0.0,0.0,0.0,0.0
-0.011036492938536323,0.1376609821905733,0.7709660701583531,-0.02012264721347243,-0.4904949014891038,0.00405866051924088,0.8712022485950699,0.08122130027555523,-0.872890430508713,0.8550750855732172,-0.09476319789807995,-0.7108604005007058,0.6921809920081948,-0.10003074079733883,0.6526210440307949,0.7928212165881893,0.0936067047054989,0.5086653829393257,1.0793774029586432,0.0,0.0,0.0,0.0
-0.017774284230176414,0.13958660279324883,0.7710438300872865,-0.01862551806530956,-0.48141331076324656,0.0015399797461408554,0.8762944383933691,0.0828442859176279,-0.8879099332598577,0.8385854111131315,-0.09479936383446562,-0.7274277115372657,0.6673677981692963,-0.11562133434505056,0.6236632871504234,0.7663746876543562,0.10604544352026903,0.4938680516434676,1.0118573927207253,0.0,0.0,0.0,0.0
-0.024148771769455873,0.14157133774456265,0.7702434788287428,-0.01646793920681809,-0.4717111011469105,-0.0012001618360679418,0.8815985501602285,0.08500849566457933,-0.9091600485460865,0.8280499908796028,-0.0951569576215379,-0.7536154805988038,0.6525237081684294,-0.1322929469229025,0.5929707596005361,0.7414091031239638,0.11988727325215293,0.4793671593489247,0.9394185428501383,0.0,0.0,0.0,0.0
-0.02962743761631222,0.14341849451579333,0.7688640944443627,-0.013454196024537329,-0.4618089357445891,-0.003977482551807121,0.8868684632505168,0.08769030936776542,-0.93552305042447,0.8252496128305946,-0.09588565580668593,-0.7901051668870639,0.6524130803539796,-0.14979630254948087,0.5641109726850146,0.7157625714667095,0.13530846315819559,0.4667663886802976,0.8624229924244918,0.0,0.0,0.0,0.0
-0.033343246722117116,0.14469749761128006,0.7672701316978275,-0.009459931388707496,-0.45302822647412744,-0.006348779848653426,0.8914233723154564,0.09054119484021461,-0.9623865373766687,0.8302104332948841,-0.09698385700072842,-0.8339832902065419,0.6705065539672439,-0.1671890686889437,0.5424683645705323,0.6906139452846208,0.15222457366011943,0.4590032628543846,0.7934412303934848,0.0,0.0,0.0,0.0
-0.033257571657414296,0.14484654245838022,0.7668257235562568,-0.009095543835136869,-0.4530793420986677,-0.006489377539805414,0.8914001732246452,0.09073784612167599,-0.9627162942777345,0.8301115952884149,-0.09710151543361203,-0.8348014155471866,0.6696832309588185,-0.16788203318282544,0.5428738937871451,0.6905152567731221,0.15350479974624096,0.45903892239597993,0.7935043961629495,0.0,0.0,0.0,0.0
-0.033257571657414296,0.14484654245838022,0.7668257235562568,-0.009095543835136869,-0.4530793420986677,-0.006489377539805414,0.8914001732246452,0.09073784612167599,-0.9627162942777345,0.8301115952884149,-0.09710151543361203,-0.8348014155471866,0.6696832309588185,-0.16788203318282544,0.5428738937871451,0.6905152567731221,0.15350479974624096,0.45903892239597993,0.7935043961629495,0.0,0.0,0.0,0.0
-0.03331930359673119,0.14462535045247893,0.7669060545649116,-0.00881794874743678,-0.454712899806617,-0.006240609904549869,0.8905725558972521,0.09015520574513847,-0.9517732221473244,0.8190294208626585,-0.09689911203954672,-0.8241062983449948,0.658427551818818,-0.16778096394625616,0.5465559968087415,0.6932077099709321,0.15515240684684692,0.4610177278123592,0.8008885373412914,0.0,0.0,0.0,0.0
-0.03340606940181457,0.14429118456586143,0.7670408424136984,-0.00843327210215161,-0.45595365787635844,-0.005982391210190288,0.8899434548252085,0.08977150256827406,-0.9423490208135923,0.809074336466451,-0.09666989688940697,-0.8163426234136011,0.6505625873191279,-0.16771540167692825,0.54966812159728,0.6943783570114266,0.1565975551165794,0.46281126396630434,0.8061156690342781,0.0,0.0,0.0,0.0
-0.03349219223107378,0.14389977945171767,0.7671812798267389,-0.007993630623763301,-0.45690192292117887,-0.005732983756361075,0.8894626847696474,0.08955177115322512,-0.9343371969861595,0.8003259413359952,-0.09642115263596988,-0.8108854995160514,0.6453506439563039,-0.16763937785683344,0.5522747923994765,0.6946396042215809,0.15783652542525908,0.4642574277987335,0.810117850819764,0.0,0.0,0.0,0.0
-0.033576901900987215,0.14343424063024668,0.7673049284805418,-0.007463724614118818,-0.4576366778758667,-0.005478172303562352,0.8890910827951416,0.08947700912832328,-0.9272522161794554,0.7922651777474093,-0.09614607972976918,-0.8073869452332825,0.6424228349954096,-0.167539096886877,0.5545000629787918,0.6942022859156944,0.158892218061982,0.46525035708647944,0.8136117284523969,0.0,0.0,0.0,0.0
-0.03366649800579289,0.14285476642819528,0.7673957569634013,-0.006782950905390484,-0.4582103642808433,-0.005194999616900368,0.8888027146794796,0.08953905210947881,-0.9206047192216114,0.7842793795051547,-0.09583651636919918,-0.8057262781571305,0.6416787009946905,-0.16741203157285736,0.5564208432640239,0.6931551990880558,0.1597916429687313,0.46567583993138584,0.8171708380496189,0.0,0.0,0.0,0.0
-0.03376232333162659,0.14211192696005465,0.7674403826742366,-0.005880612645662303,-0.4586573373569754,-0.004857120535927781,0.8885804823782822,0.08973642561979525,-0.9139828013682098,0.7758283825425012,-0.09548626412617917,-0.8059738344197913,0.6432776471535641,-0.1672625638400269,0.5580962393346981,0.6915239245720897,0.16056436986329556,0.46542555892593673,0.8212820099564728,0.0,0.0,0.0,0.0
-0.03385986602709539,0.14113735767191735,0.7674209388511675,-0.004661263903911779,-0.4589987965756987,-0.004429890464184699,0.888413616189753,0.0900758737446979,-0.9070003748197274,0.7663687171850023,-0.09509010497999089,-0.8084340537979487,0.647695864580023,-0.16709979853413062,0.5595614680073238,0.6892983971421749,0.16124232394027224,0.4643444377717709,0.8264867635171544,0.0,0.0,0.0,0.0
