zhuoxili-jackie/tripod-support-walk/examples/trajectory_trotting_acc_01.csv
root_pos_x,root_pos_y,root_pos_z,root_rot_x,root_rot_y,root_rot_z,root_rot_w,FL_hip_joint,FL_thigh_joint,FL_calf_joint,FR_hip_joint,FR_thigh_joint,FR_calf_joint,RL_hip_joint,RL_thigh_joint,RL_calf_joint,RR_hip_joint,RR_thigh_joint,RR_calf_joint,FL_foot_joint,FR_foot_joint,RL_foot_joint,RR_foot_joint
0.0,0.0,0.72963,0.0,-0.5231245161092812,0.0,0.852256264656019,0.0,-0.81,0.872,0.0,-0.81,0.872,0.0,0.65,1.0,0.0,0.65,1.0,0.0,0.0,0.0,0.0
0.0007072705239951408,-1.5607147530490924e-05,0.7295995027009683,6.792308756793086e-05,-0.5234025168129469,2.652673711924114e-06,0.8520855595380609,-1.2592469874734081e-05,-0.812055609939295,0.8775068372629722,-1.2592469874734215e-05,-0.8123401075443305,0.8778484588551584,-0.0003014686102500818,0.6527555181548191,1.0001896261364607,-0.0003014686102500857,0.6525838812806035,1.0002726057299807,0.0,0.0,0.0,0.0
0.002044482906769931,-7.22249870482746e-05,0.7295210556949258,0.00010108957499801324,-0.5237241550043912,-2.8763349775956893e-07,0.8518879029812265,0.0001174851555855108,-0.8172753651203241,0.8891139249916162,0.0001175164339566196,-0.8179422278478996,0.8899934325025478,-0.000146186550210064,0.657221638225206,1.0001684647844336,-0.00014623149170033082,0.6569893790699589,1.0006205884203332,0.0,0.0,0.0,0.0
0.0039935117465848815,-0.00023467881972846216,0.729444054711705,0.00011961960028066653,-0.5241028888235825,-1.9571859998230476e-05,0.8516549461107292,0.0005726628711259251,-0.824999162647695,0.9059732346653745,0.0005728469722366343,-0.8265408722112136,0.9081418810097583,0.0007344095967786374,0.6636752918396964,0.9992497519658003,0.0007345977769316629,0.6634597146274388,1.0007745369137013,0.0,0.0,0.0,0.0
0.006564728046854813,-0.0006199457698852127,0.7295026654397201,0.0001449337703042303,-0.524554055588392,-7.864997340781469e-05,0.8513771288765949,0.0017064528215472107,-0.8342574370374776,0.9271279385330085,0.0017074749967418749,-0.8378244851246098,0.9322583791955438,0.002916007195461957,0.6728963263808957,0.9957519295682687,0.0029216847206755877,0.6727574270323492,0.999807514311046,0.0,0.0,0.0,0.0
0.009871012254626582,-0.0014041277358174777,0.7302077505011197,0.00022703472499500588,-0.5251278323023169,-0.000269957963039672,0.8510232871780898,0.004201743774385933,-0.8429045289359829,0.9515844020702242,0.004207159798418519,-0.850815530082244,0.962809553273433,0.006809215840516154,0.688056508190951,0.9843307579850853,0.006847372139887647,0.6877003297453301,0.9934151220550873,0.0,0.0,0.0,0.0
0.012714633805671206,-0.0018573764462479015,0.7309336533913551,0.0005408223176573185,-0.5250353488949674,-0.0004984956423254502,0.8510801028246725,0.005824754838811133,-0.8529150292697248,0.9751868142716416,0.005093838137687002,-0.844336454758842,0.9380191805305048,0.01116051230999086,0.6772613327879885,1.006445707854276,0.006706510025938569,0.6990702542657545,0.9843703675376554,0.0,0.0,0.0,0.0
0.015493202208185309,-0.0024154786592212444,0.7317070483778739,0.0008491957540176039,-0.5250446757167092,-0.0007524521294966325,0.8510739105294556,0.007803911408367278,-0.8612210499913147,0.996554571597462,0.007959732532360788,-0.8456237214078309,0.9221088486707858,0.01736004726214717,0.6685112153429381,1.0248248635669608,0.007122105918564105,0.7108200186069057,0.9752658453110913,0.0,0.0,0.0,0.0
0.017997199537600265,-0.0030248017089263787,0.7324703152849709,0.0011204480625496502,-0.5251484985593384,-0.0009764561926017842,0.8510093099316338,0.009867676041495296,-0.8674205416991899,1.0143768266215605,0.011082862737088816,-0.8514764225449722,0.91312891495602,0.024091345597023715,0.6618369257197705,1.0407386997599588,0.008378701136224551,0.7221930078421164,0.9667544607804105,0.0,0.0,0.0,0.0
0.020112135728832116,-0.003625182873979959,0.7332082165729682,0.0013623065313443268,-0.5252941322156458,-0.001177104407230028,0.8509188170477491,0.011866238749392816,-0.8715961163116991,1.0283646876769224,0.013933368723509294,-0.8595828122917784,0.9081326754657677,0.030882494166392462,0.6564068931771717,1.0552378185128135,0.009966389738425414,0.7325220871283004,0.9588783584253362,0.0,0.0,0.0,0.0
0.021808999562406676,-0.004173299572711662,0.7339257460518878,0.001580931083156084,-0.525448201564016,-0.0013594035106776223,0.850823036919045,0.013688955359016342,-0.8739907801272202,1.038760079927965,0.016498251452818462,-0.8687194935855062,0.9051906711678732,0.03760594933273078,0.6515579529760571,1.0688891976571357,0.011465063095100305,0.7415500232979579,0.9514969775067961,0.0,0.0,0.0,0.0
0.02311136963787245,-0.00464138209470594,0.7346314541526459,0.0017783657432768416,-0.5255935417541945,-0.001523880364859315,0.8507325925754804,0.015257690197925219,-0.8749178175499956,1.0460621720692778,0.0188919214095943,-0.8782874080309462,0.9031346759171817,0.04421129607000409,0.6468541337003317,1.0820239985776854,0.012609521417585309,0.7492793040976468,0.944437071609643,0.0,0.0,0.0,0.0
0.024070297356605763,-0.005014538808738641,0.7353307487504351,0.001954743636697109,-0.525723077872779,-0.0016696523988627664,0.8506518892180007,0.01652810321218978,-0.8747057605649134,1.0508605660366614,0.021206763077397182,-0.8880126256019206,0.9012928857944905,0.05066551245172286,0.6420433269873453,1.0948531192971473,0.013260355466907018,0.7558437898638,0.9375542388303172,0.0,0.0,0.0,0.0
0.024747317592874123,-0.005288121414591372,0.7360247064406643,0.0021100762342257935,-0.525835479044995,-0.0017963807332781615,0.8505817830003577,0.01748690015375198,-0.8736622093336308,1.053736101544635,0.023482305119760107,-0.8977829327950326,0.8993037327906223,0.056946142500078394,0.6370032955944103,1.1075199895210401,0.013368841902912418,0.7614282895165252,0.9307522627737859,0.0,0.0,0.0,0.0
0.02520402298505769,-0.0054650408807620215,0.7367110167681844,0.002245061250503709,-0.5259323852652619,-0.0019048369085233035,0.8505212856980862,0.01814506945493738,-0.8720545199033674,1.0552089650124472,0.025719309719421393,-0.9075667581328416,0.8969892102460402,0.06304233394470204,0.6316985416474139,1.120124742375614,0.012946711534884041,0.7662229765126842,0.9239821994095551,0.0,0.0,0.0,0.0
0.02549642506280578,-0.005553019001011561,0.7373851763230171,0.0023611728118571513,-0.5260166869747479,-0.0019966584859673953,0.850468625665846,0.018529041092002416,-0.8701046361445286,1.0557190984265645,0.027902295070061277,-0.9173743138177032,0.8942708427581019,0.06895524275769774,0.6261516345760414,1.132734032697725,0.01204124245778638,0.7703992205487454,0.9172343676955147,0.0,0.0,0.0,0.0
0.025672426944797898,-0.005561878542949318,0.7380410450473006,0.0024603660632744385,-0.526091436435372,-0.0020737748472963034,0.8504219226749062,0.018671486975039137,-0.8679943483703083,1.0556267641058785,0.03001717182141599,-0.9272326430348344,0.8911179921340832,0.07469721180294543,0.6204267046857207,1.145380829135961,0.010714968238180007,0.7740964849743015,0.9105314713694682,0.0,0.0,0.0,0.0
0.025770916103160207,-0.005500999396804063,0.7386704123359297,0.0025446337829317057,-0.5261590938686183,-0.0021377933153967437,0.850379657928155,0.018602855841664042,-0.8658768641022222,1.0552228914911406,0.03206176457818096,-0.9371529763190988,0.8875242555226,0.08028916845640863,0.6146205574079538,1.1580517745880607,0.009029260415513989,0.7774124333326887,0.9039281947972131,0.0,0.0,0.0,0.0
0.025821133897086977,-0.005377077795069477,0.7392614722030232,0.0026155411634117493,-0.5262209327382842,-0.0021895021563528797,0.8503410462707184,0.01834431049716938,-0.8638901802747203,1.054739403473687,0.03404966092944014,-0.9470723619184755,0.8835136765217332,0.08575297670869876,0.6088563235324422,1.1706533687927922,0.007031392121880097,0.7803900861139748,0.8975211557321909,0.0,0.0,0.0,0.0
0.02584113276712585,-0.00519243235344253,0.7397962762167959,0.0026737439815029095,-0.5262765816505524,-0.0022285668236533547,0.8503063237382417,0.017902796338885623,-0.8621669214026402,1.054349480225798,0.03600589351950682,-0.9567577170973852,0.8791830393062328,0.09109091033045107,0.6032773913199648,1.182941303306554,0.00474629912441944,0.7829978366336015,0.8914721323758836,0.0,0.0,0.0,0.0
0.025834603743065947,-0.004944381204048746,0.7402475948651891,0.002718372879300433,-0.5263238920627915,-0.002253363625526275,0.8502768334167027,0.017269408145215773,-0.8608345328741958,1.0541490052627196,0.03795030996623442,-0.9656792094221988,0.8747849927495266,0.09623936956502746,0.5980506618920832,1.1943906108544313,0.002178224888050525,0.7851029881771128,0.8860444797934455,0.0,0.0,0.0,0.0
0.025786892698105808,-0.004626583621612345,0.740576735016914,0.0027460505713814533,-0.5263595554912875,-0.0022606481749640668,0.8502546483372512,0.016422626287701587,-0.8600008622859087,1.0541194184337193,0.03986692684760969,-0.9729044723782101,0.870838474465141,0.10098535427671015,0.5934159775779638,1.203981300461855,-0.0006669378229427385,0.7864524955130915,0.8816402374176103,0.0,0.0,0.0,0.0
0.025664927304600415,-0.004233030120326997,0.7407370080661733,0.0027495755522833755,-0.5263809355959733,-0.002244654109570031,0.8502414433578961,0.015337048733815112,-0.8597262306154435,1.0541005798791188,0.041673373019676836,-0.9771472817849105,0.8681984312375897,0.10486594079177956,0.5898652407038283,1.2098868267543006,-0.0037313344934145508,0.786704319273768,0.878784656884906,0.0,0.0,0.0,0.0
0.025432848174750212,-0.003762156844214434,0.7406938082509364,0.0027188780915990795,-0.5263896248741903,-0.0021981767984078217,0.8502362839502294,0.013996057536497412,-0.8599908902240581,1.0538570753845717,0.043244328255212044,-0.9772222168294182,0.8678978357900117,0.10720373379619678,0.5885044102492595,1.2092374291186005,-0.006889313228829843,0.7855942587521635,0.8779112941437814,0.0,0.0,0.0,0.0
0.02507763220979218,-0.0032039891205460445,0.7404441678899107,0.002652188759505518,-0.5263860668723894,-0.0021198298638394615,0.8502388963219388,0.01237033523743912,-0.8607691034616848,1.0533125406192196,0.044546592893711545,-0.9731261201706736,0.8699028261404604,0.10796153101262623,0.5893375520941422,1.202054218007035,-0.010192670667908852,0.7830627189494999,0.8790399587247227,0.0,0.0,0.0,0.0
0.02461016174525426,-0.0025398149132827056,0.740017622212442,0.002556473117800025,-0.5263691259692919,-0.0020142412618204216,0.8502499341391688,0.010417187888895445,-0.8620323932306269,1.0525590251305594,0.04565448730456482,-0.9660447066668693,0.873139932894374,0.10775256077118679,0.5912641071543258,1.191233071425127,-0.013873165603068685,0.7792647406980989,0.8817573787262415,0.0,0.0,0.0,0.0
0.024039453475706928,-0.0017554466458470181,0.7394578882726468,0.0024365639392497224,-0.5263412885392473,-0.0018850739540158354,0.8502678152389415,0.008103848632396767,-0.863669247822169,1.051617522820243,0.04661711799308447,-0.9572584429841604,0.8767234352065317,0.10699125129453071,0.593784639090687,1.1786133312681188,-0.018096424382602602,0.7744502021270573,0.8855245012513008,0.0,0.0,0.0,0.0
0.023356657938494726,-0.0008385469985044885,0.7388024293400086,0.002294221475000186,-0.5263052681202306,-0.0017342870317059295,0.8502908288022443,0.005400072885810986,-0.8655117592031916,1.0503620258247048,0.047426227314069494,-0.9476896180454419,0.8801027244762823,0.10585338391479975,0.5966431597826264,1.1652160967616747,-0.02296774643430653,0.7687924721298287,0.8899057615303213,0.0,0.0,0.0,0.0
0.0225359455308462,0.0002234302846481469,0.7380781064398263,0.002129646272962694,-0.5262623969185489,-0.001563426798132255,0.8503181227593251,0.002276012606499264,-0.8673615867498646,1.048543820059057,0.048045069099021,-0.93786429922078,0.8830002652760359,0.10437764689183195,0.5996560113351169,1.1515565137934858,-0.02856624115152552,0.7623565094919884,0.8946005367469649,0.0,0.0,0.0,0.0
0.021540325175871008,0.001442300853326355,0.7373027825437626,0.0019428222153710752,-0.5262123422475157,-0.0013743272835205528,0.8503498736007084,-0.0012936483805132616,-0.8690037349586115,1.0458311082315943,0.04844267289263833,-0.9280267285524944,0.8853115172662742,0.10255691275332492,0.602667658116979,1.137858805182106,-0.034948842910619435,0.7551247948436844,0.8994153386453356,0.0,0.0,0.0,0.0
0.02032757723597262,0.002825895935767612,0.7364883805664365,0.0017345471896185601,-0.5261537062664406,-0.0011695712189543795,0.8503869124294534,-0.005319993212942985,-0.8702067421719246,1.041835171688768,0.04861691959355884,-0.918272328933475,0.8870318859768473,0.10039670623759848,0.6055480755976205,1.1241856243012078,-0.04213326395775054,0.7470366770799592,0.9042311370967133,0.0,0.0,0.0,0.0
0.018855669532875468,0.0043734415700345565,0.7356438664391775,0.0015073320096122547,-0.5260851081914221,-0.0009530006280162614,0.8504300551363618,-0.009786410113496468,-0.8707157116072846,1.0361253869220832,0.04860798277053056,-0.9086490873377941,0.8882262473602401,0.09795353606642411,0.608193754979866,1.1105070581091407,-0.050073448502208906,0.738026456316186,0.9089797359523311,0.0,0.0,0.0,0.0
0.017088765697644663,0.006070378346228986,0.7347777202740676,0.0012663626436732755,-0.5260066035779559,-0.0007304393437132516,0.8504792271280956,-0.01463332646197665,-0.8702471591579353,1.0282471458221405,0.04850648148924005,-0.8992189115731474,0.8890389472231656,0.09537253898395186,0.6105216145827318,1.0967327122648198,-0.05863951979853831,0.7280581989525008,0.9136295153286559,0.0,0.0,0.0,0.0
0.015005612026319523,0.007883524888712993,0.7338996164891272,0.0010207753157408306,-0.5259215370303678,-0.0005109141243523053,0.8505323238255721,-0.019743295957857496,-0.8684963228134197,1.0177620445753404,0.04845526709343884,-0.8900860579460886,0.8897408309156339,0.09294795716426194,0.6124563642927584,1.082725417669987,-0.06761577772405464,0.7171582054926521,0.9181784629255423,0.0,0.0,0.0,0.0
0.012612542405723872,0.00975781332924738,0.7330203643425948,0.0007856489298000251,-0.5258391270573242,-0.00030898987995426307,0.8505836230122259,-0.024928935355888672,-0.865171917675283,1.0043361622053133,0.04863459283653998,-0.8814043459629953,0.8908140852971723,0.09124068006397824,0.6139167879033708,1.068311767916412,-0.07673376583294594,0.7054432095398447,0.9226578403294216,0.0,0.0,0.0,0.0
0.009963632727885894,0.011616115747378029,0.73214694337514,0.0005857058675019453,-0.5257778557984969,-0.00015019178008443052,0.8506217024876574,-0.029923881798235633,-0.8600834182981438,0.9879124871786846,0.049213480908642665,-0.8733810293141516,0.893069028252753,0.09129211247275155,0.6148129565821154,1.05330788517873,-0.08576731943091001,0.6931273141898194,0.9271683460430271,0.0,0.0,0.0,0.0
0.007188335070178918,0.013365370096410327,0.7312620914902097,0.0004681501183126992,-0.5257607425619508,-0.00010767422081727332,0.8506323593788535,-0.03431411780214682,-0.8533357484966732,0.9690271101813306,0.05033833249319443,-0.8663697824597153,0.8977378139785723,0.0947291508035897,0.6151277935262939,1.0376006024012923,-0.09491646787629762,0.6803499491047751,0.9319873138176054,0.0,0.0,0.0,0.0
0.004539201330896846,0.014952789280252723,0.7302999355958903,0.00048131247735956617,-0.5258200822297218,-0.00019974082539699525,0.8505956557412166,-0.03796299417524366,-0.8459425098390073,0.9496304668616987,0.05280818694634196,-0.8610040765175372,0.9061666477872934,0.10505976505930119,0.6151001276460186,1.0208229395922641,-0.10441542678046983,0.6674608488162711,0.937682089222475,0.0,0.0,0.0,0.0
0.0025484190919332116,0.016278517871619973,0.7292174382251073,0.0006915860310537753,-0.5260279140281964,-0.0005388750092557955,0.8504668511974058,-0.04039888531025285,-0.8398794648939293,0.9340585454466689,0.05625870409657708,-0.8590677452370461,0.9204961016253067,0.1253741915002249,0.615001397479358,1.0032825446205682,-0.11512272825316933,0.6554876067119456,0.9445242290553207,0.0,0.0,0.0,0.0
0.0015657442936213586,0.01707139440341577,0.7281666109731789,0.0010823621366714826,-0.5265361732011847,-0.001124284233445402,0.8501512940576045,-0.04095307786842722,-0.8352328946969668,0.9241877778061368,0.060941377016021134,-0.8645885246847784,0.943878570243214,0.15379530200796368,0.6155400437069413,0.9862722101803514,-0.1256934832336891,0.6464663983847106,0.9522403535139691,0.0,0.0,0.0,0.0
0.001529879274440005,0.01720233254333045,0.7281112562815187,0.0009610035066879208,-0.5265689302517924,-0.0011415325718977347,0.8501311281614915,-0.041143295807043914,-0.8352946612654045,0.9240582763577899,0.06094752085804579,-0.8646013252741556,0.9438889668206337,0.15381270923841556,0.6155573688542372,0.986274490346609,-0.12571074351060213,0.6463718118096128,0.952177133575343,0.0,0.0,0.0,0.0
0.001529879274440005,0.01720233254333045,0.7281112562815187,0.0009610035066879208,-0.5265689302517924,-0.0011415325718977347,0.8501311281614915,-0.041143295807043914,-0.8352946612654045,0.9240582763577899,0.06094752085804579,-0.8646013252741556,0.9438889668206337,0.15381270923841556,0.6155573688542372,0.986274490346609,-0.12571074351060213,0.6463718118096128,0.952177133575343,0.0,0.0,0.0,0.0
0.001291865923035383,0.017983864586302804,0.7278742659193812,0.0010806157913553001,-0.5259470870792886,-0.0012909792361800521,0.8505156243332244,-0.04284614264411014,-0.8397357764725302,0.9276796429602723,0.05934798085353681,-0.8666621120576709,0.9432048384624483,0.14662742401157172,0.6131012212487721,0.9908019509747065,-0.13118946703370074,0.6425321972233135,0.9499148492386826,0.0,0.0,0.0,0.0
0.0015972808954105606,0.019081848374913505,0.7275631029984406,0.0010326659566801352,-0.5256365753819854,-0.0012794910628205279,0.8507076390419569,-0.045736290975362304,-0.8464650433937922,0.9363946638164256,0.0566099108048767,-0.8688195024157654,0.9448528242316276,0.14029867346082892,0.6118085895829867,0.9970359192985622,-0.13739516553772918,0.6410727820087954,0.9474470006242149,0.0,0.0,0.0,0.0
0.0026015495305120135,0.020372681237254366,0.7273641506740574,0.0008067533600346124,-0.5257267545964098,-0.0011118016200973465,0.8506523923129234,-0.04949140298118469,-0.8548144704867484,0.9504156799766293,0.05305532587383775,-0.8709686583269475,0.949955564769698,0.13561413555849577,0.6132769470317447,1.0028471725824153,-0.1438306309870651,0.6435346800145173,0.9435415587651416,0.0,0.0,0.0,0.0
0.004392840440925372,0.022070530398722282,0.7274688572762715,0.00033823803304225403,-0.5261900582837062,-0.0006867068288751787,0.8503666483300918,-0.05492146049269278,-0.8652933130207687,0.9710762816192832,0.047878992398883775,-0.8724342772453711,0.9583888019280515,0.13208102076735925,0.6184269612556907,1.0070420345963815,-0.15098252866791026,0.6513860962099223,0.9354440778703373,0.0,0.0,0.0,0.0
0.0072586717736364,0.02462170524348845,0.7289290549427349,-0.0005693024033814672,-0.5272171028700141,0.0003299496700178431,0.8497303651566994,-0.0639581467578422,-0.8761403579435731,1.000073744578572,0.039055211460905,-0.8685515726181159,0.9685497372461542,0.13003404633068988,0.6327571188116123,1.0014853709042855,-0.15878435504836064,0.6724381685155421,0.91168111480432,0.0,0.0,0.0,0.0
0.009429737541451585,0.026894587666206157,0.730824541824684,-0.00027266994395800607,-0.5261593990072404,-1.6813394345200818e-05,0.8503859195710798,-0.0581917097596774,-0.8591743942101168,0.9593790422914744,0.034136443404194236,-0.87561578529638,0.985620904336153,0.1110088560605473,0.6481957676578662,0.9893441133837432,-0.12684201083960794,0.6575968854801766,0.9535260361472165,0.0,0.0,0.0,0.0
0.011923847774492269,0.029219516621298573,0.7325697247117263,-0.0002912965782753181,-0.5256904263004628,5.737977262614503e-06,0.8506759023326198,-0.05295087941709647,-0.8531431527619725,0.9344252772259848,0.02815985830557451,-0.8798937982293483,1.0013148868939425,0.09625790782690549,0.663880565971387,0.9784573936065124,-0.10177821485173029,0.6501278573375026,0.9855288182977311,0.0,0.0,0.0,0.0
0.014483020982361181,0.031485485538576156,0.734098130072074,-0.0005410323746513378,-0.5256233667929521,0.000256958566359803,0.8507171783486605,-0.04846490574892815,-0.8541947517112077,0.9206490228207329,0.02177797024425286,-0.8819537406703147,1.0149119554886097,0.08478539091920337,0.6788801922270564,0.9692518870495482,-0.08717235210158836,0.6462559844154615,1.0100944354608823,0.0,0.0,0.0,0.0
0.01687571566944001,0.03364759210646675,0.7354479949575194,-0.0008642102222919419,-0.5256996369535608,0.0005798672668780691,0.850669623650415,-0.044750750680595905,-0.8591086217797089,0.9130341714371566,0.015473111299937337,-0.8826704872418731,1.0262119177858062,0.0746383392940015,0.6927410674106698,0.9613266683171735,-0.07954509407380991,0.6438105983530074,1.0299977822668789,0.0,0.0,0.0,0.0
0.01897851803047876,0.035691306700160505,0.7366603883394723,-0.0011758061779976832,-0.5257930644271502,0.000892856385355464,0.8506112353405717,-0.04171244958139538,-0.8660573040300695,0.9086435626410718,0.009471340708660724,-0.8824319349292324,1.035092260081141,0.06475377776644581,0.7052917424302924,0.9543843572136477,-0.07569605169144407,0.6417964267973597,1.047077231312144,0.0,0.0,0.0,0.0
0.020751766569102006,0.037609862639490635,0.7377689331040449,-0.0014445509952046864,-0.5258598317635973,0.0011649288906829553,0.8505692173777881,-0.039144636664820334,-0.8740548376715495,0.9058153491645987,0.0038664898943760514,-0.881401940438745,1.0416157800920849,0.05477207908823914,0.7165412625092915,0.9481963862755858,-0.07368961723252754,0.6397580562415858,1.0625023979269153,0.0,0.0,0.0,0.0
0.022208849845126378,0.03939919116351124,0.7387993274395674,-0.0016661928281815881,-0.5258944058833396,0.001391070594594277,0.850547096041524,-0.03681222509621563,-0.8825836557598387,0.9036160432878958,-0.0013111363925079672,-0.8796901701149276,1.0460259579823206,0.044718312778341596,0.7266044282377521,0.9425610089365194,-0.07250406578094058,0.637518177759411,1.0770136639645218,0.0,0.0,0.0,0.0
0.02339094958666847,0.041058198850597194,0.739769704343644,-0.0018468712450036492,-0.5259044066020108,0.0015771926007760496,0.8505402145969886,-0.0345152271370069,-0.8913837130223606,0.9015290049087783,-0.006064087818992492,-0.8774180207295099,1.0486810458430817,0.03476727129840712,0.7356412994940968,0.9373046158952487,-0.07161628881311631,0.6350425101181425,1.0910785065391613,0.0,0.0,0.0,0.0
0.024349963508472985,0.04258939947135627,0.7406915409762138,-0.0019949826077558333,-0.5258997875381692,0.0017319995179183715,0.8505424349727491,-0.03211377784691027,-0.9003352256676167,0.8992760901012609,-0.010412754722644748,-0.8747262287504122,1.0499816809261582,0.0251061628112247,0.7438213795949528,0.9322949561696307,-0.07075314563349773,0.6323674779858816,1.1049885600193818,0.0,0.0,0.0,0.0
0.025138522406857176,0.04399831267307317,0.7415708865109438,-0.0021185948316149008,-0.5258896145451012,0.0018639301402387043,0.8505481471580411,-0.029526881743255375,-0.9093930496924011,0.8967126064208759,-0.014387140835750562,-0.8717606317753535,1.050317170555737,0.01588484929966861,0.751302931449954,0.9274462566326246,-0.06976814895668307,0.6295683632183847,1.11891916899764,0.0,0.0,0.0,0.0
0.025804417867384823,0.045292033812923495,0.742409270371585,-0.002224520388968332,-0.5258797521350312,0.001980458222246151,0.8505537111721206,-0.026720184128951732,-0.9185481877693868,0.8937624413464632,-0.018021472590516244,-0.8686687725554887,1.050042963510904,0.007208243820827945,0.7582144396125478,0.9227159291223886,-0.06858076753920546,0.6267392864873312,1.1329612097480974,0.0,0.0,0.0,0.0
0.026388103992237257,0.04647764444413728,0.7432037376316175,-0.0023186114355229805,-0.5258735812086003,0.0020879604485320594,0.8505570181057929,-0.023693320455050355,-0.9277840571988007,0.89039076111943,-0.02134898184017986,-0.8655920988891744,1.049466421516041,-0.0008495838817529147,0.7646443041044392,0.9181078563237157,-0.06715184434132772,0.6239916916934792,1.1471293026828455,0.0,0.0,0.0,0.0
0.026921083015305176,0.04756106196132798,0.7439457742100012,-0.0024057805777250615,-0.5258733967112742,0.0021910764184550034,0.8505566307044388,-0.020469853504323746,-0.9370111418746713,0.8866107506268458,-0.024396638242246686,-0.8626608551297654,1.048835658700245,-0.0082381908619924,0.7706320379211282,0.913687661600738,-0.06547145121907944,0.6214545044088846,1.1613398259339398,0.0,0.0,0.0,0.0
0.027423249278397763,0.0485464642540775,0.7446193609566992,-0.002489467883857198,-0.5258803169503327,0.002292111514404053,0.8505518449916374,-0.017089804156608015,-0.9459711197194255,0.8825222748939,-0.027182011543290016,-0.8599943504489452,1.0483257227598624,-0.014931935456066942,0.7761492778783194,0.909607317225807,-0.06353455301403885,0.6192649385518783,1.175343400924046,0.0,0.0,0.0,0.0
0.027898449329663726,0.049436683877620485,0.7451987295181477,-0.002570255260487189,-0.5258928077463052,0.0023901801506380216,0.8505436118080313,-0.013598958442198663,-0.9541170707546641,0.87838253884401,-0.029712659921309746,-0.8577013672233696,1.048014444923555,-0.020946979647640845,0.781072640303034,0.9061370467761789,-0.06129194542049091,0.6175588018635219,1.1885918125008217,0.0,0.0,0.0,0.0
0.02832941016996872,0.05023486609158817,0.7456472486294966,-0.0026434859600474392,-0.5259033225197115,0.0024803018727243063,0.8505366279281142,-0.010030565522330587,-0.9605227400290841,0.874687735522726,-0.03198949004627363,-0.8558832117344977,1.047857539341812,-0.02637577825077218,0.7851579238701066,0.9036880827851064,-0.05856350589075577,0.6164963175925186,1.2000195105458484,0.0,0.0,0.0,0.0
0.028678130516366362,0.05094727091227927,0.7459216152097458,-0.0026970360374247676,-0.5258963022606031,0.002552620901551324,0.8505405865634926,-0.006383131401594411,-0.9639418675609288,0.8722022761649383,-0.034013334990324814,-0.85463184693314,1.047690628063467,-0.03142966693764737,0.7880645613795146,0.9027780071353322,-0.05494190986497165,0.6164233504926602,1.2077405663914096,0.0,0.0,0.0,0.0
0.028905077553326358,0.051583910087051627,0.745991323118999,-0.002716884123033309,-0.5258566541188033,0.002598113864322185,0.8505648991487876,-0.002635163883736307,-0.9632352893113957,0.8717864490391685,-0.03579735488638522,-0.8539815158448562,1.04730363177195,-0.03635657421055876,0.7895175867057997,0.9038106419405751,-0.04981439595437277,0.6182738569380608,1.2088503751291797,0.0,0.0,0.0,0.0
0.0290001123540718,0.05214628820106439,0.7458573014848042,-0.00270401874300386,-0.5257863467215127,0.0026165098626184965,0.850608346867124,0.001182460875891122,-0.9583897249521478,0.8734079555878943,-0.03734376422032008,-0.8538748706639686,1.0465994867785458,-0.041151830234529875,0.7894917914328495,0.9068043417809182,-0.043215290172457,0.6219964524662728,1.2033253174082228,0.0,0.0,0.0,0.0
0.0289824442239227,0.05262965437714775,0.7455527250774581,-0.0026740594164380996,-0.5257023176530488,0.002616303198608312,0.8506603773410534,0.004984086707758734,-0.950531451364725,0.8761688881039389,-0.03864994724637788,-0.8541650539311851,1.045592951607652,-0.045578162957334245,0.7882138222563401,0.9113862959942112,-0.03580188208357561,0.6265793069656146,1.194018198520327,0.0,0.0,0.0,0.0
0.028868379626008318,0.05303734308534992,0.7451261110037758,-0.0026398673393926513,-0.525618767129643,0.002606494562162039,0.8507121422241732,0.00870772360374494,-0.9408971372904823,0.8792767905940996,-0.03973624971170486,-0.8546391604644924,1.0442349321329225,-0.04947878079821899,0.7859828683731824,0.9170546513981179,-0.028009798301662902,0.6316193997320567,1.1827657508713179,0.0,0.0,0.0,0.0
0.028650750256902138,0.05338085014479924,0.7446229397354247,-0.002605795724981189,-0.5255401159544575,0.002590213089201459,0.8507608871753376,0.012332424065923941,-0.9303979792288982,0.8822056039560836,-0.04063341230378893,-0.8550502359569568,1.0423176871723965,-0.052870932266162865,0.783012839288296,0.9233991564510814,-0.020057491181025046,0.6369077875478141,1.1705860454567385,0.0,0.0,0.0,0.0
0.028297661293180773,0.05367753320876576,0.7440817069974036,-0.0025702628856057157,-0.5254623540019819,0.002566322200338309,0.8508090986030643,0.015848647479208156,-0.9195679683431606,0.8846661622063843,-0.04137906810383844,-0.8551158798456698,1.0394658277564202,-0.055891485353793374,0.7793984078188895,0.9301356360220099,-0.012042378901204211,0.6422588723274739,1.1579788955187953,0.0,0.0,0.0,0.0
0.027757804991439972,0.053950126647258206,0.7435348544825394,-0.0025273558222064273,-0.5253757198039355,0.0025296343708183485,0.850862836456614,0.0192387479253482,-0.9086622413328518,0.8865268303299315,-0.04201597849052347,-0.8545191418589559,1.0351622093575321,-0.05877931112941839,0.7751425239935604,0.9370869854303094,-0.004019513539899095,0.6474758511856187,1.1451454667454217,0.0,0.0,0.0,0.0
0.026966598194133943,0.054227010427147004,0.7430104281734528,-0.0024673811337832807,-0.525265005660535,0.002471377508014316,0.8509315355256213,0.02247331843746871,-0.8977830564578738,0.8877401758972021,-0.04259387304655202,-0.8529213863109789,1.0287867795868444,-0.0618676137320924,0.7701859177268848,0.9441520061914519,0.0039715332289918925,0.6523499809384751,1.1321261414971429,0.0,0.0,0.0,0.0
0.025852798746216453,0.05454209586788561,0.7425325655432513,-0.002376257514309457,-0.5251085932671333,0.0023791692204852373,0.851028588374714,0.02552377688984306,-0.8869762338572235,0.8882980009639263,-0.04316992113275592,-0.8499896207183734,1.0196671859566573,-0.06558095680639812,0.7644309101858919,0.9512806106829853,0.011915137589833973,0.6566595980723907,1.1188802454162403,0.0,0.0,0.0,0.0
0.024347718176693574,0.0549327474817871,0.7421193795242312,-0.002234451114716769,-0.5248782812514569,0.002236553730648931,0.8511714251113828,0.028388341339156662,-0.8762808217615274,0.8882176497515709,-0.043803381076786156,-0.8454435507198804,1.0071562191955798,-0.07041728522000776,0.7577619325117146,0.9584635835623424,0.019847045303642112,0.6601743244306454,1.1053372218144346,0.0,0.0,0.0,0.0
0.022400191675634482,0.055433420508482455,0.7417768649760251,-0.002018476046304825,-0.5245434473897563,0.0020246065923713876,0.8513788807123809,0.031123934633126658,-0.8657299854321675,0.8875562599248711,-0.04454317202664267,-0.8391196089435438,0.9907528448306431,-0.07685592567539755,0.7500618588281677,0.9657415843032731,0.027894935297823005,0.6626979736103027,1.0914502511840083,0.0,0.0,0.0,0.0
0.020000207306800865,0.05606360307101019,0.7414880175696816,-0.0017082963957948942,-0.5240854330456833,0.0017272485211661498,0.8516622318767509,0.03387163643773002,-0.8553003440077314,0.8864504644535325,-0.04540700777831758,-0.8310353646395794,0.9702723678288129,-0.08516270183679167,0.7412391310000259,0.9732460032186688,0.036330000846707934,0.6642012082854876,1.0772809764217297,0.0,0.0,0.0,0.0
0.017210851653985712,0.05680966517253974,0.7411980576695408,-0.0013018588973294012,-0.5235174672260786,0.0013430227668140733,0.8520128889649797,0.03684557541728826,-0.8448328575928078,0.8851442198105427,-0.046358998428487626,-0.8214815574821881,0.9461030903487224,-0.09509415114115317,0.7312527481101808,0.9812659248276647,0.04570001407642729,0.6650596818027714,1.0631311846686342,0.0,0.0,0.0,0.0
0.014207554422996916,0.05760207606191367,0.7407994613678826,-0.0008346433803166572,-0.5229033846762571,0.0009001715837874136,0.8523910741881696,0.040256343031850966,-0.8339301018636346,0.8838838025964623,-0.047284032558623304,-0.8111875593804937,0.9196064801773839,-0.10560586457778258,0.7201570534202574,0.9903244549800266,0.05723737553380608,0.6664704803109331,1.0496769711055303,0.0,0.0,0.0,0.0
0.01131582685871439,0.058283747369812476,0.7401249402102198,-0.000357494382560853,-0.5222620015987747,0.00043051073633594854,0.8527849016864181,0.04442198728025558,-0.8216940426894267,0.8816707368077553,-0.04787255678445867,-0.802337662588593,0.894383596064526,-0.11508244370770028,0.7080171899615191,1.001023605584119,0.07393933486768957,0.6709822573348294,1.0374301151567082,0.0,0.0,0.0,0.0
0.00889457213898181,0.05876922309090109,0.7392325809378579,2.5042112392552532e-05,-0.5217005840147106,2.9885493714073045e-05,0.8531286533216779,0.04903846563090938,-0.8088112946088697,0.8777846199755892,-0.048123478367416886,-0.7958924576767031,0.8734952420938794,-0.12194303101113295,0.6961835671661684,1.0123085631992115,0.09867401808093539,0.6797074434553306,1.0272589172938018,0.0,0.0,0.0,0.0
0.007295384370749173,0.05901813603045883,0.7384412105621041,0.00017856958427570164,-0.5212810850567938,-0.00018205334675327266,0.8533850041637093,0.052796919789040546,-0.7977068922969494,0.8706744273949782,-0.04818958615523675,-0.7922029292942785,0.8598556596375099,-0.12461108512133302,0.6869627865475751,1.0209531607028777,0.12962816476818773,0.6909840875357813,1.0196118974067316,0.0,0.0,0.0,0.0
0.007294086254412951,0.058993341330377126,0.7384124658344619,0.00022496562436966514,-0.5212698801244195,-0.00019349770034343068,0.8533918349879972,0.05281997412354786,-0.7977139952473554,0.8706837371736055,-0.048124787598489906,-0.7922579432142588,0.8597207968523698,-0.124619985933131,0.6868974374054406,1.0208944351632188,0.1296300420095779,0.6910169552527688,1.0196230880834984,0.0,0.0,0.0,0.0
0.007294086254412951,0.058993341330377126,0.7384124658344619,0.00022496562436966514,-0.5212698801244195,-0.00019349770034343068,0.8533918349879972,0.05281997412354786,-0.7977139952473554,0.8706837371736055,-0.048124787598489906,-0.7922579432142588,0.8597207968523698,-0.124619985933131,0.6868974374054406,1.0208944351632188,0.1296300420095779,0.6910169552527688,1.0196230880834984,0.0,0.0,0.0,0.0
0.007294086254412951,0.058993341330377126,0.7384124658344619,0.00022496562436966514,-0.5212698801244195,-0.00019349770034343068,0.8533918349879972,0.05281997412354786,-0.7977139952473554,0.8706837371736055,-0.048124787598489906,-0.7922579432142588,0.8597207968523698,-0.124619985933131,0.6868974374054406,1.0208944351632188,0.1296300420095779,0.6910169552527688,1.0196230880834984,0.0,0.0,0.0,0.0
0.007892755802288641,0.05898907678930747,0.7383806765546513,0.00026423433582927256,-0.5215173636637372,-0.0001878434231053615,0.8532406075031177,0.052830624780145344,-0.7993867936871197,0.8752517582754026,-0.04819364769842533,-0.7939736605243309,0.8643004892643454,-0.1256238125343289,0.6895781481701476,1.020976148332571,0.13037453110912534,0.6936215025436844,1.0198277950633126,0.0,0.0,0.0,0.0
0.009039768622970346,0.059058135769802594,0.738306235962742,0.00026343980993939173,-0.5217848154655864,-0.00017321042510808974,0.8530770814804246,0.05272520490842983,-0.8041749490189347,0.8856325649051351,-0.048504467645029685,-0.7983485383391754,0.874083122788074,-0.12744946996895756,0.6939333067602375,1.0211847665285014,0.1314620754558128,0.6979705272779884,1.0196751072005308,0.0,0.0,0.0,0.0
0.010739280383386392,0.05922553469756554,0.7382239869312275,0.00022385405639085268,-0.5220891447402132,-0.00014360071906314003,0.8528908806011632,0.05241851234927321,-0.811859685365904,0.9016371551561125,-0.049136192644325956,-0.8049898241300188,0.8886216614595419,-0.13031218741917755,0.7002503764453922,1.0212254993606755,0.1327737457707857,0.7043203271948174,1.0187553112257692,0.0,0.0,0.0,0.0
0.013010497025941046,0.05949735643857322,0.7382299329721483,0.00014482835836024586,-0.5224505879779392,-9.78185323594382e-05,0.8526695447697115,0.05188284899446369,-0.8219750796125747,0.9229360878938196,-0.050106740466552266,-0.8133988379620567,0.9075498480141398,-0.13435032053122617,0.7091736865803416,1.020174363508137,0.13430961980791037,0.7132822497641789,1.016119750197512,0.0,0.0,0.0,0.0
0.01593428356814667,0.059862067396460446,0.7386725325053362,3.5370044791563045e-05,-0.5229296775471117,5.8039406994772835e-06,0.8523758273530215,0.051004128517650876,-0.8332862325742946,0.9490992157551267,-0.05149581432589814,-0.822318920539937,0.9305244303987108,-0.13935808674720582,0.7227251108956481,1.0147201975770577,0.13648880570171615,0.7270744780658209,1.0085788234411428,0.0,0.0,0.0,0.0
0.018460912407359985,0.06056440422359821,0.7391712584538429,0.0007780774844940624,-0.5232355862567515,-0.000859568177825583,0.8521872898679781,0.05127072607246413,-0.8408753445217436,0.9704653950161866,-0.046457450227139194,-0.822943162639331,0.9173640619235915,-0.10219211767036485,0.7061084413433762,1.028477763533971,0.12063626541256399,0.7346175601276087,0.9984126964902034,0.0,0.0,0.0,0.0
0.02092720943767665,0.061214946107078644,0.7397369916827558,0.001360944740047217,-0.5235722491610548,-0.0014873470310295023,0.8519788938328567,0.05110127451573631,-0.8480289757894967,0.9908695284827423,-0.03999002338664356,-0.8290755661091289,0.9084324139956674,-0.07113389668849487,0.6925359091639175,1.0410047507921556,0.1076612452574478,0.7432189692364813,0.987811351627419,0.0,0.0,0.0,0.0
0.023128269517214577,0.06176997856665806,0.7402879007686601,0.0017369038636060588,-0.5239038834148688,-0.0018593485236220427,0.8517735890075812,0.05058257492106958,-0.8543284582394552,1.0087872827699278,-0.034411225692202604,-0.8380191695201649,0.903311272246183,-0.049629141337147575,0.6829854345715343,1.053499665158771,0.09854655257124195,0.7519927581683504,0.9779520602770665,0.0,0.0,0.0,0.0
0.02495311814740127,0.06223462070854157,0.7408125011292632,0.001983398344079865,-0.5242131010173854,-0.0020838706201044936,0.8515822616377021,0.04993937116551253,-0.859230484635109,1.0233091978867779,-0.030019693932341985,-0.848068286831075,0.90046092492427,-0.03439191275932592,0.6759812708904626,1.0661948925409526,0.09192224041691976,0.7600506840771403,0.9690660375783898,0.0,0.0,0.0,0.0
0.026378542932279665,0.06263036521002154,0.7413293209279361,0.0021586199342516744,-0.5244923267671978,-0.0022317842359168543,0.8514095129028303,0.04927043380663807,-0.8625615560993619,1.0343363662783294,-0.026453209627520305,-0.8584293439797919,0.8987542094104138,-0.022631214192445168,0.6702510432256022,1.0790009968324634,0.08669106040190132,0.767050285511172,0.9609664529298942,0.0,0.0,0.0,0.0
0.02743385432234708,0.06298316607432827,0.7418571306263279,0.002294796328644724,-0.5247391871157809,-0.0023388976592301986,0.8512567468000587,0.04858882176680114,-0.8644241773754718,1.042233775305745,-0.023272079507068912,-0.8687947672363416,0.8974582661670492,-0.012689936467519668,0.6649925144720641,1.0918185718492315,0.08216687778594019,0.7729758784175739,0.953378218725802,0.0,0.0,0.0,0.0
0.028173937221495023,0.0633175424539922,0.7424052664495706,0.002407836505845633,-0.5249548216467478,-0.002421779063538571,0.8511232416867487,0.04787189808945106,-0.8650627521902072,1.0475621317292745,-0.02016738040072604,-0.8790779685016938,0.8961361550521632,-0.003689368561630574,0.6597677218054191,1.1045974582461309,0.07794430316566138,0.7779564170402649,0.9460715921168467,0.0,0.0,0.0,0.0
0.028661594296184305,0.06365350602384208,0.7429738301177921,0.0025051710502836714,-0.5251425460661494,-0.002488116630809751,0.8510069563198661,0.047090913076502004,-0.8647675951931688,1.0509170210456276,-0.01698616973545101,-0.8892795439333406,0.894553062062642,0.004811070828166472,0.6543694084684135,1.1173297615274738,0.07378995139989987,0.7821641235782274,0.9388954348035893,0.0,0.0,0.0,0.0
0.028957246445653534,0.06400541155323754,0.7435568773955704,0.002590332625283511,-0.5253067493253535,-0.0025419112228743466,0.8509051932956195,0.0462241860355773,-0.863818418913161,1.0528444178412513,-0.013687542914327049,-0.8994316259033548,0.8925984538472423,0.013025036731733568,0.6487250893989222,1.1300309948008989,0.06957538739886387,0.7857660911183946,0.9317704990312654,0.0,0.0,0.0,0.0
0.02911383270833296,0.06438230934212986,0.7441453900380635,0.0026652372599879357,-0.5254520530129343,-0.0025856381668609473,0.850815109744832,0.04526001826451273,-0.8624583934520426,1.0538058903656817,-0.010289079876261185,-0.909578520405969,0.8902277094977309,0.021055370183689484,0.6428400161860819,1.1427223378447635,0.06523668266540496,0.7889039374782387,0.9246723627716829,0.0,0.0,0.0,0.0
0.0291749428073386,0.06478935320500323,0.7447289002603223,0.002731119808706074,-0.525582673147294,-0.0026208988430940112,0.850734109790591,0.044193937886477484,-0.8608892534238312,1.054173764072758,-0.006826140674755595,-0.9197649504149398,0.8874243385585312,0.028954484626187483,0.6367674462771981,1.1554136140560476,0.06074778309327004,0.7916853982978774,0.917617430826225,0.0,0.0,0.0,0.0
0.029174495049529892,0.06522981698121985,0.7452955613417409,0.0027887535729720584,-0.5257018972902552,-0.0026484116839627057,0.8506601694886669,0.04302327351505052,-0.859278940663329,1.0542410574898424,-0.0033271982467110023,-0.930011332203859,0.8841843601936722,0.036753418341744726,0.6305941790315822,1.1680804852697406,0.056100709055818904,0.7941778934753316,0.9106580702523805,0.0,0.0,0.0,0.0
0.02913651192052073,0.06570732948726303,0.7458307796666688,0.0028383252428201503,-0.5258116024775294,-0.00266780935093598,0.8505921381032718,0.04174099863447854,-0.857774327441092,1.054233512639632,0.00019765017940325848,-0.9402595455398166,0.8805272905958649,0.04447040150828772,0.6244315623354751,1.1806241882112227,0.051289235299216064,0.7963973798232878,0.903890012663431,0.0,0.0,0.0,0.0
0.02907378864647513,0.06622790711262944,0.7463146545175735,0.0028791288518931262,-0.5259118344584726,-0.0026774796221873693,0.8505300018790937,0.04033035080365443,-0.8565119753569842,1.054312244316392,0.0037562880609475153,-0.9502785488719349,0.8765412347473085,0.052099449511264384,0.618407095675595,1.192796161396821,0.04629622911073569,0.7982885523233284,0.8974738945607166,0.0,0.0,0.0,0.0
0.02898480675724977,0.06680113647116287,0.7467187552998137,0.002909076955346384,-0.5260006390855974,-0.0026745223688599083,0.8504749919209321,0.03876199005354135,-0.855620086151357,1.0545579405913375,0.0073600543538831255,-0.9595376920481036,0.872467362963936,0.05957155015853443,0.6126645819033956,1.2040640032279637,0.04108957054390464,0.7996974705015426,0.8916700042626261,0.0,0.0,0.0,0.0
0.028849871867125336,0.06743946916789498,0.7470037900412517,0.0029238709868323076,-0.5260745764226479,-0.002654598723165727,0.8504292705015526,0.03699585766901079,-0.8552065747895049,1.0549372272015418,0.010993610255764879,-0.967100308713467,0.8688105998942933,0.06668016764562784,0.6074103942114955,1.2133931273703624,0.0356387740492238,0.8003510206079815,0.8868736571151175,0.0,0.0,0.0,0.0
0.028631440126300645,0.06815466343117056,0.7471227604105578,0.0029158380383300657,-0.5261304603585566,-0.0026112536897747573,0.8503948600065707,0.03498922201955777,-0.8553343376747697,1.0552801367976319,0.014581507836263285,-0.9716731298349135,0.8664095691302839,0.07298890413109026,0.6030936792192064,1.2189330849570907,0.02996351587258282,0.7998877762337679,0.8835995222231848,0.0,0.0,0.0,0.0
0.02829063802169674,0.06895330231118453,0.7470404897229955,0.002874688376956475,-0.5261692527441719,-0.0025369513193025236,0.8503712233556463,0.0327104919970614,-0.8559903340898045,1.0553497466347856,0.018001865230185796,-0.9720655119233959,0.8662835619145401,0.07785685824375459,0.600784689670172,1.2177889119443668,0.024159244010424248,0.7980278127723258,0.882272168161156,0.0,0.0,0.0,0.0
0.027813371620090687,0.0698474978343795,0.7467533808170748,0.0027979479886937894,-0.5261918349096532,-0.0024297524998021756,0.8503578191939288,0.030123068626913673,-0.8571500219476246,1.0550671138283796,0.021203692634450773,-0.9682726116755177,0.8684005684123302,0.0812359996882988,0.6005061825236712,1.2099914739290036,0.018168323595526753,0.794706307375394,0.8829136921550432,0.0,0.0,0.0,0.0
0.027211137834278795,0.07085593583348367,0.7462902107584635,0.0026916064169710207,-0.5261982548956786,-0.002293784773056972,0.8503545674311707,0.027183331103440966,-0.8587825810678836,1.0545223186265134,0.024228060763413793,-0.961482631784594,0.8717013344632714,0.0836895043240336,0.60121846232151,1.198478431855294,0.01176812419016284,0.7900800871450657,0.8851213527068275,0.0,0.0,0.0,0.0
0.026494397754595722,0.07199319646411352,0.7456935931893206,0.0025599391884742226,-0.5261917641300449,-0.0021327392599940704,0.8503594096006178,0.023857263108475267,-0.8607801789862014,1.053743385143074,0.027096278880541676,-0.9529803630219369,0.875311997953722,0.08559622323907673,0.6024741193428647,1.1851247732067212,0.0047971201576823925,0.7843998803514698,0.8883639853685547,0.0,0.0,0.0,0.0
0.025655702952450527,0.07327267188796434,0.7449999130965315,0.0024046070570546835,-0.5261753409839005,-0.001948978634831957,0.85037046626024,0.02011202683880139,-0.8629819863594952,1.0526155431802493,0.029783298672963896,-0.9436902659527906,0.8786886599178877,0.08711372568249269,0.6040512134298904,1.1709738146098883,-0.0028546901259462925,0.777837746966514,0.8922085460798735,0.0,0.0,0.0,0.0
0.024670415642818896,0.07470815894720319,0.7442350446339747,0.002226031851031807,-0.5261503043921526,-0.0017446562035837011,0.8503868873312751,0.015914992973371067,-0.8651970069375232,1.0509012489966782,0.032244920793359055,-0.9341387298761216,0.8815574193838335,0.0882709507889115,0.6057865241991262,1.1565528142439931,-0.011273436479622638,0.7704570077008872,0.8963536163489096,0.0,0.0,0.0,0.0
0.023502704533657506,0.07631231520556324,0.7434159185115061,0.00202467816906304,-0.5261161850730037,-0.0015223327972575024,0.8504089269200994,0.01123956670976229,-0.8672159829208885,1.0482776268185485,0.03444953019910274,-0.9245697277909568,0.8838160644508823,0.08905526794741071,0.6075375662269981,1.1420916982055809,-0.02051742045466643,0.7622405202114222,0.9006039467432271,0.0,0.0,0.0,0.0
0.02211171368746156,0.07809278816216064,0.7425535900513334,0.0018020967229758988,-0.5260713906502058,-0.0012854021683721822,0.8504375298209887,0.006076591181359998,-0.8688102807602677,1.0443613503254094,0.0364004717984754,-0.9150786846706178,0.8854620126557597,0.08947150620704958,0.6091846692929134,1.127654453642929,-0.030593843110807827,0.7531319893119858,0.9048393984144455,0.0,0.0,0.0,0.0
0.020457127514878853,0.0800469443250861,0.7416563449321472,0.0015618614541302867,-0.5260142994524605,-0.0010385511178117436,0.8504736555425518,0.00044946363228309805,-0.8697234876998348,1.0387221895588405,0.03815082194851575,-0.9057141688640836,0.8865622941139679,0.08958342431291877,0.6106345132306341,1.1132083572361304,-0.041430072283075645,0.7430754169682255,0.9089923959741497,0.0,0.0,0.0,0.0
0.01850517085623425,0.08215598221447803,0.740732417289871,0.0013105916958203534,-0.5259446368592013,-0.0007884408190163149,0.8505174305500885,-0.0055688297101312186,-0.8696643529813004,1.0308986962308773,0.039813870551406116,-0.8965393457989552,0.887263596570968,0.08955576841257645,0.6118140749569011,1.0986545200796944,-0.05285191893147493,0.732050219780514,0.9130345472419874,0.0,0.0,0.0,0.0
0.016236788211068165,0.08437933206156457,0.7397919932174337,0.0010593294067402842,-0.525865222953812,-0.0005449570366539945,0.8505670744454983,-0.01183876459327416,-0.8683116222406029,1.020435030887582,0.04156589207432882,-0.8876604760453911,0.8878389738585895,0.08972069934499628,0.6126546811153613,1.0838379423880005,-0.06458289750876689,0.7201022782398647,0.9169709654760132,0.0,0.0,0.0,0.0
0.013660195576609052,0.08665058819905222,0.738847355775469,0.0008257356515312215,-0.525784373349723,-0.00032376690444787203,0.8506174263891284,-0.018139711622343166,-0.8653459344915122,1.0069642992310386,0.04362685672523479,-0.8792341963289224,0.8887720231437426,0.0907042680056501,0.6130700846501451,1.0685513529323614,-0.07628184898891675,0.7073675834643842,0.9208472971289222,0.0,0.0,0.0,0.0
0.010830269258751028,0.08887645041962883,0.7379074241427328,0.0006382123345438851,-0.525719163086336,-0.00015241405932851283,0.8506579400786035,-0.024157263436957538,-0.8605336164448559,0.990372639569406,0.04619651075823375,-0.8714727344783384,0.8908748503944711,0.093653739904424,0.6129384286857366,1.0525522938251868,-0.08764617997015761,0.6940682729393877,0.924796705667519,0.0,0.0,0.0,0.0
0.007875303283871201,0.09094160360107832,0.7369542768130699,0.0005508639310480112,-0.525694374588188,-0.00011290564771736197,0.8506733264465143,-0.029396705361010717,-0.8538916270053376,0.9710792280249534,0.04943487405127466,-0.8647602876840477,0.8954306503475044,0.10034085977978764,0.6121711494942321,1.0356702278059131,-0.09884535810399697,0.6803092810485093,0.9291847040082227,0.0,0.0,0.0,0.0
0.005125007252722226,0.09281286310565366,0.7359002809750049,0.0006155131107686697,-0.525720892960015,-0.00022529369326011004,0.8506568715361598,-0.03377454193490935,-0.8470376604771068,0.9519563625960046,0.053939426365353704,-0.8595324229751112,0.9034492372239835,0.11445781197965713,0.6111861656158557,1.017437409763577,-0.11033221986440829,0.6664677461426189,0.9345837123278402,0.0,0.0,0.0,0.0
0.003052578756155209,0.09434505994649506,0.7347198867025253,0.0009024927336141604,-0.5258884853827879,-0.000600643354012343,0.8505528353231352,-0.036703074515447784,-0.8414230567616884,0.9365501273702302,0.05936882349892027,-0.8578682010436495,0.9172817634763938,0.13926510833401656,0.609975915971228,0.9979823996961016,-0.12270904866959881,0.6535115045490217,0.9414001819585844,0.0,0.0,0.0,0.0
0.002019515832523156,0.09525249086823863,0.7335701613294712,0.001383837427440402,-0.5263478569900015,-0.001228482733149071,0.8502673163577333,-0.03749918989472426,-0.8371840024599245,0.9268232038922724,0.06543859767505478,-0.8638101072705775,0.9401250927303499,0.17188256749981123,0.609626967360383,0.9785966034491264,-0.13450872409367548,0.6435333493209446,0.9493945880679865,0.0,0.0,0.0,0.0
0.001981427743159076,0.09539633768915484,0.7335068654971436,0.0012571277050757545,-0.5263858257832591,-0.0012487897831847642,0.8502439782606442,-0.03770735730461421,-0.8372508930148765,0.9266890365302399,0.06544831325864099,-0.8638231413096443,0.9401353176176036,0.1719016675533341,0.6096443372134122,0.9785983136845383,-0.1345267495909247,0.64343036477442,0.9493263872932907,0.0,0.0,0.0,0.0
0.001981427743159076,0.09539633768915484,0.7335068654971436,0.0012571277050757545,-0.5263858257832591,-0.0012487897831847642,0.8502439782606442,-0.03770735730461421,-0.8372508930148765,0.9266890365302399,0.06544831325864099,-0.8638231413096443,0.9401353176176036,0.1719016675533341,0.6096443372134122,0.9785983136845383,-0.1345267495909247,0.64343036477442,0.9493263872932907,0.0,0.0,0.0,0.0
0.0017813174297845386,0.0961978619711898,0.7332601156762564,0.001270748494485489,-0.525869192619632,-0.0013354544535164133,0.8505634567821748,-0.039556089536511574,-0.8415615498121264,0.930368507773301,0.06368368045198713,-0.8652373313259152,0.9390287999384631,0.16581674673443833,0.607118517426348,0.983419431747175,-0.13916491600685985,0.6402316372602677,0.9473113284698305,0.0,0.0,0.0,0.0
0.0021182022679653856,0.09736604051663628,0.732948231658177,0.0011645698591676908,-0.5256094441959961,-0.001288910575574204,0.8507242177454144,-0.04268026528123619,-0.8484304147393147,0.9394473940533826,0.06070871838621703,-0.8670374241333477,0.9404508706601828,0.15985576858253053,0.6057571496342711,0.9900685613797285,-0.14528431351877305,0.6391458888557575,0.9446646274946402,0.0,0.0,0.0,0.0
0.003143883011100225,0.09879560990224426,0.7327446295111981,0.0009184915268474457,-0.5256964096100822,-0.0011115005629483282,0.8506710326929454,-0.046806353642980435,-0.8572505129278375,0.9541679097024588,0.05679677243992621,-0.8690802166706528,0.945423822942325,0.1547881180924114,0.6070691916164905,0.9965694956145001,-0.1523879436732277,0.6416806805496005,0.9401876772089012,0.0,0.0,0.0,0.0
0.00495489026485821,0.10067763379490634,0.7328641229433772,0.00047146042653613783,-0.5261030088083039,-0.0007119435102077821,0.8504204224878152,-0.05266389407490792,-0.8684199666591482,0.9757994635761804,0.05122584502429761,-0.8707224998191756,0.9539557988933753,0.15016868343534573,0.6121491566239455,1.001431825740808,-0.16087363378301275,0.6494428068322352,0.9309494471768828,0.0,0.0,0.0,0.0
0.007848082599790859,0.103449711145805,0.7343689087641905,-0.0003639927249610401,-0.5270229892564445,0.00024553034663759996,0.8498509139957117,-0.062183800279500455,-0.8801334596869985,1.0060341525217953,0.04197541309868194,-0.8673307344102489,0.9645424823908619,0.1462866512647713,0.626612670771236,0.996402349133416,-0.17069477984002782,0.6703550616595547,0.9053392945653744,0.0,0.0,0.0,0.0
0.010051503286185183,0.10590411523819565,0.7363660677487603,-0.00013837160519065628,-0.5260887570002384,-9.095921789602892e-05,0.8504296516100927,-0.05670534778076597,-0.8618716157202843,0.9639217779517131,0.03660121986819637,-0.8731047395744167,0.9805681781662154,0.1271219382083683,0.6427417698724096,0.9843945581980031,-0.1375153165277045,0.6557849227530274,0.9488059785235844,0.0,0.0,0.0,0.0
0.012589533926943997,0.10840770448588802,0.7381863080400375,-0.0001696917276249127,-0.5256597913717397,-8.532983313012692e-05,0.850694861662251,-0.05173079524744448,-0.8551714525565283,0.9380997273917346,0.03022714914795383,-0.8768506587938215,0.9959279107096409,0.1116049584501371,0.6589816144833167,0.9737138926295855,-0.11137500130670665,0.6484521281998853,0.981853841223417,0.0,0.0,0.0,0.0
0.015193034243937222,0.11084873686583943,0.7397693201429326,-0.00040386461616173316,-0.5255832353026844,0.00013595727204704909,0.8507420767646061,-0.047488911741565075,-0.8559236963982595,0.9238191694596353,0.023477987588900726,-0.8787778162905936,1.0095092609605465,0.09903397674981926,0.6744000628343636,0.9647752254660463,-0.0961982954378468,0.6444788582422138,1.0069344778181772,0.0,0.0,0.0,0.0
0.017632108080226118,0.11317106841110426,0.7411609108789211,-0.0007111233824638509,-0.5256412331265768,0.0004327375334854711,0.850705942778663,-0.04400798811354561,-0.8607046640499414,0.9159563552268535,0.016830449682722688,-0.8794634296360361,1.0208771071047538,0.08783384256094101,0.6886047896209813,0.9571224559585646,-0.08840808146247088,0.6418622697665393,1.0270456711745464,0.0,0.0,0.0,0.0
0.01978681118212784,0.11535158002263822,0.7424048488818052,-0.0010159308383618818,-0.5257254374545473,0.0007292388029495678,0.8506533962246462,-0.04117587524652581,-0.8675928816709931,0.9114978545094329,0.010522584674305882,-0.8791987567270418,1.0298580662091756,0.07712299361752453,0.7014609004428959,0.9504283398554564,-0.08463821226245112,0.6397280214475912,1.0441917021188372,0.0,0.0,0.0,0.0
0.02161841099157768,0.11738000136590182,0.7435354424882968,-0.0012873706314540808,-0.5257957512510493,0.0009942103900604322,0.8506093005539631,-0.03877381438704032,-0.8755644113044478,0.9087159473221008,0.004659721277804798,-0.8781400427448534,1.0365217116843923,0.06658839065226266,0.7129889135600717,0.9444557579972599,-0.0828196186334763,0.6376650830596541,1.0596349344393006,0.0,0.0,0.0,0.0
0.023138295267422785,0.11925322552542443,0.7445790815815991,-0.0015178861672039054,-0.5258435141411593,0.001219917498271674,0.8505791006476453,-0.036563714183758395,-0.8840891702300858,0.9066242047744099,-0.00072381992139993,-0.8764149975051719,1.041120784176395,0.05622103479670694,0.7233025160183215,0.9390059759894911,-0.08184536103296947,0.6354853475542848,1.074157668445463,0.0,0.0,0.0,0.0
0.02438419899878019,0.12097383210041372,0.7455553163336102,-0.0017102059796531748,-0.5258723187967219,0.0014092674356907873,0.8505606348075138,-0.03435080569916149,-0.8929007179791695,0.904669027307685,-0.00563360784306917,-0.8741539867672883,1.0440049263155793,0.04613236431893237,0.7325600797863081,0.9339126086468394,-0.08114773101744358,0.6331254373628066,1.0882404416558038,0.0,0.0,0.0,0.0
0.025403897163742143,0.1225492009564025,0.7464774878565971,-0.001868563667184662,-0.5258855981050058,0.0015678077848263455,0.8505518139151265,-0.032000953564219815,-0.9018812479040512,0.9025445500199646,-0.01009671600176189,-0.8715144706506005,1.0455685969359019,0.03642481960010653,0.740926158566766,0.9290469990011745,-0.08043377856412742,0.6305753745980706,1.1021744942059808,0.0,0.0,0.0,0.0
0.026247941486556445,0.12398881381374897,0.7473537413364871,-0.0020015292074273636,-0.525892690385358,0.0017040291829012414,0.8505468642965098,-0.02944354974065165,-0.9109765091659309,0.9000973599045344,-0.01415325266258453,-0.8686185229959204,1.0461701076551386,0.0272284991351159,0.7485613103370192,0.9243248317781947,-0.07955514199438048,0.6279038465689102,1.1161347954024965,0.0,0.0,0.0,0.0
0.02696246459824356,0.12530358567167077,0.7481874226781771,-0.0021154868242324776,-0.5258982810650285,0.001824899610998404,0.8505428810058635,-0.026650817994000042,-0.9201736267585358,0.8972461710095146,-0.017846184994395584,-0.8656023187753588,1.046145826603493,0.01861784211298338,0.7555963114360271,0.9197034290385718,-0.07843772178663802,0.625192941889525,1.1302101461903529,0.0,0.0,0.0,0.0
0.02758677502057922,0.1265040831966474,0.7489770059045764,-0.0022159698976578083,-0.5259046037059109,0.0019364022073436811,0.8505384692210182,-0.023629008253028064,-0.929453784012375,0.8939532478969499,-0.02121684509841624,-0.8625988336374873,1.0457882853557652,0.010639921615072708,0.7621214131351883,0.9151871087554379,-0.07704785401938327,0.6225453774963834,1.1444112638545232,0.0,0.0,0.0,0.0
0.028151914611645644,0.12759961975264528,0.7497149784483405,-0.002306612875182322,-0.5259138308054898,0.0020411288071471964,0.8505322779869857,-0.020403864628408524,-0.9387233925016997,0.89023436274927,-0.0242962473398613,-0.8597320875087591,1.04533425396997,0.0032983632193213782,0.7681877681875074,0.910847756361554,-0.07539201901645719,0.6200834974707304,1.1586508856835538,0.0,0.0,0.0,0.0
0.028677979730070687,0.12859632576655253,0.7503860704643254,-0.0023909506011883675,-0.5259266124273387,0.002141442034877948,0.8505238949741141,-0.017019967383671623,-0.9477217314106333,0.886189753809269,-0.027107063286756113,-0.8571183962843701,1.044955661709695,-0.0033923386458975663,0.7737694852729201,0.9068360588779982,-0.07346941945671591,0.6179427069491229,1.1726773597228413,0.0,0.0,0.0,0.0
0.029169616022436066,0.12949772089244505,0.7509647984420419,-0.002470226421086911,-0.5259401654868905,0.0022377710179844767,0.8505150396612172,-0.013527635775672984,-0.9559027259608228,0.8820750140311058,-0.029661753730372515,-0.8548717341059614,1.0447389158805809,-0.009435655294342878,0.778737592731921,0.9034171386106571,-0.07122599786037938,0.616258757398589,1.1859431466305337,0.0,0.0,0.0,0.0
0.029611549316340385,0.13030739881270345,0.7514140837905005,-0.0025399146238502244,-0.5259491622864658,0.0023244769562885846,0.8505090383592334,-0.009957648176063264,-0.9623353674318299,0.8783956073700006,-0.03196045237509434,-0.853091151672434,1.0446454375497842,-0.014930334779380947,0.7828592656326364,0.901010558393732,-0.06849380928763883,0.6152073685242736,1.1973900472380172,0.0,0.0,0.0,0.0
0.02996832034144183,0.13103102459054988,0.7516897450074518,-0.002589665686097061,-0.5259418703305776,0.0023927538321195214,0.8505132082418868,-0.006308176332573799,-0.9657682965157414,0.8759283028441567,-0.03400385685356884,-0.8518583109606739,1.0445132164753075,-0.020062629524790904,0.7858015483415344,0.9001432590134293,-0.06486974432052396,0.6151650353439002,1.2051455114413114,0.0,0.0,0.0,0.0
0.030202132560672883,0.13167767664595406,0.7517606870868498,-0.0026077654052186197,-0.525906574654337,0.002435495135926461,0.8505348568156255,-0.0025603596138733466,-0.9650566437833461,0.8755415434487254,-0.035805963730475794,-0.8511936860954674,1.0441287924025044,-0.025042142348585993,0.7872914246233678,0.9012238932844988,-0.059734992439945386,0.6170953328778386,1.2063170143327218,0.0,0.0,0.0,0.0
0.03030232783389827,0.13224853334620404,0.751627965605302,-0.0025949811634976695,-0.5258438728221846,0.0024526549644636264,0.8505736134937132,0.0012545517237326914,-0.9601885582433243,0.8771990262554925,-0.03736885844418653,-0.8510455770866929,1.043398494151991,-0.029861580758107874,0.7872985833649646,0.9042666466550872,-0.05312272827814316,0.6209376049438983,1.2008778454946216,0.0,0.0,0.0,0.0
0.030285760538377195,0.13273905765406332,0.751325357044498,-0.0025644453659792667,-0.5257653868966361,0.0024513274662221083,0.8506222266994019,0.005052344887397922,-0.9522994303772839,0.879989728262115,-0.03868871806996685,-0.8512900239150735,1.0423469996354122,-0.034313239560589195,0.7860386734076552,0.9088884540750956,-0.04569212287125079,0.6256378460550113,1.1916644124135956,0.0,0.0,0.0,0.0
0.030166759888968442,0.13315301649021283,0.7509017662485656,-0.002525854704847498,-0.5256830341036057,0.0024370141662686034,0.8506732796294889,0.00877647853797112,-0.942628676432928,0.883115653556211,-0.039779893631869484,-0.8517263808901783,1.0409254357821198,-0.03829530070150321,0.7838165665589587,0.914587438279183,-0.0378881392101776,0.6307625350134056,1.1805003177593425,0.0,0.0,0.0,0.0
0.029937469236273974,0.13350028607068587,0.7504023486461281,-0.002482744038595964,-0.5256002037972891,0.0024122721176102935,0.850724657391284,0.012408462829711475,-0.9320915665644008,0.8860456883336751,-0.04066796134817231,-0.8521171902214726,1.0389326413334332,-0.0418223077191495,0.7808414000640003,0.9209506091013016,-0.029922371650551973,0.6360894057648463,1.168398807508054,0.0,0.0,0.0,0.0
0.02956701055440326,0.13379454038684624,0.7498643066299645,-0.002434460462000512,-0.5255134022580289,0.0023774001001416662,0.8507785172524127,0.015941615328109462,-0.9212264273019796,0.8884875657495132,-0.041384215114956734,-0.8521901790390912,1.036010469425762,-0.044982943876105366,0.777197516168094,0.9276918077069354,-0.02187693476644216,0.6414356342376965,1.1558625492451582,0.0,0.0,0.0,0.0
0.029006710649238644,0.13405413148245046,0.7493177614361578,-0.002375133975659831,-0.525415834811394,0.00232671080107143,0.8508390833082903,0.01936901106757833,-0.9102889959004923,0.8903145954955636,-0.04195869112826088,-0.8516413395053922,1.0316675989821686,-0.047988166414935515,0.7728927534306561,0.9346437952491597,-0.013804832900464043,0.6466175545452807,1.1431014102115575,0.0,0.0,0.0,0.0
0.028195653191784523,0.13430161589313425,0.748787713236283,-0.0022963449261299107,-0.525295513111779,0.0022526476967005345,0.8509137889839179,0.022671651781578643,-0.8993836640539566,0.8914839164567475,-0.04242861065711997,-0.8501491153258718,1.0253201687277054,-0.0511087922430263,0.7678651331114815,0.9417142810438814,-0.00573778225667586,0.6514465894565867,1.1301674161763173,0.0,0.0,0.0,0.0
0.027066861706543415,0.13456412022333147,0.7482948153700174,-0.002187048612600182,-0.5251345476142203,0.0021463072947477324,0.8510136997048701,0.025830147387106654,-0.8885592267415815,0.8919924882529932,-0.04284128980274608,-0.8473949679834982,1.0163346498539967,-0.05466878974395157,0.7620053728635584,0.9488609611343631,0.00231824474811209,0.65572983127395,1.1170340416488616,0.0,0.0,0.0,0.0
0.025555876254741768,0.13487310152132756,0.7478534461294413,-0.0020320883880849236,-0.5249110142942519,0.001995362690977933,0.8511523460680197,0.028851146824184673,-0.8778559600569015,0.8918730581207951,-0.04324941426115655,-0.8430951655355479,1.0040859473019437,-0.05906475344216875,0.7551911398124104,0.9560928524539082,0.010395428558801234,0.6592800870140244,1.1036467421483998,0.0,0.0,0.0,0.0
0.02361416180935899,0.13526050967583875,0.7474666899338334,-0.0018121971881190284,-0.5246031385155525,0.0017833270612435824,0.8513431051847287,0.031798508214879666,-0.8673033895230515,0.8912125305877916,-0.043699736697415094,-0.8370547258305799,0.988059240810999,-0.06473094427680365,0.7473173878114296,0.9634835374060082,0.01859038249391838,0.6619497334240022,1.0899699019465872,0.0,0.0,0.0,0.0
0.021229316470097532,0.13574740923307224,0.747117184282326,-0.0015119037315740366,-0.5241925837105621,0.0014998633710181768,0.8515970876769249,0.03480073741069159,-0.8568936236068043,0.8901677214737613,-0.044227685454022336,-0.8292620604317167,0.9680353109737041,-0.07189502049766619,0.7382701527201609,0.9711789517966112,0.027163912342294812,0.6637142932146981,1.0760537592139012,0.0,0.0,0.0,0.0
0.01845693544181703,0.13633038847146134,0.7467532822180983,-0.0011279149750012206,-0.5236880812994624,0.0011425879658410033,0.8519085724450934,0.038050797390773036,-0.846490609738011,0.8890158806652362,-0.04482308952714439,-0.8199704096113147,0.9443256435387326,-0.08044228266078038,0.7280100249754875,0.9794841060844328,0.036606129956968006,0.6648997753533725,1.062156433547338,0.0,0.0,0.0,0.0
0.015460368432819659,0.13695857100966163,0.7462740168606996,-0.000686821776470228,-0.5231373240364166,0.0007331933456524225,0.8522478107354589,0.04172547672658912,-0.8357514372400799,0.8880501016505515,-0.04540782759405469,-0.8099032197406154,0.9182095889237958,-0.08958540426599047,0.7165852233556503,0.9889154217198104,0.04800924147742496,0.6665535711278848,1.0488724429763554,0.0,0.0,0.0,0.0
0.012554244322249242,0.13749971466150368,0.7455200950435079,-0.0002303958646040508,-0.5225472272391802,0.00029710893320299993,0.8526102591153075,0.04608068407781525,-0.8238672125049982,0.8864136828218995,-0.045722511337251734,-0.8011945200618577,0.8931568950816988,-0.09796585130631426,0.7040683385315303,1.0000596559872712,0.06401865895566039,0.6710105775611945,1.0366508563583263,0.0,0.0,0.0,0.0
0.010113168627689788,0.13788081120866844,0.7445458719078736,0.0001501695696415883,-0.5220091333036099,-8.445972019136894e-05,0.8529398777541534,0.05081500805454034,-0.8115060721194085,0.8834622592448248,-0.04576756543584368,-0.794994730375715,0.8724480388869763,-0.1042152077513083,0.6918396469299085,1.0118720664860543,0.08723192271310504,0.679423020477785,1.0262650458168767,0.0,0.0,0.0,0.0
0.008503053413632214,0.13808373969258614,0.7436860545840587,0.0003280977919925056,-0.5215995566726421,-0.00030405690618595785,0.8531903084190184,0.054592715136780025,-0.8011857427992114,0.8779304178493557,-0.045720226173982546,-0.7915704628279867,0.858971443863467,-0.10702211533560642,0.682407876030821,1.0210556974431202,0.11576918281954243,0.6902534044492107,1.0181870409912661,0.0,0.0,0.0,0.0
0.008499889005478505,0.1380544687430704,0.7436558707907132,0.00037743096116540887,-0.5215896160009103,-0.00031432633899281084,0.8531963614695302,0.05461567994715407,-0.8011935879284127,0.877940258366496,-0.04565011679644635,-0.7916262575638036,0.8588353830412899,-0.10702977693305592,0.6823418879762326,1.020997081871696,0.11577027424706739,0.6902862736617204,1.01819802440058,0.0,0.0,0.0,0.0
0.008499889005478505,0.1380544687430704,0.7436558707907132,0.00037743096116540887,-0.5215896160009103,-0.00031432633899281084,0.8531963614695302,0.05461567994715407,-0.8011935879284127,0.877940258366496,-0.04565011679644635,-0.7916262575638036,0.8588353830412899,-0.10702977693305592,0.6823418879762326,1.020997081871696,0.11577027424706739,0.6902862736617204,1.01819802440058,0.0,0.0,0.0,0.0
0.008499889005478505,0.1380544687430704,0.7436558707907132,0.00037743096116540887,-0.5215896160009103,-0.00031432633899281084,0.8531963614695302,0.05461567994715407,-0.8011935879284127,0.877940258366496,-0.04565011679644635,-0.7916262575638036,0.8588353830412899,-0.10702977693305592,0.6823418879762326,1.020997081871696,0.11577027424706739,0.6902862736617204,1.01819802440058,0.0,0.0,0.0,0.0
0.009099933940182124,0.13805538693511218,0.7436182996557569,0.00042043823125765905,-0.5218384000854702,-0.0003168809381876824,0.8530441999183872,0.0546347979583303,-0.8028572425780742,0.8824902677109507,-0.04571144413654476,-0.7933693760303919,0.8634311073891543,-0.10803652446736196,0.6849972771108686,1.02115082236321,0.11628797141877949,0.6928137948529517,1.0184180704848709,0.0,0.0,0.0,0.0
0.01025059911733814,0.13812769288619242,0.7435385857933722,0.00042047607462403403,-0.5221113643330906,-0.0003070240101786902,0.8528771612432628,0.054537102124373196,-0.80760280499827,0.8928056033786094,-0.04601363816225395,-0.7977603732385633,0.8732395622383229,-0.10972395548109656,0.6893062960461098,1.021426024090474,0.11715122475256988,0.6971089992560531,1.0182779358753085,0.0,0.0,0.0,0.0
0.011953847039537991,0.13828773545750803,0.7434537733557106,0.0003805531694759993,-0.5224245591090215,-0.00028044101416398165,0.8526853795931224,0.054262183367552216,-0.8151723426286142,0.9086409774768225,-0.04661050614325815,-0.8044214583608489,0.887834118778948,-0.1122510948756972,0.6955541253585735,1.0214840804101313,0.11827651327504173,0.7034275413835429,1.0173714614143996,0.0,0.0,0.0,0.0
0.014227647009655692,0.1385327001106383,0.7434651477049328,0.0003011360960036902,-0.5227966308636828,-0.0002361600356411753,0.8524573516036279,0.05380457123831465,-0.8250662289411244,0.9296284707795557,-0.04749748676909819,-0.8128649498450425,0.9068753106344696,-0.11567125818055467,0.7043885254276999,1.0203258505295025,0.11971942189015344,0.712401705343845,1.0147261742527762,0.0,0.0,0.0,0.0
0.01715489210986026,0.13884088416435553,0.7439396084341355,0.00018883292528555225,-0.5232734506134225,-0.00013022956114319624,0.8521647981848992,0.053072532622232785,-0.8360753854610912,0.9553952571923406,-0.04873423636603112,-0.8218884273191557,0.9301275269218222,-0.11960277860997807,0.7178419959496373,1.0144139003716002,0.12199237073535912,0.7263159987621252,1.0069876325642508,0.0,0.0,0.0,0.0
0.019662829266350025,0.1394720809683898,0.7444175575641303,0.0008685467745762646,-0.5235155884813032,-0.0009214599463353352,0.8520151554726844,0.05337871611079517,-0.8439704188118379,0.9767241916287455,-0.04376102539444902,-0.8227078467971027,0.91703934128685,-0.08632776108394305,0.7021205079279363,1.0283754079867866,0.10747576279446329,0.7338061289782862,0.9970893164071152,0.0,0.0,0.0,0.0
0.02209258484594052,0.1400429006547476,0.744986313258541,0.0014026664294081797,-0.5237985702708149,-0.001491399415661215,0.8518396950347648,0.053302777675575994,-0.8511525088049545,0.996780046721965,-0.03726221773515272,-0.8289481316419224,0.9081526475047156,-0.05827619454434682,0.6891749461684351,1.0410611297722985,0.09572815216521997,0.7424020552592424,0.9866305427642228,0.0,0.0,0.0,0.0
0.024250863112315345,0.1405222270351869,0.7455517414585925,0.0017523397445176588,-0.524094027429043,-0.0018310280217061837,0.8516566368290739,0.05291791962948153,-0.8572702589494203,1.0141751397277359,-0.03158656821880042,-0.8379353454332316,0.903053883480101,-0.03845730023588159,0.6799193905495048,1.053620981316402,0.08750343545673159,0.7511639481834786,0.9768455390735762,0.0,0.0,0.0,0.0
0.026034708352769345,0.14092246119077814,0.7460954832255102,0.0019869518431411466,-0.5243783770220728,-0.002039760075029745,0.8514805982011018,0.05241226922528085,-0.8619196903528332,1.0281674872577606,-0.02707872459449526,-0.847995870004386,0.9002088990248712,-0.024063034224891075,0.6730010696116621,1.066304488460107,0.081487244201382,0.7592012769174192,0.9679784685984613,0.0,0.0,0.0,0.0
0.02742399124623471,0.14126748389030755,0.7466320489140187,0.0021582107700104888,-0.5246392374575191,-0.002181307984606892,0.8513191261458546,0.05186368454092084,-0.8650032034166577,1.0387332030546912,-0.02339916581071924,-0.8583521874829596,0.8984910654511138,-0.012691040025712867,0.6672425984106743,1.0790501843615112,0.07665454977873772,0.7661728755128225,0.9598565186092616,0.0,0.0,0.0,0.0
0.02844844059776142,0.14158286990953925,0.747178022852006,0.0022943952059991937,-0.5248715792397738,-0.00228701105576274,0.8511752643477225,0.051276772412991944,-0.8666540822177495,1.046256655486274,-0.02011767554689053,-0.8687043205286287,0.8971702793120642,-0.0029114025840596847,0.6618963714073419,1.0917800222721703,0.07237885232820068,0.7720643843436019,0.9522192731936893,0.0,0.0,0.0,0.0
0.029162174020116585,0.14189144934665684,0.7477417840015075,0.0024091922244974923,-0.5250751298836966,-0.002370818350099436,0.8510491660243815,0.05062775291896228,-0.867124133498885,1.0512927831207002,-0.01692860199220984,-0.878969377718564,0.8958132029450068,0.006035722800419981,0.6565525294362289,1.1044571436201798,0.06830085456297647,0.7770059142116954,0.9448489501221516,0.0,0.0,0.0,0.0
0.029626835374518014,0.1422110630846026,0.7483232490872631,0.002508848204968201,-0.525252413851442,-0.0024389454890515598,0.8509392804241789,0.04989054121862427,-0.8667002309622449,1.0544219828940427,-0.013679097110513197,-0.889149923398739,0.8941881823151353,0.0145327419941372,0.6510174490279207,1.117081026954113,0.06422198469269354,0.7811707266303666,0.9376027211157019,0.0,0.0,0.0,0.0
0.029901692371798624,0.1425538699267014,0.7489167161380627,0.0025963088468783195,-0.5254073337389035,-0.0024946103283519745,0.8508432110283644,0.04904775031597712,-0.8656543979089939,1.0561730726491712,-0.010326587805110216,-0.8992792432246862,0.8921870319571868,0.022766549820227206,0.6452250094776556,1.129670753721714,0.06003950460276966,0.7847268259656455,0.9304064696565306,0.0,0.0,0.0,0.0
0.030038714059652916,0.14292694173901532,0.7495135972519683,0.0026732345943916774,-0.5255441830258709,-0.0025399073309378766,0.8507583172530396,0.04809229937735326,-0.8642212769949971,1.05699190125957,-0.0068860898364014565,-0.9094023167718905,0.8897667672886397,0.030828686702572126,0.6391833128055344,1.142248763882145,0.055707911427355365,0.7878166008993733,0.9232385887644481,0.0,0.0,0.0,0.0
0.030080763236248656,0.14333378827403995,0.7501038926468693,0.0027407777221679494,-0.5256669416013695,-0.0025762803479873215,0.8506821482930675,0.04702392773308013,-0.8625949446580047,1.0572379517315778,-0.0033901399810956578,-0.9195641794989171,0.8869120428352911,0.038767589607915584,0.6329468295599863,1.1548248136613044,0.05121387865709803,0.7905484284801976,0.9161167699979463,0.0,0.0,0.0,0.0
0.030061277315652522,0.14377641910086122,0.7506761749415196,0.002799714906154891,-0.5257787173419016,-0.002604414753455734,0.8506127902932925,0.04584342133916467,-0.8609373563421309,1.0571947835337834,0.00013539314352435227,-0.9297852950336463,0.8836196993041889,0.04661368348832959,0.6266029612679502,1.1673738447364128,0.046557617222689515,0.7929902068147189,0.9090937001597749,0.0,0.0,0.0,0.0
0.030004029410003605,0.1442575823426229,0.7512161778396467,0.0028502781396069596,-0.5258812447346499,-0.002623983475444983,0.8505491796842689,0.04454633528886181,-0.859391396838466,1.0570821640197352,0.003682389542782358,-0.9400074535258582,0.8799098204482226,0.05438608337439579,0.6202638457499756,1.1797962917620968,0.041737463377273264,0.7951582001194853,0.9022648149843333,0.0,0.0,0.0,0.0
0.029921785795813192,0.1447827739352171,0.751704214593081,0.0028918307345374024,-0.525974456603405,-0.0026334741396516993,0.8504913715786371,0.04311764764490855,-0.8580917168909671,1.0570586661341943,0.007259712527118269,-0.9499996173798857,0.8758708004708272,0.06208004306432062,0.6140589416394168,1.1918433766703695,0.036737932352440245,0.7969972487570495,0.8957900957232189,0.0,0.0,0.0,0.0
0.029813213374037806,0.145361362582487,0.7521119428356553,0.0029223660232710344,-0.5260563336615486,-0.0026301377510688424,0.85044063635671,0.041529043009737185,-0.8571665323002557,1.0572056222800033,0.010878347574252012,-0.9592315736666641,0.8717438026136841,0.06962661373542264,0.6081366476954576,1.2029840051277951,0.03152659810586633,0.7983535299274765,0.8899291974108258,0.0,0.0,0.0,0.0
0.029658989437107153,0.1460057699996261,0.7524000317758414,0.0029376409924522385,-0.5261234837585341,-0.002609790788079577,0.8503991057704761,0.0397409411083713,-0.856725114246453,1.0574926626816146,0.014521134724088919,-0.9667678364374339,0.8680336497733065,0.07681527731263643,0.602712575428604,1.2121876521262926,0.026072473274100325,0.798954416751135,0.8850775399532923,0.0,0.0,0.0,0.0
0.029422018546827074,0.14672773147481924,0.7525213665670356,0.0029299247725568865,-0.5261729932472461,-0.002566000500825543,0.8503686332170832,0.03771067379609296,-0.8568317024035538,1.0577531691385984,0.018109732957979182,-0.9713168027280524,0.8655793248342438,0.08319786305048313,0.5982513139665283,1.2176116266920345,0.020397316280781452,0.7984401294770722,0.881751439218748,0.0,0.0,0.0,0.0
0.02906369604445569,0.14753368627525082,0.7524407344274809,0.002888719247169205,-0.5262062585425163,-0.002491030499214908,0.8503484130277714,0.035406431071055094,-0.8574729789428432,1.0577511492471672,0.021519693539703354,-0.9716884576479876,0.8654005516538903,0.088115029168295,0.5958416573166382,1.2163704212184832,0.014601740930351301,0.7965335146312614,0.8803777276283313,0.0,0.0,0.0,0.0
0.028569939476816197,0.14843588759101853,0.7521545077176989,0.0028115868463759303,-0.5262241554283533,-0.0023830429139636245,0.8503379059700865,0.0327913708528373,-0.8586248742638193,1.0574085163237945,0.024700069993200513,-0.9678785357045016,0.8674649162832359,0.09151352774932615,0.5955092870879827,1.2084977824572796,0.00862648574193242,0.7931691816473729,0.8809780554763408,0.0,0.0,0.0,0.0
0.027951995163800297,0.14945341565317385,0.7516914617494078,0.002704815178352007,-0.526226288953709,-0.002246562402420942,0.8503373035132767,0.029821660160736816,-0.86025766503823,1.0568160026376598,0.027694471038072727,-0.9610754563822486,0.8707120253143907,0.09396605031151145,0.5962006917631885,1.196926115672686,0.0022417690529138966,0.7885006362264685,0.8831461799035051,0.0,0.0,0.0,0.0
0.02721986063689687,0.1506010076025361,0.7510943431592395,0.002572907728193211,-0.526215588603513,-0.0020855123037278813,0.8503447448505291,0.026463200578455092,-0.8622625238617937,1.0559992510896372,0.030527170928827715,-0.9525627625581102,0.8742670869120897,0.09585755081805544,0.5974556315496794,1.1835247611793618,-0.004716786172939432,0.7827768716097419,0.8863475030487706,0.0,0.0,0.0,0.0
0.026365647121866346,0.15189197056045226,0.7503996686659604,0.002417708928681106,-0.5261948808567286,-0.001902399151756666,0.850358443787781,0.022683409003023763,-0.8644766775543383,1.0548401105046044,0.03317545114357283,-0.9432638454243363,0.8775858637117193,0.09734710328271608,0.5990439975515967,1.169333365452985,-0.012357883390991637,0.7761696606132825,0.890146977865379,0.0,0.0,0.0,0.0
0.025364389143052928,0.1533398102963713,0.7496334115580648,0.0022398248994639266,-0.5261654167771972,-0.0016994909911898764,0.850377592074526,0.01845033440004104,-0.8667070456664963,1.0530978060043021,0.035596600670608845,-0.9337044953694057,0.8803941465128897,0.09846365911843773,0.6007982988606755,1.154876906076456,-0.02076348590837825,0.768742977867074,0.8942423933746174,0.0,0.0,0.0,0.0
0.0241800305481115,0.15495668340702795,0.748812581307527,0.002039918599391062,-0.5261266804422868,-0.0014794342880690993,0.8504024730285507,0.013738533250406706,-0.8687422769921684,1.0504464060352232,0.03775994335675718,-0.9241282383442259,0.8825891268524706,0.0991953370211542,0.6025742272777407,1.1403833801567727,-0.029985635263318287,0.7604809228778079,0.8984386690145605,0.0,0.0,0.0,0.0
0.022771547198053306,0.15674950394845588,0.7479483107898173,0.0018197414587228728,-0.5260770182976788,-0.0012456384755625948,0.850434070192884,0.008540464314126521,-0.8703515095026756,1.0464992997985647,0.039669605535659375,-0.9146296652193802,0.884167151329065,0.09954958523285426,0.6042516067098651,1.1259142894012821,-0.0400235710625712,0.7513287648979097,0.9026167979934321,0.0,0.0,0.0,0.0
0.02109846723297706,0.1587146790876272,0.7470489763936573,0.0015830647318461418,-0.5260146874682395,-0.0010027035557318047,0.8504734193726012,0.002881527733704106,-0.8712759676497538,1.0408225046278645,0.041379704638539974,-0.9052555231401063,0.885193349119364,0.0995953543024505,0.6057371252332162,1.1114330734586195,-0.05079587723741301,0.7412319502447945,0.9067113099792344,0.0,0.0,0.0,0.0
0.0191268514983192,0.16083229305391689,0.746122926930218,0.001336712752291363,-0.5259391639924055,-0.0007570835089534843,0.8505208026865351,-0.0031631247851121895,-0.8712222328684197,1.0329506005740714,0.04300528099217215,-0.8960654737344287,0.8858108911759733,0.09950647122421137,0.6069574440145498,1.0968347360548327,-0.062120341211424554,0.7301706288042888,0.9106966534776336,0.0,0.0,0.0,0.0
0.016837493949420718,0.1630606734155289,0.7451804906851757,0.0010919938609537322,-0.5258527808563026,-0.0005183562241111485,0.850574741996214,-0.009452047210904653,-0.8698678961263946,1.0224245299096846,0.04472563957448472,-0.88715988880671,0.8862860556243656,0.0996312764155689,0.6078417071506734,1.0819544673992225,-0.07371576123036913,0.7181899021287558,0.914580787055521,0.0,0.0,0.0,0.0
0.014238547004146944,0.16533260448966836,0.7442340874019994,0.0008670292933114405,-0.5257629615390895,-0.0003018648375469265,0.8506306280704159,-0.015763510699314053,-0.8668949394481256,1.0088768099004048,0.046765689695525914,-0.8786867425444835,0.8870891630736802,0.10062625337579653,0.6082963134152592,1.0665689603913369,-0.08524315430428042,0.7054222855199489,0.9184109984877856,0.0,0.0,0.0,0.0
0.011385034468425606,0.16755464259334676,0.7432925822906712,0.0006911261965550929,-0.5256852737548824,-0.00013498224124004927,0.8506788448537023,-0.02178346596749658,-0.8620758336599481,0.9921983354787066,0.049332314987253933,-0.8708476318494174,0.8890070216770556,0.10369728875053834,0.608180469984505,1.0504092857279557,-0.09641326173226036,0.6920816223937748,0.9223202767179381,0.0,0.0,0.0,0.0
0.008405843492682379,0.16961221879199787,0.7423371745958861,0.0006201594861074319,-0.525642963673141,-9.972124856127435e-05,0.850705048885218,-0.02701953793409277,-0.8554373043316309,0.9728174570605702,0.05259428846555768,-0.8640176199670537,0.8932832662332447,0.11073063172602775,0.6073658457381405,1.0332653551451716,-0.1074196388740066,0.6782584470281094,0.9266771611892517,0.0,0.0,0.0,0.0
0.0056430073000494916,0.1714795154724665,0.7412741076960526,0.0007084801172014731,-0.5256398742603469,-0.00021777351466757385,0.8507068667985386,-0.031403857859739266,-0.8487229785016674,0.9537792121413108,0.057099435248849605,-0.8585914401076438,0.9007938061114307,0.1255628842157018,0.6062419140842373,1.0146137472911316,-0.11880308587238196,0.6643004983923382,0.9320530400235632,0.0,0.0,0.0,0.0
0.003558259634601356,0.173008634721271,0.7400781498867844,0.0010279755820576243,-0.52576664224271,-0.000597453630696206,0.8506280175377413,-0.03434715541674705,-0.8433146908198004,0.938503633853551,0.06251410445219532,-0.8566943801745779,0.9138210172626628,0.15157161095306665,0.6047022896644968,0.9944951968030473,-0.13114731025037946,0.6511416035826271,0.9388827729060506,0.0,0.0,0.0,0.0
0.0025130013297807374,0.17391582318587226,0.7389063568958667,0.0015467826563316492,-0.5261778944738587,-0.0012208962384555665,0.8503722362841145,-0.035187146440862224,-0.839336521694293,0.9289358008102702,0.06848452696390289,-0.8623652686391433,0.9355408179723897,0.185504901452447,0.6039593654834293,0.9741940684009971,-0.14296561410276218,0.640892133053982,0.9469477909203974,0.0,0.0,0.0,0.0
0.002474693280612539,0.17405874894862,0.7388423557553282,0.0014224598982698817,-0.5262154734014537,-0.0012413662550801161,0.8503491701475003,-0.035394635152435926,-0.839404556229343,0.9288009288081404,0.06849448160229529,-0.8623779493220701,0.9355508625727385,0.18552496381520972,0.6039769372943727,0.9741958921996584,-0.1429830418920815,0.6407871832657593,0.9468779431143557,0.0,0.0,0.0,0.0
0.002474693280612539,0.17405874894862,0.7388423557553282,0.0014224598982698817,-0.5262154734014537,-0.0012413662550801161,0.8503491701475003,-0.035394635152435926,-0.839404556229343,0.9288009288081404,0.06849448160229529,-0.8623779493220701,0.9355508625727385,0.18552496381520972,0.6039769372943727,0.9741958921996584,-0.1429830418920815,0.6407871832657593,0.9468779431143557,0.0,0.0,0.0,0.0
0.0023112804311520843,0.17484638775575975,0.7385879630734856,0.0013714372613372924,-0.5257639345689088,-0.0012979726054751077,0.8506284262435472,-0.037246408029189125,-0.8436472375188611,0.932563004307649,0.06672191505553632,-0.863529598838093,0.9344022406628709,0.18024393028498947,0.6014455971475923,0.9791076702847168,-0.14701346303582608,0.6379939406437531,0.9451140299169265,0.0,0.0,0.0,0.0
0.0026851694978195476,0.1760227518762304,0.7382792193934276,0.0012337355840800891,-0.5255411548782273,-0.0012412117015910085,0.8507663791072608,-0.04039875895695405,-0.8505580265544062,0.9418769159010971,0.06372420262784455,-0.8652516704130917,0.9359543453046371,0.17468599704353707,0.6001275651609749,0.9858644047263738,-0.15297162286853938,0.6371925127452207,0.9424328489384652,0.0,0.0,0.0,0.0
0.0037389517265349523,0.1775217621819185,0.7380540917699038,0.000977489614575325,-0.5256341618246423,-0.001064771156531483,0.8507094913654974,-0.044696629510147176,-0.8597151929709893,0.957096324935725,0.05965763697542611,-0.8673758797065998,0.9410548491401893,0.16952042080771745,0.6012878713995078,0.992937981042463,-0.1604682303765517,0.6397191184516693,0.9378156763226763,0.0,0.0,0.0,0.0
0.005579660313805058,0.17950668699041705,0.7381675536589869,0.0005495014597568313,-0.5260119508103658,-0.0006916441662599452,0.8504767176596701,-0.05076746496219821,-0.8713722448156792,0.9794316534592209,0.05390466259985352,-0.8692947972873611,0.9498899073559798,0.16432034635298465,0.6062970419098745,0.9983610088133938,-0.16982908976345165,0.647383055949226,0.9280074076170899,0.0,0.0,0.0,0.0
0.008512574687827313,0.18241787189923295,0.7396952623544799,-0.00023166915888355724,-0.5268706835017651,0.00021481546169680474,0.8499454000405562,-0.06056490819232148,-0.8837039128650164,1.0106138781138867,0.04442552373974032,-0.8663710387431179,0.9610090070505443,0.15929263642282265,0.6208859009720916,0.993786014948164,-0.18106951282071493,0.6682252335663175,0.9012048681566234,0.0,0.0,0.0,0.0
0.010745916931855101,0.18499639829725362,0.7417467365461097,-4.4264139918818355e-05,-0.5260221087503002,-0.00012835126895440531,0.8504708829069488,-0.0552412836940869,-0.8643498801242058,0.9673146162871797,0.0387749362298658,-0.8713958432822105,0.976462413431613,0.13999090301765882,0.6374484757928505,0.9820753590536236,-0.14674065907521278,0.6539845040393459,0.9457036538022267,0.0,0.0,0.0,0.0
0.013324384022233661,0.18762474323484662,0.7436010959347173,-7.69120192065626e-05,-0.5256267276335924,-0.00014638021481751416,0.8507152965913891,-0.050447484562977096,-0.8570335960710375,0.9407848319530676,0.03215544881463433,-0.87488980655902,0.9917217457865094,0.12391936847946691,0.6540309258185455,0.971776126694095,-0.11963355112407706,0.6468805440875669,0.9794472709852795,0.0,0.0,0.0,0.0
0.01597159962067756,0.19018889220603108,0.7452072384450789,-0.00029710099525252244,-0.525551148939782,4.7648204144457186e-05,0.8507619521985702,-0.04637249930184559,-0.8574789299334942,0.9261078280552728,0.025166512439598908,-0.8768210471914238,1.0054243656221895,0.11060438924898346,0.6697109987938115,0.9632249730166469,-0.10392713845952677,0.6429446116648942,1.0048962884002464,0.0,0.0,0.0,0.0
0.01845626565035116,0.1926252949792054,0.7466178108760791,-0.0005921767903795527,-0.5256034776631978,0.0003224090100169407,0.8507294103576245,-0.04304931333994212,-0.8621097395813959,0.9180541216945729,0.018285963574331154,-0.877559487788097,1.0169589248611655,0.09869794492713965,0.6841454913906975,0.9559128919109726,-0.09596611675707882,0.6402848493896846,1.0251743007409626,0.0,0.0,0.0,0.0
0.020658623478081388,0.19490531928433008,0.7478780785253818,-0.0008918896391021183,-0.5256862672349552,0.0006049941911939576,0.8506778396993068,-0.040358497667603854,-0.8689267876781407,0.9135409957643913,0.011761616539583863,-0.8773301090025202,1.026105123829101,0.08742488059536309,0.6972180526392496,0.9494976067317406,-0.09223608488639728,0.6381134909062478,1.0423855911195745,0.0,0.0,0.0,0.0
0.022539211308828647,0.1970163428212606,0.7490218745835151,-0.0011642628573174602,-0.5257606253734157,0.0008628948082709027,0.8506313330177202,-0.038073487228807774,-0.8768702748912549,0.9107859593354369,0.0057089694908668,-0.8762919169841556,1.0329364890073949,0.07648764883099565,0.708949373071556,0.9437468046197773,-0.09055139019413626,0.6360499283507824,1.0578502629325166,0.0,0.0,0.0,0.0
0.024108034808446522,0.19895525254599233,0.7500751237894296,-0.0013994380301461035,-0.5258162532131514,0.0010863346742784762,0.8505963374639337,-0.03595387047599993,-0.885392179159832,0.9087627734902807,0.00016748233096283878,-0.874587525663795,1.0377142601064424,0.06585920490084336,0.7194479329195052,0.9384725456202464,-0.08973251649774587,0.6339071450975151,1.0723796733608597,0.0,0.0,0.0,0.0
0.025401329676531637,0.200726055014122,0.7510574293544439,-0.0015980037425163559,-0.5258546581824733,0.0012763467043360578,0.8505719815459027,-0.033805756731589164,-0.8942171195603309,0.9068926418686503,-0.0048678281334469786,-0.8723589571448259,1.0407917312709676,0.05562153724526594,0.7288678740008249,0.9335188548418437,-0.08917568990187526,0.6316101935043983,1.0864686385918156,0.0,0.0,0.0,0.0
0.026466080404822307,0.20233807676678003,0.7519828031183595,-0.0017645734971123636,-0.5258807608660365,0.0014381952625728356,0.85055525583334,-0.031500911080217214,-0.903215279674324,0.9048590594915344,-0.009427725737043273,-0.8697486252794348,1.0425465870277368,0.04587233269442555,0.7373758452316379,0.9287660152969183,-0.0885750400629932,0.6291529217070798,1.1004152940394594,0.0,0.0,0.0,0.0
0.027350825848116274,0.20380391580341958,0.7528602457852287,-0.0019049763782537895,-0.5258995462453186,0.0015783294993605454,0.850543089560992,-0.02897118095890284,-0.9123348694824084,0.9024943537309982,-0.013556502345758652,-0.8668942497030183,1.0433397990478104,0.03668820026995644,0.7451287015580627,0.9241341452456248,-0.0877765115682077,0.6265750348100948,1.1143926725455573,0.0,0.0,0.0,0.0
0.028100651898834848,0.20513740571028843,0.7536940439527612,-0.002024892781649124,-0.5259148896939396,0.0017027640114211644,0.8505330853071829,-0.026193561638806328,-0.9215599593849766,0.8997123428144136,-0.017302541516886757,-0.8639268165397647,1.0434963891853744,0.0281142818111019,0.7522596781808013,0.9195856882038602,-0.08670903009257724,0.6239492558194994,1.1284869504312565,0.0,0.0,0.0,0.0
0.028754564789264716,0.20635167104741486,0.7544834731515004,-0.0021294950836261146,-0.5259294079493537,0.001816551636750746,0.8505236171000087,-0.023177156868823278,-0.930867656002833,0.8964760802187671,-0.020711457857291376,-0.8609708011912479,1.0432978114440974,0.020172798630279917,0.758866060641188,0.9151300695969218,-0.08534990408451935,0.6213754335265393,1.1427077378285433,0.0,0.0,0.0,0.0
0.029343583269547387,0.2074576576751472,0.755221652033605,-0.0022230941273907487,-0.525944719329496,0.0019231871850776253,0.8505136750299607,-0.019953380857903404,-0.9401637309731027,0.8927995573274135,-0.02382041657417531,-0.8581459403549224,1.0429763119703694,0.012870007463780902,0.7649962706412601,0.9108374593160609,-0.08370490206009742,0.6189745648352746,1.1569665631074986,0.0,0.0,0.0,0.0
0.029888046129708152,0.2084632074674185,0.7558935427896755,-0.0023087428403248825,-0.5259611485905842,0.0020243414207559173,0.8505030522705859,-0.016568559600354346,-0.9491865834715796,0.8887842969493679,-0.026654944795885514,-0.8555690636588011,1.0427032673167593,0.006201513448856525,0.7706282566569446,0.9068625366230103,-0.08178024050083917,0.6168792279968621,1.1710108898443676,0.0,0.0,0.0,0.0
0.03039337341499326,0.20937323413362957,0.7564735347902033,-0.0023870860973384,-0.5259769273686655,0.0021191146845185582,0.8504928471473087,-0.013072139710953707,-0.9573867825568894,0.8846913483100622,-0.029227894963608222,-0.8533523847086278,1.042564436085345,0.00013977748529602364,0.775642994068392,0.903478720158582,-0.07953480519549633,0.6152285793392469,1.1842944534694464,0.0,0.0,0.0,0.0
0.03084526296667,0.21019134300026454,0.7569242247983862,-0.002454606802749911,-0.5259866879570014,0.002203278367398593,0.8504864046896362,-0.009497888325261,-0.9638337997513157,0.8810273624000643,-0.031542542366490796,-0.851596823500371,1.0425275612582179,-0.005394941669941054,0.7798028480188635,0.9011052233666109,-0.07679738565754624,0.6142048772599673,1.1957631601847298,0.0,0.0,0.0,0.0
0.03120955197961352,0.2109228356460598,0.757200933440442,-0.002502291525749289,-0.5259802029570683,0.0022693378499350045,0.8504901026702687,-0.005845786359291274,-0.9672740313966132,0.8785741290160921,-0.033601147762986325,-0.8503795987056987,1.0424328787893866,-0.010565579416666722,0.7827743186290105,0.9002715860971992,-0.07316439698744293,0.6141997933126007,1.203552338279365,0.0,0.0,0.0,0.0
0.03144933414433525,0.2115765841775623,0.7572721433177517,-0.002519467560775079,-0.5259477208021959,0.0023108883483021927,0.8505100276076862,-0.002098912261540807,-0.9665594588486706,0.8782060215780138,-0.03541816017087185,-0.8497131744408086,1.0420635865175711,-0.015567397673494448,0.7842870059289222,0.9013913745985231,-0.06801418950094767,0.6161936516576838,1.2047769626844087,0.0,0.0,0.0,0.0
0.031553715861265395,0.2121538766858021,0.7571387709641946,-0.0025063894323596857,-0.5258897238848682,0.0023271941762307274,0.8505458838249566,0.0017122992453688364,-0.9616788700305172,0.8798872572300876,-0.036994412448836965,-0.84954755340561,1.0413257520114492,-0.020404249491712156,0.784312319925783,0.9044815809270004,-0.06138383332420085,0.6201221996099131,1.199408502221802,0.0,0.0,0.0,0.0
0.03153843407215755,0.21265036154202352,0.7568349411822008,-0.002474215566038788,-0.5258160754840627,0.002323282760070208,0.850591520870675,0.005508466897015368,-0.9537696002633432,0.882702483216404,-0.038322474366244204,-0.8497685794267194,1.040247208878656,-0.02490205314231083,0.7830691353318951,0.9091573049221768,-0.05394502878882687,0.6249094858417116,1.1902733132501984,0.0,0.0,0.0,0.0
0.03141646253180276,0.21306881374273115,0.7564101967828927,-0.002432094746439629,-0.5257356650935124,0.0023050869089938954,0.8506413944419636,0.009232705606295117,-0.9440758410947673,0.8858432421171982,-0.03941580913440624,-0.8501869066273671,1.0387856134208553,-0.02894997926809385,0.7808508583884528,0.9149034891619638,-0.04613324346776353,0.6301011387293614,1.1791853861348565,0.0,0.0,0.0,0.0
0.0311794873356719,0.21341764988837572,0.7559098490895666,-0.0023831818094926325,-0.5256513497878105,0.002274970920065012,0.8506937189247542,0.012868883435587553,-0.9335142487579495,0.8887749752088698,-0.04029596948779053,-0.8505696762150112,1.0367439293091438,-0.03255476515428454,0.7778640947122002,0.9213013600321804,-0.03815432350351507,0.6354676365518984,1.1671540439027728,0.0,0.0,0.0,0.0
0.030797185419783144,0.21370865423906932,0.75537057234415,-0.002325947441157762,-0.5255608940228883,0.0022318287393912717,0.8507498783913174,0.016417387659876635,-0.9226223328910016,0.8912079725205371,-0.04098614717052014,-0.8506495161202561,1.0337720628028284,-0.03581018612353825,0.7742006831272514,0.9280673065865697,-0.03009214422339585,0.6408273797348414,1.1546831005119103,0.0,0.0,0.0,0.0
0.030222165435874013,0.21395655718244821,0.754821461045919,-0.002255617764672914,-0.5254579724626665,0.0021716999209680796,0.8508137957763594,0.01987414281503036,-0.911659089608265,0.8930135428429656,-0.04151098732568504,-0.8501322480844499,1.0293976366912794,-0.0388765976440071,0.769858968398965,0.9350294990130955,-0.021984803384190416,0.6460027638723991,1.1419857823036137,0.0,0.0,0.0,0.0
0.029395633712709254,0.2141798654847453,0.7542860091464813,-0.0021648916068947176,-0.5253322999421051,0.0020883982515266437,0.8508918418192829,0.023226013586881197,-0.9007305967058414,0.8941507723967722,-0.041900325904848906,-0.8487060267084128,1.0230593104951915,-0.04197529695554674,0.764772732000661,0.9420956046567598,-0.013855627398738343,0.6508174428965269,1.1291199068191118,0.0,0.0,0.0,0.0
0.02825336978033073,0.21440187492537546,0.7537830046846065,-0.002043800611037899,-0.5251695465479664,0.00197360608773545,0.8509928760786873,0.026462395683934253,-0.8898851982333473,0.8946256112238772,-0.04219264210621093,-0.8460566178899487,1.0141431346252738,-0.045393105548806614,0.7588381206625814,0.949230774819766,-0.005714050735948165,0.6550990967625071,1.116066713812124,0.0,0.0,0.0,0.0
0.026733586685674868,0.21465035369768584,0.7533251753212058,-0.001879594266362466,-0.5249515137700662,0.001817244428570015,0.851128117816934,0.029596241535082043,-0.8791642211550563,0.8944814540753958,-0.04243591842483075,-0.8418978906480672,1.0020385078537015,-0.049469974901661565,0.7519333168213851,0.9564491682350228,0.002467163710807475,0.6586852103913783,1.102778911629152,0.0,0.0,0.0,0.0
0.024789394889686553,0.21495467296805795,0.7529147427517161,-0.0016569883443053265,-0.5246592400634777,0.0016073342089566415,0.8513091992233971,0.03269104828659827,-0.8686033251169262,0.8938175982334651,-0.04268036836030066,-0.8360224123967925,0.9862325612236481,-0.05456640293528456,0.7439443772595291,0.9638247944658155,0.010780978794188531,0.6614509197750242,1.0892237319802283,0.0,0.0,0.0,0.0
0.022408339319910712,0.21533752087478045,0.7525350046939975,-0.0013627345878953817,-0.5242784377330048,0.001334699529331589,0.8515447617476425,0.03587325585858519,-0.8581990971558224,0.8928182047631644,-0.04296781678409991,-0.8283856768287119,0.9664766813087473,-0.06092083078720546,0.7347738687450146,0.971513614882013,0.01945213881612845,0.6633872239570744,1.0754447999438923,0.0,0.0,0.0,0.0
0.0196424238066984,0.21580155737634826,0.7521376192389001,-0.0009935953086940641,-0.5238147285460082,0.000997641136141013,0.8518310558078978,0.039320455166380636,-0.847836768822479,0.8917874009546142,-0.04330634310549432,-0.8192172700083206,0.9430418907914955,-0.0684785325989418,0.7243865946195063,0.9798139155359853,0.028925596227880372,0.6647882125508653,1.0616708786966342,0.0,0.0,0.0,0.0
0.016649033542310017,0.21630767850326763,0.7516275280406651,-0.0005711380789126542,-0.5233069873884694,0.0006138725750774608,0.8521438223164918,0.043187029887237986,-0.8372088364878841,0.891061837094648,-0.0436411171451191,-0.8092309937146015,0.9171608336731059,-0.0766093422562344,0.7128433599695229,0.9892226970202747,0.04017516822715149,0.6666097973706194,1.0484427927753392,0.0,0.0,0.0,0.0
0.013737500692483999,0.21673961033577488,0.7508517892845549,-0.00013099773962629076,-0.5227539705612255,0.00020422031957839963,0.8524835642967709,0.047689888160248654,-0.8255613231781025,0.889886304301928,-0.04374376192761201,-0.800539684728088,0.8922400657761305,-0.08412594107715318,0.7002325183424852,1.0003065801044324,0.05557416459987967,0.6710445376859393,1.036161536524673,0.0,0.0,0.0,0.0
0.011292702819175836,0.21703445575766064,0.7498627094198823,0.00024569576622985554,-0.5222360958878662,-0.00016090879653249624,0.8528008993274744,0.052529409007243455,-0.8135571019444419,0.8876917026596366,-0.04361802342315894,-0.794423481600858,0.8717090891068185,-0.08982823152174683,0.6879574804342977,1.0120379883453938,0.07747468739765623,0.6792420961507808,1.0255308337882458,0.0,0.0,0.0,0.0
0.00968683862159594,0.21719275176742067,0.7489957749062622,0.00043940808873393987,-0.5218363590248203,-0.0003837983668607048,0.8530454114635774,0.05634777287467102,-0.8037811077061946,0.88339577778575,-0.0434644754858946,-0.7911260478716773,0.858435212570899,-0.09262413739899367,0.6786006763819857,1.0211805656358022,0.10397852048917111,0.689751912320371,1.0170190278720368,0.0,0.0,0.0,0.0
0.009681944002746993,0.2171601266171113,0.7489652910594263,0.000490911267398551,-0.5218272425305016,-0.0003931950944833645,0.8530509558969841,0.05637082354295943,-0.8037897250804199,0.8834059532616203,-0.04339042537804622,-0.7911819006647441,0.8582983625995384,-0.09263099179935229,0.6785339777924256,1.0211216168335895,0.10397887259015556,0.6897848126586847,1.0170298968012816,0.0,0.0,0.0,0.0
0.009681944002746993,0.2171601266171113,0.7489652910594263,0.000490911267398551,-0.5218272425305016,-0.0003931950944833645,0.8530509558969841,0.05637082354295943,-0.8037897250804199,0.8834059532616203,-0.04339042537804622,-0.7911819006647441,0.8582983625995384,-0.09263099179935229,0.6785339777924256,1.0211216168335895,0.10397887259015556,0.6897848126586847,1.0170298968012816,0.0,0.0,0.0,0.0
0.009681944002746993,0.2171601266171113,0.7489652910594263,0.000490911267398551,-0.5218272425305016,-0.0003931950944833645,0.8530509558969841,0.05637082354295943,-0.8037897250804199,0.8834059532616203,-0.04339042537804622,-0.7911819006647441,0.8582983625995384,-0.09263099179935229,0.6785339777924256,1.0211216168335895,0.10397887259015556,0.6897848126586847,1.0170298968012816,0.0,0.0,0.0,0.0
0.010283052389040296,0.21716461733189682,0.7489260459856898,0.0005370658021051018,-0.5220764957613966,-0.0004028747511748044,0.8528984006467356,0.05639975450798537,-0.8054377094956283,0.8879380028269654,-0.04344253967292816,-0.7929447380004088,0.8629105616919573,-0.09363545368627993,0.6811797817354062,1.0213076529678393,0.10430786305839918,0.6922600330921097,1.0172323568493102,0.0,0.0,0.0,0.0
0.011436307911692808,0.21723807436338316,0.7488448828817016,0.0005377908636146722,-0.5223529918840518,-0.00039709857561447094,0.8527290923637401,0.0563132189457371,-0.8101411697857295,0.8981954924558202,-0.043732801876329,-0.7973479456679514,0.8727442488000546,-0.09519624386631366,0.6854581025654916,1.02160658440935,0.10498960557013753,0.6965201676645859,1.0170748459941508,0.0,0.0,0.0,0.0
