zhuoxili-jackie/tripod-support-walk/examples/trajectory_walking_sideways_sc_v0.10.csv
root_pos_x,root_pos_y,root_pos_z,root_rot_x,root_rot_y,root_rot_z,root_rot_w,FL_hip_joint,FL_thigh_joint,FL_calf_joint,FR_hip_joint,FR_thigh_joint,FR_calf_joint,RL_hip_joint,RL_thigh_joint,RL_calf_joint,RR_hip_joint,RR_thigh_joint,RR_calf_joint,FL_foot_joint,FR_foot_joint,RL_foot_joint,RR_foot_joint
0.0,0.0,0.72963,0.0,-0.5231245161092812,0.0,0.852256264656019,0.0,-0.81,0.872,0.0,-0.81,0.872,0.0,0.65,1.0,0.0,0.65,1.0,0.0,0.0,0.0,0.0
2.6698979260845245e-05,-0.00014182413818718747,0.7295910242853485,-0.00024202647968220962,-0.5231531321759438,0.0002074834304647042,0.8522386395067456,-4.961418709659e-05,-0.810431889539902,0.8722053721468807,-4.9614187096590184e-05,-0.8097520810680171,0.8721157551685818,0.003793238456166095,0.6490314069199353,0.9996402831078846,0.0037932384561660975,0.6508997898563439,1.0011416676601494,0.0,0.0,0.0,0.0
0.0004815201082180355,-0.0002534005000112548,0.7295059345689878,-0.0003938908097697539,-0.5232172068043932,0.0003409826419923835,0.8521992038747025,-3.2807667420323306e-05,-0.8129124439022959,0.876569414326886,-3.232142366326319e-05,-0.8119046352470015,0.8765896106397782,0.006349204952663194,0.6495232182823414,0.9995901731779838,0.006380879245934451,0.6526155196816618,1.0021953199644555,0.0,0.0,0.0,0.0
0.001403419090294349,-0.00026648159661759647,0.729389042599061,-0.00046866381613470736,-0.5233801581100029,0.0004033973986850815,0.8520990715412818,-0.00012141579180888654,-0.817382356196396,0.8853311308567964,-0.0001204954264004142,-0.8160191545959029,0.8850933939144651,0.007352505780221633,0.6518257334576316,1.0000372802406698,0.007409537073803885,0.6555077511586749,1.002889487795941,0.0,0.0,0.0,0.0
0.0028246379035963853,-0.00014314466151659662,0.729248203677286,-0.0004809634752392042,-0.5236520550718071,0.00040981296099602637,0.8519319960809932,-0.0004444282235492262,-0.8239934809374528,0.8988015283429283,-0.0004431886487617694,-0.8219833964750269,0.8975899295583712,0.006726941562029706,0.6560852448574274,1.0009777889768081,0.00678319929775659,0.6597909250217051,1.0029968512357499,0.0,0.0,0.0,0.0
0.004777827947879145,0.00013108367183208223,0.7291048689873709,-0.00041996576160011545,-0.5240616495317828,0.00035243461089691665,0.8516801552863792,-0.0010277640543699448,-0.832569711054951,0.9169346594744165,-0.0010262081834623463,-0.8296279506303288,0.914009140575406,0.004185131822579947,0.6626875156604973,1.0022368187134647,0.004213172743130765,0.6657084794860098,1.002223913980323,0.0,0.0,0.0,0.0
0.0072883481360397255,0.0005393292323084714,0.7290015698285766,-0.0002447628043677238,-0.5246682235957267,0.00019542636349057576,0.8513067349954484,-0.001761970321794284,-0.8424526990928561,0.9391608393780745,-0.0017600380513213489,-0.8386308412864377,0.9341454200064212,-0.0008142769482317215,0.6723324266382252,1.0034037514987306,-0.0008173855680624429,0.6735550382157587,1.0001858507639418,0.0,0.0,0.0,0.0
0.01035040494392444,0.0010075738633832697,0.7289903746645232,9.81389479625297e-05,-0.5255212972534763,-0.00011745066428597461,0.8507804315492404,-0.002342974305524368,-0.8526666948450664,0.9644056154493782,-0.0023408313104700644,-0.8487072032316842,0.9577526351280045,-0.008796381332966063,0.6857628467361162,1.003770646322862,-0.008752883240182936,0.6834898595099359,0.9965417957051397,0.0,0.0,0.0,0.0
0.012990680591166903,0.0013300720118441408,0.7287493749477948,-0.0001410726739500325,-0.5253234580392181,5.229179762520863e-06,0.850902605769235,-0.004525394459739139,-0.8518823624504877,0.9382006809022626,-0.003378710674328756,-0.8619912740614212,0.9819503189980751,-0.009217747822584789,0.692075173020746,1.0032237151539758,-0.009074983580563316,0.6904495053484213,0.9941144179375058,0.0,0.0,0.0,0.0
0.015442364818895604,0.0017450800008989068,0.7283777355156091,-0.000288382794680773,-0.5253118827105343,6.572063271066498e-05,0.850909712248765,-0.009294717498979995,-0.8595058503430584,0.9192643667115631,-0.004561190776990699,-0.8733903950825356,1.0028134629849568,-0.011294058541526618,0.6981014732672844,1.0047478831838241,-0.011053898136037143,0.6964010872946558,0.9929620777817171,0.0,0.0,0.0,0.0
0.017550020846984413,0.002179843362207131,0.7280224209043742,-0.0003736993087149435,-0.5254858946212897,8.292056971974993e-05,0.8508022261530988,-0.014575827664150212,-0.8716125135801964,0.9069656248849087,-0.005726193872723134,-0.8819791375772547,1.0192587356472926,-0.014313045527141667,0.7039695708125341,1.0069065552853742,-0.013951579388837532,0.7016679980191285,0.9922017612242974,0.0,0.0,0.0,0.0
0.019222496427642795,0.002561240875730052,0.7277234869881599,-0.00045347498478778,-0.5257095812002204,0.00010717742017114359,0.8506639871933733,-0.019553114508470033,-0.8857623591957583,0.89844904647217,-0.006777550061477219,-0.8881352521758247,1.0315301690844132,-0.01696821084314549,0.7088877016378897,1.0089264171959311,-0.016474318767584456,0.7060456638158139,0.9916879339722046,0.0,0.0,0.0,0.0
0.020454613309285344,0.0028479979771535453,0.7274945777049774,-0.0005394636842374197,-0.5259180692835793,0.00014613136352264832,0.850535050439187,-0.02408497925970561,-0.9007377470260132,0.8917533544649996,-0.0076140824506398305,-0.8923116252619936,1.04018276259095,-0.018704028187262505,0.7125668632974835,1.0104920736161578,-0.018099979170237385,0.7094669761677715,0.9914065230850246,0.0,0.0,0.0,0.0
0.021294733420399503,0.0030230509829954344,0.727336746406493,-0.0006219454375766887,-0.5260948427544577,0.00018645101161710435,0.8504256550969375,-0.028277877249678535,-0.916004738963174,0.8857089811910507,-0.008155841162369717,-0.8949355719467786,1.0458916542970347,-0.019477782417628427,0.7150980573859617,1.0115114207153957,-0.018807889416432164,0.7119972652050237,0.9913491514774342,0.0,0.0,0.0,0.0
0.021814880658908187,0.00308446268042295,0.7272418849007161,-0.0006870073467382806,-0.5262432448884329,0.00021118424929848456,0.850333776014696,-0.032287719646075616,-0.9313281781388589,0.8796658383241439,-0.008357851807761447,-0.8964069704354309,1.049351315667877,-0.01948059718963477,0.7167306339689478,1.0120058545806478,-0.01879021945672706,0.7137587577211797,0.9915091935502615,0.0,0.0,0.0,0.0
0.022088800693729926,0.0030380665847640864,0.7271934037262675,-0.0007233504572564357,-0.5263709462510587,0.00020639428824078434,0.8502547036672474,-0.03625202470027694,-0.9465003115610678,0.8733282700777792,-0.008204502178965052,-0.8970935550799392,1.051196182445386,-0.018963394212421537,0.7177139203649727,1.012079840032854,-0.018286177963324136,0.7148585394626512,0.991918536753351,0.0,0.0,0.0,0.0
0.02217509244776587,0.0028913736737188837,0.7271598870020095,-0.0007245948527216642,-0.5264799635675765,0.0001621195924247148,0.8501872127016615,-0.04026585650426908,-0.9611332332590629,0.8666682133996856,-0.0076938871297855555,-0.8973490658785103,1.0519461207619796,-0.01813668745980276,0.7181567259253244,1.0119720658829976,-0.017492592678604334,0.715290479771395,0.9927442781148852,0.0,0.0,0.0,0.0
0.022134665434837057,0.0026827091921253505,0.7271556947213443,-0.0006919887960584371,-0.526582044115922,8.654747453872662e-05,0.8501240288779854,-0.04446027101578151,-0.9744186577546448,0.8601069014039605,-0.006950849057028868,-0.8972287121006,1.0519016919532524,-0.017266534542070916,0.7183800848538138,1.0116052349562494,-0.016659702113843326,0.7153393914448544,0.993658310836432,0.0,0.0,0.0,0.0
0.02199080795647817,0.0024272478919179904,0.7271877540912184,-0.000632137708577006,-0.526671638119837,-1.0648647414632013e-05,0.8500685771681548,-0.0488484164534412,-0.985035225964177,0.8544349648116217,-0.006039568248667946,-0.8967820527390312,1.0512051710069448,-0.016360372170455512,0.7184547624451092,1.0109115943620466,-0.015793148645982507,0.7151234935684534,0.9945090443773674,0.0,0.0,0.0,0.0
0.021721466872399377,0.0021086460822434872,0.7272583470935845,-0.00055183209302163,-0.5267347267580271,-0.00012240487846644743,0.8500295336784089,-0.053278472292948714,-0.9912483652885334,0.850925503916072,-0.0049328762051796685,-0.895993233240942,1.0497661654889001,-0.015170764016405791,0.7182279297522676,1.0098111911446785,-0.014655081571536995,0.714593942130077,0.9953465632596931,0.0,0.0,0.0,0.0
0.021281302851302388,0.001691264158388694,0.7273750863125308,-0.0004516514911011736,-0.526768302204564,-0.0002481597425150443,0.8500087589079267,-0.05747257620353292,-0.99150282005755,0.8511015599353581,-0.0035383293534843674,-0.8947244204132596,1.047309732226442,-0.013391751405733898,0.7175410781983018,1.0081679522500036,-0.012948397799597597,0.7136710407857842,0.9962824386119746,0.0,0.0,0.0,0.0
0.020634816362986936,0.0011499022500737629,0.727539925291228,-0.0003332776955275728,-0.526764838370065,-0.0003874173585848018,0.8500109081010238,-0.06134570853400259,-0.985789440400091,0.8549265939468897,-0.0017916536479220333,-0.8928956765751082,1.04363098409599,-0.010812420692978553,0.7162472567657434,1.0059042937210707,-0.01046009446177671,0.7122586425624294,0.9974161660934836,0.0,0.0,0.0,0.0
0.019764046170549047,0.000473165460267581,0.7277414697130581,-0.00019964355379842555,-0.526712262530109,-0.0005409832341259293,0.8500434459367388,-0.06503905120888605,-0.9756810476041536,0.8608590435603525,0.00033779835974978166,-0.8905371545569304,1.0386589600148421,-0.007361542933891916,0.7142115365188153,1.0030699289493477,-0.00710274970383058,0.7102249047628704,0.9988788594798699,0.0,0.0,0.0,0.0
0.01866234000164423,-0.00034034827787600907,0.7279894956351495,-5.1043633394159644e-05,-0.5266185661350462,-0.0007089612039936367,0.8501013942880146,-0.06866141273368766,-0.9629501150730724,0.8676986649005297,0.002849766836050727,-0.8875252914863311,1.0322544063342343,-0.00308732240227622,0.7115171149726032,0.9995684417246292,-0.0028981531130696956,0.707615889279007,1.0005857169765944,0.0,0.0,0.0,0.0
0.01731554877769753,-0.0012911970846131364,0.7283021664328333,0.0001066462680496362,-0.5264913970992705,-0.0008851769578400497,0.8501799891015932,-0.07226572789822426,-0.948993487199578,0.8748059248826525,0.005726380729818088,-0.8836519604667328,1.0241756307882228,0.0020333471818364075,0.7082423450719448,0.9952244887176304,0.0022048997857470947,0.7045193804913209,1.0023842785280266,0.0,0.0,0.0,0.0
0.01570368464627979,-0.002382124564092084,0.728695260931147,0.0002592749085671555,-0.5263303191264729,-0.0010574855762700182,0.8502794891498929,-0.07594044357037129,-0.9347640721553907,0.882057827293406,0.008942361812273944,-0.878710788995674,1.0141467537489053,0.00812682079955502,0.7043929283926363,0.9898505660915453,0.00836617906296263,0.7010032421114948,1.0041450067999491,0.0,0.0,0.0,0.0
0.013819862717037654,-0.0036083195990739055,0.7291755532848078,0.0003887483997436786,-0.5261379193286848,-0.0012130884946402307,0.8503982991136966,-0.07992250756473054,-0.9209349702397965,0.8898599445934705,0.012451703163127081,-0.872533321758297,1.0019507906922924,0.015260438970352338,0.7000015690442072,0.9833375264730086,0.01569706218738505,0.69714152045588,1.0057727539687946,0.0,0.0,0.0,0.0
0.011694936986808955,-0.004945227604437416,0.729714482506215,0.0004880148781222523,-0.5259453125294158,-0.0013551371327963685,0.850517168358855,-0.08463769484223083,-0.9081530056281716,0.8992794935628028,0.016193554836115478,-0.865062054090909,0.9875493248193202,0.023146114957577735,0.6952212841894075,0.9759801786546048,0.023949228293706208,0.6929587680858312,1.0074033283417057,0.0,0.0,0.0,0.0
0.009426108685579783,-0.006324238281306824,0.7301832700733746,0.0005935126585383429,-0.5258569960504311,-0.0015339111977941532,0.8505714047415291,-0.09061305996873284,-0.8973386103138705,0.9123058446606663,0.020097091865258643,-0.8564769419844116,0.9711981633744625,0.030637065747762267,0.6903139946645905,0.9692914426606063,0.03194860504689576,0.6881953388438274,1.0099446528253284,0.0,0.0,0.0,0.0
0.007299023106500388,-0.007499447142243389,0.7304499205342873,0.0008057034574632399,-0.5261257204255892,-0.0018262000146507173,0.8504044579740276,-0.09852984201495966,-0.8898959245830468,0.9324885939065938,0.02366835278901451,-0.8467682995786715,0.9536581415495641,0.03502903299570536,0.6866001822946358,0.9656748045075262,0.03676899467348739,0.6833072807030618,1.013832194871022,0.0,0.0,0.0,0.0
0.005839072963195062,-0.008282232352453652,0.7304404269482259,0.001323979108128278,-0.5270114461958257,-0.002361282928919597,0.8498538739105889,-0.10769413154263788,-0.8880608115538934,0.9645625887768724,0.026664912471408102,-0.8372811027657104,0.9383379419957133,0.033419420748219464,0.686457686277374,0.9667922021814516,0.0351619079390118,0.6795718189782244,1.0189917858339603,0.0,0.0,0.0,0.0
0.005380905442988273,-0.008547257166982179,0.7303388628985863,0.0021922169668242646,-0.5284683384784159,-0.0029941390805624914,0.8489449007690658,-0.1164332896021241,-0.8959150387564083,1.0112710072592703,0.028366176951566,-0.8291082560582026,0.928226258195082,0.025737926468058604,0.6913030196553731,0.9709447888069398,0.02706435451346937,0.6789591505080189,1.0231690460498095,0.0,0.0,0.0,0.0
0.005381534625040932,-0.008578401470634095,0.7303325406359732,0.002210477871718626,-0.5284650346871304,-0.0029890950220867463,0.8489469277944633,-0.11643380646055951,-0.8959378182706937,1.0112762584194068,0.028395440640258326,-0.8291094718207611,0.9281634233953981,0.025695417742969764,0.691356058886006,0.9708294905235634,0.027099272162516508,0.6789071941816466,1.0232610380891187,0.0,0.0,0.0,0.0
0.005381534625040932,-0.008578401470634095,0.7303325406359732,0.002210477871718626,-0.5284650346871304,-0.0029890950220867463,0.8489469277944633,-0.11643380646055951,-0.8959378182706937,1.0112762584194068,0.028395440640258326,-0.8291094718207611,0.9281634233953981,0.025695417742969764,0.691356058886006,0.9708294905235634,0.027099272162516508,0.6789071941816466,1.0232610380891187,0.0,0.0,0.0,0.0
0.00602112430400284,-0.008945128229555054,0.7318538092634894,0.0015818176917373505,-0.5273330984461394,-0.0022189634248057366,0.8496542692985798,-0.11755148555844663,-0.9019696162423015,1.021646465560238,0.02767457316406999,-0.8330964268049824,0.9383225424029228,0.015495049680672156,0.6709982239776232,1.0015559052970937,0.0393547061015856,0.6881652046754873,1.0088757709179021,0.0,0.0,0.0,0.0
0.006870426045390895,-0.009634685694975524,0.7338927555609808,0.0013794566606233922,-0.526874326826697,-0.0019131564894057592,0.8499399276787056,-0.11658844238745604,-0.9018256381863733,1.0281380932317663,0.02872695926907174,-0.8342755129685359,0.9478997652802419,0.007532033324934385,0.6563954368141427,1.027274123939437,0.04781995634570673,0.7007636341871855,0.9910256162460397,0.0,0.0,0.0,0.0
0.007729510977582887,-0.01063274503895855,0.735937852483534,0.0014201174046960707,-0.5266964636262716,-0.0019169639917466777,0.850050083065222,-0.11401347479166243,-0.8988608066010315,1.0319295347262052,0.031247444265442504,-0.8350808035070373,0.9573947858152758,0.0029835353013661723,0.6455081351696257,1.0495894361091713,0.054867067971472214,0.7134210890909597,0.9738866853452192,0.0,0.0,0.0,0.0
0.008541070990943945,-0.0118784919486922,0.7378373661433976,0.001570332795860727,-0.5265883318473903,-0.002095209128330688,0.8501163878645098,-0.11036103547981094,-0.8949209024653356,1.0341510721509537,0.034805698084430875,-0.8364587967231538,0.967140999341864,0.0002743787080199487,0.63703446261637,1.0700614016228065,0.061857082305483896,0.7251340752747594,0.9585644828894374,0.0,0.0,0.0,0.0
0.009269464494130526,-0.013264890035519604,0.7395783383082848,0.0017567191863056997,-0.5264765509416507,-0.0023246435254249995,0.8501846571649971,-0.10622858653378241,-0.8906951537549427,1.0352813458393881,0.03884188284306958,-0.8382260090711855,0.9766851888462862,-0.0011580284468701682,0.6299221926286596,1.0895313193272962,0.06932656363403987,0.7358301558356211,0.9449664454000073,0.0,0.0,0.0,0.0
0.00988047292344026,-0.0146924473961337,0.7411650081155461,0.0019441512340358897,-0.5263552431806139,-0.0025598831534348505,0.8502586813732023,-0.10197375941036489,-0.886305274816565,1.035360450811256,0.042999067184316994,-0.8399475904170275,0.9853601150974198,-0.002060250330944354,0.6234978507004019,1.1085442658898386,0.07706526733796636,0.7454650152174976,0.9328830282611651,0.0,0.0,0.0,0.0
0.010370341117646882,-0.01605169940869098,0.7426030387653175,0.002113959038129374,-0.52624063428348,-0.002761731009772303,0.8503285828713131,-0.09797349885470927,-0.8818826624999124,1.0346014375979131,0.04689921977879797,-0.841234263204095,0.9926889282512524,-0.002759041091839962,0.6174002174404538,1.1273535872591112,0.08465026667330039,0.7541248989231841,0.9220392068497485,0.0,0.0,0.0,0.0
0.010776976805530868,-0.017277311238917667,0.7438879761360064,0.0022646961934488954,-0.5261456581212723,-0.002926194380497355,0.8503864150947685,-0.09441387123108816,-0.8776845170365015,1.0334900583393776,0.05036517165183419,-0.8421126782156819,0.9988145734732133,-0.0034680153492495525,0.6116541040329121,1.1460254470876148,0.09163757663949793,0.7618904334669426,0.9123021792433784,0.0,0.0,0.0,0.0
0.011132595894379168,-0.018328013246648345,0.7450106811069801,0.002399940853218529,-0.5260827660896074,-0.003058231520647215,0.850424488551085,-0.09139417938797721,-0.8739013355854455,1.0323988983833812,0.053303471341221834,-0.8426590405195297,1.0039144695205788,-0.004363161588424501,0.6064156655766572,1.1643545282928913,0.0976739262525499,0.7687915672425667,0.9036585913742665,0.0,0.0,0.0,0.0
0.011445443438114307,-0.019187031376863495,0.7459527749281115,0.0025217146574703702,-0.5260570567467003,-0.003162729268543288,0.8504396575570539,-0.08894530803878306,-0.8706423481783424,1.031472927393633,0.055684555548207594,-0.8429487397257649,1.0080631063009227,-0.005651288973638193,0.6018910053611057,1.1816683117940172,0.10259685776648335,0.7747344500498436,0.8962827534394926,0.0,0.0,0.0,0.0
0.011689630773393729,-0.019865956548297602,0.7466823901388008,0.0026258399797262476,-0.5260600865077657,-0.0032393336609064425,0.8504371799640913,-0.08703104419340724,-0.8679434666376677,1.0305732170433384,0.05754152169118116,-0.8430560827692759,1.011184202229131,-0.007659550705983663,0.5983704130398344,1.1965279100337454,0.10651965886697509,0.7794453607134719,0.8906007904933194,0.0,0.0,0.0,0.0
0.011807567653144295,-0.020408543176143393,0.7471552583980309,0.002698197163247352,-0.526061881519506,-0.0032798470334636435,0.8504356878375122,-0.08554520840719952,-0.8658232315327694,1.0293346460495425,0.058976588052040195,-0.8431087280139405,1.0131199338235157,-0.010911922052090132,0.5964577087213827,1.2062878085429165,0.1098954426343385,0.7824717450719783,0.8872761405444504,0.0,0.0,0.0,0.0
0.011736705043587207,-0.020883832260787234,0.7473374344021253,0.0027204762175824636,-0.5260160985431208,-0.003275096456880829,0.8504639538662538,-0.08431760116795253,-0.8642973840132606,1.0273504631084733,0.06015840831046504,-0.8433064364480841,1.0137975746983965,-0.01604106112919057,0.5975684916903095,1.2067602549726644,0.11338149024396148,0.7833740104800958,0.88691503568887,0.0,0.0,0.0,0.0
0.011438571772827878,-0.02133798264044286,0.7472483513197847,0.0026966527729125403,-0.5259131297480936,-0.0032296889710387413,0.8505278814545338,-0.0832100581544651,-0.8630893314239341,1.0241667418225908,0.0612107850933225,-0.8435617151152754,1.013036029752053,-0.022958830783980068,0.6016093531940065,1.1978673105055284,0.11721825663625145,0.7821008242632121,0.8895014978873902,0.0,0.0,0.0,0.0
0.010898508694298167,-0.02179296656974355,0.7469594885204781,0.00264920671479061,-0.525776082719067,-0.0031592002264163354,0.8506130212959971,-0.08212639420999995,-0.8616638697492944,1.0193079363500896,0.06220423919144138,-0.8435133706054779,1.0105538456382102,-0.0309012522753367,0.6069806380800954,1.1836420352691903,0.12126386184249875,0.7789876874010302,0.894393283417812,0.0,0.0,0.0,0.0
0.010099137798133652,-0.022289687823650355,0.7465508902304134,0.002590579334062922,-0.5256079159750723,-0.0030731405086906745,0.8507174403822159,-0.08093473247567759,-0.8595382014099968,1.0123154221761839,0.06324980166944438,-0.8428796050151185,1.0061610143075659,-0.03929195802699359,0.6128737265980133,1.16661380239608,0.12560860707623756,0.7743948112292297,0.9008722470713434,0.0,0.0,0.0,0.0
0.009000356791595037,-0.02288621258379477,0.7460875340318052,0.0025183763935538433,-0.5253916215040908,-0.0029681151951986466,0.8508516275625443,-0.07948536270905782,-0.8562809798022699,1.0026115296222584,0.06447883002251226,-0.8414276937966086,0.9996000198756269,-0.04786766411794995,0.6187673962289824,1.1481773321499675,0.130635664319255,0.7685325146206531,0.9084274036563309,0.0,0.0,0.0,0.0
0.007547903098985773,-0.02364206831355981,0.7456150302286613,0.0024190797432877523,-0.5251029978700226,-0.0028295077384302377,0.8510305420882783,-0.07765049677852656,-0.8515046902158533,0.9895369779959878,0.06600306033788586,-0.8389288154559568,0.9905155845474316,-0.05667503090186397,0.6242105465054388,1.1290907731329054,0.13686436790893075,0.7614810660862408,0.9167557757945146,0.0,0.0,0.0,0.0
0.0057005527989271235,-0.02459833384635113,0.7451591394691686,0.0022722154029392763,-0.5247221348179999,-0.0026347414766267393,0.8512664544116341,-0.07537440032273832,-0.8449440518746206,0.9725664799333441,0.06787016455169555,-0.8351871520557584,0.9785810956015856,-0.06612406684202267,0.6288475877328741,1.1098857277651324,0.14475627708640182,0.7532837736939345,0.9256773664391601,0.0,0.0,0.0,0.0
0.003473910030931307,-0.025756746714589305,0.7447229131456043,0.0020545552596707975,-0.5242408288149591,-0.0023588156677793464,0.8515643065527906,-0.07272179965272975,-0.8366559037702306,0.9517251650355316,0.07002756866124199,-0.8301870995472255,0.9638144817403853,-0.07721887631258653,0.6326587453705047,1.0912429695413897,0.1545230955603018,0.7440651996535033,0.9350528061702926,0.0,0.0,0.0,0.0
0.0010004417159351735,-0.027057863374646565,0.7442737071459834,0.0017362070265213839,-0.5236477560440629,-0.00197133178802357,0.8519308229112034,-0.06994887786491998,-0.8275251243875171,0.928387056522045,0.0722769389009626,-0.8244875613075294,0.9472121787181979,-0.09205896821902868,0.6364178936916823,1.0743173738827765,0.16607952891136646,0.7341195077933624,0.9447726424397486,0.0,0.0,0.0,0.0
-0.0013596325602823027,-0.028358919993865056,0.7437253762825051,0.0012532670870708674,-0.52283154448736,-0.0014049215415922582,0.8524339455969783,-0.0676513539374965,-0.8206962107290716,0.9072665076070275,0.07419465851670973,-0.820370886209616,0.9323992328468225,-0.11459291985307546,0.6422616349106842,1.0605309564986554,0.17932487302185002,0.7239850283161152,0.954630640280997,0.0,0.0,0.0,0.0
-0.0032632683563792986,-0.029460587945668856,0.7430909639521929,0.0005881551288626409,-0.5218047741075126,-0.0006414435278430269,0.8530644877981691,-0.06641728600098736,-0.8183996502746113,0.89259735320809,0.07529469450862772,-0.8191386585275304,0.9221916611372366,-0.14872237363960752,0.650911539952506,1.052112735404587,0.19330056725615904,0.7147806637221212,0.9636455378196009,0.0,0.0,0.0,0.0
-0.0044910771100624865,-0.030168424217232533,0.7424404726129381,-4.356216381152427e-05,-0.5208242077190188,0.00013320880886631237,0.8536639414966567,-0.06635385207920369,-0.8201126193123932,0.8856084672847604,0.07543376641176398,-0.8204105124536031,0.9172644564583449,-0.18832955260351225,0.6590505588245645,1.05148629629963,0.20461928758922646,0.7075028553634849,0.9709621108969219,0.0,0.0,0.0,0.0
-0.004475872871161106,-0.030176442497421213,0.7424178364113528,-7.133769265720585e-05,-0.5208284016265893,0.0001439626653051622,0.8536613791456052,-0.06636500182665671,-0.8201201046595827,0.8855440665957227,0.07543651926196257,-0.8204141782568563,0.917263416942536,-0.18830916353665278,0.6590329200448765,1.0514721993161877,0.2045938683115464,0.7074745762880039,0.9709404621896792,0.0,0.0,0.0,0.0
-0.004475872871161106,-0.030176442497421213,0.7424178364113528,-7.133769265720585e-05,-0.5208284016265893,0.0001439626653051622,0.8536613791456052,-0.06636500182665671,-0.8201201046595827,0.8855440665957227,0.07543651926196257,-0.8204141782568563,0.917263416942536,-0.18830916353665278,0.6590329200448765,1.0514721993161877,0.2045938683115464,0.7074745762880039,0.9709404621896792,0.0,0.0,0.0,0.0
-0.005132037907485792,-0.03048192189575617,0.7425200367674148,3.235685468624253e-05,-0.5212438160288468,9.965091426947149e-05,0.8534078001016953,-0.06537212860909325,-0.8128052674035458,0.8748850779914957,0.0760661729237552,-0.8148613398481533,0.9091215453632706,-0.18701369493652822,0.6587548115052467,1.0511034456779356,0.20566119993515575,0.7070813966288361,0.9721112947916108,0.0,0.0,0.0,0.0
-0.005676364984096309,-0.031022174024426502,0.742466412301706,-1.718745984531832e-05,-0.5213020454627685,0.0002073812714704489,0.8533722131016062,-0.06418791913663623,-0.8086939163409891,0.867245451349203,0.07707572099175555,-0.8126205757496846,0.904770099691887,-0.18134758545471136,0.6561955959041188,1.0505201945235183,0.21008547001500574,0.7058480747348062,0.9746992336630714,0.0,0.0,0.0,0.0
-0.005738592428725591,-0.0315228620107235,0.7423930956049654,-4.8652577973694025e-05,-0.5213246255047183,0.0002795830430505435,0.8533583973387817,-0.06309682981710615,-0.8075190451173795,0.8649742683901286,0.0781592582712467,-0.8131834042740731,0.9054708875758458,-0.17695629035955648,0.6551763951901677,1.0498203791917151,0.2144766278315429,0.7058657264893379,0.9769076869411086,0.0,0.0,0.0,0.0
-0.005246261174187001,-0.031891239841573354,0.7423218135120021,-3.548045993730475e-05,-0.5213994036207857,0.00028520143109957646,0.8533127089790528,-0.06225616198556523,-0.8092168062491292,0.8685843238534413,0.07914803571828459,-0.8162298353494256,0.9112092206878368,-0.17506852257667277,0.6564648224605788,1.0492462890663254,0.21808490122293234,0.7076182591583112,0.9784009625994907,0.0,0.0,0.0,0.0
-0.004161471140776677,-0.03210846378186615,0.7422586736994835,3.1628426787133184e-05,-0.5215505352146986,0.00020956777754279124,0.8532203667858911,-0.061678186741984234,-0.8138011929943014,0.8782975735684232,0.08003312846676243,-0.8217405241991708,0.9221007616668918,-0.17603757006848736,0.6603523005511007,1.048824048376746,0.22074861989505104,0.7113072286094209,0.9790717138747449,0.0,0.0,0.0,0.0
-0.0024643329077024293,-0.03221188744448687,0.7422310495039973,0.00020547698030136882,-0.5218398358301874,-2.598985352166836e-05,0.8530434589424276,-0.06108044888856106,-0.8205592433430411,0.8934648815369517,0.08107834305823346,-0.8294786812764814,0.9379851595088984,-0.1807264243927458,0.6675351190572288,1.0483350533452014,0.2219892052748332,0.7171325133224131,0.9787831509681328,0.0,0.0,0.0,0.0
-0.00013940790996289868,-0.03227675550282446,0.7423198609446748,0.0006927528285612564,-0.5225267152152138,-0.0007895277936959255,0.8526222660860906,-0.059363742801459375,-0.8266933958359179,0.911548430277222,0.08328132437033159,-0.8383539311116646,0.9578365164951251,-0.19350389663424902,0.680630548164593,1.04756721263752,0.21878579948806606,0.7253075633426319,0.9771972967670529,0.0,0.0,0.0,0.0
0.0023496996205158048,-0.03220837949875983,0.7421045000847716,0.0007804546945308354,-0.522274802055425,-0.000812730173614758,0.8527765014926838,-0.059918344463786063,-0.8417658358120149,0.9381253886609953,0.06749202296626886,-0.8341087307294175,0.927832993981178,-0.19828996967879195,0.6877382166576569,1.046990985117324,0.22076225307104086,0.7317520082417003,0.9761647292848613,0.0,0.0,0.0,0.0
0.004797225330213744,-0.03234235580291403,0.741792438629202,0.0009736507090133239,-0.5221632687805127,-0.0010771021201685575,0.8528443073573099,-0.05935344197814526,-0.8548077158090083,0.9618372750993693,0.05106584210762377,-0.8384795849761716,0.9060870414193936,-0.204466413306542,0.695479851331058,1.0471056415663975,0.22223759186547903,0.7375911184640739,0.9766802433289202,0.0,0.0,0.0,0.0
0.006895512868398602,-0.03271450841105776,0.7415149129718328,0.001193756388045196,-0.5221612831195479,-0.0014226021386095798,0.8528447370769128,-0.05789331379582103,-0.8644448749838509,0.9801707352357194,0.036622045081908486,-0.8475718632157799,0.8910412551085858,-0.2094877464033582,0.7027303788802904,1.0467239184416015,0.22458802303931943,0.7428097680968077,0.9779224371500272,0.0,0.0,0.0,0.0
0.008524303050894381,-0.033297123072288666,0.7412941867364328,0.001377277837214438,-0.5221641463702679,-0.0017305781928483586,0.8528421380597273,-0.055881205790726786,-0.871120656686361,0.9931776412865387,0.024341682370841465,-0.8588775874693405,0.8797901008637592,-0.21152621285493248,0.7082944913642806,1.045598294084854,0.22854330375763304,0.7470863375485228,0.9796378951845652,0.0,0.0,0.0,0.0
0.009696523980031221,-0.03402329421663724,0.74112849305239,0.0015116914894272853,-0.5221371380083625,-0.0019665782997448835,0.8528579345184448,-0.053585546006906994,-0.8754232255933388,1.001645952873074,0.013691883067631952,-0.8711198401999447,0.8704501418391318,-0.21044941396834738,0.7119139391244366,1.0438903645843014,0.23389511191033158,0.7503601562891037,0.981659603213685,0.0,0.0,0.0,0.0
0.010501273534813546,-0.03481598013390597,0.7410116156456446,0.0016107131302851632,-0.522092774887261,-0.0021455713405578647,0.8528844801831924,-0.05119136058142067,-0.8778995354154366,1.0066496937117981,0.004026497459747562,-0.8837154012715361,0.8619454199457227,-0.20724048475632534,0.7140232137269802,1.0418518627285585,0.23995013823455058,0.7527996906313382,0.9837895644244602,0.0,0.0,0.0,0.0
0.011052926949734702,-0.035610969751786216,0.7409330250070117,0.0016954070721738551,-0.5220579635370554,-0.002300318270641158,0.8529052214861015,-0.048808069120841395,-0.8790470474342617,1.0092848218189123,-0.005157145785425666,-0.8964024520744864,0.8536923771403206,-0.20319549464327658,0.7152926747225223,1.0397256099192693,0.24596991836309234,0.7546530027305155,0.9858713074480168,0.0,0.0,0.0,0.0
0.011455151566590889,-0.03637164649763186,0.7408785777270174,0.0017822067488150813,-0.5220486510483142,-0.0024582378110439445,0.8529103040441031,-0.04648283331049155,-0.879326876884484,1.0105039011589183,-0.014134844716772904,-0.9089766509105195,0.8454034086131146,-0.19926331255868587,0.716258754914991,1.0376849612691235,0.2514866850948364,0.7561346388427856,0.9878411283157632,0.0,0.0,0.0,0.0
0.011780326907502935,-0.03709275768903932,0.7408286578741929,0.0018738904104748327,-0.5220531073088331,-0.002624697971758064,0.8529068839237249,-0.04422965435086671,-0.8792087629472661,1.0110556223860954,-0.022976793934001052,-0.92107571140213,0.8370034645578974,-0.19567956093974714,0.7170901553010235,1.0358252364027862,0.25647719310283323,0.7573444059457773,0.9897628581223019,0.0,0.0,0.0,0.0
0.01208349592288271,-0.037791206862156604,0.7407731498728527,0.00197114588738049,-0.5220508513465028,-0.0027989412150537475,0.8529074915372458,-0.04201614541217141,-0.8790664987078174,1.0115032207832,-0.03155310206397198,-0.9319727491699717,0.8287364754071258,-0.1923445004067885,0.7178499189311014,1.034089844802668,0.26112716346407905,0.7583786068202695,0.9916742876142033,0.0,0.0,0.0,0.0
0.012392213682931705,-0.038490024390068656,0.7406991302332993,0.0020515059635758015,-0.5219904205786154,-0.002943139275623968,0.8529438024152857,-0.039879326318068134,-0.8793995157564183,1.0123647442824275,-0.03975964758037345,-0.9404626085800721,0.8212651040523604,-0.18848718138350207,0.718219067519287,1.032370231061179,0.26603428343618724,0.7592537656901389,0.9936464565112256,0.0,0.0,0.0,0.0
0.012780336271053034,-0.039145763242089175,0.7405777920203934,0.002092178249054001,-0.5218263584693739,-0.0030208257801880773,0.8530438142372128,-0.03802891301604498,-0.8810737313322352,1.0147721271616903,-0.04781801892374756,-0.944742064933656,0.81565047948562,-0.18402850816490843,0.71807593737136,1.0308529827337125,0.2713356322676104,0.7600342708309342,0.9956800459430181,0.0,0.0,0.0,0.0
0.013298953428450515,-0.039687873302433285,0.7403999173949352,0.0021041595569099908,-0.5216144314643149,-0.003064324267411805,0.8531732340606465,-0.036565055727947646,-0.8841178309718206,1.0190793921683492,-0.05601131803683952,-0.943256774310998,0.8135272085706116,-0.18016819398484,0.7179590189697805,1.029901219185983,0.2763499877491631,0.760899276553694,0.9977080568767639,0.0,0.0,0.0,0.0
0.013983182477720365,-0.04006958382438591,0.7401329868239108,0.002071723779902446,-0.5213629690378899,-0.003068844928094835,0.8533269857841033,-0.03561632383775814,-0.8888677500242933,1.025753918475643,-0.06498610717209931,-0.9363412622949383,0.8150104127820793,-0.17722545190315972,0.7178870765557988,1.0299183732725328,0.2809776594561552,0.7618651333786698,0.999892653521196,0.0,0.0,0.0,0.0
0.015008559062123396,-0.040164744071213385,0.7397825101801119,0.0022294500263740358,-0.5214851789570886,-0.003441622898968042,0.8532504866172034,-0.03452530364537549,-0.8931253412400776,1.0339722183722933,-0.07429245407820807,-0.9252873726311301,0.8193346187238709,-0.18271830814080492,0.7217340029010729,1.032139602902457,0.28052471092765074,0.7635616384405028,1.0022299485460726,0.0,0.0,0.0,0.0
0.01652618417663907,-0.03991315870594326,0.7394209219879742,0.002941705554736913,-0.522560247293012,-0.004795238325308111,0.8525838023366964,-0.03196148168477946,-0.8928182714415689,1.0412350863553752,-0.08220293273965228,-0.9105459801388766,0.8259245555736637,-0.2073371667926189,0.7352044648260254,1.037451315122112,0.2682480140290172,0.766681160164108,1.0044485148295732,0.0,0.0,0.0,0.0
0.0179062817141012,-0.039894220136387507,0.7388937880428385,0.004068889288876531,-0.5242754128716355,-0.00690605034925964,0.8515110346124731,-0.02692908379975915,-0.8866178088896175,1.042311208763567,-0.08682758661777784,-0.8931921489656611,0.8328661108277698,-0.2451790833271315,0.754014358610543,1.0451950772380667,0.2489968046469055,0.768156819915192,1.0094881069841533,0.0,0.0,0.0,0.0
0.01857586291127276,-0.040822350739968226,0.7387154195695095,0.005384818585417035,-0.5260517074048011,-0.009242880161254232,0.8503853091579254,-0.018909621699300883,-0.8731060634333999,1.032895120938771,-0.08530462850346662,-0.8736294950179914,0.8374005358725054,-0.2825580892673908,0.7738860224156334,1.0478399256503221,0.23171776622452114,0.7684347644043268,1.0142430619019305,0.0,0.0,0.0,0.0
0.017608280204611824,-0.04415196542327379,0.7390129747456727,0.0036491774926234698,-0.5200969405282043,-0.0051527520476712775,0.8540838981640879,-0.020341368986479813,-0.9027260151004864,1.0494145395200367,-0.10364515201063157,-0.8661915405875485,0.8343290159311118,-0.15672150727669976,0.7199528473838886,1.0239484110078665,0.2958476054085437,0.7637565482417958,1.0135346515641779,0.0,0.0,0.0,0.0
0.01731041421386637,-0.046657531978498985,0.7396684040174689,0.0037055991312479786,-0.5195961164804348,-0.005289619200126067,0.8543875960020993,-0.013485677005650707,-0.896483897275345,1.0400876407125474,-0.10430552717333583,-0.8473330047379395,0.8352117433884861,-0.1552809712023458,0.7243547066894237,1.00717396942276,0.3091756975747332,0.764421068793356,1.0117977388766923,0.0,0.0,0.0,0.0
0.017426500546276976,-0.048696086390527714,0.7394268075380933,0.004412322471795208,-0.5198571938283851,-0.006560396694182095,0.854216594682225,-0.005106126193728525,-0.8889988660544947,1.031291509455308,-0.10782853568220366,-0.8298224655869233,0.8365089584423326,-0.16467356500277866,0.7308428908648043,1.0029077479409223,0.3099001292146301,0.7618400222909747,1.0180082027746105,0.0,0.0,0.0,0.0
0.0178425766290769,-0.05022484592795387,0.7386908801601821,0.005164865292616293,-0.5200454514726899,-0.00793389660525989,0.8540861232063967,0.0021821991868235706,-0.8855737851408112,1.0274692080187358,-0.11630676187486992,-0.8116152085042797,0.8343431508152359,-0.17532095146850435,0.7352101201762496,1.0050925338099197,0.3069723434323075,0.757516455726819,1.0272513846672537,0.0,0.0,0.0,0.0
0.018236043759832597,-0.051208075166504365,0.7377750123546025,0.00586208584889348,-0.5201627915472211,-0.009217846264218156,0.8539972702237119,0.007861535866683061,-0.8843306219895706,1.0259220538974665,-0.12663623511779157,-0.7924680446713306,0.8264912759557068,-0.18723401528665792,0.7379253101533598,1.010796288519637,0.30065974719299826,0.7519298790176682,1.0368214234114586,0.0,0.0,0.0,0.0
0.01840809582812283,-0.05161354007525708,0.736953572184301,0.006446922819734774,-0.5202315129721001,-0.0102412027652271,0.8539395340788699,0.011402674135780165,-0.883870180624263,1.024858663544566,-0.13537795596980667,-0.7741099643165724,0.8098292354408426,-0.19966196077766712,0.7394241088546667,1.0175305226425326,0.2915679034696481,0.7459052252277035,1.0444474514400706,0.0,0.0,0.0,0.0
0.018399145921760143,-0.05164933380901607,0.7369411752368056,0.006435872739355158,-0.5201927276013348,-0.010224429822662012,0.8539634457794828,0.011456807914859353,-0.883981293641597,1.0248085239459872,-0.13538667956090902,-0.7740795630671867,0.8098493946742729,-0.19992150395847538,0.7393821562484486,1.0173348478734348,0.2918047938050281,0.7457258935533152,1.0444874726533553,0.0,0.0,0.0,0.0
0.018399145921760143,-0.05164933380901607,0.7369411752368056,0.006435872739355158,-0.5201927276013348,-0.010224429822662012,0.8539634457794828,0.011456807914859353,-0.883981293641597,1.0248085239459872,-0.13538667956090902,-0.7740795630671867,0.8098493946742729,-0.19992150395847538,0.7393821562484486,1.0173348478734348,0.2918047938050281,0.7457258935533152,1.0444874726533553,0.0,0.0,0.0,0.0
0.019569342654634933,-0.05333172838507549,0.738284952937355,0.003140095752107259,-0.5184310116451769,-0.00423110591032039,0.8551032240063193,0.001529205181425894,-0.9051881841577705,1.046690213039302,-0.14590197443825825,-0.7736269080752562,0.8237972341905392,-0.10176857396358546,0.7168333020343434,0.990683887037803,0.2465406057886635,0.7133921759180172,1.0477662209263585,0.0,0.0,0.0,0.0
0.021428571437571976,-0.05427408741345812,0.7388583282353892,0.0010739640322026838,-0.5189015170441181,-0.00102025173539685,0.8548327446331047,-0.0037275701969165962,-0.9146303475227535,1.0619852462359733,-0.1510740265049651,-0.7709271532296533,0.8346465727358636,-0.06246713040920912,0.7155413223776633,0.9766725292369695,0.19199694047499255,0.6934936466487244,1.059501175503068,0.0,0.0,0.0,0.0
0.0243261747717149,-0.054136168375586186,0.7394125101054219,0.0014999294961319568,-0.5222004744507953,-0.002608282296707858,0.8528174550033152,-3.4153483079452616e-05,-0.9045405792093375,1.0683334304018133,-0.14719050675511935,-0.7684253383761523,0.8462788183648149,-0.08569868943018272,0.7435368803088268,0.975420581899133,0.12825045524763398,0.686973781896494,1.078497779514407,0.0,0.0,0.0,0.0
0.027806106997487416,-0.053404106474025416,0.7396930534334489,0.003294844474637379,-0.5265294199130708,-0.006808047439672256,0.8501232642716893,0.00833005067188088,-0.8874375220774996,1.0725479765218078,-0.13884286200195112,-0.7696823841495699,0.8615138698643462,-0.1515184173209772,0.7884586640647656,0.9817227921612811,0.06677281563766621,0.6906040683043009,1.097509614593285,0.0,0.0,0.0,0.0
0.03057459760100143,-0.05303883070516651,0.7397143124700133,0.00444279293756437,-0.5303798314792326,-0.010012249894511794,0.8476893598500718,0.015051960206182479,-0.8720132814834691,1.0733993404159945,-0.1318755728092111,-0.7683888656092895,0.8713905804234502,-0.22316587669448185,0.8322866466705151,0.9866081799354445,0.013706558670329307,0.691875505266136,1.1159276703921013,0.0,0.0,0.0,0.0
0.031114230977514642,-0.05543341084312866,0.7404578166203968,0.002101945092789884,-0.5261087702724455,-0.004104057773816738,0.8504047861924526,0.007043010273013343,-0.9025250736702706,1.0983381126290992,-0.14124980321659744,-0.784348605925417,0.8984118208881174,-0.09636156874587726,0.7883381717925403,0.9588046147801023,0.030897458912365013,0.6696080108547182,1.1300897542749533,0.0,0.0,0.0,0.0
0.03143613000926698,-0.05765390734191165,0.7405770489381571,-0.001470728738404154,-0.5221258484406012,0.002581600161402981,0.8528632778398698,-0.003143597826206497,-0.9355889840455212,1.1228824990056734,-0.1522648492785373,-0.793959046776493,0.9166143170656005,-0.0006078203991805448,0.7511809529044905,0.9342059004658292,0.06810622376786823,0.6573730587392539,1.1432148604141836,0.0,0.0,0.0,0.0
0.0330113449511996,-0.05760255210608194,0.7415776545512842,0.00020467762565124038,-0.5254549900190979,-0.0011828144562849576,0.8508205524792295,0.005834040203786627,-0.9127716924645307,1.1132271255298838,-0.14294020245615247,-0.7899886426834013,0.9199944988366419,-0.06410151143887542,0.7915345939174444,0.9299679891247169,0.027152726235588745,0.6552236041614328,1.1664766439632914,0.0,0.0,0.0,0.0
0.03468185747322695,-0.05737041677185818,0.7414737148086427,0.0019069668671227878,-0.5287129305135967,-0.005214866803754276,0.8487825432637688,0.014841212956458856,-0.8940478139839754,1.1060298017208037,-0.13373055869194678,-0.7901473089564299,0.9255651649485535,-0.13858446214710146,0.8297938925952595,0.9369157418303677,-0.019315985967313987,0.6567439985908281,1.186913946548992,0.0,0.0,0.0,0.0
0.035445408157067114,-0.05780510264794247,0.741245527320335,0.003067232582084015,-0.5314246818679098,-0.008240657960320585,0.8470599100077039,0.023098566421716687,-0.8756437437019553,1.0933867566735103,-0.12503845762461568,-0.7883828200300536,0.9266026488014887,-0.20505443283268798,0.8617682342555949,0.9420722904577261,-0.05720867224628974,0.6551012657481478,1.2041524429709713,0.0,0.0,0.0,0.0
0.03432547135951509,-0.061203293540851716,0.7420757314305011,0.0013748978308051726,-0.5270438120948417,-0.003272707654413434,0.8498307003004191,0.019864820915425144,-0.8947547294681659,1.0993375488754453,-0.12923902445978053,-0.8022266755973695,0.9447892532072171,-0.07822061880780135,0.8134867430683967,0.9132933011591096,-0.036171706870546015,0.6354965434244177,1.2129651085238107,0.0,0.0,0.0,0.0
0.0329772522571557,-0.06447220074052047,0.742606889887818,-0.0007080980804974897,-0.5248012066178446,0.0006264355552990847,0.8512242945945903,0.01917874127575556,-0.9014313247272482,1.0934062083808567,-0.130060290790103,-0.804826489551697,0.9496390291557447,-0.016405078295966685,0.7910477065992536,0.8883481655783046,-0.009983463099220977,0.62872329577228,1.2186032898396433,0.0,0.0,0.0,0.0
0.032074325147590364,-0.0670217619021032,0.7425673363097574,-0.0010149010171114582,-0.5249889524834535,0.0009923898689298194,0.851107857388592,0.024971846782188004,-0.8920127033659463,1.0769931550689311,-0.1240891750412903,-0.8060515170072756,0.9514713097883478,-0.007631617213276445,0.7906464080838181,0.8784212208828407,-0.021826447471273318,0.6233527042535325,1.2199859928661223,0.0,0.0,0.0,0.0
0.031269685524927315,-0.0692770525205957,0.7419311595281666,-0.0008646906814173869,-0.5252518999058983,0.0006451770588129604,0.8509461074015395,0.03165260038897517,-0.8832234637108862,1.0612203618496887,-0.11739145542983878,-0.8105090307992635,0.9549681597010053,-0.002104577589567066,0.7880906321194254,0.8774379344296641,-0.0339595698494901,0.6230496106752538,1.210949774989478,0.0,0.0,0.0,0.0
0.030289992755284958,-0.0712168229240918,0.74072827907795,-0.000606823653196179,-0.5254282356598994,0.0002233248893247687,0.8508376760947842,0.03763059770218717,-0.8762332843634283,1.0457280800080955,-0.1114057788330584,-0.8157678395867344,0.9568164455348218,0.0037853331064307306,0.7808986782922639,0.8842285288257057,-0.0422801428802544,0.6249161917367083,1.1956717951469744,0.0,0.0,0.0,0.0
0.029032872644256972,-0.07300480331098672,0.7392052714926892,-0.0003505707547836558,-0.5254991077840927,-0.00012302718514113344,0.8507940700795816,0.04299612409703843,-0.8699172376803201,1.0291346097221272,-0.10598043195911748,-0.8206762447313303,0.956202235473402,0.01118581990418847,0.7700351215888045,0.8951549765969707,-0.04802787176426151,0.6270911533833684,1.176946830277657,0.0,0.0,0.0,0.0
0.02750490859203938,-0.0749168418814172,0.7376800852845461,-0.00019296250184575446,-0.5253926231473917,-0.0002648271525089937,0.8508598499014717,0.048173730377450485,-0.8633363435438447,1.0106129011457485,-0.10068144765352903,-0.8250082438298248,0.9539952760589556,0.022762974177446767,0.7567250378973327,0.9053478567657112,-0.05279757986219558,0.6284982544556456,1.1564892761417376,0.0,0.0,0.0,0.0
0.025676573670161035,-0.07701786785493063,0.7362262338917708,-0.00014084268690001738,-0.52512127992313,-0.00021581877353079424,0.8510273643999283,0.053350829867594526,-0.8558199894281404,0.9893765251144782,-0.09529910238221018,-0.8285086820492229,0.9500286830026815,0.03797340704816511,0.7415823635294178,0.9137929469007352,-0.05734082772187157,0.6291703084188036,1.134937123470851,0.0,0.0,0.0,0.0
0.02353400787126708,-0.0792318241136131,0.734831266659155,-0.00017594875709229716,-0.5247399241635708,-4.455662222503405e-05,0.8512625793758071,0.058479258110457503,-0.8469869340602085,0.9650536992141477,-0.08985720437215675,-0.8307606110188062,0.9436345016111997,0.054819947616329495,0.7251739039131517,0.9210104491414633,-0.06246230535055562,0.6293721442994088,1.112521397512947,0.0,0.0,0.0,0.0
0.02111058086771596,-0.08138083619524282,0.7334482193219041,-0.0002971594966235203,-0.5242918660753619,0.00021385805111689025,0.8515385517568669,0.06318200222167951,-0.8371728833785187,0.9382373566121874,-0.08473463719783456,-0.8313450100183758,0.9341397065095464,0.07133199790426067,0.7078402189252339,0.9281238619204419,-0.06928081941547765,0.6293276299157655,1.0893178847691263,0.0,0.0,0.0,0.0
0.018503305405629437,-0.08326505673645031,0.7320111276037821,-0.0005063356030195372,-0.523808835267359,0.0005419438752718028,0.8518355205184542,0.06700630776267996,-0.8272732165427545,0.9103827021036593,-0.08042607212630651,-0.8301675790082691,0.9214205629406959,0.08599344892604478,0.6898091280581208,0.9364280650250851,-0.0796209569345661,0.6290956740370968,1.0652692342642889,0.0,0.0,0.0,0.0
0.015827681882655563,-0.0847584480956635,0.7304510750893032,-0.0007415795039167977,-0.5233990092662889,0.0007740452201402384,0.8520870425096861,0.07006274572804991,-0.817368756159299,0.8822843705597749,-0.07685210302205715,-0.8273840010870412,0.9057417061628837,0.09688274587351461,0.6718516074915205,0.9473122232776316,-0.09710662903380474,0.6283417444108027,1.0401452453348976,0.0,0.0,0.0,0.0
0.013701537150769823,-0.0858423889563621,0.7286223937538641,-0.0009324982512632237,-0.523016711141058,0.0009142658336913582,0.8523214267118877,0.07238043833448489,-0.8112863050133541,0.8604760957101143,-0.07424169869417305,-0.8267803042599151,0.8934262906296915,0.10431679356468594,0.654859450644776,0.9614269567375178,-0.12427689271140203,0.6279290758172602,1.0144337293805241,0.0,0.0,0.0,0.0
0.01241669417023043,-0.08634698114984127,0.7269173342243611,-0.0010604780311950274,-0.5228010386209957,0.0009710907922624643,0.8524535215399293,0.07351684821484077,-0.8093702295416328,0.8480082889431475,-0.07302450807781966,-0.8275374791446217,0.8856285775772953,0.10775283729975955,0.6418769470751388,0.9757908779775081,-0.15791007126473333,0.6270988618169109,0.9905876718792541,0.0,0.0,0.0,0.0
0.012440423693052911,-0.08634524477776334,0.7268783106169345,-0.0010898251559452027,-0.5227927728996482,0.0009778304444565487,0.8524585460493947,0.07350876060900019,-0.8094085180763334,0.847889072581163,-0.07304544713024115,-0.8275812043396338,0.8856125447963273,0.10774892556068394,0.6418587904436864,0.9757655769077919,-0.15792367423578377,0.6271025214066374,0.9905834220944393,0.0,0.0,0.0,0.0
0.012440423693052911,-0.08634524477776334,0.7268783106169345,-0.0010898251559452027,-0.5227927728996482,0.0009778304444565487,0.8524585460493947,0.07350876060900019,-0.8094085180763334,0.847889072581163,-0.07304544713024115,-0.8275812043396338,0.8856125447963273,0.10774892556068394,0.6418587904436864,0.9757655769077919,-0.15792367423578377,0.6271025214066374,0.9905834220944393,0.0,0.0,0.0,0.0
0.012440423693052911,-0.08634524477776334,0.7268783106169345,-0.0010898251559452027,-0.5227927728996482,0.0009778304444565487,0.8524585460493947,0.07350876060900019,-0.8094085180763334,0.847889072581163,-0.07304544713024115,-0.8275812043396338,0.8856125447963273,0.10774892556068394,0.6418587904436864,0.9757655769077919,-0.15792367423578377,0.6271025214066374,0.9905834220944393,0.0,0.0,0.0,0.0
0.01237088349065147,-0.08654008579262627,0.7268128556891351,-0.001297710552648863,-0.5227721431854205,0.001173010574281731,0.8524706600832878,0.07359012808545921,-0.8093385489125493,0.8468246571059285,-0.0729546245531871,-0.8272967227743909,0.8852416525465179,0.11123483475143002,0.6405323964286735,0.9751714173991306,-0.15430478984291068,0.6274028689515394,0.9923180057927807,0.0,0.0,0.0,0.0
0.012559593721939079,-0.08679821908811212,0.7267185961857574,-0.0014784073006534535,-0.5227234543698204,0.0013377715641786367,0.852499979431541,0.07394998520178296,-0.8107065558878886,0.84837516604781,-0.07268472906799345,-0.8289165400301254,0.8880489487603623,0.11494616555281267,0.6397812641401328,0.9743951965204674,-0.15080232431746338,0.6281258354799854,0.994154931034636,0.0,0.0,0.0,0.0
0.013226304155951695,-0.08697498153367753,0.7265912422272386,-0.0015601533553943076,-0.5227868502287828,0.0014165003635187654,0.852460831168269,0.07434279686014345,-0.8140174775713525,0.8543783339891894,-0.0725089852108002,-0.8325433374910787,0.8949206585151095,0.11751444688859934,0.6408107817346156,0.974124401085497,-0.14945022347639308,0.6298757747032652,0.9954624362641352,0.0,0.0,0.0,0.0
0.014403011783646048,-0.08702975483868276,0.7264435631583948,-0.0015532256725219594,-0.522992832913387,0.001418259452895872,0.8523344840796743,0.07464795972221296,-0.8193073319530025,0.8650658193944218,-0.07254802085983052,-0.8379183023866424,0.9056741573918944,0.11888442863885028,0.643825887977425,0.9743707725333498,-0.1504767597584753,0.6329051541846592,0.9959828446979089,0.0,0.0,0.0,0.0
0.016115672871856675,-0.08696660494434888,0.7263012930617646,-0.0014480830248219348,-0.523362963552781,0.0013354571269040554,0.8521075800572753,0.07488923313996941,-0.826361862333529,0.8803121774286996,-0.07277693493744665,-0.8449305911444159,0.9203081060108049,0.11900802098225988,0.6491490781040228,0.9748426340462597,-0.1540741848348822,0.6374272408991563,0.9954463351211483,0.0,0.0,0.0,0.0
0.01838224492899612,-0.08684307473213156,0.726210727572633,-0.0011912110849549593,-0.5239567105671239,0.0011148605626231194,0.8517433319690598,0.07531374618626135,-0.834297279873957,0.8992428528287555,-0.07292736825551535,-0.8534285627005108,0.9388281635444125,0.11762608354771112,0.6574664250647814,0.9749705167717394,-0.1607346865250453,0.6436355498114138,0.9935771450898946,0.0,0.0,0.0,0.0
0.021181855556066866,-0.08681030676614836,0.7262072105773975,-0.0006826738859145941,-0.5248284230793815,0.0005856709268443593,0.8512075641545607,0.07669920702262237,-0.8415450295055485,0.9200274148354713,-0.07218736204385369,-0.8636524273292637,0.9614847948043799,0.11397709531086937,0.6696764411969807,0.974066199661617,-0.1714028928173256,0.651177346752949,0.9903948274933141,0.0,0.0,0.0,0.0
0.023373880945847757,-0.0868583298319548,0.7260126097588164,-0.0008474495618746935,-0.524768476260655,0.0006698303544138024,0.8512443124506658,0.06655491538666987,-0.8486905204100021,0.9080641537454582,-0.07258270955415513,-0.8744826433265974,0.9815439671856779,0.1172843248629505,0.6745963121916604,0.9723326831765156,-0.1720515397656299,0.6568425536893703,0.9891244864469277,0.0,0.0,0.0,0.0
0.025287076390863784,-0.08683079659755683,0.7257725547513216,-0.0009361788645041757,-0.5248679492787413,0.000654910220576537,0.8511829007220866,0.05314885166390334,-0.8615739800706431,0.8980167592534661,-0.07288388766100191,-0.8831513955289434,0.9978585174053086,0.11913272534203107,0.6792283530056057,0.9720638724027306,-0.17419939028804682,0.6614602440830577,0.9884270779515385,0.0,0.0,0.0,0.0
0.02686166380760125,-0.08680946872353203,0.7255460771290505,-0.0009547623831112342,-0.5250997160897779,0.0005686781872126085,0.8510399833123857,0.040536947080290535,-0.8770341290611261,0.8908560396520153,-0.07293702276139184,-0.8896539836765337,1.010522920092322,0.12009397347788213,0.6835465515223632,0.9724062917352896,-0.17707595113533478,0.665166423504823,0.9881872439728482,0.0,0.0,0.0,0.0
0.028045185806268514,-0.08685019837464611,0.725364129325568,-0.0009643280436819014,-0.5253415778790559,0.0004838953281820093,0.850890746493508,0.029678928792615692,-0.8933928275893708,0.8853575793411933,-0.07276523348247518,-0.8943393002042795,1.0198672781846774,0.12116913591935126,0.686944866105548,0.9726356227554416,-0.17919435030084183,0.6680144462345612,0.9883680289129195,0.0,0.0,0.0,0.0
0.028841826444037696,-0.08697687898851159,0.7252423948962649,-0.0009829902568677482,-0.5255446695017935,0.0004206145334923102,0.8507653361367161,0.02029504032613784,-0.90990198229688,0.880496451709737,-0.07235580086249785,-0.8974927033406286,1.0262898985962186,0.1227076387556948,0.6892764875952769,0.9724367108739201,-0.18000908406179836,0.6700880175623992,0.9889115762033543,0.0,0.0,0.0,0.0
0.029298551822071712,-0.08719635795863721,0.7251819938870806,-0.0010035076834305422,-0.5257065134351906,0.0003688217374013979,0.8506653388228952,0.011807512038763025,-0.9263060063480836,0.8756203909620363,-0.07167484671807917,-0.8994035554654672,1.0302998641761136,0.1246731205318241,0.6906996706033129,0.9717425768755811,-0.17958944993210818,0.6714876776869813,0.9897703665387495,0.0,0.0,0.0,0.0
0.02948221534769861,-0.08750799523287088,0.7251722512766378,-0.0010114654208549549,-0.5258409244659799,0.00031033084905908627,0.8505822727927206,0.003716908290954597,-0.9425340852489926,0.8703669657307159,-0.07069266671862541,-0.9003852578160164,1.032466759325133,0.12690512571398185,0.6914673060890651,0.9706134037371211,-0.17824178529226178,0.6723063854004404,0.990934637709135,0.0,0.0,0.0,0.0
0.02945937785138471,-0.087908793536293,0.7251915482244743,-0.0009934751240901754,-0.5259621771377511,0.00022829727632501194,0.8505073480623482,-0.0043077448672167885,-0.9584798909697703,0.8645998870611087,-0.0693904423442132,-0.9007605372561168,1.033335917469787,0.12924544435853777,0.6917832188150438,0.9692049969419636,-0.1762988703544258,0.6725871615937397,0.9924732788646575,0.0,0.0,0.0,0.0
0.029285051296948195,-0.08839266038545483,0.7252123862238249,-0.0009398612714102866,-0.5260795287115718,0.00011079139836496163,0.8504348498601565,-0.012443926208300173,-0.9738039637696947,0.85839986628175,-0.06776850272177665,-0.9008193481338346,1.0333537554496035,0.1315633693756951,0.6917588259154667,0.9677364448628029,-0.1740461431678955,0.6723198689985992,0.9945076741271754,0.0,0.0,0.0,0.0
0.029017227266947884,-0.08892126471014102,0.7252625080636484,-0.0008485710976853339,-0.5262138497360453,-3.522481668510042e-05,0.8503518466095521,-0.020864123330164686,-0.9877024299531293,0.8522709670890549,-0.06595376862283381,-0.9005041264358354,1.0327191877915194,0.13368048606617106,0.6917646375501567,0.9660385398810746,-0.17181495217489104,0.6718453975517009,0.9965803132489371,0.0,0.0,0.0,0.0
0.02865644735941763,-0.0894967994620072,0.7253457869657381,-0.0007254729020975007,-0.5263555773795445,-0.0002021993279333176,0.8502642171501436,-0.029569086396788583,-0.9988778253336249,0.8470334158589816,-0.06396079039062691,-0.8998344055905912,1.0314618223312957,0.13568691668351004,0.6917704400517148,0.9640344596014939,-0.16948761479490215,0.671197452298333,0.9986577128961543,0.0,0.0,0.0,0.0
0.02815354278874913,-0.09016052981969959,0.7254666243425435,-0.0005823830014871426,-0.5264752247652338,-0.0003811295105027951,0.8501901865340086,-0.03837206578346623,-1.0056218483340855,0.8439651549258287,-0.06169686881339051,-0.8988045380521565,1.029423434429589,0.13792220957998796,0.6915213443673573,0.9615240811234601,-0.16653018728199237,0.6702663001978024,1.000906343507255,0.0,0.0,0.0,0.0
0.02743298622327796,-0.09097873125883846,0.7256185375327533,-0.0004229499152768441,-0.5265509863970871,-0.0005737045690208172,0.8501432530466212,-0.046905470305968845,-1.0064250827614425,0.8445785303514252,-0.05897528521795979,-0.8973730396204349,1.026306335634665,0.14075526976771252,0.6906876645386261,0.9583681468713793,-0.16235213627483713,0.6688016241365802,1.003716308442161,0.0,0.0,0.0,0.0
0.026456385813098053,-0.09196944283872462,0.7258167971476994,-0.00025010142908128414,-0.5265780237909613,-0.0007761063517698279,0.8501264141106378,-0.05506887021283827,-1.0012795901138678,0.8488897607186555,-0.05575604043410912,-0.8953628558820322,1.0218179300593628,0.14427346808770683,0.6892257095760342,0.9543712313114773,-0.1567433270241559,0.666784254284535,1.007056897993039,0.0,0.0,0.0,0.0
0.02521608190063175,-0.09313095924721398,0.7260669691307904,-6.692683514513137e-05,-0.5265486346203643,-0.0009863405390389895,0.850144433630292,-0.06295762910395392,-0.9917090942884683,0.8553568847316083,-0.052053767362091836,-0.8927242365327475,1.0158659720828511,0.14842526524824143,0.6871581226087815,0.9494426041619034,-0.1496941613569403,0.6642089566487466,1.0108406574894562,0.0,0.0,0.0,0.0
0.02370931895021915,-0.094462581026964,0.7263772218519872,0.00012877062381646715,-0.5264734937959873,-0.0012078423715362328,0.8501906755929393,-0.07066618655931767,-0.979486640481974,0.8627976289560257,-0.047868041974202184,-0.8893335286497313,1.008312951539229,0.15311873843106816,0.6846105134118,0.9434837957628194,-0.14131064841068602,0.6611100610156768,1.0149657017383387,0.0,0.0,0.0,0.0
0.0219256938310402,-0.09597051460648699,0.7267659702786986,0.0003292848968461359,-0.5263531987297323,-0.0014374807168722032,0.8502647443047513,-0.07828673857671314,-0.9660556161463969,0.870586858349792,-0.04319430696362333,-0.8850385280314492,0.9989826622391739,0.1583830373569158,0.6816894317963371,0.936241480901121,-0.13152483181686012,0.6575653748786615,1.019266898475314,0.0,0.0,0.0,0.0
0.019855471956954418,-0.0976627842912798,0.7272583646519554,0.0005133259855407408,-0.526172584324476,-0.0016634372574059952,0.8503760232851262,-0.08601408233255488,-0.9524733823338691,0.8786330391450298,-0.038042995029521506,-0.8797161446911063,0.9877346067920049,0.164354554855651,0.6784798422591105,0.9273232334906774,-0.12010447406148812,0.6536953065104238,1.0235053554935016,0.0,0.0,0.0,0.0
0.017511329941243277,-0.09953832321978291,0.7278682187660411,0.0006534131620789592,-0.5259157899627984,-0.0018733643210140094,0.8505343293631163,-0.09423832196589446,-0.9396038524699889,0.8874109297838167,-0.03245046565372581,-0.8733454547108522,0.9745817293549979,0.1711460438225785,0.6750948646731842,0.9164112475557523,-0.10689430421177509,0.6496254709907155,1.02746324910422,0.0,0.0,0.0,0.0
0.014954711016051916,-0.10156506900259155,0.7285410904530912,0.0007432878542077174,-0.5256142564756934,-0.002079319428705415,0.8507201521907091,-0.10354710631286806,-0.9284003137357354,0.8981871544763156,-0.02648123545853999,-0.866071904890063,0.9597434291293493,0.17854039168261765,0.6716425440781436,0.9040084165935668,-0.09239875653494929,0.6452786613129422,1.031374521621355,0.0,0.0,0.0,0.0
0.012334400938115659,-0.10359067295752701,0.7290523212279449,0.0008597459533468291,-0.5254726091217939,-0.0023581681154574113,0.8508068152893283,-0.11473420928547638,-0.9201901840036871,0.9136415507880038,-0.020379356643702676,-0.8579330097874758,0.9432771299797783,0.185254455023866,0.668116522907152,0.8931971500281303,-0.07914931276837611,0.6400699142912568,1.0366359643089886,0.0,0.0,0.0,0.0
0.010052775952748047,-0.10517990973553257,0.729133579812011,0.0012114595694137293,-0.5259834642140847,-0.002833446578102435,0.8504892117596503,-0.12862737760765044,-0.9164944019862897,0.9386467048962768,-0.015067671047311822,-0.8482735347208437,0.925348024183017,0.18835420614655637,0.6654738232326703,0.8894717248050759,-0.07289336061914588,0.6342208230914685,1.0442635229215154,0.0,0.0,0.0,0.0
0.008632912956784004,-0.10620001403453624,0.7289990871842715,0.0020350794051927183,-0.5274567345064927,-0.0036099386742780354,0.8495717862654867,-0.14335733649571894,-0.9193763320953203,0.980068674640784,-0.010748257657763162,-0.8374552906729948,0.9090222187439764,0.18646789910192538,0.6670193437613784,0.8920675332451549,-0.07676819156148659,0.6303894429308236,1.0519360297000586,0.0,0.0,0.0,0.0
0.00832250407000346,-0.10652382103870502,0.7287940222209774,0.003288952538848685,-0.5295984551191618,-0.004380682225877043,0.8482307874333672,-0.15631835043711728,-0.9321525378029514,1.039762452553259,-0.00857909051710796,-0.8273636635048367,0.8976188075334689,0.1803306280799599,0.6728384762613419,0.8989238875378662,-0.08935716039563776,0.6299479116108051,1.057624464666402,0.0,0.0,0.0,0.0
0.008328708504762387,-0.10656319385177775,0.7287800694622281,0.0033031543638024612,-0.5296003700992342,-0.004376969571260511,0.8482295557803767,-0.15633076906289492,-0.9321851658146542,1.039766316509255,-0.00854071340607411,-0.8273584718856822,0.8975524309223927,0.1803480206227286,0.6729292662779599,0.8987688666526636,-0.08938612546827342,0.6298618360958814,1.0577618868244352,0.0,0.0,0.0,0.0
0.008328708504762387,-0.10656319385177775,0.7287800694622281,0.0033031543638024612,-0.5296003700992342,-0.004376969571260511,0.8482295557803767,-0.15633076906289492,-0.9321851658146542,1.039766316509255,-0.00854071340607411,-0.8273584718856822,0.8975524309223927,0.1803480206227286,0.6729292662779599,0.8987688666526636,-0.08938612546827342,0.6298618360958814,1.0577618868244352,0.0,0.0,0.0,0.0
0.008340808213696113,-0.10767691932018297,0.7313308595025875,0.0018567909857340292,-0.52771967579114,-0.002856911249976526,0.8494117577289823,-0.157187557036966,-0.936955014723883,1.0468374304686983,-0.009044178558512013,-0.828959163724988,0.9057384751785656,0.1334024303106776,0.6499080269771557,0.9493513466533091,-0.05985021732152097,0.6445537386607113,1.0386781927523583,0.0,0.0,0.0,0.0
0.009004896247128169,-0.10932002850269082,0.734414935265806,0.0012392538073648521,-0.5270283816121107,-0.0021846422880207935,0.849843971893308,-0.1543872698287781,-0.9337847496033094,1.0508309535250726,-0.006343030808587733,-0.8288690806733676,0.9168419503220243,0.0959477355272595,0.6373725243407713,0.9885275790422989,-0.03925441233052342,0.6631281632886619,1.0160558811978542,0.0,0.0,0.0,0.0
0.009753028830274377,-0.11138203102355626,0.7373888467553834,0.0011214195992509648,-0.5268324429364677,-0.0020277563960735506,0.8499660038446679,-0.14914318329916323,-0.9266948748415431,1.051324298656124,-0.0014459992809277532,-0.8288447911691249,0.9284772154264943,0.07310967895610716,0.6284942275491673,1.0188749436396034,-0.02251818091441153,0.681053937281105,0.9951812721310425,0.0,0.0,0.0,0.0
0.010517024618334272,-0.11372762636716761,0.7400804659573789,0.001246201607691605,-0.5267480617079819,-0.002162747669679254,0.8500177933378538,-0.14250289536080918,-0.918788745103986,1.0504126311707913,0.00481633548029231,-0.8302591937474507,0.9412011568715555,0.05935884360422692,0.6216986407885121,1.0439294336467215,-0.007173426769708911,0.6972496834411659,0.9770619189608861,0.0,0.0,0.0,0.0
0.011252053957783791,-0.11620864110350047,0.7424827049377997,0.0014721882751009413,-0.5266562616335095,-0.0024252652971643264,0.8500736043614914,-0.13528332336033452,-0.9110734773855841,1.048825227473798,0.011704658327469402,-0.8328069985486252,0.9543503226575848,0.05035883951319958,0.6161846450444692,1.066046146759136,0.007769583148456627,0.7117207035117489,0.9614936878262259,0.0,0.0,0.0,0.0
0.011891003521524996,-0.11867206089048689,0.7446134442187684,0.0017106092204507227,-0.526525260020487,-0.0027037620378268287,0.850153464997524,-0.1281278369130088,-0.9037969554860791,1.0466054665020619,0.01858841010374266,-0.8356880319910349,0.9667184806175517,0.043588363789240414,0.6112116766643506,1.0865933311497982,0.02253313396062062,0.7245300243900976,0.9480803524066099,0.0,0.0,0.0,0.0
0.01241023936047373,-0.12097370120231328,0.7464977289410873,0.0019238433089086297,-0.5263864867089167,-0.002938143733632342,0.8502381623689722,-0.12152967065133918,-0.8969396531815984,1.0438044301851286,0.024960378080214365,-0.8381520453489181,0.9773938291075718,0.03768243747938878,0.6064322896589984,1.1063580445133168,0.03668352582171002,0.7358763697764545,0.9363583463802017,0.0,0.0,0.0,0.0
0.01283960743944339,-0.12303636109971829,0.7481452834393588,0.0021061442835023695,-0.5262647328246958,-0.0031184495108083467,0.8503124545799956,-0.11570818958505076,-0.8906583642583801,1.040826831259626,0.030596702991337595,-0.8400778840739697,0.9863755504650639,0.03199081333063303,0.6019016531395609,1.1257222394441326,0.04972240591179279,0.7459088235425626,0.926089763033052,0.0,0.0,0.0,0.0
0.013211096337955445,-0.1248238812878512,0.7495598716015258,0.0022643409332174435,-0.5261821614900153,-0.003253226542545213,0.8503626415870446,-0.11073375020604577,-0.8850541875606648,1.0379975323006074,0.03542137164333478,-0.8415028542993058,0.9938519127032809,0.026140247655692242,0.5978464233066335,1.1446687971846843,0.061258386229666374,0.7547202276520945,0.9171993374000261,0.0,0.0,0.0,0.0
0.013533471903487145,-0.1263343068712358,0.7507356284252314,0.0024051441736788986,-0.526147700840743,-0.003354167958246575,0.8503831852399314,-0.10657757953627872,-0.880160612707666,1.0354183636631098,0.03945597856967906,-0.8425169148295768,0.9999667047971094,0.01983410052084175,0.5945303244444728,1.162627968835739,0.07114309374352128,0.7622689817885452,0.9098159431644365,0.0,0.0,0.0,0.0
0.013778518046983346,-0.12759895948121855,0.7516530545405854,0.002527150994045551,-0.5261505756690803,-0.003426355949017121,0.8503807649023226,-0.10313504446834763,-0.875950276803274,1.032895814406632,0.042796091927890065,-0.8432269671706552,1.0047175925134768,0.012712452103881985,0.5922637680430607,1.1782068119704685,0.07957238661782719,0.7683245037250898,0.9043239964015348,0.0,0.0,0.0,0.0
0.01388275559407165,-0.12868312110098556,0.7522804663507965,0.0026154271263578582,-0.5261528077235402,-0.0034631056876043274,0.8503789680869221,-0.1002366648753021,-0.8723943002467358,1.0300008815445187,0.045603433023035246,-0.8437956580028331,1.0080066245308972,0.004248503644760159,0.5916234074107349,1.1887754650307842,0.08715370163111656,0.7724742709825084,0.9013376254308149,0.0,0.0,0.0,0.0
0.013776312789038752,-0.12967643393813016,0.7525972101808429,0.002649001417778785,-0.5260980001951185,-0.0034538657010504312,0.8504128102244843,-0.09765900754760859,-0.8694672932231229,1.0262595412936943,0.04809730305471718,-0.8444493015366715,1.0098048527260313,-0.006175526274650995,0.5939627012643176,1.190148022657264,0.0947251461127553,0.7743226695266587,0.9013960122081413,0.0,0.0,0.0,0.0
0.013416859973653904,-0.13064217973930495,0.7526350347443954,0.0026332920390250815,-0.52597319345728,-0.0034042712791689436,0.8504902565429223,-0.0952143408043623,-0.8668249744124472,1.0211423596817366,0.050447786298937036,-0.8451064530343667,1.0099621955670943,-0.018417567602327718,0.5991436081792196,1.1821902313867227,0.10262450663340146,0.7738628466454257,0.9044148746071123,0.0,0.0,0.0,0.0
0.01278858607799263,-0.13161602555592836,0.7524764603783093,0.002594736648611122,-0.5258024799301648,-0.003332901611777349,0.8505962092602218,-0.09276205328634786,-0.8638517484302474,1.0140976730342783,0.05276649503551089,-0.8453999296219318,1.0082208633739194,-0.0316593113275912,0.6055491579586035,1.1688405612835633,0.11073915031098833,0.7714687879038393,0.9096900342250225,0.0,0.0,0.0,0.0
0.011872065378243061,-0.13264982248115564,0.7522123329198376,0.002545417766349567,-0.5255850495789688,-0.00324875816482237,0.8507310515538117,-0.09014279462656151,-0.8600190876082044,1.0046145260528152,0.05519098152815539,-0.8450477306437465,1.004412406228397,-0.04531477613062172,0.6123434586820321,1.1525580107514732,0.1192198876577818,0.7675340756397052,0.9164334053347855,0.0,0.0,0.0,0.0
0.010624597901898482,-0.13380868200651755,0.7519172704785084,0.0024763549807854082,-0.5252945198161368,-0.003142320459362256,0.8509110769870574,-0.08720369507821595,-0.8548983307381081,0.9920981529894767,0.057857783172318655,-0.8438246443788666,0.9982989695034659,-0.05915087103808952,0.6189658605523659,1.134688900115347,0.12855485820227827,0.7622980739342223,0.9240544740981798,0.0,0.0,0.0,0.0
0.008990532938428542,-0.13515268241257414,0.7516442131616244,0.0023613583332890114,-0.5248940319242501,-0.0029866802406396473,0.8511590679645411,-0.08384610403423218,-0.8481551082238831,0.9759170147402769,0.06085419831084329,-0.8415112240340699,0.9895403312039465,-0.07328831147847106,0.62492665011995,1.1159567312062164,0.13938402113109483,0.7558675107826449,0.9321609612227252,0.0,0.0,0.0,0.0
0.00693069847228291,-0.1367133979187284,0.7514223403177414,0.002161329360357029,-0.5243497911251582,-0.0027405800060253302,0.8514958099859502,-0.08008519664675623,-0.839640083777325,0.9556433232770717,0.0641640789958755,-0.8379222039639868,0.9778234821604759,-0.08829565457882214,0.6298525255865308,1.096870183854673,0.1522675848492806,0.748308448149329,0.9404762953346187,0.0,0.0,0.0,0.0
0.004469414076911399,-0.13846862810054902,0.7512516986175123,0.0018292524148299527,-0.5236410263926126,-0.00235391140423774,0.8519337934459432,-0.07610889847380349,-0.829614635447564,0.9315194417263923,0.06762078411181066,-0.8330598836519509,0.9631925127014462,-0.10552326101878627,0.6337751615718795,1.078111120570852,0.16745717647637312,0.7397647055921082,0.948770810466598,0.0,0.0,0.0,0.0
0.001765659744010203,-0.14032194710257012,0.7510818050421569,0.00130998049798604,-0.5227452825983604,-0.001769748654827338,0.8524860828552886,-0.07233381818723425,-0.8193527229752636,0.905415604264416,0.07088056919147402,-0.8276100148453756,0.9468246081064572,-0.12788042846841885,0.6377535270802107,1.0608816814804147,0.18483340482909896,0.730530382567813,0.9569313048559255,0.0,0.0,0.0,0.0
-0.0007502419403930993,-0.14209223634127272,0.7507577310235898,0.0005032135194628293,-0.5214876009535201,-0.0008828064849713959,0.8532582548564099,-0.06955775865376584,-0.8132209940524447,0.8835606283885111,0.07337111814689906,-0.8246711315922849,0.933332523342842,-0.16086940249835652,0.6447324739811433,1.046394006922953,0.20440882014462308,0.72091428876274,0.9651066042188441,0.0,0.0,0.0,0.0
-0.002816810551455918,-0.143561031803205,0.7502212228659014,-0.000586210185832028,-0.5199482068359881,0.0003122134672754726,0.8541975304860167,-0.0683726209517632,-0.8129729750229433,0.8693689935778366,0.07456277095044768,-0.8250117009131122,0.9245221517845332,-0.20755119400784372,0.6549153172773964,1.0365960839570691,0.2248406384630081,0.7115278826851954,0.973160023875396,0.0,0.0,0.0,0.0
-0.004239220118629329,-0.14451435554802555,0.7491866978401107,-0.001506383571957049,-0.5185658500460182,0.0013780226802409283,0.8550352571842155,-0.06840411266035193,-0.81744368663752,0.8629179463354945,0.07477673751890736,-0.8287448450738982,0.9207621704192602,-0.25516548511912146,0.6643976474105433,1.0333790806886578,0.2400109118695981,0.7013477206017127,0.9838871625594162,0.0,0.0,0.0,0.0
-0.004217397214503214,-0.1445333661125761,0.7491546431985153,-0.0015540391447869937,-0.5185775065358873,0.0014008120767642206,0.855028065272061,-0.0684214342636877,-0.8174528858320591,0.8628307043401444,0.07478103230299697,-0.8287428144590179,0.9207854137996341,-0.25515538975979496,0.6643758387779336,1.0333641724313944,0.23999675644427781,0.7013014607867941,0.983845687038001,0.0,0.0,0.0,0.0
-0.004217397214503214,-0.1445333661125761,0.7491546431985153,-0.0015540391447869937,-0.5185775065358873,0.0014008120767642206,0.855028065272061,-0.0684214342636877,-0.8174528858320591,0.8628307043401444,0.07478103230299697,-0.8287428144590179,0.9207854137996341,-0.25515538975979496,0.6643758387779336,1.0333641724313944,0.23999675644427781,0.7013014607867941,0.983845687038001,0.0,0.0,0.0,0.0
-0.004755266810534459,-0.14481282045429641,0.7493514012168326,-0.001168482844118596,-0.5193217356043224,0.001139417287566443,0.8545772471257365,-0.06703247598772923,-0.8076978824978287,0.850561666545215,0.07570882550946369,-0.8220935052723303,0.9122619238633534,-0.25845014766499735,0.6669592975356181,1.0330168752504756,0.2383231375004147,0.7019535106916656,0.9844793776967606,0.0,0.0,0.0,0.0
-0.005200076402606648,-0.1453267682111558,0.7493731652712654,-0.0009901965992219625,-0.5197026538439036,0.001013398890368779,0.8543460330106224,-0.06538810124552163,-0.8012164803883041,0.8412633946502559,0.07708846616573066,-0.8186816372068378,0.9072947617285568,-0.2570780103611142,0.6671023750239539,1.0327291779044285,0.24017277620231217,0.7016047850960017,0.986683093439468,0.0,0.0,0.0,0.0
-0.005216798658985093,-0.14584652065336323,0.7493336730191013,-0.0008836132093175969,-0.5199220355680578,0.0009349668190082493,0.8542127498436856,-0.0639100756326241,-0.7984984580844463,0.8377602402688372,0.07850627396746034,-0.818554053238938,0.907572597436567,-0.25517410192654577,0.6676273909111315,1.0323463710571237,0.24327990473036257,0.7020844892587107,0.9888756674906153,0.0,0.0,0.0,0.0
-0.004743449171283574,-0.1463047250385732,0.7492711088596281,-0.0007886587416527112,-0.5200902178230542,0.0008531556484138004,0.854110540543551,-0.06264740277800987,-0.7991288638810466,0.8401975299418707,0.07988517424595856,-0.8212681018049875,0.9129667672220562,-0.25435341949421775,0.6695280304875919,1.0319311370925774,0.24674207827005495,0.7039222638397371,0.9906676883207824,0.0,0.0,0.0,0.0
-0.00374676553788773,-0.14669492708389856,0.7491996421063045,-0.0006708849836415741,-0.5202554179342999,0.0007322016843568879,0.8540101368859969,-0.06153258698179043,-0.8028464277755275,0.848521595992708,0.08128438396398044,-0.8266918126409488,0.9234830223230402,-0.2553261761446499,0.6732881371815193,1.031467057158632,0.2502227954858355,0.7073485329390395,0.991948193524161,0.0,0.0,0.0,0.0
-0.0022130559283043824,-0.14705837454067353,0.749136718648924,-0.0004906510594769976,-0.5204535300603449,0.000519254588506775,0.853889695853004,-0.06033593075380688,-0.8091461331898533,0.8622260125542877,0.08292511207260604,-0.8347163116786743,0.9390556580423014,-0.25860238843090994,0.6793470368895371,1.0307566732027842,0.2535221893089495,0.7124983724531656,0.9926590157613157,0.0,0.0,0.0,0.0
-0.0001400321129824229,-0.1474615454957345,0.7491283588962379,-0.00012426427096653953,-0.5208166662500463,-3.7752411029470815e-05,0.8536685441606328,-0.05825646536092402,-0.8163154014513532,0.8796382809283378,0.08555684863384443,-0.8448240095889623,0.9591203714082223,-0.26686626113835077,0.6891851816523982,1.0295905329941297,0.25478731881972144,0.7193730621002946,0.9926158366620146,0.0,0.0,0.0,0.0
0.0021016582258882232,-0.14763839172181323,0.7489067957784036,3.450074603653577e-05,-0.5205434204130935,-9.859420327592884e-05,0.8538351928525311,-0.058086630895913184,-0.8300599006826401,0.9037731040714373,0.07040428005395147,-0.8392022077910289,0.9270910811067906,-0.2707929337799333,0.6952927539510114,1.028951681327155,0.25811827316804276,0.7250236538901743,0.9925704475407272,0.0,0.0,0.0,0.0
0.0042722728832292655,-0.14801570797592806,0.7486053162833632,0.00023854244753093858,-0.5203430663661479,-0.0003326785965498214,0.8539572153844281,-0.05694369677237288,-0.8421662539995101,0.9253043607621408,0.05439904739111208,-0.8427618433821382,0.904014700011636,-0.2750359992490103,0.7014764883286267,1.0287569670947725,0.26166780079258384,0.7300842031683298,0.9938246525789473,0.0,0.0,0.0,0.0
0.006121369074256533,-0.14859078561503,0.7483522590305515,0.00044718839746453964,-0.5202364717432411,-0.0006317112707230024,0.8540219051239561,-0.05504414355869626,-0.8511370117809338,0.9418720043308245,0.04023834860066397,-0.8513841094251162,0.8880550335892854,-0.27799870886705125,0.7071882392203928,1.028013438327141,0.2660415224160194,0.7346613334496859,0.9955071900626492,0.0,0.0,0.0,0.0
0.007576733324023603,-0.1492962449098569,0.7481602265524598,0.0006316963202072795,-0.5201811849105465,-0.0009250679766818528,0.8540551973227827,-0.05272911544761288,-0.8572565495226588,0.9536381540482883,0.028135898961834424,-0.862381079896019,0.8762585465292001,-0.2790572269009467,0.7118460968492268,1.0267416893451744,0.2711922193970819,0.7385436791222975,0.9973828584448291,0.0,0.0,0.0,0.0
0.00866723413021042,-0.15005567845263984,0.7480167398992086,0.0007842928042693921,-0.5201536597793208,-0.0011841153103866692,0.8540715151402178,-0.050282609366789424,-0.8611583682399799,0.9615029113708329,0.017547008716007954,-0.874401340005689,0.8666709312324685,-0.27843314601707536,0.7153337282473406,1.0252000025030086,0.27675483177689253,0.7416777531130649,0.9993477504723538,0.0,0.0,0.0,0.0
0.009467772850574438,-0.1508103105080585,0.7479104832617474,0.0009086897540519432,-0.5201442325987908,-0.0014062213533596148,0.854076796382299,-0.04788477961391355,-0.8634772871970173,0.9665230264829124,0.007837820440792514,-0.8868359464860435,0.8581063781167134,-0.2767081180185008,0.7178586033012843,1.0235815609209697,0.2823213417102441,0.7441645161302045,1.0012857575397682,0.0,0.0,0.0,0.0
0.01006339414177589,-0.15152643115229983,0.7478323556589298,0.0010132761227219342,-0.5201481420697431,-0.0016007840675739853,0.8540739552657384,-0.04561936565718121,-0.8647555544122459,0.9696634837247169,-0.0014604539840859677,-0.8994130199723597,0.8498726087405437,-0.2744742383217745,0.7197333439108037,1.0219897886610383,0.2875901994198817,0.7461629685958828,1.003104963941324,0.0,0.0,0.0,0.0
0.010529209520427407,-0.15219340125662462,0.7477724227630452,0.0011072373497568034,-0.5201600905359222,-0.0017800590059110402,0.8540662068183286,-0.04349907465973567,-0.8654244504717906,0.9716952698272187,-0.010595723821544266,-0.9119182706190719,0.8416086601083121,-0.27215374742600706,0.7212262999926298,1.0204775822031087,0.2924154200463068,0.7478135992493896,1.0047809122229805,0.0,0.0,0.0,0.0
0.01091851934053907,-0.15281780394175903,0.7477126529053182,0.0011956092149917597,-0.5201672603508055,-0.0019505267310837755,0.8540613486297186,-0.04150157055932719,-0.8658499291735247,0.9731811466642243,-0.01964355115829504,-0.9239711540573554,0.8331974384906802,-0.26988037216091443,0.7224264747974783,1.0191241835289353,0.2968284952854235,0.7491593661565249,1.0064156354851925,0.0,0.0,0.0,0.0
0.011288081537254104,-0.15342067908221865,0.7476558648653039,0.0012923205574186514,-0.5201652379311898,-0.0021299527665076326,0.8540620108966199,-0.039538522300053634,-0.8662398454985678,0.9745737469960807,-0.02852351518890344,-0.9348511585499478,0.8249128005280004,-0.26783421841873634,0.723587273000279,1.0177981492559294,0.3008499970815911,0.7503558226018353,1.007957965849936,0.0,0.0,0.0,0.0
0.011657758558109771,-0.15402251238901407,0.7475962763458565,0.0014008658904395522,-0.5201429261048162,-0.0023220175434977043,0.8540749277624327,-0.03755149419699012,-0.8667198086730556,0.9760500643367481,-0.0371404639798916,-0.9432936158360368,0.817444806993799,-0.26591184561174697,0.724711494018721,1.016458333369197,0.30460448633709225,0.7514140545901936,1.0094674406879092,0.0,0.0,0.0,0.0
0.0120117101477761,-0.1546344424732112,0.7475277047991279,0.0015158507181870107,-0.5200929871032902,-0.002520198476685552,0.8541045811621755,-0.035524591438422425,-0.8672652175994209,0.9774813912529865,-0.0454501410197452,-0.9475468951780619,0.8120499250365659,-0.26387676019198436,0.7256516322267619,1.0151271586593087,0.3082246497655432,0.7522560293124834,1.0110347147088976,0.0,0.0,0.0,0.0
0.012348438999761532,-0.15524564186867007,0.7474512180723676,0.0016409584766868455,-0.5200319887605329,-0.0027340811525425465,0.854140833072213,-0.03345984281519905,-0.8677712987957522,0.9787829322810908,-0.053459580498772113,-0.9459475482240178,0.8102901278469842,-0.2619829651018834,0.7265131878503353,1.0138656463909363,0.3115584787709259,0.7529015681701503,1.0126525690762964,0.0,0.0,0.0,0.0
0.012717913649982626,-0.15585984837379765,0.7473619546315451,0.0017940332220413473,-0.5199663216199183,-0.002987989448746761,0.8541796519145748,-0.031295779850663286,-0.8683924733355921,0.9803385236382595,-0.06109722431553514,-0.9384418487286272,0.8120595453732729,-0.26066245320252235,0.7275722185508936,1.0126888838301156,0.3144370760994784,0.7534544950005705,1.0143207557647687,0.0,0.0,0.0,0.0
0.013089899785540022,-0.156572303215069,0.7472531017448836,0.0019740377889976525,-0.5198620962664566,-0.003272874172504112,0.8542416475066665,-0.028808003433432983,-0.8690125916012231,0.9817554381877973,-0.06806609639144778,-0.9268428834637373,0.8158088149525837,-0.25885910008571505,0.7284453669165754,1.0113547620341694,0.31759622872161675,0.7537710337859863,1.0163058721224691,0.0,0.0,0.0,0.0
0.01349792898091429,-0.1574389479845321,0.7471242057373065,0.0022002920236318443,-0.5197112109036008,-0.003611129860550815,0.8543315373537687,-0.025803018267486346,-0.8696587201860602,0.9831558457575496,-0.07427754249933849,-0.9129145669051316,0.8201967196141383,-0.256470897960338,0.7292629489921938,1.0096750478836354,0.3212466701860062,0.7539220901313325,1.018678828176592,0.0,0.0,0.0,0.0
0.013948228990756593,-0.15850751250071754,0.7469783065012692,0.002485561078012296,-0.5195101901179774,-0.004020353864783477,0.8544511812295144,-0.02211388084612869,-0.8702121027211711,0.9844063314866696,-0.07979982479062248,-0.8978878088362222,0.8244212778775816,-0.2533367182140382,0.7300766276958758,1.0074798984071949,0.3255688776877311,0.7539252916849364,1.0214952396141728,0.0,0.0,0.0,0.0
0.014419699590959427,-0.1598149065873276,0.74681856037259,0.0028292958903604394,-0.5192435291601607,-0.004501122273872615,0.8546097895579841,-0.017638287591664175,-0.8705486771217384,0.9852402836845925,-0.08488984999320641,-0.882398629605048,0.82803781139396,-0.24905702941728913,0.7307407285689569,1.0046140280035003,0.33077762333003263,0.7537005409396547,1.0247935375797355,0.0,0.0,0.0,0.0
0.01487876709166594,-0.1613698590615391,0.7466456466627353,0.0032193066397679998,-0.518887536138415,-0.005040016697470143,0.8548215949171227,-0.012377874755290539,-0.8706298017765602,0.9854337859648772,-0.09003879970408339,-0.866625815073483,0.8307748442793668,-0.24323569791348412,0.73100009260908,1.0010038687812788,0.33697077143235143,0.7530948363250134,1.0285671912842058,0.0,0.0,0.0,0.0
0.015300173963007386,-0.16311454303336895,0.7464494721681333,0.0036401910541549003,-0.5184355155271593,-0.005628122735971247,0.855090456901284,-0.0064931898210378635,-0.8705342275563106,0.9849835969509435,-0.09600132589366947,-0.8504471117930263,0.8323883579189325,-0.23616180618260388,0.7307245872466016,0.9968885452007341,0.3437099049419257,0.7519149919511813,1.0327704120526962,0.0,0.0,0.0,0.0
0.015673681234235643,-0.16486982929575197,0.7461702462767937,0.004085236373931298,-0.5179342795887107,-0.006289541371339553,0.8553875347116244,-0.0003749320959504773,-0.870480693341767,0.9841918292751204,-0.10366035493010427,-0.8335902421944568,0.8324092620624369,-0.22971076793056863,0.7300204172060646,0.9934432457136946,0.34941201284137735,0.7497812607843464,1.0376095552098326,0.0,0.0,0.0,0.0
0.01604277014622538,-0.16631147249933448,0.7456775981614888,0.004595384300923079,-0.5175411853895951,-0.007128869465945703,0.8556162592475653,0.005398287102950492,-0.8706989433744803,0.9837660990535796,-0.11339178294440408,-0.8159749071858647,0.8298634788041314,-0.228321515444729,0.7296275859082143,0.9931956417466925,0.35086622332957546,0.7462360915796461,1.043747594860814,0.0,0.0,0.0,0.0
0.01637169791341396,-0.16722600017375383,0.7450317613594246,0.005138818936922754,-0.51716342141757,-0.008093395621897636,0.8558329773004274,0.010146698424561378,-0.8720045496993913,0.9846630747280817,-0.12399382679056478,-0.7975002761601077,0.8217103868352732,-0.23258636344914482,0.729271671076852,0.9960594220602698,0.3461619660036365,0.7408777516012385,1.0500519099792869,0.0,0.0,0.0,0.0
0.01651759361568974,-0.16751260961796455,0.744406954441164,0.005715549634192802,-0.5167798110805144,-0.009180057435628674,0.8560500487106145,0.013592038876779896,-0.8735780715719379,0.9858705147614185,-0.132549783713243,-0.7802027605183572,0.8046612513518903,-0.24291032780533292,0.7292171143223788,1.0008098926198599,0.33361788431699496,0.7335687418306035,1.0548559309871153,0.0,0.0,0.0,0.0
0.01653762864611987,-0.1675525616171594,0.7443964805862053,0.005762026019544565,-0.5167592122229224,-0.009184160082598836,0.8560621279103942,0.013691336084903232,-0.8735954013987363,0.9858888254368922,-0.13256103370978112,-0.7801752377805062,0.8046773858697138,-0.2429663652126184,0.7292255145249422,1.0007119266874742,0.33367369882947356,0.7335111755544365,1.0549431684238237,0.0,0.0,0.0,0.0
0.01653762864611987,-0.1675525616171594,0.7443964805862053,0.005762026019544565,-0.5167592122229224,-0.009184160082598836,0.8560621279103942,0.013691336084903232,-0.8735954013987363,0.9858888254368922,-0.13256103370978112,-0.7801752377805062,0.8046773858697138,-0.2429663652126184,0.7292255145249422,1.0007119266874742,0.33367369882947356,0.7335111755544365,1.0549431684238237,0.0,0.0,0.0,0.0
0.01794703258725104,-0.169387487754631,0.7463516482113829,0.003544089019724019,-0.5174901601019782,-0.005560634080247167,0.855663749950455,0.009767068636524392,-0.8745494636664618,0.9925514999478798,-0.13636160534789243,-0.7719542209985457,0.8123496739867402,-0.18511570128443666,0.7309879911206497,0.9749566976668357,0.27056204148136737,0.7141365304582793,1.0554617535427948,0.0,0.0,0.0,0.0
0.01975963600417915,-0.17131960801896806,0.7472997347341339,0.0018785268065490673,-0.5187823691547562,-0.0029582297992633666,0.854899159823935,0.008662361598947272,-0.8745953125570239,0.9989831275514377,-0.1374223002421604,-0.7687998572010055,0.8249467902935819,-0.1426107706470663,0.7352503635268659,0.9582278700774565,0.20411013340962678,0.695005467891779,1.0644622876233452,0.0,0.0,0.0,0.0
0.0219455390601682,-0.17318702790127352,0.7476006009414551,0.0010792883523345785,-0.5202590831353691,-0.0018285420988944198,0.854005841891957,0.010948710114409291,-0.8739663554354471,1.0062294472143192,-0.13538375732929442,-0.772777771798435,0.8445188047486836,-0.11808341484531523,0.7431851479187369,0.9482984942167284,0.15405747635806774,0.6829348579394723,1.0784177756752398,0.0,0.0,0.0,0.0
0.02423683209620209,-0.1748314463876398,0.747402138776755,0.0008115421003405404,-0.5215744863336033,-0.0015214637496404047,0.8532040094568917,0.014608428137824148,-0.8747416021848876,1.015042228348935,-0.13222362188725667,-0.7814289503590915,0.8673721080062717,-0.10412325049852793,0.7514709532144014,0.9438319994856835,0.12014388159036012,0.6765187167420542,1.0952228140114368,0.0,0.0,0.0,0.0
0.026385050558487215,-0.1761995205596818,0.7471339293368984,0.000721816767212046,-0.5226789417750416,-0.0014902378395950135,0.8525279948463034,0.01820755191594958,-0.8761244771315226,1.0240294090832733,-0.1291588384457622,-0.790443877847536,0.8887902578824466,-0.09470502792074623,0.7594553210494082,0.9407680382707794,0.09521837187259036,0.6718798530947349,1.113962385890611,0.0,0.0,0.0,0.0
0.02823605047558056,-0.1773422925247028,0.7469704748451425,0.0006201135948117612,-0.5235189669415226,-0.001415076246209699,0.8520126197837846,0.021115085299949803,-0.8778300144718942,1.0322961186657018,-0.1267269945340404,-0.7981127966013906,0.9069762720467721,-0.08572041102450634,0.7661361385647371,0.9371468568311832,0.0757783582418514,0.6671126002336399,1.1336307831694348,0.0,0.0,0.0,0.0
0.02975813821979024,-0.17832683336265787,0.746960298837867,0.0004722781768324594,-0.5241355969738397,-0.0012544399276503996,0.8516337706541869,0.023405946369116047,-0.8793350120290879,1.039219690319028,-0.12482586697345151,-0.80410568484999,0.9218144295071575,-0.07621869084838712,0.7715104621345446,0.9324463268505006,0.0593075862323689,0.661752866273584,1.1534895298249799,0.0,0.0,0.0,0.0
0.03096401204692942,-0.1792239487517509,0.747080965958732,0.0002867894852367851,-0.5245776617501708,-0.001025449964965452,0.8513619341953714,0.02530111313502767,-0.8803281217700881,1.0444785306446343,-0.12323569049389048,-0.808639560223555,0.9337567839544532,-0.06601613592961633,0.7756633600502402,0.9267877832780745,0.044522209652697965,0.6558314059031561,1.1730479004921368,0.0,0.0,0.0,0.0
0.03188985463449266,-0.18008074753911138,0.7472765318618821,9.496026477786788e-05,-0.5249027906463181,-0.0007810210032903476,0.8511618185518239,0.027045405575891912,-0.880612618087628,1.047950921871779,-0.12172264695760289,-0.8120936855914607,0.9433647666607036,-0.05562510216857408,0.7788227082592951,0.9206837322819726,0.03067376987742968,0.6495768178286518,1.1918078061785198,0.0,0.0,0.0,0.0
0.03256450854140212,-0.18093894192988946,0.7474754222762182,-8.676118028143017e-05,-0.5251409425320149,-0.0005429030545415089,0.8510150928187807,0.02879655054843004,-0.8802364617038998,1.0496612920836126,-0.12014578753482034,-0.8148855049469664,0.9511514213903314,-0.045168265929257434,0.7809167433439647,0.9147348858747953,0.01753178828595571,0.6431818763990105,1.2089744591650593,0.0,0.0,0.0,0.0
0.032996462557658056,-0.18182940478897802,0.7475942644254692,-0.0002538329745357268,-0.5253015397616712,-0.00031015650190673125,0.850916054435326,0.030630495112673305,-0.8793822703831436,1.0496413961052748,-0.11844485475222268,-0.8173789086664814,0.957438181430511,-0.034522704613892834,0.7815902529492428,0.9096687245511426,0.005253249260815274,0.636935138797759,1.2230973719062885,0.0,0.0,0.0,0.0
0.033176102583816036,-0.18274851878543372,0.7475386273557975,-0.0003789572064496569,-0.5254151769270531,-0.00012860898680855704,0.8508458918663694,0.03264283940311256,-0.8780385159179437,1.0477150561999409,-0.11652897111173835,-0.8197985997661462,0.9622213479596844,-0.024412993647326162,0.7806380991907987,0.9065701352024178,-0.005963006540366293,0.6316648655656112,1.231599967734774,0.0,0.0,0.0,0.0
0.03308650360220215,-0.18367261330378756,0.7472299980705037,-0.0004177521833020225,-0.5255236444839831,-7.839684707395364e-05,0.8507788892687217,0.03495624383258058,-0.8760057719766422,1.0435685139717328,-0.11427173126166199,-0.822258121875548,0.9653295321451723,-0.01608066107450245,0.7780741236693312,0.9065171990771961,-0.015896242480907923,0.6291711188594905,1.230420932547297,0.0,0.0,0.0,0.0
0.03270978223072734,-0.18464191109194122,0.7466521039155387,-0.0003738683540868128,-0.5256193725602882,-0.00014931685989430586,0.8507197617995352,0.03764745741709448,-0.8732049558258309,1.036944936083285,-0.11159541028743887,-0.8248553607709137,0.9668225781306453,-0.009036462725281406,0.7736531750284471,0.9095350089717883,-0.024519824700258826,0.6294455163011012,1.2195720852398413,0.0,0.0,0.0,0.0
0.0320320949951791,-0.18575653782833998,0.7458534213406653,-0.00029143638421625544,-0.5256595370163054,-0.00025693196728994536,0.8506949513160411,0.04077475043240755,-0.8695826581439214,1.0275949124471724,-0.1084404541985598,-0.8276382161112308,0.966967070781642,-0.0014246703189614148,0.7670516575126247,0.9145891414863208,-0.03211538662895104,0.6307077044360571,1.203106995377955,0.0,0.0,0.0,0.0
0.031038474133148187,-0.18709746706546984,0.7449044553248769,-0.00020924484250731983,-0.5256061624617395,-0.00033107361350145133,0.8507279286523405,0.044377601853356395,-0.8649779732391929,1.01522076012424,-0.10475842967374495,-0.8305246102785926,0.9658872587864964,0.008179976226617685,0.758172336796741,0.9204966684378066,-0.03889619056148866,0.6321120445395813,1.1835557102381338,0.0,0.0,0.0,0.0
0.029706270833810923,-0.1886978556226517,0.7438654526058466,-0.00015559319433805217,-0.5254377428934018,-0.00033030510327289217,0.8508319722673707,0.048435925518466955,-0.8591689856068744,0.9994847582967047,-0.10055162525439128,-0.8332705952541046,0.9633978051076472,0.020359154899374864,0.7470700353074191,0.9264184084702924,-0.04506376447599091,0.6333217255345917,1.162271870144714,0.0,0.0,0.0,0.0
0.028013691892032733,-0.19053104441340069,0.7427785523596778,-0.0001525006624723356,-0.5251514308554394,-0.00023646422799594206,0.8510087517168677,0.0528281070481707,-0.8519670062197712,0.980135764702538,-0.09591928369732612,-0.8354700587865558,0.9590135170497339,0.034851932018883036,0.7339339197133152,0.9319615934316399,-0.05091223777673769,0.6342125544438624,1.1398907137839012,0.0,0.0,0.0,0.0
0.025956487931262366,-0.1925004422028126,0.7416667935657528,-0.0002158219361290855,-0.524766718955632,-5.432304923837157e-05,0.851246052059238,0.05730862087433768,-0.8433054138691558,0.9571863341225436,-0.0910877980742789,-0.8365830119675159,0.9520365421531041,0.050604996404948144,0.7191237273409916,0.9372076979031655,-0.05701311898307059,0.634751032900867,1.1166589008390617,0.0,0.0,0.0,0.0
0.02357530001513574,-0.19443093852895302,0.7405273199327187,-0.0003590950203766199,-0.5243166207018349,0.00020703965035013034,0.8515232876681399,0.06144895436358837,-0.833517940342606,0.9313125329969099,-0.08648757365275285,-0.8360678340809188,0.9417938261473987,0.06609284238370408,0.7030744900774287,0.942754245380071,-0.0644123109180581,0.634989111571868,1.0926696700766971,0.0,0.0,0.0,0.0
0.020996706573408748,-0.1961108161661785,0.7393211367184869,-0.0005850377070663794,-0.523830477034756,0.0005300229565555045,0.8518221693147501,0.0647701183690275,-0.8235904529604212,0.9042548455580486,-0.0826467041383871,-0.8338519514685574,0.9283349857134441,0.07973752592646635,0.6862507282194399,0.949607935497137,-0.07514368045981121,0.635050268911428,1.0678766795899752,0.0,0.0,0.0,0.0
0.018359524801086123,-0.19743582794312162,0.7380009247207551,-0.0008369266047522058,-0.5234079001505669,0.0007724884785345038,0.8520814942688189,0.06738005670272516,-0.8136911148709889,0.8769929948209917,-0.07949372202198866,-0.830190917085213,0.9122073380670157,0.08992931243824705,0.6695179989744177,0.9587790408997235,-0.0924912801646525,0.634724513121236,1.0420916161256202,0.0,0.0,0.0,0.0
0.016277241604664507,-0.19841050341746033,0.7364403015179668,-0.001036955419007716,-0.5230118086351345,0.0009294778757601424,0.8523242979186636,0.06937684790092116,-0.8074508385204702,0.8558730767285072,-0.07717868048659164,-0.8288174880394923,0.8997113945916346,0.09697237477095155,0.6539191626328305,0.9706818377038551,-0.11890278321458597,0.6349942206525192,1.0157015994360734,0.0,0.0,0.0,0.0
0.015037634044134244,-0.19887686395793208,0.7349932847258956,-0.0011623845519906212,-0.5227837485334583,0.0010066185796351241,0.8524639510562861,0.07035160200292721,-0.8052364376835464,0.8438553125514744,-0.07610042399697282,-0.8290342944809985,0.8920538652187938,0.10031786895890889,0.6422963665827136,0.9827012196037509,-0.15131160346034167,0.6352100183145514,0.9909026186598905,0.0,0.0,0.0,0.0
0.015057238449510476,-0.19887587815367413,0.7349612204372639,-0.0011899564663491065,-0.5227735891161833,0.0010130049721312402,0.8524701357508769,0.07034544275621839,-0.8052721886975209,0.8437432242861344,-0.07611925862024724,-0.8290718479126876,0.8920356876676466,0.10031161656383249,0.6422747344723609,0.9826738841180191,-0.1513255047115328,0.6352151652891442,0.990899286439421,0.0,0.0,0.0,0.0
0.015057238449510476,-0.19887587815367413,0.7349612204372639,-0.0011899564663491065,-0.5227735891161833,0.0010130049721312402,0.8524701357508769,0.07034544275621839,-0.8052721886975209,0.8437432242861344,-0.07611925862024724,-0.8290718479126876,0.8920356876676466,0.10031161656383249,0.6422747344723609,0.9826738841180191,-0.1513255047115328,0.6352151652891442,0.990899286439421,0.0,0.0,0.0,0.0
0.015057238449510476,-0.19887587815367413,0.7349612204372639,-0.0011899564663491065,-0.5227735891161833,0.0010130049721312402,0.8524701357508769,0.07034544275621839,-0.8052721886975209,0.8437432242861344,-0.07611925862024724,-0.8290718479126876,0.8920356876676466,0.10031161656383249,0.6422747344723609,0.9826738841180191,-0.1513255047115328,0.6352151652891442,0.990899286439421,0.0,0.0,0.0,0.0
0.01497679682123462,-0.19907739670119215,0.7349118618582812,-0.00140302609426654,-0.5227419871633144,0.0012182247796655198,0.8524889220997034,0.07041977508726795,-0.8051835625396747,0.8426280003629107,-0.07603307119990108,-0.8287507908118116,0.8916292069028702,0.10396172839583082,0.6409070172949414,0.9819303257876318,-0.14746699573808278,0.6356017277481298,0.9925179009407998,0.0,0.0,0.0,0.0
0.015142467376221951,-0.19935564104756723,0.734832473381508,-0.0015966426367002957,-0.5226665606413244,0.0013960676141022547,0.8525345553787695,0.07080085902435787,-0.8065470082701152,0.8440576724488699,-0.07573996301950299,-0.8303690224024051,0.8943841876922216,0.10795182112838139,0.6400269270441501,0.9809225795181982,-0.14353576101554136,0.6363708032588534,0.9942818333103276,0.0,0.0,0.0,0.0
0.015789453785235,-0.19955018982238348,0.7347147742914224,-0.0016837660185427827,-0.5227143661188168,0.0014814197635319045,0.8525049335813151,0.07121763059536468,-0.8098106173370516,0.8499228715727676,-0.07553638017403581,-0.8339584559601627,0.9011542204442727,0.11066738563581217,0.6409913745352156,0.9804832106418621,-0.14189037329581708,0.6381558375495949,0.9955364530042703,0.0,0.0,0.0,0.0
0.016950286065618887,-0.19961924969090203,0.7345712173193197,-0.0016754933369417383,-0.5229162395123405,0.0014838270659414637,0.8523811339028973,0.07154629071468366,-0.815020549347974,0.8604718618217078,-0.07554663379141942,-0.8392582261944609,0.9117567369293826,0.11205944497385538,0.6440004751115329,0.9806358616635362,-0.14275814767743936,0.6412140006386998,0.9960238022976432,0.0,0.0,0.0,0.0
0.01865073601695424,-0.1995689265679406,0.7344288540841352,-0.0015623436416130699,-0.5232935194322407,0.0013955895067097207,0.8521499304303753,0.07181613171004057,-0.8219546941052511,0.8755705506359917,-0.07574003516475449,-0.8461623989337881,0.9262019340993868,0.11209034484733742,0.6493809931767733,0.9810723998719347,-0.14632049970528194,0.6457649125632045,0.9954684747367805,0.0,0.0,0.0,0.0
0.020908637109398304,-0.19946187239939042,0.7343359666799305,-0.0012854901951711217,-0.5239128062423507,0.0011582936006452038,0.8517701434813021,0.07229670662101591,-0.8296487155691746,0.8942614618936012,-0.07582237648738271,-0.8545096810084107,0.9444985657471756,0.11046496408014192,0.6578669726751736,0.9812098981557398,-0.1531224581614036,0.652005375321662,0.9935975917215083,0.0,0.0,0.0,0.0
0.023699088584766506,-0.19946172968377837,0.7343248127053573,-0.0007415574663288612,-0.5248292525700431,0.0005982061358297761,0.8512069947367168,0.07380161580887969,-0.8364768331375921,0.9146129729008846,-0.07494277802450247,-0.8645802916049604,0.9669339556099545,0.10643496446675767,0.6703478631467661,0.9803519114167651,-0.16410246678053814,0.659541151667258,0.9905040916493968,0.0,0.0,0.0,0.0
0.025880377602527625,-0.19953813852808674,0.7341270772611656,-0.0008899132280209528,-0.5247770512832175,0.0006633419252894505,0.8512389878749844,0.06367992645342654,-0.8445890847325561,0.9044720650901785,-0.07523367016052193,-0.8753840801651838,0.9869037220901138,0.10963320873661112,0.6753520932629312,0.9785775056926387,-0.16471664039226855,0.6651978146731333,0.9892580497313408,0.0,0.0,0.0,0.0
0.02776852786398656,-0.1995407292077102,0.7338921755318412,-0.0009670279964776878,-0.5248862920553764,0.0006372213620341793,0.8511715686147816,0.05033804411157414,-0.8580794222404826,0.8955593043898324,-0.0754376694295055,-0.8839256913132414,1.0029995385094967,0.11144147557810158,0.6800483700273645,0.9781915289742851,-0.1667521274161324,0.6698279059964299,0.9885715055355399,0.0,0.0,0.0,0.0
0.02930997231509125,-0.1995489680758545,0.7336724964379618,-0.0009756993959911703,-0.5251293430512556,0.0005434630831062805,0.8510216952141247,0.037787349180349296,-0.8738829037007768,0.8890621849973567,-0.07539898626636309,-0.8902607320426927,1.0153873288419275,0.11238700167441058,0.6844032707464383,0.9784150676628715,-0.16949609662075993,0.6735349925817717,0.9883637908697491,0.0,0.0,0.0,0.0
0.030456056131007787,-0.1996193924561021,0.7334985743859173,-0.0009795386909658098,-0.5253754291142352,0.0004549529917405615,0.8508698443385811,0.02698052236761973,-0.8904250962668409,0.8839339038597734,-0.07514027129356425,-0.8947979288184381,1.0244684553408745,0.113511998885979,0.6877821749544065,0.9785110652399317,-0.1714062014123969,0.6763708991002817,0.9885876257492571,0.0,0.0,0.0,0.0
0.031213974946341542,-0.19977473863997341,0.7333863639802788,-0.0009958720472633589,-0.5255757923555975,0.0003903778688493603,0.8507461092087174,0.017636497812829034,-0.9070174009416347,0.8792728320243024,-0.07464949794035362,-0.8978313797041781,1.03065811369969,0.11515500067492111,0.690050337512266,0.9781661746333672,-0.17195224832387263,0.6784258445021024,0.9891708769248503,0.0,0.0,0.0,0.0
