zhuoxili-jackie/tripod-support-walk/examples/trajectory_tripod_com_left_tilt_v0.05.csv
root_pos_x,root_pos_y,root_pos_z,root_rot_x,root_rot_y,root_rot_z,root_rot_w,FL_hip_joint,FL_thigh_joint,FL_calf_joint,FR_hip_joint,FR_thigh_joint,FR_calf_joint,RL_hip_joint,RL_thigh_joint,RL_calf_joint,RR_hip_joint,RR_thigh_joint,RR_calf_joint,FL_foot_joint,FR_foot_joint,RL_foot_joint,RR_foot_joint
0.0,0.0,0.72963,0.0,-0.5231245161092812,0.0,0.852256264656019,0.0,-0.81,0.872,0.0,-0.81,0.872,0.0,0.65,1.0,0.0,0.65,1.0,0.0,0.0,0.0,0.0
-0.00010368295524357035,-0.00027458336155313016,0.7296171661490753,8.357266158699738e-05,-0.5230666792466018,-0.00010338325509209321,0.8522917525058221,0.0009248033104172137,-0.808897543719759,0.8700233807280245,0.0009248033104172123,-0.8107749974475452,0.8725625184479932,0.0006835793913122295,0.6497316203441742,0.9992630420913537,0.00068357939131223,0.6492289796737338,1.0009138940377627,0.0,0.0,0.0,0.0
-0.00022931223687811623,-0.0006071836544299801,0.7296063298439912,0.00018875063564167884,-0.5230097906954498,-0.00023485298990584934,0.8523266205240644,0.0020586986888058577,-0.8074448852903127,0.8675211679256701,0.0020600793681238524,-0.8116295927539979,0.873164994548501,0.0014438783258582783,0.6494881174708161,0.9983588124864707,0.001445993420370557,0.648332136775108,1.001994666232105,0.0,0.0,0.0,0.0
-0.0003467368144968665,-0.0009106622618012487,0.7296018027220991,0.0002847653047058984,-0.5229580768659235,-0.00035050603234446206,0.8523582849335938,0.0030804079234270196,-0.8060844887522322,0.8651911818906888,0.003084574444572115,-0.812365720566567,0.8736670554607799,0.0021612567878765317,0.6492767369961681,0.9974803699660718,0.002167489522050069,0.6475436715770305,1.0029357203008278,0.0,0.0,0.0,0.0
-0.0004408931541680826,-0.0011548871541270699,0.7296037539578746,0.00035882906484886425,-0.5229147547099431,-0.0004342923967440393,0.8523847968719622,0.0038785276217855806,-0.8049972468439002,0.8633262376957376,0.003885921300630222,-0.8129314801443956,0.8740591659909959,0.00281451424499833,0.6491051105524316,0.9967062603924345,0.0028259760207131265,0.6469609527864553,1.0036459544627216,0.0,0.0,0.0,0.0
-0.0005129404259875564,-0.001337373081484423,0.7296107066544714,0.0004113799740080637,-0.5228788645427436,-0.0004875744588046074,0.8524067609141514,0.004450757552654902,-0.8041948243563178,0.8619363585284615,0.0044610240508732605,-0.813330187312131,0.8743330388058175,0.003376711721408609,0.6489639304515625,0.9960604160891281,0.0033936398383955144,0.646565109665957,1.0041294864919421,0.0,0.0,0.0,0.0
-0.0005746174663088548,-0.0014669601635101414,0.7296206792768929,0.00045193714932378925,-0.5228434917417671,-0.0005217475782163754,0.852428417332244,0.004844712199064023,-0.803611322022378,0.8608874241237596,0.004857240734430978,-0.813600574943747,0.8744719857732384,0.0037770905035128125,0.6488281824685047,0.9955405724087028,0.003798716056032707,0.6462555314061269,1.004418014262885,0.0,0.0,0.0,0.0
-0.0006287946839488342,-0.0015533657359870984,0.729631980268242,0.00048523682383889245,-0.5228061336666615,-0.0005435219344691977,0.852451298157055,0.005100381314870656,-0.8032117071730874,0.8601169840872039,0.0051145550469474475,-0.8137882333364701,0.8745142259581907,0.004010043571525733,0.6486933874949146,0.9951339647612948,0.00403498988317675,0.6459900083828544,1.0045501738723848,0.0,0.0,0.0,0.0
-0.0006759244236267832,-0.0016077705399904273,0.7296432369760164,0.000513714935162507,-0.5227682115400833,-0.0005571737697922489,0.8524745290374008,0.005256191362227173,-0.8029520681001336,0.8595632050912699,0.005271501836345527,-0.8139228514125741,0.8744982909533586,0.00410926754500197,0.6485642192369422,0.9948226414822139,0.004136150469106872,0.6457555482628662,1.0045753529387587,0.0,0.0,0.0,0.0
-0.0007140000444637667,-0.0016411455737952397,0.7296531421345788,0.0005385415556603601,-0.5227325937971276,-0.0005652871227008124,0.852496349438277,0.005346195249982265,-0.8027974563804826,0.8591850315850215,0.0053622771116079325,-0.8140332498342546,0.8744748141236871,0.004125344776183762,0.6484509070430657,0.9945875317218379,0.0041531809742780266,0.6455565021977394,1.0045443270820942,0.0,0.0,0.0,0.0
-0.0007389563516821521,-0.001663691046944377,0.729660486114243,0.0005595467209731449,-0.5227033971121531,-0.0005687803983859714,0.852514235683921,0.005398806713106189,-0.8027224957226484,0.8589617963240799,0.0054154257723211,-0.8141450722460483,0.8745015435853928,0.004122271975825365,0.6483678395754523,0.9944101572656351,0.004150705677940736,0.6454126823823961,1.004507101872533,0.0,0.0,0.0,0.0
-0.0007454871699887486,-0.0016844803102251684,0.7296642700922793,0.0005749862263186022,-0.5226861181759607,-0.0005668385734665721,0.8525248207243099,0.005435873909023245,-0.8027072287990084,0.8588857601258553,0.005452889539697495,-0.8142739900796675,0.8746323053824719,0.004176975753996015,0.6483316662816174,0.9942737540878169,0.0042063929856259695,0.6453581421647936,1.0045118155697488,0.0,0.0,0.0,0.0
-0.0007285690705813666,-0.0017107238819960022,0.7296639517895718,0.0005815931876103461,-0.5226873161172854,-0.0005570491942443929,0.852524088231921,0.00547114920844324,-0.8027315679116113,0.8589504762870048,0.005488462845513129,-0.8144172157779236,0.8749003017636069,0.0043732916471294035,0.6483578714058793,0.9941643766230107,0.0044048839971892444,0.6454363490560449,1.0046004624400442,0.0,0.0,0.0,0.0
-0.0006860071865043844,-0.0017462883572505182,0.7296597421158305,0.0005758410821343701,-0.5227124737065442,-0.0005364988907366617,0.8525086805467577,0.005508712489318426,-0.8027736223300168,0.8591392385868666,0.0055262191339865725,-0.8145519267201661,0.8753015528958467,0.004777492249723011,0.6484542599849363,0.9940723798500335,0.0048132594816988165,0.6456834595848109,1.0047974063019962,0.0,0.0,0.0,0.0
-0.0006216839863350926,-0.0017898666027628025,0.7296529667193093,0.0005559934019304567,-0.5227629162151606,-0.0005034390587169775,0.8524777832006368,0.005541551722435731,-0.8028085359780437,0.8594112761571947,0.005559105335929277,-0.8146367000472079,0.8757771226439657,0.0054029923838470745,0.648612930137894,0.9939939150248153,0.005445611502689643,0.6461046330921487,1.005094038027804,0.0,0.0,0.0,0.0
-0.0005488982335591326,-0.0018335382572951594,0.7296462146817307,0.0005255276111555592,-0.5228312206462192,-0.00046009722066155367,0.8524359370937278,0.005553372399732518,-0.8028119216955913,0.8596915230920301,0.005570791891960276,-0.814627088902698,0.876208432453514,0.006161453491740629,0.6488017941743274,0.9939316038196935,0.006213505870866151,0.646640005633162,1.0054324493370388,0.0,0.0,0.0,0.0
-0.0004924677963311706,-0.0018632558454922312,0.7296428809096815,0.000498096432825395,-0.5228953502952054,-0.00041694337559799403,0.8523966393046253,0.005528267021311099,-0.8027703929154869,0.8598703773299338,0.005545425971772615,-0.8145165166169176,0.8764445953592069,0.0068071506794258425,0.6489587566458902,0.9938925251301619,0.006868735486729772,0.6471222402331386,1.0056961484745515,0.0,0.0,0.0,0.0
-0.00048750136023496165,-0.0018637150173511446,0.7296455086123567,0.0005034529559811178,-0.5229129922089888,-0.0003982080731673592,0.852385822585344,0.005474293142140992,-0.8026985273371646,0.859818715994524,0.005491349896309456,-0.8144110245051992,0.8763831282377716,0.0068965138485456755,0.6489931686322314,0.9938810725705162,0.006960864937430358,0.6472358576697851,1.0057228976030688,0.0,0.0,0.0,0.0
-0.0005723958171506659,-0.0018311691330809682,0.7296526003652676,0.0005903328499034404,-0.5228230582836664,-0.00044532628419515744,0.8524409087547012,0.0054634809974444965,-0.8026365136421993,0.8593982679609492,0.005481307873523839,-0.8146069863660775,0.876092319170285,0.005836038808744391,0.6488016939404799,0.9938841227038558,0.005886818253643258,0.646521008322562,1.0053698982423338,0.0,0.0,0.0,0.0
-0.0007743601173810909,-0.0018013500901951861,0.7296617012989011,0.0007956600697145103,-0.5226045976344305,-0.0005900139770804698,0.8525746028001979,0.005648589350523793,-0.8023787849753458,0.858223478994121,0.005669211408130758,-0.8152800685185506,0.875639134141946,0.003441335348279278,0.6483531381335282,0.993817710417015,0.0034657921564286978,0.6447194399485385,1.0047199692725794,0.0,0.0,0.0,0.0
-0.001088794450904859,-0.0019191683302059255,0.7297701567073789,0.0008781384692758433,-0.5227494125264117,-0.0006238469403720139,0.8524857133061616,0.005976782029030816,-0.7989719107232385,0.853296496970449,0.006000225853217537,-0.8128272570049386,0.8720094022059441,0.0035106463300490494,0.6484865275850394,0.993037001249293,0.0035433267814566614,0.6445524220580303,1.0046513862400988,0.0,0.0,0.0,0.0
-0.00124403578193997,-0.00196583316616887,0.7298003742200282,0.001036844511128994,-0.5228003892294184,-0.0006819904702423012,0.8524542291900644,0.008953501253054828,-0.8091927664345672,0.8560068067553638,0.006170552393657919,-0.8120232710009009,0.870542148410422,0.0024800256096552476,0.648662615468468,0.9929291289248,0.002509679528080169,0.6440261175389008,1.004679750031588,0.0,0.0,0.0,0.0
-0.0013248673716009906,-0.002042178312846183,0.7298577473827492,0.0011265612645262619,-0.522995683482368,-0.0006603106889467192,0.8523343298895816,0.013539392141608209,-0.8215884396304262,0.8548923836191205,0.006239932584015664,-0.8105044891738997,0.8688818664691974,0.0025756837786833414,0.6492568946148035,0.9926124075680695,0.002610294753670532,0.644537195169704,1.0048944959313828,0.0,0.0,0.0,0.0
-0.0013588836301289898,-0.0021330126070506685,0.7299269846561232,0.0011884407826542548,-0.5232504245575971,-0.0006023263810384817,0.8521779262640703,0.01865824055273959,-0.8344143025405852,0.8516939443678545,0.00626375977394299,-0.8087766636208886,0.8673118218556339,0.0031691556624540355,0.6500658409620547,0.9921782961352756,0.0032116783204221002,0.6455358918203242,1.005176744186901,0.0,0.0,0.0,0.0
-0.0013718032066566744,-0.0022146006164790845,0.7299972612713336,0.0012508062363536295,-0.5235022711028879,-0.0005399527578347201,0.8520231898750742,0.023752267159196046,-0.8468789711983113,0.8474606308919926,0.006252050667835892,-0.8071486869994008,0.8659352645525826,0.0037283334572588886,0.6509274918718699,0.9917373518324716,0.003779941819313035,0.6466026220918276,1.005396771868508,0.0,0.0,0.0,0.0
-0.0013803887865362333,-0.002267719599119311,0.7300639720413756,0.0013249185154346362,-0.5237190988363484,-0.00048715594160119444,0.8518898477996196,0.028601294339367943,-0.8587338248964548,0.8426734227054453,0.006187526948172478,-0.8057331335090312,0.8647355310543686,0.003964991944067169,0.6517456574753105,0.991362938469642,0.004023428563765072,0.6475204405500155,1.0054624852978742,0.0,0.0,0.0,0.0
-0.0013906872222411804,-0.0022820754935372863,0.7301261703464097,0.0014102770315100154,-0.5238925277219147,-0.00044557671789017736,0.8517830897459902,0.033169176478295245,-0.8700134797117979,0.8375298754421152,0.006049086888814927,-0.804529324941501,0.8636644666597773,0.0037996270065411707,0.6524845057026635,0.991089925495938,0.0038599732875829362,0.648234266909894,1.0053347753870752,0.0,0.0,0.0,0.0
-0.0014000619510577484,-0.002256127311029985,0.7301841256645321,0.001500703260451308,-0.5240283149739141,-0.00041079814590923373,0.8516994212985046,0.03750218665508089,-0.8808595906558913,0.8321073195607634,0.005824802902821586,-0.8034963888748651,0.862695930220346,0.003286181426917986,0.6531492363936567,0.9909257502216823,0.0033434570370178807,0.6487861517790623,1.0050219735034311,0.0,0.0,0.0,0.0
-0.0014001077812932773,-0.0021947941210301507,0.7302379355701449,0.00158845679015826,-0.5241384699055247,-0.00037655549400218485,0.851631492710363,0.04167167230236657,-0.8914280657147633,0.8264396910457051,0.005515050359284405,-0.8025970258675629,0.8618463099658519,0.002545061207769768,0.6537675183759978,0.9908620787036299,0.002596202245891487,0.6492621677999837,1.0045654296985673,0.0,0.0,0.0,0.0
-0.0013789713893893707,-0.002106758218846916,0.7302871187721621,0.001665710655878607,-0.5242369737845844,-0.00033638516537543543,0.8515707296344868,0.04574607537676452,-0.9018528951166696,0.8205473387865255,0.005129249905068713,-0.8018107720782979,0.861170529768746,0.0017247570520814192,0.6543771578413058,0.9908832833273321,0.0017691234173392069,0.6497641074269412,1.0040255052793061,0.0,0.0,0.0,0.0
-0.001323063616950449,-0.0020019038342307246,0.7303307888556165,0.0017242830302403392,-0.5243382064828215,-0.0002835960491687837,0.8515083039193984,0.04977835986714279,-0.9122376936449875,0.8144456090637372,0.004679481765627233,-0.8011273408541655,0.8607434686540004,0.0009859233619833937,0.6550186258070814,0.9909721566783493,0.001024752576375949,0.6503997404436855,1.0034698767178982,0.0,0.0,0.0,0.0
-0.0012189676225086963,-0.0018886314041272182,0.7303680545515727,0.0017551653510460838,-0.5244558459165019,-0.00021094732674214128,0.8514358111917905,0.05379805263453919,-0.9226513227827511,0.808146757212318,0.0041731308601746534,-0.8005341212600625,0.8606348440942508,0.000488288547695683,0.6557282036295824,0.9911145571141383,0.0005237810961580534,0.6512763251000786,1.0029605661521785,0.0,0.0,0.0,0.0
-0.0010564245900731512,-0.0017707370684687058,0.7303983684055357,0.0017493741995898556,-0.5246000092598736,-0.00011135707221409066,0.8513470253510332,0.057802171464560625,-0.9331089757725337,0.8016648593567427,0.0036064154668129155,-0.8000111207061553,0.8608846498196985,0.0003602939384194686,0.6565276310696821,0.9913044072794995,0.0003949294451996755,0.6524818568999786,1.002535658463098,0.0,0.0,0.0,0.0
-0.0008326826986986909,-0.0016443018554989706,0.7304215401870037,0.0017010756639498864,-0.5247715907181114,1.9527585329460263e-05,0.8512413779507207,0.06174672123529141,-0.9435238945192742,0.7950346264081273,0.002961545982054602,-0.7995429402479223,0.8614870510033452,0.0006425848514686937,0.657408691542694,0.9915494543337122,0.0006789807971651336,0.6540453563405292,1.0021871215213551,0.0,0.0,0.0,0.0
-0.0005573392351375426,-0.00149634548902508,0.7304371585271897,0.0016125758957580335,-0.5249552787818131,0.00017919287634073587,0.8511282645806109,0.06554884243159015,-0.953620887534404,0.788360128015852,0.002211319126709405,-0.7991475461150283,0.8623893516646595,0.0012201311136827771,0.6583161978279181,0.9918765535534633,0.0012608941416843342,0.6558824477730851,1.0018463784411047,0.0,0.0,0.0,0.0
-0.00025535205056198036,-0.001308066376935981,0.7304434880529294,0.0014983794340642852,-0.5251166510666939,0.00035482632817272416,0.8510288665667273,0.06911334581609219,-0.9628188982719982,0.7819124287351568,0.0013337773686982143,-0.7989004262365308,0.8635021023561064,0.0017929415927222673,0.6591399996913114,0.9923328478074429,0.0018390643784879524,0.6577578548088032,1.0013992041693858,0.0,0.0,0.0,0.0
3.524083639851525e-05,-0.0010646109221424966,0.7304367857009325,0.0013825584926585256,-0.5252127174827736,0.0005253489133336778,0.8509696903738075,0.07238330058672342,-0.9701294604730805,0.7762809541666407,0.0003326636877627961,-0.7989013865736025,0.8646924809530604,0.0019678478334523653,0.6597334692712934,0.992976943580796,0.0020158313489814133,0.6593276766459489,1.0007494034419702,0.0,0.0,0.0,0.0
0.0002741068907730005,-0.0007680046298614923,0.7304134557758395,0.0012822998282106888,-0.5252248085644518,0.0006749883884476066,0.850962279167685,0.0753653152723219,-0.9741970905338505,0.7725171807441562,-0.0007562314173308667,-0.7991112838881,0.8657074510536196,0.001540242867727172,0.6599768929924493,0.9938546824175044,0.0015830168760256724,0.6603360212161168,0.9999179487753308,0.0,0.0,0.0,0.0
0.0004370943016548139,-0.0004378324955192368,0.7303768001563956,0.0011826049730424531,-0.5251967653525588,0.0008146182822489155,0.8509796093360529,0.07803773715899232,-0.9737492299285875,0.7719949136105867,-0.0019040126477176942,-0.7991290224495771,0.8660704477296769,0.0008066255059021952,0.6598712751943541,0.9949664290850367,0.0008413172188693854,0.6609026644358661,0.9990687507636935,0.0,0.0,0.0,0.0
0.0005253343013847735,-7.134279381313302e-05,0.7303263460488782,0.0010798606127438693,-0.5251324234778837,0.0009472499311517691,0.8510193149575804,0.08037851662522937,-0.9687901961644683,0.7747020899876599,-0.0031232187094139907,-0.7989230613842033,0.8657534942491495,-0.00020905344262093974,0.6594157277869322,0.9963289079093781,-0.00018340704793309262,0.6610511094422163,0.998207801554666,0.0,0.0,0.0,0.0
0.0005654763825610096,0.0003595823976256523,0.7302575223423818,0.000987112708804054,-0.5249851014374228,0.0010638057262822547,0.8511101792333444,0.08237957932513514,-0.9606274540911934,0.7792674544091409,-0.0044688053749395934,-0.7989020462074731,0.8652391298990545,-0.0018414942806156823,0.65860039677084,0.9979724943691046,-0.0018261216776305639,0.660658329169917,0.9971484101331298,0.0,0.0,0.0,0.0
0.0006018936861008893,0.0008687262161305536,0.7301724811104043,0.000886214266691976,-0.5247666131816189,0.0011816196067792894,0.8512448649414993,0.08400025970028148,-0.950650831068611,0.7846501327505842,-0.006011501987872848,-0.799136439371942,0.8648110178451615,-0.003953632482987181,0.6575342221165117,0.9998833440131315,-0.003942020865700992,0.6599680649677688,0.9958243040882085,0.0,0.0,0.0,0.0
0.0006789199377847779,0.0014547885044741103,0.7300727151652943,0.0007525096572475562,-0.5245112288602822,0.0013237549296448651,0.8514021683091831,0.08526507104465249,-0.9398763125023513,0.790260659857267,-0.007795433000757423,-0.7995775812835502,0.8646591858587829,-0.006227115560948834,0.6563515042655473,1.0020397296201078,-0.006205467241290306,0.6593121133200314,0.9942794063084148,0.0,0.0,0.0,0.0
0.0008322220013988371,0.0021119174363316163,0.7299575322448604,0.000568610423973401,-0.5242471185529959,0.0015077298134339844,0.8515646552798423,0.08623748010027325,-0.9288995398967752,0.7958237578134637,-0.00984321570790126,-0.8002034387800221,0.8649564631564096,-0.008399938536926527,0.6551590225461931,1.0044284116579816,-0.008353190662711734,0.6589423861608994,0.9925835158158487,0.0,0.0,0.0,0.0
0.0010881116762057818,0.0028377489630728855,0.7298251519816523,0.0003258022135566349,-0.5239876584833024,0.0017444798901276198,0.8517240071760432,0.08697182443298847,-0.9179936296836894,0.8012323102331239,-0.012174556920973844,-0.8010483215485416,0.8658732602145559,-0.010335692106380051,0.6540246339443887,1.0070457153010697,-0.010251709023179486,0.6590038544313246,0.9907753560962871,0.0,0.0,0.0,0.0
0.0014665558464238577,0.003635836498666791,0.7296739679220127,1.9944354278498483e-05,-0.523734637686213,0.0020418024760430315,0.8518790171923256,0.08749319257471935,-0.9072220755760853,0.8064467712846721,-0.0148192564328433,-0.8021768705965102,0.8675665198442981,-0.011988384298666303,0.652986405638446,1.0098919247430211,-0.011858486501274947,0.6595752630261149,0.9888486387458252,0.0,0.0,0.0,0.0
0.0019840657124353834,0.004513901942239489,0.7295035252729932,-0.0003528424306693862,-0.5234848671858231,0.0024078845168178996,0.8520314967310855,0.08780805056059965,-0.8965185697971765,0.811435636439906,-0.01781968966986799,-0.8036468096124186,0.8701627181699777,-0.013338302593468876,0.6520669216270666,1.0129615487926484,-0.013156281112750147,0.6607182039120779,0.9867629626299298,0.0,0.0,0.0,0.0
0.002653976181721687,0.005479935151128343,0.7293154782048074,-0.0007981034852253985,-0.5232354964351232,0.002852623262449499,0.8521829855386925,0.08793476895113701,-0.8857261026413382,0.8161383627759512,-0.02122322547992755,-0.8054781457149274,0.8737364731983072,-0.014343642612919715,0.6512844861709447,1.0162298515483386,-0.014105164350537127,0.662505272528094,0.9844603169640503,0.0,0.0,0.0,0.0
0.0034829326845120566,0.006536967659921699,0.7291147354240908,-0.0013218862499561113,-0.5229867238342336,0.003385855610283449,0.8523330776707329,0.08794527463991732,-0.8746054146469457,0.8204316576713635,-0.025064523408329053,-0.8076314475079859,0.8782805933408615,-0.014922194327976755,0.65065804724541,1.0196359574913,-0.014624979618962662,0.6650186629490047,0.9818796454255033,0.0,0.0,0.0,0.0
0.004463182167402276,0.007675715504096072,0.7289102693887823,-0.0019263615811790195,-0.5227420187743538,0.004011840574152275,0.8524793112292985,0.08801309362820132,-0.8628311650137513,0.8240787819691208,-0.02933371536733728,-0.8099992866150367,0.8836703126578074,-0.014962016333176781,0.6502030067428576,1.023066372844452,-0.014606176039317516,0.6683144861736882,0.9789775834956769,0.0,0.0,0.0,0.0
0.005559918270011923,0.008862637833750115,0.7287117905502061,-0.0026012040595428418,-0.5225048121918088,0.004718064718494852,0.8526193141368281,0.08846518503350623,-0.8500035908574586,0.8266283896077542,-0.03391968484741831,-0.8124391642605463,0.8896429100738569,-0.014364484507664962,0.6498993761929014,1.02636685981218,-0.013952128914889568,0.6723228070579155,0.9757972219053563,0.0,0.0,0.0,0.0
0.006689152888350947,0.010018431166650108,0.7285031321414641,-0.0033078636744890734,-0.522266745363891,0.005453653821518806,0.8527583258959801,0.08984072418176911,-0.835724346795376,0.8271704864762741,-0.038506604228962425,-0.8149427306406497,0.8958360513746434,-0.013139295510120417,0.6495294762726074,1.0295389012137743,-0.01267322258506845,0.6765459538101544,0.9727726059623071,0.0,0.0,0.0,0.0
0.007687580261432388,0.011001632689327866,0.7281759045675797,-0.003940200288235351,-0.5219462113436147,0.006084014177201582,0.852947602175671,0.09298817539691485,-0.81986520985574,0.8237513471021742,-0.04244384462647257,-0.8182587914872236,0.9021421502440021,-0.01185744241840364,0.6482749526030048,1.0332477623884713,-0.011335714203560575,0.67930132957296,0.9712719378233081,0.0,0.0,0.0,0.0
0.008427037962292003,0.011744823457401792,0.7277865169672153,-0.004380963176419721,-0.5214291529622376,0.006480212415903762,0.8532587253874261,0.09831652363177902,-0.8026064347498434,0.8132476359918903,-0.04528631793513219,-0.822855693197743,0.908530144687187,-0.01165580424704192,0.6461548644592737,1.0368456168719562,-0.011070297190243057,0.6796808228840714,0.9707990305634107,0.0,0.0,0.0,0.0
0.008766233632275062,0.012113263231468364,0.7274134186531248,-0.004541934682891512,-0.5207275988925983,0.006519769278127849,0.8536859089790844,0.10521491928591735,-0.7848758249269779,0.7920158587228137,-0.0463900296951728,-0.8284597046989635,0.9143342251778073,-0.012968534143189806,0.6434761580020371,1.039533992345564,-0.0123250823429918,0.6772581133886314,0.9711810068235354,0.0,0.0,0.0,0.0
0.0087829137657706,0.012131978126552829,0.7274072232769193,-0.004566844965165667,-0.5207189667316184,0.006515526230778798,0.8536910738264492,0.10519846508703701,-0.7848227931038215,0.792037051378447,-0.04642376512751395,-0.8284800849415868,0.9143569182609231,-0.012966350110389428,0.6434657712456138,1.0396028183179287,-0.012314175040431986,0.6772802347148453,0.9711298748849891,0.0,0.0,0.0,0.0
0.0087829137657706,0.012131978126552829,0.7274072232769193,-0.004566844965165667,-0.5207189667316184,0.006515526230778798,0.8536910738264492,0.10519846508703701,-0.7848227931038215,0.792037051378447,-0.04642376512751395,-0.8284800849415868,0.9143569182609231,-0.012966350110389428,0.6434657712456138,1.0396028183179287,-0.012314175040431986,0.6772802347148453,0.9711298748849891,0.0,0.0,0.0,0.0
0.008846477415530506,0.011983853591793655,0.7273761605500935,-0.004329280206532935,-0.5206211230727231,0.006115021469008656,0.8537549473097203,0.1065572383290393,-0.7841752116572732,0.7915518602640885,-0.045132574318607385,-0.830894723528463,0.9169592494922608,-0.01613103620566206,0.6445539917114361,1.0395713952420367,-0.015427804898259453,0.6757440534082793,0.9712200703956483,0.0,0.0,0.0,0.0
0.009018348663050305,0.011732812737196955,0.7273363716046269,-0.004218407490961716,-0.5207278789794635,0.005823434727982435,0.8536924321438947,0.10793750014582515,-0.7830325548616418,0.7908622081924005,-0.04377059411460477,-0.8325649994024635,0.9195742421643153,-0.017058856999668005,0.6459446177374119,1.0394475631402953,-0.016329812097172085,0.6755280411409961,0.9722144615652881,0.0,0.0,0.0,0.0
0.009239637235231779,0.011486555467123497,0.7272842401478844,-0.004191281511661701,-0.5209535472691562,0.0056276932597233275,0.8535561866775657,0.10908201654780218,-0.7818388211429268,0.7903182773015084,-0.0426165421602066,-0.8335153090042,0.9217591637436796,-0.016862433166984474,0.6473885591395919,1.0395193112436858,-0.016137664149823934,0.6760742154240148,0.9736110566721711,0.0,0.0,0.0,0.0
0.00948071196930523,0.011292727814432472,0.7272206805873285,-0.004201309534411882,-0.5212156695215907,0.005485074018408415,0.853397028824432,0.10997077160262293,-0.7809119543373391,0.7902019141822222,-0.041715716910981845,-0.8341004176761423,0.92361713435911,-0.016446985356586622,0.6487880998607768,1.0398464660022475,-0.015732265248678795,0.6768949786786712,0.9750294048198105,0.0,0.0,0.0,0.0
0.00971078404736581,0.011180468474401637,0.7271494311598182,-0.004223875221629903,-0.5214723176400037,0.005368625065999738,0.8532408561937104,0.11059136237239386,-0.7803195797366759,0.7905002078274233,-0.041087761728356986,-0.8344107837494829,0.9250333669302031,-0.01635602133750501,0.6500804551766652,1.0404695819858203,-0.015638756875699034,0.6776897105345752,0.9762420528024975,0.0,0.0,0.0,0.0
0.009906948169133126,0.011171152350720904,0.7270735129738626,-0.004247210892445984,-0.5217022332096886,0.005263459089306296,0.8531008363974765,0.11092301098170314,-0.7800719670278716,0.7911610076680582,-0.0407548826022269,-0.8344373994680473,0.9258534533250296,-0.016926100586437696,0.6512262387048808,1.041431437060678,-0.016181574512410604,0.6782784433134819,0.9771093722312353,0.0,0.0,0.0,0.0
0.010057134349139416,0.011286355811577374,0.7269941334539725,-0.0042652327765028645,-0.5218915311744615,0.005162632333516294,0.8529855712174311,0.11092732024944603,-0.7802271708934884,0.792228987849674,-0.04075785373719898,-0.8341644909855088,0.9259696664397664,-0.018411127362847633,0.6522034100070007,1.0427860503548094,-0.01760178046167247,0.6785516077303033,0.9775209821338968,0.0,0.0,0.0,0.0
0.010162723459481809,0.011552324483940462,0.7269098155873782,-0.004275645412421212,-0.5220292749218894,0.00506717075238951,0.8529017990140482,0.11053766503087534,-0.7809457291784557,0.7939207467435615,-0.04116955606216995,-0.8336016308437182,0.9253552573048112,-0.02102323917812638,0.6530048583393213,1.0446075341730536,-0.02009249700601899,0.6784613881797859,0.9773725881346363,0.0,0.0,0.0,0.0
0.010243885090376235,0.011998959652450857,0.7268180500046466,-0.004295664749438116,-0.5221334599723603,0.005001405057786278,0.8528383101087217,0.10962488809638044,-0.7824133521272658,0.7965674484275084,-0.04212126421651876,-0.8326047102597968,0.9239308559830895,-0.02471844523543237,0.6536690680940347,1.0469960762437684,-0.023588911703079803,0.6781808923705251,0.9766174727667943,0.0,0.0,0.0,0.0
0.010429073357837404,0.012715031825619078,0.7267143367066888,-0.00441182116460194,-0.522261965999205,0.005073586782094418,0.8527586020802261,0.10774606946806638,-0.7856651154657692,0.801979969197312,-0.04408311101258493,-0.8309329283020249,0.9219941007982768,-0.028863224995915607,0.6543923431829002,1.050117900728197,-0.027453309312306155,0.678608442202793,0.9750662962340088,0.0,0.0,0.0,0.0
0.010795300610341962,0.013783160347820735,0.7266028668004185,-0.004681063294488203,-0.5224491369795576,0.005366363458483338,0.8526407151074712,0.10451072083119876,-0.7914014610186385,0.8113554953813739,-0.04745555689049006,-0.8282937120234644,0.9195500453736246,-0.03315367138811119,0.6553094510374313,1.0540738401463767,-0.03138048448860587,0.6803573387743337,0.9724398232992002,0.0,0.0,0.0,0.0
0.011372999753939917,0.015286729790196848,0.7264966618341953,-0.005121433778611641,-0.5226808491479068,0.005923702481467018,0.8524924695262623,0.09959650088213164,-0.8001189828283152,0.8254348940445805,-0.05255902524857986,-0.8245175249522712,0.9164795903706693,-0.037812383430490676,0.6564937724579167,1.0588776598994811,-0.03556626353310388,0.6836648710982067,0.9682628196832836,0.0,0.0,0.0,0.0
0.012248526164124708,0.01727495136183269,0.7264209187516045,-0.005787747946436994,-0.5229877597332081,0.006819141589671775,0.8522932620001924,0.09269859210837325,-0.8122459078036549,0.8450552002416696,-0.05967691651105453,-0.8193541071489573,0.9129308979474485,-0.04237345643059052,0.6582229953573292,1.0643003285235142,-0.03955019843930529,0.6892781931564967,0.9621107552609188,0.0,0.0,0.0,0.0
0.0134913245707315,0.019747749328070458,0.7264178404030075,-0.006732889297640789,-0.5234247013998461,0.008117028500427467,0.8520066689964996,0.08363287465525139,-0.8276352439191287,0.8702617338085095,-0.06892739440441614,-0.8123727388315225,0.9088795138963349,-0.046054942918211855,0.660860447353701,1.0698636210603036,-0.04259471346105012,0.6980585233224952,0.9536016583589145,0.0,0.0,0.0,0.0
0.014979787223701333,0.022616990355975954,0.7264980927435617,-0.007857274607413103,-0.5239030421681594,0.009720123966035821,0.8516862009172018,0.07276394307420928,-0.8451745969877501,0.8990197655051054,-0.07986094563570896,-0.8038600375522714,0.9040550013867816,-0.049485191878712705,0.6642014868270288,1.0752111896568957,-0.04528560990624105,0.7091699353294394,0.9426756065081567,0.0,0.0,0.0,0.0
0.01625377923069444,0.025131066781877806,0.72642789159597,-0.008785203234105062,-0.5242347399494635,0.011019672019067566,0.8514571771162929,0.06338011253295467,-0.8602919619366712,0.9230709673745751,-0.08917800990454516,-0.7970933343912889,0.8998865107956583,-0.05382387568493258,0.666742902034434,1.0809081198632384,-0.04874587769795517,0.7176581978201374,0.9338497790114257,0.0,0.0,0.0,0.0
0.017262851770879516,0.027108174272797853,0.7262970308148123,-0.009487891217556346,-0.5244861785758128,0.011958048351198791,0.8512821115721948,0.05613530286956375,-0.8718919503966752,0.9413258586153903,-0.09629064116541124,-0.7920633512048939,0.8966533292988813,-0.058270010716558795,0.6688591648339866,1.0859631286013607,-0.0522879391315192,0.72375163148413,0.9273137069907401,0.0,0.0,0.0,0.0
0.018021472215550734,0.02854847301263394,0.7261311520585102,-0.009992059083662469,-0.5247023711521459,0.012576340829389765,0.8511341939517688,0.0509918552514204,-0.880163994480903,0.954321529609223,-0.10130109066014946,-0.7885645539376417,0.8943703031532085,-0.06228363081974512,0.6706003071410369,1.0902576093667344,-0.05546483516944176,0.7278246260674732,0.9230830613825399,0.0,0.0,0.0,0.0
0.0185719400897625,0.02953724563191758,0.7259475171496108,-0.010340224685226601,-0.5249043150811232,0.012946613350492657,0.8509999559138818,0.047594388829673054,-0.8857294752309695,0.9631216711845684,-0.1045957391172801,-0.7862699833932073,0.8928857336889039,-0.06564859555274626,0.672003795525197,1.0938563626012656,-0.05811037998807804,0.7303487926474653,0.9208008624749542,0.0,0.0,0.0,0.0
0.018967864702709423,0.030198368302079497,0.7257784272229869,-0.01057499914638893,-0.5250924664317392,0.01314582240470468,0.8508779339264773,0.04545330004800698,-0.889325931460875,0.9689482896277307,-0.10666751447532792,-0.784787601943908,0.8919705370135642,-0.06842830881964466,0.6732043597046251,1.0967265237312955,-0.06028953837958674,0.7318826337603367,0.9197073248552246,0.0,0.0,0.0,0.0
0.019247254417636833,0.030638137435443916,0.7256347925092483,-0.010728232873025845,-0.5252586781753903,0.013232139891545931,0.8507720825783803,0.04415568553418,-0.891576253659283,0.9727369156792532,-0.10792268688595529,-0.7838356484500114,0.8913971656328888,-0.07078888792028216,0.6742394687235209,1.0989741380212634,-0.06214560378865733,0.7327550331173028,0.9192724089363735,0.0,0.0,0.0,0.0
0.019437112130094095,0.03093690889889828,0.725519079319099,-0.010823490980065978,-0.5253965223155735,0.01324727792570125,0.8506855212176029,0.04339078285569891,-0.892940496392816,0.9751536734500255,-0.10866274244600371,-0.7832064668724219,0.89097488083056,-0.07288875256810957,0.6751213729908833,1.1007268312925858,-0.063808968202923,0.7331748864384364,0.9191427497564374,0.0,0.0,0.0,0.0
0.019557589272763364,0.031150157763809652,0.7254297758426496,-0.010876619873968249,-0.5255017948911144,0.013218540905693046,0.8506202636209996,0.04294661109555046,-0.8937433252062873,0.9766625509067302,-0.10909281661108626,-0.7827728744171222,0.8905875045962622,-0.07485950891073397,0.6758596258380847,1.102097396939802,-0.06538535388514535,0.7332710781329133,0.9190994200919034,0.0,0.0,0.0,0.0
0.019626196752134964,0.03131209473537543,0.7253633808863397,-0.010898224145820869,-0.5255743065478602,0.01316314832834707,0.8505760451207695,0.04269179640655499,-0.8942034863625343,0.9775845846039245,-0.10934069308034569,-0.7824722223993845,0.8901988247216712,-0.07678002851710798,0.6764729847963757,1.1031731591293301,-0.06693567373514062,0.7331343701517467,0.9190290370737625,0.0,0.0,0.0,0.0
0.019661212590607793,0.03143957016448406,0.7253148339668054,-0.01089530369749319,-0.5256178308134358,0.013091470818999881,0.8505502934454335,0.04255797522429973,-0.8944676918898076,0.9781517549419045,-0.10947466615429673,-0.7823017006894234,0.8898602115917345,-0.0786693760857718,0.6769932839332886,1.1040170653778705,-0.06847125294179575,0.7328403753912354,0.9189030234817464,0.0,0.0,0.0,0.0
0.019684394617920327,0.03153474570139244,0.7252768818628197,-0.01087435473039524,-0.5256431490340748,0.013011268611903538,0.850536145717422,0.04252274307822328,-0.8946262346322622,0.9785355463844557,-0.10951905376223245,-0.7822939230946048,0.8896959555865159,-0.08045405481472277,0.6774660246062715,1.1046786259563834,-0.06992641651097337,0.7324780583717709,0.9187801742962864,0.0,0.0,0.0,0.0
0.01972529164412933,0.03158407153634427,0.7252388363576162,-0.010850254133756634,-0.5256828990569323,0.012936605071591403,0.8505130251051736,0.042591939377105224,-0.8946782668582949,0.9788282804769097,-0.10946578541249082,-0.7824257559630372,0.8898382197826374,-0.08183205113088951,0.6779620955667014,1.1052118608669141,-0.07104301643185754,0.7322325642458383,0.9188572458159192,0.0,0.0,0.0,0.0
0.019881814672652792,0.03151856827633411,0.7251857188209655,-0.010856974936931886,-0.5258065250892694,0.012890761428881011,0.8504372125786536,0.04290884863456282,-0.8946621740721152,0.9793809254029152,-0.10918427333650249,-0.7829285508774918,0.8910930167748515,-0.0818591636021317,0.6787383451821947,1.1055158887412833,-0.07102468142716765,0.7326432949451617,0.9195903759080885,0.0,0.0,0.0,0.0
0.0202074302102908,0.03129997738079298,0.725108486813021,-0.01091757092233739,-0.5260590281818561,0.012888924803055968,0.8502802956266469,0.0435485883385472,-0.8945703967643482,0.98035502830395,-0.10860305811235256,-0.7838768942181623,0.8938480065151022,-0.07995496499391372,0.6799354819695352,1.1055468408360414,-0.06938447214448755,0.7340379133648456,0.9212523211154762,0.0,0.0,0.0,0.0
0.020662286355738965,0.030963328113915754,0.7250116282345223,-0.011027610802225994,-0.5264206103854637,0.012924835076595658,0.8500545167220942,0.044430787144347686,-0.8943797560907171,0.9816062716395794,-0.1077917063293953,-0.7850811814300513,0.8976616171768741,-0.07643672295333855,0.6814430365254965,1.105376417933332,-0.06637847513656495,0.7362552645926647,0.9236503174068885,0.0,0.0,0.0,0.0
0.021125462229951132,0.030613698370330483,0.7249144272682198,-0.011168776867999802,-0.5268252505124458,0.012982911700235428,0.8498010695742595,0.04530198476430772,-0.8940359250250978,0.9827237771622536,-0.10697293097932857,-0.7860074416342742,0.9012644552634966,-0.07234123008793343,0.6829474044378548,1.1051851914093203,-0.0628598508652246,0.7387707229497974,0.9261771484450223,0.0,0.0,0.0,0.0
0.021525018068091695,0.030346545396567653,0.7248510840310162,-0.01133874941647773,-0.5272115121893256,0.013059159285564696,0.8495580689602501,0.045916942858829,-0.89367089069093,0.9837075219871291,-0.10637206277980633,-0.7862791481599334,0.9038343589520045,-0.06846587521266477,0.6843070821341226,1.1049496334549593,-0.059491543934253995,0.7413278949634532,0.9281019946632834,0.0,0.0,0.0,0.0
0.021762218354678668,0.03033507184802712,0.7249002667262466,-0.011533868538511695,-0.5274795021797449,0.01315994565655303,0.8493875207978165,0.04579666171051382,-0.8935810396924236,0.9847839776720867,-0.10643425582035078,-0.785227597258599,0.9040856840683966,-0.06621133892070762,0.6854535732749264,1.10446902030074,-0.05746763034447005,0.7436711654062316,0.9279540313326053,0.0,0.0,0.0,0.0
0.021766513526438696,0.030875650247012294,0.7252994988055216,-0.011743924197336818,-0.527458799676689,0.013309402235178113,0.8493951699298837,0.04409888623817474,-0.8944342286853381,0.987119759510615,-0.10795737110843602,-0.7818387719194723,0.9005912918186814,-0.0679050491841797,0.6870002187936399,1.102398411746126,-0.058794011798182354,0.7462106564690671,0.9221076395914134,0.0,0.0,0.0,0.0
0.02172674516109178,0.03246805269792473,0.7269964568007441,-0.012031634940402765,-0.5270190656487658,0.01369938908862816,0.8496578552228898,0.03907566448313062,-0.896591756765361,0.9942911890989151,-0.11252860387754275,-0.7728161641596171,0.891822329729781,-0.07532964088095437,0.6930788554774705,1.091488832029366,-0.0649493074364089,0.7545382045271583,0.8990822991866242,0.0,0.0,0.0,0.0
0.020945963001394435,0.03430753031638224,0.7295598351354532,-0.0111790380120437,-0.5252050442881275,0.012938205863008269,0.8508039100712206,0.035973279791507,-0.8972129978141216,0.9987811108389347,-0.1155364900876855,-0.7687861336936629,0.8847151859278113,-0.10179532445982506,0.7020840669126681,1.0736532145003166,-0.04199881769312827,0.7209520669105624,0.9495508688719116,0.0,0.0,0.0,0.0
0.020416680944920555,0.03614270304244666,0.7321590247796816,-0.010642246794265496,-0.5238910088523774,0.0124520902311672,0.8516277936256442,0.0322875745727391,-0.8969113511697626,1.0034742315923557,-0.11893084245921659,-0.7618135426258473,0.8760064208862921,-0.12218878446189389,0.7118015962758887,1.054749340288242,-0.024818411094932047,0.6971814998984663,0.9849576159598523,0.0,0.0,0.0,0.0
0.020209930482088027,0.03779559410524649,0.7344420291428468,-0.01048269576434103,-0.52308496155216,0.012273941042046483,0.8521276820164827,0.028442623541606,-0.8967470066351062,1.008786581157465,-0.12238091644207882,-0.753640363424918,0.8674717886124935,-0.13574169296642905,0.7210244746076057,1.0376165702261393,-0.01581317514122666,0.6814442504151366,1.0105588020734884,0.0,0.0,0.0,0.0
0.02037839007045087,0.03915858025458648,0.736365137125733,-0.010593621906847548,-0.5226354157696682,0.012335038970894392,0.8524012225306503,0.024869434055555004,-0.8974269955713171,1.015417295501928,-0.12557722806426294,-0.7462241611068254,0.8614395290324931,-0.1436401944710588,0.7297142882899532,1.0225018194551627,-0.011445418721995466,0.6717466952482688,1.0311046816584146,0.0,0.0,0.0,0.0
0.020727319634334728,0.04023672559025521,0.7379889168780469,-0.010823731152667368,-0.5223982369681947,0.01249844670955175,0.8525413290194823,0.021834228511091895,-0.8982607180581185,1.022012848255473,-0.12827463422145327,-0.7398302224814931,0.8573227598930554,-0.14813754703999996,0.7376955125804635,1.0092295523782457,-0.009227790069587826,0.665331840453689,1.0490764814670086,0.0,0.0,0.0,0.0
0.02112902322939228,0.04112371299665733,0.7393853036812844,-0.011080091327854695,-0.5222517369701497,0.012685267477814621,0.8526250282491386,0.01924787396793199,-0.899109056797456,1.0281625421912082,-0.13056564820113734,-0.7343709785516416,0.8543627630460566,-0.15107674388942174,0.7449093070492695,0.9975115689387452,-0.007951122522742224,0.6602950356414745,1.0656779663501925,0.0,0.0,0.0,0.0
0.02153528771331949,0.04187597211042292,0.7406138143067086,-0.011320900732780829,-0.5221381382945351,0.012859520573798995,0.8526888262874841,0.017034900507597484,-0.8999272579066352,1.0338106186241638,-0.1325258348470713,-0.7297435104665111,0.8522185428802431,-0.15333938864341495,0.7514668542056695,0.9869810948453303,-0.006950771841669523,0.6557386880646641,1.081607108168752,0.0,0.0,0.0,0.0
0.021924731362947064,0.04254186146506318,0.741721191844965,-0.011534965425786725,-0.5220333236974533,0.013013257119607524,0.852747798977608,0.01508299144841452,-0.9007040060801271,1.0390073218690512,-0.1342573817479865,-0.7257249669759785,0.8505538514885844,-0.15536444602976068,0.7574990135725354,0.9773439260985901,-0.005991598109403381,0.6512465529957542,1.0972853447060773,0.0,0.0,0.0,0.0
0.02229035447458077,0.04315539999436751,0.7427410550368992,-0.011722660602062314,-0.5219278162195518,0.013148281394350618,0.8528077488983514,0.013298359088021024,-0.9014437772799184,1.0438334717410145,-0.135843616338958,-0.7221185484413706,0.8491311771049791,-0.1573574755028877,0.7631222515914997,0.9683773201903487,-0.005014682524155438,0.6466751814004272,1.1129577651662073,0.0,0.0,0.0,0.0
0.02263279034197389,0.04373647539236514,0.7436949169018185,-0.011888255301196568,-0.5218196748233065,0.013269278178561354,0.8528697571199322,0.011619074238556966,-0.9021551147507125,1.048364917577326,-0.13733878331564858,-0.7187895452743566,0.8478178884159967,-0.15938675322161783,0.768424676441956,0.9599298410276728,-0.004016338802764468,0.6420274353691685,1.1287597224945158,0.0,0.0,0.0,0.0
0.022956484424465184,0.04429318497730847,0.7445938577912506,-0.012036551078219207,-0.5217109352464185,0.013380964186131106,0.8529324541133947,0.010014410358461536,-0.9028468421985919,1.0526600156768051,-0.13876950736973673,-0.7156687209922149,0.8465707757935818,-0.16143935354161867,0.773461951709638,0.9519171884459958,-0.0030029525050290053,0.6373783652238204,1.1447500127524124,0.0,0.0,0.0,0.0
0.02326669113787288,0.044824442051907956,0.7454401319095713,-0.012171475802378361,-0.5216057320170067,0.013486921079421036,0.8529932112646573,0.008480112550064464,-0.9035239402015462,1.056749839135217,-0.14013916871637966,-0.7127412790936178,0.8454089010801134,-0.1634551915622168,0.7782545651931165,0.9443186916872907,-0.001978922431093178,0.6328354411638719,1.1609139016276178,0.0,0.0,0.0,0.0
0.023565290710444383,0.04532252704087817,0.7462280061777216,-0.012294684863298095,-0.5215082075987182,0.013588090203922045,0.8530494674612338,0.00703465048808987,-0.9041808414342467,1.0606192269619816,-0.1414310532350624,-0.7100341877040334,0.8443770524647167,-0.16536275164100578,0.7827780090366063,0.9371819243169469,-0.0009418827126316323,0.6285113175636862,1.1771269021891013,0.0,0.0,0.0,0.0
0.02384337166700736,0.045775388150704095,0.746943396556519,-0.012402571909024149,-0.521418751463256,0.013679139384315921,0.8531011329134696,0.005720714422696407,-0.9047878032661759,1.0641652192199587,-0.14260664765301845,-0.7076094767059948,0.8434967612762496,-0.1671368851870953,0.7869386265764768,0.9306412885654928,0.00013319114272357445,0.6244928285767812,1.193060327298824,0.0,0.0,0.0,0.0
0.02406791489577003,0.04616646096849449,0.7475632641840347,-0.012482506898525033,-0.5213327297251876,0.013743239277302718,0.853151507830221,0.004617011332403251,-0.9052302566830956,1.067083223132188,-0.14359203844587415,-0.7055283436752636,0.8426621461675536,-0.16885277442975585,0.7905383859382702,0.9249470133299964,0.0013511445067312328,0.6208126293202656,1.2080309656462713,0.0,0.0,0.0,0.0
0.024203458769742635,0.04649266197593624,0.7480549219017736,-0.012518828524396978,-0.5212348085086599,0.013763078716630881,0.8532104845790147,0.0037645103954294097,-0.9055011979132539,1.0691599570180434,-0.14435301466581024,-0.7038983768743551,0.841763478553935,-0.17071247823988386,0.7933069742469361,0.920471858187725,0.0029486830073172546,0.617607412907808,1.220772205942238,0.0,0.0,0.0,0.0
0.024211158529235957,0.046766139792543196,0.748377237562519,-0.012490607822453875,-0.5210965875964862,0.013718840149413332,0.8532960356971536,0.003165646090924409,-0.9057009955009492,1.070272421697371,-0.14489598723274125,-0.7028796646056487,0.8406858096335749,-0.1730852456327682,0.7949072953925149,0.9177005455423539,0.005386853518145824,0.6153306537762673,1.2290821297375605,0.0,0.0,0.0,0.0
0.024062061555390035,0.04700648397340598,0.7484952089850078,-0.012376320802033575,-0.520884942005525,0.013592824391731878,0.8534289302574418,0.0027976108792657525,-0.905994596620502,1.0704184471600664,-0.14525380769602997,-0.7026575414748986,0.839383531296625,-0.17637785324987623,0.7950519033431563,0.9170479332705972,0.009318600923390024,0.6151743091749103,1.2295705863270456,0.0,0.0,0.0,0.0
0.023760289730496223,0.047207803553489705,0.7484068349429959,-0.01217985693569732,-0.5206070063408208,0.01338864042405883,0.8536045573574861,0.0026695016139953887,-0.9063669545760347,1.069591408848333,-0.145416894712247,-0.7032222148903614,0.837877235183029,-0.18047931779225826,0.7937364873753107,0.9185249416875055,0.014753768681158217,0.617157313872345,1.222245977527556,0.0,0.0,0.0,0.0
0.023340722953480764,0.047339961659269084,0.748143581213018,-0.011926524098230876,-0.520303921142464,0.013127880583540169,0.8537969585434789,0.0028253869827618325,-0.9066371852600377,1.0677857082298428,-0.1453325599579616,-0.7044022574782597,0.8362732336412225,-0.18482936403589315,0.7912379615705318,0.9217297471918924,0.021074685450325564,0.620107719215498,1.210504125218299,0.0,0.0,0.0,0.0
0.022844350068083347,0.04738225162709075,0.7477448358076448,-0.01163624889818757,-0.5200039906921957,0.012830050906094221,0.8539881949825285,0.003286761844171077,-0.9067011892252389,1.0651168233058146,-0.14497423074313964,-0.7060855876950517,0.8347606621732709,-0.18899647808497752,0.7878844858575131,0.9261703948194894,0.02785838899942615,0.6235567714489582,1.196546930898282,0.0,0.0,0.0,0.0
0.022307046829218,0.047331400083265265,0.7472435486250263,-0.01132181641202418,-0.5197180834024979,0.012510220661599927,0.8541711916451904,0.004034288331215951,-0.906570187702955,1.0617960442007768,-0.14435867653710904,-0.7082237570132013,0.8335245063907801,-0.19276669103884583,0.7839425717375419,0.9314492319514305,0.03489117712536817,0.6273403208469849,1.1816348959620255,0.0,0.0,0.0,0.0
0.02175339672843351,0.047195433858232924,0.7466642258553405,-0.010990361719028936,-0.5194451726563,0.012178251691405706,0.85434630843651,0.0050272554555895405,-0.9063100952488434,1.0580374002841344,-0.1435247326998299,-0.7107961821952732,0.8326870879419228,-0.19608289295489112,0.7795921813644423,0.937287451876924,0.04208123895896353,0.6313777821428181,1.1664371510314542,0.0,0.0,0.0,0.0
0.021180818195967413,0.04697873036715956,0.7460231165339146,-0.010641241689657773,-0.5191789368399049,0.011831912120175984,0.854517408466714,0.00626116584647427,-0.9058902909595659,1.0538309847978395,-0.1424740358602738,-0.7137605751194501,0.8322046065960387,-0.19897754013396793,0.7748976360691457,0.9435200030207453,0.04940303084796994,0.6355557759616506,1.1512626549590292,0.0,0.0,0.0,0.0
0.02056681988475365,0.046680349401583644,0.745329496018786,-0.010268702991312986,-0.518909942157857,0.011459785703009337,0.8546904111900676,0.007766419458812603,-0.905200221838124,1.048988095289368,-0.14117276392226222,-0.7170633652767614,0.8319188531930329,-0.20152110243653967,0.7698330740688769,0.9500653137104887,0.05685498472293511,0.6397425763295499,1.1362161083429072,0.0,0.0,0.0,0.0
0.019883652381125546,0.04629838389067647,0.7445880896248339,-0.009866073493097158,-0.5186268778068854,0.011047813142139987,0.8548723694417121,0.009582049463181287,-0.9041207782025127,1.0432787113783137,-0.1395783909144651,-0.7206588339735649,0.8316465266976615,-0.2037911672702411,0.7643317143560752,0.9568871316499744,0.0644439822690894,0.6438385834930209,1.1213077387707393,0.0,0.0,0.0,0.0
0.019109260742052724,0.04583497361226451,0.7438010154971834,-0.009427993449086765,-0.5183158244709463,0.010583540816560004,0.855071814356146,0.011732609166147477,-0.9025894032384857,1.0365483640384712,-0.1376637771804401,-0.7245309620007349,0.8312505646519046,-0.20587484476353252,0.7583229756829025,0.9639681429799746,0.07219016972214694,0.6478189883469445,1.1065092661012668,0.0,0.0,0.0,0.0
0.01821830594236997,0.045292436198029896,0.742968861404274,-0.008948169977090095,-0.5179615549502359,0.010051798546389256,0.8552980294573218,0.014248912143633856,-0.900531330067705,1.0286124295419259,-0.13539509387789167,-0.7286637693493895,0.8305725138802367,-0.20787892424129772,0.7517217131642739,0.9713061301080919,0.08017176388252853,0.6517222935251747,1.0917675562412792,0.0,0.0,0.0,0.0
0.01718861382639561,0.04467908609142346,0.7420921740032166,-0.008419786352674857,-0.5175457577708088,0.009436482257329699,0.8555620659039422,0.017148390789834593,-0.8979080484927181,1.019338877255977,-0.13275210896832623,-0.7330542978611162,0.8294691813309852,-0.20996207731518848,0.7444526818347511,0.9789003434693501,0.08859652921179957,0.6556970401613975,1.077015423290527,0.0,0.0,0.0,0.0
0.016013149668657658,0.044019214196249906,0.7411739457560376,-0.007836770927384846,-0.5170459922204925,0.008724945853167678,0.8558772705651303,0.020398543354797717,-0.8948011247583032,1.0087975577465966,-0.12976586861235995,-0.7377269987820181,0.8278734723101923,-0.2123805939832103,0.7364963111062107,0.9867336431836508,0.09795795246862046,0.6600772881109818,1.0621969016150044,0.0,0.0,0.0,0.0
0.01472161366527637,0.04337135242830074,0.7402199108310673,-0.007195367455138234,-0.5164311924274151,0.0079202860708346,0.8562618286737649,0.023838106277357798,-0.8916056465089721,0.9975648052782955,-0.1266015162819646,-0.7427850683088317,0.82592709654428,-0.2155391501220493,0.7279301872364347,0.9947769407091815,0.10934995759572683,0.6655090034907374,1.0472982503539996,0.0,0.0,0.0,0.0
0.01344044482289522,0.04283860455388058,0.7392522676596529,-0.006501040085404057,-0.5156581931224881,0.007065653851433722,0.856740591357215,0.02709360063311807,-0.8893781164917899,0.9873666744239549,-0.12365712728754233,-0.7486110761542694,0.8245018942422098,-0.21988635281883603,0.7191183667587026,1.002802253306266,0.12465611271621226,0.6731009936758614,1.0322876855091594,0.0,0.0,0.0,0.0
0.012252172796630652,0.04245248088042655,0.7383571247300118,-0.005774154253186068,-0.5147470400834376,0.00616971356005926,0.8573004598754086,0.030087669886923515,-0.8882651725862277,0.9789373624770134,-0.12101100687107044,-0.7550904918572746,0.8239742517134515,-0.22548567447652,0.7107581057209579,1.010023733907686,0.14526649433378142,0.6835235547051174,1.0168136179454506,0.0,0.0,0.0,0.0
0.011460169411134851,0.042212381592712823,0.7377243381059304,-0.005152800250030943,-0.5138240403450581,0.005389798308690758,0.8578631908919131,0.03249335327910337,-0.8888870813516522,0.9745704249389003,-0.11897973513588418,-0.7618922055615858,0.8259110675254072,-0.23070549243473437,0.7045644467998722,1.0145421265559438,0.16880700907255108,0.6962962952242101,1.0007359377874057,0.0,0.0,0.0,0.0
0.011470508586285644,0.04221394411639298,0.7377123166120201,-0.005144173719374759,-0.5138284937223707,0.0053886414261539875,0.8578605825303578,0.032495019512203835,-0.8888664476089663,0.9745537731260052,-0.11897184688757743,-0.7619115990334523,0.825914536491684,-0.2306822876943315,0.7045659874780381,1.014555613871033,0.16880403925359438,0.6962782675023089,1.0007230422171962,0.0,0.0,0.0,0.0
0.011470508586285644,0.04221394411639298,0.7377123166120201,-0.005144173719374759,-0.5138284937223707,0.0053886414261539875,0.8578605825303578,0.032495019512203835,-0.8888664476089663,0.9745537731260052,-0.11897184688757743,-0.7619115990334523,0.825914536491684,-0.2306822876943315,0.7045659874780381,1.014555613871033,0.16880403925359438,0.6962782675023089,1.0007230422171962,0.0,0.0,0.0,0.0
0.011901905138992294,0.04261190130150633,0.7376613437865657,-0.00498917761726343,-0.5141961606587846,0.00546898175852024,0.8576406629288246,0.031144282355700773,-0.8897985426195444,0.9779645519979631,-0.120291026925183,-0.7609834884963124,0.8263624796540904,-0.23595655873758223,0.7075418664105725,1.0162936799757973,0.16659646286083438,0.6984485766339887,1.0003855675751323,0.0,0.0,0.0,0.0
0.012383438868865967,0.04310985672198613,0.7375641256260026,-0.004910720392578145,-0.5145070662899308,0.005613797861309457,0.8574537006955693,0.029404077300638903,-0.8919060762946017,0.9827457589485249,-0.12201299060994983,-0.760209429675102,0.82698430627033,-0.24114490423775728,0.7101714446696674,1.0185022010581009,0.16455256924163886,0.7006031896308993,1.0000245417748517,0.0,0.0,0.0,0.0
0.012783758392417818,0.04352729180680559,0.7374678957762743,-0.0048749979869361,-0.5147683443891549,0.005751623370269731,0.8572961593510625,0.027914974240975693,-0.8937607271942324,0.9867770593306424,-0.12348058753378147,-0.7594925698405403,0.8273992009466841,-0.2452925508405429,0.7122686789364635,1.0204702850343597,0.16314249335135597,0.7024200518501211,0.9998553637765779,0.0,0.0,0.0,0.0
0.01308285515054243,0.043811737690386696,0.7373860504927077,-0.004852718544305563,-0.5149898888828655,0.005854764839493101,0.8571625208791026,0.02687378666561826,-0.8949611016740563,0.9895550862703338,-0.12450086842258361,-0.7589115650195878,0.8276972774008148,-0.2482967792656732,0.7138871751790261,1.0220080766238573,0.16237497324479516,0.7038458945738523,0.9999485334498305,0.0,0.0,0.0,0.0
0.013285291210951466,0.04394980355167498,0.7373215088382513,-0.00482325157195162,-0.5151841605992361,0.005911553236457517,0.8570455474770676,0.026337034800754233,-0.8953742366184481,0.9909765592359715,-0.1250218053198915,-0.7585177430347374,0.827981895369693,-0.2502745068769303,0.7151260465803485,1.0230908316687761,0.1621669595054141,0.704899146471946,1.0003390790212965,0.0,0.0,0.0,0.0
0.013400803845897147,0.043936149774035996,0.7372735527123071,-0.004771552534360355,-0.515362437976711,0.005914976840229833,0.856938622573456,0.02632998860994317,-0.8949410206271313,0.991031147440156,-0.12502218750311025,-0.7583599455121363,0.8283595582028779,-0.251369443767536,0.716082107261141,1.0237332645636394,0.16244439608159505,0.7056102333177096,1.0010614083373275,0.0,0.0,0.0,0.0
0.013435403421708878,0.043757640434937156,0.7372407699658636,-0.00468525649668893,-0.5155346831545321,0.005856100356272473,0.8568358914780202,0.026904159633262197,-0.8935727761701201,0.9896477567795027,-0.12445409950864636,-0.7584992715750961,0.8289416774750613,-0.25166483711427834,0.7168316127074512,1.023936274205292,0.16318712265180157,0.7059941080204497,1.0021764290794875,0.0,0.0,0.0,0.0
0.013403940326120486,0.043373518732349084,0.7372209028638175,-0.004545212013800823,-0.5157064805679098,0.005715539741869771,0.8567342058967115,0.028208182887089372,-0.8911518366451188,0.9867273088478062,-0.12318250304433451,-0.7591915589691808,0.8301252639483412,-0.2511610450162108,0.7174771203292253,1.0236245923079303,0.16446559257848517,0.7060606620875964,1.0038076279293104,0.0,0.0,0.0,0.0
0.013356220212482938,0.04269122837933969,0.7372072615619575,-0.004311197423025287,-0.5158703956825308,0.005451916101158272,0.8566384447629902,0.030576173965720564,-0.8876125669583185,0.9823008404604021,-0.12091483871842275,-0.7612095770755537,0.8330817283060598,-0.24979155296243052,0.7182214153402261,1.0225788759240848,0.16646245342102264,0.7058269821259677,1.006190742929263,0.0,0.0,0.0,0.0
0.01332970652444634,0.04160428893068785,0.7371933503730165,-0.003944396338523663,-0.5160141841900069,0.005021660504015002,0.8565562365531108,0.0343817020512526,-0.8828078013756998,0.9762375670435676,-0.11731151718119215,-0.76531492348722,0.8389215671377361,-0.24734581400447625,0.7191997299346061,1.0205391859890365,0.16944489058869205,0.7052669287922447,1.0095945512535582,0.0,0.0,0.0,0.0
0.013320571370591023,0.04000917523049812,0.7371660573033514,-0.003419500088601758,-0.5161217649877174,0.004381119340959462,0.8564971900236612,0.039991553425524844,-0.8764375574055192,0.9680494932211525,-0.11201310396300358,-0.7720209629049976,0.8482517384041748,-0.24346537785658834,0.720346558558062,1.0173351824631938,0.17370438041183064,0.7042000344315263,1.01436036475445,0.0,0.0,0.0,0.0
0.01331844170668256,0.03783174670841305,0.7371394507943733,-0.0027301223630622866,-0.5161699722054155,0.0035141522199915484,0.8564746096408917,0.04762334424597739,-0.8682238620922008,0.9572891671815873,-0.10477576072162641,-0.7815169039086038,0.861280027602747,-0.2376230615221523,0.7216063682491608,1.0125749281384813,0.1796168081089585,0.7026171486438373,1.020482648057299,0.0,0.0,0.0,0.0
0.013332558609421879,0.03503635560496138,0.7371636457019454,-0.001884640003140751,-0.5161317681883347,0.002421804000250172,0.8565036957679902,0.05734928336743772,-0.8579845275452977,0.9437718142307843,-0.09547365153214807,-0.7937561976641437,0.8780280543289553,-0.2293869668981053,0.7231351012128325,1.0055624733900848,0.1874856764837761,0.7007730311086515,1.0274742539744577,0.0,0.0,0.0,0.0
0.013376263160720154,0.031622534615099306,0.7372438723534862,-0.0008996024626658726,-0.5159831187908921,0.0011140031031290085,0.8565975547684687,0.06912585259670045,-0.8457505710835153,0.9274808160590149,-0.08408206416151345,-0.8086503274021929,0.8983307542183303,-0.21860670842498856,0.7249603042019195,0.9960635873813063,0.1974876754627804,0.6987559244928455,1.0351468503921841,0.0,0.0,0.0,0.0
0.01348585126549489,0.02772908364511414,0.7372724061133316,0.000196717962313741,-0.5157168229123473,-0.0003955213469522162,0.8567589879482456,0.08255761249962736,-0.8322887479778472,0.9092335651958662,-0.07093165412694521,-0.8260355453897003,0.9216199774880571,-0.20639168399647467,0.7268824749852326,0.9852550017096372,0.2089223525792962,0.6962054490223624,1.0439359549680385,0.0,0.0,0.0,0.0
0.013624457728357499,0.024324405329356726,0.7372190659542466,0.0011849043885388119,-0.5154589288988302,-0.001674465907934227,0.8569118302275818,0.09409033424019439,-0.8204886294169704,0.8929274540051788,-0.0594271943930741,-0.8411211963110824,0.941480110891077,-0.1959112004589872,0.7284619152830871,0.9760983768335953,0.21920242750076235,0.6939328601139231,1.051991462554747,0.0,0.0,0.0,0.0
0.013745785060670078,0.02154954420545363,0.7371846496638242,0.002012901011296721,-0.5152760828356265,-0.0027213910479035926,0.8570175614990954,0.1034175418300129,-0.8102479400959667,0.8788418733275984,-0.049947524883653525,-0.8528842850897033,0.9569069514509596,-0.18779237794873052,0.7301204428875611,0.9683979228392606,0.22753989515101783,0.6923179361602028,1.0583374270953512,0.0,0.0,0.0,0.0
0.013837419270881685,0.019403716179610706,0.7371630005028023,0.002673986988488957,-0.5151663363796043,-0.0035369153386411753,0.8570787512735858,0.11058097413653785,-0.8018102640923902,0.867285246191799,-0.0425551041610696,-0.8615799129866861,0.9682966879911722,-0.18184675559732302,0.7316632449665758,0.9623479173056828,0.23392337694919765,0.6912206383901428,1.0631589786569315,0.0,0.0,0.0,0.0
0.013898369187429633,0.017845791645104823,0.7371087840661166,0.0031800338445941616,-0.5151204683681454,-0.00413188891584553,0.8571019297300158,0.1157414001483956,-0.7953825174691832,0.8584150010175186,-0.03716847016132556,-0.8677248192691843,0.9762482364616875,-0.17785355079640974,0.7327884055971162,0.9583404008573384,0.2385096131412871,0.690362458885552,1.0670175706417822,0.0,0.0,0.0,0.0
0.013946345368864336,0.016760739368825578,0.7370437417718004,0.0035589049694213486,-0.5151247339354535,-0.004552650700788604,0.8570957449754044,0.11931723949287541,-0.7906796431547787,0.8519533315246456,-0.033404244970884046,-0.8719142278294,0.9816574195549764,-0.175408803063869,0.7336541131128076,0.955862320603075,0.24163222183974523,0.6897738011664223,1.0699813782354075,0.0,0.0,0.0,0.0
0.013997937895180206,0.016033666885585458,0.7369811627250092,0.0038403187789006724,-0.5151622840599915,-0.004843170178120488,0.8570703686024822,0.12170928929186751,-0.7873889994011268,0.8475340397906679,-0.03087241750256824,-0.87471476574437,0.9853291503356704,-0.17413023148907758,0.7343922867832509,0.9544359319991805,0.24363295134013055,0.6894508999027249,1.0721658489953727,0.0,0.0,0.0,0.0
0.014030758634740816,0.015539473951856704,0.7369302095351503,0.004044997604141375,-0.5152134859526754,-0.005044745959991319,0.8570374860092609,0.1233282514923067,-0.7849779995696479,0.8443291488715964,-0.029146976943675428,-0.87651372622755,0.9877048218746213,-0.17343492325794968,0.734960562991739,0.9536074518119094,0.24495592926680254,0.6892611314795875,1.0737707883853667,0.0,0.0,0.0,0.0
0.014047732061809476,0.015201555267836831,0.7368917574896374,0.004192616998104598,-0.5152659940934066,-0.00518342621308523,0.8570043811943637,0.12442547763468488,-0.7831941431670848,0.8419695460098624,-0.02796911218333813,-0.8776454702553744,0.989210353465668,-0.17304678074270197,0.7353831241386087,0.9531207927754128,0.24585152795276138,0.6891524091978339,1.0749379810895792,0.0,0.0,0.0,0.0
0.014054877794273215,0.014969543245977168,0.7368639840627594,0.00429915884075928,-0.5153148564273429,-0.005278517606611106,0.8569738929689781,0.1251698087971962,-0.7818672913957506,0.8402232381049876,-0.02716387586982824,-0.8783433323575048,0.9901509055452893,-0.1728348245018144,0.7356998718171237,0.9528331818583219,0.24646590952449343,0.6890984793126979,1.0757808567877112,0.0,0.0,0.0,0.0
0.014057034183376423,0.01480960340996808,0.7368445254508752,0.00437663902037742,-0.5153586309001367,-0.005343961071862798,0.8569467711985875,0.12567597098161928,-0.7808742072374425,0.8389272527674788,-0.026611586399216368,-0.8787631959828245,0.9907318052738912,-0.17273229292128356,0.73594555760277,0.95266328849994,0.24688958498277783,0.6890833222802428,1.076387290517161,0.0,0.0,0.0,0.0
0.014057527814458732,0.014698940026197442,0.7368312791506999,0.004433879960645845,-0.5153976987559836,-0.005389717015712919,0.8569226941655949,0.1260218821845887,-0.780123096188484,0.837962628644227,-0.026230412833769833,-0.8790062050983006,0.9910871877372234,-0.1727063819464511,0.736148320607615,0.9525644835997323,0.2471790105679491,0.6890971899512961,1.0768229576859996,0.0,0.0,0.0,0.0
0.014058695284464934,0.014622276099304329,0.7368225603062564,0.004477434600330007,-0.5154335172458979,-0.005423004357433973,0.8569007135617648,0.12626044753643428,-0.7795445254819477,0.8372420605726049,-0.02596440607650659,-0.8791366220462534,0.9913037612862182,-0.17274631512051788,0.7363323306148968,0.9525111087211307,0.24736739126415402,0.6891351107388707,1.0771361095641536,0.0,0.0,0.0,0.0
0.014062543052126189,0.014569495980974555,0.7368169991930078,0.004512437719501226,-0.5154683476003145,-0.005449342341626537,0.8568794111169159,0.12642787576703193,-0.7790851730046389,0.8367026315130099,-0.025775000207322478,-0.8791950800908327,0.9914388472962798,-0.17285950706916894,0.7365213063249982,0.9524915234709237,0.24747012852099626,0.689196225346232,1.0773624928699221,0.0,0.0,0.0,0.0
0.014071459036719889,0.014534030747016783,0.7368133385344,0.004543394943485589,-0.5155052858689435,-0.005473467520013002,0.8568568719202021,0.12654978599438144,-0.7787031674298436,0.8363015865550415,-0.025634755814988353,-0.879208638172674,0.9915345634881629,-0.1730727606717289,0.7367427456428519,0.9525049394398986,0.2474867404485119,0.6892837540970226,1.077529867410496,0.0,0.0,0.0,0.0
0.014089094568659347,0.014511661671593366,0.736810256329365,0.0045750061433417555,-0.5155485258708323,-0.005500248745106157,0.8568305165287602,0.12664621414480765,-0.7783642202710471,0.8360146137430357,-0.02552224540846862,-0.8791993429035655,0.9916309351800121,-0.17343763722520628,0.7370339349976344,0.9525596298692113,0.24740004385247646,0.6894060869519152,1.0776615200601032,0.0,0.0,0.0,0.0
0.01412170221189833,0.014499352704782024,0.7368066696699028,0.004613155931223112,-0.5156037657073238,-0.00553575074175561,0.8567968435075533,0.1267368163132678,-0.7780373000093967,0.835836888279699,-0.025416758260461247,-0.8791930119040418,0.9917820887187011,-0.1740391325090027,0.7374529981777809,0.952666489360325,0.24717334602215416,0.6895813328117274,1.0777751835110443,0.0,0.0,0.0,0.0
0.01418080308801017,0.01449349935161465,0.7368046264415435,0.004666216296510693,-0.515678517053695,-0.005588588076617261,0.8567512247776983,0.1268479848403595,-0.7776866359836662,0.8357904234456681,-0.02529100430588439,-0.8792287405283665,0.9920842753451671,-0.17500472491485303,0.7381075148654852,0.9528042625554121,0.2467469971315125,0.6898561661594739,1.0778589232012963,0.0,0.0,0.0,0.0
0.014291249133914241,0.014486917115026381,0.7368243077896253,0.004746841528206496,-0.5157820860292016,-0.005671783258470208,0.8566878883826596,0.12702339981213387,-0.7772497779146131,0.8359624208024424,-0.025099928501651173,-0.879360770500175,0.992743137734632,-0.17651146266135787,0.7392597307740196,0.9527574482509649,0.24603285287361457,0.6903912709297598,1.07773737416302,0.0,0.0,0.0,0.0
0.01453268046420883,0.014458518982072696,0.7369741097389814,0.004878699726354783,-0.5159273864636268,-0.005810146690192645,0.8565987230793832,0.1273621315778606,-0.7765616770596863,0.8367365827899337,-0.024741084343326256,-0.8796604165926509,0.9943946093467538,-0.17883174293622206,0.741832371833033,0.9513696497548558,0.24489378368788384,0.6918840530881134,1.076438361238138,0.0,0.0,0.0,0.0
0.015305901857761551,0.014289925639590752,0.7377807199095465,0.005169123601662754,-0.516165440443369,-0.0061128364277441526,0.856451488108872,0.12836602962535498,-0.7749414739731216,0.8401292576878643,-0.02370439525258906,-0.8806058825648067,1.0003407773908028,-0.18300432235750053,0.7502670015333454,0.9429087675544335,0.24294174135669555,0.6977970127117811,1.0692383000567083,0.0,0.0,0.0,0.0
0.016100414142122495,0.014402135016026704,0.7391725601444574,0.00598558630636876,-0.5168500343507423,-0.006931684358861384,0.8560269659888959,0.1294167513796479,-0.7678204690996355,0.8398376491840323,-0.022320656674341306,-0.8781346927763982,1.0035258672485443,-0.1486447573754452,0.7230921726450223,0.976594191298622,0.2310528525663479,0.7052566914902474,1.0566062247214782,0.0,0.0,0.0,0.0
0.017117460428447428,0.01457303096985247,0.7406642690421527,0.0067780557095040795,-0.5175933554712335,-0.007727735958814348,0.8555649936911742,0.13026512246202243,-0.7613920730672804,0.841541271172119,-0.02118191647827923,-0.8757494074938831,1.0078882449839073,-0.12160561429159698,0.7034476041612855,1.0016509154926911,0.21924519180749244,0.7141996733422907,1.0425778382237634,0.0,0.0,0.0,0.0
0.018158166115871226,0.014684882703385574,0.7419873391128571,0.007444504906583878,-0.5182298137964929,-0.008386752093449249,0.8551678793245635,0.13103475684917035,-0.7564809761465466,0.8443723105716797,-0.020207137466292255,-0.8742833685893927,1.013049905574081,-0.10362292993101774,0.6903529416965735,1.0215011873207354,0.20968934673157852,0.7228022089933073,1.0297998709795257,0.0,0.0,0.0,0.0
0.019108547671882543,0.014731242547498262,0.7431241614254517,0.007994936846691898,-0.5187546034554116,-0.008924157077514736,0.8548392257021736,0.1317641567619865,-0.7525478359422507,0.8472211303338875,-0.01932297050086202,-0.8733777960447088,1.0181312967849263,-0.09125648062537227,0.6813477650665036,1.038654943983821,0.20216600371944238,0.7305107108418362,1.0186649752220363,0.0,0.0,0.0,0.0
0.019947953298582847,0.014719261805866045,0.7441206676995255,0.008461299689402024,-0.5191827176395655,-0.009372584993542267,0.8545699893879378,0.13248689124276514,-0.7491796294706905,0.8496932662801899,-0.01847176665114912,-0.872809133076287,1.0228886583124248,-0.08177922333295784,0.6746798204492945,1.054425511220704,0.19615617684624376,0.7373465347189806,1.008859019388174,0.0,0.0,0.0,0.0
0.02068064759838956,0.014665809445081687,0.7450256035872641,0.008867927124428767,-0.5195336226903469,-0.009757564857769085,0.8543482689692807,0.13319927182915833,-0.7461033589323043,0.8516676250936858,-0.017641633707582555,-0.8723787206645343,1.0272064169159734,-0.0736420265108619,0.6692238350177346,1.0695000892138797,0.19118107605800327,0.7434712650717458,0.999958201526649,0.0,0.0,0.0,0.0
0.021320662989190737,0.014587654812434129,0.7458737844128392,0.00923183452987972,-0.5198256904795682,-0.010097763435185089,0.8541627830350957,0.13388866834035845,-0.7431647520918047,0.8531587882083916,-0.01683690589211886,-0.8719561773821665,1.0310558100639629,-0.06608067718920753,0.664310674795787,1.0842448000293499,0.1868721848690711,0.7490511283878677,0.9916273272042335,0.0,0.0,0.0,0.0
0.02189782566134497,0.014490774094167264,0.7466853886090475,0.009569461355779879,-0.5200740203981465,-0.010409909217021188,0.8540041408016485,0.13457141651235047,-0.7403185134081602,0.8543202319648049,-0.01604031162812726,-0.8715641675267118,1.0346147356849995,-0.05874183215699928,0.6596108756251002,1.098875699145657,0.18298621245729996,0.7542541677068793,0.9836529695412093,0.0,0.0,0.0,0.0
0.022431999816521914,0.014384406910288845,0.7474701924843442,0.009889802532374333,-0.5202917691037147,-0.010704199832480353,0.853864208709291,0.13524397366265348,-0.7375491602670615,0.8552718715155121,-0.01525540812473152,-0.8711947542485542,1.0379667803106487,-0.05148691677418217,0.6549559344546102,1.1135170817514581,0.17934364768010636,0.7591867356079823,0.9759153159418253,0.0,0.0,0.0,0.0
0.02293660509494142,0.014278873641741718,0.7482307459751338,0.010197269562743453,-0.5204891102208278,-0.010986246132192257,0.8537367300467508,0.13589232984477043,-0.7348704193774884,0.8561197504235375,-0.014497504374712497,-0.8708351916899906,1.0411498312238372,-0.04427203770833854,0.650283536792628,1.1282341989082711,0.17581536905010237,0.7639083589997584,0.9683624760479018,0.0,0.0,0.0,0.0
0.02342026322716569,0.014185169588422067,0.7489646302013194,0.010493250289969449,-0.5206739566189263,-0.011258484899743735,0.8536168749005063,0.1364954830835592,-0.7323158931468668,0.8569587586534705,-0.013789803652351159,-0.8704702293778258,1.0441698926159915,-0.03709159348488928,0.6455958044084116,1.1430497771938373,0.1723072228215842,0.7684437244796788,0.9609917395501714,0.0,0.0,0.0,0.0
0.023887565858224973,0.014115145674150282,0.7496650622039385,0.010776941569619109,-0.5208526054226077,-0.011520987373236402,0.8535008422988415,0.1370264716939437,-0.7299351043075667,0.8578743674372574,-0.01316219392335759,-0.8700826098685538,1.047005764557258,-0.02995523028231602,0.6409322841839776,1.1579347982078396,0.16874861832140658,0.7727860691985898,0.9538449110325956,0.0,0.0,0.0,0.0
0.024338706826135814,0.014081816125776855,0.7503198785258312,0.011045638138728999,-0.5210301182704621,-0.011771791330875572,0.8533856306864083,0.13745236510400904,-0.7277930229398384,0.8589397271459592,-0.012651170614355094,-0.8696535550283188,1.0496059557319355,-0.022884477517421318,0.6363538901152664,1.1727696248963901,0.16508696528612177,0.7768902020976224,0.9470199244909691,0.0,0.0,0.0,0.0
0.024767079772085417,0.014099547898032149,0.7509090646390036,0.01129436995433994,-0.5212100527331225,-0.012006667796959932,0.8532692178121062,0.13773356573728485,-0.7259702530570398,0.8602008201883424,-0.012300320914966013,-0.869161444882134,1.0518727973004358,-0.015926892980472493,0.6319364414207982,1.1872586085112458,0.16129026290835993,0.7806518721660684,0.9406994020738806,0.0,0.0,0.0,0.0
0.02515287440519303,0.014184487233208962,0.7514014978696462,0.011514399078827973,-0.5213937617327395,-0.012218147194051556,0.8531510304273102,0.13782075270940497,-0.7245536125446753,0.8616315152523853,-0.012162344326965767,-0.8685651498005892,1.0536129177675158,-0.009199167091320334,0.6277782434603708,1.2007765727793247,0.15735832434310332,0.7838712329361575,0.9351927449009982,0.0,0.0,0.0,0.0
0.025465521959452717,0.014347178629842578,0.7517520022558695,0.011694656702577317,-0.5215790412578387,-0.01239638833844971,0.853032747484717,0.13767584685677164,-0.7236377694486852,0.8631291740394536,-0.012278108335278681,-0.8678518055361802,1.0545987890447543,-0.002945092782902956,0.6240949652081115,1.2121311703055053,0.1533739094763492,0.786246497302128,0.930981717334105,0.0,0.0,0.0,0.0
0.025677602389333396,0.014579473048020675,0.7519032915850213,0.011825821356616514,-0.5217575576012691,-0.012531182580869491,0.852919791362778,0.1373099556483213,-0.7233460958934108,0.8645817616332837,-0.012640502995215425,-0.8671400222030596,1.0547481799259149,0.0024156237956016067,0.6214800895978763,1.2192024853590278,0.1495788484879282,0.7874273963596146,0.9287109335504691,0.0,0.0,0.0,0.0
0.025767156375855582,0.014863119581326302,0.7518078787453999,0.011898882758080641,-0.5219162790248411,-0.012612014894384564,0.8528204684212718,0.1367583312186612,-0.7237893370622374,0.8658858170385358,-0.01321781878612215,-0.8665835837032008,1.0540643989106597,0.006290036781890282,0.6212534268193075,1.2186355300957656,0.14629321600087758,0.7871275408367848,0.9289383639462906,0.0,0.0,0.0,0.0
0.02573515108838578,0.015199306395864847,0.7514621837886702,0.011913895694929802,-0.5220582083565428,-0.012638105988950887,0.8527329971649619,0.13601627526190754,-0.724972612653172,0.8670470806785103,-0.014014517382355174,-0.8661764894362746,1.0525392436376064,0.008685320072530357,0.623435647998874,1.2104625580497763,0.14352805258812446,0.7853459412384619,0.9317028015350499,0.0,0.0,0.0,0.0
0.025605546324393567,0.01560957822321363,0.7509064584942327,0.011879748882505162,-0.5222011543241808,-0.012618862297723375,0.8526462281059436,0.1350384789287628,-0.726803431444523,0.8681895984620563,-0.015072384360192216,-0.8657580755756741,1.050155284341114,0.010201789343012009,0.6267426748522025,1.1980860642561049,0.14096759772143982,0.7823613828040488,0.9365116473544182,0.0,0.0,0.0,0.0
0.025407451424038,0.016106965830650296,0.7501916648135291,0.011805150652138732,-0.5223563484598893,-0.012563646849346301,0.8525530120875627,0.1338009523700402,-0.7291857532434448,0.8694567580108988,-0.01641202324593562,-0.8652045280611067,1.0469783905527927,0.011251940802163378,0.6305981437623294,1.1836620885569409,0.13835073136447976,0.7785123059046514,0.9427600353005957,0.0,0.0,0.0,0.0
0.025171604278736624,0.01668835665826051,0.7493572387316197,0.01169951464284244,-0.5225286381470726,-0.012480693313304718,0.8524501017465519,0.13232074261310092,-0.7320550714414036,0.8709828904794079,-0.01801439396865423,-0.8645082464942273,1.0431960347975322,0.012065041255023157,0.6347891173809714,1.1684116169530832,0.1355599659604572,0.7740846816692656,0.9499942893471646,0.0,0.0,0.0,0.0
0.024914892184296045,0.01734934596456197,0.7484276939390574,0.011569041841666664,-0.5227197138206032,-0.012375291511088769,0.8523362659268864,0.13061381757706922,-0.7353571469299678,0.8728198722962864,-0.0198608432483983,-0.8636659712634608,1.0389180955030806,0.012734441189308728,0.6392120968344155,1.1529795835290448,0.13253124857697862,0.7692455690583656,0.9579369953699847,0.0,0.0,0.0,0.0
0.02463786674300351,0.01809257989985259,0.7474140986959075,0.011416144310505045,-0.5229292189991082,-0.012249903897499055,0.8522116189190139,0.12867401608934184,-0.7390515318948403,0.8749462987396565,-0.021954115062142704,-0.8626364234857101,1.0341152868025354,0.013278860446510644,0.643785000867665,1.1376661596599225,0.12918328515150693,0.7640375058604555,0.9664503827743054,0.0,0.0,0.0,0.0
0.02432685805207696,0.018930551754990546,0.7463165934838089,0.011240347557840601,-0.5231555871604024,-0.012105300098519666,0.8520770786256125,0.12646795284222437,-0.7431116600045546,0.8772864725468703,-0.024323319038811433,-0.861329808926543,1.0286165114692454,0.013682110036168567,0.6484284144431834,1.1225670946671369,0.1253783604383846,0.7583943771998904,0.9754956599758923,0.0,0.0,0.0,0.0
0.023962091855293507,0.01988144197533414,0.7451265582729799,0.011041212000111104,-0.523397093970584,-0.011942840146756475,0.8519336489597915,0.12394994839714092,-0.7475254400803443,0.8797457134087672,-0.02700933083370665,-0.8596433861294835,1.0221857151083642,0.01393058695331197,0.6530879588063428,1.107655769818579,0.12092530674362446,0.7521787492845364,0.9851067312374336,0.0,0.0,0.0,0.0
0.023529787106207796,0.020959984012468336,0.7438279695090315,0.01082269147909424,-0.523652327287634,-0.01176729269930283,0.8517820380225929,0.12109099777178664,-0.7523024443862066,0.8822613223414687,-0.030037201526331225,-0.8575364395217023,1.014660494365632,0.014069644915425457,0.657786688728299,1.0928157544890647,0.11561380717816915,0.7452294042072273,0.9953794059135918,0.0,0.0,0.0,0.0
0.02301397699963746,0.022179268399369168,0.7423988211712031,0.010592691881498726,-0.5239196609474608,-0.011587336641142223,0.8516229901669906,0.11787388344751992,-0.7574380853786683,0.8847323994614369,-0.03341875394506733,-0.8549878891701278,1.0058736784096731,0.01422304421046182,0.6626378848914711,1.0778115362945946,0.109189202473857,0.7373356705943743,1.0064590520471528,0.0,0.0,0.0,0.0
0.022403777237173253,0.023539085451196397,0.740811980358293,0.010367591188459785,-0.5241973466950121,-0.011418398906964791,0.851457148033452,0.11432794077565915,-0.7628950362072549,0.887017431164406,-0.03711834372963813,-0.8520625525135705,0.9957662061430514,0.014684985259058533,0.6679221406119662,1.06224470736296,0.1014056215348438,0.7282674757838683,1.0185485483268875,0.0,0.0,0.0,0.0
0.02170591914379166,0.0250041360126516,0.7390373701772083,0.010178595614969343,-0.524488849803234,-0.011286217263372094,0.8512816595717727,0.11058959502749077,-0.768543133336383,0.8889021575863715,-0.04099269464699959,-0.8490012736360433,0.9845688522533024,0.016062146765507462,0.674186025342096,1.0455197834516081,0.09215666415670387,0.7178549792081433,1.0319352327576692,0.0,0.0,0.0,0.0
0.021034521078979143,0.026425663989687785,0.7370433153807108,0.0100997346623656,-0.5247912141787243,-0.01124633635129568,0.8510967611260448,0.10715328263225345,-0.7743387624418677,0.8905854692008176,-0.0445664250996584,-0.8469750336823538,0.9740587882611428,0.019720380888283488,0.6825419978195444,1.0266883451622917,0.08181412178241906,0.7062577713574173,1.047041001885386,0.0,0.0,0.0,0.0
0.020413469149780955,0.0277053093745456,0.7348565205636429,0.01019872277559641,-0.5250946814160206,-0.011389659036663816,0.8509064797434457,0.1044626842453068,-0.7797731484012775,0.8915846183457289,-0.04738967646477852,-0.8465664725814305,0.9650645436658108,0.02703725609574603,0.6938614036115449,1.0039582024000886,0.06992019386398703,0.6933829723978522,1.0636960813214573,0.0,0.0,0.0,0.0
0.019870165132120084,0.028735025694188288,0.7326345281546337,0.010551058567309519,-0.5253766661461992,-0.011782825642549549,0.8507227508725106,0.10290460738902474,-0.7840380466930157,0.8913420590307628,-0.04905776265395068,-0.8480550476256401,0.9583957368763113,0.04069820667115365,0.7088831517374548,0.9740432512691647,0.05620707795943023,0.6797344399041357,1.0806213523154373,0.0,0.0,0.0,0.0
0.01952029531516853,0.029367392330701104,0.7308834617504977,0.011186103820364042,-0.5256230497176412,-0.012456402091972945,0.8505528312419924,0.10285561481094463,-0.7856850543985907,0.8896314744870469,-0.04914382522877953,-0.8509757889676883,0.9552416784842265,0.05946027673403185,0.7281510393704704,0.9339391167793873,0.041327358554423946,0.667833066486894,1.0936986877472479,0.0,0.0,0.0,0.0
0.019534683968277327,0.029370532609690327,0.7308505316669341,0.01119205663004387,-0.5256388238173538,-0.012457251979218866,0.8505429922334468,0.10285174319852755,-0.7857154803403888,0.8896434559734359,-0.04914646489315119,-0.850974555242397,0.9551973918019561,0.05946498009170481,0.7281460454619213,0.9339274395028065,0.0413061439749801,0.6678293111796282,1.0937154859055311,0.0,0.0,0.0,0.0
0.019534683968277327,0.029370532609690327,0.7308505316669341,0.01119205663004387,-0.5256388238173538,-0.012457251979218866,0.8505429922334468,0.10285174319852755,-0.7857154803403888,0.8896434559734359,-0.04914646489315119,-0.850974555242397,0.9551973918019561,0.05946498009170481,0.7281460454619213,0.9339274395028065,0.0413061439749801,0.6678293111796282,1.0937154859055311,0.0,0.0,0.0,0.0
0.01985018152245942,0.028805939042591284,0.7307014113903602,0.011038660716965009,-0.5255927145324631,-0.012269307935877258,0.8505762226177892,0.10398029832089242,-0.7869237458892487,0.8910335054431955,-0.048148591385290235,-0.8540441045284748,0.9603349482373064,0.06620828311321324,0.7271916517711442,0.9322197700278544,0.04889081907417305,0.6698185144568153,1.0961911387029268,0.0,0.0,0.0,0.0
0.020209935639278725,0.02815611852440941,0.73049396761483,0.01100814459195545,-0.5255949881081843,-0.012166908809442094,0.8505766841139151,0.10547141029867982,-0.7876104162371258,0.8919147064586805,-0.04677356552359219,-0.8577885355557263,0.9663258634450708,0.07216909675250069,0.7266235753912212,0.9308414985966069,0.055806443947823366,0.6715295672946398,1.0993726318626227,0.0,0.0,0.0,0.0
0.020528530592340874,0.027616802816006186,0.7302917007755702,0.011022003007379723,-0.5256247600997396,-0.012117307181972193,0.850558815065986,0.10677974430599814,-0.7880657653504372,0.8925906630429494,-0.04555554395647189,-0.8610332705767598,0.9714390553791119,0.07663571119154028,0.7262983274564656,0.9300350038373356,0.06112360478302178,0.6728431001142545,1.1022488904779297,0.0,0.0,0.0,0.0
0.020768113788087537,0.02723749370821666,0.7301239133601432,0.011037270252489252,-0.5256547595468847,-0.012083602207941836,0.8505405569335072,0.10770618416028603,-0.788471740031075,0.8931786667659942,-0.044696830856871136,-0.863417846760868,0.9751489645979218,0.07976205856701747,0.7260205820334121,0.9296945502675131,0.06491198306776814,0.6737613989391482,1.1044726240683567,0.0,0.0,0.0,0.0
0.02091259106116313,0.027014994054160198,0.7300005763385514,0.011032128934266923,-0.5256662964048866,-0.012039714479648078,0.8505341158533243,0.10820346492206462,-0.7889109802025602,0.893684075012526,-0.044249399845307257,-0.8648823835037626,0.9773675873647997,0.0818732645539017,0.7256339638000833,0.9296759627623995,0.06749639269748874,0.6743146133409083,1.105988912681161,0.0,0.0,0.0,0.0
0.02095332985992446,0.026934895307394652,0.729922780196097,0.01099455169625402,-0.5256466142023655,-0.011967643200078069,0.8505477836822711,0.10826902740462135,-0.7894268652472118,0.8940774887491368,-0.044219324738414244,-0.8654487087664577,0.9781142191823314,0.08326100355157745,0.7250103854761123,0.929878933054201,0.06920174661860685,0.6745250600696391,1.1068394665325556,0.0,0.0,0.0,0.0
0.020880738832359427,0.026989228922244746,0.7298895974732212,0.010915780877869987,-0.5255854316988663,-0.011854259399199376,0.850588194279605,0.10789459967877015,-0.7900519322137214,0.8943231087644956,-0.044616494070629883,-0.8651189672125864,0.9773644496788594,0.08411715517049405,0.7240368197797122,0.9302578060746324,0.07025260267284461,0.6743887122113451,1.107062893979291,0.0,0.0,0.0,0.0
0.020679037783641288,0.027184017240722887,0.729902032001055,0.010786801278247077,-0.5254719631477193,-0.011689139502449566,0.8506622272568342,0.10704278796250849,-0.7908206942487346,0.8943851850319174,-0.045477760809551376,-0.8638280571688012,0.9749767915384863,0.0845118729235424,0.7226034553166574,0.930815401285401,0.07073348015934888,0.6738620899582067,1.1066446712238664,0.0,0.0,0.0,0.0
0.020323031980955766,0.0275431250884873,0.7299647443513806,0.010596675206244296,-0.5252926767999426,-0.011463656414838444,0.8507784075518883,0.10563568249511983,-0.7917771301375751,0.8942287517885696,-0.04687800765071336,-0.861420787302669,0.9706520974317114,0.08437970345096718,0.7205939093110315,0.9316012521953821,0.07056678309671435,0.672850363016751,1.10549249844013,0.0,0.0,0.0,0.0
0.019776655480723448,0.02811079568770553,0.7300856030342209,0.01033223071473545,-0.5250299878348028,-0.011171244382388538,0.8509476835749618,0.10354955535135427,-0.7929821546417162,0.8938226433022746,-0.048934935447243394,-0.8576432659087175,0.9639099398865516,0.08350354065503823,0.7178767493880779,0.9327236240034052,0.06949447745043295,0.671196278382183,1.1034295770814477,0.0,0.0,0.0,0.0
0.01899398255494206,0.028952478013258898,0.7302722600195418,0.009979079836686198,-0.5246624501903487,-0.010808550528230288,0.8511832391214901,0.10061601563499573,-0.7945227189913062,0.8931473017344344,-0.05180723004147576,-0.8521502490412483,0.954085239931786,0.08150502744714902,0.7142961921258764,0.9343800159791876,0.06707513749652756,0.6686746700075342,1.1002129619103636,0.0,0.0,0.0,0.0
0.01792463531706231,0.030150404631461326,0.730524246139072,0.009524352606405434,-0.5241677375645151,-0.01037679027592705,0.8514985565621916,0.09663664522824209,-0.7965190454974076,0.8922040156835028,-0.055679253646121134,-0.8445418735276963,0.9403695914669503,0.07787301125246085,0.7096601526656946,0.9369035605065562,0.0627381726425475,0.6650056520666044,1.0955993433158906,0.0,0.0,0.0,0.0
0.016527506850751644,0.031784988851455205,0.7308196980731877,0.008961973441180889,-0.523530554872907,-0.00988187002865666,0.851902453213537,0.09142922049466903,-0.7991155246529833,0.8910133578451589,-0.0607148672619323,-0.8344613216491301,0.9219610941320058,0.07209788988964806,0.7037327386372204,0.9407944991768605,0.05597539729299157,0.6599135214896648,1.0894934586125797,0.0,0.0,0.0,0.0
0.01480098628217756,0.0338824335315937,0.7311020277103242,0.008302222890671382,-0.5227575131310549,-0.00933096317545837,0.8523899276072698,0.08494701050361934,-0.8024168222740166,0.8895827677880084,-0.06694152934942729,-0.821825588242521,0.8984843511735966,0.06403784147752124,0.6962811312010876,0.9466052821324924,0.04679084321726076,0.653289130097877,1.082198205356327,0.0,0.0,0.0,0.0
0.012850347732825229,0.03628760553578777,0.7312993349049708,0.007590853561416444,-0.5218970383185279,-0.008727449830551492,0.8529300627577934,0.07757441205448799,-0.8062683458933595,0.8878439725321279,-0.07396934548761716,-0.8073685874125586,0.871117318749828,0.05470390186498139,0.687407016359802,0.9542123647612271,0.036534691247818156,0.645619514664685,1.074610859228177,0.0,0.0,0.0,0.0
0.011156910109651235,0.03835223160185194,0.7315451990848642,0.006986790046502983,-0.5210716541279029,-0.00821523859528066,0.8534447995530113,0.07125655345811002,-0.8095194675826021,0.8862188566803333,-0.07992433674177657,-0.7945675531384923,0.846799054601321,0.046857146187843535,0.6799489935081312,0.9595592823236921,0.02830616664697274,0.6394760572271959,1.066996088584701,0.0,0.0,0.0,0.0
0.009844145606301907,0.03999831056149517,0.7317759158440713,0.006505422787104833,-0.5203731703362338,-0.007786982232468925,0.8538786834066588,0.06617093185710218,-0.8123389940283092,0.8853041048275213,-0.08469391669486682,-0.7842529230901176,0.8272317482587379,0.040935062261584214,0.6741440923061753,0.9631458225648388,0.022296250347305407,0.6350830240481857,1.0603151005248859,0.0,0.0,0.0,0.0
0.008877463638984617,0.04123997133502536,0.7319512775771739,0.006137039314107683,-0.5198193942482782,-0.0074341193731128855,0.8542217908605214,0.06226167942611677,-0.814733892275392,0.884939120452525,-0.08835508083208057,-0.7764633410347835,0.812414017118398,0.036805840052164154,0.6696962894501132,0.9656162878987696,0.018197464498790478,0.6320155836723411,1.0550971372241644,0.0,0.0,0.0,0.0
0.008180936590009456,0.04213086142690301,0.7320681346064853,0.005863933399507767,-0.5193960006376873,-0.007148052340224073,0.8544836535325898,0.059375060186043944,-0.8166573864003981,0.8848109107758209,-0.09105915431036937,-0.7708516963062992,0.8016540753054584,0.0341520124218548,0.6662955938996042,0.9673335237814581,0.015608511325669018,0.6298615870569338,1.051358145756258,0.0,0.0,0.0,0.0
0.00769701672441023,0.042738575343353825,0.7321337583643543,0.005667307415951515,-0.5190852179961738,-0.006917725354535183,0.8546757064293081,0.0573185739507184,-0.81816040720107,0.8848147203852684,-0.0929909650685477,-0.7670154411553692,0.794213088921731,0.03264179496469452,0.6637262018085017,0.9685364721055016,0.014163568236470997,0.6283743039393173,1.0489061101184882,0.0,0.0,0.0,0.0
0.007400755028291572,0.043125821917752494,0.7321539192745034,0.005531766333051246,-0.51886986480458,-0.0067343547260473756,0.8548088157157349,0.055919674260888744,-0.8194227155226097,0.8851134986165202,-0.09432017147905553,-0.7647023517943061,0.7896313425351069,0.03197861120799813,0.6618717778376694,0.9694030932626293,0.01355326455168517,0.6274349830006011,1.047514268428928,0.0,0.0,0.0,0.0
0.007209562392322576,0.043382552701694665,0.7321538056320576,0.005435612753077115,-0.5187212523162338,-0.006589197941085499,0.8549007538772965,0.054933632250260295,-0.8204124681922021,0.885450340419197,-0.09526465764449091,-0.7632190010030391,0.7866602572272852,0.03172338126849258,0.6605108588442892,0.9700571598806802,0.013336185063668238,0.6268172988062493,1.0467171111254012,0.0,0.0,0.0,0.0
0.00708390304988589,0.04355656059441191,0.7321465247233404,0.0053665268036547946,-0.5186166924122381,-0.006474600410893753,0.8549655000589058,0.054224584638536966,-0.8211829314702787,0.8857743913403976,-0.09594882297867756,-0.762246819209887,0.7846990415508381,0.03167243165208345,0.6595102036793292,0.970537782954209,0.013313082375999841,0.6264103747892563,1.0462468057493461,0.0,0.0,0.0,0.0
0.006997887817492625,0.04367848528670714,0.7321381696425644,0.005315610541247356,-0.5185427063153711,-0.006383445999185019,0.8550113786546235,0.053699958073870006,-0.8217708892941995,0.8860474828339863,-0.09645725845858075,-0.7615697878843328,0.783342188471629,0.031717410460758606,0.6587672728489745,0.9708900367785341,0.013378875456016093,0.6261427996843244,1.0459551000700076,0.0,0.0,0.0,0.0
0.006944985217091268,0.043761357563233606,0.7321284805040201,0.005277899661211394,-0.5184935120832066,-0.006309511420409774,0.8550419941549208,0.053313167107130084,-0.8222310543898124,0.8863067969027478,-0.09683481007550326,-0.7611203986159711,0.7824602888780139,0.03184165670683284,0.6582278708581794,0.9711501033280578,0.013519174564581035,0.6259956428564554,1.04580199489298,0.0,0.0,0.0,0.0
0.0069187944077821065,0.04381483121177597,0.7321165655901917,0.005249148769323651,-0.5184653365786063,-0.006247181009068697,0.8550597136651159,0.05302707819574841,-0.8225978663482173,0.8865646390716783,-0.0971167288030258,-0.7608366139249962,0.7819370363979621,0.0320420137760792,0.6578418089620557,0.9713530054236313,0.01373245113281806,0.6259510575962083,1.045767986946233,0.0,0.0,0.0,0.0
0.00691349403705053,0.04384580687051765,0.7321020060759437,0.005225666699155132,-0.5184548349007558,-0.006191243041245413,0.8550666319563544,0.0528122052190389,-0.8228958682575163,0.8868233580318514,-0.09733088062483662,-0.7606670896715215,0.7816768647686838,0.032326968530428296,0.6575651794319967,0.9715203285482948,0.014028871367605372,0.6259954764372523,1.0458385045194183,0.0,0.0,0.0,0.0
0.006922955644859768,0.04385981496227158,0.732085427451015,0.0052038353062822,-0.5184586282123909,-0.00613652894265723,0.8550648594947443,0.05264246367994887,-0.8231412155607307,0.8870753578864793,-0.09750160462739414,-0.7605607889723539,0.7815878178016097,0.03271265269279888,0.6573581663215929,0.9716593846660349,0.014426544244196112,0.6261193858333757,1.045994567196784,0.0,0.0,0.0,0.0
0.006938738652077234,0.04386349231702887,0.7320694541047155,0.005179396772149485,-0.518472428177778,-0.006077563809297621,0.8550570614214348,0.05248821787092482,-0.8233420580044059,0.8872988804426216,-0.09765590408515282,-0.7604478335986083,0.7815483273343403,0.033212411601655396,0.6571804389638182,0.971763299600238,0.01494111804334875,0.6263137215342593,1.0461970020615339,0.0,0.0,0.0,0.0
0.006946589506464232,0.04386919493898831,0.7320603748206,0.005146358469280755,-0.5184896189846768,-0.006008296538109516,0.8550473263933058,0.052304211076244965,-0.8234985564994015,0.8874506699897214,-0.09783415973905593,-0.7602056413852921,0.7813482757543211,0.03381339460205407,0.6569845719813482,0.9718130534889254,0.015561900013524841,0.6265622586179538,1.0463580573368134,0.0,0.0,0.0,0.0
0.006920519116121807,0.043903848746794344,0.7320703070129679,0.005095236418159403,-0.518499246519423,-0.005922094577428232,0.8550423958614272,0.05200766781979481,-0.8236045306078065,0.8874559272511918,-0.0981096532316945,-0.7595990122542935,0.7805832557736196,0.03442672245168908,0.6567042506690154,0.9717923066957506,0.016200239134558758,0.6268245814715535,1.046296235731759,0.0,0.0,0.0,0.0
0.006812577295815744,0.04402591687579857,0.7321178124006621,0.005010163588994109,-0.5184837218150202,-0.00581240013582606,0.855053065299644,0.0514381055517591,-0.8236559500400052,0.887194074145496,-0.09862463661428464,-0.7581746405298412,0.778460319940769,0.03478665362790505,0.6562236948357524,0.9717511886230799,0.01658391760767739,0.6269928044019708,1.045681818912842,0.0,0.0,0.0,0.0
0.006533931655771839,0.04435734619040597,0.7322177001112555,0.004863894392927366,-0.518417969440158,-0.005674405489870746,0.8550947038867768,0.050283356408004395,-0.8236805672550221,0.8864673184869759,-0.09965717582609983,-0.7550765059177095,0.7734253382052727,0.03426098397048566,0.6552747586713373,0.972037490871993,0.016057843378605347,0.626769249213878,1.0440385370134446,0.0,0.0,0.0,0.0
0.005914539924243032,0.04514117588131662,0.7323226772201754,0.004605496486317635,-0.5182730016143303,-0.005496529190351879,0.8551851690520869,0.04791934740934745,-0.8238731141536757,0.8849168563346336,-0.10176978671965882,-0.748726318149451,0.7623955559257644,0.03161583814989069,0.6530135292298122,0.9740803221139301,0.013342601399477003,0.6253010810364963,1.0411199017372046,0.0,0.0,0.0,0.0
0.004810639497374529,0.04663191381042999,0.7326742382351609,0.004138230431667027,-0.5182482229623172,-0.005152338579226464,0.8552047169259883,0.04335501042264133,-0.8225928964324445,0.8809819044828602,-0.10575380541435857,-0.7348846786639911,0.7400932994077911,0.026579052054980772,0.6503289509770155,0.9769556352833507,0.008177947754692485,0.6241654501053947,1.0346051594336696,0.0,0.0,0.0,0.0
0.0038444449665714087,0.04778223825686956,0.7330185077329345,0.0034159052251482133,-0.518933902446974,-0.004728109942538048,0.8547944673774033,0.03955618693419085,-0.8173669703199515,0.873323160475144,-0.0980764650088453,-0.7642629405682232,0.7835261312211848,0.026064267501787256,0.6491457929559962,0.9797487998174347,0.007603574111306691,0.6262015352829322,1.0305901744439978,0.0,0.0,0.0,0.0
0.0027134570802094084,0.049194072307715477,0.7333403233900749,0.002656931951827025,-0.5195596902497462,-0.004221819208893881,0.8544195955283086,0.034921771821432065,-0.8124509573830826,0.8653995872162291,-0.0919460426394871,-0.7892513588109195,0.8073514427861641,0.024514390041295332,0.6470677955433608,0.98361863657602,0.005984671502205689,0.6276030013707129,1.0260042068233577,0.0,0.0,0.0,0.0
0.0015637128118914908,0.0507162666286381,0.7336539667883657,0.0019216024022258155,-0.5200545854238527,-0.003721043430417813,0.8541227601812408,0.030055652567388458,-0.8083205224729485,0.8582271247854277,-0.08824718889234749,-0.80974414663142,0.818429564324208,0.022022166667178614,0.6446850217825534,0.9876636800546876,0.003449490170615901,0.6284986410202017,1.0208082408744008,0.0,0.0,0.0,0.0
0.0004943650848070699,0.05219716997731113,0.7339719478722353,0.0012386398589375636,-0.5204526853649701,-0.00325062109212616,0.8538834238525811,0.02538529862771323,-0.8047993573056714,0.8519469826304059,-0.08643549228032808,-0.8266946756396918,0.8225198740261064,0.01928416224186163,0.6424872536709122,0.9912198108076644,0.0007140816777314956,0.6293297064950064,1.0153274834784864,0.0,0.0,0.0,0.0
-0.0004554922830462641,0.053558289433237274,0.7342720507180669,0.0006218876392196247,-0.5207835276180511,-0.0028179307026548845,0.8536838934195828,0.021111293452346906,-0.8017943793752325,0.8465323235062129,-0.08573023137516136,-0.8410889310825909,0.8228008818525393,0.016704697771553985,0.6405558294399748,0.9942589203899814,-0.0018246675169072612,0.6301809356739032,1.0100471691654236,0.0,0.0,0.0,0.0
-0.001274344548946768,0.05476900057515805,0.7345398667023009,7.540824601345666e-05,-0.5210689054059308,-0.0024233961771984946,0.8535111699817584,0.017300015389150346,-0.7992386144943082,0.8419251204301575,-0.08549116133154691,-0.8537887038040637,0.8209643036862712,0.014463148818460638,0.6388954390478212,0.9968599595949182,-0.004004685695141339,0.6310633004127528,1.005255175550009,0.0,0.0,0.0,0.0
-0.00196523485405756,0.055827207888915945,0.7347713506844348,-0.0004032383216579446,-0.5213243206362077,-0.002064249206317848,0.8533560388180695,0.013942752939308432,-0.7970726473066172,0.8380563895099506,-0.08531582288804927,-0.8654670572464195,0.8179090468488721,0.012604031971487368,0.6374980519886642,0.9991024427223254,-0.0057970585088827475,0.6319790960292488,1.001056300028877,0.0,0.0,0.0,0.0
-0.002538839731326843,0.056745857966010727,0.7349686499823471,-0.0008201166950329431,-0.5215604486296485,-0.0017366960599015176,0.853212171573192,0.010994481748299575,-0.7952409320180923,0.8348501228398165,-0.08500585400159591,-0.876603039980054,0.814118580964506,0.011099474386077536,0.6363512535552424,1.0010528885092742,-0.0072397119837779075,0.6329307259382431,0.9974420107666855,0.0,0.0,0.0,0.0
-0.0030093217779128345,0.05754373527946048,0.735136538071636,-0.0011826982750411982,-0.521784232796207,-0.0014369295014197447,0.8530754661011368,0.008398246100738678,-0.7936912916842533,0.832224862159851,-0.08449530807229867,-0.8875165502556259,0.8098556770685161,0.009892120506443551,0.6354376775913372,1.002764587080805,-0.00839482690227943,0.6339188596828004,0.9943492478701327,0.0,0.0,0.0,0.0
-0.0033913310401068927,0.05823969206673105,0.7352802473596405,-0.0014983157827023151,-0.5219997179121965,-0.0011614924492795349,0.8529435505850859,0.0060992380493341365,-0.7923776980071623,0.830100564799315,-0.08378582319021513,-0.8984137486821755,0.8052586306075611,0.008922007613125626,0.634735820958634,1.0042778334752602,-0.009323739485922756,0.6349413068889183,0.9916991865918529,0.0,0.0,0.0,0.0
-0.003698033538591116,0.05884936559777825,0.735404317606305,-0.0017731976045954453,-0.5222086089723986,-0.0009073496864193958,0.8528154555364917,0.00405215392938804,-0.7912637885598128,0.8284063914336715,-0.08290028117613003,-0.9094204643047687,0.8003910500555206,0.008141750683079152,0.6342214901497553,1.0056199314722112,-0.010073499771939748,0.6359927190340031,0.9894199532339019,0.0,0.0,0.0,0.0
-0.003940273662291694,0.059383790335784566,0.7355120366364186,-0.0020119785125191397,-0.5224104307247,-0.000671868026022,0.8526915282831501,0.002223917753699049,-0.7903260097038493,0.8270859504864063,-0.08185249562146749,-0.920585637330207,0.7952761705873991,0.00752257652123027,0.6338676611703418,1.0068062284544774,-0.010671980208275023,0.63706315410841,0.9874576349645959,0.0,0.0,0.0,0.0
-0.0041270895774924024,0.05984971825408973,0.7356052293328064,-0.0022176530941976154,-0.5226022364979105,-0.0004528185178212809,0.8525736210894198,0.0005925631430489472,-0.7895552828438519,0.826097003892083,-0.08062820792008382,-0.9318404532228582,0.7899380701771945,0.007051722120500412,0.6336410936274517,1.00784369071526,-0.0111308633320173,0.6381337318192903,0.9857779185373114,0.0,0.0,0.0,0.0
-0.004267763566951786,0.0602518300343873,0.7356843125238344,-0.002392034503787964,-0.522778057577224,-0.00024849019765285353,0.8524654356273568,-0.0008578906787537156,-0.7889555516393194,0.8254031974588182,-0.07917760906805418,-0.942905890659053,0.7844701288831152,0.006719809127702818,0.6334955178525732,1.0087389348022777,-0.011457875798292497,0.6391688464041982,0.9843587912470761,0.0,0.0,0.0,0.0
-0.004375198931724422,0.06059703742486028,0.7357486431836223,-0.002536825644477802,-0.5229287595298624,-5.798469061201874e-05,0.8523726143008025,-0.002146800226949976,-0.7885366685984679,0.8249567630465908,-0.07742694728654198,-0.9531626119774279,0.7791480316616294,0.00649698228199441,0.63336402378332,1.0095124284532495,-0.011679618516239049,0.6401071982728052,0.983174569887559,0.0,0.0,0.0,0.0
-0.004469259171586732,0.06090011914184537,0.7357972857421462,-0.0026552512113846537,-0.5230436871293627,0.00011836556881656413,0.8523017288406247,-0.0033087723554064375,-0.7882985026753094,0.8246753000517529,-0.07531824776953733,-0.9615471348984512,0.7745865748509319,0.006302797981923503,0.6331584782623602,1.010216939513398,-0.01187062242739209,0.6408597666294934,0.9821748530971439,0.0,0.0,0.0,0.0
-0.004576374891799429,0.06118699566910854,0.7358305016573179,-0.00275355897120867,-0.5231161093896348,0.0002788662873700208,0.8522569308862424,-0.004400367869532646,-0.7882043143956469,0.8244248176485163,-0.07286479056643155,-0.9666302870308766,0.7718787460796941,0.005992916297728355,0.6327917467887247,1.0109459475860616,-0.012167098309598256,0.6413327955108824,0.9812706420486312,0.0,0.0,0.0,0.0
-0.004719058934123689,0.06148626634789477,0.7358518989628998,-0.0028400132399283105,-0.5231525695018552,0.0004212412743854828,0.8522342083630488,-0.00548146369979112,-0.7881536224722479,0.8240379906880732,-0.07014583751319178,-0.967158850980802,0.7724770217524306,0.005414621236830618,0.6322387465133779,1.0117957879174253,-0.012715493677653254,0.6414948039090383,0.9803572216757938,0.0,0.0,0.0,0.0
