zhuoxili-jackie/tripod-support-walk/examples/trajectory_tripod_lowstep_left_v0.10.csv
root_pos_x,root_pos_y,root_pos_z,root_rot_x,root_rot_y,root_rot_z,root_rot_w,FL_hip_joint,FL_thigh_joint,FL_calf_joint,FR_hip_joint,FR_thigh_joint,FR_calf_joint,RL_hip_joint,RL_thigh_joint,RL_calf_joint,RR_hip_joint,RR_thigh_joint,RR_calf_joint,FL_foot_joint,FR_foot_joint,RL_foot_joint,RR_foot_joint
0.0,0.0,0.72963,0.0,-0.5231245161092812,0.0,0.852256264656019,0.0,-0.81,0.872,0.0,-0.81,0.872,0.0,0.65,1.0,0.0,0.65,1.0,0.0,0.0,0.0,0.0
1.816349867367114e-05,2.2069989129565385e-05,0.7296282666075075,1.0228677985266943e-06,-0.5231249801475767,-2.903338243813052e-06,0.8522559798183418,-4.8678985352213604e-05,-0.8101472344735937,0.8722660353262691,-4.8678985352213116e-05,-0.8100527982909899,0.8721070324770249,-0.00017457755528835044,0.6500653904402367,1.0000800235697171,-0.0001745775552883523,0.6500275797974823,0.999921461489615,0.0,0.0,0.0,0.0
4.781627726161932e-05,5.6759196431566816e-05,0.7296236364093178,-1.9450116660014376e-06,-0.5231298659018447,-1.87378570465865e-06,0.8522529808655548,-0.0001375251517842759,-0.8103804468688276,0.8726859779505407,-0.00013752051356824186,-0.8101071824373487,0.8722522830476938,-0.00038497912639020606,0.6501526532874659,1.0002241047226001,-0.00038486838258605806,0.6500964463485676,0.9998295462340341,0.0,0.0,0.0,0.0
8.57048821753079e-05,0.00010297862124194305,0.7296163551768481,-7.615820885505399e-06,-0.5231375136949662,1.7468769578070243e-06,0.8522482864189266,-0.0002609630803403933,-0.8106848294198656,0.8732281642282751,-0.0002609398581081548,-0.8101615515934619,0.8724190960466516,-0.0006405246648618368,0.650253810658004,1.0004272435165575,-0.0006401362571216342,0.650189111136843,0.9997235279062886,0.0,0.0,0.0,0.0
0.00012906037482265568,0.00016354997082843365,0.7296073584707505,-1.5479504683450815e-05,-0.5231458033290124,7.193099631744277e-06,0.8522431977832892,-0.00042440638429741843,-0.8110602239743316,0.8738842569830819,-0.0004243372491769874,-0.8102060806415773,0.8725809155363372,-0.0009685787677830716,0.6503636946110737,1.0006895089693129,-0.0009676273449564812,0.6502924032109222,0.9995822637467795,0.0,0.0,0.0,0.0
0.0001729381494969005,0.00024317643939277128,0.7295983710200098,-2.4873107404561584e-05,-0.523151377117649,1.3576226003018083e-05,0.8522397760119637,-0.0006378119753875802,-0.8115039220478699,0.8746364701217002,-0.0006376476388060418,-0.8102202140949711,0.8726882200197653,-0.0014110790851619124,0.6504726867353022,1.001009779947232,-0.001409020675635079,0.6503859072233812,0.9993701156826601,0.0,0.0,0.0,0.0
0.0002069714904412548,0.000345874307264153,0.7295931792464354,-3.450216304205732e-05,-0.523150145528553,2.0676487809808487e-05,0.852240531549361,-0.0009116481427031231,-0.8119804471565366,0.8754096934192206,-0.0009113055346942192,-0.8101539993856964,0.8726402500337155,-0.002004968755361901,0.6505620755371843,1.0013685525695686,-0.0020007938558637495,0.6504423477226947,0.9990388210951762,0.0,0.0,0.0,0.0
0.00021251030991813655,0.00046428312771258347,0.7296134885991071,-6.160583996100047e-05,-0.5231960168007793,9.204678102050662e-05,0.8522123653972108,-0.0013901695113520177,-0.8120938212148261,0.8757199086169073,-0.0013894423532189643,-0.8094113720437182,0.8718414234766154,-0.002187169072897177,0.6506367019275886,1.0016033721617168,-0.002181820577420538,0.6508390312565078,0.9986113136435097,0.0,0.0,0.0,0.0
0.0003150976585769864,0.0006130200727878206,0.729599762595691,-6.951295991961874e-05,-0.5231574618530443,9.691551430245477e-05,0.8522360329643496,0.003114227441983914,-0.8118385865317542,0.872665737982514,-0.0017750456596269972,-0.8098604164354217,0.8725588099145798,-0.003120873993497957,0.65082023129697,1.0020624357528802,-0.003110906729333643,0.6509299393363437,0.9980571562336326,0.0,0.0,0.0,0.0
0.0004822702377856595,0.0008197186519737021,0.7295742138055128,-9.648928454523896e-05,-0.5231404583532677,0.00015129225987749377,0.8522464600304321,0.008909156938868582,-0.8125390522224685,0.870070310207511,-0.002431375062597594,-0.8103197713367467,0.8735323369169887,-0.004017514305505878,0.6510729743267416,1.0027605747645896,-0.004000659846224358,0.6513351997907018,0.9974497832035948,0.0,0.0,0.0,0.0
0.0006738665929748721,0.0010694717817143684,0.7295452256164207,-0.00013440137923891865,-0.5231368880439855,0.00022706512836408665,0.8522486296529618,0.014654490530735888,-0.8137863056695024,0.8678789007774662,-0.0032489830939749333,-0.810684360860277,0.8744772963324422,-0.00500681224088944,0.6513711481880001,1.0036177292266704,-0.004980357398088379,0.6518807968097161,0.9967521695233478,0.0,0.0,0.0,0.0
0.0008710762552778817,0.0013444995851010963,0.7295155794581991,-0.00017676042180217775,-0.5231385000994738,0.0003082021041602157,0.8522476069082794,0.019927732488028385,-0.8152725878553726,0.865945700700658,-0.004143052804792173,-0.8109703046771051,0.8753368015578948,-0.006111308467921246,0.6516923433243998,1.0045638558775662,-0.006071660505018337,0.6524621517827393,0.9959819937532797,0.0,0.0,0.0,0.0
0.0010678422466476223,0.001632068472917967,0.7294857139902421,-0.00022011645375746158,-0.5231420413323119,0.0003877879875925054,0.8522453905770832,0.024725229319563828,-0.8168361989381935,0.8641730434644818,-0.005064533253239069,-0.811209703819817,0.8761275706021805,-0.007310531311003073,0.6520285744236579,1.0055573429254425,-0.00725348540880196,0.6530386645473293,0.9951701575644208,0.0,0.0,0.0,0.0
0.0012644708954764744,0.0019257022488213557,0.7294551658247804,-0.0002631527753280648,-0.523146639801566,0.00046404904234601153,0.8522425175227024,0.02918251210895591,-0.8184137218545049,0.8624951301652435,-0.005992972136061497,-0.8114314072261729,0.8768872106389033,-0.008580323194527237,0.6523795486989667,1.0065801231004166,-0.008501330469198218,0.6536033208159882,0.9943391873100126,0.0,0.0,0.0,0.0
0.0014642169451508718,0.0022240616759602446,0.729423132846516,-0.0003059023312687362,-0.5231521818357249,0.0005376449156004665,0.8522390580126149,0.033439141471258926,-0.8199891571958106,0.8608673963413891,-0.006926789332035562,-0.811658303823095,0.8776553999438305,-0.009907631266353176,0.6527486186692925,1.0076309806109736,-0.009801859812200109,0.6541638096954557,0.9934985032106597,0.0,0.0,0.0,0.0
0.0016717065087405829,0.002529337759134981,0.729388545983005,-0.0003492156337591558,-0.5231585298856856,0.0006101565901056479,0.8522350957131635,0.03758986482676571,-0.8215509357956366,0.8592644951081336,-0.007875416745645616,-0.8119101379422005,0.8784703159457892,-0.011292782494576298,0.6531403400462196,1.0087206342563184,-0.011154948298788351,0.6547324139027715,0.9926473354987889,0.0,0.0,0.0,0.0
0.0018922518513869902,0.0028458453114896367,0.7293499539944283,-0.00039442297713163614,-0.5231651692449407,0.0006833727772595325,0.8522309447098685,0.04167838498189152,-0.8230547238320508,0.8576851942473337,-0.008854008221478521,-0.8122072347935909,0.8793702851466065,-0.012746729820604322,0.6535586476226143,1.0098685343207605,-0.012570764095229708,0.6553209049412017,0.991779671616105,0.0,0.0,0.0,0.0
0.0021315024491152836,0.003178886902330209,0.7293054292009594,-0.00044310966226930804,-0.5231711231021504,0.0007590246880675432,0.8522272017997223,0.04570772902603521,-0.8243896021568072,0.85616376669462,-0.009879992903501953,-0.8125728872541976,0.8803957038586899,-0.014286484645575087,0.6540056376491985,1.011100220150693,-0.014065134009386684,0.6559383739184251,0.9908888559091333,0.0,0.0,0.0,0.0
0.0023952857022325334,0.003533809263649322,0.7292526624365588,-0.0004969677745378281,-0.5231751854407799,0.0008387778526386001,0.8522246035017709,0.049655121736511515,-0.8253538488785903,0.854784721110978,-0.010970767985533567,-0.8130332852969347,0.8815896911627135,-0.015929676356376075,0.6544819760381477,1.0124438575858619,-0.015654143870292046,0.6565920174347222,0.9899705831691705,0.0,0.0,0.0,0.0
0.0026898942738932488,0.003915484782004115,0.7291894110678077,-0.0005578290596487965,-0.523176681795301,0.0009245047627317411,0.8522235585474872,0.0534865195137003,-0.8256641251490703,0.8536880600295715,-0.012143108400841134,-0.8136137756124795,0.8829975177694191,-0.01768910014840358,0.6549909863356079,1.0139253897244087,-0.01734882696155032,0.6572930888809998,0.9890221757124058,0.0,0.0,0.0,0.0
0.0030233417252251743,0.004329290929842092,0.7291142366980954,-0.0006281953075581353,-0.5231767502598524,0.0010190484627345341,0.8522233597469775,0.05716643148769144,-0.8250474098417636,0.8530295130242534,-0.013417388792757189,-0.8143309579283068,0.8846653163717195,-0.019571503723424834,0.6555473437110789,1.0155656579299945,-0.019154030964944696,0.6580697555486402,0.9880346296660354,0.0,0.0,0.0,0.0
0.003407222350320337,0.004785916829050112,0.729025135925483,-0.000711787097298457,-0.5231749135707101,0.0011262672390335688,0.8522242866121068,0.060663850999215646,-0.8234995114416155,0.8528026858896257,-0.014829761519950819,-0.8152143426662086,0.886660727348974,-0.021607596250234725,0.6561690564102398,1.017399774355606,-0.021097249327461928,0.6589559763566443,0.9869792075593645,0.0,0.0,0.0,0.0
0.0038563516219939837,0.005301817572551863,0.7289198181226934,-0.000813825745824929,-0.5231687793226928,0.001251454941965967,0.8522277863870593,0.06395920769759145,-0.8212808506188951,0.8528333644012533,-0.016434439122024254,-0.816302357691818,0.8890667637043286,-0.02385142770782741,0.656876295989426,1.0194747999823601,-0.02322730788253762,0.6599924880498087,0.9858029190919084,0.0,0.0,0.0,0.0
0.004385851831328957,0.005894816540119625,0.728797708981901,-0.0009408952175153079,-0.5231568929634565,0.00140201248096725,0.8522347179163822,0.06705462824717373,-0.8186484818029307,0.8529409462438011,-0.018294399699144273,-0.8176127261461494,0.8919483887883376,-0.026346540113720437,0.6576962628160459,1.0218243279150903,-0.025581370337014426,0.6612389237672095,0.9844344682806991,0.0,0.0,0.0,0.0
0.005008280490328806,0.00658240500442936,0.7286600932246305,-0.0011005540180117279,-0.523136979714133,0.001587141975618479,0.8522464257577015,0.0699897325148608,-0.815754167896112,0.8529568308845762,-0.02047653711123109,-0.8191421159851517,0.8953402560990795,-0.029117583751137974,0.658650741294754,1.0244608909790947,-0.028177054746078577,0.6627612293964512,0.9827873272079255,0.0,0.0,0.0,0.0
0.005730896733306418,0.007379494127721961,0.7285108633107695,-0.0013009937752798408,-0.523104892198405,0.0018175327147517653,0.8522653787102481,0.07286727655873695,-0.8126223672123828,0.852689152349053,-0.02304527640197209,-0.8208619160412108,0.8992335037474257,-0.032156706936375686,0.6597476990443301,1.0273629201605412,-0.031000007818857072,0.6646246698796401,0.9807608554746702,0.0,0.0,0.0,0.0
0.006551948723857685,0.008292885306912226,0.7283577063347693,-0.0015500684021676541,-0.5230544709707281,0.0021042689970036934,0.8522952479847982,0.07588892411635029,-0.8091543834521226,0.8518625931208299,-0.026045858558005414,-0.8227131556993459,0.9035627085249771,-0.035393748179318126,0.6609739204827683,1.030451617363383,-0.03397721470259907,0.6668869919115414,0.9782517692381013,0.0,0.0,0.0,0.0
0.0074543939817037766,0.009309574737775512,0.7282118594795562,-0.0018530882568124506,-0.5229786149487841,0.002455986272916954,0.8523402504291294,0.07938311011602026,-0.8051290710175305,0.8500356275195848,-0.02946739665732733,-0.8246074528417078,0.9081930525528084,-0.038638355324544855,0.6622762776063404,1.0335691868688508,-0.03692623890240901,0.6695761264475557,0.9752056946107176,0.0,0.0,0.0,0.0
0.008393306610516243,0.010374825439321708,0.728077499928325,-0.0022087973296835046,-0.5228725387879494,0.002872936283083423,0.8524031766910035,0.08378441526064477,-0.8001906910357665,0.8464691296699208,-0.033171822452063446,-0.8264530046168808,0.9128989992191388,-0.04147649707021565,0.6634819492918835,1.0365330275105684,-0.0394659252899741,0.6725960735346038,0.9718127850832567,0.0,0.0,0.0,0.0
0.009262349062320964,0.011352733823697569,0.7278873764305342,-0.0026005993339765577,-0.5227329007392227,0.003330689129321557,0.8524860455619118,0.08953210015260929,-0.793860601189785,0.839793684678696,-0.03675409160912277,-0.8283440383409552,0.9173317844454225,-0.04314128531642054,0.6639148578285549,1.0396380031872121,-0.040907445195000634,0.6752640014643884,0.9692757440787837,0.0,0.0,0.0,0.0
0.009932310718367398,0.012088459100179092,0.7276201897187139,-0.0030145057385717916,-0.5225447701078226,0.0037942075879355375,0.8525980764562483,0.09650596282576095,-0.785406133889633,0.8277202353163956,-0.03972382727958287,-0.830275071220024,0.9210467637347934,-0.04273610365976737,0.6629932482630855,1.042737264422374,-0.04045846468752881,0.6770009334760589,0.9684648563894404,0.0,0.0,0.0,0.0
0.010262005472836263,0.012436527529660783,0.7273802484542051,-0.0034396034525880775,-0.5222974011376971,0.004200937368477463,0.8527461204943254,0.10313473195063906,-0.7740875473657585,0.8076474246592585,-0.04152304743135619,-0.8318065721313005,0.9233165994382194,-0.039591090008165644,0.6607445333534843,1.0446617707893064,-0.03751982763565,0.6777484435476222,0.9690560520367616,0.0,0.0,0.0,0.0
0.010278946297035504,0.012460281114046796,0.7273741346094023,-0.0034667366187389123,-0.5222897851218745,0.00420170393494202,0.8527506715204658,0.10314113586611161,-0.774066355264388,0.8076472036174042,-0.04157708498482768,-0.8318158901448212,0.9233436578485272,-0.03959722890982625,0.6607325352660917,1.0447415380937235,-0.037504538164888704,0.6777862134758418,0.9689901020216243,0.0,0.0,0.0,0.0
0.010278946297035504,0.012460281114046796,0.7273741346094023,-0.0034667366187389123,-0.5222897851218745,0.00420170393494202,0.8527506715204658,0.10314113586611161,-0.774066355264388,0.8076472036174042,-0.04157708498482768,-0.8318158901448212,0.9233436578485272,-0.03959722890982625,0.6607325352660917,1.0447415380937235,-0.037504538164888704,0.6777862134758418,0.9689901020216243,0.0,0.0,0.0,0.0
0.010302467736591527,0.012785926329255735,0.7280886239495261,-0.0029079677663116595,-0.5222274377940624,0.0035888635242763106,0.8527937423534033,0.10356647490809684,-0.7711806734327923,0.8069820420234846,-0.04106365571852256,-0.8311392984602632,0.92323598689148,-0.05008082067462914,0.6667215525562298,1.039994295062448,-0.026225158224212692,0.6718094175532457,0.9853942336648317,0.0,0.0,0.0,0.0
0.010386967302404479,0.01328759137739378,0.7289378553926583,-0.002538216880156778,-0.5221769825459082,0.0031677029273629123,0.85282748666567,0.10315398806071328,-0.7694030911120344,0.8082185936134131,-0.0413973008284458,-0.8291944749239069,0.9222420689116131,-0.05931150466963648,0.6728738280084728,1.0342872424493104,-0.015829627655159658,0.6681732566439647,0.9976508575057308,0.0,0.0,0.0,0.0
0.01051385852030873,0.013917450197228004,0.7297462158457786,-0.0023305658708656003,-0.5221381596562576,0.0029307262480283455,0.8528526962712594,0.10204416563457057,-0.7689558122212372,0.8110937631157756,-0.04246151719978532,-0.8266159753347966,0.9206496932172948,-0.06714571945548392,0.6783666556876458,1.0290578248522648,-0.008098989027746958,0.6657905148019929,1.0069008940463697,0.0,0.0,0.0,0.0
0.01066148122222308,0.014610967424492494,0.7304849305948011,-0.0022224043611533922,-0.5221056918551461,0.0027984347723418353,0.8528733060743194,0.10057191606708811,-0.7693617833996884,0.8148771780639475,-0.04391232059242253,-0.8238120374812392,0.9187571671359797,-0.07407257912577564,0.683248178428701,1.0244793429730805,-0.0023597442243113885,0.6641565550032353,1.0143275020542681,0.0,0.0,0.0,0.0
0.010818469369750996,0.015324733973730572,0.7311548618565598,-0.002170848185704246,-0.5220736168463118,0.0027258200615011595,0.8528933086360552,0.09893598412457705,-0.7702856932866582,0.8191091159215504,-0.04554238456780955,-0.8210122960236031,0.9167788162154081,-0.08036705719923176,0.6876207573961953,1.0204740784912962,0.002284601835079064,0.6630068008807558,1.0207218920734715,0.0,0.0,0.0,0.0
0.010964081631423346,0.016019565000223127,0.7317611703282736,-0.002146303687167098,-0.5220387238815045,0.002682426090575836,0.8529148660557637,0.09729052025416655,-0.7713835037227111,0.8232857583511373,-0.047186339229164986,-0.8183167485414027,0.9147683975791873,-0.08613712515759142,0.6915256307168464,1.0169330847350333,0.006435732084224377,0.6621236923257331,1.0265216364101801,0.0,0.0,0.0,0.0
0.011069258007171128,0.016658435085737458,0.7323087178168014,-0.002127991110465197,-0.5220011591189624,0.0026466140367073627,0.8529380147269988,0.09576442635314492,-0.7722947146743886,0.8268494525891436,-0.04870218558077024,-0.8157336983901333,0.9126522333458816,-0.0913765985121263,0.6949480101823513,1.0137603867030138,0.01045629593239904,0.6613196126064127,1.0319408451349736,0.0,0.0,0.0,0.0
0.011139724862481626,0.01723816349546629,0.7328004033807805,-0.002109681714147049,-0.5219605823296899,0.0026118921119326188,0.8529629990548896,0.09438031350603576,-0.773019552430395,0.8298372325158446,-0.05006939442932627,-0.8133172830801674,0.9105204956216935,-0.0961460077541128,0.6979403400893992,1.010926665137661,0.014476527774805154,0.66055444760931,1.0371021237803097,0.0,0.0,0.0,0.0
0.011184156197761657,0.01776442168612792,0.733237346925848,-0.002089519580186476,-0.5219184766080674,0.002576288002289889,0.852988921629799,0.09312985037573338,-0.7736093112413437,0.8323618198551492,-0.05129953728613625,-0.8110928012546522,0.9084347681624665,-0.10051917852247641,0.7005519336955548,1.0084402433657367,0.018561736478153436,0.6598354012178347,1.0420307372510418,0.0,0.0,0.0,0.0
0.011206191858110911,0.01824522888387716,0.7336165604585023,-0.002066658308781917,-0.5218756506599784,0.002538933048154333,0.8530152917683457,0.09199583294666532,-0.7741138271221096,0.8345044510195948,-0.05241221984141701,-0.8090670873179358,0.9064037773345801,-0.1045740937698082,0.7027930720648141,1.0063562785006208,0.02276692169466133,0.6592004805495945,1.0466157158895144,0.0,0.0,0.0,0.0
0.011202084229691246,0.018689881393755787,0.733929898716233,-0.0020398915535712195,-0.5218312031461962,0.0024986891721008524,0.8530426664697752,0.0909574932837666,-0.7745714604685702,0.8362906840411275,-0.0534294721277741,-0.8072336834956586,0.9043762133537216,-0.10840016960113615,0.7046234538358933,1.0047856719992951,0.027176203724486838,0.6587386902019494,1.0505563350405571,0.0,0.0,0.0,0.0
0.011160579857925118,0.01910969804925959,0.73416571893028,-0.0020067813602954376,-0.5217817325643346,0.002453256762256216,0.8530731374987679,0.08999049428744826,-0.7750078323579842,0.8376935575139093,-0.054375764563243084,-0.80557252413336,0.9022408256739197,-0.1121136515788027,0.7059608545112009,1.0038817681660557,0.03193525431160619,0.6586479412386235,1.0532690986064337,0.0,0.0,0.0,0.0
0.011067890874770428,0.019518463864455902,0.7343170031382772,-0.001964974168757027,-0.5217210670848458,0.0024012722821432843,0.8531104857682813,0.0890615177691477,-0.7754457711496674,0.8386818800338535,-0.05528384377504598,-0.8040431520987241,0.8998572609658669,-0.11583402202888927,0.7067262137844885,1.0037584209725512,0.03724947146432858,0.6593322541762684,1.0537979173457628,0.0,0.0,0.0,0.0
0.010920101493802452,0.019931616274214827,0.7343943860508855,-0.0019152107886580018,-0.5216460876382122,0.002342865070225833,0.8531566105954078,0.08813123763401307,-0.7758984506300759,0.8392955043066591,-0.05619169415196686,-0.802566651523596,0.8971214912274917,-0.11966265403196386,0.7069563069923377,1.0043631995748228,0.04309359224530963,0.6607855409635794,1.052122936528336,0.0,0.0,0.0,0.0
0.010724975358801486,0.020368000017842416,0.734426780913457,-0.0018625372897366882,-0.5215547263774177,0.002281990100430087,0.8532127465464888,0.08714517177633399,-0.7763999686534723,0.8396877364542534,-0.05715286894185271,-0.8010336572681633,0.8939814627374563,-0.1236692801569978,0.7067997225756004,1.0054686267345838,0.049242238897017544,0.662600382082748,1.0491747456490803,0.0,0.0,0.0,0.0
0.010491817715606573,0.02085292989487164,0.7344486841319614,-0.0018113661717417643,-0.5214405987080409,0.0022226033262685526,0.8532827673204503,0.08603282339433119,-0.7770173921894643,0.8400725252814771,-0.058237880805749515,-0.7993325532414192,0.8903877569997382,-0.12797075020608428,0.7064282236976067,1.0068039091710537,0.05556171647687431,0.6645971136869306,1.0455423033088338,0.0,0.0,0.0,0.0
0.010211928883209166,0.02140364982980961,0.7344932625031922,-0.0017599224963046219,-0.5212937428778103,0.0021610150517087567,0.8533727593046293,0.0847571979311688,-0.7776982802749348,0.8404400122564563,-0.05947866911761817,-0.7973304468453055,0.8861879451287034,-0.13269922039123141,0.7059576363997605,1.0081050653758208,0.06207396095539434,0.6666776455983016,1.0415642834195586,0.0,0.0,0.0,0.0
0.009875040817088362,0.0220413140147967,0.7345893668792931,-0.0017031419365792686,-0.5210981947357269,0.0020904661014400187,0.8534924725515679,0.08327879053969883,-0.7784309492624537,0.8408135786589981,-0.06091171200636862,-0.7949338100033093,0.881243193573833,-0.13804884913778037,0.7054734026560278,1.0091506144851248,0.06901877976700715,0.6688149332064403,1.037477078854566,0.0,0.0,0.0,0.0
0.009469455729628417,0.022786152306997244,0.7347605573239351,-0.001629503372021627,-0.5208314429948017,0.001997613395555357,0.853655646175573,0.08157505604315132,-0.7792249400192325,0.8412216538169898,-0.06255873338247271,-0.7921195493560689,0.8754637006050704,-0.14428211421003118,0.7050340508549203,1.0097556617072299,0.0770244566119746,0.6710270357721844,1.033517865433571,0.0,0.0,0.0,0.0
0.008984543005654334,0.02365098804216251,0.7350207566737104,-0.0015154033165668981,-0.520462546451356,0.001856321877614636,0.8538811365542893,0.07967049109831242,-0.780109184217485,0.8416917486994611,-0.06439876278728937,-0.7890112486609525,0.8688971269726354,-0.15176012865327906,0.7046716254185981,1.009788347517662,0.0874309246123779,0.6734053787579586,1.0300127232600467,0.0,0.0,0.0,0.0
0.008417351370218365,0.024630878893181326,0.7353633387862235,-0.0013181601440390186,-0.5199492628128898,0.0016202051045071005,0.85419459228538,0.07768015758380886,-0.7811641019151697,0.8422822751897777,-0.06632987042003714,-0.786021833128909,0.8619011145226749,-0.1609636016197187,0.7043729568113859,1.0092294056229456,0.1027889873968618,0.6762061256578461,1.0274763601148993,0.0,0.0,0.0,0.0
0.007789355710007889,0.025687404947033067,0.735733112461177,-0.000974248296910926,-0.5192361427085265,0.0012192654194673523,0.8546293888799189,0.07586204628438953,-0.7826592118593111,0.8432327820784972,-0.06812822712957183,-0.7841027809402854,0.8554607466290162,-0.17242321425113064,0.7039943919375375,1.0083625846061959,0.1271448210157216,0.6799782115026752,1.026674204201595,0.0,0.0,0.0,0.0
0.0071241554657547265,0.026688818026364358,0.7359552581737278,-0.0004274000734384427,-0.5182801592720955,0.0005795645461463274,0.8552105927425159,0.07473144382551233,-0.7849238108987473,0.8444991223503886,-0.06933014163872767,-0.7848041918140691,0.8511461681736556,-0.1859647334027237,0.7027992058157778,1.0083200093719047,0.1639215215778738,0.6850971958377902,1.02844734351674,0.0,0.0,0.0,0.0
0.006482387346960527,0.027359698771069973,0.7355213476990227,0.00011715325748629248,-0.5171771500310745,-9.895728983247572e-05,0.8558783628345237,0.07462278406776343,-0.7892584923706581,0.8462948333049576,-0.06967265386063522,-0.7896042934587167,0.8504865516416785,-0.19695460643273194,0.6979258656661239,1.0129579157642747,0.20253990609864628,0.688457115927417,1.0337502938849181,0.0,0.0,0.0,0.0
0.006484675452294878,0.027370235535975916,0.7355162672003818,0.00013023176274851804,-0.5171779410784335,-0.0001113369779939584,0.855877881420964,0.07462495688433615,-0.789258252040305,0.8463108272148955,-0.06966965413144768,-0.7896176651775987,0.8504610761269908,-0.19697201010330237,0.6978988724531027,1.012930788666378,0.20255181374664682,0.6884563626287873,1.0337493626736902,0.0,0.0,0.0,0.0
0.006484675452294878,0.027370235535975916,0.7355162672003818,0.00013023176274851804,-0.5171779410784335,-0.0001113369779939584,0.855877881420964,0.07462495688433615,-0.789258252040305,0.8463108272148955,-0.06966965413144768,-0.7896176651775987,0.8504610761269908,-0.19697201010330237,0.6978988724531027,1.012930788666378,0.20255181374664682,0.6884563626287873,1.0337493626736902,0.0,0.0,0.0,0.0
0.006601453686828728,0.027549044867299588,0.7356450680830741,0.00011800388561569501,-0.5178713872822965,-0.0001044746487827599,0.8554584743834387,0.07405572978714393,-0.7858918999086567,0.8441008194273009,-0.07002319996516107,-0.7851408454223581,0.8465314427391164,-0.1998092667723656,0.7013280733474473,1.013553901953729,0.20303947987894097,0.6917346415357304,1.0334364746327733,0.0,0.0,0.0,0.0
0.006719085407112115,0.02776277360655541,0.7357068552647477,8.275616712985446e-05,-0.5183251657902556,-7.137930779809574e-05,0.8551836121938465,0.07339333526378178,-0.7843503738785843,0.8436315070353284,-0.07056261144092896,-0.782115417895441,0.8438662778087389,-0.20217897249894912,0.7036146380838443,1.0143727032177485,0.20309023879781735,0.6939697852392842,1.0331361914725588,0.0,0.0,0.0,0.0
0.006821038087124,0.027973803304383985,0.7357237095892947,3.955781845055777e-05,-0.5186125814997685,-2.7458101158772413e-05,0.8550093496514396,0.07274435101523022,-0.78388422426913,0.8440641635789625,-0.07114598426352829,-0.7801171528433359,0.8420715581478302,-0.20405654337737517,0.7050494403181384,1.0152607470973252,0.20290063201885103,0.6954134968127642,1.0329224500662577,0.0,0.0,0.0,0.0
0.006912704135195199,0.028192280830915267,0.7357017900794292,-8.184729661117465e-06,-0.5187977394162627,2.25738471059326e-05,0.8548970142654653,0.07208215745638741,-0.7841365407727251,0.8451036599895999,-0.07177889530186433,-0.7787596200788506,0.840786873600171,-0.20570037781547043,0.705910846264692,1.016321523586764,0.20248732133708588,0.696306538060627,1.0328409359595268,0.0,0.0,0.0,0.0
0.0070184866814049845,0.028461936350233252,0.7356282969872254,-6.544099860630986e-05,-0.5189294214659762,8.171255915350058e-05,0.8548170825255662,0.07128891580691343,-0.7851258561037202,0.8469454441335058,-0.07257258146586948,-0.7777812444333605,0.8397811918336365,-0.20755506043224922,0.7064151579529837,1.0178679489701334,0.20172321656807662,0.696826078406752,1.0329668220616526,0.0,0.0,0.0,0.0
0.007216244119193512,0.028880483389951916,0.7354558794070865,-0.00014700654003583645,-0.519049526705777,0.00015858569205571895,0.8547441383631504,0.0701155406485091,-0.7874835013267879,0.8506948894823454,-0.07379377002745274,-0.7771704870190939,0.8391920121953099,-0.2104982725918338,0.7068160543636681,1.0206056410910713,0.20024431918210012,0.697142848328951,1.0334731358135487,0.0,0.0,0.0,0.0
0.007537223888940477,0.029544693369807563,0.7350661452836704,-0.00022871879791252386,-0.5192030788473886,0.0002479398903267503,0.8546508346271678,0.06832081500539187,-0.7916931089583991,0.8569485593777484,-0.07569593046320927,-0.7769693652826615,0.8388556580823221,-0.21582060328052208,0.7070206238737056,1.025937134151281,0.19729309193690658,0.6968703498739958,1.0352097104039368,0.0,0.0,0.0,0.0
0.008129823260031354,0.03053051786174537,0.7353008942196539,0.000420860826287663,-0.5197701201990611,-0.0005235372805564076,0.8543059000926625,0.0674624649226518,-0.7909786792230311,0.8616165056075424,-0.07652018569870467,-0.7756278342686109,0.8388376663262084,-0.1677594617317489,0.6967626155924159,1.0220651379774586,0.18062751196399907,0.697965271160092,1.030342554032456,0.0,0.0,0.0,0.0
0.008742525845803345,0.03164474629740663,0.735243680921292,0.0009891887719713902,-0.5203223105878301,-0.0011896236201728802,0.8539685587922763,0.06607218677489285,-0.7920448775064195,0.8678142997524194,-0.07792677521567266,-0.7747083109240619,0.8386718823005661,-0.12633149829492693,0.6877871474713356,1.0206307685524463,0.16433363164414613,0.6979900007867074,1.027634076673844,0.0,0.0,0.0,0.0
0.009334630187678257,0.032693712551027806,0.735112607308123,0.001324994475209468,-0.5207378268366879,-0.001593127612318521,0.853714133674414,0.06431717818326048,-0.7946926488196102,0.8750909375765942,-0.07974026242216113,-0.7740356381818666,0.8387357507419639,-0.09968909786963029,0.6818697164785346,1.0214901344480096,0.15183277955571778,0.6981979711407204,1.0256243584568594,0.0,0.0,0.0,0.0
0.009842734014157143,0.033611083531536995,0.7349915414378433,0.0015091498575027376,-0.5210377632337512,-0.0018227583387828972,0.853530344687941,0.06252988371476112,-0.7977166811592354,0.8820020046439921,-0.08159136726840084,-0.7733692676245875,0.8386905548772154,-0.08309252729687944,0.6778655748887493,1.0238637863343667,0.14241159145072763,0.6985725659202242,1.0238511411784768,0.0,0.0,0.0,0.0
0.010259218352612719,0.03438473766714369,0.7349137770132166,0.0016162251888872747,-0.521255585621217,-0.0019601927122845464,0.853396836131557,0.06090186292787962,-0.8004831447038274,0.8879683323392806,-0.08327233624964525,-0.7726780777994376,0.8385154449811135,-0.07196749013070819,0.6748370834812297,1.0270934823097837,0.13511199934830878,0.699053704617524,1.02209645494301,0.0,0.0,0.0,0.0
0.010597199878683728,0.035029577531571265,0.7348887664172327,0.001689880174619184,-0.5214172457835446,-0.0020540056431751132,0.8532977095746336,0.05949526595397962,-0.8027738966301635,0.892917427850081,-0.08471708882573736,-0.7719719917784281,0.8382604977967394,-0.06351909194271244,0.6722650021931181,1.030752262891353,0.12921771025342663,0.6996122722559227,1.0202461831167375,0.0,0.0,0.0,0.0
0.010873798393281085,0.03557055334077898,0.73491193050163,0.0017518071201390397,-0.5215406560061405,-0.0021293823242388636,0.8532219764137675,0.05830161116240817,-0.804584226385877,0.8969849608411322,-0.0859355209129712,-0.7712638584213674,0.8379653659774463,-0.05627865427993691,0.6698996466264002,1.0345765387286217,0.12424365517826098,0.7002230226279685,1.0182705886620245,0.0,0.0,0.0,0.0
0.011104618535134265,0.03603417564486148,0.7349699770915246,0.001811423243377589,-0.5216383242884249,-0.0021982583559461083,0.8531619688192846,0.057281874026417434,-0.8060039433041308,0.9003689304839141,-0.08696997093335435,-0.7705666546220373,0.8376488155554552,-0.04954276896889816,0.667633348781222,1.0383940073496358,0.11986494458412301,0.7008492962489278,1.0162108223931616,0.0,0.0,0.0,0.0
0.011302593887758403,0.03644423370270053,0.735043820690124,0.0018719883371188448,-0.5217194122466497,-0.002265780363606088,0.8531120775044859,0.05638988890955239,-0.8071584893989185,0.903268384739079,-0.08787058993863688,-0.7699011591985789,0.8373211031803582,-0.043010774821341524,0.6654360064026617,1.042062526239707,0.1158645617398575,0.7014376698326474,1.0141688009308878,0.0,0.0,0.0,0.0
0.011478386335989072,0.03681918569785906,0.7351091921186315,0.0019339869132413057,-0.5217898859876469,-0.002334424456543935,0.8530686520076063,0.055587908292008076,-0.8081898931416374,0.9058668535645401,-0.08868011146850562,-0.7693170069688058,0.8370115768850633,-0.03659218287978998,0.663339244947003,1.0454007738610425,0.11210131954487468,0.7019087337919762,1.0123079167806381,0.0,0.0,0.0,0.0
0.011627237943250693,0.03718213301258576,0.7351376416610466,0.0019944378945934605,-0.5218538450016288,-0.0024013167200582376,0.8530292025203536,0.05481285338820922,-0.8092137980263023,0.9082439599539626,-0.08946236661293865,-0.768776696040329,0.8365718510277373,-0.030336272333005815,0.661409999904948,1.048081821141647,0.10844830526121707,0.7021215987512014,1.0108342917504385,0.0,0.0,0.0,0.0
0.011740072443845062,0.0375498428040249,0.7350978346152148,0.0020494181465721176,-0.5219122605893364,-0.0024629630807068274,0.8529931570327233,0.05401673402988116,-0.8103372256680306,0.9104341164516175,-0.09026626086229296,-0.768263365668596,0.8358591527886166,-0.02440106863758515,0.6598400688699496,1.0495318281490287,0.1048346640641783,0.7019064002392296,1.0099994697453152,0.0,0.0,0.0,0.0
0.011808528608553063,0.037932507400490076,0.7349640865433167,0.0020950719611498372,-0.521964193679373,-0.0025165101165879125,0.8529611118726063,0.053169757458129505,-0.8116449244497684,0.9124520493162145,-0.09112262268751763,-0.7677773485648406,0.8347719364376287,-0.01901824278454518,0.6590426451083854,1.0488221312869492,0.10123248686237563,0.7011193554788772,1.0100181518204494,0.0,0.0,0.0,0.0
0.011833411440287617,0.03833996707414286,0.7347293788919632,0.0021306448702440883,-0.5220107396911239,-0.0025614022343534225,0.8529324048353167,0.05224632771068669,-0.813185003060498,0.9143517209736601,-0.0920573317485406,-0.7673050896687734,0.8332703447283699,-0.014205943149528107,0.6590280474817025,1.0459683797587482,0.0975786851805807,0.6997283215750978,1.0109250896590631,0.0,0.0,0.0,0.0
0.011823887809758907,0.03878325970857936,0.7344045957238314,0.0021585623025341186,-0.5220547911643623,-0.0025995365285340407,0.8529052573650586,0.05122143556122749,-0.8149720306443535,0.9162265115719028,-0.09309479511165222,-0.7668145654400418,0.8313633533176441,-0.009757945970067433,0.6593987348922186,1.0419168863044106,0.09376005256277402,0.6978041904834118,1.012576594929714,0.0,0.0,0.0,0.0
0.011785813419210239,0.03927203042261353,0.7340048193415973,0.0021813736970406066,-0.5220970274850402,-0.0026333544590959584,0.8528792417126658,0.05007446527278696,-0.8169980769865876,0.9181360669207588,-0.09425396065039418,-0.7662605898689177,0.8290386913257641,-0.005518971536380256,0.6599628369819309,1.0372239689828044,0.0896631996752939,0.6954191665270502,1.0147920959370296,0.0,0.0,0.0,0.0
0.011716431772108514,0.03981449060181562,0.7335410669413271,0.002201588555192088,-0.5221356195730184,-0.002665348240503008,0.8528554647181964,0.04878822513915198,-0.8192360555381467,0.9200704265400963,-0.09554902478977771,-0.7655839362484465,0.826222145464673,-0.0013943128914694477,0.660636097501468,1.032149723062476,0.08518106777431378,0.6925921564125749,1.0174368428269684,0.0,0.0,0.0,0.0
0.0116055745918836,0.04041629112924094,0.7330192402616137,0.002222883495114225,-0.5221672838928638,-0.002699355864249661,0.8528359161637334,0.047354688252100346,-0.8216359732038306,0.921949654214767,-0.09698405681471683,-0.7647221666745355,0.8227938970884048,0.0026863619906453452,0.6613876868768651,1.0267536258902559,0.08020798992350635,0.689287135578045,1.0204345305832931,0.0,0.0,0.0,0.0
0.011443580352361529,0.04107415414765665,0.7324421669262184,0.002252403153373432,-0.5221898843881343,-0.002742989660728728,0.8528218614285534,0.04579679300639922,-0.8241180666933671,0.9236504228403434,-0.09853321345248843,-0.763657457919622,0.8186903036931935,0.006823227888532329,0.6622373775496597,1.0209632399986146,0.07466369618202741,0.6854523831798232,1.023761765948114,0.0,0.0,0.0,0.0
0.01125131156535899,0.041752536775576075,0.7318103074285186,0.002306935258061232,-0.522201350968884,-0.00281559222563155,0.8528144578607978,0.04424881296834792,-0.8266414493304886,0.9251860858508623,-0.10007274473330502,-0.7626819110255552,0.8143650028424485,0.011301750430414606,0.6633355464071005,1.0146098356242217,0.0685863993710736,0.6811068427007643,1.0274709053229507,0.0,0.0,0.0,0.0
0.011055344495574122,0.04240522150012791,0.7311241944126246,0.0024125892150757763,-0.5221994227654413,-0.002946082368370786,0.8528149054017513,0.042893343646706,-0.8291380453056907,0.9265604190161482,-0.1014350272563309,-0.7621957159498686,0.810430810772066,0.01663185487588541,0.6648794130207056,1.0073238415163435,0.06196175801577551,0.6762543567300802,1.0316309739087308,0.0,0.0,0.0,0.0
0.010864137026448471,0.04299113087793353,0.7303895962275385,0.002608000900091319,-0.5221791285299558,-0.0031829139302846443,0.8528259055152542,0.04194417701202333,-0.8314133378900932,0.9275954808590791,-0.10241732458971681,-0.7625543131017369,0.807359557332867,0.023431000600109848,0.6670423028642528,0.9984155210463037,0.05449309237721515,0.6707753556707419,1.0362439527866414,0.0,0.0,0.0,0.0
0.010700562961821017,0.04345423866780558,0.7296367878397724,0.0029521541575389765,-0.5221230779963519,-0.003618643923022437,0.8528573630013426,0.04176321878436058,-0.83319672340498,0.9281505851263271,-0.10267727076107294,-0.7643628366171189,0.8059999323882053,0.03200772087736722,0.6701822793693576,0.9868527124336726,0.045542273328576445,0.6645296774029756,1.0410581089827804,0.0,0.0,0.0,0.0
0.01059656033902747,0.04375702664584714,0.729015413856471,0.003474221097277655,-0.522026358892321,-0.004263843763800154,0.8529116191292923,0.04245257789677764,-0.8340454539154277,0.9281562781673474,-0.10210366738471427,-0.7675584042668808,0.8067768588542218,0.04081542090434623,0.6752139737822658,0.9716277211503587,0.03515088026994664,0.658243251407562,1.044802587542873,0.0,0.0,0.0,0.0
0.010597934889104528,0.04376285313855731,0.7290083276321806,0.0034789017462043665,-0.5220287735046236,-0.0042667792297125025,0.8529101074972106,0.042444143981528355,-0.8340568185952799,0.9281676401353277,-0.10211018541180127,-0.7675543173437925,0.8067440105940679,0.040818261565836476,0.6752120741525145,0.9716223023815198,0.03514075212540346,0.6582207529919791,1.0448007472180854,0.0,0.0,0.0,0.0
0.010597934889104528,0.04376285313855731,0.7290083276321806,0.0034789017462043665,-0.5220287735046236,-0.0042667792297125025,0.8529101074972106,0.042444143981528355,-0.8340568185952799,0.9281676401353277,-0.10211018541180127,-0.7675543173437925,0.8067440105940679,0.040818261565836476,0.6752120741525145,0.9716223023815198,0.03514075212540346,0.6582207529919791,1.0448007472180854,0.0,0.0,0.0,0.0
0.01024947211743032,0.044020014629698484,0.7292363866067039,0.002994290459554207,-0.5224660897279623,-0.003728868074505781,0.8526466529881529,0.04053883965318492,-0.8314256342927985,0.9245345865794915,-0.09385837818939725,-0.7799884908601039,0.8294345032703876,0.045697999276667206,0.6743555141739302,0.971028755121159,0.04039806354320387,0.6614641539872017,1.0437371807914666,0.0,0.0,0.0,0.0
0.009545617369365997,0.04476070839810234,0.7295003838735277,0.002566273525778929,-0.522753885875787,-0.003200058262505888,0.852473781807436,0.03737630276452031,-0.8288882302645526,0.9200452748506672,-0.08522017452505432,-0.7891832480148102,0.8426329170309157,0.04665602242954122,0.6725588830209457,0.9720388309605004,0.04144881807718138,0.6627866166028661,1.0409079439507412,0.0,0.0,0.0,0.0
0.008633644474756176,0.04581403763301711,0.729719688528605,0.002181137613817001,-0.5229292604522596,-0.0027319330786388643,0.8523689152844655,0.03356409276585433,-0.8266722666855579,0.9152481855779748,-0.07836173266211474,-0.7958557780533341,0.84969382634406,0.044699755609001926,0.6700140802825231,0.9746997750527249,0.039294211188312625,0.6624278073704553,1.0374080285941196,0.0,0.0,0.0,0.0
0.007623841769205647,0.04701679767901516,0.7298663420921901,0.001830231310628712,-0.5230362864728234,-0.002322236062616348,0.8523052859778224,0.029525760097465693,-0.8247411038788148,0.9103402289872564,-0.07347652186046637,-0.8008815213166431,0.8532892412998307,0.04110178478773189,0.6669366001303323,0.9785826525719878,0.03536424335875472,0.6609405645429712,1.0339418251334944,0.0,0.0,0.0,0.0
0.006639993455741136,0.04818717457573444,0.7300296495594976,0.0015274992540385808,-0.5230998126285962,-0.001983191853637141,0.8522677511932667,0.025749636993969184,-0.8227905545731606,0.9055107123165217,-0.0698967468667888,-0.8048517407010226,0.855045459559703,0.03698015784664793,0.6641701702330965,0.982100211100954,0.030926114175190648,0.6593099993733826,1.030191476875729,0.0,0.0,0.0,0.0
0.005736789581852603,0.04924388569838982,0.7302028923002192,0.0012743107907772049,-0.5231349011345149,-0.0017072934035001464,0.8522472273326703,0.022421005865931733,-0.8208583613846034,0.9009348027430568,-0.06698641860527413,-0.8082201253203739,0.8557816498138232,0.032953033679059815,0.6618193875041243,0.9849923409036196,0.026653777123461328,0.6577998681230859,1.0264623130549284,0.0,0.0,0.0,0.0
0.004938243026253074,0.050161112928285054,0.730370699901744,0.0010664339945031355,-0.5231535213080054,-0.0014830569217315268,0.8522365026233837,0.019574005604971897,-0.8190308806442093,0.8967557355876569,-0.06428650754668866,-0.8112739319107938,0.8559636747205569,0.029303022717253924,0.6598551954506733,0.9873120544260069,0.02283171715160081,0.6564867032357325,1.0230006654813997,0.0,0.0,0.0,0.0
0.004250841891671543,0.05094163422869155,0.730523385217909,0.0008972684302190304,-0.5231638524770589,-0.0012990887058001706,0.8522306558316597,0.017171020134811452,-0.8173803912773748,0.8930690437362928,-0.06153136297279204,-0.8141682806745635,0.8558644715459381,0.026121484667004008,0.658227798685602,0.9891727855701857,0.019534928264179918,0.6553856010473815,1.019922784832037,0.0,0.0,0.0,0.0
0.0036700830517085664,0.05160117906938341,0.7306567679767361,0.00075980942941873,-0.5231706853307564,-0.0011456862617276015,0.852226814940229,0.01514675665074715,-0.8159494396861846,0.8899143766647464,-0.0585975592404837,-0.8169472392049614,0.8556506937104525,0.023399298992145455,0.6568851404609491,0.9906856642505919,0.016736525360713128,0.654483982011173,1.0172533792363825,0.0,0.0,0.0,0.0
0.003184538114272449,0.05216011305497342,0.7307700532009459,0.0006476290329153778,-0.5231760859313883,-0.001015194717988751,0.8522237576281437,0.01343011374232997,-0.8147519917883257,0.8872802755005998,-0.055444333510200464,-0.8195437044056829,0.8554434207357202,0.021078865993098963,0.6557737733347014,0.9919463504728541,0.014365077973377162,0.6537524696029438,1.0149664694393274,0.0,0.0,0.0,0.0
0.002778657644475209,0.05263971611903672,0.7308642978364518,0.0005551776828812992,-0.5231802182640539,-0.0009018061529863732,0.8522214135660872,0.011952875715186755,-0.8137796239675009,0.8851160151846199,-0.052071055252541194,-0.8217716631683576,0.8553665993269184,0.01908040616908656,0.6548393369856941,0.9930351804196088,0.01233133857221225,0.6531511276664136,1.0130104666677056,0.0,0.0,0.0,0.0
0.002435112398416879,0.05306076830493728,0.7309418275220769,0.00047771082767118436,-0.5231825922175163,-0.00080119449885158,0.8522201036588495,0.010652195161769497,-0.8130064639907767,0.8833452603642804,-0.048496140582653884,-0.8233443890981087,0.855578553965672,0.01731482866295278,0.6540317905730547,0.9940182838633695,0.010540124633277479,0.6526381982426325,1.0113195101748926,0.0,0.0,0.0,0.0
0.0021375733708069427,0.0534419668310048,0.7310062745635727,0.0004112194995977033,-0.5231839372322614,-0.0007102138734143766,0.8522193933001797,0.009473672236477746,-0.8123900790094225,0.8818789277677417,-0.04474826065338928,-0.823978840484987,0.8562534233687653,0.015696933237965942,0.6533168583508623,0.99494336901013,0.0089025614234159,0.6521843953512798,1.0098208138500613,0.0,0.0,0.0,0.0
0.0018736246883081658,0.053795345669579706,0.7310603349809562,0.00035284912753301157,-0.5231838490155484,-0.0006263773511165097,0.8522195393665783,0.008381295540115258,-0.8118978065002285,0.8806449333845614,-0.04085833984753727,-0.8236702705086208,0.8573846119623452,0.014176507298098027,0.6526648335554084,0.9958368748298356,0.007367054961422314,0.6517667591951517,1.0084642500547318,0.0,0.0,0.0,0.0
0.0016350971342266526,0.05412667066226897,0.7311056477195143,0.000300733772606887,-0.5231809849596128,-0.0005475998854870885,0.8522213718689837,0.007355661428532013,-0.8115102113154048,0.8795940137817958,-0.0368541436779504,-0.822695082090615,0.8587909810737515,0.012737938428363267,0.6520506726270683,0.996706970495175,0.005917764950097492,0.6513692397561813,1.0072233557302668,0.0,0.0,0.0,0.0
0.0014159390155120994,0.054440458278501934,0.7311447007264582,0.0002532826485377551,-0.5231758092712441,-0.0004722088455030552,0.8522246097479731,0.006381520783640928,-0.8112011126698659,0.8786806395704817,-0.032758587308278825,-0.8213402914633667,0.8603230724328048,0.011370416726151501,0.6514652382177127,0.9975516916186987,0.004543522924118348,0.6509905309219546,1.0060692192171543,0.0,0.0,0.0,0.0
0.0012107081783039484,0.054741071638112836,0.7311802053294431,0.0002090993890480935,-0.5231691571038236,-0.00039879534168053556,0.8522287429411165,0.005444665654514056,-0.8109433145054531,0.8778615078317983,-0.028582233858729718,-0.8198047508960224,0.8618951744426663,0.010061481403281933,0.6509041247942353,0.9983669038655196,0.0032314677940912554,0.6506325376656151,1.0049711163478137,0.0,0.0,0.0,0.0
0.0010143352898461704,0.05503197511262891,0.7312146829505491,0.00016715317389889853,-0.5231615377632407,-0.00032624011955264154,0.8522334604041325,0.004533788207115707,-0.8107107658684441,0.877094659117308,-0.024314252552963028,-0.8181913880149545,0.8634743391148145,0.008800746208175513,0.6503631264543958,0.9991463151968336,0.0019709518311239577,0.650295908552132,1.0039015335037567,0.0,0.0,0.0,0.0
0.0008225917518790209,0.055314384425309435,0.7312504331285966,0.00012699278941980208,-0.5231530460102024,-0.00025389508469195914,0.852238704742025,0.003644254856430877,-0.8104778703652968,0.8763392244858683,-0.019921048677233703,-0.8165355642961595,0.8650621213900906,0.00758659909531856,0.6498393608314961,0.9998767042141858,0.0007602590017381815,0.649980907594833,1.0028402946745636,0.0,0.0,0.0,0.0
0.0006330227164630332,0.055585745303463004,0.7312897222721468,8.894858580099216e-05,-0.5231436303254993,-0.00018198769866820862,0.8522445077666878,0.0027829264418124705,-0.8102177613340854,0.875556778611556,-0.01536167157247055,-0.8148442248292347,0.8666794387321101,0.006432738695148347,0.6493362038065402,1.000531157677995,-0.00038701283037696874,0.6496911212002358,1.0017774460531534,0.0,0.0,0.0,0.0
0.0004465346421638132,0.0558382161749667,0.7313349785533536,5.4288319389124346e-05,-0.5231336050960034,-0.00011232123674793393,0.8522506765359456,0.00197380515594699,-0.8099023017660155,0.8747178877080692,-0.010633466582043973,-0.8131398806872114,0.8683539396428427,0.005373058642765637,0.6488714850123324,1.001062554494214,-0.001437357649551612,0.6494390001324801,1.0007157853455897,0.0,0.0,0.0,0.0
0.00027009040591267344,0.056057539238956,0.7313885847221897,2.5231951669155203e-05,-0.5231243885050061,-4.9249415852925556e-05,0.8522563411844508,0.0012635318680481351,-0.8095087516575548,0.8738208512420537,-0.005866015395894268,-0.81151154620011,0.8701042167777175,0.004462969830166633,0.648488265395833,1.001401842013541,-0.002336409451975766,0.6492525621727757,0.9996750328353833,0.0,0.0,0.0,0.0
0.00012078875377446603,0.05622324179003887,0.731450962913529,4.63146715576876e-06,-0.5231193758360574,-6.406681173971548e-07,0.8522594197795837,0.0007236813838330614,-0.8090422343615438,0.8729320377637534,-0.0014778205387576352,-0.8101719771505212,0.8719106531177104,0.0037737852396102158,0.6482619442473562,1.0014754140485171,-0.0030149011250133187,0.6491781029062612,0.9987061684043659,0.0,0.0,0.0,0.0
2.9762563604280017e-05,0.0563120403429674,0.7315116444410535,-4.940519020816203e-06,-0.5231232333442647,2.218144816811003e-05,0.8522570517273627,0.00044250139694125714,-0.808599073907761,0.8722577431382041,0.001610575319694169,-0.8094943947479744,0.8736145456986151,0.0033755763900699867,0.6482669665697358,1.0012929400084625,-0.003405882032254149,0.6492462916844843,0.9979566667436399,0.0,0.0,0.0,0.0
2.995796712598918e-05,0.05631200038747495,0.7315113914823936,-4.113960181469652e-06,-0.5231229818044546,2.2692387230078798e-05,0.8522572061157049,0.00044090535019267613,-0.8086005081659204,0.8722584968905366,0.0016151910345437383,-0.8094899955201232,0.8736163956793161,0.0033747917699930158,0.6482656285430426,1.0012931951307125,-0.003405747717979111,0.6492465107855362,0.9979574365187059,0.0,0.0,0.0,0.0
2.995796712598918e-05,0.05631200038747495,0.7315113914823936,-4.113960181469652e-06,-0.5231229818044546,2.2692387230078798e-05,0.8522572061157049,0.00044090535019267613,-0.8086005081659204,0.8722584968905366,0.0016151910345437383,-0.8094899955201232,0.8736163956793161,0.0033747917699930158,0.6482656285430426,1.0012931951307125,-0.003405747717979111,0.6492465107855362,0.9979574365187059,0.0,0.0,0.0,0.0
2.995796712598918e-05,0.05631200038747495,0.7315113914823936,-4.113960181469652e-06,-0.5231229818044546,2.2692387230078798e-05,0.8522572061157049,0.00044090535019267613,-0.8086005081659204,0.8722584968905366,0.0016151910345437383,-0.8094899955201232,0.8736163956793161,0.0033747917699930158,0.6482656285430426,1.0012931951307125,-0.003405747717979111,0.6492465107855362,0.9979574365187059,0.0,0.0,0.0,0.0
7.045142757288253e-05,0.05636439468143506,0.7315014477779752,2.401771088079792e-06,-0.5231396241646389,1.1566072167038784e-05,0.8522469908948566,0.00033440431514798313,-0.8088465612696132,0.8727681887442837,0.0015086205066835198,-0.8095379720466953,0.8737710886645856,0.0029107595310635037,0.6484417596501473,1.0015757147385034,-0.003870938786965301,0.6493012427313938,0.9978520400339694,0.0,0.0,0.0,0.0
0.0001260710031301901,0.056439523002286794,0.7314861328708575,2.6736063760929315e-07,-0.5231621216096363,8.28471467677847e-06,0.85223318079279,0.0001544342069315033,-0.8092344873012419,0.8735138765239836,0.0013286549043848947,-0.8095691167236088,0.8739472705265897,0.0023958429397632807,0.648630740477455,1.0019744017476078,-0.004387419465588779,0.649411096890843,0.9977256700545405,0.0,0.0,0.0,0.0
0.00019351146895304984,0.056537097673339885,0.7314671868546382,-6.4239114666054205e-06,-0.5231868934284388,9.353968854439928e-06,0.8522179735349026,-9.144084297312298e-05,-0.8097501777846036,0.8744684133175592,0.0010828697225830006,-0.8095939974651509,0.8741402997870844,0.001783731422604286,0.6488367315447231,1.0024720578790802,-0.005000637804208231,0.6495511479070308,0.9975541062072589,0.0,0.0,0.0,0.0
0.0002713137015231837,0.056666737824736725,0.7314460430972227,-1.5957202208609543e-05,-0.5232098594086265,1.3173260695271096e-05,0.8522038738409009,-0.0004244189718201725,-0.8104236189818669,0.8756700936326917,0.000750105548568823,-0.8096069214346999,0.874324860881019,0.0009875048057993335,0.6490630513413224,1.0030833907949144,-0.005796135376009929,0.6497027641030336,0.9972813796161646,0.0,0.0,0.0,0.0
0.0003586118258290437,0.056846445281134646,0.7314239052401592,-2.7292138891771608e-05,-0.5232241256169101,1.9346517002114985e-05,0.8521951145443578,-0.0008898837960237292,-0.8113283372328054,0.8772135149245313,0.00028508082254716753,-0.8096002517358312,0.874464626625229,-0.00012552681912708966,0.649306499377013,1.0038462520382567,-0.006903929593303826,0.6498408756766496,0.9968193560458921,0.0,0.0,0.0,0.0
0.0004593296198092384,0.05710481615956245,0.7314000194516642,-4.556586986973015e-05,-0.5232267081069023,3.690726714061516e-05,0.8521935276011074,-0.0015820159320165499,-0.8125935743740262,0.879279020958359,-0.0004061395052151521,-0.8095255057113997,0.8744932233780902,-0.0016622981594183678,0.6495518658403172,1.0048452037684996,-0.008427311573137886,0.6499830868153819,0.9960751785122213,0.0,0.0,0.0,0.0
0.0005953546340967885,0.057477717173285356,0.7313854843577567,-0.00014802498036316458,-0.5233257298219944,0.0002407729606879236,0.8521326778285547,-0.003020682663419001,-0.814096683387075,0.8818462781864702,-0.0018426766261155209,-0.8083494631123954,0.8735660993367005,-0.0022671597019730027,0.6496720050719534,1.0061114882620272,-0.009033054573343817,0.651057848947036,0.9952197650269647,0.0,0.0,0.0,0.0
0.0008430436037981412,0.05781662618036297,0.7313440235846964,-0.0001520356422688122,-0.5232220146259337,0.00022022514015108643,0.852196369269918,0.005644415701979726,-0.8118708804127784,0.875332397675821,-0.0026439852588741584,-0.8096374171767252,0.8754948645449551,-0.004699391119196277,0.650151541684617,1.0072316125155216,-0.011430292477452052,0.6511220496605304,0.9939561408321824,0.0,0.0,0.0,0.0
0.001202938749310776,0.05825190798353222,0.7312773683716287,-0.00021826395878818844,-0.5231839754490688,0.0003311814172841503,0.8522196726859932,0.016986847696463563,-0.8108749790610861,0.8703047173130988,-0.004010820089976717,-0.8106794519407047,0.8776272939021504,-0.0065722304368878715,0.65065180923029,1.0087928684113545,-0.01327122276715802,0.6519399663419831,0.9927622602458285,0.0,0.0,0.0,0.0
0.0016101230270116505,0.05877106587591768,0.7311999459891794,-0.0003129574995561155,-0.5231747613655919,0.0004938361686341987,0.852225220967731,0.02827134534767848,-0.810758294312877,0.8663720537014514,-0.005715909343863451,-0.8114980550162333,0.8796585256808234,-0.008526079419676695,0.6512006758789952,1.0106866975908428,-0.015187674194156633,0.6530534504892292,0.9914395768849142,0.0,0.0,0.0,0.0
0.0020316983931128138,0.059348083268344815,0.7311189529435241,-0.0004152048039701525,-0.5231685165742104,0.0006681346779132681,0.8522288920627856,0.038582328393442486,-0.8111197816222051,0.8630434285136956,-0.007597502904710553,-0.8122022887209882,0.8815586013250657,-0.010774861789598814,0.6517879488057757,1.0127765036511858,-0.017382948502477333,0.6542167542829996,0.9899407517901274,0.0,0.0,0.0,0.0
0.002458013403172356,0.059960817997034004,0.7310358354809612,-0.000517484403808836,-0.5231594985382917,0.0008390538572887933,0.8522342209085948,0.047883578053390156,-0.8117045007925947,0.8600510152421612,-0.009563261661868312,-0.8128572805506685,0.8833695992059175,-0.01331498693323028,0.6524161518246746,1.014985520785312,-0.019847724434295853,0.6553555723939927,0.9883084364496383,0.0,0.0,0.0,0.0
0.002890944309717348,0.06059570729573481,0.730949314984836,-0.0006184605534865691,-0.5231493619473354,0.0010036600020945443,0.8522401981056982,0.056446145409959084,-0.8123825538920645,0.8572522167486629,-0.011571667836324774,-0.8135061006927463,0.8851591011060953,-0.016084604949429485,0.6530930447436484,1.017282977251427,-0.022517587904570566,0.6564702219809067,0.986599461869553,0.0,0.0,0.0,0.0
0.0033370553955156404,0.0612476874528241,0.7308573371410245,-0.0007192138992964529,-0.5231406316006262,0.0011638914333086069,0.8522452743527513,0.0645621201481799,-0.8130993881321528,0.8545670268444259,-0.013614663295467197,-0.8141820780354888,0.8869971221997477,-0.019033532585880943,0.6538278456777493,1.0196660437828684,-0.0253409606341271,0.6575850311564827,0.984850934344585,0.0,0.0,0.0,0.0
0.0038045360253303124,0.06191826021544474,0.7307577199887456,-0.0008217031690712434,-0.5231345252608077,0.0013231268803002168,0.8522486976342702,0.07243817648505978,-0.8138262055771347,0.8519524607092008,-0.01570444850171458,-0.814915065983171,0.8889487587013016,-0.02214267150902914,0.6546299253873308,1.022148915188313,-0.028296910163510557,0.6587271241451743,0.9830749655999346,0.0,0.0,0.0,0.0
0.004302263122610497,0.06261336991276423,0.7306480881513779,-0.000928287720615239,-0.5231306585588853,0.0014849058341630077,0.8522506951668144,0.08018061237535885,-0.8145153041311387,0.8493978906809335,-0.017864976159208516,-0.8157358458373815,0.8910759640221089,-0.025421491979970724,0.6555081265975672,1.0247574474162893,-0.03139158349262433,0.6599198056913314,0.9812651841913655,0.0,0.0,0.0,0.0
0.004839771311628538,0.06334170475759997,0.7305256314458893,-0.0010416612987383799,-0.5231273726940935,0.001652705091926856,0.8522522721857613,0.08781561589821993,-0.8150605727500922,0.8469326296878226,-0.020127143422357253,-0.8166790090825728,0.8934420366856861,-0.028898825234096905,0.6564704859468053,1.0275262110293288,-0.03464848949227155,0.6611823466985497,0.9794051236900846,0.0,0.0,0.0,0.0
0.005427562089879534,0.0641135153703354,0.7303870534583574,-0.0011649781355916513,-0.5231223462282174,0.0018302515809727033,0.852254835059197,0.09531668847590236,-0.8152693267042623,0.8446389689911757,-0.02252664060130445,-0.8177829342459525,0.8961147846233926,-0.032612378649656194,0.6575252702692947,1.030495304152637,-0.03809796053564456,0.6625337568956164,0.9774739650374235,0.0,0.0,0.0,0.0
0.00607777294155093,0.064940194033458,0.7302289848283822,-0.0013023140442780846,-0.5231136272399481,0.0020223444269576864,0.8522595538314683,0.10262855786741087,-0.8148680799800119,0.842656333370364,-0.02510489078419753,-0.8190843667117763,0.899166090591546,-0.03659803979849659,0.6586851449814245,1.0337054439876134,-0.04176682253157553,0.6640023885075111,0.9754463582625135,0.0,0.0,0.0,0.0
0.006805548733612009,0.06583578343981618,0.7300489211300999,-0.0014598374001954459,-0.5231008522573533,0.0022363978735463314,0.8522666048643153,0.10968389147415969,-0.8135904223748756,0.841138884119707,-0.0279164014164206,-0.8206065410147787,0.9026669226478362,-0.040883675821767995,0.6599749819344886,1.0371934108124978,-0.045672550965469114,0.6656428057943643,0.9732807557491794,0.0,0.0,0.0,0.0
0.007630543022336124,0.06682318925566015,0.7298443017581137,-0.0016460391906521665,-0.5230797448497065,0.002482351782072084,0.8522785395705905,0.11642348874554227,-0.8114307169471204,0.8400669016629645,-0.03104484723974155,-0.8223851999429422,0.9067081435805174,-0.04553334629786417,0.6614221253291057,1.0410072153911372,-0.049863064212004524,0.6675200826582967,0.9708911690034313,0.0,0.0,0.0,0.0
0.008576347089710239,0.06793559638808724,0.7296130171422325,-0.001872161581664243,-0.5230409172795268,0.002773491139864399,0.8523010041113998,0.1228136783725083,-0.8086375437574341,0.8392312943921488,-0.03460926934615213,-0.824462660629343,0.9113897653470836,-0.05065096111385742,0.6630534585900952,1.045201917794691,-0.054417390054045604,0.6697108479397939,0.9681343644628061,0.0,0.0,0.0,0.0
0.009667591180079427,0.06921195627379817,0.7293549788586295,-0.002153194305913715,-0.5229750962607239,0.003128691956214721,0.8523395002767445,0.12885980373241776,-0.8054517137498077,0.8384001308980327,-0.03875810529409753,-0.8268397665182193,0.9167698269025942,-0.05632752065721705,0.6648991138268182,1.0498203824886954,-0.05939573183583548,0.6723257412678235,0.9648259329589504,0.0,0.0,0.0,0.0
0.0109418027589491,0.07068592965408463,0.7290704381251925,-0.0025118587714958807,-0.5228776977132042,0.003574997912664662,0.8523965175841437,0.13466777969066396,-0.8019541986725996,0.837297639634594,-0.04364638954361569,-0.8295275150686025,0.9229864088256883,-0.06251759776992495,0.6670141579263206,1.0548650107663675,-0.06473021273819143,0.6755655013921081,0.9607948724541213,0.0,0.0,0.0,0.0
0.012453931543858883,0.07237401533309451,0.7287620224583472,-0.0029787962461436668,-0.5227486990334066,0.0041463482947777085,0.8524715433535733,0.14053622164424098,-0.7979913471215707,0.8354896456080088,-0.04940283602193557,-0.8325894485159875,0.9303387314224342,-0.06895005725966838,0.669494082004556,1.06023730373882,-0.07015491640126845,0.6797474483313338,0.9558998465497112,0.0,0.0,0.0,0.0
0.01421910558307048,0.07428392309201128,0.7284437319885249,-0.0035753493018148026,-0.5225800834588832,0.004870195877718844,0.8525687974829887,0.14692880265901184,-0.793319845715864,0.8323621421302378,-0.05612212928891896,-0.8359258735796214,0.9387967017110408,-0.07536184384154794,0.672360021561233,1.0657399301041013,-0.07542322580472542,0.6850902981190607,0.9499328258531092,0.0,0.0,0.0,0.0
0.01618488821671566,0.07638186335368297,0.7281335888757424,-0.004302825244693478,-0.522366663555287,0.005745020910965007,0.8526907699956436,0.15439374331876027,-0.787612862482587,0.827026291117203,-0.0637198903427908,-0.8392529185217895,0.9478850617660287,-0.08146368940608407,0.6755015838145277,1.0711253900482431,-0.08028166106794657,0.6915578162042233,0.9428494542723828,0.0,0.0,0.0,0.0
0.01826479590787424,0.0785201814439815,0.7277750728529494,-0.00516007488811562,-0.522144103108444,0.006769501157133021,0.8528147999831565,0.16391025105185678,-0.7801718465085855,0.8179762534455249,-0.07181390709020763,-0.842445323464188,0.9571877382555394,-0.08604742535688083,0.6783479124815153,1.0765837669523006,-0.08373751379524397,0.6987664982921827,0.9358938036162694,0.0,0.0,0.0,0.0
0.02027345360996832,0.08037034977131886,0.7271679253250084,-0.006114395266856889,-0.5219820043090085,0.00786176155260231,0.8528983491913681,0.17598923074374984,-0.7698792212448154,0.8025201114612674,-0.07934729884076888,-0.845908129259639,0.9663585481854389,-0.08720507157068694,0.6795177745120985,1.0832961307525835,-0.08429250604067774,0.7051549554861088,0.9325646611042069,0.0,0.0,0.0,0.0
0.022014210160162574,0.08165423845783977,0.7263901031783264,-0.007102152490889631,-0.5217982581489441,0.008839359563083684,0.8529935538708593,0.18965070272730014,-0.7543872234423404,0.7756930691463516,-0.0851193549703969,-0.8502186340858858,0.9755309397310343,-0.08408969125952742,0.6786252232073281,1.090068472187764,-0.08134922741515851,0.7098311776384634,0.9332372026655307,0.0,0.0,0.0,0.0
0.023038858187996624,0.08220304785636535,0.7256907616488865,-0.008029319706676188,-0.5215418821737814,0.009512686396575239,0.85313486856487,0.2025659231547097,-0.7319617626614082,0.7328040613229871,-0.0881210401641361,-0.8539527380435085,0.981914895585816,-0.07692523208154048,0.6754025276389098,1.0950199544995827,-0.07512416897548702,0.7119775582482906,0.9366279067419444,0.0,0.0,0.0,0.0
0.023087148577084052,0.08225866172280799,0.7256658176209433,-0.008092039731427185,-0.521519411850296,0.009511300094234414,0.8531480276756337,0.20258444656544586,-0.73191806496512,0.732799047198381,-0.08826342242095407,-0.8539848510515109,0.9819635215397048,-0.07695803234495306,0.67539112370853,1.0952115385196153,-0.07506294304939157,0.7120692035727434,0.9364873141502387,0.0,0.0,0.0,0.0
0.023087148577084052,0.08225866172280799,0.7256658176209433,-0.008092039731427185,-0.521519411850296,0.009511300094234414,0.8531480276756337,0.20258444656544586,-0.73191806496512,0.732799047198381,-0.08826342242095407,-0.8539848510515109,0.9819635215397048,-0.07695803234495306,0.67539112370853,1.0952115385196153,-0.07506294304939157,0.7120692035727434,0.9364873141502387,0.0,0.0,0.0,0.0
0.022906077608613212,0.08297182811412011,0.7270817037869999,-0.006794309454713745,-0.5209918197847077,0.008341385646569702,0.8534938677939915,0.2029479683096882,-0.7269652553435751,0.7314433835383793,-0.0876747485190128,-0.8540895779797208,0.9818867746772569,-0.10148608185654678,0.6860553599421402,1.0857989446168894,-0.05061972206035795,0.6997966356818774,0.9653934246817591,0.0,0.0,0.0,0.0
0.022773855057267083,0.08397263480803736,0.7287130154394,-0.005927366838171473,-0.5205971203257567,0.007514608275045388,0.8537488127624939,0.201911798124535,-0.7237167312687751,0.733015333965895,-0.08841834693235656,-0.8508491715435637,0.9789368760549005,-0.12246193371210207,0.6966205678030803,1.0748769672692662,-0.028474909017853378,0.6926327027163253,0.985396187817044,0.0,0.0,0.0,0.0
0.02271569778319108,0.08513201702319025,0.7302060870626713,-0.005430753323838223,-0.5203489909676309,0.00702187035178927,0.8539075639986254,0.19986118496543664,-0.7226290528979662,0.7371812294461366,-0.09023329369469031,-0.8458550274092985,0.9743092602796856,-0.13944282838733263,0.7058118619998897,1.0651654718103358,-0.01198176877376872,0.6886553074465874,0.999272009707701,0.0,0.0,0.0,0.0
0.022718620424171516,0.08635005137507315,0.7315013226186129,-0.005167343078210042,-0.5201851499348736,0.0067462219694421535,0.8540112392948257,0.1972921513728524,-0.7231872624586992,0.7430407814046479,-0.09264595910582311,-0.8402922112670476,0.9690511809632444,-0.1535854629967997,0.7136617152506632,1.0570467153057717,0.0007582857496103851,0.686680288727097,1.009598931673653,0.0,0.0,0.0,0.0
0.022758893856489073,0.08755824800815615,0.7326110415782972,-0.005035211085693116,-0.5200554737856963,0.0065913705158994005,0.8540922108704537,0.19456036568919752,-0.7247845270251891,0.7497347754994739,-0.09528724704005788,-0.8348312465107318,0.9637747827080184,-0.1658166824765495,0.7203720025746881,1.0503373549030708,0.011420264048155056,0.6858912144575624,1.0178764370678386,0.0,0.0,0.0,0.0
0.022738576389471316,0.08865985817446129,0.7335615447104529,-0.0049419854657857705,-0.5199355983548258,0.006472531720089343,0.8541666445584243,0.19201588429641525,-0.7261651378398242,0.7553086955182408,-0.09772577973730526,-0.8296702658370688,0.9583877290536752,-0.17654599649540942,0.7259092159252964,1.0447457342800128,0.021235085777463115,0.6855052222935355,1.0248337382235613,0.0,0.0,0.0,0.0
0.022658944245878235,0.08965638274240724,0.7343805977434867,-0.0048622143583992705,-0.5198133940716299,0.006366639503026144,0.8542422724945797,0.18969876637695177,-0.7272543918160467,0.759774378760585,-0.09992223375045942,-0.8248880950645988,0.9530159522239926,-0.18611160379920555,0.7304579727556335,1.0400552829188079,0.030747223778664914,0.6852286909085823,1.0309809411419493,0.0,0.0,0.0,0.0
0.022533243666158814,0.09056741253022542,0.735095448325971,-0.004787448482275795,-0.5196859338645491,0.0062665636331590046,0.8543209822195594,0.18757699175168144,-0.7281210836927305,0.7633799892270038,-0.10191486242560974,-0.8204557415031942,0.947711847464833,-0.19478947722604764,0.7342266211570123,1.036077057748902,0.04019849349029563,0.6849302051460472,1.0366296595593498,0.0,0.0,0.0,0.0
0.02236979491779197,0.09141410077611914,0.7357274010494812,-0.004714767784341733,-0.519552071312875,0.0061696583190480265,0.854403506240153,0.18560486643233484,-0.7288314678291509,0.7663303270248751,-0.10375274467418787,-0.8163046721833245,0.9424527138896127,-0.20279947089440792,0.7373694003004023,1.0326767877156422,0.04969453520876704,0.684564013877168,1.0418863477512321,0.0,0.0,0.0,0.0
0.022168731516418367,0.09221640906145126,0.7362901702468886,-0.004643084448522286,-0.5194096281242012,0.006074937668923893,0.8544911790714996,0.18373465902996758,-0.7294337872954195,0.7687497036244166,-0.10548403333951431,-0.8123529082884703,0.9371516000654525,-0.2103170499593263,0.7399661775763475,1.0297876853693055,0.05929993228965335,0.6841418197318695,1.0466638714634626,0.0,0.0,0.0,0.0
0.021921374055614014,0.09299448978559284,0.7367905821465145,-0.004571059057400352,-0.5192540942937889,0.005981146193463003,0.8545867521021159,0.18191708640214496,-0.7299602366062563,0.7706880879414779,-0.10715596037317081,-0.8085107328075447,0.9316580763258199,-0.2175089787649755,0.7420277450907937,1.0274100526282384,0.06909636636297496,0.6837367952300878,1.050653940284322,0.0,0.0,0.0,0.0
0.021610815302192943,0.0937711126764675,0.7372316069790705,-0.00449556641384884,-0.5190773725228137,0.005885183212411662,0.8546951712955836,0.18009875219645333,-0.7304319112984341,0.7721413666890643,-0.10881789789856441,-0.8046790700792799,0.9257591876786011,-0.22457176437067555,0.7435151976083647,1.025589033092712,0.07921992423353097,0.6835310197977988,1.053247290099983,0.0,0.0,0.0,0.0
0.021217380615218148,0.09457361512916712,0.7376209985301605,-0.004412532083817573,-0.5188679692844631,0.0057832389159117184,0.8548234403424301,0.1782157911739212,-0.7308716925188153,0.7731106046420612,-0.11052848918409196,-0.800735880582337,0.9192023712661702,-0.23172847833928548,0.744393369565482,1.0243327262997048,0.0898519534943599,0.6839116395282926,1.0534581255781015,0.0,0.0,0.0,0.0
0.020730951453940584,0.09543503295543944,0.7379849672191309,-0.004322529966409836,-0.5186158314559673,0.005675150062734111,0.8549776182858184,0.17618473043850644,-0.7313236680658045,0.7737073430390751,-0.11236521359028556,-0.7964998199322751,0.9117393788656276,-0.2391732666235929,0.7447305954581278,1.0234783543227899,0.10096002750754915,0.6848709115408661,1.051254971404949,0.0,0.0,0.0,0.0
0.020159528697781415,0.09640331936576226,0.7383685340696127,-0.004232611701722518,-0.5183077122829054,0.005566865237022198,0.8551656040777577,0.1738799571625785,-0.7319674870177918,0.7743343764017284,-0.1144556823513986,-0.79175890467924,0.9031783019794474,-0.2471183353609468,0.7447164832841005,1.0226900079883687,0.11234344037781557,0.6860348345986675,1.0475817572904098,0.0,0.0,0.0,0.0
0.01949320346750707,0.09751680131080885,0.7388247925422087,-0.004139361432922373,-0.5179236907541045,0.005452006680097188,0.8553994341041702,0.171217570095325,-0.7328101998216612,0.7751190953059217,-0.11687300375941748,-0.7862925679232758,0.8932495749437297,-0.2557960195911755,0.7445182382697585,1.021542264909466,0.12391631898581058,0.687183919977992,1.0430152326198256,0.0,0.0,0.0,0.0
0.01871266095101784,0.09881357333434065,0.739406317601732,-0.0040303824170166485,-0.517432339501126,0.005314127043460293,0.8556981302478871,0.16813474271028225,-0.7338318673076553,0.7761122151960562,-0.11966906646906499,-0.7799291221424373,0.881669851964931,-0.26550112927564834,0.7442556607360205,1.019595857953842,0.13583128470530828,0.6881750096086465,1.0379001861792483,0.0,0.0,0.0,0.0
0.017795903881886854,0.10032964752546185,0.7401597611555475,-0.003882902831697027,-0.5167895970395205,0.005125400039602525,0.8560882931869607,0.16460047291183671,-0.7350334208181472,0.7773571691981749,-0.1228705057064548,-0.7726100964405689,0.8682291574900639,-0.276585791572371,0.7439975014132034,1.0164229374421878,0.1486537731973077,0.6888899251138221,1.032507919518405,0.0,0.0,0.0,0.0
0.016720548247527483,0.10208249870405785,0.7411132055060621,-0.003657538407625358,-0.51593875655518,0.0048400530635981385,0.8566039900580857,0.16067071974429198,-0.736404304028415,0.7788127175769467,-0.1264286867826333,-0.7645184103681414,0.8529371472446936,-0.2894047514900652,0.7437189877700964,1.0116699534307267,0.16370107537320167,0.6892542070143762,1.0271705992649418,0.0,0.0,0.0,0.0
0.01547274273339722,0.10404453057657974,0.7422417370669437,-0.0032920734849722307,-0.5148111532724821,0.004391955114017022,0.8572860371245428,0.15656244946679726,-0.737971224178202,0.7803368335482859,-0.13016327356683785,-0.7563414508000809,0.8363357629078783,-0.30417864611229456,0.7431706581902806,1.0052909808363053,0.1837130183195081,0.6894310969293065,1.0224556169251,0.0,0.0,0.0,0.0
0.014061301746452794,0.10606851646921375,0.7433999790443211,-0.0026945498420437174,-0.5133401132531243,0.0036805775310212504,0.8581731298959764,0.15287775403280468,-0.7397167009711637,0.7814215085405911,-0.1335630296387655,-0.7497995523202342,0.8201693841077361,-0.3206925836096685,0.7416631767584999,0.9980249520287252,0.21361681772126892,0.6902936832755553,1.019289615102116,0.0,0.0,0.0,0.0
0.012553193499317024,0.10780696415187371,0.7441467783579722,-0.0017385646470420995,-0.5114128207769776,0.002468902209617702,0.8593298602165425,0.15112881437266307,-0.7421397111192269,0.7815786385916821,-0.13538040993584283,-0.7492530007337123,0.8091050171360326,-0.3387484428135934,0.7374555895769156,0.9928460519729095,0.2602128075193379,0.6942808020668069,1.01803918922356,0.0,0.0,0.0,0.0
0.011019716414824639,0.10917209136166814,0.7438818154370355,-0.0006338406189201742,-0.5090756185827348,0.0010328579813467316,0.8607209454957316,0.15107998540800788,-0.7480566650822357,0.7828546252805948,-0.13607499264627151,-0.7562434034181693,0.8045858702896372,-0.3546571897437868,0.7271985854569584,0.9951097836549124,0.32059398350835866,0.6996213024181672,1.0202866211245802,0.0,0.0,0.0,0.0
0.009734751144433052,0.11009926547452188,0.7425852978590756,0.00029686360367144044,-0.506496175531467,-0.0003369437294116284,0.8622420904322181,0.15244836124320532,-0.7590066968483263,0.7879542017268166,-0.13601453160944596,-0.7702975725916528,0.8077437061706012,-0.36514607366845264,0.7114429966242595,1.0049382224659562,0.3846033775762527,0.7019327167862507,1.0275666009709403,0.0,0.0,0.0,0.0
0.009743560670195564,0.11013488280860924,0.7425547240083907,0.00034786332411584393,-0.5064957191470485,-0.00037727379707301373,0.8622423227499935,0.15246817268159854,-0.7590210504496671,0.7879974383381412,-0.136013994694845,-0.7703782116307256,0.807621493849317,-0.36519093254900714,0.7113685359265229,1.004826018317431,0.3846403689870804,0.7019298230263024,1.0275667363095378,0.0,0.0,0.0,0.0
0.009743560670195564,0.11013488280860924,0.7425547240083907,0.00034786332411584393,-0.5064957191470485,-0.00037727379707301373,0.8622423227499935,0.15246817268159854,-0.7590210504496671,0.7879974383381412,-0.136013994694845,-0.7703782116307256,0.807621493849317,-0.36519093254900714,0.7113685359265229,1.004826018317431,0.3846403689870804,0.7019298230263024,1.0275667363095378,0.0,0.0,0.0,0.0
0.00972842588220076,0.11046515664241369,0.7430698661163871,0.0004069495437877474,-0.5079752369820792,-0.00041332706426134804,0.8613714774508192,0.15110555758744565,-0.7495413170820528,0.779780370677367,-0.13622278014759298,-0.758991835687936,0.7961640418281128,-0.3736276307046676,0.7195991504534798,1.003937754178289,0.38751569749568326,0.7095809432523674,1.0255087995023684,0.0,0.0,0.0,0.0
0.009665457801785083,0.11080921888722206,0.7434503346631045,0.00036954705999721126,-0.5089332413654187,-0.0003458878940504549,0.8608058431666362,0.14970483209085853,-0.7436981260584211,0.7747243387237194,-0.1368449071010396,-0.7503066895328552,0.7868785717298186,-0.3791407356753261,0.7248814802036021,1.0032196017509503,0.3894928623681105,0.7148061664887884,1.0234839884402391,0.0,0.0,0.0,0.0
0.009609298440372678,0.11109188882146191,0.743704948590587,0.0002948664464900045,-0.5095349900736007,-0.0002372497010188747,0.8604498536562452,0.14852386387243077,-0.7403377058472509,0.7718928237978637,-0.1375269961846119,-0.7441889509131346,0.7801391289078423,-0.38235672822418393,0.7280926615867909,1.0027628492477203,0.39105963642393404,0.7182817675889854,1.0219395272414253,0.0,0.0,0.0,0.0
0.009697371770259847,0.1115271524853913,0.7438148523307178,0.00017235364837449286,-0.5099088688349541,-8.019073888548809e-05,0.8602284053361194,0.14702715386961462,-0.7403381552783425,0.7733425917837438,-0.13880917114814637,-0.7399564272076069,0.7755441619387954,-0.3856558403138383,0.730257797246618,1.003373590752638,0.39164855340262766,0.7208175406227033,1.0207795471052454,0.0,0.0,0.0,0.0
0.00994593888770843,0.11225435865839777,0.7436748526134855,-1.0932851752892126e-05,-0.5101591371269003,0.00014312298019368368,0.8600800161625788,0.1448210539594251,-0.7440630923047198,0.7796478242261713,-0.14105858359530096,-0.7368861671015334,0.7720091370084615,-0.39062229603207643,0.7314681774974836,1.0065516751994963,0.39108240289936697,0.7224084362938358,1.0209062515839198,0.0,0.0,0.0,0.0
0.010435270217566208,0.11335173673135815,0.7430797630253086,-0.0002563103357265914,-0.5103772623155138,0.00039710225910968556,0.8599504792289663,0.14183017273720114,-0.752208258090277,0.7917313411712837,-0.14440166408554578,-0.7353226819325726,0.7697940227915427,-0.39925986345927506,0.7317323023810003,1.014511889455453,0.3894449837151994,0.7227432163690096,1.0241613879586706,0.0,0.0,0.0,0.0
0.01118209159947953,0.11482363625124938,0.7416360564894449,-0.0003590517288997421,-0.5108814775173325,0.0004517140204143993,0.859650965779721,0.13845043838606225,-0.7632336361794259,0.8074341597239595,-0.14837481784641596,-0.7355803293300885,0.7685579413139467,-0.41757414122581077,0.7318087366765309,1.0315851885120202,0.3856366338370582,0.7207905142776575,1.0347527102586582,0.0,0.0,0.0,0.0
0.012709527412092242,0.11684746325395484,0.7421780844223781,0.0009793997696853525,-0.512477771798755,-0.0012122850919996648,0.8586990768325828,0.13677707243696013,-0.7608667809662004,0.8183425105907259,-0.14978221022381413,-0.7317287509100222,0.7683338044174279,-0.33369790468687677,0.7190097161618892,1.0225850740328077,0.35732670921531473,0.728059851248271,1.026779094177333,0.0,0.0,0.0,0.0
0.014395787976462262,0.11916068133892481,0.7417668880100996,0.002308264758908174,-0.5142328459700966,-0.0028713574856206996,0.8576427037790781,0.13449657915250238,-0.7622927774838193,0.8328173588346983,-0.15208743580063486,-0.7298324636537106,0.7687437362885736,-0.2566656232816495,0.708301996483881,1.018913588058256,0.32709415193196656,0.7316308614303528,1.026464039554661,0.0,0.0,0.0,0.0
0.016121965515503236,0.12147753445532145,0.7409814433126904,0.0031070400037866673,-0.5156206973696312,-0.0039057120762934464,0.8568024207246657,0.13110280957996706,-0.7694008435246195,0.8521923046216496,-0.15585320635895855,-0.7291331068471374,0.7701750872306408,-0.20537802084123563,0.702382397462423,1.01940073072115,0.30261494046317844,0.7338880339361427,1.0283712062778922,0.0,0.0,0.0,0.0
0.01767282951497417,0.123549694594144,0.7401613312571322,0.0035367024903894865,-0.5166511442511695,-0.00449536628115374,0.8561768967692657,0.12745018373916123,-0.7783391392012696,0.8715476759309826,-0.15998926464580754,-0.7288333299807214,0.7716914567382231,-0.17290232153780175,0.6991857684107498,1.022364157426902,0.2836727852660279,0.7355310587452709,1.0304498783042895,0.0,0.0,0.0,0.0
0.01896033244541301,0.12529767509586198,0.7394466641012257,0.0037681612377165816,-0.5174081474403215,-0.004830019578007383,0.8557168228065504,0.12403989762223168,-0.7868326849768332,0.8883827751612939,-0.16385006723380285,-0.7285276389357881,0.7727722327222505,-0.15120660171817762,0.6971464661241978,1.0265117779490245,0.268960837014964,0.7367699814486294,1.032061398776029,0.0,0.0,0.0,0.0
0.019989441291591616,0.12673427570422366,0.738880125335956,0.003909237787661062,-0.5179716075299955,-0.005035504213313302,0.8553740558083519,0.12107415701287182,-0.7940189195276514,0.9021299595429102,-0.16718091320888412,-0.7280991921733482,0.7733477895011877,-0.13500082826608822,0.6954894846278553,1.0311019861810735,0.2572199557050894,0.7377228315703026,1.0330364943337436,0.0,0.0,0.0,0.0
0.020809903610559212,0.1279085351941141,0.7384599249271188,0.004017217383223022,-0.5184024025336621,-0.005182704584976945,0.8551116597176113,0.11858288668910351,-0.799795606432957,0.9131429887032121,-0.16995140324410024,-0.7275836633450798,0.7735947805757369,-0.12133318317835773,0.6939202978982139,1.0357443169969116,0.2475030543738094,0.7385103891434079,1.0333681505678924,0.0,0.0,0.0,0.0
0.021474398144007614,0.1288804336544744,0.7381610158181324,0.004118392068859364,-0.5187438192191596,-0.00530819837224455,0.8549033348272352,0.11650675878750315,-0.8043641329178978,0.922013907037508,-0.17223705562704522,-0.7270254735059678,0.7736531573032688,-0.10874605068749736,0.6923396275290739,1.040223942643944,0.23911613881913987,0.7391915059803843,1.0331602515844087,0.0,0.0,0.0,0.0
0.022029797304156818,0.1297051747220584,0.737947119401907,0.004223070967458346,-0.5190256766898916,-0.005429809172366001,0.8547309692415243,0.11476074732257908,-0.8080313361064132,0.9293432423808136,-0.17414473821983775,-0.7264877653486084,0.7736438058476582,-0.09659070441638087,0.6907312617923457,1.0443907934711532,0.23158082625501752,0.7397741852802178,1.032596031231742,0.0,0.0,0.0,0.0
0.02250895696229658,0.13043246826813695,0.7377762174671137,0.004333023176653678,-0.5192680108126084,-0.00555388569197927,0.8545824197879265,0.11324680599337913,-0.8111157682632025,0.935632955999329,-0.1757915858099247,-0.7260050765224777,0.7735895344242929,-0.08463191159325667,0.6891143302744089,1.0480590407576615,0.22455281246437428,0.7402001128377662,1.0319189940997633,0.0,0.0,0.0,0.0
0.022922200712105417,0.13111183907169796,0.7376036762522853,0.0044444524215108685,-0.5194841976685693,-0.005677077859514431,0.8544496392428829,0.1118405983621759,-0.8138965890008228,0.941221117069447,-0.17730993992966562,-0.7255019293176869,0.7732829962824999,-0.07285559573067277,0.6875306051664004,1.0508973002990922,0.21774694554660373,0.7403249059090247,1.031414566557647,0.0,0.0,0.0,0.0
0.023276043049623645,0.13177400790212396,0.7373847180346695,0.004552963635406143,-0.519680931330316,-0.005796385434189169,0.8543286264955005,0.11046679183795416,-0.8166143845517432,0.9463522914192634,-0.17878604601728,-0.7249885873446559,0.7726262164371124,-0.061399097605191494,0.6861543609652802,1.0523444401725706,0.21102124034914763,0.7399874238918343,1.031410053894799,0.0,0.0,0.0,0.0
0.02357202767755865,0.13243937664297561,0.7370829691442704,0.004653888580024259,-0.5198610456563253,-0.005908238264833624,0.854217728246612,0.10907292439141436,-0.8194513750000778,0.9511838852965551,-0.18028050388649763,-0.7244788220475412,0.7715359453000904,-0.050489917385839106,0.6853757847213361,1.0514841829811366,0.20430554830743083,0.7390439606865572,1.0321830246029213,0.0,0.0,0.0,0.0
0.023817083124143205,0.13312433710356783,0.7366824075604155,0.004745970413048753,-0.5200285038568229,-0.006011485808568408,0.8541145666593247,0.10761804462702709,-0.8225198681199224,0.9558566041157999,-0.18183880458709925,-0.7239688953688945,0.7699784920688211,-0.04014626982198184,0.6852059247343946,1.0483501400273012,0.19750857432536098,0.7374525268938162,1.0338289260892572,0.0,0.0,0.0,0.0
0.024023740964716045,0.1338441263425365,0.7361851969990714,0.004831567048108272,-0.5201886442859355,-0.006107823745262147,0.8540158808856642,0.10606682241867281,-0.8258755219315004,0.9605101439282463,-0.18349767338845882,-0.723435263488336,0.7679582592301627,-0.030155087787905495,0.6852735197033374,1.0439089195773466,0.1904876874943425,0.7352594938350704,1.0362717938314059,0.0,0.0,0.0,0.0
0.024198086214445073,0.13461292779939166,0.7355965258363037,0.004913316529884025,-0.5203433104238494,-0.006199284076374397,0.8539205276223116,0.10438598056901854,-0.8295487709980007,0.9652315941290387,-0.185288830189942,-0.7228344007402286,0.7654327081223666,-0.02034671263717988,0.6854223356495354,1.038719770174001,0.1830796581713383,0.7324859831707456,1.0394104320423698,0.0,0.0,0.0,0.0
0.02433239313335995,0.13544632066758885,0.7349151084742681,0.0049943207537258266,-0.5204898078675939,-0.006288063957791685,0.8538301218145369,0.10253765798290441,-0.8335549782336302,0.9700199120999913,-0.18724436078066073,-0.7220898622361146,0.7622403090349585,-0.010599006872896628,0.6856123189172075,1.0330082230741544,0.17507831554677505,0.7290545366270073,1.0432060247289299,0.0,0.0,0.0,0.0
0.024399607940728194,0.13636618528814948,0.7341313751484588,0.005079601804700023,-0.5206218134416372,-0.0063780543884490535,0.8537484673113416,0.1004688940957771,-0.8378791274285162,0.9747522163532091,-0.18940304741523492,-0.721048349364791,0.7580106917915477,-0.0008032047547049323,0.6858559487311563,1.0267364065660722,0.16616806667613582,0.7247521517934483,1.0476916447775648,0.0,0.0,0.0,0.0
0.024374126807955115,0.13738438841317605,0.733230891654,0.005181825805214968,-0.5207308193298757,-0.006482015237550728,0.8536805877843426,0.09817258271276506,-0.8424808374737741,0.9792666340392057,-0.19176358519930817,-0.7196596050958779,0.7524941336361488,0.00926210831844947,0.686253311881462,1.019651871931793,0.15600579396022224,0.7193194843740239,1.0529534144013777,0.0,0.0,0.0,0.0
0.024240729862754027,0.13849048864432684,0.7321986284715665,0.005327390729786351,-0.5208080013167761,-0.006628450215639374,0.8536314827372382,0.0957349243202332,-0.8472532135258546,0.9833547264556204,-0.19424378423179256,-0.7180776580932786,0.7457453944835952,0.02005827296676335,0.687009687776932,1.0112580874560626,0.14424483345213418,0.7124948964442276,1.0591100634834312,0.0,0.0,0.0,0.0
0.024005214741303744,0.1396293793045263,0.731021799244758,0.005566189611334263,-0.5208427325026272,-0.0068773925276734635,0.8536067988274388,0.09343282238800724,-0.851963245461649,0.9867311474335915,-0.19659721053552465,-0.7168735501949846,0.7384560078206037,0.0324236445001756,0.6884621473304443,1.0007283131010203,0.13053595694293094,0.7040239357041258,1.066319473965848,0.0,0.0,0.0,0.0
0.023744939338679116,0.14067154363952675,0.7297076467788886,0.0059871665768481365,-0.5208149918135229,-0.007348876927976322,0.8536169469654165,0.0918897125348033,-0.8563072456618765,0.9893174125635873,-0.19829979302950707,-0.7175520037152459,0.7328590403655809,0.047787390837190656,0.6911683357883607,0.9867215658440907,0.11445611327023707,0.6938079774866459,1.0746048791326015,0.0,0.0,0.0,0.0
0.023469159389811693,0.1415421280177684,0.7283198298410294,0.006705689045975187,-0.5206838838032101,-0.008215337406672274,0.8536836856314629,0.09170352298962554,-0.8596314237715366,0.9906088152159302,-0.19880368880020077,-0.7212007946243142,0.730375850882383,0.06707813867367642,0.6956990941111506,0.9669238578054237,0.0943672537929858,0.681380722682935,1.0833532555400425,0.0,0.0,0.0,0.0
0.02321485420571681,0.14216218774793007,0.7271328018863563,0.007791776062455758,-0.5204353549942791,-0.009513140922360053,0.8538125260544979,0.09311159393866077,-0.8609211165727658,0.9901867847662048,-0.19783058491677674,-0.7278445267987862,0.7318885055197152,0.08728225841635928,0.7037605343849628,0.9389662151553502,0.07038218294100906,0.6679032326200632,1.0902815611693595,0.0,0.0,0.0,0.0
0.023225114988605404,0.14218174803504652,0.7271076281236875,0.007818962561350106,-0.5204489968400224,-0.009529302519333455,0.8538037818528175,0.09309390382478198,-0.8609280080840854,0.9902235464774478,-0.19784317994016318,-0.7278592307730711,0.7318143349095274,0.08728821977447501,0.7037605967276592,0.9389589736836297,0.0703783962263028,0.6678486576738959,1.0902686992905468,0.0,0.0,0.0,0.0
0.023225114988605404,0.14218174803504652,0.7271076281236875,0.007818962561350106,-0.5204489968400224,-0.009529302519333455,0.8538037818528175,0.09309390382478198,-0.8609280080840854,0.9902235464774478,-0.19784317994016318,-0.7278592307730711,0.7318143349095274,0.08728821977447501,0.7037605967276592,0.9389589736836297,0.0703783962263028,0.6678486576738959,1.0902686992905468,0.0,0.0,0.0,0.0
0.02224374136389493,0.1425128191788328,0.7277235732276123,0.006762029184704094,-0.5214140445189309,-0.008349022867336384,0.8532361706801208,0.08919837280974272,-0.8542583520125063,0.9805874951820184,-0.18237009025166456,-0.7518150215858511,0.7805346830044158,0.09987017013476869,0.7013556202870318,0.9360404015839958,0.08523865561164946,0.6753671773887749,1.0880379198908625,0.0,0.0,0.0,0.0
0.020474531901839645,0.14379092407207336,0.728475936761061,0.005847802029794611,-0.5220682991649604,-0.007237771916823089,0.8528529233555489,0.08290491663343552,-0.8473752928636388,0.9687802860221907,-0.16583607083508145,-0.768313390483976,0.8095390957674576,0.10350505666457202,0.6973357044522988,0.9363489961660499,0.08986389746602436,0.6780748393291182,1.0822752950211316,0.0,0.0,0.0,0.0
0.01838219700593781,0.14583687517586752,0.7291502554749645,0.0050103700385775544,-0.5224338088967115,-0.006198517845511623,0.8526425921159871,0.07487182479264791,-0.8423889667555851,0.9582282342688129,-0.1517551706534211,-0.7788212160004674,0.8252157175938781,0.10038903574106704,0.6919471417845667,0.9404737104095274,0.08607346902393519,0.6770404797290535,1.0746929532824494,0.0,0.0,0.0,0.0
0.016186639786097034,0.14831745258199736,0.7296351520377891,0.004234454682735615,-0.5226819423831294,-0.005269712496469983,0.8525009598999543,0.0660850919131907,-0.8386874304863416,0.9486786358648871,-0.14126912637570482,-0.7859109848536967,0.8336903247741873,0.09320827044732319,0.6856337288875198,0.9480026601244833,0.07733042370304839,0.6737083470248377,1.067081459964816,0.0,0.0,0.0,0.0
0.014025024886463042,0.15086487078098693,0.7300111240311475,0.003544027257420637,-0.5228474923425437,-0.004482559112013335,0.8524070895327652,0.05755006378224098,-0.8353815635490272,0.9394952616827078,-0.13367938050084202,-0.7911027512233727,0.838185229651652,0.08424769592884987,0.6792966466602365,0.956511606789176,0.06676099141839922,0.6694496746567443,1.0596464925465643,0.0,0.0,0.0,0.0
0.012012465552080452,0.15320580046688337,0.7303993958386794,0.002957428938406508,-0.5229582056873725,-0.003824487638433991,0.852344614585334,0.04990471164497304,-0.8318212355953272,0.9303910347560842,-0.1274777473711787,-0.795318491958234,0.8406119621216324,0.07536523794010457,0.6738365181108693,0.9636869800224639,0.05668508006663983,0.6655726001571026,1.0520933919490119,0.0,0.0,0.0,0.0
0.010251715223527795,0.15525601512781737,0.7307742725290469,0.002475116549697788,-0.5230229819654334,-0.0032901960330645875,0.8523086346764974,0.04334815106058459,-0.8284300094391954,0.9221246726917792,-0.12190342426503221,-0.7989959239155621,0.8418639810451357,0.06720621163107329,0.6693618641428372,0.9694255312069702,0.04772882723061367,0.6623425722267926,1.044868948763087,0.0,0.0,0.0,0.0
0.00876959967069862,0.15700217543509656,0.7311084003043588,0.0020863458915367675,-0.5230605870687723,-0.0028604303823964563,0.8522881480779371,0.037851976459894,-0.8254445424654728,0.915028285395715,-0.1164266883256839,-0.802399436248833,0.8425411914705222,0.06004275679303443,0.665758432956821,0.9740095866203241,0.04006306008918429,0.659755178523945,1.0383568532960976,0.0,0.0,0.0,0.0
0.007550121981462391,0.15847463241345072,0.7313920595074711,0.0017739089079978011,-0.5230840012339216,-0.0025083275750083533,0.85227559462481,0.03325816068002703,-0.8229768219310677,0.9091933677594063,-0.11071059568655639,-0.8056408570863048,0.8429915241606512,0.053908982045980255,0.6628622740723421,0.9777292204671687,0.03362113722857292,0.6577323002752251,1.0326865806283925,0.0,0.0,0.0,0.0
0.006541084131425996,0.1597127116014561,0.7316290981900379,0.0015216508394882183,-0.5231000494190616,-0.002214046856216839,0.8522670478629433,0.02940701490331601,-0.8209271271223771,0.904356478753229,-0.1045992890920069,-0.8087302846355652,0.8434472017933304,0.04871779278300837,0.6604879809250528,0.9807913843809158,0.02824426542650226,0.6561265301138927,1.0278378126737637,0.0,0.0,0.0,0.0
0.005680183953136141,0.16075781001686434,0.7318285748500317,0.0013154661641767468,-0.523113058954495,-0.001962144330411214,0.852260023167618,0.02614909330768675,-0.8191094722954306,0.9001203734961676,-0.09804434985840245,-0.8115522499501209,0.8441094540272934,0.04433751926279791,0.6584598401554652,0.9833506325824698,0.02375608708076067,0.654789330041501,1.0237162327253722,0.0,0.0,0.0,0.0
0.004940964860784571,0.16166475378651446,0.7319964102200064,0.001142994185255195,-0.5231221386098417,-0.0017409958835585314,0.852255179270793,0.023316460607991432,-0.8175678328731498,0.8964929278825544,-0.09111833924962194,-0.8137882699701445,0.8451113465887679,0.04053045185282601,0.6566990083866903,0.9855809473093959,0.019882630360140704,0.6536527544227893,1.0201462614363597,0.0,0.0,0.0,0.0
0.004296116317634357,0.1624777419974695,0.7321391631198063,0.0009946243302630974,-0.5231298765286725,-0.0015422531710675112,0.852250998509649,0.02077647772832831,-0.8162746904807618,0.8933918004300758,-0.08388642683194791,-0.815140755861075,0.8466232155589308,0.03709873574232262,0.6551454230992535,0.9876144097300001,0.016407667552505716,0.6526666191691246,1.0169752405355807,0.0,0.0,0.0,0.0
0.003722291852885253,0.16322747085214256,0.7322621352617678,0.0008633389041295727,-0.5231368286918899,-0.0013594965334900251,0.8522471853173258,0.01843585774768453,-0.8151924411577008,0.8907199562033038,-0.07641353154853277,-0.815591880499504,0.8486295793828937,0.0339104015137693,0.6537434633154484,0.9895346491810647,0.013192164989223569,0.6517883874813378,1.0140901249100238,0.0,0.0,0.0,0.0
0.0032016447199547807,0.16393307081214545,0.7323692235615098,0.0007442232776950396,-0.5231419518645641,-0.001187658862960966,0.8522444096604401,0.016233967386151658,-0.814288542802761,0.8883916676694171,-0.06875600501917122,-0.8154043352834431,0.8509389745479468,0.030892471309501828,0.6524448987439276,0.9913865971530742,0.01016141699830075,0.6509853832048781,1.011415561886241,0.0,0.0,0.0,0.0
0.00272026836836952,0.16460853874592724,0.7324647342951224,0.0006335270137573615,-0.5231457027981071,-0.0010228412061103042,0.8522424103993326,0.014126002127347617,-0.8135226764303338,0.8863259598854859,-0.06094980351107538,-0.8148528921215975,0.8533926787293952,0.027994395053610007,0.6512215161293926,0.9931921849347729,0.007264054007438925,0.6502429696362924,1.008885950836788,0.0,0.0,0.0,0.0
0.0022669225199281914,0.16526445652333613,0.7325526957089558,0.0005284410205696011,-0.5231488066480485,-0.0008619452127196425,0.8522407546598911,0.012077722116633329,-0.8128554064754472,0.8844501787646353,-0.05299689611403671,-0.8141270174025468,0.855897563406299,0.025178978994428544,0.6500543244258435,0.9949618394293799,0.004462579772197487,0.6495535574458674,1.0064456766715912,0.0,0.0,0.0,0.0
0.0018328426175369616,0.16590714184858688,0.7326364509810992,0.0004272334175295891,-0.5231516529270733,-0.0007025881873769387,0.8522392104809053,0.010067243343820562,-0.8122503158498157,0.8826993071287479,-0.04485185862362287,-0.813324664630091,0.8584158636942973,0.02242737616125265,0.6489290364092215,0.9966944223110138,0.0017383620060585493,0.6489124823514689,1.0040550932732004,0.0,0.0,0.0,0.0
0.0014122258522273493,0.1665364832372991,0.7327186769386351,0.0003295401221166651,-0.5231542421484319,-0.0005433652518211289,0.8522377808332665,0.008090992617602249,-0.8116711273240688,0.8810127521184729,-0.03642178917630805,-0.8124822851451465,0.8609480611147893,0.01975011797191091,0.6478374835672893,0.9983695494790293,-0.0008977351329350985,0.6483188843236061,1.0016973647267202,0.0,0.0,0.0,0.0
0.0010033683097391247,0.16714295250041683,0.7328015950056718,0.00023673347981023818,-0.5231564816189326,-0.00038463491447473684,0.8522365233626998,0.006173118454599463,-0.8110768592400075,0.8793319402221487,-0.02760023487242594,-0.8116150564546271,0.8635202617215625,0.01720001633095488,0.6467837524142648,0.9999361820558968,-0.003393423462122918,0.647779058511248,0.9993862352094597,0.0,0.0,0.0,0.0
0.0006109531299266667,0.16770429041180498,0.7328870238843966,0.0001522635846634534,-0.5231587655930596,-0.00023003133445580702,0.852235196342261,0.004377726705916957,-0.810420359423081,0.8776067448185702,-0.018369194841890587,-0.810759081040834,0.8661771392131001,0.014882874414756029,0.645795219901979,1.0013021025298223,-0.005645806367161383,0.6473112108043401,0.9971755477184229,0.0,0.0,0.0,0.0
0.0002503164503458558,0.16818311440903377,0.7329756463192543,8.181121588706816e-05,-0.5231627740991158,-8.897166844349451e-05,0.852232771716674,0.00282159199611768,-0.809659942669958,0.8758253623963418,-0.009013933268874903,-0.8100130633441798,0.8689751271365755,0.012956788279782088,0.6449387702591984,1.0023336255681392,-0.007503814879338922,0.6469498814365169,0.9951707985646996,0.0,0.0,0.0,0.0
-4.611990554992493e-05,0.16852850545009798,0.7330636462941769,3.416322357367355e-05,-0.5231702865781832,1.4776208558496864e-05,0.8522281677204993,0.0016928443998079723,-0.8088028602024382,0.8740907303862437,-0.00046936406661313504,-0.8095819622259361,0.8719528076196693,0.01156173070717976,0.6443435142047774,1.0028932192371431,-0.008838935546085617,0.6467213456132384,0.9935385183543839,0.0,0.0,0.0,0.0
-0.00023119091109347292,0.16869181136511996,0.7331351601008421,1.7568927940962448e-05,-0.5231844655599212,4.619850779261103e-05,0.8522194626701565,0.0012044872474568078,-0.8079579993893055,0.8726699887356316,0.005438098203369884,-0.80983491709705,0.8750325237329892,0.010755166664813352,0.6441549789277875,1.0029631699184347,-0.009606968506456917,0.6466100445648014,0.9925287328473698,0.0,0.0,0.0,0.0
-0.00023126621701383536,0.16869317417783888,0.733134639157829,1.803413537380121e-05,-0.5231841299951886,4.728182288442119e-05,0.8522196686068544,0.0011988026269947468,-0.8079599092990978,0.8726686810507814,0.00544715015642664,-0.8098309744984588,0.8750342877871554,0.010752790855813215,0.6441502135833493,1.0029674764262628,-0.009605350271551204,0.6466129884279678,0.9925245337881184,0.0,0.0,0.0,0.0
-0.00023126621701383536,0.16869317417783888,0.733134639157829,1.803413537380121e-05,-0.5231841299951886,4.728182288442119e-05,0.8522196686068544,0.0011988026269947468,-0.8079599092990978,0.8726686810507814,0.00544715015642664,-0.8098309744984588,0.8750342877871554,0.010752790855813215,0.6441502135833493,1.0029674764262628,-0.009605350271551204,0.6466129884279678,0.9925245337881184,0.0,0.0,0.0,0.0
-0.00023126621701383536,0.16869317417783888,0.733134639157829,1.803413537380121e-05,-0.5231841299951886,4.728182288442119e-05,0.8522196686068544,0.0011988026269947468,-0.8079599092990978,0.8726686810507814,0.00544715015642664,-0.8098309744984588,0.8750342877871554,0.010752790855813215,0.6441502135833493,1.0029674764262628,-0.009605350271551204,0.6466129884279678,0.9925245337881184,0.0,0.0,0.0,0.0
-0.00019186828233467513,0.16875016546062646,0.7331250695139597,2.320435102671731e-05,-0.5232002808839279,3.691707268226308e-05,0.8522097536297427,0.0010799384824071538,-0.8082138956299294,0.8731863733282375,0.005327937545586486,-0.8098619339951618,0.8751620004826629,0.010278612865426357,0.6443197573528058,1.003261721992367,-0.010080875908128712,0.6466696411628612,0.9923990318702529,0.0,0.0,0.0,0.0
-0.00013821347563379124,0.16883133018697452,0.7331104463938519,2.018401477577717e-05,-0.5232218227245414,3.412639499358998e-05,0.8521965281863118,0.0008842328256568927,-0.8086104314492154,0.8739397558687657,0.005132209305245657,-0.8098717528051457,0.8753013633831909,0.009740372771207506,0.6445012064772899,1.00367529592553,-0.010622977003423377,0.6467761531696509,0.9922450341646941,0.0,0.0,0.0,0.0
-7.313276917404502e-05,0.1689358593989719,0.7330923104228888,1.2797014441751605e-05,-0.5232455224627243,3.553437361843304e-05,0.8521819769252665,0.0006205160106686628,-0.8091352177396358,0.8749024334032792,0.004868713450534837,-0.8098725796996754,0.8754521067766299,0.009097828717723123,0.6446992790270824,1.0041909109229015,-0.011269643562303039,0.6469107754234916,0.9920417243258433,0.0,0.0,0.0,0.0
2.035202036822063e-06,0.16907338439092925,0.7330719288545103,2.686260133785095e-06,-0.5232674041046731,3.9543695148656314e-05,0.8521685409768639,0.00026765135597348944,-0.8098186459214337,0.8761133063306352,0.004516313469738456,-0.809859320609924,0.8755899479187332,0.008264802996579371,0.6449170156083203,1.0048250145075306,-0.012104068196790597,0.6470558918025806,0.9917339479259532,0.0,0.0,0.0,0.0
8.62962048883438e-05,0.16926204055948396,0.7330503454115773,-9.10324311214749e-06,-0.5232807560495213,4.573704018005206e-05,0.8521603418215938,-0.00021999074679903064,-0.8107331124149564,0.8776651230028089,0.004029485303487938,-0.8098232323973078,0.8756766287866293,0.007107987948305774,0.6451506341423598,1.005618189639128,-0.013254605149093343,0.6471871010390778,0.9912340012355828,0.0,0.0,0.0,0.0
0.0001855506262261639,0.16953138277175966,0.7330266151249242,-2.8571431619228563e-05,-0.5232832619852815,6.388359110722623e-05,0.8521588014147382,-0.0009404141571770002,-0.8120196245691168,0.8797604719147507,0.0033104971136604525,-0.8097192067948131,0.875658094412036,0.005524767020175433,0.6453886474441762,1.0066590941032483,-0.014819493127991882,0.6473322577226315,0.9904471901535449,0.0,0.0,0.0,0.0
0.0003224021812779001,0.16991736151830145,0.7330122028162379,-0.00013299976377403695,-0.5233821079596284,0.0002693713181369576,0.8520980453081041,-0.0024147404466474346,-0.8135654033056907,0.8823925911250892,0.0018381152924385323,-0.8085254319442394,0.8747060888251679,0.004869389122512344,0.6455022428006543,1.0079712230619706,-0.015493287464493225,0.64841082841523,0.9895435617354373,0.0,0.0,0.0,0.0
0.0005721549629903303,0.17026834568939042,0.7329697648570831,-0.0001390021588279927,-0.5232780739916978,0.0002498660495129145,0.8521619420772653,0.006219519958105452,-0.8113412639816757,0.87582139110911,0.0010077351765573768,-0.8098049852251858,0.8766232664317705,0.0023968598878855362,0.6459760639496034,1.0091458845429861,-0.01791652383284054,0.6484892590577823,0.9882391722471671,0.0,0.0,0.0,0.0
0.0009344564766526332,0.1707151694727598,0.7329017128784667,-0.0002063778656500013,-0.5232392592634223,0.00036142146556986777,0.8521857217462435,0.01753252363250505,-0.8103558191384437,0.8707535688672371,-0.0003856514269784334,-0.8108527158529208,0.8787611920630622,0.0004831448993060205,0.6464669026189729,1.0107629753599274,-0.019806725061303754,0.6493080387384585,0.9870132188083433,0.0,0.0,0.0,0.0
0.001343991027305064,0.17124482810722927,0.7328228722534053,-0.0003016025271990423,-0.5232297455580712,0.0005237777776082456,0.8521914503537286,0.028789030452986093,-0.8102499689539173,0.8667991609871573,-0.002112467492784091,-0.8116814864072267,0.8808043232205381,-0.0015101658826088933,0.6470080346233774,1.012711890057497,-0.021778000618026445,0.6504191897071265,0.985662605594167,0.0,0.0,0.0,0.0
0.001767824396876546,0.1718313046391162,0.732740353583051,-0.00040419042278723775,-0.5232238413859445,0.0006974392520106328,0.8521949084651514,0.03907667349937156,-0.8106192372429903,0.8634608114885608,-0.004012316419518996,-0.8123965511554131,0.8827184177843136,-0.003792237527917154,0.6475884721586787,1.0148564842366252,-0.024021049517058243,0.6515820475010075,0.9841399715797452,0.0,0.0,0.0,0.0
0.002196209395970734,0.1724526109430235,0.7326556245076877,-0.0005066996796685194,-0.52321559784935,0.0008674966938393883,0.8521997587843287,0.04835943590575151,-0.8112088591747162,0.8604654847615618,-0.005993541949875,-0.8130622560162322,0.8845438240917279,-0.006360028895445868,0.6482101661239807,1.017119607512224,-0.026525532692051348,0.6527222091871961,0.9824870109612358,0.0,0.0,0.0,0.0
