zhuoxili-jackie/tripod-support-walk/examples/trajectory_tripod_reorder_v0.10.csv
root_pos_x,root_pos_y,root_pos_z,root_rot_x,root_rot_y,root_rot_z,root_rot_w,FL_hip_joint,FL_thigh_joint,FL_calf_joint,FR_hip_joint,FR_thigh_joint,FR_calf_joint,RL_hip_joint,RL_thigh_joint,RL_calf_joint,RR_hip_joint,RR_thigh_joint,RR_calf_joint,FL_foot_joint,FR_foot_joint,RL_foot_joint,RR_foot_joint
0.0,0.0,0.72963,0.0,-0.5231245161092812,0.0,0.852256264656019,0.0,-0.81,0.872,0.0,-0.81,0.872,0.0,0.65,1.0,0.0,0.65,1.0,0.0,0.0,0.0,0.0
2.5663057016145025e-05,-0.0003604975639601632,0.7295587376719789,-1.3207908549505931e-05,-0.5233143861370074,0.00011086184800642557,0.8521396838530928,0.0006186941074155783,-0.8085205003948339,0.869993338860655,0.0006186941074155769,-0.809894640085928,0.8724939072053023,0.003232948368416294,0.6497690390968206,0.9996612141380685,0.003232948368416291,0.650690410985109,1.0023765433306053,0.0,0.0,0.0,0.0
0.00047331971194899573,-0.0007493576240145633,0.7294320905762172,-1.1115405839505253e-05,-0.5234820778945107,0.00016047031365344343,0.8520366707184448,0.00146719472035099,-0.8094335186360403,0.872349657628161,0.0014679711148160956,-0.8125373302583692,0.8777173353212754,0.006187640093807959,0.6506137909314437,0.999367383699722,0.006220594715598953,0.6521637569588304,1.0048587974358265,0.0,0.0,0.0,0.0
0.0013958377480362688,-0.0010497188061153887,0.7292812803314142,4.772805746642579e-06,-0.5236987535770224,0.0001725636633520422,0.8519035072711436,0.002188669917105056,-0.8127974207389774,0.8795969160317104,0.002190905099630217,-0.8173322398594034,0.8872230999552314,0.0082672064343806,0.6530186807177678,0.9993014213704771,0.008344879772158772,0.6549368542264147,1.0068727925363228,0.0,0.0,0.0,0.0
0.002833798763015644,-0.001221381168396921,0.729116989049538,3.0171376857191872e-05,-0.5239847174714002,0.00016106823376017742,0.8517276495471595,0.0026478743474077446,-0.8187333940842442,0.8920740312015821,0.0026515239997527557,-0.8241470332585723,0.9009910599610206,0.009330493132945306,0.6572042309145703,0.9994608218641998,0.009442419873713753,0.6592757545132503,1.0081724469164863,0.0,0.0,0.0,0.0
0.004821813300194447,-0.0012800352149814934,0.7289602526555046,7.48335044885218e-05,-0.5243540212066248,0.00011231096025442647,0.8515003477572027,0.002915147188730798,-0.8270838030293195,0.9097179911932451,0.0029198076251964965,-0.8329776029821987,0.9191481273048959,0.009317505369989742,0.663498625701628,0.9995475613996141,0.009440178548037963,0.6654041827118556,1.0085404972407483,0.0,0.0,0.0,0.0
0.007383058958955515,-0.0012905637954793577,0.7288494280782987,0.00016610818831171308,-0.5248323686988756,-1.6673066429677e-05,0.8512055902636013,0.0032537220685845236,-0.837274149065235,0.9319416492497811,0.0032595100831623275,-0.8437790566826721,0.9417776794175152,0.008165244777217405,0.6724166731748792,0.9989678691470819,0.008271161928372859,0.6735555264249294,1.0077361984818816,0.0,0.0,0.0,0.0
0.010520732412207454,-0.00136374793519129,0.7288345583144664,0.0003713670387957677,-0.5255049450962136,-0.0003547471670471679,0.8507903907076028,0.004256173856339878,-0.8479301791293442,0.9572917036255765,0.004265191333471095,-0.8562712444861841,0.968660768693263,0.005243373973726209,0.6849247737648554,0.9970551630180645,0.005300182549666278,0.6838584372206282,1.0055731847408877,0.0,0.0,0.0,0.0
0.013644114741702797,-0.001433978400859754,0.7285757034983036,0.0004941738742662343,-0.525371764515453,-0.00045787631630871074,0.8508725258176928,0.004677444169076182,-0.8639872653099,0.9867337506109657,-0.0046307696663582,-0.8517595805210877,0.9379666073961692,0.004204157644941102,0.6935613901649177,0.9951981279414054,0.004262742985082033,0.6916323465784344,1.00395598027978,0.0,0.0,0.0,0.0
0.016603417533448676,-0.0017434499104450826,0.7281491945900176,0.0006648918363959775,-0.5253198977464562,-0.0006687202424616671,0.8509042929517608,0.005992468504371128,-0.8780383086966703,1.0124755494274367,-0.012692795686028106,-0.8565831624444594,0.9159404370757687,0.0038539636310598105,0.701420437980507,0.9943083341450633,0.003919993762405847,0.6982369835152872,1.0047122821819916,0.0,0.0,0.0,0.0
0.01913796038342154,-0.0022214254434618497,0.7277149942911173,0.0008532919013741862,-0.5253809235606333,-0.0009155919556872179,0.8508662167126378,0.0078531853204842,-0.8887168842415099,1.0325858202955813,-0.01971312932798001,-0.866353517916331,0.900978043941851,0.004419691253350207,0.7083099121219338,0.9935080885651039,0.004501752639155716,0.7039030206203541,1.0066397811702499,0.0,0.0,0.0,0.0
0.02115400735074171,-0.002826365766631142,0.7273483148104709,0.0010342983530445147,-0.5254928699284649,-0.0011571563756431532,0.8507965884219238,0.010051680189993787,-0.8961213353930471,1.0471036634594388,-0.02586867013447082,-0.8783578298058019,0.8901411342062131,0.0061169413506374165,0.713922517064707,0.9922999492959615,0.006230901888052878,0.7086219831507641,1.0090474149228446,0.0,0.0,0.0,0.0
0.022666345341890243,-0.0034992008495950857,0.7270622967378132,0.0011971434577176196,-0.5256149586407182,-0.0013743956134177244,0.8507206316631538,0.012379785834591485,-0.9008209071027767,1.0568448303630076,-0.031413639280637035,-0.89129369767908,0.8813993588202711,0.008738572181200341,0.7181662793094671,0.9907416347093118,0.00891262857524851,0.71237644008632,1.011626881470123,0.0,0.0,0.0,0.0
0.023752662473775346,-0.00418093156789146,0.726850117130334,0.0013360929045890871,-0.5257329031281396,-0.0015574283761952835,0.850647226434708,0.0146501756054724,-0.9034873020795792,1.0629022037807423,-0.03660351360045149,-0.9045924259835786,0.8735379869867176,0.011925517549937419,0.7212012267297102,0.9890159587081635,0.012200043455203896,0.7152918837702903,1.01417602049291,0.0,0.0,0.0,0.0
0.024513365254431492,-0.004821640719812037,0.7266963065300379,0.0014508052244550308,-0.5258410072963188,-0.0017062212589374008,0.8505799309993206,0.016725703273278325,-0.9047843791162904,1.066397428244525,-0.041635095497033314,-0.9180093431029989,0.865864260737833,0.015250926653539014,0.7233032663048802,0.9873161923788236,0.015667125688643757,0.717524952941168,1.0165446158439047,0.0,0.0,0.0,0.0
0.02504486950344416,-0.005386462220814151,0.7265751645003241,0.001542181035963823,-0.5259383082258513,-0.0018217185158755913,0.8505193701261781,0.018514583408617728,-0.905305110024954,1.0683119375950676,-0.04663142213665414,-0.9313391263364518,0.8580385419164929,0.01839369466865648,0.7247034546351985,0.9858718213057671,0.018980314446824586,0.7192042421761763,1.018718416296202,0.0,0.0,0.0,0.0
0.02542787956003177,-0.005865328857751755,0.7264610115081027,0.0016138232977064616,-0.5260199161916611,-0.0019096704774238691,0.8504685746708983,0.020005452838451065,-0.905519378109184,1.06940561025887,-0.05160963009032968,-0.944216547115676,0.8500109680269913,0.02118806775835231,0.7255678824419493,0.9848366622216209,0.021956212935957273,0.7204124532453253,1.0207666232604622,0.0,0.0,0.0,0.0
0.025735693636830557,-0.00628309435816775,0.7263649213452363,0.001676765180115575,-0.5260804229620829,-0.0019887568312890176,0.8504308448550255,0.021311547791656553,-0.9056378800530884,1.0701883581442324,-0.05645645419368418,-0.9558849328862525,0.8421082413450756,0.023603588318018977,0.7262285968211651,0.9839250455282341,0.024550841699090928,0.7213657759764719,1.0225382586463463,0.0,0.0,0.0,0.0
0.026002940214580855,-0.0066565464029425345,0.7262854674921503,0.0017366350875146143,-0.5261117703968619,-0.002067393534931031,0.8504111447014463,0.022499514530463744,-0.9057977095145018,1.0709146811419405,-0.06108360799839615,-0.9650508885978539,0.8350793396701724,0.025667376799210256,0.7267913699918276,0.9830330677188067,0.02678322087391887,0.7221256790575874,1.0240287624838431,0.0,0.0,0.0,0.0
0.026226188732956447,-0.0069846702587771856,0.7262159454307552,0.0017928613735447205,-0.526114527715444,-0.0021442453819096687,0.850409131880998,0.023563750903692292,-0.9060052144348815,1.0715627848820406,-0.06548542386960826,-0.9699598657811751,0.8302424773531704,0.027383499499992373,0.7272126124839835,0.9822298967287615,0.028650245643661258,0.7226525200504316,1.025302410058987,0.0,0.0,0.0,0.0
0.02638466056103965,-0.0072557966810554405,0.7261546575229885,0.001843962012267276,-0.5261072167671843,-0.002216601519690026,0.8504133600475048,0.024464610928100015,-0.9061061045058639,1.0719134486983861,-0.06970940465268281,-0.9690313427134053,0.829261957160974,0.028689417941442936,0.727469337166032,0.9816337054494252,0.03007859821311272,0.7229188748125528,1.0264010124900331,0.0,0.0,0.0,0.0
0.026471713726393224,-0.007484934181186933,0.7261002372978871,0.001892402603574014,-0.5260892423246061,-0.0022864972731019458,0.8504241881866531,0.025245450212361784,-0.90603845105986,1.0718583847780185,-0.07368389617429798,-0.962274711951812,0.8320884964700307,0.02967112343442662,0.7275285472833916,0.9812157799180911,0.031156105495525277,0.7229000048374382,1.0273933681695187,0.0,0.0,0.0,0.0
0.0264992046033825,-0.007717021458561237,0.7260520157842234,0.0019460179325165184,-0.526040295528121,-0.0023623940832221747,0.850454137263785,0.02604592855991248,-0.9058391093875151,1.071421204528714,-0.07722289208371348,-0.9512964561727253,0.8370173451217104,0.03056485703491766,0.7273673585894379,0.980778208852331,0.03213723773145506,0.7225851991656068,1.0283722419764327,0.0,0.0,0.0,0.0
0.02647045687144628,-0.007992810470359943,0.7260153520857474,0.0020139151483557303,-0.5259568983733919,-0.002455337571980331,0.8505052948198644,0.026999269181830134,-0.905398190854799,1.0704729946314206,-0.08022821556065081,-0.9378549981318085,0.842710051943582,0.031545136918722315,0.7270256444634913,0.9801261255813111,0.033213268879903744,0.7219983638390217,1.0293995539757408,0.0,0.0,0.0,0.0
0.026365094459868427,-0.00834207984299316,0.7259974899563907,0.0021014746728014997,-0.5258436783090495,-0.0025728442947486677,0.8505747411361587,0.028199882592137012,-0.9044876492247054,1.0686884955154352,-0.08274814964430634,-0.923207304307512,0.8483827393428375,0.03274828510285706,0.7264923758173422,0.9791313585601263,0.03453506518381354,0.7211217282131952,1.0305361775519952,0.0,0.0,0.0,0.0
0.026142233233156394,-0.008786426611870275,0.7260051747221246,0.0022108357299083646,-0.5257073623060137,-0.0027198006164698267,0.8506582651730574,0.02971308393060225,-0.9028064712563119,1.065591973798875,-0.08494739798210788,-0.9080279210075347,0.8536891794733024,0.034281286466361235,0.7256903807862167,0.9777294958639793,0.03622244418478273,0.7198765636553068,1.031856114534188,0.0,0.0,0.0,0.0
0.025754224283154048,-0.009339332675836594,0.7260418713363899,0.0023426329970152415,-0.5255572264950036,-0.002900789245170151,0.8507500803239902,0.03158083486676424,-0.9000381602578671,1.060665035072807,-0.08711142712933027,-0.89254881105209,0.8585766769041216,0.036192941841840805,0.7245203422441234,0.9759262341090273,0.0383330577121964,0.7181474311897905,1.033447683492855,0.0,0.0,0.0,0.0
0.025165835535028495,-0.009998123517773207,0.7261027655450183,0.0024976564760330875,-0.5254095046073114,-0.00312206498487137,0.850840094783184,0.033805411359462675,-0.89593578193751,1.0535113231536857,-0.08967799421124417,-0.8767623707717703,0.8631746463594937,0.038389638769475126,0.7229269196295502,0.9738522236238119,0.04076917612384728,0.7158186826885659,1.035406927113302,0.0,0.0,0.0,0.0
0.02438098895212124,-0.010729858829784318,0.726174590512722,0.002679385548619015,-0.5252967384569633,-0.0033925257556384147,0.8509081314857414,0.036314390424658144,-0.8904140390076654,1.044080879504627,-0.09319574546645126,-0.8606479457885124,0.8676986375448549,0.040518242804338404,0.7210227155577822,0.9717961199470571,0.043144467903429004,0.7128684219209666,1.0377696959060903,0.0,0.0,0.0,0.0
0.023464443790451112,-0.011447841305268984,0.7262229400147934,0.002897039602277603,-0.5252787887862042,-0.00372146776945101,0.8509171239847522,0.03889375882736211,-0.8836840449826634,1.032909875273564,-0.09805455719560949,-0.8445075783930669,0.8722810215779322,0.04181509179447602,0.7191280695073938,0.9704030725799231,0.044609285916658775,0.7093947075033433,1.040544839393344,0.0,0.0,0.0,0.0
0.02255678269995271,-0.01199032562034846,0.72616464397178,0.0031683850444087225,-0.5254535612599678,-0.00410704657317594,0.850806469453467,0.04110495359183411,-0.8764306773421687,1.0213504054643952,-0.10379333087271471,-0.8294966841668984,0.8766143822529925,0.04105000911411362,0.717678653490431,0.9710114202534014,0.043788546723582414,0.7055853464869064,1.043911182176775,0.0,0.0,0.0,0.0
0.021898034996868973,-0.012215020505476671,0.7260420270461415,0.0035205286947609334,-0.5258253115206036,-0.004468706547203125,0.8505735584320526,0.042356009499956146,-0.8700155722346993,1.0120016447796785,-0.1077911755258478,-0.8177831583030265,0.8785133622886039,0.0376288128998013,0.7175322004390887,0.9733665879823458,0.040046900833978515,0.7024747892566112,1.046802182812402,0.0,0.0,0.0,0.0
0.021908030317388093,-0.012225990292300688,0.7260377312742231,0.0035282825068960414,-0.525818401416425,-0.00447270038533149,0.8505777771054743,0.04238260535584945,-0.8700230848430999,1.0119838979005829,-0.10779962124991556,-0.8177647631234596,0.8785293770043584,0.03761846860460066,0.7175501861879747,0.9733350124852339,0.04005627741720196,0.7024597602659012,1.0468281965171622,0.0,0.0,0.0,0.0
0.021908030317388093,-0.012225990292300688,0.7260377312742231,0.0035282825068960414,-0.525818401416425,-0.00447270038533149,0.8505777771054743,0.04238260535584945,-0.8700230848430999,1.0119838979005829,-0.10779962124991556,-0.8177647631234596,0.8785293770043584,0.03761846860460066,0.7175501861879747,0.9733350124852339,0.04005627741720196,0.7024597602659012,1.0468281965171622,0.0,0.0,0.0,0.0
0.02277243720020874,-0.012287934391944467,0.7277748988107761,0.002955453815008172,-0.5253152969423343,-0.0037410358944394385,0.8508942993942145,0.04091088909541508,-0.8732669085197492,1.0213984070164923,-0.10944760193309902,-0.8176124284576172,0.8860875590080578,0.025756936192841452,0.6989390307782567,1.007474455025169,0.05063515598644726,0.7148890077787192,1.0305825246836096,0.0,0.0,0.0,0.0
0.024001713106929515,-0.012559736968835005,0.729913362439418,0.0026571879668025704,-0.5251036543354702,-0.0033381307321928497,0.8510275838296071,0.04069044554748922,-0.8736542939244387,1.0303238083603974,-0.1098087551851396,-0.8180055653829799,0.8968241137829677,0.016567814915597803,0.6853479954710796,1.0355599564676603,0.05843364828783501,0.7300556011564876,1.0106786819253706,0.0,0.0,0.0,0.0
0.025226806332631482,-0.013123434714902613,0.7319441001542039,0.0025616254441061903,-0.5250229223971552,-0.0032051612335283978,0.8510781961571463,0.04184350675484646,-0.8720153203964105,1.0368116343237408,-0.10879665874772532,-0.8194938222952644,0.908718114022537,0.011142976984465624,0.6751883175985237,1.0594633195766918,0.06514600954954015,0.744490287765335,0.9921050548991208,0.0,0.0,0.0,0.0
0.02636026471012321,-0.01395216629578112,0.7337494984160554,0.0025933479300541263,-0.5249667962871839,-0.0032682796162536625,0.8511124812213918,0.04414847745047615,-0.8692821909653812,1.0411455523372348,-0.10665489069639636,-0.8222776474951382,0.9213266510486782,0.007642179693859329,0.6674953263925628,1.0811282864967189,0.07162676547875017,0.7573088994532398,0.9760259250287661,0.0,0.0,0.0,0.0
0.027364811880459285,-0.014953316377878337,0.7353490646913413,0.0026938870920884808,-0.5248997180751028,-0.0034186246422246223,0.8511529486188532,0.047095740432722445,-0.8659568381492742,1.0437477066350875,-0.10387275005739724,-0.825761327010985,0.9338222421991713,0.005507241528224769,0.6613708031545036,1.101579575776254,0.07838079138080399,0.7686263648040796,0.9622354296732533,0.0,0.0,0.0,0.0
0.028181780951640423,-0.015996850709576127,0.7367886194662476,0.0028155215829037852,-0.5248405272294363,-0.0035916800006535574,0.8511883420551037,0.050186886275699755,-0.8620559188483747,1.0446171648613487,-0.10089788700067956,-0.8288685064603409,0.9447844796166617,0.003924031879877133,0.6560108923106984,1.1214895489350674,0.08515363559140741,0.7785967414807464,0.9501867266735722,0.0,0.0,0.0,0.0
0.0288230819606671,-0.016993225983908903,0.7380955130435831,0.002933328036698675,-0.5247901883024095,-0.003746439216399719,0.8512183139720083,0.05309045462614708,-0.8578879598422128,1.0442607272664914,-0.09805474294954326,-0.8312434979161903,0.9538684141623374,0.0026051928363951234,0.65101555863466,1.1411127476886076,0.09168419417200536,0.7874271188541306,0.9394246398614632,0.0,0.0,0.0,0.0
0.029323479492896293,-0.017893557739832477,0.7392774259594819,0.0030377176363714027,-0.5247471130772997,-0.0038711382072052275,0.8512439449873239,0.055657373488888245,-0.8537608220080005,1.0432098783790844,-0.09550428815907731,-0.8329042914406859,0.9612151587293254,0.0013451963285413522,0.6462798686980549,1.1604873914903007,0.09771065797240507,0.795243146442965,0.9297165015906198,0.0,0.0,0.0,0.0
0.029715736292574416,-0.01867414567262746,0.7403279191769478,0.0031252742755565415,-0.5247103887062664,-0.003963390088888501,0.8512658410763495,0.057828368784917185,-0.849923652611022,1.041877894261713,-0.09332167067815983,-0.8339858867194418,0.967075192252471,-1.1028475736057702e-05,0.6418438230665992,1.1793689611305858,0.10307535532781512,0.8020945876047212,0.9210321630252448,0.0,0.0,0.0,0.0
0.030012395079833123,-0.01932846981081748,0.7412264334534843,0.0031937568230106387,-0.5246784438558401,-0.004022898806123949,0.8512849973748893,0.05959363191486194,-0.8465382376212234,1.0404590782697671,-0.09152869333212106,-0.8346225701320398,0.9716031316298779,-0.0016474907056844882,0.6378216276174931,1.1970620014046573,0.10774719736820405,0.8079044962195355,0.9135642864595556,0.0,0.0,0.0,0.0
0.030195121492055273,-0.019866851281123008,0.7419362037279993,0.003239212485233551,-0.5246451099282892,-0.004048394504997457,0.8513052487990079,0.0609840182926642,-0.8436747041184672,1.0388709347099796,-0.09009999922634478,-0.8349215742973852,0.9747840341471323,-0.003867898718531059,0.6344450749728231,1.2121229415349184,0.11185447765999469,0.812417611730153,0.9077698052611228,0.0,0.0,0.0,0.0
0.03021614526175659,-0.02032066417483285,0.7424065909290136,0.0032547140401318823,-0.5245937146714328,-0.004036805133413708,0.8513369166012121,0.06208072450343561,-0.8413358530374578,1.036778104868522,-0.08895540307079697,-0.8350057694140186,0.9764934376573267,-0.007174546241961038,0.6323140249625336,1.2219073039076578,0.11572722927897987,0.8152035687968587,0.9043512422901815,0.0,0.0,0.0,0.0
0.03002317813491282,-0.020740190032896576,0.742597512607466,0.003232704825941899,-0.5244956698629555,-0.003985568879817209,0.8513976492539912,0.06301490118666095,-0.8394850800741884,1.0337710475461908,-0.08796487734183554,-0.8350565860618978,0.9766871254403712,-0.012217286659843524,0.6328911432620895,1.222215368098397,0.1198365386597573,0.8158482395549201,0.903948260693544,0.0,0.0,0.0,0.0
0.029587274016757238,-0.021153380047003463,0.7425239183857896,0.0031750658247333805,-0.524344231163379,-0.003897140524563999,0.8514915492818619,0.06385959218269599,-0.8379063572871547,1.0294959668632673,-0.08704581157277269,-0.8350183343766573,0.9752493063271944,-0.018975639825094835,0.6361172393251793,1.2130039032094546,0.12433765511437644,0.8143102513369361,0.9065411118665054,0.0,0.0,0.0,0.0
0.028902677979624404,-0.021565687933854563,0.7422563821081641,0.0030916172750210884,-0.5241526938657961,-0.003778427805527057,0.8516103092959668,0.06462927448960586,-0.8362129484482809,1.0236612775871492,-0.0861646345201891,-0.8345994109877618,0.9719927753489529,-0.02679944687240745,0.6404293334548421,1.198384522327137,0.12908342665516534,0.810927829459887,0.9114325116396259,0.0,0.0,0.0,0.0
0.027960987463725835,-0.022000348165443124,0.7418775974085801,0.0029891155454600258,-0.5239207316488502,-0.0036356617694291893,0.8517540220628768,0.06538480227548685,-0.8339937522059918,1.0159228780057996,-0.08524353200050118,-0.8335650786048501,0.9668151848352323,-0.03524104262218951,0.6451210479254988,1.180946352581732,0.13408128749148798,0.8060763078769392,0.9178255932717561,0.0,0.0,0.0,0.0
0.026731402018256332,-0.022497853509919192,0.7414566801853968,0.002868446392120565,-0.5236379028921341,-0.003471374440110941,0.8519290276951009,0.06622516650228633,-0.8308047618271708,1.0057446035751152,-0.08416521148486804,-0.8317011511425024,0.9595317067260869,-0.04413955743063959,0.6498301904666719,1.1621399320548411,0.139532812919729,0.7999860657878362,0.9251382996859071,0.0,0.0,0.0,0.0
0.025168048833091556,-0.023105728721357608,0.7410433358576823,0.002724366671713223,-0.5232901869207798,-0.003283620228180421,0.8521438704449211,0.06725898884116996,-0.8262034556183533,0.9924638676056456,-0.08280262248866192,-0.8287966491103237,0.9498625648352939,-0.05363509032847429,0.6542887257369185,1.1427829115237629,0.14575613509189542,0.7927503058589005,0.9330242888835003,0.0,0.0,0.0,0.0
0.023235299072979075,-0.023867445607866147,0.7406645645111244,0.0025455414077033287,-0.522863452653593,-0.0030652342664609237,0.8524071412400281,0.0685763706753186,-0.8198691684502415,0.9755236996587238,-0.08105513719815316,-0.8247138652257673,0.9375885976966756,-0.0642521425115398,0.6583173268469178,1.1234613060578633,0.15311009793456698,0.7844024618069269,0.941323194939264,0.0,0.0,0.0,0.0
0.02095013146928912,-0.024811777477817085,0.7403149675469181,0.002314467934971801,-0.5223412177440337,-0.0028028891242736905,0.8527288193185539,0.07022622466342365,-0.811860459667702,0.9549103791069251,-0.07888798731404094,-0.8195986894620095,0.9229170881139037,-0.07714631591637955,0.6620295487844813,1.1048770909536239,0.16194699149083314,0.7750066058835156,0.950045308204859,0.0,0.0,0.0,0.0
0.018438979344138018,-0.025931630931876434,0.7399346068638989,0.0020030727075440753,-0.521683176268349,-0.0024655426198654496,0.853133384880632,0.07215042193132414,-0.8031756220958869,0.9319720561680305,-0.07642850257868485,-0.8142814017303733,0.9070875725767168,-0.09460879263476635,0.666249078266846,1.0881082938115487,0.17260894982702812,0.7647009086156767,0.9594163957462611,0.0,0.0,0.0,0.0
0.01601624309955956,-0.027111666645049454,0.7394076357028206,0.0015556481648347571,-0.5207676939907292,-0.001951754929419588,0.8536947812345235,0.073899661235927,-0.796867298044279,0.91104765561159,-0.07429852529235254,-0.8107447706416967,0.8931569969568378,-0.12096802415931376,0.6729833923297269,1.074429283306968,0.18539416097534758,0.7538725805085177,0.9695315574779778,0.0,0.0,0.0,0.0
0.014022495324715868,-0.028167462416064087,0.7386892414456057,0.0009240747388245482,-0.5195153484844118,-0.0011707515140100164,0.8544598165600823,0.07487487400329687,-0.796034373188788,0.8970900787065733,-0.07325087819448287,-0.8106236150552623,0.8840881210560084,-0.1613804483947901,0.6832442435762113,1.0657034687841547,0.19996166424801926,0.7433305756181515,0.9797178594809968,0.0,0.0,0.0,0.0
0.012663009498567895,-0.028914094651155395,0.7378648587218708,0.00026755122159512483,-0.518087302320042,-0.0002467879920294366,0.8553276651007917,0.07482779408661276,-0.8007332289220043,0.8918480618361079,-0.07352300587333326,-0.8138648365799162,0.8807321286993761,-0.20901227878182324,0.6925736088957472,1.06442200781046,0.21310223565247202,0.7339136781998321,0.9886726519434297,0.0,0.0,0.0,0.0
0.012673003675689387,-0.028929818981355267,0.7378402931492891,0.00023536604408308786,-0.5180829592177432,-0.00022417662539474657,0.8553303114679452,0.07481784736893098,-0.8007756001795501,0.8917621152827672,-0.0735418747349056,-0.8138738464592747,0.8807260249286359,-0.20900804873385956,0.6925880320854242,1.0644211379026345,0.21310909796228408,0.7338532390176747,0.9886251381678083,0.0,0.0,0.0,0.0
0.012673003675689387,-0.028929818981355267,0.7378402931492891,0.00023536604408308786,-0.5180829592177432,-0.00022417662539474657,0.8553303114679452,0.07481784736893098,-0.8007756001795501,0.8917621152827672,-0.0735418747349056,-0.8138738464592747,0.8807260249286359,-0.20900804873385956,0.6925880320854242,1.0644211379026345,0.21310909796228408,0.7338532390176747,0.9886251381678083,0.0,0.0,0.0,0.0
0.011953346172324152,-0.02897954659100043,0.7380243078049127,0.00020298145965308317,-0.5187478814220527,-0.00021991425057881826,0.8549272167596381,0.0746968226427388,-0.7925910062365252,0.8804391714323954,-0.07316136675716067,-0.8057752489687698,0.8696833365938845,-0.20881616210631687,0.6931144090008724,1.0646998751098067,0.2140593934223529,0.7345732969862125,0.9890706015128661,0.0,0.0,0.0,0.0
0.011368263031867193,-0.029080406278304678,0.738030314271584,0.00022070636641473304,-0.5191204881615056,-0.00027694382729461756,0.8547009964670548,0.07492696203209455,-0.7869591639090148,0.8718459761913983,-0.07260653116664795,-0.8009071646271839,0.8621329059327018,-0.20863600750555,0.6925018822926106,1.0657375165601686,0.21425886921652912,0.7337471697885135,0.9906023210321789,0.0,0.0,0.0,0.0
0.011267145857410987,-0.029221886529940892,0.7379839100513921,0.00026054971469243463,-0.5193484377264163,-0.0003390501928997857,0.8545624713208178,0.07536678554538044,-0.7846195982360041,0.8687073537369827,-0.07205997508547762,-0.7997178155920326,0.8605667356710361,-0.20873768738788642,0.6928796855300666,1.066347613596512,0.215076098225812,0.7338896767507325,0.9919377570050067,0.0,0.0,0.0,0.0
0.011718122529002084,-0.029450321613315296,0.7379137133859193,0.00032130657899794967,-0.5195104606129874,-0.0004058406538012649,0.8544639333343027,0.0761277166552755,-0.7852891334234029,0.8711025376809942,-0.07139813482252556,-0.8021868619487301,0.865480422202825,-0.20901702394120275,0.6948499351721066,1.0662383142400735,0.21719250823818909,0.7357004330108776,0.993014384159337,0.0,0.0,0.0,0.0
0.01276215475309085,-0.029803036058222498,0.7378424997864661,0.00040612591977508023,-0.5196470579638093,-0.0004785647319050991,0.8543807940181545,0.07730516418259024,-0.7887266851684084,0.8789532299254417,-0.07052068780992062,-0.808285734398568,0.8771117717299592,-0.20935297734269562,0.6987840962211334,1.0651269796343081,0.2210885468657966,0.739628436362653,0.9937348417570623,0.0,0.0,0.0,0.0
0.014433385946064243,-0.030299518178777636,0.7378532203555525,0.0005156669696316142,-0.5197904190308257,-0.0005477097866276803,0.854293482583898,0.0789212585351295,-0.7945141781008094,0.8920370408681955,-0.06939298403682094,-0.8176419009435187,0.8953194731438676,-0.20958267663261934,0.7052457749628974,1.0622031748280485,0.2272108848222415,0.7463973191276339,0.9933594350856281,0.0,0.0,0.0,0.0
0.01682105801457888,-0.030937536590481332,0.7382779229565543,0.000585963693237608,-0.5201030214378995,-0.0005281403299500238,0.8541031698837733,0.08075298817956539,-0.801197467952987,0.9097520622773752,-0.06816386270876965,-0.8282380475686695,0.9189913544127961,-0.20882685718417354,0.7162231809325252,1.0546153296265994,0.2373575300903806,0.7588739185965113,0.9889754630918149,0.0,0.0,0.0,0.0
0.019380202846586765,-0.032036246042129124,0.7396923325051014,-0.0003733619124939479,-0.5211153427244892,0.0006523084810892522,0.8534859311504004,0.0812067417751147,-0.8037795760938481,0.9244122987575105,-0.06804873169502688,-0.8296151795020783,0.9372515020229542,-0.1870356537999693,0.7287352992927331,1.0369978520444927,0.1816620955313754,0.7339814460911471,1.0141656295046677,0.0,0.0,0.0,0.0
0.021921277478585,-0.03322799718291116,0.7409566213658819,-0.0011496045721335858,-0.5220616178279646,0.0015900577287494449,0.8529055148822731,0.0824795929807972,-0.805910009529238,0.9381080455064617,-0.06712873508345872,-0.8323866413705078,0.9563705343919934,-0.1665532468135531,0.7409771854781569,1.0197941831154407,0.13493716097867817,0.7138096170972641,1.03560030066358,0.0,0.0,0.0,0.0
0.024199865537531236,-0.03426932638720681,0.741994960232459,-0.0016123710182056575,-0.5227520374445043,0.002151835521930863,0.8524805435968646,0.08419699844567864,-0.8080194396055339,0.9504627773064939,-0.06577764755570148,-0.8365608301662578,0.9746067889788919,-0.15154312585352686,0.7521495999787419,1.00466297184997,0.10410801305840742,0.6995200497041343,1.055163889254773,0.0,0.0,0.0,0.0
0.026090785687645668,-0.0350829377604519,0.7428651515057572,-0.0018878364503820725,-0.523246328839623,0.002490611312772861,0.8521757519929104,0.085786989481108,-0.8097700911240706,0.9607718550549101,-0.06451031556973766,-0.8404824272079298,0.9899016539686029,-0.14093923746832326,0.7618200136251561,0.9917857409388007,0.08372549914936593,0.6890801860974872,1.0740689132024017,0.0,0.0,0.0,0.0
0.027589120557864735,-0.03567257298118212,0.7436453749188919,-0.002073157619704535,-0.523606442534572,0.0027184097767607492,0.8519534057693879,0.0869994966676125,-0.8109670918173038,0.9689515184087455,-0.06354805643654941,-0.8433232437674477,1.0017214505844871,-0.13335750629855267,0.7700530045653059,0.980678667590906,0.0690065854129496,0.6808112615168579,1.0927438980055668,0.0,0.0,0.0,0.0
0.02874983734917654,-0.0360778154340988,0.74439061159203,-0.0022209190488647525,-0.5238736436817286,0.0028956122427154507,0.8517881710871239,0.08780438703663293,-0.8115913635768992,0.9752713616918689,-0.06291895921904267,-0.8449248812351701,1.0104149325979623,-0.12772868417517189,0.7771052229477177,0.9707680215203933,0.057122334824616705,0.6736865310711012,1.1113186622915276,0.0,0.0,0.0,0.0
0.029647066960451877,-0.03635256804837904,0.7451234727146518,-0.002355125820572413,-0.5240757236213721,0.0030509960623178968,0.8516629501840104,0.08828471361176747,-0.8117210041139149,0.9801013603995864,-0.06255190695350905,-0.8454828064695976,1.01667477795937,-0.12326942149519188,0.7832323418722,0.9616382997748935,0.046614387749029526,0.6671612116533089,1.1297927180704765,0.0,0.0,0.0,0.0
0.030350978051011997,-0.03655439268252508,0.7458380209756905,-0.0024839121164246117,-0.5242329146370016,0.0031958194959171714,0.851565304676947,0.08857335071623325,-0.811467089545235,0.983768808613852,-0.06233064708486329,-0.8453439388780924,1.0212469496072314,-0.11939873804804338,0.7885987448441041,0.953101937472764,0.036805224537199734,0.6609868879033114,1.1480438900441872,0.0,0.0,0.0,0.0
0.030914599429400693,-0.036737949220325875,0.7465055280396141,-0.0026069013198422746,-0.5243605934428847,0.003331579443578902,0.8514858029868411,0.08881572805749816,-0.8109353849828312,0.9864849463833606,-0.062125543321398385,-0.8448899859398663,1.0247757376526803,-0.1156900996796071,0.7932359175389612,0.9452111471889827,0.02744144702823527,0.6550870073089656,1.1657419378029952,0.0,0.0,0.0,0.0
0.03136573137475162,-0.0369492122302624,0.7470779779490136,-0.0027191292916098645,-0.5244698337749316,0.003454215075520985,0.8514176813962716,0.08914369219424824,-0.8102126387016951,0.9883128161371657,-0.0618167227709663,-0.8444702874355903,1.0277104701031692,-0.1118619687096255,0.7970152290049715,0.9382705787431972,0.01852888247859635,0.6495077045616642,1.1821691120396711,0.0,0.0,0.0,0.0
0.03170290953800826,-0.03721886853443369,0.747489545631171,-0.0028127659635301646,-0.5245662671846432,0.0035561542812667917,0.8513575473597046,0.08965324061522599,-0.8093778660749352,0.989174411096639,-0.06131537018016387,-0.8443685588572459,1.030252617220494,-0.10780709226762612,0.7996321311540573,0.9328577693135325,0.010296091997450598,0.6444804857589036,1.195922190799325,0.0,0.0,0.0,0.0
0.03189965953598815,-0.03755603161865361,0.7476620959041148,-0.0028775541522781363,-0.5246473871911732,0.003627170966184826,0.8513070435667486,0.09038735489235163,-0.808536409908256,0.9889216029327207,-0.06058241899447854,-0.844802232317468,1.0323743152469642,-0.10363886181054688,0.8006420864537559,0.9297808506037321,0.00322585727949686,0.6406830312642897,1.2044723138296722,0.0,0.0,0.0,0.0
0.03192851472276482,-0.03795047792554675,0.7475315145998118,-0.0029026998589188114,-0.5247019787588616,0.003657836582363264,0.8512731806251157,0.09133732014690005,-0.8078392656671786,0.9874975283267009,-0.059631149260321,-0.8459375495163053,1.0339864263264955,-0.09962802401196383,0.7996570728140826,0.9297602885894991,-0.0019838864513424797,0.6397141946558349,1.2038196034158088,0.0,0.0,0.0,0.0
0.03178736442896252,-0.038412176761084854,0.7470866289839421,-0.002886775063815979,-0.524733338171197,0.003646033802930733,0.8512539555144227,0.09253245530780425,-0.8072576422148487,0.9848296242432211,-0.058430941880185536,-0.8478138861707801,1.0351113645505505,-0.09572586821807821,0.7966228997709903,0.9328853724801996,-0.0053528174461030965,0.6415914631803172,1.1939950349149124,0.0,0.0,0.0,0.0
0.03150051086860535,-0.038972932592085986,0.746368238322939,-0.0028378746624354713,-0.5247583990496857,0.0035980239321761346,0.8512388755913316,0.09404203912604762,-0.8065913782865417,0.9808357372880628,-0.05690588541372574,-0.8503550176317872,1.0358981937521068,-0.09153694195405701,0.7918147537955953,0.9386010137001454,-0.007613500319177068,0.6447484614267386,1.1790323445681332,0.0,0.0,0.0,0.0
0.03109375847218015,-0.039648118460877645,0.7454309524228079,-0.0027642781634872188,-0.5247848262608965,0.0035223051204870248,0.8512231424598333,0.09588849486844873,-0.8056929487014868,0.9755341507803561,-0.05502827422602192,-0.8534467527361752,1.0364607615111123,-0.08677921770902716,0.7855689973033977,0.9462323822812366,-0.009289191904027603,0.6485204447149763,1.1614667795831242,0.0,0.0,0.0,0.0
0.030573544462227403,-0.040433455904958636,0.7443174476784143,-0.0026738844938348915,-0.5248132038476239,0.0034271489680367134,0.8512063240242386,0.09804216684896633,-0.8044582269151206,0.9689093715250907,-0.05282080502296044,-0.8569211529569283,1.036725087964932,-0.08134536405416991,0.7780985021027373,0.9553079345465713,-0.010690270694910176,0.6526826364414089,1.1426718114749188,0.0,0.0,0.0,0.0
0.029928216586670834,-0.04130726357207622,0.7430536294168122,-0.0025762449404362745,-0.5248415262870102,0.003322470686775623,0.8511895772595338,0.1004233455718634,-0.8028251539764876,0.9609054381793802,-0.05035512807339947,-0.860553216840771,1.0364308638389208,-0.07525983071421065,0.7694759663221519,0.9656056155331423,-0.012018158519824258,0.6572158527725124,1.1232874593527866,0.0,0.0,0.0,0.0
0.029140140713259446,-0.04222813853176111,0.7416498312978176,-0.0024851369258765115,-0.5248689466556875,0.0032229502870427416,0.8511733228446812,0.10289205926359275,-0.8008187615293622,0.9515295580713835,-0.047766259808101647,-0.8640726649850756,1.03519819568364,-0.06866253737481468,0.7596860915633269,0.977125486761667,-0.013466069255905726,0.6622722635547121,1.1035074942200902,0.0,0.0,0.0,0.0
0.028204416898227506,-0.0431248819625559,0.7401019002151987,-0.0024227610038966368,-0.5248979106503222,0.0031583658397625206,0.851155883695382,0.10520263718591262,-0.7986765540143902,0.9410761038656889,-0.04530653287146171,-0.8671807433190021,1.0326200149226457,-0.06177990593850697,0.7486769163177631,0.9900670551567047,-0.01526526574998601,0.66825165435033,1.0832545054926022,0.0,0.0,0.0,0.0
0.027185829808469345,-0.04388562169612763,0.7384007756984057,-0.002423827705086334,-0.52493066613243,0.0031669673024028616,0.8511356479029208,0.10701162178125108,-0.7971341787701062,0.930714371575019,-0.043359195578236115,-0.8697678284384798,1.0287186733177291,-0.055058671138145235,0.7366176768998255,1.0046789522269823,-0.018179147890088215,0.675916581004133,1.062107978385073,0.0,0.0,0.0,0.0
0.02611052329796299,-0.044437018756767144,0.7365578862085725,-0.002535674864012448,-0.5249875800842316,0.003332871843875131,0.8510995846994398,0.10794541149942083,-0.7966118793075365,0.9210895193978981,-0.04231827930811875,-0.8713944612261593,1.0231529625327271,-0.04806744635608197,0.723469692653419,1.0209402081911683,-0.02253838015506999,0.6860072838136438,1.0392663915214315,0.0,0.0,0.0,0.0
0.02504829967969437,-0.044744317229680204,0.7346867534059173,-0.002817147812966303,-0.525115345363279,0.003721529200200892,0.8510182653519348,0.1077758177878319,-0.7971455827277812,0.9127924631281342,-0.042415897344332376,-0.8714492274499986,1.0158410576251058,-0.04014309588021505,0.7098704182920709,1.037786577779582,-0.0295634916871007,0.6992123489215544,1.0131196068556987,0.0,0.0,0.0,0.0
0.024242868766041283,-0.044841194308640905,0.7332088989958985,-0.0033029720981653703,-0.5254058100660389,0.004345675760332571,0.8508342613143609,0.10656876507640682,-0.7980362631634994,0.9069378564884466,-0.04356305520898681,-0.869188135040379,1.0079801889145732,-0.03067199279544925,0.6986236079142257,1.0511832198429005,-0.03870244386283545,0.7159797870553118,0.9823701630140952,0.0,0.0,0.0,0.0
0.024254114967772262,-0.04484513978068801,0.7331797556489273,-0.003308449739399902,-0.525413429140443,0.004348010037142533,0.850829523140752,0.10657470010655573,-0.7980473197218028,0.906896641385534,-0.04355986585067562,-0.8692173734779426,1.0079813548997558,-0.030659425016310773,0.6986227425973287,1.0511932965983408,-0.03870757398346506,0.7159903887016257,0.9823667289397514,0.0,0.0,0.0,0.0
0.024254114967772262,-0.04484513978068801,0.7331797556489273,-0.003308449739399902,-0.525413429140443,0.004348010037142533,0.850829523140752,0.10657470010655573,-0.7980473197218028,0.906896641385534,-0.04355986585067562,-0.8692173734779426,1.0079813548997558,-0.030659425016310773,0.6986227425973287,1.0511932965983408,-0.03870757398346506,0.7159903887016257,0.9823667289397514,0.0,0.0,0.0,0.0
0.024882629291730827,-0.044985575827911226,0.7332116863734757,-0.003017257117152644,-0.5252104197484984,0.003963566923991691,0.8509578140450526,0.10157960498274252,-0.8076839431406238,0.9001704959770205,-0.04240858160154704,-0.874529926105927,1.0158737729369927,-0.03492285029616026,0.7018773471065862,1.049554608590457,-0.04266716637907494,0.7160171217116729,0.9808428794658105,0.0,0.0,0.0,0.0
0.02575515384648318,-0.04540483422985882,0.7331521543864977,-0.002773313221315098,-0.5251350598772505,0.0035513357481038108,0.8510069715554023,0.09455919135037417,-0.8218016249043798,0.8927588096687843,-0.04042708174381012,-0.881148955436739,1.0263197474064407,-0.03684454822031922,0.7055776651396308,1.0477551507510183,-0.04445792598233384,0.7169528697687089,0.9810129462716874,0.0,0.0,0.0,0.0
0.026624514926400313,-0.04595087166815861,0.7330382250937164,-0.0025697775228430766,-0.5251828772388129,0.0032091272655900586,0.8509794610922394,0.08840344431834792,-0.8376125528482274,0.8864628996263146,-0.03825597267844588,-0.8873111002761435,1.0364070002795687,-0.036859996564868,0.708952968996241,1.0461662824503979,-0.044528793625999784,0.7183422907589629,0.9824242031106954,0.0,0.0,0.0,0.0
0.027356582407231184,-0.04651248888073754,0.7329282871240738,-0.0023983098111511536,-0.5252921147537937,0.002936845495206936,0.850913519240395,0.08385663630600443,-0.8536249840035344,0.8811368822056947,-0.03618595240182268,-0.8923331351733906,1.0448383822106295,-0.03587318231028942,0.7117684365115869,1.044707483789396,-0.04369899318433972,0.7197850043597823,0.9842213525355207,0.0,0.0,0.0,0.0
0.02789556387559776,-0.04703711136735271,0.7328439285668825,-0.0022517748642366074,-0.5254258680220139,0.0027206933374815255,0.8508320542569123,0.0806300182363135,-0.8693780801030426,0.8763250683278362,-0.03432568718747189,-0.8960382888755801,1.0511772982326684,-0.03446397001943742,0.7139350740177919,1.0433955312382794,-0.04248026753734341,0.721009616027601,0.986029211101261,0.0,0.0,0.0,0.0
0.028238294263583413,-0.04750745352460611,0.7327909071240012,-0.00212467121057304,-0.52556430272108,0.0025449453091088985,0.8507474200554037,0.0781638642408169,-0.8848592314006698,0.8715776566224402,-0.03268759241378705,-0.8985190486092074,1.0554931177254703,-0.032957687316531516,0.7154878837872455,1.0422325639579486,-0.04115886798429198,0.7218974174849839,0.9876990267585244,0.0,0.0,0.0,0.0
0.028412160845623136,-0.0479219993524311,0.7327708341677832,-0.002013133578030474,-0.5256971534182697,0.0023964158614117217,0.8506660375095177,0.07596438440456653,-0.9001478773557994,0.8665631945732072,-0.031248205036584452,-0.8999833856479199,1.058105878146677,-0.03152651478134287,0.716548308364782,1.0411724613088822,-0.03988887038596483,0.7224562575462322,0.9891465977948437,0.0,0.0,0.0,0.0
0.028453901233246256,-0.048285213632953655,0.7327829302984619,-0.001914473294212596,-0.5258185011031696,0.002265274382776932,0.8505916218853748,0.07368813167311304,-0.91520513469216,0.8611114742569526,-0.029975438416041358,-0.9006627001472204,1.0593970512375026,-0.03025433140276456,0.7172526579468351,1.0401566620358156,-0.03874813062552405,0.7227450609595514,0.990323165791469,0.0,0.0,0.0,0.0
0.028392584617314212,-0.04860522705316999,0.7328245856558977,-0.0018263993920118043,-0.5259232555561605,0.0021441713770390647,0.8505273634984216,0.07111636170642527,-0.9297090897283188,0.8552581841567006,-0.028832399785922166,-0.900755780553593,1.059682475234675,-0.02916252176866215,0.7176919362398557,1.0391383735088862,-0.03775864456021824,0.7228070010538972,0.99122255672366,0.0,0.0,0.0,0.0
0.0282382744116459,-0.04889611349345215,0.7328949812824428,-0.001746132418327619,-0.5260050883806561,0.002027216453019037,0.8504772121654338,0.06811487512486393,-0.9428941016611061,0.8493305118510036,-0.02776889627893328,-0.9003901036263524,1.0591374685240627,-0.02820234551665111,0.7178844788794339,1.0380596113919787,-0.03687706357850369,0.7226413441189512,0.9918710326832495,0.0,0.0,0.0,0.0
0.02797393508931852,-0.04918383520973656,0.7329971378920197,-0.0016688014799767967,-0.5260566835521492,0.0019088164725944755,0.8504457285514511,0.06463238039200538,-0.9534463590908769,0.8440712944517578,-0.026703406708197586,-0.8995974451279029,1.0577506162394779,-0.027224961541692516,0.7177580166394467,1.0368281512485815,-0.03596555711803716,0.7221863568049807,0.9923420951195389,0.0,0.0,0.0,0.0
0.0275540154161019,-0.04951069806116231,0.7331384735671544,-0.0015859571374379723,-0.5260737985637308,0.0017831367364773015,0.8504355728848978,0.06073227167237048,-0.9596153026053311,0.8407135730312478,-0.025510942198024064,-0.8982958308689346,1.0553079648387345,-0.025963205314250712,0.7171609144322657,1.035306311780274,-0.03477422672566782,0.7213280235081332,0.9927743283623983,0.0,0.0,0.0,0.0
0.026916912812271463,-0.04992759586984217,0.733328876925645,-0.001486443621875473,-0.5260633902790548,0.0016449376822805293,0.8504424695847964,0.056570364257443516,-0.9598378577326238,0.8407222386495085,-0.024046459165539824,-0.8962814831848993,1.0514270103949002,-0.024100034666755248,0.7159317105706098,1.033343451305143,-0.03300348114418605,0.7199490734885442,0.9933529824097753,0.0,0.0,0.0,0.0
0.026010602266507487,-0.05045996381192248,0.7335660424367652,-0.001363716174421238,-0.5260224884009144,0.0014894577578801853,0.8504682613068479,0.05223459463675447,-0.9541093309187241,0.8440324109643652,-0.022234399840290728,-0.8934101875220496,1.045758362513316,-0.021523564141205057,0.7138931773615549,1.030938596878507,-0.030535477268819285,0.7178627615022269,0.9942438967366405,0.0,0.0,0.0,0.0
0.02480818467954138,-0.05109623882507777,0.7338512644586472,-0.0012198611216281475,-0.5259368781946951,0.0013156049888696812,0.8505217112320975,0.047702938891013756,-0.9439889729146448,0.8491012767688604,-0.02010544273453275,-0.889584225890135,1.0380539077018986,-0.01836882005200329,0.7109669725782755,1.0281092194761077,-0.027476078509571848,0.7149396147606567,0.9953857544371324,0.0,0.0,0.0,0.0
0.023288339973962856,-0.05180884403774799,0.734204665755022,-0.001059622476018539,-0.5258042452294317,0.0011281952942259511,0.8506041970707022,0.04297265100790222,-0.9312512193189058,0.8546839067554614,-0.017747123912260215,-0.884544530729314,1.0279467148847223,-0.014849007215877494,0.7072190476271613,1.0247536387751304,-0.02400869969425271,0.7111986557639645,0.9964969740418571,0.0,0.0,0.0,0.0
0.021417611693442994,-0.0525748840816702,0.7346438816260735,-0.0008866480089079933,-0.525624691471689,0.0009329425721061783,0.8507155971232437,0.03810729367090776,-0.9172561103509594,0.8600315090669332,-0.015238200920470922,-0.8779692774805364,1.0149446960496913,-0.011134253356638368,0.7026729088023832,1.0207842566252394,-0.02028423818764716,0.7066256203140728,0.9973467165411726,0.0,0.0,0.0,0.0
0.019159942457438132,-0.05337391858254883,0.7351825827108184,-0.0007043327593542871,-0.5253976576905965,0.0007362657921815964,0.8508561941487421,0.033164845932625475,-0.9028352535461077,0.8648587466765549,-0.012654098831972941,-0.8695239088402325,0.998505380848702,-0.007365346970906546,0.6973291654829669,1.0161247569323884,-0.01643384672658059,0.7011903822833193,0.9977362880989883,0.0,0.0,0.0,0.0
0.01649791844967713,-0.05418664148448434,0.7358202861480366,-0.0005161225305565013,-0.5251231159210408,0.0005435575700137609,0.8510259404319463,0.028131493164115777,-0.8883740255844511,0.8692592023560708,-0.010065677773410747,-0.858974594628998,0.9782113443653874,-0.003675761773604809,0.6911981612718547,1.0107770346726843,-0.012591001298058473,0.6948674955919851,0.9975537453846096,0.0,0.0,0.0,0.0
0.013463906868933895,-0.055000624102032686,0.7365141698919827,-0.00032374633859687816,-0.5248074176587186,0.00035514576639879373,0.8512208546729692,0.02290290304397617,-0.873932137192276,0.8736389814231247,-0.007513777344369463,-0.8464111867091745,0.95408546501065,-0.00018241171731091894,0.684285740175321,1.0050367407078267,-0.008884841834345236,0.6876075742531353,0.9970198226103879,0.0,0.0,0.0,0.0
0.010185542700431125,-0.05581603499259068,0.7371178900978979,-0.00012414367780685056,-0.5244736241802689,0.00016055788277367109,0.8514266711518542,0.017345604877328266,-0.8593802503188916,0.8785862202031267,-0.0049796846745951626,-0.8326497682233617,0.927122709626857,0.0030092808392015607,0.6764628183614465,1.0000313509776293,-0.0054472594242938824,0.679187068656498,0.9972483064118043,0.0,0.0,0.0,0.0
0.007124794629611082,-0.05663430494405159,0.7374835834898797,6.724243216315729e-05,-0.5240509860195629,-2.683953077637039e-05,0.851686890124545,0.011812693506737661,-0.8437590947894434,0.8831331926186606,-0.002494015779977731,-0.8207272638171081,0.9021359427130394,0.006140593455927646,0.6681882568120079,0.9964036038766705,-0.002070984894502859,0.6702133763887883,0.9989066974186886,0.0,0.0,0.0,0.0
0.004535882343468801,-0.057240687391673636,0.7374890693691604,0.00021690071538205715,-0.523634678288491,-0.00017606465018784128,0.8519428652492063,0.0063927105282298976,-0.829125477050952,0.8875717075064322,-0.0006550302468207993,-0.8113134288777549,0.8806880456247896,0.008162777111039098,0.6598074328544533,0.9959940072830501,0.0001613102699000767,0.6610916338744094,1.0023959326853966,0.0,0.0,0.0,0.0
0.002839652682352084,-0.057589284526586126,0.7372608876088206,0.00031653471384408377,-0.5232523398782052,-0.00027410000443475144,0.8521776889164288,0.0026320092996610506,-0.8187115944036191,0.8902174688364576,0.0004130710491374312,-0.8061379495058222,0.8669164688963261,0.009065037586601456,0.6530625546479503,0.9976075230565243,0.0011990540648154642,0.6537505733384568,1.0062052153698051,0.0,0.0,0.0,0.0
0.0028473812355056163,-0.0576112006567533,0.7372401097193455,0.0003330007412415424,-0.5232372123851354,-0.00027026404154222684,0.8521869722327882,0.0026449282480994697,-0.8187221050253116,0.8902265510102075,0.0004339053860615105,-0.8061641106233568,0.8667909495285399,0.009060714468132586,0.653075818253385,0.9975084297054292,0.0011999310216497796,0.6536937139046849,1.0062528830402446,0.0,0.0,0.0,0.0
0.0028473812355056163,-0.0576112006567533,0.7372401097193455,0.0003330007412415424,-0.5232372123851354,-0.00027026404154222684,0.8521869722327882,0.0026449282480994697,-0.8187221050253116,0.8902265510102075,0.0004339053860615105,-0.8061641106233568,0.8667909495285399,0.009060714468132586,0.653075818253385,0.9975084297054292,0.0011999310216497796,0.6536937139046849,1.0062528830402446,0.0,0.0,0.0,0.0
0.0028473812355056163,-0.0576112006567533,0.7372401097193455,0.0003330007412415424,-0.5232372123851354,-0.00027026404154222684,0.8521869722327882,0.0026449282480994697,-0.8187221050253116,0.8902265510102075,0.0004339053860615105,-0.8061641106233568,0.8667909495285399,0.009060714468132586,0.653075818253385,0.9975084297054292,0.0011999310216497796,0.6536937139046849,1.0062528830402446,0.0,0.0,0.0,0.0
0.00270318715783031,-0.058139965569366174,0.7371712624919298,0.00016565467286116264,-0.5232425130756555,-4.282235423626124e-05,0.8521838083624024,0.0034763287443931503,-0.8174786141159688,0.8873210652178856,0.0012541196865962696,-0.8061309997013306,0.8666871649612559,0.015122413046338708,0.6513272169718896,0.9960758621664635,0.007367892654205111,0.654089491129625,1.0090076040085778,0.0,0.0,0.0,0.0
0.002985383215606411,-0.058720059164785024,0.7370471204349349,5.099552370116091e-05,-0.5232225892732173,9.47430835232009e-05,0.8521960516790927,0.004652737322800622,-0.8184600326751622,0.8885719603126028,0.0024198750444573663,-0.8091186737763275,0.8716856778839115,0.020619448841303963,0.6507664013664611,0.9946496302246641,0.013052001785163947,0.6551531760198152,1.0119083157623887,0.0,0.0,0.0,0.0
0.003771862227687552,-0.0591628025359719,0.7368977346100297,1.1038669942878374e-05,-0.5233292224478652,0.00014576557339369555,0.8521305672035584,0.005674634685602101,-0.8214887185844463,0.8945225999446786,0.0034329160006322853,-0.814044270762753,0.8808557181096661,0.024276044233738813,0.652255377927002,0.9938416094431538,0.016865448347270804,0.6575736218603935,1.0142548999952459,0.0,0.0,0.0,0.0
0.005109230987323518,-0.05939520878528376,0.7367244357834686,1.9923584276336886e-05,-0.5235618462935736,0.00014248124889340184,0.8519876597743707,0.006288060272393808,-0.8270249840347039,0.9059052979031127,0.004038291958395527,-0.8208172864840972,0.8941864762092837,0.02603978319298647,0.6558517480291909,0.9937837291068756,0.01867677882191891,0.661603121395043,1.0157534577238958,0.0,0.0,0.0,0.0
0.007038181340056552,-0.05942355746602901,0.7365476060731215,8.970553018526447e-05,-0.5239408162485718,6.96788866367418e-05,0.8517546643057207,0.0065418164275456315,-0.8349321663590978,0.9227288709787173,0.004283306290220714,-0.8294125955638737,0.9118002240430229,0.025772464501143122,0.6619306138049892,0.9942217813573934,0.018297768283755345,0.6674809493290781,1.0161630441245257,0.0,0.0,0.0,0.0
0.009593468036653185,-0.05932486521097355,0.7364200247811383,0.00029792938864132485,-0.5245602456758618,-0.00016099795303649956,0.8513732636007653,0.0068194327223947545,-0.844073028185611,0.9439579760642849,0.004550817203140115,-0.8395624207272796,0.9336510415858829,0.022850294519435616,0.671505766245661,0.9945535093282771,0.0150531418454113,0.6755255801644225,1.015207932279284,0.0,0.0,0.0,0.0
0.012803384221474817,-0.05925400419927267,0.7364330087513308,0.0008581163320686422,-0.5256956743490218,-0.0008286240737853827,0.8506718726919518,0.008137945130856188,-0.8514156873090221,0.966793304198518,0.005859442397747612,-0.850401055287748,0.9591705736831144,0.014872142358965426,0.6870068443140019,0.9940726784294448,0.006435069647057316,0.6860056043596414,1.012598336336073,0.0,0.0,0.0,0.0
0.01603725618570337,-0.05922185770343718,0.736128064255714,0.0009501549758943032,-0.5255732611947791,-0.0008828774188966635,0.8507473566518261,0.008208760986628443,-0.8682860617301418,0.9974726588928363,-0.007886719053374429,-0.8460326541689475,0.9293694967071271,0.013582131280173975,0.6957802166471797,0.9926708056317092,0.004985735180560669,0.6940812364304435,1.0107954956549223,0.0,0.0,0.0,0.0
0.01915881166116096,-0.05949857244090227,0.7356992212943986,0.0011783001767534352,-0.5255954914139543,-0.0011607884441932972,0.8507330036998711,0.00961068232850166,-0.8823880643870755,1.0239644911533197,-0.02195743044125996,-0.8502663704803921,0.9076116286897874,0.012185167490670182,0.7047039864037863,0.9917856654306422,0.003381496849041029,0.7011510815348436,1.0111198556776988,0.0,0.0,0.0,0.0
0.02184899673337283,-0.060002562835899054,0.7352352160495674,0.001435778125447148,-0.5257153768700845,-0.0015049749831797638,0.850657990095796,0.0117897737821209,-0.8930613451967097,1.044631535867438,-0.03491837494121152,-0.8592306908991381,0.8924167052001787,0.011830025251970981,0.7125421599029353,0.9910261368129879,0.002843372168638672,0.7070419851241115,1.0129980271409735,0.0,0.0,0.0,0.0
0.023997837561114836,-0.06071552298197208,0.7348340828979241,0.0016586837305412776,-0.5258174512785886,-0.0018347109653653593,0.8505938458129383,0.014518518590320391,-0.9006394964638741,1.0596502159907097,-0.04649847682281122,-0.8703927926744767,0.8809701322071882,0.013483574038653584,0.7186811265915819,0.9894988630513198,0.004390949173026512,0.7118575619643499,1.015609674979213,0.0,0.0,0.0,0.0
0.025617462823053612,-0.061579486325630324,0.7345171590990812,0.0018330171619422406,-0.5258600152067925,-0.002121113299444946,0.850566508471364,0.017568099851126753,-0.9056772445888133,1.0698171470095466,-0.056923926579598494,-0.8824736565323257,0.8713571728403308,0.017103076269456178,0.722986373113972,0.9871951852527436,0.008015421951538043,0.7156601319325604,1.0186091412991505,0.0,0.0,0.0,0.0
0.02679866319396089,-0.06251761257095216,0.7342790590391957,0.001972163497037878,-0.5258618236051532,-0.002366094668531479,0.8505644329748471,0.02072373030220266,-0.9087062222617961,1.0761902061569903,-0.06656945455642709,-0.8948647780990387,0.8624900632334739,0.021969290180857384,0.725839017999851,0.9844069933338893,0.013025557446243312,0.7186369540972525,1.021744584969318,0.0,0.0,0.0,0.0
0.02766054874971655,-0.06345776154382571,0.7340971771032625,0.0020870492090373114,-0.5258464678603803,-0.0025753982582006046,0.8505730443578451,0.023796650851643373,-0.9103522305940553,1.0799621444193555,-0.07581340858880531,-0.9073110736292188,0.8537895490592905,0.027330021851497653,0.727695257279435,0.9814956688713894,0.018673497865627713,0.7209932891107784,1.0248585092168783,0.0,0.0,0.0,0.0
0.028316523435591066,-0.06434297639362088,0.7339323370474493,0.0021902504262687732,-0.5258371838608946,-0.002757059443603599,0.8505779549785771,0.026647582008608332,-0.9112083389995403,1.082200707943382,-0.08492229198877364,-0.9196079220060229,0.8449670984780077,0.03253808615627229,0.7289188312321114,0.9789113330190029,0.024277023706908468,0.7228517503443408,1.0279765189042018,0.0,0.0,0.0,0.0
0.028871198480617522,-0.06516510649929906,0.7337742089178984,0.0022964780992906237,-0.5258437955002204,-0.0029307004184621075,0.8505730068120662,0.029301294501350415,-0.9116707854644728,1.0837338301697028,-0.09395259345692944,-0.9314131647045333,0.836038846446301,0.03726433428686964,0.7299294200152726,0.9766617964613606,0.02945631577936229,0.7244245090176691,1.0310016779670916,0.0,0.0,0.0,0.0
0.029402951670796165,-0.06593977314247905,0.7336238057529991,0.0024160201296086464,-0.5258575585079808,-0.003111950835027147,0.8505635230650085,0.031840280444480375,-0.9120420405104747,1.0851672081306256,-0.10284033422803349,-0.9419945426607805,0.8272824757174989,0.041448732095611694,0.7310157594351657,0.9745637864716901,0.034113336728656095,0.7258919166457926,1.0338264598931237,0.0,0.0,0.0,0.0
0.029943698300272905,-0.0666820316016359,0.7334706025238384,0.0025491884854854075,-0.5258616694088072,-0.0033040135054634074,0.8505598684274985,0.03431789142584841,-0.9125395287659563,1.0867966254489478,-0.11148111848386388,-0.9501096781749506,0.8194062845469245,0.045192378471120745,0.7321821949504732,0.9725822347987111,0.03833475924489692,0.7272678109823351,1.0365137778344486,0.0,0.0,0.0,0.0
0.030489951181774683,-0.06739686641680724,0.7333052258258298,0.002691171284287141,-0.5258482248039446,-0.0035029800171182423,0.8505669469234379,0.0367418405974586,-0.9132196627265903,1.0886292956868262,-0.1197981883720145,-0.9540585905791538,0.8136900546584165,0.04860056259955983,0.7333264950267736,0.970770838754148,0.04222313982945951,0.7285014048214884,1.0391592923123167,0.0,0.0,0.0,0.0
0.03102507569689168,-0.06808277609840307,0.7331256992356748,0.0028438497309994258,-0.5258366088443801,-0.0037110081323999625,0.8505727492321813,0.03911075404098641,-0.9139073782078284,1.0904344326085942,-0.12771603352977062,-0.952296985449184,0.8117782998634975,0.0516361086695377,0.7344496841207465,0.9692156965777409,0.04572579735738426,0.7295720525517241,1.0418296819009585,0.0,0.0,0.0,0.0
0.031547323278224425,-0.06877302997998995,0.7329315563994273,0.003012722272126076,-0.5258184763239966,-0.003935698661529116,0.8505823674029854,0.04153160911576614,-0.914542631126496,1.0921043287807453,-0.13509060820752578,-0.9448480719265208,0.8135998621437528,0.054463564388078464,0.7355250589157576,0.9677965996296987,0.04902305266590291,0.7304557239401785,1.0446166113200603,0.0,0.0,0.0,0.0
0.03207517367723958,-0.06953906202230555,0.7327243204720755,0.003208933521955663,-0.5257566956691255,-0.004192771127291176,0.8506186104095115,0.04423737868605407,-0.915185407325553,1.0936770171776828,-0.1417378432419045,-0.9332990395260338,0.8174175925691529,0.057437465843673846,0.7365268995814652,0.9661590122893393,0.05252744890890921,0.7311370778347501,1.0476280055164646,0.0,0.0,0.0,0.0
0.03262536067434843,-0.07045050662764837,0.7325133216047348,0.0034519716621182355,-0.5256372177438151,-0.004508638286913924,0.8506898796829446,0.047478953088585796,-0.9157035265854396,1.0950310492259199,-0.14756706130777927,-0.9193536569112896,0.8218532349503856,0.06075982542898863,0.7375773152313954,0.9639323750651353,0.056491142255162136,0.731650552538197,1.0509211851535496,0.0,0.0,0.0,0.0
0.03319781239638458,-0.07156599165824874,0.7323112774854953,0.0037567610379893195,-0.5254512255182867,-0.004907862692221907,0.8508012748178204,0.05147384350723984,-0.9158823558889415,1.0959156652401476,-0.15267834188004137,-0.9042019910458264,0.8260329417147821,0.06458325588300025,0.7387757725699399,0.9607823635695681,0.06111870445395393,0.7320063857364958,1.0545221214418203,0.0,0.0,0.0,0.0
0.03377847048933292,-0.07292897435684899,0.7321323650993093,0.004131468733709372,-0.5251891613355762,-0.005410606638829738,0.8509582840054712,0.056389311718926,-0.9154925783975825,1.0960250305265549,-0.15738916249902707,-0.8884352780050234,0.8294246895531694,0.06900643239313585,0.7401775572502097,0.9564254604514223,0.06656013993923675,0.732176485331146,1.0584188936900307,0.0,0.0,0.0,0.0
0.034351624832530195,-0.07455139546418894,0.7319876442434341,0.00458049605756226,-0.5248517066281368,-0.006033649306647067,0.8511599733196124,0.06229846513961809,-0.9143305441278791,1.0951065263882136,-0.16229833903419819,-0.87215387569726,0.83165331659328,0.07392408010352476,0.7418651217813224,0.9507322318465422,0.07272557741829708,0.7321129293237223,1.0625475252401864,0.0,0.0,0.0,0.0
0.034910264090526104,-0.0763766762579962,0.7318676466452781,0.0051092033766922266,-0.5244775312035856,-0.0067890108110867375,0.851381891183771,0.06907186873072547,-0.9122576286324414,1.0930704788350707,-0.16833674868935433,-0.8550945899063667,0.8323466268275297,0.07875255326521481,0.7439963281356305,0.9440656164648631,0.0789270643761111,0.7317316593342255,1.066859067751801,0.0,0.0,0.0,0.0
0.03543857079667681,-0.07821627317299155,0.7316666482851686,0.005722591468591771,-0.5241719650245404,-0.007666879547523309,0.8515587014335531,0.07616262351184688,-0.9094202010084762,1.090078636923567,-0.17666730574546097,-0.8367869876138158,0.8308580282268427,0.0821594711499063,0.7464092789216658,0.9383240630350691,0.08349070285581314,0.7305878798805073,1.0718781218690028,0.0,0.0,0.0,0.0
0.035950258529213845,-0.07977166237568044,0.731242634216474,0.006446082252974977,-0.5241183161251978,-0.00863988502295048,0.851577237314658,0.08266210067725455,-0.9061032525133628,1.0866672152552523,-0.18790381362027753,-0.8166383253883114,0.8258477730567444,0.08210907247389626,0.7490481170118036,0.9363230154840065,0.08378111416750783,0.7282821969971882,1.0782109425259543,0.0,0.0,0.0,0.0
0.03642238109286373,-0.08077397709777867,0.7306384563303696,0.007237150682229662,-0.5242621223966522,-0.009519420024673946,0.8514729774411834,0.08736068643324293,-0.9035265756755073,1.0842355316754333,-0.20076103903946274,-0.7936026064025589,0.8133370396655614,0.07816342871624055,0.7514086274044255,0.9385376261038519,0.07918432549164188,0.7249783447024158,1.0848229549852133,0.0,0.0,0.0,0.0
0.036677152544962344,-0.08114631785576815,0.7300802350658349,0.008105654289546115,-0.5246461334193205,-0.010161963013154512,0.8512211625449723,0.08957820173957086,-0.9005598843771333,1.0814417144138329,-0.21221133490796407,-0.7687463578749286,0.7886031277860623,0.07045625067040497,0.7538254450309894,0.9433934487916066,0.0699862983120188,0.7213913592107243,1.090036883598233,0.0,0.0,0.0,0.0
0.03670276720432284,-0.08118674177434881,0.7300654758513786,0.008142408297240162,-0.5246315324364057,-0.010162971607406741,0.8512297988020959,0.08966973208579637,-0.9005749403106726,1.0814577092303155,-0.212229686378737,-0.7687036909869283,0.7886137911389167,0.07039260193490293,0.7538920511216244,0.9432857053033212,0.07003413209526652,0.7213603330412374,1.0901661035465733,0.0,0.0,0.0,0.0
0.03670276720432284,-0.08118674177434881,0.7300654758513786,0.008142408297240167,-0.524631532436406,-0.010162971607406746,0.8512297988020957,0.08966973208579637,-0.9005749403106726,1.0814577092303155,-0.212229686378737,-0.7687036909869283,0.7886137911389167,0.07039260193490293,0.7538920511216244,0.9432857053033212,0.07003413209526652,0.7213603330412374,1.0901661035465733,0.0,0.0,0.0,0.0
0.03715571769651228,-0.08158564251572802,0.7324666842768655,0.006842357205476297,-0.5235496190669696,-0.008867553341842048,0.8519215603683435,0.08798445963844519,-0.904275716783917,1.089531869194196,-0.21412211245970447,-0.765947587589059,0.7939768802738231,0.0453828548220608,0.7286648502836667,0.9894135129972859,0.0960574697406916,0.7374651413606294,1.070103731563654,0.0,0.0,0.0,0.0
0.03784607247675567,-0.08227621309743018,0.7353349349073545,0.006100686255814057,-0.5230360933450429,-0.008094017095305479,0.8522502646364063,0.0879827978771219,-0.9016879969964582,1.0935365571605264,-0.21400564427450228,-0.7631859022441279,0.8017193395280179,0.02524447665599179,0.711302580226489,1.0247904270909953,0.11532448425078203,0.7556075023512243,1.0460728552564447,0.0,0.0,0.0,0.0
0.03858393871051395,-0.08324266831271276,0.7379897622070709,0.005772257794564428,-0.5228024709092319,-0.007752745557480261,0.8523990570076176,0.08962030745912443,-0.8961392387910944,1.0944322944637765,-0.21226420713479782,-0.7624493605745789,0.8116794658551397,0.011461002806225761,0.6996424674710285,1.0529167481470902,0.130071990723826,0.7722874832902508,1.0238758712159808,0.0,0.0,0.0,0.0
0.03929579880599312,-0.08443407850542843,0.7403019817064069,0.005682714235714891,-0.5226491536667189,-0.007691990396615897,0.8524942241529357,0.09248632920251822,-0.8895377556129107,1.0933896864289603,-0.20941306325227102,-0.7639590828574256,0.8234492225682298,0.0011334317402894502,0.6917266808417174,1.077097798944099,0.14258619754179463,0.7868141649255017,1.0047619483938848,0.0,0.0,0.0,0.0
0.03994175468545223,-0.08575669697263733,0.7423011817428313,0.005714562075796624,-0.5224791224288852,-0.007763078321127269,0.8525975868023576,0.09599850373544967,-0.882885133439851,1.0912676199932538,-0.20601607745791925,-0.7670287630723446,0.8360505065859597,-0.007003468918120372,0.6859779074999982,1.0990776246591214,0.1541935916062658,0.7993457415795461,0.9884937613909928,0.0,0.0,0.0,0.0
0.04042009969983283,-0.0870462205647747,0.7440552741785712,0.005772419209827981,-0.5223096666998495,-0.007851155818271558,0.8527002114463649,0.09943834137468151,-0.8762922015921206,1.088059053902552,-0.20263678517527764,-0.7698053068517879,0.846937242566512,-0.014102410378500747,0.6811319935508063,1.119909947568324,0.1650518903817651,0.8100993817569206,0.9744385115796697,0.0,0.0,0.0,0.0
0.040739390452780744,-0.08824617127108701,0.7456080558905794,0.005825126343536841,-0.5221407365069155,-0.007917729258803515,0.8528026903958981,0.10257197942529148,-0.8699535286342632,1.0841400758532749,-0.19948992797647705,-0.7719212279843553,0.8557968823672583,-0.020664462230838492,0.6766592496728168,1.1400888250106866,0.17518235371330568,0.8193486575522124,0.9621409708766218,0.0,0.0,0.0,0.0
0.040930083649048744,-0.08933987788010138,0.7469871393495058,0.005867371780441324,-0.5219786577652964,-0.007957595906590152,0.8529012436696977,0.10534974606212144,-0.8639513736456306,1.0798046800752628,-0.19663485557297922,-0.7733853656901906,0.8628341913062542,-0.026983099584323295,0.6724024349833708,1.1598078946135386,0.18451472050807227,0.8273215602849546,0.9513163831175149,0.0,0.0,0.0,0.0
0.041016846778362766,-0.09032959808971185,0.7482062243009558,0.005901516711198852,-0.521826144359539,-0.007975418844676247,0.8529941616785058,0.10779441428935355,-0.858319781635568,1.075225570114271,-0.19406485807331209,-0.7743232284724192,0.8683418322119297,-0.0332607847776128,0.6683602430750839,1.1788996688953504,0.19301832882386166,0.8341454308554499,0.9418440376420086,0.0,0.0,0.0,0.0
0.04100081567835898,-0.09122931837055667,0.7492652139878103,0.005928930772546872,-0.5216800323232675,-0.007975161682971271,0.8530833420312575,0.10995604003618523,-0.853042014060668,1.0703808406028057,-0.19173895294199658,-0.7748456079506957,0.8724795619594322,-0.03972693859247929,0.6645964669378196,1.196685197026415,0.20077439646975426,0.8398041283811768,0.9337959101407571,0.0,0.0,0.0,0.0
0.04085042617437271,-0.09206694664252482,0.7501496303145752,0.005944867349393442,-0.5215267109306492,-0.00795467887504782,0.8531771629749897,0.11190588303391746,-0.848054840445674,1.0650094966275236,-0.18958511227485875,-0.7750262273767363,0.8752200525259276,-0.04674520531968595,0.661264160769908,1.2116908261493313,0.20806159108595196,0.8441064920917438,0.9274702536676916,0.0,0.0,0.0,0.0
0.040504915842649133,-0.09289034456077347,0.7508336819560796,0.005937079983917342,-0.5213363722625133,-0.007904601338662805,0.8532940028589815,0.11375172528009064,-0.8432697981036119,1.0586383670162571,-0.18749095273844435,-0.7749600502043184,0.8764436398489076,-0.05488986707320244,0.658846690448778,1.2212092317117345,0.21541102222721784,0.8467004272631619,0.9233647741413296,0.0,0.0,0.0,0.0
0.03990209241682699,-0.09376668646033044,0.751300408163403,0.005891491532737716,-0.5210653151071108,-0.007814113624704874,0.8534607005293842,0.11564917057573629,-0.8385814594229765,1.0507440431227308,-0.18530247818615878,-0.7748371666078591,0.8761696197755219,-0.06487031643216158,0.6586780236693165,1.2209832302603996,0.22349532096677557,0.8472438926437961,0.9219127568665427,0.0,0.0,0.0,0.0
0.03900802835865694,-0.09474523334606108,0.7515791374981473,0.005809681727229534,-0.5207011737745835,-0.0076849837493969805,0.8536846468414263,0.11771641632745551,-0.8336621550351225,1.040819753480614,-0.18288158879818656,-0.7746468058594049,0.8743760580783234,-0.07670958006809402,0.6607244098219908,1.2109527529495998,0.23256383959610205,0.845723510933445,0.922994463769801,0.0,0.0,0.0,0.0
0.0378151689824255,-0.09585860170117327,0.7517472027631397,0.0057036520020577455,-0.5202551837224876,-0.007527304448978366,0.8539586359136212,0.12003115772594339,-0.8279997622295668,1.0283946134289892,-0.18011305779031536,-0.7741873229548201,0.8710067538321749,-0.08978863427235233,0.6635636207100749,1.1952533280910984,0.24253559545614833,0.8424640230519764,0.9259119772657584,0.0,0.0,0.0,0.0
0.03631554468667073,-0.0971580856187701,0.7518934598324832,0.005576430142030565,-0.5197161599721798,-0.007343427731962894,0.8542892312090725,0.12270670466239578,-0.8211204404016388,1.0129910268378977,-0.17685746787526713,-0.7733589032418533,0.8661568453224998,-0.10367489846330569,0.6665644923314937,1.176508341456132,0.25356018471438213,0.8378251509058342,0.9298491459341627,0.0,0.0,0.0,0.0
0.03448199797241331,-0.09870606317643155,0.7520952141237119,0.0054166440512083466,-0.5190540758300369,-0.00712169247760302,0.854694569906527,0.12585761095389855,-0.8126074020553612,0.9940270393828996,-0.17297704123169252,-0.772081001478836,0.8598501308907346,-0.11826050437912322,0.6693714083711705,1.156196235099994,0.26600914483473814,0.8320365726394175,0.9341264678439238,0.0,0.0,0.0,0.0
0.032277253324718785,-0.10055356079085673,0.7524084396855084,0.005197486063562227,-0.5182306231403254,-0.006834430787070583,0.8551978121662998,0.1295380211276766,-0.8021713224582377,0.9709363024512202,-0.168397856686803,-0.7702239571315898,0.8519472841390507,-0.1338597061549504,0.6716938941867927,1.1351846791978786,0.280282108354186,0.8251891505912662,0.9382245818407636,0.0,0.0,0.0,0.0
0.02968148812040254,-0.10270953220312123,0.7528561858958954,0.004875903157439801,-0.5172061369682668,-0.006435461280757001,0.855822775046835,0.1336664712554993,-0.7898543974128363,0.9435181374200718,-0.1632026323927318,-0.7676279389320634,0.8422095201401152,-0.15143628698123007,0.6733683093807243,1.114191227191512,0.2965897061044995,0.8172778138148055,0.9417657229030924,0.0,0.0,0.0,0.0
0.026741521484414815,-0.1051021033073797,0.7534032157749029,0.004392136342660336,-0.5159376864363637,-0.005855636528269313,0.856594842602901,0.13794253467592263,-0.7764834327253264,0.9126553231471922,-0.15775938346786292,-0.7643049514097363,0.8306217201323965,-0.1732128087944325,0.6747415456345786,1.094222443379963,0.3147844926341733,0.808246018191283,0.9445843182645427,0.0,0.0,0.0,0.0
0.023660778253496943,-0.10753560258138367,0.7538874729379536,0.0036599503198827257,-0.5143163567176784,-0.004967215662725323,0.857578344377276,0.1417268048529767,-0.7649756825311813,0.8820768376765795,-0.15297173546667023,-0.761270118467235,0.8185139981522772,-0.20417296531895318,0.6776757825831219,1.0766595725369321,0.33455423478148977,0.7978737338667932,0.9471047976190868,0.0,0.0,0.0,0.0
0.020872488404669643,-0.10974758725319872,0.7539516185054285,0.0025918320616801966,-0.5120625109457568,-0.0035599566511347923,0.8589368975653175,0.14418537022800665,-0.7616079526402001,0.8600149711279212,-0.15027719384034963,-0.7620493491260317,0.8105695618308112,-0.2525944276761738,0.685691176817481,1.0625391417523273,0.35592380816493735,0.7854191384065909,0.950956507369901,0.0,0.0,0.0,0.0
0.018404767322688673,-0.11160530758196495,0.7531398323925398,0.0013261255097939738,-0.5092304461408895,-0.001785379381004022,0.8606273331324941,0.14536641798077593,-0.7680082889522859,0.8482802993993436,-0.14976497986802872,-0.7682542300895943,0.8076356216011797,-0.31979407463617143,0.6966665177829027,1.054023586000905,0.37582517477285315,0.7682720790383797,0.9602471901526901,0.0,0.0,0.0,0.0
0.016521209549074777,-0.11283341348561679,0.7514250468358139,0.00035457172476488366,-0.5061521638955906,-0.0001844063322240434,0.8624441009462629,0.14558986439567861,-0.7827081635171071,0.8475931895376076,-0.1510609949807216,-0.7805742934537797,0.81095216176629,-0.39089615092493735,0.7034476249264485,1.0542786000170783,0.3865513783660862,0.7466138251226158,0.974788680506375,0.0,0.0,0.0,0.0
0.016543812480220885,-0.11287429433790623,0.7513587968184667,0.00027474982710970676,-0.50615798851211,-0.0001310889202436881,0.8624407214374806,0.14558704391144453,-0.7828264471639553,0.8474014200840839,-0.15110978039674014,-0.7805948403434141,0.8109756568995747,-0.39091742880614727,0.7034589830799368,1.0542786635312948,0.3865782563566992,0.7465083677517252,0.9746627943860976,0.0,0.0,0.0,0.0
0.016543812480220885,-0.11287429433790623,0.7513587968184667,0.00027474982710970676,-0.50615798851211,-0.0001310889202436881,0.8624407214374806,0.14558704391144453,-0.7828264471639553,0.8474014200840839,-0.15110978039674014,-0.7805948403434141,0.8109756568995747,-0.39091742880614727,0.7034589830799368,1.0542786635312948,0.3865782563566992,0.7465083677517252,0.9746627943860976,0.0,0.0,0.0,0.0
0.01564440955691954,-0.1130213859181571,0.7520513021452591,0.00012579761178247662,-0.5078534951911304,-6.698178639414872e-05,0.8614434439419419,0.14490758703238585,-0.7662593205713654,0.8271978723940356,-0.1498155658376182,-0.7638864479798564,0.7910840802959503,-0.39293531312564545,0.7094179405259405,1.0522510403876,0.393245693850064,0.7533099050435951,0.97273286837486,0.0,0.0,0.0,0.0
0.014983119542809797,-0.11316373767300647,0.7523803645110733,0.00011918456408660413,-0.5088754905388068,-0.00012927941267540092,0.8608401153586897,0.14483021222364292,-0.7551316828292267,0.812796114257105,-0.1486866311941453,-0.753732933510772,0.7780322527623748,-0.3949914280847083,0.7125389478012065,1.0518372988577724,0.39640072352752764,0.7563552242071553,0.9726663908416228,0.0,0.0,0.0,0.0
0.014770794533116223,-0.11338863418177772,0.7525518055017327,0.00019115723631532344,-0.5094892042330056,-0.0002543698967958205,0.860476989538294,0.14536518617615046,-0.7485658275942376,0.8047882248514996,-0.14756085283756154,-0.7494474559365482,0.7731067127772309,-0.3969750685154908,0.7152405594400786,1.0513724564661562,0.39886065752964683,0.7586175847511384,0.9729926103290052,0.0,0.0,0.0,0.0
0.015093495557568493,-0.11383992339894068,0.7525707058013827,0.0003397002029033201,-0.5098288565018244,-0.0004503751441528821,0.8602756644495089,0.14686332645377134,-0.745851271909522,0.8027498669677013,-0.14603692693777637,-0.7513745965891208,0.7775610709631807,-0.39868150138279873,0.7183363186877375,1.0507129889003917,0.4025893030882778,0.7610921883077917,0.974145824262188,0.0,0.0,0.0,0.0
0.016000069526707898,-0.11463311870942446,0.7524194599409144,0.0005768478511222753,-0.5099829479545318,-0.000731979775509196,0.8601840060404344,0.1496288280848472,-0.746345148524208,0.8060420482791406,-0.14378138739777657,-0.7597258087868515,0.7920271940613403,-0.40000154828904533,0.722287406993425,1.0498986052917119,0.4090168146845981,0.7643420697388159,0.9766540411029904,0.0,0.0,0.0,0.0
0.017503498266409793,-0.11582920109750608,0.7520530545554173,0.0009016450016003707,-0.5100501820751177,-0.001054745095290277,0.8601435265781022,0.15368737940696892,-0.7494809744091147,0.8138821882583337,-0.14072178607050656,-0.7739698611809639,0.8158547500522777,-0.4006778181682501,0.7272527999649334,1.0493365676262132,0.4198956658007643,0.7689093089850915,0.9812480324204467,0.0,0.0,0.0,0.0
0.019609477945554954,-0.11753346696445836,0.7513239519052365,0.001025711264663636,-0.510666072080039,-0.0010506117103376022,0.8597778823380955,0.1583870363720156,-0.75293798199552,0.8232411841013649,-0.13716568248886704,-0.7895070700358571,0.8441863265924578,-0.3982430839200849,0.7340696609749445,1.0512792051431976,0.44597262770388113,0.7786368965151395,0.9909961237447886,0.0,0.0,0.0,0.0
0.02295882131283363,-0.12005859213231843,0.7529854304629403,-0.0007134082972414272,-0.5127912273120692,0.001211680546141255,0.8585121898206439,0.16007146876141662,-0.751816409523575,0.8350841833518486,-0.13576496045674713,-0.7890531957623538,0.8687866879652214,-0.3621997234069382,0.7523391285056408,1.030613399987659,0.3565761044803361,0.7517521966906764,1.0108719045199752,0.0,0.0,0.0,0.0
0.02650709893292959,-0.12279395268370878,0.7536426084210707,-0.0023450390860030998,-0.515087679618027,0.0033537094683645016,0.8571277242804619,0.16280705031639883,-0.7525349639655949,0.8475659288696058,-0.1336369168442051,-0.7921778187732926,0.8962071624489992,-0.3242119309141913,0.7670134939743638,1.0170099693073484,0.2747547461348876,0.7303927145469353,1.0302778659286596,0.0,0.0,0.0,0.0
0.030039501169788933,-0.12554593941387515,0.7538829054154543,-0.0032857642024975873,-0.5168668860460374,0.004592133957668616,0.8560471588460492,0.16773273057175928,-0.7539304893148815,0.8601101179457429,-0.12970695802356252,-0.8020023604160399,0.9286310961769987,-0.29332962645724203,0.7800535144265347,1.0052304935818372,0.2181905512659174,0.7169647678293415,1.0499349550265022,0.0,0.0,0.0,0.0
0.03320133424638636,-0.12797179013392346,0.7539891282224039,-0.0037802470503024003,-0.5181897420446963,0.005260047158484396,0.8552411548070991,0.1730950148199625,-0.7553163483897187,0.8713283479315567,-0.12540542642958022,-0.8133485037676409,0.9591325986049686,-0.2694454360107005,0.7914632653697712,0.9946229172015608,0.18018194240701438,0.7083435355461302,1.0701075962709157,0.0,0.0,0.0,0.0
0.03579550485416627,-0.12988891132329572,0.7540025420591823,-0.004044930845921415,-0.5191591798021274,0.005635995349346923,0.8546494135714692,0.177742992765102,-0.7567396136850041,0.880754685716274,-0.1217027758473654,-0.823399355967513,0.9841177681024496,-0.251696710267761,0.8006456582982006,0.9861526767477992,0.1535685913239075,0.7020807848065602,1.0903271289456666,0.0,0.0,0.0,0.0
0.03783329897807444,-0.13132224117854369,0.7540309698802743,-0.004214408017406398,-0.5198811548177017,0.00588034203048348,0.8542079636763404,0.18135130762065405,-0.7579498144204504,0.8883507581298264,-0.11884705987298615,-0.8311363533598665,1.0032309993683632,-0.23848967538786287,0.8079927814877732,0.9792162798102434,0.1330404728448433,0.6967923671787183,1.1103593881557892,0.0,0.0,0.0,0.0
0.039421426566609456,-0.13238323497457052,0.7541551690894528,-0.004356127046202204,-0.52043733660437,0.006072204433382195,0.8538671624782314,0.18402568261594915,-0.7587371598800717,0.8943388221646759,-0.11672917900657942,-0.8365689945390743,1.0175162915200744,-0.22821877528277812,0.8141320804928478,0.9728648334056427,0.1154182343249234,0.6918609926594438,1.1301240215375596,0.0,0.0,0.0,0.0
0.04067285948899009,-0.1331886106812179,0.7543738208532715,-0.004495706881637775,-0.5208812730965093,0.006246375112719884,0.8535944416143684,0.18600225099496842,-0.7591050878691048,0.8990231019389417,-0.1151502933636463,-0.840197920595147,1.0282650522620025,-0.21968472283937246,0.8193929001364755,0.966733123187115,0.09922932965400523,0.6871018600840055,1.149473687422794,0.0,0.0,0.0,0.0
0.04168055404506172,-0.13384430663615754,0.7546426256312423,-0.0046381430540061806,-0.5212499103161072,0.006414053274439284,0.8533673760726112,0.18754632968549978,-0.759114962470154,0.9026143676028507,-0.11388946221555925,-0.8426532221690654,1.0366394845378788,-0.21201828557699773,0.8238813662464609,0.9608525370749018,0.08388129292202988,0.6824921314763408,1.1680759622976342,0.0,0.0,0.0,0.0
0.04250479797740186,-0.1344361094122889,0.7548928666530378,-0.004778683163639082,-0.5215681506046294,0.006574325363506415,0.8531709129524417,0.18889484039471796,-0.7588371932811955,0.9051799336768303,-0.11274740665115193,-0.8445298183409891,1.0435141329209618,-0.20463969351656344,0.8275031202726612,0.9555701909815135,0.06925569772766942,0.6780797170817237,1.1852177489790308,0.0,0.0,0.0,0.0
0.04316825085965686,-0.13502349358298688,0.7550398229639642,-0.004907989859336299,-0.5218499523104615,0.006719766676999729,0.8529967078746062,0.19022467182408734,-0.7583483244367757,0.9066496029312539,-0.1115737002106256,-0.8463182462709234,1.0494141278013562,-0.19725533011048654,0.829972259032367,0.9515179934776703,0.05553990137791986,0.6740412079390343,1.1994962870607486,0.0,0.0,0.0,0.0
0.04366098644525379,-0.13563581062096158,0.7549908590725095,-0.0050141918098877926,-0.5220969936170867,0.006838964157483277,0.8528439574187918,0.19163865060269086,-0.7577595259725026,0.9068899607130415,-0.11028351795352737,-0.8483966879862891,1.0545463032317661,-0.18987452422632337,0.830859515159004,0.9495427776295358,0.043182234441272685,0.6709513816740295,1.208372790477645,0.0,0.0,0.0,0.0
0.04396672354485886,-0.13627678730304632,0.7546705395666222,-0.005085206536489801,-0.5222999760962121,0.006920625675690436,0.8527185822911534,0.19317421271718618,-0.7572384690698393,0.9058735623081227,-0.10885726010407852,-0.8510508241974255,1.0589851164150297,-0.18272939114934156,0.8297911793170388,0.9503963965905526,0.032825828162154125,0.6702931153463105,1.2078405006395379,0.0,0.0,0.0,0.0
0.04409123737742417,-0.1369633207157889,0.7540562865084581,-0.005118844085061961,-0.5224656596279068,0.006961249473661016,0.8526165450837642,0.19488340405410892,-0.7567727609855478,0.9035422606222957,-0.10724606130114772,-0.8543987158592786,1.0628534814520643,-0.17576728844318748,0.8267122998966614,0.9542432039671574,0.02438336053270868,0.6720770049821617,1.1979443937077914,0.0,0.0,0.0,0.0
0.04406445973503183,-0.13773006818453332,0.7531753141510003,-0.005122465591571616,-0.5226159904911941,0.006966201727316953,0.8525243450263843,0.19684294761419033,-0.756178239746029,0.8998078421701775,-0.10536375969001707,-0.8584204317979919,1.0663611669167434,-0.16857909916720296,0.8218647292232152,0.9606561867958008,0.017046268124428568,0.6748353665696808,1.182754417815167,0.0,0.0,0.0,0.0
0.04391448770873336,-0.13859732212534925,0.7520678851998462,-0.005103123451642133,-0.5227617798603111,0.006942302545643621,0.8524352667995861,0.19909135519158144,-0.7553225018370315,0.8946698072703235,-0.10316501413654766,-0.8630579603793381,1.0696671949289094,-0.16083844977606832,0.8155208155525658,0.9690910034847108,0.01022129052703407,0.6779986717955927,1.1648331568887471,0.0,0.0,0.0,0.0
0.04364480049176399,-0.1395708111819845,0.7507626276142527,-0.005067748801749441,-0.5229041203388416,0.0068961733115320625,0.8523485446977673,0.20162634867923623,-0.7540988269517255,0.8880501031958347,-0.10064043608776901,-0.8682026865902979,1.072730698349106,-0.15232902181361882,0.8077943996629975,0.9791865728135937,0.0035364871204512536,0.6814180949316139,1.1455423580497233,0.0,0.0,0.0,0.0
0.043234858548931304,-0.14064538405655164,0.7492711841947107,-0.00502621253823676,-0.5230388375420442,0.006837755200551824,0.8522665995532177,0.20440642692768815,-0.7524226397134306,0.8797740727250919,-0.09781503186541407,-0.8736907902064855,1.0753109740922553,-0.14287160944952687,0.79861409618618,0.9908094675943786,-0.0032703984575802756,0.6851393239930751,1.1254569476749983,0.0,0.0,0.0,0.0
0.042652872836264774,-0.14180188423326812,0.7475897473175619,-0.0049956464035667576,-0.5231600732083352,0.006785808559236165,0.8521927799036185,0.2073363068693906,-0.7502927696719588,0.8696953345637081,-0.09477102454026165,-0.8793036805969681,1.0770252896973154,-0.13229814699618794,0.7877761766165553,1.0040177181014138,-0.010487010258297434,0.6893792343866315,1.1046302232880807,0.0,0.0,0.0,0.0
0.041877706942395565,-0.14299101125568622,0.7457039447637529,-0.005006941343745005,-0.5232643597085194,0.0067763622363176835,0.8521287586462833,0.21021843516661579,-0.7479424477930933,0.8579886287272097,-0.09171309525662222,-0.884748527494268,1.0774140794639613,-0.12051654187123978,0.7750558279168306,1.0190121889830455,-0.01858153542440591,0.6946041435510067,1.0827212451862125,0.0,0.0,0.0,0.0
0.04093188165312751,-0.14409829631931467,0.7435939616289606,-0.005115926959005436,-0.5233434743730393,0.006886821453593247,0.8520786388666086,0.2126319868504292,-0.7462346573287103,0.845786862208241,-0.08912843049724688,-0.889660046372017,1.0760525958885097,-0.10753490788129799,0.7602778582567236,1.0360967788397553,-0.02833424760012734,0.7016453888462558,1.058957487228887,0.0,0.0,0.0,0.0
0.0398937692881562,-0.1449931068914001,0.7412775712459668,-0.005410686835889852,-0.5233908712946931,0.007255491894076084,0.8520446456323288,0.21400096214204672,-0.7464772856969749,0.8350313820264245,-0.0877042908308843,-0.8935689592874815,1.0727389071633344,-0.09266623555388226,0.7433751656447318,1.0551231443700213,-0.040914462395368306,0.7115556901284075,1.0318901791259627,0.0,0.0,0.0,0.0
0.03882214171360942,-0.14562746275217495,0.7388913969040801,-0.00600653500381943,-0.5234159426330353,0.008046376785912641,0.8520181502500038,0.2138550541134428,-0.7492996657305367,0.8269180478091377,-0.0879470489897719,-0.8955987049299752,1.0671643811663412,-0.07390932841254488,0.7244423593365164,1.0747040143399702,-0.057970496139362726,0.7251930754795141,0.9988844572248141,0.0,0.0,0.0,0.0
0.037930060659946765,-0.14599243217419125,0.7369472078741651,-0.006978287707431193,-0.5235093500798197,0.009300141532777995,0.8519405913836642,0.21206209139422783,-0.7539632654254644,0.8226071340513326,-0.0899016194025829,-0.894321043935667,1.0598604404641507,-0.05070380757769671,0.7064071099914104,1.0901996421903595,-0.07803683852837243,0.7434470955520285,0.9576613093786474,0.0,0.0,0.0,0.0
0.03795110511040455,-0.14600845020716474,0.7368972953735438,-0.007006440414574386,-0.5235288511920314,0.009314989710685447,0.8519282145397925,0.2120754784990028,-0.7539956594068995,0.8225256721371853,-0.08989525418751709,-0.8943479561596142,1.0598852499049203,-0.05070305643880563,0.7063790791482556,1.090197591082171,-0.07804105470449946,0.7434617891652132,0.9576589837824303,0.0,0.0,0.0,0.0
0.03795110511040455,-0.14600845020716474,0.7368972953735438,-0.007006440414574386,-0.5235288511920314,0.009314989710685447,0.8519282145397925,0.2120754784990028,-0.7539956594068995,0.8225256721371853,-0.08989525418751709,-0.8943479561596142,1.0598852499049203,-0.05070305643880563,0.7063790791482556,1.090197591082171,-0.07804105470449946,0.7434617891652132,0.9576589837824303,0.0,0.0,0.0,0.0
0.03791488651307514,-0.14613033333830933,0.7373481714780042,-0.006265071571497963,-0.5239126433392043,0.008337293999299554,0.8517081545672208,0.19891332282732052,-0.7765059723410438,0.8442924827874156,-0.08721008884231908,-0.8940968164978239,1.0600263438161266,-0.06512546118372323,0.7143590833491007,1.0874555596605506,-0.09047306964323386,0.7420252064426113,0.9533787906584491,0.0,0.0,0.0,0.0
0.03771231173137726,-0.14693735238654923,0.7378183514639335,-0.00565169161028906,-0.5242457550227234,0.007437558010340382,0.8515157834435247,0.18369114421695315,-0.7991570033819233,0.8549214571920365,-0.08283443586753224,-0.8947985965893775,1.0614383821006645,-0.07135189088057875,0.7199277499477994,1.0826718492760918,-0.0954843139030998,0.7411423977848386,0.9519506156919008,0.0,0.0,0.0,0.0
0.037456191953089364,-0.14838223452887994,0.7381366982865329,-0.005076621893903874,-0.524483823664365,0.0065830236398507535,0.8513798273534033,0.17029665690104429,-0.8194909361961091,0.8585264175333546,-0.07691663100709123,-0.8977247107585046,1.0653791984157799,-0.07040990321951565,0.7229174935438043,1.077197739235897,-0.09469086162801754,0.7398687999011817,0.9544701637803307,0.0,0.0,0.0,0.0
0.03709674069005292,-0.15011557515987403,0.7383156998551299,-0.0045345979411993515,-0.5247282996499257,0.00583035130946565,0.8512377200122287,0.1602133580293276,-0.8380480468192014,0.8590415536226983,-0.07049012733301561,-0.9010150945429426,1.0694148289993983,-0.0652764892140689,0.7240250667945946,1.0721050200756828,-0.09057683576311164,0.7382589870347761,0.9596994585872778,0.0,0.0,0.0,0.0
0.03660586014783918,-0.15186358526672863,0.738437466770676,-0.004041496795255641,-0.5249590759099793,0.005186552684946441,0.8511020706088317,0.15290504762420543,-0.8552717387755976,0.8577813639992714,-0.06427625933004552,-0.9036487371721705,1.0721987836112576,-0.05849386430617919,0.7238988266460161,1.0674954688787894,-0.08503005766090507,0.7364338852452911,0.9657795244807557,0.0,0.0,0.0,0.0
0.03603301345679258,-0.15344902496639376,0.7385907931051721,-0.0036134548057502793,-0.5251675470257502,0.004651329937107628,0.8509784695426433,0.14723787771191882,-0.8716471783491443,0.8553656523297475,-0.0587402672876366,-0.9051529776460501,1.073411982674177,-0.051732764698943313,0.7233560408922732,1.0630500286086368,-0.07933519687218811,0.7348320081612492,0.9710997423649349,0.0,0.0,0.0,0.0
0.035415671602813524,-0.1548144269866726,0.7387774965627939,-0.0032511999455205206,-0.5253502558201798,0.0042063251674352995,0.8508694642759086,0.14222783378989848,-0.887564666254994,0.8520207000731181,-0.05399719395370506,-0.9056229660123661,1.0732312970554891,-0.04575150732384023,0.7226896105019355,1.0588899237728489,-0.07414430441943767,0.7334313384208043,0.9753605616291384,0.0,0.0,0.0,0.0
0.034782679777033886,-0.1559622514493003,0.7389834869824808,-0.0029479072940728416,-0.5255081363351473,0.0038305234125935385,0.8507748442323217,0.13719332889972416,-0.9031646938291003,0.8479020511186278,-0.04999491752942866,-0.9053040276808569,1.0719889288373519,-0.040773622039828684,0.7220148456992507,1.0551187556132187,-0.06970667106106736,0.7321533251481442,0.9786557612771895,0.0,0.0,0.0,0.0
0.034148545309052335,-0.15692188690660772,0.7391987218635637,-0.0026937367438508468,-0.5256415166033986,0.0035046303731990423,0.8506946910444316,0.1317236632166153,-0.9182215053766956,0.8432260464943345,-0.0466106491713336,-0.9044291706975739,1.069984333581387,-0.03675409051757159,0.7213630511270036,1.0517411250640465,-0.06603766964043283,0.7309287657229107,0.981160374339114,0.0,0.0,0.0,0.0
0.0335057578567561,-0.15773690620971523,0.739420671785363,-0.0024775274716541695,-0.5257478987186727,0.003212077497009922,0.8506307609113843,0.1255956929392908,-0.9320209665756314,0.8384073598260082,-0.043688246393266676,-0.9031519565316125,1.067377566711162,-0.03349676423612875,0.720686986962754,1.0486756302961815,-0.0629979064188083,0.7296757513200146,0.9830612920092391,0.0,0.0,0.0,0.0
0.03281909259677291,-0.15846401701173057,0.7396543582443472,-0.002286653126782837,-0.5258222980795235,0.0029389485859239233,0.8505862946468487,0.11872407008416336,-0.9432752564520361,0.834219269566817,-0.041042297352107626,-0.9015183193623594,1.0641370521588132,-0.030676890414769648,0.71985107259381,1.0457647101741967,-0.06030830248360506,0.7282773512619525,0.9845631365407402,0.0,0.0,0.0,0.0
0.032026004326701746,-0.15917439237263198,0.7399111878137744,-0.002106201789828974,-0.5258613411034172,0.002673872579861797,0.8505634980719327,0.11116056260819368,-0.9502426244698965,0.8318951815449315,-0.03845595178215998,-0.8994530661029367,1.0600283209555053,-0.027845954456535305,0.7186454573127093,1.0427838532648306,-0.057557187263863455,0.7265850844989697,0.9859080073166371,0.0,0.0,0.0,0.0
0.031050535201404657,-0.1599437472093113,0.7402060031368859,-0.0019198486395208443,-0.5258717202487949,0.002408324509231089,0.8505583154592239,0.10306849073711466,-0.9513552028585237,0.8328955809969835,-0.035709352184167216,-0.8967542508979409,1.0546504727942612,-0.024528168098870717,0.7168645695972202,1.0394869554673931,-0.05429374117732405,0.7244625678517073,0.9873534949737012,0.0,0.0,0.0,0.0
0.0298290989344497,-0.16081630033824185,0.7405404276376077,-0.001717195431376577,-0.5258503409246489,0.002134977682727542,0.8505726965166324,0.09460044487491402,-0.9465844771075678,0.837163738576061,-0.03267188775593706,-0.8932684857920823,1.0476243147822881,-0.020510273411410783,0.7143070842194064,1.0357946189074383,-0.0502895406374137,0.7217073495258783,0.989114333082724,0.0,0.0,0.0,0.0
0.028322164939734277,-0.16179503669106846,0.7409103995771186,-0.0014964609669692467,-0.5257834126210376,0.0018490110024848973,0.8506151566810121,0.08583572286274056,-0.9374678120762003,0.8431761225362437,-0.029329174878273707,-0.8888953438731825,1.0386476231257677,-0.015886490909349363,0.7108445409930718,1.031740346354852,-0.0455914875726984,0.7181207990713637,0.9912400878858869,0.0,0.0,0.0,0.0
0.026508826320296955,-0.1628564208509844,0.741346060173469,-0.001261765581618569,-0.5256680318936697,0.0015547013093850752,0.8506874344296449,0.07683842688453331,-0.9257491816782651,0.8497116951469277,-0.02575822196011244,-0.8833508004744356,1.0273489387636594,-0.010869693374492301,0.706599172781851,1.0271122117481635,-0.04036799043799727,0.713768613709123,0.9933611251539108,0.0,0.0,0.0,0.0
0.024357184328860713,-0.16398123523414862,0.7418693447252049,-0.0010163257090409431,-0.5255033160934063,0.0012573978192839971,0.8507900156957713,0.06769792954906796,-0.9127785487012728,0.8560418765388452,-0.02202916319325108,-0.8763133755608254,1.0132499272266269,-0.0056282482778602285,0.7016282918320197,1.021760036182217,-0.034760395496123205,0.7086569408210281,0.9952094262439444,0.0,0.0,0.0,0.0
0.02183428411045962,-0.16515154483836778,0.7424962913775807,-0.0007637134177811218,-0.5252877840744473,0.000963661244010335,0.85092375216642,0.05845808405621844,-0.8993936386509567,0.861907611363167,-0.01821358350438385,-0.8674577505707807,0.9958324444888408,-0.00030236031403374237,0.6959628319314087,1.0155618390160872,-0.028897416009895795,0.7027712427278057,0.9965620209030182,0.0,0.0,0.0,0.0
0.018926466021568097,-0.16634677887255933,0.7432259518400216,-0.0005081337047027225,-0.5250210943753053,0.0006790522358185463,0.8510887915776801,0.04905855905276723,-0.8859995837126451,0.8674445684230666,-0.014388857240770861,-0.8565593140261313,0.9746970723028962,0.004950586122783894,0.6896376692050477,1.0085106737621312,-0.022943664247917057,0.6960871153076962,0.9972951238115482,0.0,0.0,0.0,0.0
0.015667797745683408,-0.16754507644950883,0.744003371165847,-0.0002523806090188735,-0.5247103234511796,0.000402981212846706,0.8512807118535746,0.03933706998002571,-0.8726861505258667,0.8731059731938696,-0.010620867674289403,-0.8437234542892922,0.9498520271283529,0.009931780570250993,0.6826298194138083,1.0010333270205485,-0.0171347947612842,0.6884867490062672,0.9976974005123326,0.0,0.0,0.0,0.0
0.01219245351024036,-0.1687054456971537,0.7446642592275713,2.325502187677208e-06,-0.5243819862678862,0.00012582245310247374,0.8514831276314573,0.029102876060469463,-0.859368712421865,0.8795451667896159,-0.006999443179329304,-0.8297305697450864,0.9222035466929276,0.014286767009273879,0.674767250128004,0.9945603197650156,-0.011907229576181011,0.6796634857632172,0.9988922393113162,0.0,0.0,0.0,0.0
0.008979419256623199,-0.1697496208341926,0.74499315807764,0.00022567731978082647,-0.5239907527713868,-0.00012508227383495866,0.8517239132689933,0.018726952449408023,-0.8452583415611468,0.8859126340532104,-0.0037867402936280757,-0.8175486434121259,0.8963767629797126,0.01796213229156807,0.6662454340487068,0.9906662957896667,-0.0074360304207132825,0.6700433827839312,1.001920018782799,0.0,0.0,0.0,0.0
0.006278432377893514,-0.17049976544859394,0.7449833892081169,0.0004037491740319815,-0.5236120206828248,-0.0003295207091292817,0.8519566774191959,0.009033196208674156,-0.8322209028902007,0.8928242613041089,-0.0014564580228341594,-0.8077299161110106,0.8740517156558124,0.02010127597309412,0.6578390460167676,0.9900580945195888,-0.004674820928376978,0.6604922640271418,1.0062276836677897,0.0,0.0,0.0,0.0
0.004528957585427363,-0.17091087270883762,0.7447400675186446,0.0005318829383376427,-0.5232806031368298,-0.000480596568484175,0.8521601354840731,0.0022220998213643463,-0.8235837117671819,0.8987533666550492,-0.00011045263130014349,-0.8021844501077916,0.859622637058735,0.020709597745684087,0.6512478933762874,0.9917549833075353,-0.0037014116627036757,0.6529035059671368,1.0105017947545563,0.0,0.0,0.0,0.0
0.004538523013424049,-0.1709365465499479,0.744717483695671,0.0005494682209218068,-0.5232646890546572,-0.00047722443527088547,0.8521698982773597,0.0022311074123499922,-0.8235968136236739,0.898762562075431,-8.472232105663437e-05,-0.802212085902961,0.8594898219039115,0.020708653329537554,0.6512694287647002,0.9916433324280142,-0.003703671614776842,0.6528388196148552,1.010559252324045,0.0,0.0,0.0,0.0
0.004538523013424049,-0.1709365465499479,0.744717483695671,0.000549468220921807,-0.5232646890546574,-0.00047722443527088574,0.8521698982773596,0.0022311074123499922,-0.8235968136236739,0.898762562075431,-8.472232105663437e-05,-0.802212085902961,0.8594898219039115,0.020708653329537554,0.6512694287647002,0.9916433324280142,-0.003703671614776842,0.6528388196148552,1.010559252324045,0.0,0.0,0.0,0.0
0.004538523013424049,-0.1709365465499479,0.744717483695671,0.0005494682209218068,-0.5232646890546572,-0.00047722443527088547,0.8521698982773597,0.0022311074123499922,-0.8235968136236739,0.898762562075431,-8.472232105663437e-05,-0.802212085902961,0.8594898219039115,0.020708653329537554,0.6512694287647002,0.9916433324280142,-0.003703671614776842,0.6528388196148552,1.010559252324045,0.0,0.0,0.0,0.0
0.004359264241011761,-0.17148646953790508,0.7446520852098314,0.00038269867186295953,-0.5232631198215965,-0.0002484762266200804,0.8521710504563393,0.003114548594675712,-0.8221644227764833,0.895486845816497,0.0007811479146944076,-0.8020536527295812,0.8591124932174958,0.02681089149638368,0.6494465776397697,0.9900782805998087,0.0026425523117013005,0.6531647241712761,1.013372375784909,0.0,0.0,0.0,0.0
0.004602695518410541,-0.1720887092554827,0.7445259166420805,0.00025843134251767486,-0.5232184778492824,-0.00010402572555767183,0.8521985372135824,0.004336886782550746,-0.8230631055835416,0.8964196811918369,0.001986668862585076,-0.8050290555424143,0.8639475104020466,0.032480076567752036,0.6486857119604348,0.9885296981180361,0.008601407480852044,0.654105627568517,1.0163493151399803,0.0,0.0,0.0,0.0
0.00535671167482037,-0.17253920198746406,0.744375648566887,0.00021198394298773212,-0.5233090658288994,-4.927553957588111e-05,0.8521429306495559,0.005373691958949568,-0.8259921012404379,0.9020740122443712,0.0030099993566337765,-0.8099183009833435,0.8729617271565068,0.03624936329075357,0.6500049681097009,0.9876754066983481,0.012518999195463489,0.6564248158964826,1.0187053299432791,0.0,0.0,0.0,0.0
0.0066704390710365736,-0.17275739010702126,0.7442025634926294,0.0002126650763896838,-0.5235300860051444,-4.6796503897266216e-05,0.8520071605515406,0.0059401636180795615,-0.8314844609511753,0.913273107743501,0.0035659215241450465,-0.8166370859542764,0.8861540684759039,0.03809101900474119,0.6534335529690392,0.9876638950681997,0.014273487987039996,0.6603856482090075,1.0201189483687974,0.0,0.0,0.0,0.0
0.008585911064472675,-0.17274565738065334,0.7440277072736483,0.0002722654512571179,-0.523903569365441,-0.00011107236913111453,0.851777531718584,0.006072828997080204,-0.8394101325397676,0.9300458319350355,0.003689139820382909,-0.8251442046698231,0.9036340087038311,0.037859012147373486,0.6593540702842892,0.9882506949676638,0.013647828568425953,0.6662357201220427,1.0203332271218792,0.0,0.0,0.0,0.0
0.011138645833665736,-0.1725798954149646,0.7439065304654927,0.0004727321157338139,-0.5245328935059638,-0.0003349907130096656,0.8513899858089888,0.006161279086254582,-0.848563352517079,0.9513059975563596,0.0037672424574547296,-0.83512077788771,0.9253106956933846,0.034891097208445174,0.6688346391142834,0.9888328919798071,0.009879604966456193,0.6743065367264225,1.019053319539204,0.0,0.0,0.0,0.0
0.014359293781560301,-0.17241610726844686,0.7439378434565936,0.0010450268475878234,-0.5257229410714277,-0.001011721925028129,0.8506546147343482,0.007252980218223333,-0.8556856495744641,0.9740799472993638,0.004845647241880988,-0.8455630278853816,0.9505039475082377,0.026663564485539575,0.6844746207962692,0.9887011960903572,0.00020201217802770684,0.6849039374362063,1.0159499848985758,0.0,0.0,0.0,0.0
0.01763050598581887,-0.17230095291496272,0.7436355501180703,0.0011239963788585976,-0.5256285224396376,-0.0010617421192428594,0.850712798618744,0.0070962045720879136,-0.8726833483661787,1.0050771348464027,-0.00878515699171415,-0.8425066902690412,0.9233688818374545,0.025144812123699053,0.6933584140120352,0.9876042091379811,-0.0019454983044231893,0.6931336744202548,1.0137666994226269,0.0,0.0,0.0,0.0
0.02077820442740999,-0.17250628574782506,0.743216152048777,0.0013436022591501934,-0.5256824346590724,-0.0013370468770650353,0.8506787789345212,0.008300393795058047,-0.8867888258137613,1.0317196743401351,-0.022813623259253353,-0.8475719241031002,0.9033106482566632,0.023570281302680626,0.7024104219950168,0.9869297966548336,-0.004235389726673809,0.7003554055745977,1.0136942329337917,0.0,0.0,0.0,0.0
0.023472885773806903,-0.1729573614942487,0.7427557437714298,0.0015913806754334831,-0.5258223762962991,-0.0016745615788555505,0.8505912602050281,0.010320060541439257,-0.8974382611207088,1.0523941212006434,-0.035768256297188175,-0.8570380173815569,0.889084873377516,0.023167341773249493,0.7102451437998452,0.986354080224226,-0.005283721612874753,0.7062949308574986,1.01530802263198,0.0,0.0,0.0,0.0
0.02560391452919192,-0.1736401544579639,0.7423568153561287,0.0018027576305962396,-0.5259302945204393,-0.001994392113239064,0.8505234257624348,0.012943504398578205,-0.9049571652185601,1.067272249260327,-0.04732888498413414,-0.8684937203344378,0.8781633373598993,0.024905069839853806,0.7162660456048734,0.9849287955011458,-0.0039951806406659345,0.711078949385755,1.0177772805938166,0.0,0.0,0.0,0.0
0.02718705688484762,-0.17449468024263617,0.7420439401944244,0.0019653899335277327,-0.5259677804616368,-0.0022698677491468718,0.850499193920294,0.015942326254776058,-0.909884376738098,1.0771608615135515,-0.05770183704839437,-0.8807326532522047,0.8688141504624805,0.028697270615919916,0.7203816696413202,0.9826336530194256,-0.0004008713705375062,0.7148002214146878,1.0207241000447498,0.0,0.0,0.0,0.0
0.028319639241965663,-0.17543836326700624,0.7418121497605852,0.0020924709839012607,-0.5259560204163962,-0.002503288810520093,0.8505055083290526,0.019087485624662795,-0.9127725897638044,1.0831710917976838,-0.06727083066570447,-0.8932004249031965,0.8600632980083103,0.033793360431376346,0.7230015805422176,0.9797771677788181,0.004757228681079815,0.7176689228461394,1.023863144425444,0.0,0.0,0.0,0.0
