zhuoxili-jackie/tripod-support-walk/examples/trajectory_trot_sideways_p3_left_v0.15.csv
root_pos_x,root_pos_y,root_pos_z,root_rot_x,root_rot_y,root_rot_z,root_rot_w,FL_hip_joint,FL_thigh_joint,FL_calf_joint,FR_hip_joint,FR_thigh_joint,FR_calf_joint,RL_hip_joint,RL_thigh_joint,RL_calf_joint,RR_hip_joint,RR_thigh_joint,RR_calf_joint,FL_foot_joint,FR_foot_joint,RL_foot_joint,RR_foot_joint
0.0,0.0,0.664888,0.0038739181747107386,-0.3883128170371229,0.008248016113749812,0.9214825658214358,4.59e-06,-0.523609,-0.523606,1.78e-06,-0.523593,-0.523596,2.47e-06,-1.36e-05,1.04719,-8.76624e-06,-1.88e-06,1.04721,0.0,0.0,0.0,0.0
0.00042644657717665963,0.00024228518865369349,0.6643331430972916,0.0037789628306560265,-0.3885835573741527,0.008183167611371608,0.9213694015682403,-0.00045078677623607493,-0.520600123052918,-0.530259615836128,-0.0004535848261104172,-0.521825986551569,-0.5273361907979007,-0.0005274573411381635,-0.0025351906680701848,1.0548125978004017,-0.0005387425041334042,-0.001904895633045274,1.0530396402151465,0.0,0.0,0.0,0.0
0.001314509097902906,0.0007586825548841849,0.6634751083687194,0.003749985000512136,-0.38872386917626267,0.008081215053143364,0.921311231402503,-0.0016422472474668997,-0.5135383107319603,-0.5465882198505425,-0.0016437052082749419,-0.5172064383268788,-0.5381384748026592,-0.0021293668758623043,-0.006323645234239186,1.0662203145280666,-0.0021390676011463147,-0.004552434921973261,1.0608198068261416,0.0,0.0,0.0,0.0
0.002749245094569833,0.001629013523247146,0.6625644105356218,0.0037600462269970574,-0.3888403893297277,0.007954196513851828,0.921263124430852,-0.0038863831886040735,-0.5013755417254122,-0.5731004295320606,-0.0038815195885235883,-0.5087886904401254,-0.555928796411915,-0.004956403139697051,-0.009902023983026018,1.0800255790332958,-0.004957463279907252,-0.006274741072697437,1.068712432036748,0.0,0.0,0.0,0.0
0.00488511724584217,0.0031202451704083548,0.662215320897882,0.003757191839428485,-0.3892247833053284,0.007869583799706911,0.9211015260117753,-0.008355001965023746,-0.48152778549536596,-0.6110285065842249,-0.008325468542707878,-0.4946197864696936,-0.579465293570257,-0.009556026347976927,-0.009928231652115137,1.0932373896749266,-0.009528140641691933,-0.0030064419129695544,1.0721935246354575,0.0,0.0,0.0,0.0
0.008103407102085357,0.005883071747125121,0.6640606949806934,0.0037210384880574958,-0.39055735337370334,0.007979645805357146,0.9205364918628265,-0.01784280391781752,-0.44664297599874825,-0.6645595488189995,-0.017712684358737154,-0.46891684806732714,-0.6073114656294993,-0.01758637192164663,0.0023608772097584146,1.0975377286335817,-0.017469659045033302,0.01572636923404057,1.0590526074313158,0.0,0.0,0.0,0.0
0.01119875980615944,0.008798124811447532,0.6651340775522178,0.003409389478998237,-0.3901253260181499,0.008006459415698667,0.9207206431215917,-0.018473588231916305,-0.4797586317531951,-0.6196592662807826,-0.027138851367322005,-0.4477300188077422,-0.639305432399532,-0.02561105432112551,0.00934359053991782,1.1008485620719914,-0.020464278116679058,0.008262973741129255,1.0696402802153082,0.0,0.0,0.0,0.0
0.014857900908978131,0.011846178749580995,0.6663070817273231,0.0032435611862695938,-0.3895939043571507,0.007941798200216402,0.920946793707394,-0.017520985119839995,-0.5043468970355222,-0.5961887482725777,-0.03680382211395139,-0.42350020152228895,-0.6769782606515429,-0.034744629998322826,0.017863850423912645,1.1039613468618947,-0.023343315335877052,0.0014510249194566015,1.0809441518029168,0.0,0.0,0.0,0.0
0.018321338215659327,0.015068397341433483,0.6675615202339656,0.003056830320144103,-0.3893384674986665,0.00791776929599783,0.9210556565395812,-0.01775478329409274,-0.5223600351984841,-0.5853342675674807,-0.04729805258377942,-0.40213235675478115,-0.7067802940744289,-0.04441269217152291,0.026779970570923094,1.1071439017178253,-0.027044448443620424,-0.004292233341681618,1.0924303034699303,0.0,0.0,0.0,0.0
0.021374094145572124,0.018383430491582767,0.668922425280318,0.0028463827397337505,-0.38928037517545594,0.00791826657949891,0.9210808806304315,-0.019213757109360085,-0.5359377713413583,-0.5816018089712205,-0.058182639327233894,-0.38413621370153606,-0.7283461060983124,-0.054380259455151694,0.03587572873389064,1.1093497371870722,-0.03176008628465154,-0.009477480377953377,1.10370401037646,0.0,0.0,0.0,0.0
0.02393299682671453,0.02172058761442866,0.6703639068104322,0.0026266575132560433,-0.38932791926163185,0.007921029787927162,0.9210614144783262,-0.021590653261709617,-0.5466606297287596,-0.5818475432301808,-0.0690590317275855,-0.36958121002540467,-0.7424590581948601,-0.06447696281385194,0.044819238154107946,1.1102183585284497,-0.03726639634984803,-0.01450093382271044,1.1145703143274308,0.0,0.0,0.0,0.0
0.025999964282765905,0.02501582720872466,0.6718511701056551,0.002409955372832818,-0.389421014179898,0.00791450618447465,0.9210227067896082,-0.024507900115587733,-0.5556248830861185,-0.5842524946209873,-0.07962823630350316,-0.3582368958222897,-0.7502707289747581,-0.0745147443496418,0.053377627877015194,1.1097350899584537,-0.043201938382469655,-0.019565742296574748,1.1249919226421476,0.0,0.0,0.0,0.0
0.027625913037652012,0.028212809681256144,0.6733552031074197,0.002204694546341022,-0.38952505773322005,0.007894448250210278,0.9209793952128971,-0.027616589384267212,-0.5635761204222832,-0.5877649379664048,-0.08967556738278469,-0.3496834961577491,-0.7530553683851345,-0.08430594910750468,0.061454428766638695,1.1080077210336226,-0.049235522231721326,-0.024771031097274136,1.1350287857438413,0.0,0.0,0.0,0.0
0.028884955705887304,0.031265120932619794,0.6748548106217941,0.002015808238780871,-0.38962226758202895,0.007860771110922765,0.9209389954817442,-0.030636683336254942,-0.5710136046841782,-0.5917849979504017,-0.09905754583169932,-0.3434079061592039,-0.7520724200112276,-0.0936851507378577,0.06905517864748649,1.105181504050553,-0.05512560397102566,-0.030166224110898365,1.1447879051989944,0.0,0.0,0.0,0.0
0.029856969824804583,0.03413743031713197,0.6763342651971387,0.0018455612162676317,-0.38970502656448797,0.007815566466666576,0.9209047198787581,-0.03336341734563059,-0.5782675903985514,-0.5959813799981517,-0.10768997038133464,-0.3388796299407957,-0.7484809949533572,-0.10252220289355402,0.07623732339529962,1.101416969925278,-0.060723082166464895,-0.03577487551307098,1.154389868840874,0.0,0.0,0.0,0.0
0.030616711841722054,0.03680509081551906,0.6777800052815884,0.0016943847779605306,-0.3897712793732505,0.007761869421454169,0.920877425187005,-0.03565797844754043,-0.5855531900756447,-0.600182624214259,-0.11553517056662363,-0.3356054801534916,-0.7432902880155011,-0.11072573092921731,0.08306642109883387,1.0968904581496741,-0.06595341257866923,-0.04160130350408388,1.1639486541841029,0.0,0.0,0.0,0.0
0.03122778964822498,0.03925242860690538,0.6791773396090789,0.0015616316781197723,-0.38982138033876906,0.007702870630896801,0.9208569479139104,-0.037433469850783926,-0.5930009350923127,-0.6043097184741667,-0.12258871725960976,-0.3331656217388225,-0.7373374887875699,-0.11823947332279336,0.08958309106436388,1.0918025250473653,-0.07079423742090825,-0.04762737303725837,1.1735582564701212,0.0,0.0,0.0,0.0
0.031739924504728345,0.041470180883769386,0.6805071885383774,0.001446263063393023,-0.3898558734561172,0.007641408327161144,0.9208430458735609,-0.0386409839860416,-0.6006608561323867,-0.6083289517457298,-0.12886668050760866,-0.33123541677172574,-0.7312857804373757,-0.12503452169292328,0.09577827985688965,1.0863908000582891,-0.07525013548768206,-0.05380210903157155,1.1832781786359203,0.0,0.0,0.0,0.0
0.03218805934719642,0.04345252711458715,0.6817428861683048,0.001347503475392778,-0.3898740060205492,0.0075797149323242755,0.920836028609555,-0.0392566001597388,-0.6084749481777985,-0.6122100559770086,-0.13439445486477028,-0.3295979936553941,-0.7256333721446999,-0.13109986506395743,0.10157385519528464,1.0809461190099943,-0.07931689006044496,-0.06002408959546219,1.1931069959045908,0.0,0.0,0.0,0.0
0.03259209481795453,0.04519409390992003,0.682847639378849,0.0012654664647121486,-0.38987321558252036,0.007519532547815868,0.9208369730827681,-0.039267481153516526,-0.616214530624828,-0.6158791538596313,-0.13919779525257733,-0.32815149444651326,-0.7207220699499418,-0.13643252788761154,0.10680900335088578,1.075827410077344,-0.08292398825599488,-0.06611374566033476,1.2029281969282166,0.0,0.0,0.0,0.0
0.0329565554304202,0.046687377124702424,0.6837741517349015,0.0012016152717324099,-0.3898507681797956,0.007462906182119808,0.9208470229640094,-0.038654684835089964,-0.6233890842754412,-0.6191606224147355,-0.14329666284994622,-0.32691150540473696,-0.7167310853725575,-0.14102774242444344,0.11123951323302142,1.0714663795603505,-0.08585038115723945,-0.07176605443307484,1.212407616174675,0.0,0.0,0.0,0.0
0.03328936455081683,0.047912771375079655,0.6844715185977601,0.001159722892900195,-0.38980245087945525,0.007413630703796897,0.9208679288643781,-0.03730792800507684,-0.629155685927664,-0.6217240716468647,-0.14668373514581134,-0.3258516516257893,-0.7139553980525931,-0.1448470480990618,0.11461423243504361,1.0682982416675413,-0.0876071082575814,-0.07642954486381154,1.2208377183715773,0.0,0.0,0.0,0.0
0.033549881056168435,0.04886279298788419,0.6848975082849504,0.0011420038612938717,-0.3897427738240115,0.007381914117433842,0.9208934647520901,-0.03516052675789982,-0.6323380053743386,-0.6230635517141181,-0.1493848038093388,-0.3252791442880274,-0.7119277487998271,-0.14786451035638426,0.11663819981244467,1.0667251862919493,-0.08747947534615903,-0.07922543686771308,1.2267678094153414,0.0,0.0,0.0,0.0
0.033714691891290095,0.04952677390817477,0.6850439211599327,0.0011475963044005524,-0.3897009267628916,0.007386577184780107,0.9209111299036182,-0.032121440528805736,-0.6317432079890192,-0.6226346282568321,-0.151427350313569,-0.32531022124032416,-0.7102888792098919,-0.15001330127310156,0.11723810411083366,1.066903899357213,-0.08475535446351387,-0.07864501173398425,1.2277767256793906,0.0,0.0,0.0,0.0
0.03376930778322946,0.04990784304108049,0.6849161380088028,0.0011765359022039526,-0.3896781621356063,0.0074269464611259805,0.920920401654861,-0.02823456910986033,-0.6273777029727741,-0.6203943983887773,-0.15281535965468837,-0.3260305970743194,-0.7088578082793997,-0.15130216861532575,0.11640887133255044,1.0687997002820517,-0.07944926959862472,-0.07469814785864223,1.2238022174559002,0.0,0.0,0.0,0.0
0.03370959895436075,0.05002360383126663,0.6845335622872565,0.0012289914418064445,-0.3896482651747245,0.007483655147346924,0.9209325240928344,-0.023664933019945822,-0.6204286301789824,-0.6168289404390567,-0.1535364877210736,-0.3274815583059944,-0.7076452599350755,-0.15181278563949932,0.11421772069185733,1.0721843103495874,-0.07229673579804798,-0.06891127754808067,1.2171556489561441,0.0,0.0,0.0,0.0
0.033532417129853484,0.04989812868943025,0.6839477236018595,0.0013006462411284609,-0.3896046450412798,0.00754684439280334,0.9209503645807002,-0.01858946750470397,-0.612063910248048,-0.6123984837348532,-0.1536080364952425,-0.3296412530083225,-0.7065001631997311,-0.15160892430479153,0.11091013664400776,1.0766187060962387,-0.06405489270838169,-0.062213902021909795,1.2091792855069312,0.0,0.0,0.0,0.0
0.033225537640522954,0.049553541828753433,0.6832184133993127,0.0013873842603458091,-0.38955077373566444,0.007612158192745265,0.9209724886740689,-0.013123230216282922,-0.6031230350945292,-0.6073967679855975,-0.15304916917541367,-0.33252788420240653,-0.7051041943148773,-0.15073496185311117,0.10676471233773416,1.0816086415950834,-0.055220403357432606,-0.055152139416824654,1.2005453382962035,0.0,0.0,0.0,0.0
0.032766229569245374,0.04900810629855852,0.6823997875925869,0.001486758355354229,-0.38949228945702713,0.0076774912619392895,0.9209965266661102,-0.0073381227819468995,-0.5941059401608454,-0.6019706612162107,-0.1518736292692917,-0.3362351671284459,-0.703017887041287,-0.1492234705459323,0.10201285466556463,1.0866989754338015,-0.04604361323329454,-0.04805521373921818,1.191542859591309,0.0,0.0,0.0,0.0
0.032123533431305654,0.04827733980018822,0.681535769570927,0.0015978606055707797,-0.38943337437188275,0.00774132487337954,0.9210207194499042,-0.0012910318402301925,-0.5852579107294572,-0.5961791335162175,-0.15009241437899656,-0.3409306191909467,-0.6997211141399226,-0.14710391724461636,0.09681665000514038,1.091506973133634,-0.0366241029113652,-0.041122413786745776,1.1822597028825748,0.0,0.0,0.0,0.0
0.03126159686997973,0.0473763593265196,0.680660720533581,0.0017207513273344499,-0.3893756900756636,0.0078021135854265304,0.9210443735328773,0.0049631996261812975,-0.5766592670687084,-0.5900494191319211,-0.14772073883737213,-0.34684081071150935,-0.69463705189995,-0.1444111950281744,0.09127839197302826,1.0957190851578482,-0.02699594499647668,-0.03446914249824078,1.1726907775152613,0.0,0.0,0.0,0.0
0.030143603125950297,0.04632252575084466,0.6798021989875824,0.0018559345663307582,-0.3893184816232569,0.007858229628080481,0.9210678170474526,0.011377537205340984,-0.5682846350064313,-0.5836181497154614,-0.14478664461715196,-0.3542316044368745,-0.6871490458093095,-0.14119380125933575,0.08546318837674224,1.0990740260694782,-0.017177771434900742,-0.028151791431436275,1.1628027827409588,0.0,0.0,0.0,0.0
0.028737028276691997,0.04513772577485888,0.6789839181855285,0.002004021543102361,-0.38925910504485567,0.007908192953329691,0.9210921742809162,0.017939185718439204,-0.5600219827109384,-0.5769572810827095,-0.14133957561298305,-0.36338067296696286,-0.6766288797751043,-0.13752085679864975,0.0794255694383854,1.1013469021676667,-0.007186314806221415,-0.02217710996165073,1.1525807669835653,0.0,0.0,0.0,0.0
0.027021551850096897,0.04384962093769411,0.6782279062200789,0.0021656064228469164,-0.3891937158885029,0.007951039528567627,0.921119070822082,0.024720264211021095,-0.5516517656839512,-0.5701893426683494,-0.13745696143140476,-0.37453254853496265,-0.6625012931097607,-0.13348640733346576,0.07323720185515452,1.1023431236843735,0.002985212272019703,-0.016494267807020825,1.142077486740977,0.0,0.0,0.0,0.0
0.02500123743197019,0.04249123368052366,0.6775549873540697,0.0023413528486809837,-0.38911804801453315,0.007986598147523744,0.9211503009966546,0.03194988442613551,-0.5427936557811132,-0.5635021517614626,-0.13324625750346913,-0.38782067192327785,-0.6443791249445405,-0.1292096547049233,0.0670137241532232,1.101911367408086,0.013424559419452994,-0.0109653659820383,1.1314824455565287,0.0,0.0,0.0,0.0
0.022722493613243494,0.041099055194186516,0.6769809863075621,0.002532173664466741,-0.3890278965986856,0.008015163747589375,0.9211876252504887,0.040074753645157044,-0.5328453654638992,-0.5571909310219562,-0.12884155864336075,-0.4031385588906258,-0.6223158203314579,-0.124832931844336,0.06092801411063834,1.100001569254051,0.024385760108203924,-0.005316590956966707,1.1212199511396872,0.0,0.0,0.0,0.0
0.020297892831419084,0.039712956972367576,0.6764991972386503,0.0027389246404860715,-0.38891593265107405,0.008039952969774092,0.9212340933650919,0.04967535293355726,-0.5209896444745347,-0.5518217438439699,-0.12442117064031824,-0.4199559977866339,-0.5972225038054269,-0.12051931563024304,0.05514992070912905,1.0968446569607093,0.03636496319736261,0.000887120835596401,1.1120814357202464,0.0,0.0,0.0,0.0
0.01802749515589166,0.03832721837846567,0.6760550252818722,0.0029704538156475613,-0.3886926795915879,0.00802900514801952,0.9213276899737538,0.06094217612029773,-0.5067535914101801,-0.5483653742597557,-0.11997477406603198,-0.4361601039949795,-0.5736887241175199,-0.11640057138267834,0.049902087269842695,1.0929628599351904,0.050143832788690876,0.008130804631431374,1.1055059428318823,0.0,0.0,0.0,0.0
0.016262242475443923,0.037033872205109786,0.6757521371675557,0.0031873548794342193,-0.3884098292879814,0.008017865938526488,0.9214463408724056,0.0739054303354654,-0.4900440371665189,-0.5487252253775889,-0.11591350901001671,-0.4486315703497831,-0.5563665092980566,-0.11263088252105054,0.04624710488905811,1.0884198609938973,0.06523780121401976,0.015543890853215933,1.1031531773959797,0.0,0.0,0.0,0.0
0.015260771266551489,0.036075416066903905,0.6756794209123231,0.003314263134743514,-0.388145273618747,0.007985869431489148,0.9215576423190928,0.08525786735741228,-0.47300784116398387,-0.5565099955136745,-0.11284263640949695,-0.4551615417539059,-0.5480879694545525,-0.10982780962500863,0.04487477618940246,1.083904193558452,0.0783190035784301,0.019909681839338427,1.1064979012727474,0.0,0.0,0.0,0.0
0.015254154422140431,0.03598056043675816,0.6756424229605866,0.003403580822066023,-0.3881604678244742,0.008027699405429767,0.9215505536312857,0.08528312640470884,-0.4730027764421337,-0.5565172183849564,-0.11277002848245571,-0.45527749092594977,-0.5480715443220716,-0.10975581302308597,0.04485652006536779,1.0838595485858094,0.07831954142385567,0.01993952615602086,1.106510396450398,0.0,0.0,0.0,0.0
0.015254154422140431,0.03598056043675816,0.6756424229605866,0.003403580822066023,-0.3881604678244742,0.008027699405429767,0.9215505536312857,0.08528312640470884,-0.4730027764421337,-0.5565172183849564,-0.11277002848245571,-0.45527749092594977,-0.5480715443220716,-0.10975581302308597,0.04485652006536779,1.0838595485858094,0.07831954142385567,0.01993952615602086,1.106510396450398,0.0,0.0,0.0,0.0
0.01493369471075742,0.03546871901881119,0.6752714123554371,0.0035983565071833245,-0.3882227322982483,0.00800166947469559,0.9215238115441986,0.08687756893963403,-0.47810358757529475,-0.5471829181741101,-0.11120341752352825,-0.4577000799578332,-0.5460434044581782,-0.10886300648887821,0.04302250071202223,1.0854491750085309,0.07929086793613652,0.0169752537523891,1.110752935427365,0.0,0.0,0.0,0.0
0.014988350364366777,0.03482343142654881,0.6747192556117594,0.00372130977633491,-0.38823109642234616,0.00797218745927067,0.9215200550456651,0.08908505126803792,-0.4808630069529771,-0.5429797268902595,-0.10930315475972796,-0.45681842719222315,-0.5511320861594907,-0.10742567315850801,0.040902843352374416,1.088640746310512,0.0809970481379398,0.013582064623426872,1.1172097295762262,0.0,0.0,0.0,0.0
0.01559092132986089,0.03420226844022657,0.6742083005608106,0.003770557235719592,-0.3882907263526872,0.007980780077747572,0.9214946564554704,0.09121540104891071,-0.4787270938131319,-0.5474821908323758,-0.10764889993475091,-0.4511812915967424,-0.5641492214757335,-0.10585913940302799,0.039887724753680694,1.0925516924360403,0.08307825969029883,0.011465194181643384,1.1243271421168897,0.0,0.0,0.0,0.0
0.016882135037478384,0.03355631931625399,0.6740445392757003,0.0037541885768010946,-0.38855463472164864,0.008048283474630337,0.9213828884006735,0.09325959395272461,-0.47000846657798395,-0.5616889996697119,-0.10607130262633248,-0.4391057769874656,-0.5861505057725584,-0.10398932832098104,0.041977061789600784,1.0952231791310172,0.0857464070162293,0.012536135688815231,1.1305359396780825,0.0,0.0,0.0,0.0
0.019136472565693015,0.032622687091259456,0.6752066146653904,0.0037317214943128427,-0.3895332070701888,0.008270630096129248,0.9209677255594331,0.09530675970649899,-0.4513729683648094,-0.5847552460875343,-0.10379420551220804,-0.41603893695769245,-0.6189936935186007,-0.10093784493048358,0.053337567873446706,1.089926146400382,0.0899327878733303,0.022498089430386087,1.130964387372307,0.0,0.0,0.0,0.0
0.021183289212577762,0.031319141544761016,0.6754713841335876,0.0040895898589535596,-0.3892751668686017,0.008150440768613574,0.9210763757851382,0.10031595589466322,-0.43782714023860053,-0.6063921218572168,-0.08645481450332665,-0.4494802352687082,-0.5874125280069624,-0.08162751976369338,0.0428306120830601,1.0926287453715526,0.09318545103815389,0.025819593290644226,1.134057289128535,0.0,0.0,0.0,0.0
0.023727865942006945,0.030147218542978825,0.6758620704536654,0.004379389364694148,-0.38897163139535695,0.00815522945079377,0.9212032257602184,0.10461252238254909,-0.42032783984864885,-0.6354880948651385,-0.06787606869008465,-0.4766089525784489,-0.5737279266744417,-0.06004924927929334,0.031967955461999195,1.0978058374954984,0.09660767692073452,0.030901377262529606,1.136349939616901,0.0,0.0,0.0,0.0
0.02620734561762429,0.029111225348305243,0.6763875215713208,0.00463657477020804,-0.38883554560422695,0.008204127402043557,0.9212589825573667,0.10824658891506149,-0.40360828601946175,-0.6620442972154287,-0.0516645868956948,-0.49721826000566616,-0.5697471082504539,-0.04069350048968534,0.02273765408502585,1.1051732711687356,0.09983750105489986,0.036971428383658744,1.1376144344667882,0.0,0.0,0.0,0.0
0.028416318028386536,0.02822379729713514,0.6770219359685352,0.004866055251506267,-0.38882946848086525,0.008264737641382738,0.9212598222319782,0.11123763982716824,-0.3888359877262849,-0.6842223412761838,-0.038329516865105745,-0.5130197123310449,-0.5707708466101543,-0.024044308801410112,0.014871277403080264,1.1137737079697714,0.1026766604650859,0.04345814101119346,1.1375821783203992,0.0,0.0,0.0,0.0
0.03024203857161798,0.027477392044854228,0.6777151994335295,0.005073388077695149,-0.38889862166253014,0.008327427263871513,0.9212289491530117,0.11362534393268207,-0.3765967872513289,-0.7014549393234364,-0.027039644903285455,-0.5257420016469878,-0.5743737358074895,-0.009433820858913027,0.007669417778938608,1.1228225985452664,0.10505338278810172,0.04979043091013309,1.136368665280807,0.0,0.0,0.0,0.0
0.031653884590068425,0.026875478310122134,0.6784362858667832,0.00526248754495539,-0.3890045569337561,0.008392729593303984,0.921182567681122,0.11539756507753728,-0.3669246681548014,-0.7140509002607648,-0.01690477520095103,-0.5366699053242177,-0.5792544627755428,0.003872644790127661,0.0006096463506294518,1.131853957370319,0.10691252215830314,0.055676016185039215,1.1340975390394585,0.0,0.0,0.0,0.0
0.03267580428423291,0.026431918203950758,0.6791712877513535,0.005434878756730658,-0.38912395089686946,0.008463847845769116,0.9211304881562405,0.11651321335830488,-0.35952627552696464,-0.7227758223633833,-0.0073573492051844675,-0.5466486221074706,-0.5846821558700874,0.01638371248538936,-0.00659572425740653,1.1406558105521816,0.1082001607841736,0.06104920568591156,1.1308426642758003,0.0,0.0,0.0,0.0
0.033360532063630086,0.026163360614220765,0.6799133251092025,0.005590627484835011,-0.38924423631956523,0.008543223527689372,0.9210780003387771,0.11693404296495774,-0.35397176331654634,-0.7285463518826446,0.0018604260154102632,-0.55619896789992,-0.5902364079566548,0.028381690707208543,-0.014071762084137367,1.149171582592462,0.10887251984303524,0.06596259662972498,1.1266687107160203,0.0,0.0,0.0,0.0
0.03377084793168618,0.026083672736676222,0.6806553264578559,0.005729372375098893,-0.38935962067427254,0.008631739988182433,0.9210275528698099,0.11664072831644588,-0.3498154148443012,-0.7322524217227188,0.01081326820231619,-0.5656334836743702,-0.5956806356836705,0.040000908432470186,-0.02185643138802553,1.1574242080687036,0.10890368141612775,0.07050358792326697,1.121667681559988,0.0,0.0,0.0,0.0
0.03396787770121506,0.026201948037008815,0.6813864844287582,0.00585095639884116,-0.3894681206254064,0.008729090748988526,0.920979995602743,0.11563403096075094,-0.3466609149239219,-0.7346704405871307,0.019476332895189546,-0.575140027619457,-0.6008942892799118,0.05130266620201383,-0.029946430913864445,1.1654688275017144,0.10828609909668363,0.07474510738083635,1.11597415717317,0.0,0.0,0.0,0.0
0.03400472506213102,0.026523140166699617,0.6820905153064114,0.005955615024014981,-0.38956924833313933,0.008834237455662365,0.9209355502158745,0.11392873164638007,-0.3441923454492482,-0.7364325752316635,0.027799228468580742,-0.5848286373819902,-0.6058308915391803,0.06232265672974888,-0.03831441137193166,1.173364219496241,0.1070250210390561,0.0787185885681754,1.1097683248791181,0.0,0.0,0.0,0.0
0.03392351890511013,0.027050032948683234,0.6827441886828417,0.006043824432586652,-0.3896623141852022,0.008945712743471841,0.9208945256182014,0.1115452560947662,-0.34218717856792685,-0.7380255890246995,0.035736857267847186,-0.5947415001155261,-0.6104850416715069,0.07308787175666935,-0.04690520913276679,1.181150541447226,0.1051304589117149,0.0823976404418689,1.1032785286938842,0.0,0.0,0.0,0.0
0.033754236777533926,0.027785627538464943,0.6833155651351579,0.00611592590977524,-0.38974524540992056,0.009061565106538922,0.9208578213646486,0.10850222389468119,-0.3405217045881663,-0.7398009663109325,0.043259785127181725,-0.6048254418336064,-0.6148576156242287,0.083601234585729,-0.05561687912846536,1.18881991104455,0.10260878727400755,0.08568557309569917,1.096787531481045,0.0,0.0,0.0,0.0
0.03351408193745473,0.028735446541673697,0.6837625969634408,0.006171611425309729,-0.38981422056998755,0.009178903003621607,0.9208270914745494,0.10481072881375589,-0.33917389630323114,-0.7419823090940776,0.05035060522312454,-0.6148648743847136,-0.6189102403174777,0.09378892774190048,-0.06426695665226859,1.1962636245856766,0.09945492062619223,0.08840742660489864,1.0906378193567918,0.0,0.0,0.0,0.0
0.033206771316950275,0.029909483827579596,0.6840340338938399,0.006209373804425062,-0.38986478926754703,0.009293002937284797,0.9208042842334823,0.10047020606506238,-0.3382225587380027,-0.7446602001348932,0.056983670945477516,-0.6243808449100597,-0.6225041839172603,0.10340840039143417,-0.0725371987432454,1.2031747157395092,0.0956451186128151,0.0903154933743851,1.085221328765687,0.0,0.0,0.0,0.0
0.032822155934274434,0.03132336428471702,0.6840757903678398,0.006226179387615614,-0.3898955308787325,0.009396046634240958,0.9207901085473669,0.09546604301054261,-0.33783283309473605,-0.7477728381445571,0.06308068202552432,-0.6325293660030694,-0.6253309705920961,0.11194145527089569,-0.07987932587508166,1.208878217078643,0.09113096146157362,0.09112616816228584,1.0809310208874428,0.0,0.0,0.0,0.0
0.032338543294322744,0.03299728050404221,0.6838461143193494,0.0062180602847381715,-0.389915356613362,0.00947598048349805,0.9207809490846596,0.08977153134658665,-0.3382071392607241,-0.7510873995501822,0.06845243874897473,-0.6380981937646603,-0.6268717996367504,0.1185725630938291,-0.08535310928919786,1.2120574866132232,0.08583852748400596,0.09060990511366707,1.078055855420747,0.0,0.0,0.0,0.0
0.03173229338227861,0.03494884613483228,0.6833379164952015,0.006183196651478232,-0.389951383045533,0.00951675319454161,0.9207655067109537,0.08336513135823942,-0.33948344680285136,-0.7542301271399011,0.07282505613062226,-0.6398371984949535,-0.626510782547923,0.12249423104307389,-0.08744633561882292,1.2104580442275512,0.07968375001149046,0.088727245163277,1.076640570656464,0.0,0.0,0.0,0.0
0.030985802518429518,0.037184446156329716,0.682553133447572,0.006122032518185592,-0.39000449465583614,0.009515731189302198,0.9207434309980306,0.07621630896107964,-0.3417871577329826,-0.7569615325612102,0.07615204190379406,-0.6377505664288852,-0.6242360627555122,0.1236606137060471,-0.08615014131335207,1.2041279099880666,0.07263238601425928,0.0854749064736729,1.0765792391659186,0.0,0.0,0.0,0.0
0.030088355261907677,0.039700328759634,0.6815015354024042,0.006037502255399388,-0.39005084992777994,0.00948433531323193,0.9207246767741151,0.06827607954689538,-0.34522788702518464,-0.7591840730618276,0.07864960990950087,-0.6330924776168497,-0.6206521749572499,0.12279976885596577,-0.08296589992653089,1.1953738104480016,0.06470113237133676,0.08088478833682801,1.0776346387408435,0.0,0.0,0.0,0.0
0.029028433803533538,0.042491027820597826,0.6802250587128174,0.005934543941914824,-0.3900854882934641,0.00943135421047821,0.9207112156201899,0.059495049594455986,-0.34984500899843074,-0.7606780886954604,0.08048498731281811,-0.6270833618148841,-0.6162652335903759,0.12066452421001561,-0.07884816492124927,1.185519902986272,0.05590464374469679,0.07517263711578001,1.0793561816001247,0.0,0.0,0.0,0.0
0.027784990076178552,0.04555439646823424,0.6787758072936322,0.005816805718612641,-0.3901132360833005,0.009362424300248596,0.9207009138776115,0.04982233873529387,-0.35570192713125165,-0.7610780797494829,0.08172642517402226,-0.6205839293541435,-0.6113655032847118,0.11772444731238693,-0.0743769989356835,1.1752221873870483,0.046249035949605416,0.06860458290645859,1.0812146841850072,0.0,0.0,0.0,0.0
0.02632736182992685,0.04889019431775023,0.6772022196396544,0.005686153480375954,-0.39014133935884526,0.009280825909048563,0.9206906479661504,0.039215920315598604,-0.3629235061598672,-0.7598976491389301,0.08239478578626017,-0.6140975232826015,-0.6060782625246397,0.11418876815421965,-0.06990420065958788,1.1647526624363507,0.03574188509702923,0.06141902296320655,1.0826989725816267,0.0,0.0,0.0,0.0
0.0246188000223461,0.0524964682532501,0.6755445003301607,0.0055432068891627115,-0.3901760807122223,0.009188663365283022,0.9206777217696716,0.027654331259118432,-0.3716966326483842,-0.7565588529234534,0.08251145015747807,-0.6078712714225298,-0.6004434200338048,0.11011961066913654,-0.06563548456490809,1.154173497814938,0.024406947908149918,0.05380596423874297,1.0833557363247133,0.0,0.0,0.0,0.0
0.022620988204698815,0.05636511127156988,0.6738357233059151,0.005388077972117883,-0.390221632124079,0.009087979378356264,0.9206603364265264,0.015149321826351057,-0.38225530588437195,-0.7504138654955244,0.08212583188090568,-0.6019975658951958,-0.5944820304476158,0.10553849207143866,-0.06167801944603823,1.1434359339578126,0.012299741424404065,0.04591876850166465,1.0827926586163652,0.0,0.0,0.0,0.0
0.02029912685394418,0.06047684822323059,0.6721052913834878,0.005221046491188785,-0.3902797129655264,0.008981708187333981,0.9206377220378931,0.0017605109171719303,-0.394859663873581,-0.7407642788536654,0.08132896623349593,-0.5964801825696021,-0.5882407566681835,0.10050610732245585,-0.05806781668796529,1.1324349804606637,-0.0004766289569578877,0.03789781939127593,1.080669891839031,0.0,0.0,0.0,0.0
0.01762827114227141,0.06479560784294916,0.6703822926275528,0.005043134285984206,-0.3903492069564685,0.008874394754529138,0.920610291351759,-0.01238727658414747,-0.40977014264663986,-0.7268916748636697,0.08025752053767966,-0.5912550872865456,-0.5818157680060914,0.09518118952612489,-0.0547798195850762,1.1210441357508518,-0.013755891444391592,0.029892177698115772,1.0767013132830183,0.0,0.0,0.0,0.0
0.014602148592546087,0.06926210721184162,0.6686963927125272,0.004856521507378391,-0.3904252460531393,0.008772451646852081,0.9205800266871412,-0.02708357241752695,-0.42721374316690275,-0.7081189775781684,0.07908382593058522,-0.5861644724644283,-0.5753603323910844,0.08986319516310119,-0.05171606350794093,1.1091470348051498,-0.027294108005743195,0.02206621363043848,1.0706881339330871,0.0,0.0,0.0,0.0
0.011246070329052296,0.07378579971481307,0.6670721674146233,0.004664796228035071,-0.3904969659377349,0.008682916899254123,0.9205514468098429,-0.0420043105415592,-0.44733840189728014,-0.6839308339796468,0.07798576961218719,-0.5808897756846988,-0.5690920609120556,0.08500906490870647,-0.04866286350123281,1.0966738290643412,-0.040757374388362244,0.014566681948309748,1.0626233126689966,0.0,0.0,0.0,0.0
0.007635514155487973,0.0782319450636623,0.6655075566998522,0.004473964862290564,-0.3905357847890692,0.008593749339158992,0.9205367629323081,-0.05659851313595535,-0.4701489984676181,-0.6542079054432832,0.07720348786246406,-0.5748899982791903,-0.5634199438893632,0.08115793017357281,-0.04521326387560356,1.0836388806010955,-0.05373915499341858,0.007376134930808416,1.052905870975509,0.0,0.0,0.0,0.0
0.0038947885176683185,0.08243585035280962,0.6639611769237276,0.0042806774887283,-0.3904699441465246,0.008559032685011604,0.9205659354320821,-0.07053774649535596,-0.49556518476230743,-0.6196006144546597,0.07860226343598738,-0.5679139335646969,-0.5588937127401786,0.078916009267871,-0.04071347608142373,1.0701774489485196,-0.0656203409753367,0.000269254424864941,1.04247320824848,0.0,0.0,0.0,0.0
0.0005387160470055642,0.08616315408619263,0.6624369825837907,0.004105760024083548,-0.3902473806039595,0.008493494967462123,0.9206617105156544,-0.08273794946649514,-0.5203046846589675,-0.5860259240467456,0.08172721199800197,-0.5597273603255043,-0.5561288776009188,0.07876427107965434,-0.03482478494988614,1.056691104513988,-0.07598516439006588,-0.00648650841361189,1.032879206846164,0.0,0.0,0.0,0.0
-0.0021724165278881108,0.08907207091706408,0.6611000703450797,0.003955102180604052,-0.38988707958225755,0.008415073935134831,0.9208157301394376,-0.09218780224279036,-0.5420586246048233,-0.5567264899136779,0.08703723116319799,-0.5511067884871079,-0.5561987604279927,0.08098362216500817,-0.028130172034405945,1.0428964092280015,-0.08389840080032458,-0.012362961766070378,1.0249897374727996,0.0,0.0,0.0,0.0
-0.0038245389369857587,0.09075832876106812,0.6601855504691273,0.0038594130043325793,-0.389453602990967,0.008317070896526696,0.9210004464604338,-0.09753196352379219,-0.5566533476160892,-0.5377273542255665,0.09323065519675025,-0.5440762824415635,-0.5600166680683644,0.0842903853349688,-0.02180231017051754,1.029319671196442,-0.08841519506652182,-0.016475950841862704,1.0199678375556451,0.0,0.0,0.0,0.0
-0.0037610483564729214,0.09089245885613215,0.6600919156474275,0.003767188848306403,-0.3894760539460086,0.008248073757602503,0.9209919548889209,-0.09767588340444393,-0.5568318868594965,-0.5376777642239724,0.09324168188679131,-0.5440861834722756,-0.5600431976871523,0.08432600791124982,-0.021769274853398884,1.029317926595947,-0.08858930985872175,-0.016420062759334726,1.0199258335717156,0.0,0.0,0.0,0.0
-0.0037610483564729214,0.09089245885613215,0.6600919156474275,0.003767188848306403,-0.3894760539460086,0.008248073757602503,0.9209919548889209,-0.09767588340444393,-0.5568318868594965,-0.5376777642239724,0.09324168188679131,-0.5440861834722756,-0.5600431976871523,0.08432600791124982,-0.021769274853398884,1.029317926595947,-0.08858930985872175,-0.016420062759334726,1.0199258335717156,0.0,0.0,0.0,0.0
-0.0037610483564729214,0.09089245885613215,0.6600919156474275,0.003767188848306403,-0.3894760539460086,0.008248073757602503,0.9209919548889209,-0.09767588340444393,-0.5568318868594965,-0.5376777642239724,0.09324168188679131,-0.5440861834722756,-0.5600431976871523,0.08432600791124982,-0.021769274853398884,1.029317926595947,-0.08858930985872175,-0.016420062759334726,1.0199258335717156,0.0,0.0,0.0,0.0
-0.003322941912053417,0.09122879407441727,0.6593487607540119,0.003685799727035357,-0.3896549841816195,0.008128486652681326,0.9209176596675358,-0.09843583143114087,-0.554703604209537,-0.5440149553857754,0.09286842999367362,-0.5430474305232625,-0.563923740075855,0.08366152016358305,-0.02561395000573516,1.0387534495019173,-0.08971307384940923,-0.019180939535921072,1.026126130204236,0.0,0.0,0.0,0.0
-0.002435851222206713,0.0918679242568896,0.6582644239975357,0.003656929311500979,-0.38971113514130806,0.007995604215818682,0.9208951777092265,-0.10040259747247675,-0.548850812393661,-0.5598679303449664,0.09176338119107073,-0.5396362328882772,-0.5742123776925827,0.08205701680519524,-0.031111672002825462,1.0525283721638379,-0.09201992751022142,-0.022859147063998102,1.034414802695484,0.0,0.0,0.0,0.0
-0.0009997317424696353,0.09294714466200084,0.6571332595058863,0.0036538219479977287,-0.3897642599800353,0.00785691356630742,0.9208739002364001,-0.10400500387047212,-0.537922657257196,-0.5860429672445115,0.08932479801683413,-0.5326118558727945,-0.5910370775436619,0.07918615485965835,-0.03663444155398891,1.0692648153448494,-0.09581441541228344,-0.025393606957058508,1.042359533241614,0.0,0.0,0.0,0.0
0.0011605822752881673,0.09483416348205982,0.6566815764534759,0.0036248035652771764,-0.39012672928680403,0.007775504486823237,0.9207212050480152,-0.1105590320016208,-0.5186600906329528,-0.6243505667319507,0.08374240061997261,-0.519274927558081,-0.613751180107175,0.07418989058858798,-0.03846339055729062,1.0858067487055585,-0.10189919546470656,-0.021874690748266614,1.0441262459578524,0.0,0.0,0.0,0.0
0.004465327571847913,0.09844713805276535,0.6589012221778032,0.003580824279968775,-0.39141015985276495,0.008037802503963798,0.9201742542542778,-0.12387880187252202,-0.4820192301391979,-0.681070232778243,0.07000828045909502,-0.4919205840236263,-0.6425178921103175,0.06467356363355187,-0.026681062148154633,1.092196651612897,-0.11235829765531202,0.000706497383746018,1.0232732983637423,0.0,0.0,0.0,0.0
0.007723660471194032,0.10177109471173176,0.6607519638809098,0.0033553630390290618,-0.3908838829413758,0.007880426117998355,0.9204001469359661,-0.11433445622703658,-0.5113649874500449,-0.6334545133751677,0.06004007234309333,-0.4678869101207723,-0.6782097017132552,0.055177906378496795,-0.016886538046797968,1.093022623816666,-0.10716502915438501,-0.0087134419518007,1.04295955719184,0.0,0.0,0.0,0.0
0.011567448134607455,0.10535902990471074,0.6625825944543827,0.0032663341650168817,-0.3902974349580781,0.007794769113494431,0.9206500338894984,-0.10259437722188766,-0.5324487266950324,-0.6074528224760674,0.04879831545586269,-0.44139890391815273,-0.7182914489411554,0.04461233116344579,-0.006422643799117887,1.0950517190266638,-0.10125202800083219,-0.015736762839378336,1.0601902678356105,0.0,0.0,0.0,0.0
0.015212754724846417,0.10925242950426348,0.6642899813044623,0.003146489197873964,-0.3899652235845663,0.0077712948090773335,0.9207914155645442,-0.09433935360660836,-0.54801276590249,-0.594738455434811,0.03597768255405212,-0.4183063943024207,-0.75005453921621,0.03320989243770962,0.0032057224268190136,1.0990677728043032,-0.09809997011282834,-0.021298822561896028,1.0750983773304614,0.0,0.0,0.0,0.0
0.01843923289723835,0.11330857037459735,0.6660045547435187,0.0029850958828792707,-0.38983970458703116,0.0077608771212129045,0.9208451893322653,-0.08988245943398251,-0.559977761599091,-0.5896339467331647,0.022357099327790397,-0.3987659192965066,-0.7732502239284073,0.021258873072215266,0.01250944219852396,1.1030565244727817,-0.0979774361218381,-0.02623706870854417,1.0882595394863015,0.0,0.0,0.0,0.0
0.0211609510217599,0.11741702588777521,0.6677685854074001,0.0027979979632151747,-0.3898330579602868,0.007740108023473817,0.9208487654639683,-0.08821716513512723,-0.5695830751465288,-0.5888075112783218,0.008538409890421825,-0.3826686496048013,-0.7887447485001974,0.00899520008222661,0.02159388122578143,1.1059322627316635,-0.1000786518235545,-0.0310000149743529,1.100128967503493,0.0,0.0,0.0,0.0
0.023377082642326536,0.12149786933459192,0.6695759599364463,0.0026008676240321603,-0.3898850941258762,0.007704171646147673,0.9208276139459033,-0.08820076828261139,-0.577665702760269,-0.5902934986964592,-0.005082797794535897,-0.3697585706350711,-0.7976611360376943,-0.003350995019216362,0.030391738871637326,1.1073517023633623,-0.10344920891140574,-0.03577207723038213,1.1110572162192562,0.0,0.0,0.0,0.0
0.02513621870939112,0.12549185131841645,0.6714044360175125,0.002405681444660912,-0.3899588878399352,0.007654926701067171,0.920797307005526,-0.08893436027114673,-0.5848249155846829,-0.5929564640331327,-0.01824627320574429,-0.3596671388540529,-0.8012035404256616,-0.015570624354452124,0.03882980064606975,1.1073223781982346,-0.10733546720102918,-0.040639643691100805,1.1213262349488575,0.0,0.0,0.0,0.0
0.026511647296065186,0.12935413343330762,0.6732311498418024,0.002220216476750176,-0.3900338240841575,0.007595883520268041,0.9207665226661053,-0.0898191129289962,-0.591493943820184,-0.5961605676586901,-0.030782120106153422,-0.35195061948068357,-0.8005656494032002,-0.02748452182615537,0.04688753221115164,1.1059845134136608,-0.11124907467019485,-0.04565294409778161,1.1311706909572412,0.0,0.0,0.0,0.0
0.027584391136069152,0.13305099446029867,0.6750369942742386,0.002048753465936166,-0.3900997396866009,0.007530575705779905,0.9207395321887843,-0.09049437430723148,-0.5979804803712414,-0.5995661883742263,-0.042585027932425565,-0.3461362426881606,-0.7968667262803648,-0.038948299966615606,0.054591510801341905,1.1035198242240387,-0.11492022504836501,-0.050842756317254836,1.1407872375539647,0.0,0.0,0.0,0.0
0.028432067501814037,0.1365578698395789,0.6768055679232645,0.0018931407723381355,-0.3901524374903863,0.007462117944990728,0.9207180938452885,-0.09075624258988833,-0.6044959588064368,-0.603006894157021,-0.05359754114519702,-0.3417676591523346,-0.791107189790504,-0.0498535878642467,0.06198541353319154,1.1001263475915513,-0.11822751503720065,-0.0562215631304983,1.150337863531592,0.0,0.0,0.0,0.0
0.029122176442763475,0.13985768964218212,0.6785200552668006,0.0017537491659604394,-0.39019054008540094,0.007393162590926472,0.92070277936945,-0.09049430390130428,-0.6111734235092998,-0.6064140723125895,-0.06379745552679802,-0.3384424126260856,-0.7841412063208114,-0.060125390026053396,0.06909669793120722,1.0960227421920163,-0.12113745262221393,-0.061778057967728485,1.1599490901832759,0.0,0.0,0.0,0.0
0.029708578187890196,0.14293909164480037,0.6801595043960467,0.0016302563056946541,-0.39021330193022385,0.0073259215475044,0.920693897087718,-0.08965182975391062,-0.6180666839932277,-0.6097665143014092,-0.07318713112629356,-0.3358396772349953,-0.7766641498132077,-0.06971672125022028,0.07590730642987627,1.0914647290887025,-0.12365661058590247,-0.06746654308161026,1.1697043349917755,0.0,0.0,0.0,0.0
0.030229934884677033,0.14579448979920306,0.6816951095516843,0.001522348370375807,-0.3902191228772579,0.007262162036476686,0.9206921198744447,-0.08820302840142129,-0.62512208944661,-0.6130486640541469,-0.08178427742296247,-0.3337400540586021,-0.7692097341571159,-0.07860217321692595,0.0823294705595476,1.0867662610915951,-0.12578494331438658,-0.07319020288354701,1.1796215536978587,0.0,0.0,0.0,0.0
0.030708964711201072,0.14841824063909587,0.6830871302633039,0.001430261090312072,-0.3902052677564008,0.007203505807625416,0.92069860045101,-0.08614154655521734,-0.6321173948890575,-0.6162053737233822,-0.08961557120769181,-0.3320399002989474,-0.762145367643449,-0.0867709315242392,0.08818761847672879,1.0823212094014814,-0.12745464171235654,-0.07877401627810936,1.1896016189724057,0.0,0.0,0.0,0.0
0.031153226304729262,0.15080485287340512,0.6842835619842772,0.0013553657876684822,-0.39017061292130734,0.007151848414211564,0.9207138029053616,-0.08346936620186952,-0.6385737731705469,-0.6190802070257546,-0.09671079052599563,-0.33075099521007284,-0.7556693512091428,-0.09422098104105261,0.09321563185553298,1.0786236448355537,-0.12845056794453474,-0.08391628990693496,1.1993328728775905,0.0,0.0,0.0,0.0
0.031641479748906,0.152912871616026,0.685234580385954,0.0013038046243481515,-0.39009798261565565,0.007110440491372944,0.9207449732084969,-0.07991123666675684,-0.6436480733066022,-0.6213719670552248,-0.10301173740178551,-0.3293538366779361,-0.7510685787885225,-0.10085559154756517,0.09730670095499314,1.0760760007196106,-0.12822951674000627,-0.08795238732787218,1.208235067179849,0.0,0.0,0.0,0.0
0.03211174338649298,0.15474688787703145,0.6858974500710001,0.0012756223810859845,-0.39000834658821565,0.007091461346466677,0.9207831305769228,-0.07544957552184617,-0.6461629875510804,-0.6225691788695158,-0.10860272420629402,-0.32827223899715535,-0.7475936571374827,-0.10667818978605215,0.10011460166060636,1.0751235813600117,-0.1260598412327474,-0.09001818016615346,1.2148695462144714,0.0,0.0,0.0,0.0
0.03249402545339009,0.156316520303324,0.6862681464097368,0.0012677178378286914,-0.3899383377498475,0.007115104563751761,0.92081260902065,-0.07006174143822513,-0.64490502999592,-0.6221263850892675,-0.11358351369342846,-0.32792321641342725,-0.7442426841512833,-0.11167147714695633,0.10148387153151207,1.0759248500249412,-0.12122270233601636,-0.0886596298113492,1.21679071199658,0.0,0.0,0.0,0.0
0.03277516305598325,0.1576230895301842,0.6863569306389223,0.0012807682441804441,-0.3898870697462682,0.00717952727949575,0.920833799806141,-0.06378076633758938,-0.6398728983294931,-0.6199803754742508,-0.1179551491899096,-0.3283559388799626,-0.7408985825588321,-0.1158448310475019,0.10143251197147443,1.0784129460699883,-0.11372999551743183,-0.08387834095893337,1.2139028067609945,0.0,0.0,0.0,0.0
0.03295123880731606,0.1586807499370944,0.6861851942316376,0.0013160659965153498,-0.38982819056638457,0.0072628572669976,0.9208580241895873,-0.056811882718954224,-0.632261276087741,-0.6165774660941106,-0.12168888958654668,-0.32958811790033005,-0.7376243093399286,-0.11928417118427173,0.10003680371416772,1.0823660275584999,-0.10435858371786783,-0.07721255424617893,1.2084215547088168,0.0,0.0,0.0,0.0
0.03301864708728745,0.15951116748697713,0.6858073374201349,0.0013698878287028093,-0.38975520551425874,0.007353293358339593,0.920888121466805,-0.04935865430219085,-0.6232316960554091,-0.6123453689215278,-0.12479757189384261,-0.3315674282215781,-0.7343207099398127,-0.122056427273281,0.09755030239428264,1.0873478117657343,-0.093902996734256,-0.06961187638363818,1.2016173790422255,0.0,0.0,0.0,0.0
0.03296437835153408,0.1601358107796739,0.6852870948472752,0.001438313304685392,-0.3896718475457954,0.007445308210663439,0.9209225536768726,-0.0415497682339819,-0.6136127013629663,-0.607549239198033,-0.12730434824050488,-0.33428196858281006,-0.7307086629974608,-0.12420997612665192,0.09426197100108442,1.0928588166358286,-0.08288371352226766,-0.06163604604154869,1.19411657149665,0.0,0.0,0.0,0.0
0.03276478771716033,0.16057351988747198,0.684682973851226,0.00151888668363382,-0.3895840660736299,0.007536155938733201,0.920958823617238,-0.033464281724149184,-0.6038955928301036,-0.6023110481709106,-0.1292300913060523,-0.3378001576807257,-0.7263746066102631,-0.12578157734752615,0.09041405667796552,1.0984345417031038,-0.07156211490417874,-0.05362041097513111,1.1861813031997308,0.0,0.0,0.0,0.0
0.032387962120921245,0.1608405047919484,0.6840430968869907,0.0016106366176297333,-0.3894963456146124,0.007623987840530249,0.9209950474416003,-0.02516187316273242,-0.5943220876673347,-0.596667485536825,-0.1305913695106383,-0.34226939732627853,-0.7208167555804997,-0.12680230968793643,0.08617810979395533,1.1036817876085194,-0.06003841930692531,-0.04576652827187115,1.177885215322933,0.0,0.0,0.0,0.0
0.031797075698636,0.16095140713707148,0.6834055021517889,0.0017136018047762681,-0.38941063459679087,0.007707125020683301,0.9210304128831441,-0.016694522804856025,-0.5849748301340638,-0.5906238852365598,-0.131403471528967,-0.34789967911272596,-0.7134766066496173,-0.12730246231668385,0.08166340263978371,1.1082766370122719,-0.048337717117043405,-0.038192115363642906,1.169217378642472,0.0,0.0,0.0,0.0
0.030954308299225144,0.16092064808191894,0.6828006013706717,0.0018283672767414655,-0.389326466147303,0.007783980696506407,0.9210651277053489,-0.00809793454933785,-0.5758373500596771,-0.5841923821102093,-0.13168548076616762,-0.35494169875148707,-0.7037632352545126,-0.1273157881380517,0.07693882007598903,1.1119476549284482,-0.03645849129070469,-0.030958566483676727,1.160144740069013,0.0,0.0,0.0,0.0
0.02982610387473873,0.16076337191154494,0.6822538020776343,0.0019557670003108197,-0.3892414830842944,0.007853317084336358,0.9211001944590785,0.0006382830896035085,-0.5668145960078311,-0.5774141483256147,-0.13146522939929842,-0.3636571843260623,-0.6910890765084994,-0.1268824409398487,0.07205893223555324,1.1144594213702883,-0.024382866879971658,-0.02408105729440916,1.1506580853712671,0.0,0.0,0.0,0.0
0.02839114013208191,0.1604952067759731,0.6817872905776275,0.002096772570487706,-0.3891520556591347,0.00791464672411716,0.9211371447771985,0.009624546615030496,-0.5577148532665959,-0.5703695043007223,-0.1307817553245213,-0.3742709694260512,-0.6749438107707919,-0.1260489347506656,0.06709163829542403,1.1156046576693035,-0.012051505289943197,-0.017518722005411172,1.1408225265800238,0.0,0.0,0.0,0.0
0.026652678053311056,0.16013007767448542,0.6814202359263128,0.0022525477540693826,-0.3890538779247912,0.007968477618869148,0.9211777838532228,0.019145164356770876,-0.5482008161558609,-0.5631841077328975,-0.12968226328481258,-0.3868873446359919,-0.655044021635856,-0.12486368893974673,0.06214650209437577,1.1152125725507143,0.0006947259330179131,-0.011139789108314788,1.130850106459251,0.0,0.0,0.0,0.0
0.024656837245215914,0.1596760934683068,0.6811652569632598,0.0024245556301610333,-0.3889421256884027,0.008015684028327232,0.9212241275631794,0.02971709908693854,-0.5377347148165705,-0.5560540792373326,-0.12821174087559956,-0.4013493606519292,-0.6316105661996427,-0.12337019242562515,0.05739390632535981,1.1131952949083368,0.01419398807268553,-0.004663386864702822,1.1212051706982056,0.0,0.0,0.0,0.0
0.022516884177316305,0.15913249714196703,0.681012959787966,0.0026142995034900128,-0.3888069099905594,0.008055404315958008,0.9212803387910792,0.042019500070645754,-0.5255949968700865,-0.5493626797266316,-0.1264058497055309,-0.41703332880069605,-0.6058393700539269,-0.12160780318724436,0.05302409735452208,1.1096973841911204,0.029011946847308255,0.002377169691408821,1.1127372366053454,0.0,0.0,0.0,0.0
0.02045676236236248,0.1584823614339031,0.6808876572264957,0.002830761830868,-0.3885491027926709,0.008067381056763367,0.921388353990516,0.05650653717831533,-0.5113741374806319,-0.5440158866983467,-0.12426083839027682,-0.43243844181244934,-0.5813381051638737,-0.11963609237282762,0.04902155965610616,1.1052174818346243,0.04583040172087648,0.01030834052586066,1.10680753249896,0.0,0.0,0.0,0.0
0.018871075265654524,0.15772754052458152,0.6808825601439115,0.003030346574701892,-0.38822045531815697,0.008066093198727356,0.9215262520474984,0.07275885774185456,-0.49529468944573146,-0.5414308222042422,-0.12185007526556062,-0.4439611167542799,-0.5638613373728021,-0.11738232917522205,0.04658853207900331,1.0997205749447727,0.06397395278801682,0.01832697745480474,1.105201228561382,0.0,0.0,0.0,0.0
0.017979836051748212,0.15705966781843528,0.6810235325524572,0.0031263554543503073,-0.3878918063965293,0.008032446207174922,0.9216646094105704,0.08670554403441635,-0.47992701541121174,-0.5448809257799274,-0.1196396294833293,-0.44971053011915074,-0.5559919183889617,-0.11529756014610222,0.04609163097012512,1.0941655200670655,0.07942707857163893,0.023004122355577552,1.1092585278067948,0.0,0.0,0.0,0.0
0.017978638067307404,0.15699121423998863,0.680995962542895,0.003193422352789556,-0.38789820059755004,0.008062576710444705,0.921661425298709,0.0867323676234214,-0.47992124819921034,-0.5448863899097887,-0.11959324531110184,-0.44981827201347674,-0.5559731118362764,-0.11524867649561445,0.0460847049192917,1.0941232821134932,0.07943082293554939,0.02303331269410136,1.109271653207457,0.0,0.0,0.0,0.0
0.017978638067307404,0.15699121423998863,0.680995962542895,0.003193422352789556,-0.38789820059755004,0.008062576710444705,0.921661425298709,0.0867323676234214,-0.47992124819921034,-0.5448863899097887,-0.11959324531110184,-0.44981827201347674,-0.5559731118362764,-0.11524867649561445,0.0460847049192917,1.0941232821134932,0.07943082293554939,0.02303331269410136,1.109271653207457,0.0,0.0,0.0,0.0
0.01775427670739244,0.15668960258359266,0.6806899967734904,0.0033952557032001797,-0.3879497626173379,0.008053627802956946,0.9216390795767465,0.08760461382999966,-0.48353986821612965,-0.5384240489066837,-0.11875354026097537,-0.451762120479999,-0.5542338171716209,-0.11499111437427079,0.04455198917792786,1.0957886171718583,0.07976730727196021,0.02075730123662055,1.1125452825259934,0.0,0.0,0.0,0.0
0.017915982161271247,0.15630896349994652,0.6802393346360054,0.0035191799704067657,-0.3879719554381627,0.008041732094197406,0.921629376545013,0.08890992674043605,-0.48437336820924093,-0.5377297425481862,-0.11774229874591031,-0.4504368265395558,-0.5591616628952233,-0.11435100600659934,0.04293544809703178,1.0989758667534169,0.08069159544203497,0.018340715101805623,1.1176930322981058,0.0,0.0,0.0,0.0
0.018593429538412136,0.15587597084420302,0.6797384935697772,0.0035753861036485475,-0.3880479986478767,0.008050173290860625,0.9215970714306628,0.09045611134523793,-0.4809670388489203,-0.5447222191217678,-0.11670256226381798,-0.4447087218171157,-0.5719033303461725,-0.11342598075622942,0.04200671496470159,1.1034198755594218,0.0821834377769806,0.016609434658838424,1.1243988718977083,0.0,0.0,0.0,0.0
0.01990982405728335,0.1552934915624839,0.679444423794616,0.00357556986000783,-0.38831908800817355,0.0081019541426634,0.9214824249695415,0.09238535586238922,-0.47212107914500856,-0.5596867753539091,-0.11532869024748815,-0.4330311386725245,-0.5936110184544016,-0.11189901641719911,0.04351886075438063,1.1073700645943776,0.08460394240735117,0.01715665760045633,1.131525023137436,0.0,0.0,0.0,0.0
0.02213620203605969,0.1543188501779095,0.6803183444494767,0.0035685237178631726,-0.3892615903088467,0.008317051719395528,0.9210827903068212,0.09465290583390194,-0.45448561333812454,-0.5821748774514791,-0.11297708166407469,-0.4109526198741868,-0.6261161763208385,-0.10884969903692944,0.053457432587376445,1.1041556370265233,0.08890784625776892,0.025619283941542635,1.1341344823049087,0.0,0.0,0.0,0.0
0.02413668639893685,0.15292874829183825,0.6802890378849327,0.00395134867240196,-0.3890349535476446,0.008167208483246351,0.9211783152394776,0.10008516867314073,-0.4421822615316149,-0.6023208820778125,-0.09518352961859708,-0.4460459928376069,-0.5927507725391654,-0.08830857680225211,0.04437059552654679,1.1036883407629903,0.09236942548341442,0.02738166487196635,1.1398349885916785,0.0,0.0,0.0,0.0
0.026625940292015312,0.15167103355510422,0.6803985026017143,0.004273407458234061,-0.3887697583100155,0.008141720023401921,0.9212890563809648,0.10479944800933341,-0.42587525713543617,-0.6299229851534206,-0.07597232742629835,-0.4743917569084651,-0.5778826367734509,-0.06577727685259173,0.03420572893469338,1.1071651485032938,0.09598325688674132,0.030987795059761982,1.1446069444715017,0.0,0.0,0.0,0.0
0.029041037039818494,0.15056303078478933,0.680718718232732,0.004556063728496682,-0.38867174105329944,0.008172846466686806,0.9213287820156987,0.10874471995064654,-0.4101376947703721,-0.6551410322104539,-0.05927757821868308,-0.49578638578780576,-0.5732254200307334,-0.04572149920136133,0.02519820569061508,1.1137055968891576,0.09939684043019184,0.03597431253554601,1.1476888384681234,0.0,0.0,0.0,0.0
0.03119457410162039,0.14962810916512664,0.6812104839173351,0.0048009096587632305,-0.38868513737466315,0.008224669612265883,0.9213214260290795,0.11193304332809238,-0.3960475351897023,-0.6764585580747987,-0.04568920362956608,-0.5121146047489928,-0.5739011028440366,-0.028630450712014144,0.01736736218337474,1.1219674107235296,0.10237461451687949,0.04170487688153356,1.1488661486312934,0.0,0.0,0.0,0.0
0.03298295271480378,0.1488605498600894,0.6818072035277761,0.005015158590875196,-0.3887587113149478,0.008284436486259168,0.9212887064721648,0.1144140402778317,-0.384206588777107,-0.6933128065895509,-0.03434081222446928,-0.5251951600342369,-0.5773559179393707,-0.013769937764606154,0.010168407183247106,1.13095147278902,0.10482989970522699,0.0475353699722168,1.1484163486617414,0.0,0.0,0.0,0.0
0.03437800538989909,0.14826091623517915,0.682463544874848,0.005205228771010045,-0.38885917642842777,0.008350061247467582,0.9212446596740791,0.11619616035541319,-0.3746952883789561,-0.7059382463225391,-0.024279160568648758,-0.5363705034092336,-0.5822069063495542,-0.00033754335536300036,0.0031307650124431175,1.1400694849702142,0.1067069172204768,0.053105249135951445,1.146607417912456,0.0,0.0,0.0,0.0
0.03540181004125693,0.14783760904713808,0.6831544781196656,0.005374952256858652,-0.3889675965299834,0.008422802698022617,0.9211972509363208,0.11726289727208614,-0.3672754085751694,-0.7150019157868912,-0.014878991921170545,-0.5465243235595033,-0.5876724956566528,0.012227107576668774,-0.00402929736857256,1.1490398034107367,0.10796080328005919,0.05828996507607803,1.1436267612840845,0.0,0.0,0.0,0.0
0.036102844226660276,0.14760090993351982,0.6838651411541949,0.005526194653228305,-0.38907460695055907,0.00850384282729948,0.9211504198859658,0.11759976799878034,-0.36157287249020786,-0.7213174782579574,-0.005839937057326991,-0.5562038902093395,-0.5933008136501989,0.024241258287506885,-0.011448520989391336,1.1577660206953524,0.10856192601902002,0.06309439682919064,1.1396218310504445,0.0,0.0,0.0,0.0
0.036538695563914564,0.1475585690213023,0.6845831828042331,0.005659868726358203,-0.3891765185106648,0.008593393369430352,0.9211057251566276,0.11720750947885432,-0.35719417237582257,-0.7256773785788989,0.0029307184379396964,-0.5657400520318949,-0.5988353664537831,0.03586119656577368,-0.019177381829219672,1.1662480304828802,0.10849972563143347,0.06756965584863918,1.1347401923345655,0.0,0.0,0.0,0.0
0.0367653514148997,0.1477144850680919,0.6852946325843093,0.005776641091803524,-0.38927258200031545,0.008690922286985064,0.9210634914001888,0.11610208191637227,-0.35378885993796744,-0.7287722079267335,0.011425085752796084,-0.5753330481559954,-0.6041425920395512,0.047161478750227186,-0.02722104607720853,1.1745272002808436,0.10778063918855595,0.07176301670070878,1.1291498721240836,0.0,0.0,0.0,0.0
0.03683141994519472,0.14806961659732132,0.6859815874203711,0.005877236604377199,-0.38936293465704896,0.008795433509239378,0.9210236715495055,0.11430876185573886,-0.3510787523213772,-0.7311634849374287,0.019602375073716188,-0.5851008754837771,-0.609167144533352,0.05818553850392586,-0.03555629691722496,1.1826534564383409,0.10642107630468124,0.07568946694933049,1.123047756779379,0.0,0.0,0.0,0.0
0.03677545855835417,0.14862396537692432,0.686620293151713,0.005962402295700198,-0.38944717579496413,0.008905626591909542,0.920986447695728,0.11185447900683881,-0.34887001942018175,-0.7332836422208294,0.027422550284277918,-0.595090121188402,-0.6138972620960054,0.06896468565394316,-0.04412899752937196,1.1906604591403303,0.10443890736954517,0.07931398383627307,1.1166667893442714,0.0,0.0,0.0,0.0
0.036624860324294774,0.14937884207903138,0.6871790920303461,0.006032636591878332,-0.38952342812810353,0.00901973067298592,0.9209526321660997,0.10876123685378146,-0.3470584704077669,-0.7354454308077638,0.034858751498023186,-0.605248823647117,-0.6183289817625767,0.07950389922299259,-0.05283647465785682,1.1985344702791447,0.10184508560750966,0.08253796308059629,1.1102855463033854,0.0,0.0,0.0,0.0
0.03639516130629627,0.15033900869547742,0.6876168450815695,0.006087746138763795,-0.389588126869876,0.009134976439102648,0.920923766092736,0.10504118263745725,-0.3456329008096423,-0.7378476302255157,0.041895147171929145,-0.6153594660674868,-0.6224202293572901,0.08972965547526848,-0.06149475304483157,1.2061600344552605,0.09863608397279883,0.08519031561238306,1.1042356177019395,0.0,0.0,0.0,0.0
0.036089196136087506,0.15151446365963755,0.6878836547244411,0.0061263034210110095,-0.3896371424300601,0.009246693497251665,0.9209016583244373,0.10069308908147524,-0.34467531500310566,-0.7405682523758023,0.04850771969052024,-0.6249381156573104,-0.626030136438613,0.0993980658311302,-0.06978385897793062,1.2132206850215634,0.09478722244613197,0.08703165677272744,1.0988930794812277,0.0,0.0,0.0,0.0
0.03569657467652272,0.15292140320935696,0.6879268928853696,0.006145234947444067,-0.38966921703747304,0.009347120787322614,0.9208869467604753,0.09570051004030695,-0.3443482240467751,-0.7435443561584045,0.05462063001903547,-0.6331336665662829,-0.6288511277653819,0.1079881166883477,-0.07715397085457082,1.2190268168639762,0.09024769819845518,0.0877885483864764,1.0946329199049536,0.0,0.0,0.0,0.0
0.035195898611032776,0.15458086294927,0.6877058330040785,0.006140247564074072,-0.38969277653046064,0.009424438041749868,0.9208762225442839,0.09003434114963155,-0.3448480063834635,-0.7465539931078852,0.06004838491984302,-0.6387273763208849,-0.6303703670380718,0.1146808337529837,-0.08266400542185197,1.2222396925416652,0.08494161386425514,0.08723931398993336,1.0917286222057412,0.0,0.0,0.0,0.0
0.034564402420033766,0.15651122903867976,0.6872136734807917,0.006108810309813033,-0.38973343570720576,0.009463217148085158,0.9208588268837218,0.0836704800987732,-0.34630431850415555,-0.7492477773879499,0.06452026824716015,-0.6404668076280148,-0.6299827534262332,0.11866705539097169,-0.0848010928348712,1.2205776291834194,0.07878542734426872,0.08534741333387987,1.0902158543882894,0.0,0.0,0.0,0.0
0.03378624100992489,0.1587195156736103,0.6864526447992755,0.006051237174996673,-0.38979188389773634,0.009460838044210338,0.9208344923598414,0.07657815743444517,-0.34882788161647565,-0.7514121913001874,0.06798613696575534,-0.6383547002391459,-0.6276785132730421,0.11989898884855771,-0.08355251413389216,1.2140911458025454,0.07174427138072707,0.08211341606434339,1.0899885551301483,0.0,0.0,0.0,0.0
0.03285323604322313,0.16120245345085,0.6854328662567295,0.005970836442657292,-0.38984527388215173,0.009428165347261685,0.9208127503689932,0.06871050420665178,-0.35250784451173833,-0.7529770071898585,0.07065186565740611,-0.6336444715578855,-0.6240558640978479,0.11910304844062992,-0.08041347021516934,1.205117750763736,0.06383307670933924,0.07757409710492728,1.0908169851345775,0.0,0.0,0.0,0.0
0.03175667604044984,0.16395493254085167,0.6841960635931391,0.005872572334678202,-0.38988865173482506,0.009373751108853948,0.9207955717382243,0.060020223716103216,-0.3573632450203001,-0.7537585209579047,0.07267537416871914,-0.6275594020415874,-0.6196189956279741,0.1170322974387826,-0.07633335132519957,1.1950054874967109,0.055066612970497544,0.07194555496633454,1.0922623653841712,0.0,0.0,0.0,0.0
0.03047836269648478,0.166975347714144,0.6827940234739996,0.005759848037151085,-0.38992626090267474,0.009303103808237793,0.9207810746689906,0.05045772573726255,-0.36343811447039887,-0.7534304927700411,0.0741180648717397,-0.6209629811352251,-0.6146603879203605,0.11415581897446873,-0.07188789437695507,1.1844251308665408,0.04545113699351388,0.06549291410499025,1.0938065551926395,0.0,0.0,0.0,0.0
0.02899045132819388,0.17026446954257327,0.68127539069292,0.0056341487178546085,-0.3899646064856574,0.009219363125767125,0.9207664554056402,0.03998051763441805,-0.3708378793148765,-0.7515462296954066,0.07499498074370609,-0.6143588576199529,-0.609309834566007,0.11068087251334724,-0.06742407155758992,1.1736568913622203,0.03499289109170313,0.058456558050470626,1.0949428069493854,0.0,0.0,0.0,0.0
0.02725889929380013,0.17382198928844453,0.6796814890155086,0.005495618064371011,-0.39000922545447864,0.009124454299748081,0.9207493397099017,0.028564232291302935,-0.37972919606758254,-0.7475670996667795,0.0753212640579062,-0.6079919798576795,-0.6036132252744728,0.10666642266638184,-0.06314105171161628,1.1627673246244576,0.02371229627645177,0.05103399035296108,1.0952118093526448,0.0,0.0,0.0,0.0
0.02524783653401038,0.17764216023959487,0.6780476305153087,0.005343776078418507,-0.3900635071990193,0.009020234165761037,0.9207282659853662,0.016214774407686736,-0.3903249559818094,-0.7408839842887266,0.07513871156369133,-0.6019515146298571,-0.5975997050761801,0.10213039146598873,-0.05913663939341131,1.1517106250634936,0.01165966540003381,0.043392680530808594,1.0942024222856266,0.0,0.0,0.0,0.0
0.022924383013869565,0.18170881698374425,0.6764067602994337,0.005178160301001961,-0.39012825403597273,0.008909522842502368,0.9207028578545087,0.0029825098359431527,-0.4028638064072209,-0.7308357049035781,0.07452895277260323,-0.5962388475441355,-0.5913279987666773,0.09713039975032564,-0.05543410698148966,1.1403856814176556,-0.0010684208431958626,0.03569458043077203,1.0915406333557656,0.0,0.0,0.0,0.0
0.02026453120112971,0.18598975431400877,0.6747931217361355,0.0049986867937174195,-0.390200897834197,0.008797296510895747,0.920674144327853,-0.011022269849513936,-0.41758592360966634,-0.7167389171410999,0.07361538257732918,-0.5907899054503749,-0.584913134400197,0.09182429177453603,-0.051995430902567495,1.1286730873355715,-0.01431140065515529,0.028119475630116627,1.086885852411076,0.0,0.0,0.0,0.0
0.017261288547479995,0.19043015785548767,0.6732436466374763,0.0048065587714837005,-0.3902754097637836,0.008690515330116853,0.9206445983493218,-0.02560653000315736,-0.4347003525151828,-0.697938015594642,0.07255841292394433,-0.5854457836190394,-0.5785355397827207,0.0865104946013207,-0.04871244628349087,1.1164709654856952,-0.027831494232407168,0.020874563688568926,1.0799608964599021,0.0,0.0,0.0,0.0
0.013936653717411625,0.19494446640467547,0.6717929064221196,0.004604273144644591,-0.3903398644047912,0.008598129523728777,0.9206191737596778,-0.04047043675765226,-0.45434387552003397,-0.6739179424926006,0.07151967574929952,-0.5798769546552975,-0.5724479479897209,0.08164268050914814,-0.0453812853727026,1.1037355558950468,-0.04129726016955602,0.014166467626688306,1.0706477543703876,0.0,0.0,0.0,0.0
0.01035934007813371,0.19940307999807821,0.6704515694118192,0.004397272758608446,-0.39036731552589776,0.00851376965244886,0.9206093301111474,-0.05510155277525726,-0.47652400363409503,-0.6445129227359055,0.07070308978885201,-0.5734959156957612,-0.5670878261844183,0.07774916601086561,-0.04164473937336414,1.0905257346063109,-0.054297425115078374,0.008059408046654334,1.0592112589022058,0.0,0.0,0.0,0.0
0.006646641233070584,0.20363942488429237,0.6691831769798637,0.0041845374215410515,-0.3902928824078918,0.008485905590671916,0.9206421373121119,-0.06913423987706369,-0.5011829160969148,-0.610248144901218,0.07173605813430643,-0.5658875377420739,-0.563061225333715,0.07539029964327706,-0.03696222162903414,1.0770388632756924,-0.06621675045906514,0.0023630289757429184,1.0465373013869594,0.0,0.0,0.0,0.0
0.0033117898691818275,0.20742050794900047,0.66796087142249,0.003994313396438704,-0.39006735678962884,0.008434622813521288,0.9207390291312936,-0.08151041720261407,-0.5250883982373428,-0.5770654726217456,0.07434621195452777,-0.5567042431572263,-0.5609817365377229,0.07493055516888304,-0.03109915972289347,1.0639318583704873,-0.0766566057465437,-0.002784388321752009,1.0344081252495274,0.0,0.0,0.0,0.0
0.0006102453935888188,0.210396245224612,0.6669119713494892,0.003837434308285302,-0.3897163622242711,0.008377560848380613,0.9208888356293836,-0.09119704680128243,-0.5460649131593219,-0.5480604730249798,0.07903754179988465,-0.5465940933322183,-0.5621549714369857,0.07659091895288278,-0.024841357390559773,1.0511788320306417,-0.0846782166192529,-0.007063344074808258,1.0240392112725236,0.0,0.0,0.0,0.0
-0.00104177472030799,0.2121169272713364,0.6661511346693078,0.003747125889566369,-0.38932574110611995,0.00831215315213814,0.9210550116413859,-0.09673054535395599,-0.5603224208583517,-0.5288819239836382,0.08484915653644479,-0.5377522918365096,-0.5680211728649008,0.07931632956920776,-0.019505422184047355,1.03943469789378,-0.08923559298917577,-0.010291783543800132,1.0178807736489268,0.0,0.0,0.0,0.0
-0.0009794502673597081,0.21225155661416345,0.6660564378985897,0.0036552826146662104,-0.38934850889152445,0.008244338982152101,0.9210463660466289,-0.09687108362534975,-0.560503389042017,-0.5288323483370585,0.0848582011143941,-0.5377645171399571,-0.5680491392951889,0.07935190582476183,-0.01947251615231899,1.0394340378926399,-0.08940533633350259,-0.010227267268593526,1.0178359675191118,0.0,0.0,0.0,0.0
-0.0009794502673597081,0.21225155661416345,0.6660564378985897,0.0036552826146662104,-0.38934850889152445,0.008244338982152101,0.9210463660466289,-0.09687108362534975,-0.560503389042017,-0.5288323483370585,0.0848582011143941,-0.5377645171399571,-0.5680491392951889,0.07935190582476183,-0.01947251615231899,1.0394340378926399,-0.08940533633350259,-0.010227267268593526,1.0178359675191118,0.0,0.0,0.0,0.0
-0.0009794502673597081,0.21225155661416345,0.6660564378985897,0.0036552826146662104,-0.38934850889152445,0.008244338982152101,0.9210463660466289,-0.09687108362534975,-0.560503389042017,-0.5288323483370585,0.0848582011143941,-0.5377645171399571,-0.5680491392951889,0.07935190582476183,-0.01947251615231899,1.0394340378926399,-0.08940533633350259,-0.010227267268593526,1.0178359675191118,0.0,0.0,0.0,0.0
-0.0005524077030258332,0.21256002106680072,0.6653220429825005,0.0035815839086983637,-0.3895243520067247,0.00812675868620036,0.9209733477379801,-0.0975361406678345,-0.5584367109631905,-0.5349861644361835,0.08454741983156971,-0.5367886840294755,-0.5718225637636986,0.07872118116112278,-0.023162945192667362,1.0485496039262332,-0.09046747862027027,-0.012986141315681184,1.0240322121143304,0.0,0.0,0.0,0.0
0.00031049732234847275,0.2131469184114856,0.6642432424657939,0.003559982091455373,-0.3895812856310151,0.007991299741717355,0.9209505347965394,-0.09929835428189353,-0.5527216234289108,-0.5504539662333607,0.08358332366525066,-0.5335806494523566,-0.5817566519934328,0.0772003482517349,-0.02845994180431826,1.0618822035430593,-0.09265342642357552,-0.016729189234361067,1.0324123820532256,0.0,0.0,0.0,0.0
0.0017075510722578619,0.21415601703422166,0.6631101983684795,0.0035635398238964703,-0.3896380560173272,0.007848460340156576,0.9209277323206477,-0.10261736370472799,-0.5419993462543693,-0.5760936853372458,0.08134046363015081,-0.5269276729117394,-0.5979345490227067,0.0744491687821929,-0.03377395717459159,1.0781030058136238,-0.09627977242788134,-0.01940334456835889,1.040537039365711,0.0,0.0,0.0,0.0
0.00381479912890712,0.21595976793874877,0.6626459921017192,0.0035397699313581324,-0.39000643282465147,0.0077666339672571175,0.9207725733214702,-0.1088443581473211,-0.5229753823188705,-0.6138204646938797,0.07599560552632939,-0.5141233647961041,-0.6197171887146375,0.06960429470019806,-0.035410211549242954,1.0940804322473328,-0.10215168224499616,-0.016098536955814254,1.0425625814620476,0.0,0.0,0.0,0.0
0.007058415090851386,0.2194743785467011,0.6648316769911755,0.003497333109591191,-0.3913050343133878,0.00804076625996772,0.920219259122559,-0.12182177969372467,-0.48655044978043255,-0.6700613746831869,0.06256667330700758,-0.48744729168528583,-0.6472702367122839,0.06030107792909939,-0.023496805123724155,1.0999321124687926,-0.11233145580902831,0.006159518689223341,1.0221437023812783,0.0,0.0,0.0,0.0
0.010275285321739738,0.22269582764305693,0.6667016346450229,0.00328725343999165,-0.3907814166381087,0.007875808693876607,0.9204439418088163,-0.11240794462097557,-0.5139203409130756,-0.6258601874515157,0.052932353056306974,-0.463732562120767,-0.6823310728606844,0.05096717656607454,-0.01334005742447693,1.0998964123471742,-0.1068484901850667,-0.003967496590565969,1.0428632032662457,0.0,0.0,0.0,0.0
0.014066589959851999,0.22618223437364243,0.6685499680508669,0.0032088618571247465,-0.39019714895529034,0.00778241765320609,0.9206928489611592,-0.10077062663961045,-0.5337755668456243,-0.6019184390563953,0.04201662145443103,-0.43762712715798163,-0.7216589448797384,0.040569048289669285,-0.002525508545880654,1.1010307253158516,-0.10068261861696891,-0.01146928768940843,1.0606936327351442,0.0,0.0,0.0,0.0
0.017652640264752467,0.2299884572398841,0.6702715216016173,0.003094175522979533,-0.3898755247978611,0.007758271864020729,0.920829685913258,-0.09254865465578332,-0.5486174792104587,-0.5903877941875789,0.02946142543604329,-0.4149115850289479,-0.7526127499733622,0.029321895623777437,0.007396039365707414,1.10425864965452,-0.09733457571174882,-0.017348006824040273,1.0759180800296246,0.0,0.0,0.0,0.0
0.020821525148665677,0.23397312885721244,0.6719911506545848,0.0029358237981826074,-0.3897582594639897,0.007750854389626831,0.9208799076831127,-0.08806967132121024,-0.5601796433104667,-0.5859661962703597,0.016061633257697806,-0.3957314048496609,-0.7750695328890816,0.017497041370174563,0.01689873681431476,1.107615394978129,-0.09705463191420041,-0.022493268886196207,1.0892472532330668,0.0,0.0,0.0,0.0
0.023491886663695026,0.23802416225478537,0.6737527374258347,0.002751275949866723,-0.3897556151051145,0.0077340954632731645,0.9208817376525862,-0.08634370419917778,-0.5695664359977788,-0.5855315725007247,0.0024311109651386706,-0.3799690336906991,-0.7899274397071251,0.0053269437975018916,0.02610283738111998,1.110004598992355,-0.09902525712711538,-0.02738438131783958,1.1012133518087155,0.0,0.0,0.0,0.0
0.025664681476347997,0.2420596750782191,0.6755534507709577,0.0025560121366380614,-0.38980937020466205,0.00770296510043096,0.9208598080225152,-0.0862555038983865,-0.57752999845606,-0.5872346343295911,-0.01103322299262495,-0.3673596662186958,-0.7983000262409202,-0.006951797037027918,0.03496743475646529,1.1110555226464902,-0.10228385456225433,-0.0322272677925245,1.112206523362601,0.0,0.0,0.0,0.0
0.027388930612419492,0.24601838405494936,0.6773738990482603,0.0023621268649908394,-0.3898836264313315,0.007658719628062543,0.9208292579034869,-0.08692078884040486,-0.5846213878999252,-0.5900118999972278,-0.024066338162681868,-0.35752988818733805,-0.8013827078767417,-0.019125884839122913,0.043443126920211066,1.110743626135022,-0.10607505373583455,-0.03712881112358868,1.1225266137653611,0.0,0.0,0.0,0.0
0.028737690873861726,0.24985359808950355,0.6791930510660645,0.002177491881309486,-0.38995842571883654,0.00760452088483758,0.920798488270971,-0.0877474229735786,-0.5912478192325832,-0.5932719074318102,-0.036493952107891886,-0.3500339668448915,-0.8003610563088056,-0.03101207370196904,0.05152622396517281,1.1091831111567205,-0.10990967581272965,-0.042153292392247486,1.1324162103203068,0.0,0.0,0.0,0.0
0.029791435217105373,0.2535299591310186,0.6809927047711689,0.0020064795502936447,-0.39002397126141025,0.007543732936193152,0.9207716155348623,-0.08837619034074468,-0.597703544687787,-0.5967023158272612,-0.04820693849514847,-0.34439929614166276,-0.7963478090591188,-0.04246218579561087,0.059253653396059834,1.1065370856469163,-0.11351642277520478,-0.04733969100046741,1.1420755789310204,0.0,0.0,0.0,0.0
0.03062709238442309,0.2570214841832675,0.6827567054696231,0.0018510258511915943,-0.39007624156243986,0.007479407417966371,0.9207503233431392,-0.08860199609011818,-0.6041933171991707,-0.6001531508771949,-0.05914463502176275,-0.340171004604806,-0.7903384423714206,-0.053364485144128566,0.06667461781185383,1.1029912929330246,-0.11677161989647317,-0.05270454849934702,1.1516686319044889,0.0,0.0,0.0,0.0
0.03131143868401584,0.2603098982886933,0.684468094055788,0.001711597113099847,-0.39011389350061104,0.0074141610114469535,0.9207351686286414,-0.08831220733457518,-0.6108470730271127,-0.6035654644006334,-0.06928212505554332,-0.3369487403137663,-0.7831836905052453,-0.06364123483653071,0.07381896410483545,1.0987566714593333,-0.1196392555841122,-0.05823830754227156,1.1613231456793882,0.0,0.0,0.0,0.0
0.03189762573641241,0.2633828487852552,0.686105597186291,0.0015879555019760589,-0.3901361586629419,0.007350186839680671,0.9207264690745397,-0.08744798281270141,-0.6177174041988961,-0.6069233420967994,-0.07861963687699247,-0.33441391960101785,-0.775576367480647,-0.0732433011959294,0.08066922296716003,1.0940843599416312,-0.12212359844698317,-0.06389596359448663,1.171123360764026,0.0,0.0,0.0,0.0
0.03242363865385844,0.266231960844827,0.687640058680793,0.001479839004165022,-0.3901414283427251,0.007289265372103917,0.9207249005960223,-0.08598201278850248,-0.6247504687372264,-0.6102135654415524,-0.087173396723162,-0.3323492819782555,-0.7680477472138184,-0.08214357290407374,0.08713736050332191,1.0892857553548934,-0.12422276651365527,-0.06958111309568911,1.1810875264486012,0.0,0.0,0.0,0.0
0.03291155030319528,0.2688509489716651,0.6890314650547372,0.0013875455560330887,-0.39012688178194005,0.007232990617453821,0.9207316518265014,-0.08390599551668874,-0.6317244184414573,-0.6133814928430686,-0.09496883632600112,-0.3306532315367569,-0.7609632420358925,-0.09033005361224403,0.09304734950810095,1.08475276739292,-0.12586772197689797,-0.07511973018665531,1.1911159006233143,0.0,0.0,0.0,0.0
0.033366865063681576,0.27123434606943475,0.6902275129724242,0.001312309017624444,-0.39009181445474045,0.007183416673655721,0.9207470079589416,-0.08122447491028152,-0.6381615933367295,-0.6162680363901017,-0.10203673724029294,-0.3293496648161789,-0.7544969052194143,-0.09780054760584513,0.09812918234407222,1.0809806646835955,-0.12684309736564728,-0.08021378961464529,1.2008938526403434,0.0,0.0,0.0,0.0
0.03386349807443267,0.27334134874935645,0.6911781522038944,0.001260389019520078,-0.390019130485134,0.007143454243036902,0.9207781819399378,-0.07766591618422589,-0.643219625373114,-0.6185723050121222,-0.10832077899498152,-0.3279501693346784,-0.7498790667654737,-0.10446116600384578,0.1022679707704697,1.0783681072221754,-0.12660617396459892,-0.08420774047975708,1.2098308041939658,0.0,0.0,0.0,0.0
0.034337699708293895,0.2751771036102406,0.6918401344891075,0.001231863014448823,-0.38992992051132014,0.007125181445290591,0.9208161441856463,-0.07321708093682487,-0.6457240135236985,-0.6197811943710514,-0.11390512998751173,-0.3268934665103703,-0.7463355756879404,-0.11031718840227478,0.10511065036649288,1.0773673061330988,-0.12442783199011141,-0.08624555513614456,1.216479269695467,0.0,0.0,0.0,0.0
0.03472542863658402,0.2767492993900241,0.6922090586141544,0.001223747437827547,-0.38985984451756417,0.007148820717064264,0.9208456431114307,-0.06784687339707865,-0.6444651345028254,-0.6193457487111944,-0.11888340287652463,-0.3265566460020902,-0.7429470727716024,-0.1153458306068222,0.10651068342723273,1.0781404457713073,-0.11958637160586535,-0.08486890815449186,1.218392858927464,0.0,0.0,0.0,0.0
0.035013330369882224,0.2780599571132838,0.6922950563880921,0.0012366466890745551,-0.38980829209837425,0.007212549636276504,0.9208669530632855,-0.06159296703216679,-0.6394418762052146,-0.6172041366982103,-0.12325875504369828,-0.3269913190111306,-0.7395898200255533,-0.11955865153743711,0.10648430501044244,1.0806251148632526,-0.11209609343250554,-0.08008154020485109,1.2154749332698294,0.0,0.0,0.0,0.0
0.03519795637610937,0.2791240385342197,0.6921201319974648,0.0012717784414087944,-0.3897490100251414,0.00729460503375684,0.9208913510840568,-0.05466035949981218,-0.631844956778403,-0.6138087980185108,-0.12700569222096392,-0.3282120556743735,-0.7363273258080325,-0.12304402678917836,0.10511070321577885,1.0845968823065253,-0.10273584140542662,-0.0734182773089522,1.2099502309920442,0.0,0.0,0.0,0.0
0.035276427702655315,0.2799641336800812,0.6917393779066351,0.0013253149538656583,-0.38967556926465374,0.00738336783402777,0.9209216471220386,-0.04725334849479334,-0.6228333359821451,-0.609590914900625,-0.13013996879076645,-0.3301625434905046,-0.7330622715966273,-0.12587119747951467,0.10264696740817891,1.0896161050897206,-0.09230134208591567,-0.06582290624973529,1.2030960448104324,0.0,0.0,0.0,0.0
0.035236469184349105,0.28060269395187454,0.6912170768304112,0.0013932335728223395,-0.3895917309288395,0.007473463720178552,0.9209562907283415,-0.03950225605999991,-0.6132337782978836,-0.6048174673484623,-0.1326873024710334,-0.3328275971607517,-0.7295172242135239,-0.128090891954685,0.09938444468190813,1.0951816790869748,-0.08131406715275916,-0.057850513766384865,1.1955427829114111,0.0,0.0,0.0,0.0
0.03505510322566717,0.28105952366784903,0.6906121006358074,0.0014729861239079585,-0.3895034306808588,0.00756224394675134,0.9209927905614734,-0.03148798731277641,-0.6035362342735487,-0.5996110288287293,-0.13467081017120827,-0.3362730857154999,-0.7252803854100254,-0.1297421553928885,0.09556631895853598,1.1008295886013697,-0.07003659055233791,-0.049833733420339796,1.1875548089427108,0.0,0.0,0.0,0.0
0.03470101010259497,0.28135171612239573,0.6899727470692547,0.0015635128181061386,-0.3894150926059989,0.007647905231428184,0.9210292886895074,-0.023272030214015783,-0.5939814434839699,-0.5940076563594963,-0.13610895807425794,-0.34064426763516387,-0.7198524574444841,-0.13085809520448277,0.09136367542660734,1.1061690728480433,-0.05857051699197412,-0.04197287271890108,1.1792069220762713,0.0,0.0,0.0,0.0
0.03413787723142804,0.28149466311662047,0.68933701116958,0.0016647595879109407,-0.3893285517819627,0.007728776052586641,0.9210650212463846,-0.014908185486272776,-0.5846515867698003,-0.588010444622679,-0.13701849944064687,-0.34614921345633426,-0.7126786483396562,-0.1314705609521753,0.08688382421978531,1.1108805672613917,-0.04694215290404852,-0.03438505357960846,1.170488880901438,0.0,0.0,0.0,0.0
0.03332828246267993,0.28150334719207015,0.6887349730859661,0.0017772032945231155,-0.3892431634992475,0.007803258034250068,0.9211002716217159,-0.00643394158603516,-0.5755306752621936,-0.5816269765276717,-0.13741942704036086,-0.3530370124447162,-0.7031731674314536,-0.13161414640422392,0.08219182330517187,1.1146991058252125,-0.035150398051794075,-0.027130860846705664,1.161367966048401,0.0,0.0,0.0,0.0
0.03223888311672426,0.2813932149933678,0.6881913117052231,0.0019015413744800235,-0.3891563080841038,0.007870109971894248,0.9211361535559124,0.002160067862939761,-0.5665260873827404,-0.5748905189801775,-0.13733980677140062,-0.36156841383815597,-0.6907549759617805,-0.13132881607587954,0.07733596090449701,1.1173981994843052,-0.023176197629335087,-0.0202234681173234,1.1518345255882,0.0,0.0,0.0,0.0
0.030848287968212006,0.2811798437128379,0.6877269669136081,0.0020385586066254007,-0.38906397918355934,0.007928895206199856,0.9211743575466435,0.010986241409399237,-0.5574524996582344,-0.5678686442131458,-0.13681817216611497,-0.371968283557214,-0.6749214983500181,-0.13065943910831335,0.07237479631348821,1.1187821221394008,-0.010956597628293143,-0.013617578253805619,1.1419513405461796,0.0,0.0,0.0,0.0
0.029159285877173546,0.28087661622948956,0.6873593026743456,0.0021891399903682745,-0.3889613449214495,0.00798030489080896,0.9212169096129583,0.020338824373469358,-0.547986388688214,-0.5606670638987935,-0.13590050080693192,-0.3843421773572758,-0.6553979184826633,-0.12965069112039962,0.06740545577344732,1.1186933053865655,0.0016742024014948908,-0.00717306066134939,1.1319241203636687,0.0,0.0,0.0,0.0
0.027216959618183493,0.2804903501564461,0.6870988915789149,0.0023542768485484704,-0.38884282100263395,0.008025692989953783,0.9212661429724122,0.030761376511142517,-0.5376159381651415,-0.5534508512597984,-0.1346299121222865,-0.39853526872551315,-0.6324137570614361,-0.12833886054608074,0.06258480885865043,1.1170537684300867,0.015064487943886805,-0.0005956043598014035,1.1222036737381815,0.0,0.0,0.0,0.0
0.025132658428252304,0.280017497708662,0.6869356475303935,0.002534582253080934,-0.3886961222902631,0.008066777254268454,0.9213272097979334,0.04298205796010007,-0.5256627216232345,-0.5465647054249835,-0.1330452081569631,-0.4139233090489712,-0.6071757066501948,-0.12674497200900453,0.05809516816438577,1.1139901116455107,0.0297998508767324,0.006598078340331628,1.1136133076596197,0.0,0.0,0.0,0.0
0.023100826064847615,0.2794413570797016,0.6868022169769593,0.0027384037456426834,-0.388431352447361,0.008075061727162639,0.9214382122307183,0.05732747932433746,-0.5118013896409821,-0.5408214721638567,-0.1311029945109574,-0.4292220334423811,-0.5828393953823828,-0.12494252135824918,0.05392893004123258,1.1099280850604107,0.046526523771734926,0.014741571756031363,1.1074118262120496,0.0,0.0,0.0,0.0
0.021538324406960095,0.27875143914239575,0.6867752807901872,0.002920098062178891,-0.388084656007958,0.008073168764626918,0.9215837437501759,0.07357516021317312,-0.496322672014975,-0.5375247805124506,-0.12889113450922446,-0.44068864141983377,-0.5655407430962686,-0.12280260606357325,0.051250917181034,1.1048775079685524,0.06464905570348128,0.02311525949906982,1.105333770648216,0.0,0.0,0.0,0.0
0.020658986752994244,0.27812901353376207,0.6868893479619629,0.002988382914752547,-0.3877301773676535,0.008040855465667929,0.9217330002605868,0.08761434728522513,-0.48187803452805766,-0.5397190555955684,-0.12683092852734998,-0.446455642345724,-0.5577779555075559,-0.12073904808655188,0.05048807438750913,1.0996812116629453,0.08012762236070209,0.028307225514163606,1.1085739569740853,0.0,0.0,0.0,0.0
0.02065801120321952,0.27806485419624144,0.6868634857361571,0.0030515730880221075,-0.387735145700393,0.008068889455975172,0.9217304582758079,0.08764059218388946,-0.4818715169943351,-0.5397236118521186,-0.1267877457359646,-0.44656059992498726,-0.5577600948539186,-0.12069346209306332,0.05048045051651403,1.0996397465083674,0.08013167573214275,0.028336384437639396,1.108586997901734,0.0,0.0,0.0,0.0
0.02065801120321952,0.27806485419624144,0.6868634857361571,0.0030515730880221075,-0.387735145700393,0.008068889455975172,0.9217304582758079,0.08764059218388946,-0.4818715169943351,-0.5397236118521186,-0.1267877457359646,-0.44656059992498726,-0.5577600948539186,-0.12069346209306332,0.05048045051651403,1.0996397465083674,0.08013167573214275,0.028336384437639396,1.108586997901734,0.0,0.0,0.0,0.0
0.020463777432517975,0.27782246594588567,0.6865857969247379,0.003261805319802531,-0.3877848194191742,0.008068616869593155,0.9217088433317248,0.08828768480156746,-0.4850236567640874,-0.5341164995922674,-0.1261722328633115,-0.44831071277991846,-0.5561633158642338,-0.12062753934936944,0.04908920284247829,1.1012517111945297,0.08027723822542779,0.02630829949859454,1.1115292243487995,0.0,0.0,0.0,0.0
0.020655013526875307,0.27749383437683434,0.6861720661128385,0.00339111088294498,-0.3878159922596539,0.008061939715813657,0.9216953193125471,0.08940119503359802,-0.4853566817448264,-0.5342294025018965,-0.125350386609604,-0.44677713287636966,-0.5611784293544835,-0.12016128104962374,0.047692278286474626,1.10432056153614,0.08103854639599864,0.02419458228716372,1.1163193156478555,0.0,0.0,0.0,0.0
0.021348264432134483,0.27707378815030786,0.6856931561398597,0.00345533616988836,-0.38790571739349167,0.008068296862363475,0.9216572669116945,0.0909043469259541,-0.48169392681499124,-0.5415299089235327,-0.12435997983722977,-0.4409115783632595,-0.5739964628034234,-0.11932026857613955,0.046947765110101194,1.1086544924859858,0.08247003927345536,0.022642045228596183,1.122868817532764,0.0,0.0,0.0,0.0
0.02266140829533942,0.27645793759935317,0.685393722512227,0.0034671695998823252,-0.38818987425127954,0.008113179417287791,0.9215371813353406,0.09295427222215809,-0.47294100549966656,-0.5561812110526758,-0.12288116634712491,-0.42922299082820015,-0.5957563734052777,-0.11775998567291536,0.04853652621845037,1.1125531828381996,0.08496022736594255,0.023168660790007897,1.130120377662025,0.0,0.0,0.0,0.0
0.02486796294702808,0.27541716321610554,0.6862302605180634,0.003471382323721123,-0.3891328079585348,0.008327280333870314,0.9211374835915157,0.0954273263467118,-0.4556899310403332,-0.5779851119181902,-0.1203345070016463,-0.4072858232219424,-0.6282800157441834,-0.11455470031910167,0.058385573018846754,1.1093589798066659,0.08946235211508458,0.03141475430391397,1.1330705598761037,0.0,0.0,0.0,0.0
0.02682832151334108,0.2739514661876458,0.686175174219576,0.0038739355708660704,-0.3889172121540071,0.008169018555793673,0.9212283440327826,0.10110375632126038,-0.443896586469937,-0.5970669662212651,-0.10208929986169687,-0.44310300582270146,-0.5940900977552058,-0.09323552794299156,0.0493432002284174,1.1081236861048471,0.09310188953449057,0.03296215576271132,1.139083741481848,0.0,0.0,0.0,0.0
0.02927186331497387,0.27261652667642566,0.6862527304382918,0.0042202170542703634,-0.3886733005861004,0.008131915934014846,0.9213300858664955,0.1060754954523101,-0.42808731153225343,-0.6235751142591449,-0.08231534949825599,-0.4720188192019542,-0.5786402629219305,-0.07005762908981801,0.03908099871290353,1.1111740018989114,0.09688612347834685,0.036330912242032755,1.1442272906229736,0.0,0.0,0.0,0.0
0.031639515161768494,0.27143724276171954,0.6865552139895071,0.004521450138430503,-0.3885978554528327,0.00815593410371213,0.921360268280004,0.11023998254769822,-0.4127734425325994,-0.6478034615882245,-0.06519071693820623,-0.4937881372885927,-0.5736471307800596,-0.049516482506477735,0.02992717408164309,1.1174761399354125,0.10047789585453511,0.04115911496455295,1.1475523702047785,0.0,0.0,0.0,0.0
0.03375309151695553,0.27044412130091683,0.6870352929499807,0.004777982917592762,-0.3886239805641952,0.008203474045528665,0.9213475324888343,0.11360256195085937,-0.39899576673846726,-0.6684045012783542,-0.05134956662287555,-0.5103674500257069,-0.5741529906588724,-0.03211075849104242,0.021984395862920808,1.1256252341490054,0.10361580411951195,0.046772913233999555,1.1488725817105778,0.0,0.0,0.0,0.0
0.03551330281011421,0.2696338300092698,0.6876226120978709,0.004998402303008592,-0.38870185705937793,0.008260840807234122,0.9213129982813473,0.11621068174799871,-0.3873580692707053,-0.6848182284233769,-0.039892549184480666,-0.5236123801776777,-0.5775450457131852,-0.017059598760931813,0.014737315720646304,1.1345828673201885,0.10619937769321831,0.052516102028405585,1.1485069868423103,0.0,0.0,0.0,0.0
0.036892902463241,0.2690063272248008,0.6882700924559196,0.005190858083065038,-0.3888008508294335,0.008325113314840999,0.9212695837131307,0.11807752496082853,-0.3779537308189161,-0.6972415201292098,-0.029817023333089956,-0.5348938757085213,-0.5824010632444948,-0.0035135814326552745,0.007706338527786856,1.1437338129584371,0.1081679356534477,0.05802177651467867,1.1467514632066662,0.0,0.0,0.0,0.0
0.03791274327205841,0.268567566212078,0.6889517515075171,0.005360667590306843,-0.38890447447767235,0.008396929764699192,0.9212242205591201,0.11919549312934864,-0.3705623806916304,-0.7062907433024048,-0.020455611857939072,-0.5451174576628964,-0.5879138414526416,0.00912189500820361,0.000586702234573468,1.1527777764421294,0.10947887126452074,0.06315894497542675,1.143813600836136,0.0,0.0,0.0,0.0
0.038618877167043535,0.26832455499825536,0.6896522101887089,0.005510791619356401,-0.3890052541633147,0.008477107480094788,0.9211800486646646,0.11956029467143701,-0.36483028705602094,-0.7127258523814194,-0.011479134718628714,-0.554846104003822,-0.5936145425271644,0.021185571453147523,-0.006777765632687763,1.161605177033792,0.1101091865652575,0.0679254480077635,1.139855317001612,0.0,0.0,0.0,0.0
0.039065972303722364,0.26828169246849426,0.6903589391754232,0.005642891613842951,-0.3891007118134479,0.008565625482862122,0.921138113368777,0.11918253656882795,-0.3603848087179438,-0.7172880165511722,-0.002777273172543811,-0.5644215860491962,-0.5992352066750491,0.03284578548173941,-0.014450989762373814,1.1702063906694473,0.1100563762592015,0.07236548404113331,1.1350329597218716,0.0,0.0,0.0,0.0
0.03930710430233228,0.2684399002033873,0.6910581231383335,0.0057581064501322715,-0.38919078787698785,0.008661863505266132,0.9210984458582125,0.11808637634871466,-0.3568950137282172,-0.7206221867961753,0.005651945512961156,-0.5740509910551822,-0.6046341543234194,0.044183465883758315,-0.02244548292327083,1.178615683890935,0.10933468882368653,0.07652082391560008,1.129518088707864,0.0,0.0,0.0,0.0
0.03938829150264844,0.26879774919348254,0.6917323231043909,0.005857439170930606,-0.38927597439148126,0.008764852880674554,0.9210608468075829,0.11630315107307027,-0.3540993419106238,-0.7232518150828651,0.013772950672421229,-0.5838559540828918,-0.6097499515705194,0.05524532221011045,-0.030740848170548382,1.186877422286214,0.10796712695932781,0.08040316530829354,1.1235066515227772,0.0,0.0,0.0,0.0
0.039345987171755116,0.2693535051455531,0.6923585180430825,0.005941793050516201,-0.38935604036394367,0.008873379549188523,0.9210254242217377,0.11386382897337569,-0.3518166398022944,-0.7255798065082121,0.02154841292492639,-0.593884324202537,-0.6145660130312341,0.06606427872012821,-0.039283100254601924,1.195020561120036,0.10597645296734157,0.08397672727459499,1.1172270445756383,0.0,0.0,0.0,0.0
0.03920601919190466,0.27010737860062034,0.692906021039529,0.0060117578192938085,-0.38942921897310456,0.00898577129280241,0.92099294139108,0.11079270791850931,-0.3499508960456484,-0.7278980092302099,0.02895289542668644,-0.6040835077708475,-0.6190743079168136,0.07664594634665915,-0.04796857767538179,1.2030268962207937,0.10337665033836335,0.08714475173577213,1.110950453122,0.0,0.0,0.0,0.0
0.038982878049194335,0.2710636246901959,0.6933348610361124,0.006067199083191142,-0.3894920804954453,0.009099346646127066,0.9209648800129286,0.10710273523004395,-0.3484945561126912,-0.7303924174127372,0.03597133201173232,-0.6142336050610033,-0.6232291673221918,0.08691669506070449,-0.0566123010367923,1.2107759992023805,0.10016539687290668,0.08974041491647075,1.1049989331560013,0.0,0.0,0.0,0.0
0.03867881258836599,0.27223227025346025,0.6935963884319584,0.006106712992845484,-0.3895406522739081,0.009209510366172251,0.9209429804288952,0.10279222770824058,-0.3475293468652567,-0.7331356126884045,0.0425802035275543,-0.623846723168477,-0.6268867260017383,0.09663177640442577,-0.06489413341726079,1.2179448357232419,0.09631760345893843,0.0915302406284669,1.0997379398969103,0.0,0.0,0.0,0.0
0.03828323435104213,0.27362997211028356,0.6936390334614302,0.006127164277406482,-0.38957373258296724,0.009308598407134314,0.9209278553366638,0.0978433014313199,-0.3472149836096603,-0.7360657824041397,0.048704397532893386,-0.6320670003081855,-0.6297377183361671,0.10526849252883153,-0.0722656100122388,1.2238341171208116,0.09178101188721183,0.09224659246137687,1.0955328019984343,0.0,0.0,0.0,0.0
0.03777488534820094,0.27527846482050405,0.6934225281918808,0.006124025517980884,-0.3895994543775961,0.009384987555124416,0.9209162195708819,0.09222479505261008,-0.34774460849564154,-0.7389680548597654,0.05416018780291014,-0.6376722558843447,-0.6312699144533341,0.11200560145945446,-0.07778877720554765,1.2270908233314648,0.08647831229084875,0.09167090490580455,1.0926512933809074,0.0,0.0,0.0,0.0
0.03713153559463673,0.2771968257334855,0.692939716969019,0.006094341207793344,-0.3896426281557214,0.00942361016077523,0.9208977559429076,0.08591024776729547,-0.349245283358394,-0.7415059136035703,0.05867949731633435,-0.639410932383868,-0.6308806011828874,0.11603217722041863,-0.07995403552508891,1.2254158846942989,0.0803256978146029,0.08976583175090995,1.0911289127550339,0.0,0.0,0.0,0.0
0.036338454065159675,0.27939265813025455,0.6921924260720278,0.006038313273165001,-0.389703830249074,0.009421881714473552,0.9208722449976297,0.07886795430486764,-0.35182069464998844,-0.7434814633990992,0.06220914282325384,-0.637286023710704,-0.628561685405804,0.11729927157810127,-0.07874734719284722,1.218862590286169,0.07328735371870294,0.08653196166858823,1.0908634862847582,0.0,0.0,0.0,0.0
0.03538909661079091,0.2818631791523974,0.6911903592132252,0.005959483172778674,-0.38976079230112803,0.00939035353764756,0.9208489727450144,0.0710517032088616,-0.3555487142600557,-0.7448422744491979,0.06494678033884688,-0.6325503470660488,-0.6249124266453644,0.11653295890473268,-0.07565833521505615,1.2097909558072077,0.06537628345399929,0.08200698161616866,1.091632654594392,0.0,0.0,0.0,0.0
0.03427660816321543,0.2846037360376151,0.689974166937068,0.005862847724544037,-0.3898085845275204,0.009337380294569915,0.9208299016509207,0.06241461009254188,-0.3604388030617659,-0.7454261810643504,0.06704421509290244,-0.6264304799304604,-0.6204396788178035,0.11448674383720316,-0.07163156549101399,1.1995674057866321,0.05660611454873711,0.07640436159879808,1.0930086543652728,0.0,0.0,0.0,0.0
0.03298470727058373,0.28761336910331914,0.6885941851530843,0.005751692101570105,-0.3898511373780065,0.009268318997282242,0.9208132856263577,0.05290654643474064,-0.36652709547013584,-0.7449300912242939,0.06855899098507784,-0.6197937397907473,-0.6154404394217032,0.1116295820473064,-0.06723969845321578,1.1888754236930195,0.04698157719967794,0.0699844726126571,1.0944859021066895,0.0,0.0,0.0,0.0
0.03148745495503055,0.2908938338553959,0.6870976275982169,0.005627293433843843,-0.3898945107705117,0.009186135064371471,0.9207965133308292,0.0424830320832168,-0.3739117927476188,-0.7429311259996941,0.0695033950566796,-0.613146141058331,-0.6100499020027254,0.10816787807317044,-0.06282765768018417,1.178003747673584,0.036506182888940024,0.06298307283115427,1.095568516464657,0.0,0.0,0.0,0.0
0.02975262531466552,0.2944461693162983,0.6855246178292478,0.005489527828795781,-0.38994373346780864,0.009092535768580524,0.9207774300050477,0.031116058489020517,-0.3827526064174142,-0.7389145055214565,0.0698903172417259,-0.6067331545171933,-0.6043197981321898,0.10415934529104949,-0.05859242506512155,1.167024912720124,0.02519630339074881,0.0555942762540929,1.0958044571116552,0.0,0.0,0.0,0.0
0.027745948328606683,0.29826626657631194,0.6839095670509608,0.00533757232276624,-0.39000157188882256,0.008989131822711292,0.9207548423739191,0.018806257705915985,-0.3932561111790723,-0.7322942574519119,0.06975953757862882,-0.6006431781704402,-0.5982859622840296,0.09962067887053586,-0.05462821380340791,1.155897790735226,0.013097366524957632,0.04798351580630133,1.0947853481667487,0.0,0.0,0.0,0.0
0.02543571769846746,0.3023397374032444,0.682284863618841,0.00517050172942145,-0.3900679761126377,0.008878519381515093,0.920728739541049,0.0055972692935960106,-0.40565617811383986,-0.7224302509254268,0.06919036178095471,-0.5948764287810552,-0.5920157991760017,0.09460864874650769,-0.05095230135261936,1.1445255259795004,0.00030120335772169764,0.04031187494246323,1.0921346228400794,0.0,0.0,0.0,0.0
0.02279835133034723,0.30663602694088354,0.6806846617504083,0.004987834352716688,-0.3901395522987581,0.008765199806126752,0.9207005064150628,-0.00840687028970152,-0.42019062566316284,-0.708652830390135,0.06830458462907883,-0.5893674725553013,-0.5856363457732476,0.08927967173724036,-0.04751673610811659,1.1327936340871516,-0.013036174642780663,0.03275946612988915,1.087503523071325,0.0,0.0,0.0,0.0
0.019826010498517035,0.3111015723066949,0.6791465984422533,0.004789990218806343,-0.390208690464032,0.008656302787492834,0.9206732874924201,-0.023021337037751027,-0.4370716097987494,-0.690312223597304,0.06725325835925025,-0.5839565340195163,-0.5793457704096144,0.08393141585626146,-0.0442063987976354,1.1206055490195441,-0.026676826365467553,0.025536274843439535,1.0805960471013802,0.0,0.0,0.0,0.0
0.016537830686486718,0.3156511453903431,0.677707397720188,0.004578885017112391,-0.39026216209697706,0.008561040908488212,0.9206525876930755,-0.037952113607743795,-0.45644653016171,-0.6668749907422392,0.06617886165771544,-0.5783086732884021,-0.573420241461217,0.07901366589440945,-0.04081923085363458,1.1079242178155548,-0.040285296467557116,0.01885696772487172,1.0712625371390798,0.0,0.0,0.0,0.0
0.012996681687467052,0.3201541165495151,0.6763823726761488,0.004359686474629553,-0.39027291889401894,0.008474789960921353,0.9206498899402007,-0.05269320795331217,-0.4783467235217303,-0.6381137763058022,0.06523603928410204,-0.5718146632622949,-0.568321534949721,0.07504714160285703,-0.03702697561746007,1.0948164177789106,-0.053438660821629846,0.012805494190397183,1.0597192165023799,0.0,0.0,0.0,0.0
0.009311378687215384,0.32443872633320764,0.6751409208791209,0.004132625395240527,-0.39018330100079185,0.008443868368443583,0.9206892060377619,-0.06684920977395008,-0.5027551405045406,-0.6043924238991631,0.06590183003414499,-0.5639688322023771,-0.5646891813940182,0.07257830476464637,-0.0323523528029363,1.0814854267815415,-0.06550820460393017,0.007214423512019997,1.0468230668657954,0.0,0.0,0.0,0.0
0.005992752143658286,0.32827064278851165,0.6739374998094869,0.003930569627397112,-0.38994398735864805,0.00839472890215838,0.9207919232225606,-0.07938478268169676,-0.5264916899150398,-0.571635025617048,0.0681066740353191,-0.5543813674783933,-0.563133933817586,0.07190046254426526,-0.026576516439186567,1.0687261660751126,-0.07609270188818285,0.002139945195719123,1.0344974331838692,0.0,0.0,0.0,0.0
0.003294532820022477,0.3312930232840443,0.6728971907661565,0.0037680385796142342,-0.3895892086962498,0.008347382830706207,0.920943196702473,-0.08925425691033724,-0.5474230502074516,-0.5428049939583314,0.07237795943704134,-0.543612910347816,-0.5650514839346756,0.07322880436881497,-0.020592537998788338,1.0566612595493476,-0.08424054473483464,-0.0021086302056367353,1.0240241621219153,0.0,0.0,0.0,0.0
0.0016375460401715468,0.33304472188682793,0.672129680777176,0.003681627241292071,-0.3892106910076333,0.008301834278153623,0.9211039915090125,-0.09496760843520924,-0.5617628128426365,-0.5235141030969687,0.07783159217303212,-0.5338591410845717,-0.5720662891349596,0.07558727100505774,-0.015847534597336607,1.0461461207138725,-0.08888064142693747,-0.005373759348434841,1.0179627190029588,0.0,0.0,0.0,0.0
0.0016992732427795944,0.33318087105531424,0.6720338439252459,0.003588141301904341,-0.3892339191533284,0.008233505322094012,0.9210951583917097,-0.0951103752949245,-0.561944309054103,-0.5234659679961762,0.07784015428554385,-0.5338711756772991,-0.5720945586459221,0.07562258849456499,-0.015814681649422502,1.0461456549434474,-0.08905071583728978,-0.005310168396157249,1.0179169148609246,0.0,0.0,0.0,0.0
0.0016992732427795944,0.33318087105531424,0.6720338439252459,0.003588141301904341,-0.3892339191533284,0.008233505322094012,0.9210951583917097,-0.0951103752949245,-0.561944309054103,-0.5234659679961762,0.07784015428554385,-0.5338711756772991,-0.5720945586459221,0.07562258849456499,-0.015814681649422502,1.0461456549434474,-0.08905071583728978,-0.005310168396157249,1.0179169148609246,0.0,0.0,0.0,0.0
0.0016992732427795944,0.33318087105531424,0.6720338439252459,0.003588141301904341,-0.3892339191533284,0.008233505322094012,0.9210951583917097,-0.0951103752949245,-0.561944309054103,-0.5234659679961762,0.07784015428554385,-0.5338711756772991,-0.5720945586459221,0.07562258849456499,-0.015814681649422502,1.0461456549434474,-0.08905071583728978,-0.005310168396157249,1.0179169148609246,0.0,0.0,0.0,0.0
