zhuoxili-jackie/tripod-support-walk/examples/trajectory_tripod_reorder_v0.20.csv
root_pos_x,root_pos_y,root_pos_z,root_rot_x,root_rot_y,root_rot_z,root_rot_w,FL_hip_joint,FL_thigh_joint,FL_calf_joint,FR_hip_joint,FR_thigh_joint,FR_calf_joint,RL_hip_joint,RL_thigh_joint,RL_calf_joint,RR_hip_joint,RR_thigh_joint,RR_calf_joint,FL_foot_joint,FR_foot_joint,RL_foot_joint,RR_foot_joint
0.0,0.0,0.72963,0.0,-0.5231245161092812,0.0,0.852256264656019,0.0,-0.81,0.872,0.0,-0.81,0.872,0.0,0.65,1.0,0.0,0.65,1.0,0.0,0.0,0.0,0.0
0.0006753362134589648,-0.0002859376741402045,0.7295330622283328,-9.950448280868298e-05,-0.5233371797882334,0.00017682286734120857,0.8521256685981415,0.0003058234962871115,-0.8123561438018309,0.877061101959423,0.00030582349628711117,-0.8129103235005273,0.8785948112607868,0.0036859482034877398,0.6513671205861706,0.9995434319977656,0.0036859482034877424,0.6527991610901639,1.0019149620580103,0.0,0.0,0.0,0.0
0.0019845933709387586,-0.0006035060045358116,0.7293850062093594,-0.00011286906386750702,-0.5236359150835262,0.0002289615836261818,0.8519421126296116,0.0009797474635484496,-0.8173177549115483,0.8877585730722873,0.0009801020811011714,-0.8191864877490979,0.8915324004293732,0.006324038873774054,0.6549971883933646,0.9991664686843051,0.006359500234189063,0.6570912839133864,1.0038355071309726,0.0,0.0,0.0,0.0
0.00390801760777233,-0.0008832608593671556,0.7292156395634602,-6.13849313117493e-05,-0.5240333139802879,0.00018772713864447657,0.8516977438206871,0.0017776165949063309,-0.8247399799656717,0.9038926481687793,0.0017788899738958122,-0.828173230659494,0.9099172076384276,0.007796087387784609,0.6609690481857753,0.9987757766837712,0.00786830370075098,0.6631116803648759,1.0052630075103717,0.0,0.0,0.0,0.0
0.0064300162845896515,-0.0011538664449760668,0.7290647602430569,6.537218384742103e-05,-0.5245537692486649,3.948617766651467e-05,0.8513773178411189,0.0028056678959315524,-0.8340029643810364,0.9246821027978931,0.002808895740466191,-0.8394492754387276,0.9332137342903363,0.008111566215130836,0.6696008123258399,0.9978853562093303,0.008202893820409493,0.6710737102004056,1.0058820333965108,0.0,0.0,0.0,0.0
0.009545962812023311,-0.0015135830335655871,0.7290086786473783,0.0003633788149368662,-0.5253566220073902,-0.00041464761060181675,0.8508819634568475,0.004800406968006979,-0.8430551602252575,0.9480863801841226,0.004809270818678419,-0.8522725947681387,0.9607033942852798,0.005929573160230703,0.6823889541435055,0.9958620386376512,0.005990513059981491,0.6811820318441358,1.0053050157430357,0.0,0.0,0.0,0.0
0.012844748379193268,-0.001810509641319076,0.7286922885534798,0.0005355070973255674,-0.5252918314011101,-0.0005370681221503205,0.8509218040767603,0.005835697234787244,-0.8592883056075649,0.9782928637906886,-0.008283374940498465,-0.8515031108949663,0.9293944788919727,0.006167758167465409,0.6913923878079142,0.993766346713601,0.006247130988233773,0.6894419883477629,1.0049536878651306,0.0,0.0,0.0,0.0
0.01605412914945483,-0.002376260166132947,0.7282301553809708,0.0007746768482833784,-0.5253324159754778,-0.0008271852640959396,0.850896332325911,0.00800474569767914,-0.8733962984190649,1.0049994526996704,-0.02230464396203819,-0.861478178692063,0.9053219781291156,0.006813579194106731,0.7002035209093926,0.9923063239876367,0.006916039424139631,0.6968107261268526,1.0067217444370187,0.0,0.0,0.0,0.0
0.01889659217457276,-0.0031133598729831003,0.7277422881961925,0.0010277875138578413,-0.5254634294628238,-0.0011686105505078668,0.8508147637996039,0.010784212379223994,-0.8844758235760222,1.0265717403192036,-0.03560310254777448,-0.8770124511259432,0.887372757149953,0.008339565438642147,0.7081396495466397,0.9909196491870692,0.008484299199125741,0.7032993203753423,1.0096343238928813,0.0,0.0,0.0,0.0
0.02128803787008805,-0.003983278784630691,0.7273139743577772,0.0012731235944664577,-0.5256172323481381,-0.0015152186784259739,0.8507188773780403,0.013956563914924397,-0.8926664694192402,1.0431374187643236,-0.04772990724783221,-0.8948448731137701,0.8729674439496502,0.010987839013018284,0.7149480804776799,0.988981148732554,0.011212641960226727,0.7089711579166709,1.0129029117425608,0.0,0.0,0.0,0.0
0.02324000653290368,-0.00493668406522943,0.7269562089956234,0.0015059528250598322,-0.5257540156444787,-0.0018480631906149948,0.8506333121870067,0.017334796129020023,-0.898499262835774,1.0554498142127962,-0.05872694075330664,-0.9131626512262868,0.8602980087049661,0.014582611421899525,0.7205173988021271,0.9865488408699756,0.01494719504868388,0.7137854378436381,1.0162854891520425,0.0,0.0,0.0,0.0
0.024807292239998058,-0.005928299100377864,0.7266569632422546,0.0017284235059707382,-0.5258555572041721,-0.0021623265550538766,0.8505693798001095,0.0207768252015776,-0.9025426581759295,1.0643880728037918,-0.06873346137027639,-0.9306034998807559,0.8484702508717703,0.01877786154238681,0.7249094569613095,0.9838474769922745,0.019360043320244838,0.7177375371098632,1.0197026862683252,0.0,0.0,0.0,0.0
0.02604126931122931,-0.006921561465981238,0.726388988492213,0.001941949697264636,-0.5259089835820804,-0.0024549953274229574,0.8505350920549831,0.02417101434589397,-0.9053055548845944,1.0706828457163144,-0.07785850408160155,-0.945543002096024,0.8374829812648522,0.023258341670502548,0.7281424974303099,0.9812003015810434,0.024142796834612883,0.7207627546670122,1.0232267090404548,0.0,0.0,0.0,0.0
0.026977799014602902,-0.007907726951908027,0.726150549015028,0.0021494587314010312,-0.5259075139808016,-0.0027316025209951364,0.8505346582669999,0.027502829196264685,-0.9070152215916333,1.074727470048131,-0.08614642609465471,-0.9557397110383827,0.8284018060285973,0.02784363917155944,0.7303387665511385,0.9786248197639542,0.029113091325589154,0.7228842910387492,1.0268011664096863,0.0,0.0,0.0,0.0
0.027629258448786585,-0.008882219117872554,0.7259554057377877,0.0023522093497498437,-0.5258577896079284,-0.0029993409750249445,0.8505639635991841,0.030773197785645585,-0.9076540812417466,1.07660255110443,-0.09372003467763812,-0.9585310700530306,0.8232824235600384,0.03238565865719864,0.7316594503335192,0.9760300444859661,0.034111544924641087,0.724162351867028,1.0302917916968302,0.0,0.0,0.0,0.0
0.028000621615503082,-0.009845497624560134,0.7258162142920257,0.002556248823427628,-0.5257945676516629,-0.0032735190634772884,0.8506014473846695,0.03401299375178857,-0.9069847739411012,1.0761514740255715,-0.1007062981629455,-0.9521692520551481,0.8243524989812653,0.036692192299127034,0.7323458979878605,0.9733763975119867,0.038921108303480334,0.7246864950178692,1.033633009573859,0.0,0.0,0.0,0.0
0.028134810183627654,-0.010874106575178358,0.7257266085677958,0.0027762320037985084,-0.5256732713790189,-0.003573639602857441,0.8506745167180749,0.03747117003036744,-0.905223779690186,1.0736440254474617,-0.10708646294788514,-0.9383077700625007,0.8291172823971262,0.04108764222198783,0.7324128307920142,0.9703249699667004,0.043885526021316866,0.7244263112576694,1.0369740259503457,0.0,0.0,0.0,0.0
0.02808667571468571,-0.012030807080468036,0.7256854152086901,0.003032604784496176,-0.5254854428953418,-0.003929168452019389,0.8507881136032538,0.04138343777547163,-0.9024159952775768,1.0692771409382082,-0.11306548446008141,-0.9194734326061086,0.8353392546597688,0.04567249668885059,0.7321009592528382,0.9665791402553328,0.04912353501616089,0.7234736213770899,1.040391826456715,0.0,0.0,0.0,0.0
0.027897152061538796,-0.013314204617942046,0.7256820284584802,0.0033358958893832773,-0.5252564098652498,-0.004360757825926642,0.8509262949781653,0.04579272755882262,-0.8985627193939082,1.0632169321968643,-0.11932944909115525,-0.8976669288535222,0.8416378175772556,0.050189670620908546,0.7316686535569383,0.9622240755829742,0.05435457291104861,0.7219035702266537,1.0439200238690214,0.0,0.0,0.0,0.0
0.027592563388454276,-0.014622424968980972,0.7256568983359973,0.003682232218001259,-0.5250453258665582,-0.0048685717330165966,0.8510523743935228,0.05042598977019817,-0.8938681749512954,1.0558054249740991,-0.1268931036540417,-0.8741718447866997,0.847235772173004,0.053899438308450044,0.731163555506462,0.9582341683611075,0.05872551032645456,0.719595663624307,1.0478045827095952,0.0,0.0,0.0,0.0
0.02722780271328759,-0.015747172802961135,0.7254946802748395,0.004065112283471864,-0.5249549995071555,-0.005432777581539104,0.851102936360999,0.054680260306276054,-0.8889086918674087,1.047919418064068,-0.13653752714904197,-0.8499899347029969,0.8513965113160625,0.0555112557273822,0.7305424275536918,0.9565449397573097,0.06071016816654345,0.7163549827662004,1.052505899973861,0.0,0.0,0.0,0.0
0.026907088440619484,-0.01649492006559342,0.725202791419867,0.0044915773641619255,-0.5250456094741539,-0.006005351840684809,0.8510410503929676,0.05791314753385767,-0.8843471216157445,1.0409246368416938,-0.14734851776484484,-0.8262580866518907,0.8522412513810347,0.05397670846790224,0.7302916636774408,0.9577567166803482,0.059052467856095234,0.7126406519209837,1.0573547769214537,0.0,0.0,0.0,0.0
0.026690291649595875,-0.01675478819235423,0.7249015069312035,0.004983274666538435,-0.5253202505901631,-0.006486853664693332,0.8508652784213369,0.059546826190277936,-0.8805028056044454,1.0357244407663153,-0.1560813285327799,-0.805876929944185,0.846093171496964,0.04901768724955424,0.7310055472938816,0.9610080564483058,0.053473559900085815,0.7093003485592072,1.0609794043149772,0.0,0.0,0.0,0.0
0.026705485908656883,-0.01678085073987789,0.7248945640629196,0.005006414428159401,-0.5253099177079598,-0.0064910608737248875,0.8508714898860836,0.059607391079504815,-0.8805078507960942,1.035723620438734,-0.15609776235251369,-0.8058463112731685,0.8461084188819522,0.04899071913730435,0.7310430489523289,0.9609332798235448,0.053496662040880286,0.7092718163677468,1.0610534089566013,0.0,0.0,0.0,0.0
0.026705485908656883,-0.01678085073987789,0.7248945640629196,0.005006414428159401,-0.5253099177079598,-0.0064910608737248875,0.8508714898860836,0.059607391079504815,-0.8805078507960942,1.035723620438734,-0.15609776235251369,-0.8058463112731685,0.8461084188819522,0.04899071913730435,0.7310430489523289,0.9609332798235448,0.053496662040880286,0.7092718163677468,1.0610534089566013,0.0,0.0,0.0,0.0
0.027568159787423625,-0.017060922063173455,0.7271021362900089,0.004215933508774876,-0.5247419559773174,-0.005541889744171611,0.8512328664941292,0.058216201212740466,-0.8827339139983982,1.0444783063556908,-0.15767595497525413,-0.8044737255147169,0.8539891827262927,0.02885673927762237,0.708771862228636,1.0075608954707282,0.06988927145864587,0.7249753028666317,1.0416434759905981,0.0,0.0,0.0,0.0
0.028663736577287394,-0.017708178749904442,0.7298574542870725,0.0037774870506486263,-0.5244683313165533,-0.004994059229519734,0.8514069293880713,0.05860387848303257,-0.8803115821327777,1.0505171873871264,-0.15734249864363092,-0.803552507220007,0.8649115640337735,0.012576029008699006,0.691864349220072,1.046625143988232,0.08354339861142016,0.743454038409526,1.0176651381969337,0.0,0.0,0.0,0.0
0.029724537224270185,-0.01872180298264893,0.732512698936889,0.003608431027424754,-0.524299123368684,-0.00477670289797708,0.8515131188477216,0.060685004518349725,-0.8754000239518974,1.053457450956085,-0.15532387854252847,-0.804324491241806,0.8775946757506978,0.0015781467581467215,0.6790402594470382,1.0800732129251396,0.09567856417891557,0.760918257565942,0.9948308514043803,0.0,0.0,0.0,0.0
0.030686610092725924,-0.020031284953437208,0.7349037122242225,0.0036129357183096737,-0.5241438939214424,-0.004788993595220072,0.8516085900815632,0.06405975889654311,-0.8692873631290029,1.0539772573909816,-0.15205487803777715,-0.8068492307760474,0.8914011702853111,-0.006499805319613902,0.6693532666249311,1.1103460136814651,0.10718572241291317,0.776472763010048,0.9746608836631492,0.0,0.0,0.0,0.0
0.03149772958728185,-0.021524161573115236,0.7370150683003693,0.003714997469539083,-0.5239622816181932,-0.0049132263946937175,0.8517191945950573,0.06814822989359147,-0.8626588263082501,1.0525673670695896,-0.14808293732937566,-0.81040960374154,0.9051916198621275,-0.012745478422850044,0.6618490595796749,1.1385132512466147,0.11859163468966204,0.7900038608248169,0.9573142702343467,0.0,0.0,0.0,0.0
0.03204640382951704,-0.023036702588251832,0.7388705569512609,0.003843899030166002,-0.5237724784415619,-0.005054006336686468,0.85183453339682,0.07228473300491156,-0.8555878840545013,1.049054619888608,-0.14397632687569564,-0.8134936403737413,0.9167535433533731,-0.01818519425103773,0.6555889989984169,1.164688148617208,0.12970837321512063,0.8014156170681175,0.9425483159974003,0.0,0.0,0.0,0.0
0.03225636811928154,-0.024493455074480603,0.7404659316494152,0.003958308999183129,-0.5235639599286595,-0.005158682926645656,0.8519615599568741,0.0761485376543693,-0.8482111833589061,1.0433205799290535,-0.14001966537339497,-0.8154901540244615,0.9250635701548316,-0.023557481133936246,0.6501334506708505,1.1878345234517116,0.14050969418971285,0.8104482603211034,0.9304695729809033,0.0,0.0,0.0,0.0
0.03204442282531434,-0.025897251013383065,0.7417690881487656,0.004031316250036432,-0.523310856495448,-0.005201601897496661,0.8521164470311513,0.0796931517228888,-0.8405349442615858,1.0349356137887042,-0.13624653591501315,-0.8162548271774226,0.9296085558234429,-0.029738894775451306,0.645588965316779,1.2055056600900351,0.15129063773101323,0.8166224312751327,0.9216363601695053,0.0,0.0,0.0,0.0
0.03131518839861501,-0.027311806054068112,0.7427291673251466,0.004039368781522529,-0.5229659093867927,-0.00516587224163616,0.8523283726845393,0.08305480093890083,-0.8324904612626103,1.0232063101844828,-0.13252059709361008,-0.8159470189378447,0.9301701783688203,-0.03788366347083077,0.6429795034603706,1.2131676730309986,0.16273122992897673,0.8192886438176785,0.9169314220258002,0.0,0.0,0.0,0.0
0.030024229804361775,-0.02882327376023417,0.7433632578454527,0.003961487395582153,-0.5224729425992861,-0.005037062075513409,0.8526317838756102,0.08643086704534511,-0.823935641269107,1.0076405321027044,-0.12865480573157337,-0.8148297879443046,0.926988906174919,-0.04932145572078785,0.6450134656467043,1.2040716682475598,0.17559030009791082,0.8182839528769883,0.9164623905625544,0.0,0.0,0.0,0.0
0.028159311341453507,-0.030450716262362728,0.7437236582733107,0.0037984654722517212,-0.5218447998201693,-0.004817519981058948,0.8530183867080098,0.08985679113199088,-0.8144252334405746,0.9877445829514532,-0.12459063584245551,-0.8126407576342067,0.9198427716551109,-0.06356322042788988,0.6486656156033638,1.1852316917828547,0.18970591344035095,0.8138003486254054,0.9197194661914688,0.0,0.0,0.0,0.0
0.025779685183453086,-0.032204680183760374,0.7439241008531863,0.003541831671404993,-0.5210797613384389,-0.004499066549906049,0.853488779160023,0.09332982124267344,-0.8037009462043334,0.9635858482206071,-0.12033549614377029,-0.8092300472825128,0.9090118674000994,-0.08067742721017106,0.6526289952033841,1.161643630842375,0.20498048088219134,0.8065969861335862,0.9253370429412133,0.0,0.0,0.0,0.0
0.022990373037715537,-0.03408660999664163,0.7440353816120984,0.0031676806165206873,-0.5201532404954703,-0.00405695456669522,0.8540574414646926,0.0968114345686002,-0.7920339413150396,0.9358654999601963,-0.1159782190819625,-0.8048240308654407,0.895258597547166,-0.10185533666303784,0.6566712506401362,1.1367196806762632,0.22152702812614553,0.7973839565334022,0.9322268493274979,0.0,0.0,0.0,0.0
0.02000313818902609,-0.03605624193709074,0.7440368295601117,0.0026350518194984754,-0.5190087570856258,-0.0034405955982228977,0.8547579358346268,0.10014787252802876,-0.7808863218477029,0.9068795319998696,-0.11181367230359701,-0.8004536693196791,0.8804331660980347,-0.13021719632512582,0.6617332890754448,1.1133147945215853,0.239597563966818,0.7867598700186265,0.9399087629109244,0.0,0.0,0.0,0.0
0.017328362639975472,-0.037901833638326075,0.7437516737216608,0.0018557519028286498,-0.5174114633530551,-0.0024959039964528398,0.8557310934160134,0.10265486871180882,-0.7755981996393781,0.8843075228167726,-0.10894063955709825,-0.7994407810281207,0.8696171891030666,-0.17304937425178502,0.6712413114576564,1.0935298781631266,0.2593645516121685,0.7752046009954138,0.9483291947594938,0.0,0.0,0.0,0.0
0.015079013118379626,-0.03946830062246428,0.7431186543180825,0.0008107336856397539,-0.5153791154818899,-0.0011520636988118975,0.8569611325989235,0.10381538452196176,-0.7777855851312705,0.8707564733425559,-0.10794547033001607,-0.8019793339519271,0.8633338708436409,-0.23429604963757497,0.6842349330883124,1.0802857289251424,0.28027773828083935,0.7628639921966982,0.9575867854901631,0.0,0.0,0.0,0.0
0.013400002189087967,-0.04053827184763254,0.7417640374083359,-9.788866571826939e-05,-0.5131608878439153,0.00016216035155756746,0.858292413638309,0.10393719198097683,-0.787343732897526,0.8670550602547579,-0.10852635439790329,-0.809519411069643,0.8626265325887564,-0.29816041803715254,0.6937009173751136,1.0772869873742297,0.29543756428080287,0.7475165380327118,0.9708827329233625,0.0,0.0,0.0,0.0
0.013419316969809282,-0.040570684112608495,0.7417200339451223,-0.00016179875561198644,-0.51316486698683,0.00020603752203494796,0.8582900154726788,0.1039252076865383,-0.7874187361589279,0.866919318750419,-0.1085583251268617,-0.8095195729112693,0.8626503378567482,-0.2981701120266941,0.6937156398754498,1.0772880976976997,0.2954562943380833,0.7474261991122898,0.9707995077479492,0.0,0.0,0.0,0.0
0.013419316969809282,-0.040570684112608495,0.7417200339451223,-0.00016179875561198644,-0.51316486698683,0.00020603752203494796,0.8582900154726788,0.1039252076865383,-0.7874187361589279,0.866919318750419,-0.1085583251268617,-0.8095195729112693,0.8626503378567482,-0.2981701120266941,0.6937156398754498,1.0772880976976997,0.2954562943380833,0.7474261991122898,0.9707995077479492,0.0,0.0,0.0,0.0
0.013169010705307923,-0.040872962883032014,0.7419132131501519,-0.00013724615248222243,-0.514259487123489,0.00015266562109677518,0.8576346178648503,0.10445419422817045,-0.7780410785501303,0.8561627708955623,-0.1073136517694876,-0.8023480734548722,0.8552528880735459,-0.2997092919346927,0.6978347278719955,1.0773379752468473,0.3001441058266046,0.7515272506543241,0.9721015761823499,0.0,0.0,0.0,0.0
0.013358426595528432,-0.04129505208779981,0.7419743344031328,-4.47996733146936e-05,-0.5149285089548448,3.214069380810829e-05,0.8572331232666557,0.10563129219673788,-0.7731388394073562,0.8515463489524656,-0.1058684400051979,-0.8009045440254051,0.8555918774672907,-0.30084740736439053,0.7015561936648933,1.0769783536758668,0.30473800415121743,0.7549878519324138,0.9736579922508539,0.0,0.0,0.0,0.0
0.014104302462905496,-0.04187177253881946,0.7419666730182726,9.813427439206227e-05,-0.5153482271633647,-0.00012653629501840712,0.8569808510800035,0.10745297247100483,-0.7721279643740874,0.8531942636940453,-0.10416776240322248,-0.8046374203838836,0.8639555296117836,-0.3017723879338366,0.7061369533382947,1.0757853476331798,0.31059654750388116,0.7593015940883527,0.9751511212311679,0.0,0.0,0.0,0.0
0.015471968374457124,-0.042667483728501855,0.7419309901086245,0.00028853231404589046,-0.5156527164366557,-0.00030098754831705144,0.8567975853065282,0.11000710595170216,-0.774243102159496,0.8605972945978267,-0.10207458346783353,-0.813024215703147,0.8802665266432532,-0.30234790375645393,0.7124131123758936,1.0733956516924401,0.31917980272624774,0.7655894158163048,0.9765180612515374,0.0,0.0,0.0,0.0
0.017548309758633432,-0.043784958389892034,0.7420259837665012,0.00039854516814590636,-0.516268789673564,-0.0003411522185625239,0.856426448439039,0.11315491612007503,-0.777021994820872,0.8716599605282557,-0.09953353749799493,-0.8231197840154105,0.902407072311644,-0.30113051933806556,0.7223964749670194,1.0687527643917467,0.33584627296423675,0.7774552425331358,0.9773073384869384,0.0,0.0,0.0,0.0
0.020362428435103105,-0.045650058097276666,0.7439071821797009,-0.0008872277959473264,-0.5178201033766845,0.0012773425031446866,0.8554881190068787,0.11454103245529311,-0.7755768664125093,0.8827433978214255,-0.09835675063935079,-0.8221643560452164,0.9222055005176555,-0.2701249883257464,0.7379717356486607,1.0463386055792316,0.25732327201969335,0.745632157434227,1.0102134153103435,0.0,0.0,0.0,0.0
0.023440373678551268,-0.047659178316742254,0.7453647684209106,-0.0020144282479138773,-0.5193663535384763,0.002685303199711072,0.8545450965500335,0.11692823368274231,-0.7754453072395784,0.8953759781513884,-0.09637177941240194,-0.8243888719923953,0.9454904217612131,-0.23938944761255215,0.7529150935203496,1.0258514078461605,0.18781006802994707,0.7205289424830733,1.0395458764338357,0.0,0.0,0.0,0.0
0.02640207589324961,-0.04954226030657046,0.7464626501752556,-0.002700521027739617,-0.5205594139959181,0.0035501386119264197,0.8538137971491448,0.12026233558521837,-0.7762344854514929,0.9080609940336305,-0.09358900960490124,-0.8300912660120097,0.9701682827468533,-0.21511296551992032,0.7666249516170234,1.0077602815208817,0.13975549367486645,0.7030842288721149,1.067065734974561,0.0,0.0,0.0,0.0
0.028993191640075633,-0.051156917168528784,0.7472900296237664,-0.0031025593849261382,-0.5214481781702898,0.004067466635926715,0.8532676176460198,0.12366867014855208,-0.7773012510071552,0.9193171786607603,-0.09074600114011416,-0.8366239296895516,0.9925460135985198,-0.19646831916328888,0.7783983345432363,0.9924625325913186,0.10678309129162246,0.6905691760132185,1.0937651344787276,0.0,0.0,0.0,0.0
0.031136077113858848,-0.05250608904651399,0.747932477311243,-0.003356592397493706,-0.522122370716226,0.00439843640083969,0.8528526350093389,0.1267586436562563,-0.7781402287656509,0.9284205789588518,-0.08814574718973286,-0.842557836939128,1.011257786438965,-0.1816959392783619,0.7880755862585215,0.9797230847753136,0.08243937178804216,0.6808220175105891,1.119757104450605,0.0,0.0,0.0,0.0
0.032843806432916706,-0.053662159719087596,0.7484318908936827,-0.00353653505987516,-0.52264906034528,0.004630067623432389,0.8525280142691901,0.12950862498501547,-0.778475856058333,0.9351241497426378,-0.0857802799416124,-0.847531600030472,1.026374341417883,-0.169244570002959,0.795678798276589,0.9692212039773769,0.0627453826650899,0.6725820521646505,1.144523048528742,0.0,0.0,0.0,0.0
0.03414202889545878,-0.054709872077926984,0.7487599349306545,-0.003672738489900994,-0.5230709070114022,0.00480039419383777,0.8522677357766382,0.13204493337847972,-0.778223764965874,0.9392926101394821,-0.08351974678013047,-0.8517263476328546,1.0383735255494533,-0.15803555043897038,0.8010425104596113,0.9611173638542708,0.04580154553994701,0.6653004573181425,1.1667411164034893,0.0,0.0,0.0,0.0
0.03503260561356824,-0.05571846047034066,0.7488309643222639,-0.003770931923731547,-0.5234109873040008,0.004919428739319523,0.8520578135682793,0.13451772681909377,-0.7774162399758356,0.9407285888648479,-0.08121912228255257,-0.8555188953761546,1.047641392415355,-0.14747614517882426,0.8037236688715516,0.9561366250626162,0.03105307173845633,0.6590916595365212,1.1838440884055832,0.0,0.0,0.0,0.0
0.035491209445780526,-0.05672418909126181,0.7485287471136866,-0.0038236859207297007,-0.5236726179634225,0.004981954121428191,0.8518964425060401,0.13702679283480612,-0.7762031020063922,0.9392357101535563,-0.07878794341596702,-0.8593198427583792,1.0543451271298636,-0.13746980338749076,0.8030936388926873,0.9553930155967575,0.01884903914700433,0.6551359820390382,1.191329659218163,0.0,0.0,0.0,0.0
0.03551372910208859,-0.05773561121502517,0.7477755633198555,-0.0038224108915958827,-0.5238455088492642,0.00498397909896347,0.8517901337687426,0.1396050559466031,-0.7748236661271517,0.9348922681297419,-0.07621156981266468,-0.8634786920017374,1.0586851704883637,-0.12814828883443186,0.7987803888920693,0.9596129469505716,0.009984827563499617,0.6564142589732194,1.1825251424108658,0.0,0.0,0.0,0.0
0.03513823775470645,-0.058816550205681106,0.7465841551993335,-0.0037840179130465778,-0.5239672508801441,0.004939113812508331,0.8517156839980611,0.14238803462920405,-0.7730197704387749,0.9274931411465714,-0.07334512847838955,-0.8680078751483696,1.0609640174919857,-0.11876477182495165,0.790983342860465,0.9683927404774826,0.003054103559820615,0.6600721851091617,1.1639701063932357,0.0,0.0,0.0,0.0
0.03443693119714964,-0.05998840077854202,0.7450147614836345,-0.0037336959718757964,-0.5240634297632376,0.004875386420622918,0.8516570974907867,0.14538201133267653,-0.7707317734127427,0.9173123207221145,-0.07018889441318413,-0.8727982536275327,1.0615250523425226,-0.10874155384194197,0.7802190945744318,0.9808412443282398,-0.0031351107406573896,0.6650644697583624,1.1399660946121515,0.0,0.0,0.0,0.0
0.03348335719682735,-0.061199660690023895,0.7431250417651083,-0.0037063035700510834,-0.5241498200061806,0.004832722786824562,0.8516042944301073,0.14839122706565175,-0.7682259754245623,0.9050768520462611,-0.06696322890539187,-0.8775783168510475,1.06045199266519,-0.09800633963705924,0.7670150668985665,0.9962756136956012,-0.009515635425923848,0.671438361566994,1.112799947873245,0.0,0.0,0.0,0.0
0.03238941574615288,-0.06228877241935278,0.7409553835310226,-0.0037594830580620756,-0.5242197201610018,0.0048909072265817454,0.8515607026559868,0.15088243860073147,-0.7666194126366593,0.8927181899738239,-0.06428579046436536,-0.8820393203429342,1.0577915728663856,-0.08697428709946059,0.7518535285973381,1.0143989953262338,-0.01704275472613607,0.6799680600747682,1.083287593780939,0.0,0.0,0.0,0.0
0.031227926488361916,-0.06314317995460016,0.7385813263345329,-0.003964820721619739,-0.5242852924095522,0.005165142713970495,0.8515177823512672,0.1523388968651849,-0.7666510704224724,0.8815979394312091,-0.06272763727037438,-0.8855566314985206,1.0532923364676319,-0.07509191407848421,0.7350487592914078,1.0345365721076463,-0.02645621344355848,0.691469091478832,1.0510774868514392,0.0,0.0,0.0,0.0
0.03005780117873364,-0.0637101824593131,0.7361891029399037,-0.004409899788809458,-0.5243811991422067,0.005745814037693042,0.8514528151289878,0.15243432426462472,-0.7683517040711457,0.8724075807377628,-0.06261501822391227,-0.8871555554469954,1.0465971479996667,-0.061369087640166506,0.7173585391374239,1.0549770388977016,-0.03952242579671287,0.7066086645973255,1.0144673519800238,0.0,0.0,0.0,0.0
0.029152886467986413,-0.06398807046831644,0.7343122807906768,-0.005154028320432019,-0.524587751387244,0.0066785366249343895,0.8513145859405302,0.15106953236513973,-0.7711346321592479,0.8667488572767735,-0.06401746861265954,-0.8857268898677412,1.0388568083608074,-0.04506406402683008,0.7019830316422789,1.0707701100385336,-0.054726335647390406,0.7261092125621254,0.9724299488781737,0.0,0.0,0.0,0.0
0.029171331918333175,-0.06399736315686444,0.7342664024947548,-0.005168906515494278,-0.524603185380135,0.0066857585444444105,0.8513049282878229,0.1510799352818309,-0.7711527690386214,0.8666797387620204,-0.06401308575457823,-0.8857658608089539,1.0388702526890965,-0.04504995521421846,0.7019742412226397,1.0707790102550254,-0.05473108719476526,0.7261175746741554,0.972423702041158,0.0,0.0,0.0,0.0
0.029171331918333175,-0.06399736315686444,0.7342664024947548,-0.005168906515494278,-0.524603185380135,0.0066857585444444105,0.8513049282878229,0.1510799352818309,-0.7711527690386214,0.8666797387620204,-0.06401308575457823,-0.8857658608089539,1.0388702526890965,-0.04504995521421846,0.7019742412226397,1.0707790102550254,-0.05473108719476526,0.7261175746741554,0.972423702041158,0.0,0.0,0.0,0.0
0.029322405890431964,-0.06414576315794487,0.7345203153180277,-0.004649719146300063,-0.5246915734892934,0.006034483496732094,0.8512583143970563,0.1402496547368912,-0.791704617084139,0.873602914821584,-0.06214979756083696,-0.887474917648658,1.0414695205028148,-0.053642859600784965,0.7069349775829666,1.0685593552905015,-0.06237093250806013,0.7251935742808968,0.9697378385761113,0.0,0.0,0.0,0.0
0.029479334329046727,-0.06483993533006466,0.7347731608347017,-0.004198083895637828,-0.5248278981364167,0.00536392402061658,0.8511811098399783,0.12714478706273574,-0.8160985056456418,0.873331977489521,-0.05874450906109425,-0.8902636756872967,1.0459091097127322,-0.057063535557951565,0.7111620720764846,1.0648220500790955,-0.06532183204964968,0.7249377937923964,0.9692020966738351,0.0,0.0,0.0,0.0
0.029598720176657375,-0.0659839244112784,0.7349244906454778,-0.0037630155715355483,-0.5250085813686889,0.004712575722656004,0.8510755670521292,0.11560992369659048,-0.8408438169222798,0.8694201649570914,-0.05419011807000264,-0.893998649276824,1.0515534603590877,-0.056096085194468535,0.7141788144333296,1.0607106174150422,-0.06452597232385558,0.7246472985260943,0.9714692218859803,0.0,0.0,0.0,0.0
0.029553838164780005,-0.06732136477196919,0.7350284975429452,-0.0033496672478088127,-0.5252264229072374,0.004129986487940086,0.8509459017005759,0.10667412626035007,-0.8648378152240019,0.8639265194583696,-0.04927037797531338,-0.8972259364791171,1.0562088675261478,-0.05249034918672072,0.7159746100357957,1.0566416430952925,-0.06148633783445907,0.7241430356612026,0.9752839809039759,0.0,0.0,0.0,0.0
0.02926444102359573,-0.06868434119925566,0.735137619234565,-0.002964535417337664,-0.5254357820040663,0.003614624562448023,0.850820418777551,0.09975133642036185,-0.8874834467055107,0.857356170148796,-0.04441941171473454,-0.8992573745755703,1.0587214012695447,-0.04770141955747567,0.716611127110697,1.0527100344856402,-0.057375119370436184,0.7231917320814218,0.9795614991835807,0.0,0.0,0.0,0.0
0.02871085351478996,-0.0699692319768353,0.7353179133266367,-0.0026148356314682937,-0.5256107715092911,0.0031622091469370624,0.8507152754837185,0.09378277776774867,-0.9081998870846449,0.8501179182742983,-0.03990210538860617,-0.8996956750405495,1.0586041910135544,-0.042680525661384326,0.7163990389731273,1.0486511092386088,-0.05296449651732762,0.7218807604833428,0.9832928243871989,0.0,0.0,0.0,0.0
0.027860812627658816,-0.07116404680845544,0.7355834284892816,-0.002296681704440425,-0.5257307317803832,0.002755552923543775,0.8506434798685621,0.0878643934471622,-0.9258341770555136,0.8428436973902724,-0.03571486256348795,-0.8984826798307771,1.0556577067777857,-0.0377548975535547,0.7153343426789371,1.0444038775517481,-0.04852689320871971,0.7200256237399171,0.9863081193949585,0.0,0.0,0.0,0.0
0.02665820875869866,-0.07231569843296398,0.7359368528642721,-0.0019977584021070157,-0.5257814782427568,0.0023758610087752,0.85061401433476,0.08145105316947931,-0.9384205216038044,0.8368325344614671,-0.03169523580095039,-0.895596930136749,1.0496593897749043,-0.03279580482429601,0.7132483923186835,1.0398570876127144,-0.04394537604536266,0.7173683741880421,0.9887887978279561,0.0,0.0,0.0,0.0
0.025023172006704616,-0.0735044308756287,0.7363737079755384,-0.0017002910772613527,-0.5257586217713935,0.002006841090198766,0.8506297392121533,0.07442175936380907,-0.9435093702190261,0.8340834916118657,-0.027601562567048783,-0.8909377409153173,1.0402245987661003,-0.027421919041134488,0.7098710576370943,1.0348813356500193,-0.0388649294090271,0.7136080587221767,0.9911295299535378,0.0,0.0,0.0,0.0
0.02290329163993143,-0.0747762119367895,0.7369269260056434,-0.0013941825120354218,-0.5256817899654382,0.0016479612996515665,0.8506785504392426,0.06684397580431446,-0.9394791542235695,0.836627627014462,-0.02332419192436209,-0.8841188734148279,1.0268273029007289,-0.021421837630498777,0.7052816433511584,1.0290786159443353,-0.033065877744517545,0.7088118859732245,0.9932410418583735,0.0,0.0,0.0,0.0
0.020298153486515633,-0.07609745827926735,0.7375865571396047,-0.0010870464397932807,-0.5255213508991483,0.0012999419258619335,0.8507787245989178,0.05862678309207161,-0.9280725171234321,0.8425597761217172,-0.018968562057051386,-0.8751411071786692,1.0093047396964583,-0.015157796666002815,0.6994884881266605,1.0224931970167643,-0.026850065787172066,0.702844477030992,0.9949526542209751,0.0,0.0,0.0,0.0
0.0172466218857512,-0.07741909516557778,0.7383286542177827,-0.0007883070095106398,-0.5252739533984174,0.00096570805706686,0.8509322651428869,0.04963029515288922,-0.9118801064325551,0.8501344317941312,-0.014682541829506571,-0.8640172824318262,0.9876201292998262,-0.009064846688299752,0.6926493243214433,1.0153147400583222,-0.020632277913431547,0.6957089453704476,0.9961381046015922,0.0,0.0,0.0,0.0
0.013822687653692007,-0.07869925976294284,0.7390862878166339,-0.0005031286855172334,-0.5249531696255098,0.0006444287424413234,0.8511307192630592,0.03979280159944435,-0.893024935200257,0.8584278480258903,-0.010582467478961397,-0.8509775122666867,0.9620240175472795,-0.0035038780932816864,0.6848625808783425,1.0080877627979383,-0.014801480982339493,0.6873675451280613,0.9970657288642727,0.0,0.0,0.0,0.0
0.010209019577736263,-0.0798584782697542,0.7397780535832087,-0.00024289008123825655,-0.5245942072618373,0.0003431783903189583,0.8513523013067654,0.029057178420386104,-0.872872731103521,0.8673880762736901,-0.006892952659233829,-0.8365858871966018,0.9335298738545696,0.0010709803597493813,0.6764906738634021,1.00155792364326,-0.009871825233034204,0.6781260298447547,0.9979462253430675,0.0,0.0,0.0,0.0
0.006874386953321801,-0.08087362444232411,0.7401924731379301,-2.584094779276391e-05,-0.5241488042591793,8.462815114779685e-05,0.8516266923740672,0.018116252193853093,-0.8516656861725236,0.8756771097499373,-0.003723649733751772,-0.8239080904097501,0.9068595645891209,0.004899441157681233,0.6677150192252462,0.9970761425938872,-0.005691632623019199,0.6684014263361595,0.9999995341156859,0.0,0.0,0.0,0.0
0.004076581051837432,-0.08159324492702948,0.7402946099175057,0.00013088854787800304,-0.523694807189307,-0.00010024340994399417,0.8519059347970299,0.007961070105706507,-0.832029526472876,0.8832097415850226,-0.0015077586467242437,-0.8136577237249963,0.8838821098959249,0.0073627018152813885,0.6591807517337069,0.9954885491164264,-0.0029301458449767703,0.65899878102611,1.0030489082109935,0.0,0.0,0.0,0.0
0.002261398036534974,-0.08198992137005826,0.7401531441917408,0.0002261479673672921,-0.5232886684583732,-0.00020866730363314212,0.8521554287676141,0.0009668821130472639,-0.8183249942006801,0.8877707504652115,-0.0002926496698061492,-0.8078110710661781,0.8690470258465526,0.008497164032366944,0.6524984814024478,0.9961462964795419,-0.0016048158085860901,0.6516855553006675,1.0062341127518102,0.0,0.0,0.0,0.0
0.002273363130101876,-0.08201310207829808,0.7401278272748133,0.00023899387760697066,-0.5232708990680416,-0.0002047160101052477,0.852166337730965,0.0009731845698002107,-0.8183290198754041,0.8877821704076162,-0.0002722686360302506,-0.8078470946523212,0.8689152298202603,0.008491490098689476,0.6525234624774126,0.9960415115320753,-0.0016010336560491278,0.6516244757579456,1.0062883341722155,0.0,0.0,0.0,0.0
0.002273363130101876,-0.08201310207829808,0.7401278272748133,0.00023899387760697066,-0.5232708990680416,-0.0002047160101052477,0.852166337730965,0.0009731845698002107,-0.8183290198754041,0.8877821704076162,-0.0002722686360302506,-0.8078470946523212,0.8689152298202603,0.008491490098689476,0.6525234624774126,0.9960415115320753,-0.0016010336560491278,0.6516244757579456,1.0062883341722155,0.0,0.0,0.0,0.0
0.002273363130101876,-0.08201310207829808,0.7401278272748133,0.00023899387760697066,-0.5232708990680416,-0.0002047160101052477,0.852166337730965,0.0009731845698002107,-0.8183290198754041,0.8877821704076162,-0.0002722686360302506,-0.8078470946523212,0.8689152298202603,0.008491490098689476,0.6525234624774126,0.9960415115320753,-0.0016010336560491278,0.6516244757579456,1.0062883341722155,0.0,0.0,0.0,0.0
0.0028992222092331698,-0.08252684516047573,0.7400097457479786,-0.00016047363763362394,-0.5231595692933815,0.00019813308954278185,0.8522347094833993,0.0014391323432112525,-0.8226512637680168,0.8939953222460609,0.00017994542814651378,-0.8121476222275925,0.8768893660945207,0.017009738831999,0.6517597665933786,0.9939217043916214,0.007012268929094461,0.654543692994983,1.0087072098716725,0.0,0.0,0.0,0.0
0.0041779404564047115,-0.08309594300802699,0.7398214897032872,-0.0002843379242731711,-0.5233099629451013,0.0003325188392209249,0.8521422951981452,0.002606709041447844,-0.8280559603511679,0.904399017607473,0.0013352002830019905,-0.8195324910666567,0.8910265315444702,0.0226001738291371,0.6542528448084974,0.9925332254329052,0.01275969475563236,0.6587688929917846,1.0115503805928232,0.0,0.0,0.0,0.0
0.006108496870039847,-0.08358764648534145,0.7395981064990909,-0.00022282116027350554,-0.5236891195191892,0.0002744649859743625,0.8519093737698386,0.003997275676960823,-0.8350960535588964,0.9196660714602446,0.00271439646223179,-0.8293384112971909,0.9104121955812626,0.025565597799309652,0.6598348942472597,0.9917801630367274,0.01577043027794062,0.664708031260982,1.0139961846720227,0.0,0.0,0.0,0.0
0.008690111019450164,-0.08403984133773931,0.7393785678846627,3.906099516620676e-05,-0.5243332061950772,-3.947199666261138e-06,0.8515131750829514,0.005778611265237978,-0.8431321026998588,0.9390896922179609,0.004485303822477606,-0.8411841776182364,0.9346135783570385,0.025864000470643838,0.6689583156547922,0.9911513710028802,0.0159043939492401,0.6726070399331863,1.0157406748101454,0.0,0.0,0.0,0.0
0.011961316893772644,-0.0846079517341244,0.73927193748902,0.0008148373864111671,-0.5256732013012487,-0.0009531105047666244,0.8506856722985854,0.009381460533388453,-0.8478133277693044,0.9587933149613763,0.008083163900997156,-0.8536423978280054,0.9625041278813365,0.0194886858406783,0.6851428243271146,0.9902714159364567,0.008851829668317334,0.6826900860468544,1.0164416209022809,0.0,0.0,0.0,0.0
0.015453805055255163,-0.08509929655611956,0.7388728326198719,0.0009699835026132055,-0.5255467699337625,-0.0010296000573472375,0.8507635345193842,0.010846945870602455,-0.865049008567281,0.990294605756478,-0.014361855525548077,-0.8500148961604859,0.9267180405103027,0.021697801288330126,0.6939623888582556,0.9876323960634042,0.010955290123598818,0.6914507063180804,1.0169345063011506,0.0,0.0,0.0,0.0
0.019003471417700504,-0.08594226649328113,0.7383507917201303,0.001336183642070387,-0.5256326399956671,-0.0014575596729416633,0.8507093615943461,0.014089850344982743,-0.8794106882541293,1.0182294970206844,-0.03985494021074376,-0.8568728602427015,0.8991459655246881,0.02292672044179397,0.7040502065793973,0.9853575002579217,0.01199429797725499,0.6996011336962518,1.0194001322261104,0.0,0.0,0.0,0.0
0.022287009346836008,-0.087062737421407,0.7377845168469682,0.0017647755420785193,-0.5258274815102432,-0.002032791082959584,0.8505869814523932,0.018477563509597644,-0.8906326058773154,1.041234242296793,-0.0644538930710522,-0.8696160056794997,0.8785311428265598,0.02487555403832947,0.7138336739293231,0.9828832452101255,0.013781751269509718,0.7069718379761021,1.0232612876843257,0.0,0.0,0.0,0.0
0.025161996679562936,-0.08840748299130051,0.7372312046894777,0.002163036515710595,-0.5259764475175588,-0.0026165617177317745,0.8504923583046574,0.02354999049001283,-0.8994358627203131,1.0596258405632275,-0.086932054665732,-0.8850217875864557,0.8617409924737799,0.028786840829250235,0.7221504829894896,0.9796823392246317,0.017694063173434534,0.7134581913642657,1.0279538022200216,0.0,0.0,0.0,0.0
0.02762870966673612,-0.0899346409541755,0.7367115942850472,0.0025312033776375676,-0.5260410087747496,-0.003183616481022262,0.8504494780307685,0.029120595166327694,-0.9062436402573661,1.0740018532415219,-0.10719712017595504,-0.9011497886035744,0.846808589799503,0.034604554020240735,0.7288573997483035,0.9757285235497178,0.023766551526283947,0.7190816688776418,1.0332124184472515,0.0,0.0,0.0,0.0
0.029757077363189027,-0.09162375675456348,0.7362232026520683,0.0029012836410226843,-0.5260273349902442,-0.0037539792166024475,0.8504544273718239,0.035164104108922074,-0.9113776129162374,1.0850780836607292,-0.1255298365142211,-0.9165219427760515,0.8327941892158567,0.04179933277206635,0.7342720147218589,0.9711288799133371,0.03154398371187666,0.7239250336860066,1.038944882349545,0.0,0.0,0.0,0.0
0.031630622354390674,-0.09348595877766326,0.7357574249836569,0.00330254600414886,-0.5259302568930031,-0.004356834554288333,0.8505101269632342,0.04177109036862207,-0.9151628402982462,1.0935404109485705,-0.14221313337579955,-0.929453619212028,0.8196461957897971,0.049977122958072516,0.7387416156524859,0.9658547843540646,0.04070371371075858,0.7280651882779687,1.0451278632261265,0.0,0.0,0.0,0.0
0.03330912221495827,-0.0955546035355883,0.7352994181222239,0.0037529614823398954,-0.5257252496219262,-0.005019677555230459,0.8506313420203354,0.04909987296720162,-0.917875788228518,1.0998527383644057,-0.15746606976794758,-0.9376747695404168,0.8082215911877006,0.05898625875668398,0.7424356574361245,0.9598204854980279,0.051178216311279084,0.7314764950823357,1.051845575330487,0.0,0.0,0.0,0.0
0.034828260604121766,-0.09784321959729214,0.7348329981500945,0.004259023074454945,-0.5254000603040925,-0.005769412515856746,0.8508251002609931,0.05726328564830205,-0.9196664730539773,1.1042710967703764,-0.1715558439183923,-0.9385951164965588,0.8003459216063333,0.06859186645868688,0.745483736923483,0.9530632546868709,0.06279412107155921,0.7340833139292805,1.059173766152574,0.0,0.0,0.0,0.0
0.036258760960025276,-0.1002976084070219,0.7344263877558692,0.004832044120343402,-0.5250232950976869,-0.006614881754746961,0.8510484324019151,0.06612494261264362,-0.9203025156296728,1.1070983778632804,-0.18440845433184253,-0.9306152362708111,0.798338234781542,0.07816980918301827,0.7487671916103203,0.9451440448002687,0.07487395132164966,0.7364894947975844,1.06631992601802,0.0,0.0,0.0,0.0
0.037766014735325155,-0.10295910378263154,0.7340611019681144,0.005515144193994212,-0.5245562316460627,-0.007609742480131336,0.8513239306193547,0.0759405401519764,-0.9204228552540117,1.1095525107613184,-0.1966197441359249,-0.915066539326843,0.7992289145730321,0.08732276622645604,0.7528884427229732,0.9357500720267709,0.08693961057668542,0.738844798442999,1.0731745409138567,0.0,0.0,0.0,0.0
0.03944685263100223,-0.10588964622304599,0.7337081431972823,0.0063559743678471515,-0.5239898105750735,-0.008818167168395553,0.8516551649177758,0.08705074775822352,-0.9201224611201384,1.1120054858412325,-0.20895777741702157,-0.8942032666932408,0.8001623063136012,0.09573900677962058,0.7582862780975084,0.9247302815209755,0.09857705157601875,0.7411228961316898,1.0799063304280725,0.0,0.0,0.0,0.0
0.04133859843569201,-0.10901490582125767,0.7333072860285071,0.007391623400579071,-0.5234089986345497,-0.01028235788338869,0.851987474771924,0.09935917858188992,-0.9192113693002888,1.1144577592735374,-0.22276823904013784,-0.8695970426469449,0.7989180969884929,0.10238051187982995,0.7652997166536158,0.9129914270074649,0.10837642375802288,0.7431412415522272,1.0867909736308996,0.0,0.0,0.0,0.0
0.04339056986054615,-0.11195941854310502,0.7325968804692673,0.008639169043339012,-0.5230838156582164,-0.011991280176754186,0.8521530940825154,0.11179476869196249,-0.9177520093764356,1.1168830299958648,-0.23984895556039532,-0.8419409658495753,0.7937610292105481,0.10471326887911268,0.7733512988596448,0.9050790273222812,0.11275253417159739,0.743874855242872,1.0954279718130517,0.0,0.0,0.0,0.0
0.045517471193035265,-0.11434391459359351,0.7315791286814727,0.009997485102757029,-0.5229598867260082,-0.013689620573010798,0.8521887123493879,0.12270069317693753,-0.91739962751626,1.1208738432682341,-0.25997221471740806,-0.8101556348009648,0.7804375943681615,0.10232454923650462,0.7812340702003492,0.902462416825553,0.11079593716291078,0.7431520582279426,1.1049942390199168,0.0,0.0,0.0,0.0
0.04743059144062417,-0.11598085478718749,0.7304037513971744,0.011398487272305875,-0.5230355577425332,-0.015158015008216863,0.8520998265496074,0.13092058296007736,-0.9178061988319516,1.1253706369062342,-0.28211145698991436,-0.7739731518053612,0.753289254895484,0.0953989327015501,0.7881083180408375,0.9049105638347335,0.10261511493295061,0.7408565677234695,1.1144066427948995,0.0,0.0,0.0,0.0
0.04859391640507425,-0.11668832458270365,0.7294236586962727,0.012680298973153294,-0.5231857325591152,-0.015996915309936386,0.8519741768182297,0.13477222185789195,-0.9183051326341113,1.128237455677532,-0.3021852329767834,-0.7342181294943734,0.7045842303326921,0.08588003514051541,0.7922859688558643,0.9102914669184231,0.09090644192565846,0.7372106800396927,1.1214378327272032,0.0,0.0,0.0,0.0
0.0486569218669446,-0.11676801303947973,0.7293811959090867,0.012757875789633173,-0.5231494496622113,-0.015992792860985483,0.851995375867714,0.13498580572023144,-0.9183466632516668,1.1282664792441477,-0.3022235949180204,-0.7341496784488698,0.7045909660562347,0.08574074195295206,0.7924126748234791,0.910088751754896,0.09100088616411478,0.7371806273842647,1.121700978940045,0.0,0.0,0.0,0.0
0.0486569218669446,-0.11676801303947973,0.7293811959090867,0.012757875789633173,-0.5231494496622113,-0.015992792860985483,0.851995375867714,0.13498580572023144,-0.9183466632516668,1.1282664792441477,-0.3022235949180204,-0.7341496784488698,0.7045909660562347,0.08574074195295206,0.7924126748234791,0.910088751754896,0.09100088616411478,0.7371806273842647,1.121700978940045,0.0,0.0,0.0,0.0
0.04849168635738337,-0.11774891545179089,0.7328388868303893,0.010944157889626584,-0.5215761735364812,-0.014394306304090965,0.8530130858041707,0.13411512640601855,-0.9187456457604578,1.131288777614793,-0.3028894140536076,-0.7282021668604003,0.7078380253582971,0.04500220003416919,0.7579118861499785,0.9760733962533076,0.13303799386020682,0.7577731372864769,1.0958468902758698,0.0,0.0,0.0,0.0
0.04835093993023991,-0.11931179689521206,0.7369943393218032,0.009779103665472319,-0.5204939699606502,-0.013310531867020504,0.8537055851448547,0.1354420581158358,-0.9106359773675502,1.1272551257116321,-0.3007178782609256,-0.7231764571349586,0.7147586458769801,0.01136089815953139,0.732859588129465,1.0262097267789132,0.16818292563694326,0.7798897314642316,1.0644153620903807,0.0,0.0,0.0,0.0
0.048187897770254576,-0.12129043321805681,0.7409197576094084,0.009164301057923622,-0.5197567655350852,-0.0127074463563181,0.8541706159039466,0.13875147213664016,-0.8981140994470953,1.1181384445359313,-0.2964949420882791,-0.7210115793487193,0.7248257919953167,-0.013137692504746851,0.7155476759002496,1.065495522547038,0.1968909428237508,0.7999080162355343,1.0346360469829199,0.0,0.0,0.0,0.0
0.04796275172259058,-0.1235595949878714,0.7444115987823121,0.00890212273892268,-0.5191627255558621,-0.012440667778031054,0.8545384990679977,0.14349690569337534,-0.883691742418271,1.1057181651531292,-0.29095383698682953,-0.7217194704547768,0.7372071939264279,-0.03242615178083892,0.7035136438188941,1.0986424228857457,0.22149704666284073,0.8170743236343877,1.0083548930158224,0.0,0.0,0.0,0.0
0.047605109517017706,-0.12600157791814126,0.7474802906409498,0.008823822414983579,-0.5185797530037741,-0.01233788703505856,0.8548947049058402,0.14899964840510674,-0.8687296958206813,1.0910246672459534,-0.2847385794405322,-0.7242172684020681,0.7502122740380295,-0.0486687560392626,0.694506097514287,1.127901399274337,0.24396099861504014,0.8313923470164382,0.9856932466744326,0.0,0.0,0.0,0.0
0.046978571704443674,-0.128467724143689,0.7502009040391835,0.008794963875045539,-0.5179833961582405,-0.012254491741763253,0.8552576672248913,0.1545143065320842,-0.8535627309424199,1.0740929655394604,-0.27837732154478567,-0.7263865299813012,0.7607867226790853,-0.06338799851966981,0.6868355830982513,1.1539233296057407,0.26505586194935743,0.8429284422530711,0.966199199947753,0.0,0.0,0.0,0.0
0.04602068942871446,-0.1309736262064477,0.7526284292027112,0.008754333526746073,-0.5173273303908166,-0.012133995321825537,0.8556568009621284,0.15996187264590864,-0.8381916736702445,1.0546856575441221,-0.27191062018708423,-0.7279029811797672,0.7685264801332665,-0.07784061618753478,0.6796728647117112,1.1760794244648416,0.2856235691078281,0.851707229170969,0.9496567031828574,0.0,0.0,0.0,0.0
0.04466801393490161,-0.1335990859649247,0.7547993816994708,0.008658485952051232,-0.5165538584518781,-0.011938488510864523,0.8561276858223726,0.16547337241930332,-0.8224383009013739,1.032226042778677,-0.2652037032566833,-0.7288841768825821,0.7735783716170995,-0.09332174484874646,0.6728313837532838,1.1921797237550642,0.3066519909445072,0.8576149509170774,0.9360565591197646,0.0,0.0,0.0,0.0
0.04285540679449313,-0.1364571008133276,0.7567278160830115,0.008461896075642331,-0.5155863958677942,-0.011625380093108028,0.8567169399799177,0.1712598818423245,-0.806149117602314,1.006004280843968,-0.25806806422069495,-0.7296857887583825,0.7763354976350578,-0.11137736863951694,0.6671166849092037,1.1978657792987648,0.32926443622647134,0.8603774579149649,0.925564880718366,0.0,0.0,0.0,0.0
0.04056445090190612,-0.13965367769531314,0.7584314973601466,0.008126205490273326,-0.5143550134317584,-0.011156123816587819,0.8574662826276812,0.17752339729204675,-0.7892361711490603,0.9755414470254368,-0.25034946643282285,-0.7308041784660103,0.7775088275763359,-0.13359721660689614,0.6651300906968061,1.1865836343654597,0.35418140085576194,0.8598277947524136,0.9180908125379996,0.0,0.0,0.0,0.0
0.03782762025968395,-0.14317599550569945,0.7599825872268929,0.007630457499793109,-0.5128763193791241,-0.01050398871464263,0.8583643301999153,0.18414533486784693,-0.7714279632581723,0.9406727807319382,-0.24213095211176308,-0.7318844625039344,0.7769274015185961,-0.15985261805923967,0.6642038270814896,1.165601732623292,0.3807361839969913,0.8562942864396514,0.9126271818085309,0.0,0.0,0.0,0.0
0.03471580048955686,-0.1469109905409342,0.761432401306848,0.006931086247354833,-0.5111546690181782,-0.009617125876479187,0.8594069904732126,0.19074042333501207,-0.7531310138114868,0.9021789815473045,-0.23382009410248752,-0.7323719191014806,0.7741164518538693,-0.19082730478285426,0.6635860262909088,1.1403002958736776,0.40781195439418616,0.8501455436594673,0.9079894383162591,0.0,0.0,0.0,0.0
0.03132925143448133,-0.15055994402712716,0.7627065462416093,0.005920487208191006,-0.5091206428448891,-0.008314561621614978,0.8606346419506159,0.19628682279585133,-0.736804320709194,0.8631925322784394,-0.22664001605961165,-0.7315001834278281,0.7679364185607099,-0.22923596246932237,0.664386319482723,1.1140657723335297,0.43445177808467816,0.841322043696341,0.9037200464605555,0.0,0.0,0.0,0.0
0.02777605965776417,-0.15381957228373677,0.7634690859605862,0.0045017931652699865,-0.5066552285693999,-0.00647672516897596,0.8621126754970442,0.2000375810124938,-0.7262622033602026,0.8282181599798782,-0.22175519754877862,-0.729912776010642,0.758344908208625,-0.2820297878567311,0.6687644189187324,1.0896113631104711,0.45948097876586674,0.8282790389931641,0.9020034299480939,0.0,0.0,0.0,0.0
0.024414354557554058,-0.15663193004809992,0.7632177292290733,0.0028115350339186123,-0.5035559276030007,-0.004175717455571279,0.8639479651173245,0.20231252475174988,-0.7260971771364222,0.8034489744304996,-0.2196305547060333,-0.7325800171944424,0.7513853930889792,-0.35231376588160035,0.6779928692463764,1.069205853649044,0.48162411516518766,0.8089490814939828,0.9068636888661824,0.0,0.0,0.0,0.0
0.021405107379194287,-0.15877110355417612,0.7617793984193681,0.0010206344294815795,-0.4998103148036562,-0.0015504982901098324,0.8661329017398448,0.20287291074210606,-0.7384434719539278,0.792654494242801,-0.22075629199555777,-0.7408428530684378,0.7485340250749268,-0.441906420322966,0.6899206901571641,1.0554006554684148,0.4980278335502424,0.7826641757539312,0.9194080350561349,0.0,0.0,0.0,0.0
0.01919675725549077,-0.15998536757669404,0.7595720891660596,-0.00027248610449516876,-0.495839332007205,0.0007702997247914855,0.8684138928093594,0.20209584644505962,-0.7602372344407081,0.7964822576615164,-0.22455603559043497,-0.7550302632293825,0.7522775588796695,-0.5332300209532437,0.6970163846202919,1.0526367136042065,0.502863314180208,0.7534874618465257,0.9353847066117935,0.0,0.0,0.0,0.0
0.019225813072661812,-0.16002717894265842,0.7594557354643116,-0.0003806750524184667,-0.495838099972373,0.0008232054012819482,0.868414507038637,0.20211190830959247,-0.7604555864176572,0.7961750061006723,-0.22465438921437283,-0.7551142325339855,0.7522925533770842,-0.5332926380197093,0.6970145802256883,1.0526339336947819,0.5029313865270884,0.7533550664668055,0.935155901165151,0.0,0.0,0.0,0.0
0.019225813072661812,-0.16002717894265842,0.7594557354643116,-0.0003806750524184667,-0.495838099972373,0.0008232054012819482,0.868414507038637,0.20211190830959247,-0.7604555864176572,0.7961750061006723,-0.22465438921437283,-0.7551142325339855,0.7522925533770842,-0.5332926380197093,0.6970145802256883,1.0526339336947819,0.5029313865270884,0.7533550664668055,0.935155901165151,0.0,0.0,0.0,0.0
0.018931525910575595,-0.16081836983291728,0.7602938190921806,-0.0005015819980464674,-0.4979406635929401,0.0007589916182688002,0.8672106248702475,0.20299225920850145,-0.7412268460365686,0.774515766795505,-0.22105617488215018,-0.7419432275820368,0.7403229404786356,-0.5378464048100094,0.7079240708094323,1.0489978632760386,0.5177511802447401,0.7648278085182796,0.9330369846856558,0.0,0.0,0.0,0.0
0.01902855798710728,-0.16192143022437808,0.7607666534661912,-0.00037931741724986026,-0.4992343270419623,0.0004585291702871219,0.8664668098503577,0.20568437036206744,-0.727227317623786,0.758649957197381,-0.21700160386278514,-0.7389380262182305,0.7408350599462825,-0.5407189641814499,0.7160471930322098,1.045824630590017,0.5301899196522267,0.7726729541889675,0.9329927632208755,0.0,0.0,0.0,0.0
0.019674270940166612,-0.16340606586718298,0.7608669789399085,-8.386797031302664e-05,-0.49996128942827334,4.835157385323759e-06,0.8660477481155431,0.21011460700559306,-0.7182772935390936,0.7493096180337416,-0.21239492035357269,-0.745706586931092,0.7546385500864721,-0.5422318275733161,0.72267832178638,1.0435504170246444,0.5430553839500605,0.7785399876351713,0.9355380382783083,0.0,0.0,0.0,0.0
0.02091342825794792,-0.1653600252133103,0.760419180328553,0.00034462352410374885,-0.5003602638456829,-0.0004833505055557987,0.8658171019165618,0.21617754284965857,-0.7139317015392311,0.7458822561605984,-0.20720465551909964,-0.7613495868646799,0.780743829185228,-0.5426292230611548,0.7280612666116317,1.044128087041272,0.5602187202223723,0.7831968618827495,0.9430405677136922,0.0,0.0,0.0,0.0
0.022873881417406924,-0.16812481370048177,0.7594404698088466,0.0002778898620173913,-0.5015699019889922,-0.00013641098595960913,0.8651170658286774,0.22250020470020912,-0.7102898227379967,0.7437470318649021,-0.20188800899075332,-0.7772808930825338,0.8116144982380378,-0.536557737460758,0.7354547883654743,1.049258846611471,0.604682895043501,0.7951793886527543,0.9583078739341011,0.0,0.0,0.0,0.0
0.02619616751175363,-0.17147201194241862,0.7615294628180448,-0.001984038623389551,-0.5043218875970815,0.00281113829137294,0.8635088851788176,0.22439707040927423,-0.7037143038836615,0.7475454555289304,-0.1994425287611811,-0.7725645910371093,0.8352004395616881,-0.4972779638140793,0.7587614970548833,1.0268737564147252,0.4846043741759384,0.7580475083887678,0.9891095236531467,0.0,0.0,0.0,0.0
0.029989965727823042,-0.17514458037480904,0.7625995604147079,-0.004268275502179559,-0.5075397126457344,0.0058581555910631605,0.8615978783195753,0.22725889300832663,-0.6991029240939964,0.7531225276189127,-0.19650777874112682,-0.7708508081866914,0.8627194456278221,-0.4541744069012689,0.7797669776783401,1.011361257071276,0.37380792828914566,0.7305111904859638,1.0182779461699338,0.0,0.0,0.0,0.0
0.03413103115681159,-0.17899073787972825,0.7628943849905382,-0.005842216391310808,-0.5103148999228195,0.008043930935524359,0.8599301521632465,0.23283764489948958,-0.696890443817848,0.761444080576343,-0.19183953166671242,-0.7789184003866371,0.8998606114656174,-0.4144587273269276,0.7977769227016344,0.9992566699267206,0.2904207575247429,0.7140032416274081,1.0480183022586096,0.0,0.0,0.0,0.0
0.038337497197523024,-0.18283877367543427,0.7627412685996222,-0.006719650343484452,-0.5124462432707504,0.009277427874799788,0.8586428963131204,0.24079154319436444,-0.6960420557987844,0.7708967671242132,-0.18555444751530095,-0.7946796110083438,0.9429195769786518,-0.3805926312342726,0.8134197941831613,0.9885485231262948,0.23094513738474706,0.7062564796153047,1.0775479788145288,0.0,0.0,0.0,0.0
0.04219693292187544,-0.1863140789464752,0.7623958379855796,-0.007243120439082514,-0.5141640014509405,0.010034881965233599,0.8576025990878328,0.2488981774289623,-0.695605503057413,0.7795453110447561,-0.1792078042405273,-0.8110944749908001,0.9827251543939697,-0.3513483589297686,0.8265993999165252,0.9792575654384323,0.18590634920638785,0.7021848245796304,1.1068828758983507,0.0,0.0,0.0,0.0
0.045523080711113065,-0.18928724058969118,0.7618999075703267,-0.007587475271615649,-0.5155675284662188,0.010537342283123781,0.8567505577633701,0.25625447307517935,-0.695498695862835,0.7868183151487264,-0.173463944822029,-0.8259408995704931,1.0165541198532286,-0.3261632904030827,0.836881527480951,0.972276299310249,0.14942436739708137,0.6992670301299894,1.134811088788907,0.0,0.0,0.0,0.0
0.04825077319940829,-0.19178164270010045,0.7612066225439464,-0.007841363390922333,-0.5167273680334331,0.010904016049846603,0.8560446498748748,0.26260486725271326,-0.6957163322850979,0.7923553156341939,-0.16850990268221896,-0.8388525884532744,1.0441824906106154,-0.3043403299071266,0.843832745827058,0.9686442394732387,0.1186260429348994,0.6965709972953478,1.1596755477553617,0.0,0.0,0.0,0.0
0.05039133213886891,-0.19391187724235726,0.7602897907932001,-0.0080440287916973,-0.5176995940580963,0.011186040335610973,0.8554515161097622,0.26808962229300304,-0.6959665186521157,0.7956578824696767,-0.1641836196423545,-0.8501525554788562,1.0664258495759535,-0.28489085238130857,0.8473594136749939,0.9686822131299279,0.09191469917580519,0.6940862866146232,1.1788864562557695,0.0,0.0,0.0,0.0
0.05196255826149117,-0.19579032339103503,0.759087574482177,-0.008202446468553712,-0.5185090888217714,0.011394467209819003,0.8549568473309932,0.27294993545968466,-0.6960623458201993,0.7962911597347485,-0.16025648244327412,-0.8604512472494185,1.084188199479998,-0.2671321320071491,0.8472403662314647,0.9728438632843945,0.06882860573836228,0.6929006996123156,1.1879747121856015,0.0,0.0,0.0,0.0
0.05299879730344179,-0.1975043945195814,0.7575486848742398,-0.008313287963258439,-0.5191599875215738,0.01152826937716076,0.8545588894891953,0.27741242257321685,-0.695965385135598,0.7940992980321904,-0.156538191580875,-0.8703685478724057,1.0983320835848205,-0.25064339104874594,0.843374733360761,0.9813614367392665,0.04946170536324719,0.6958625444561785,1.1802983560303564,0.0,0.0,0.0,0.0
0.05352914393123429,-0.19915140593836242,0.7556144643998479,-0.008396343712839538,-0.519697282286081,0.011605792430742199,0.8542303798032307,0.2816787943998471,-0.6954233484381779,0.7885994219273992,-0.15282167597957463,-0.8802056243010588,1.109368970647209,-0.23447710406549327,0.8356350137067359,0.9944624034074471,0.032238578500102345,0.7004292210236369,1.1621819012846344,0.0,0.0,0.0,0.0
0.05361649856798415,-0.20081220556097726,0.753295077239768,-0.00847947009386031,-0.520154363774685,0.011655903589601379,0.8539506287512117,0.28590323926244937,-0.6942398272509889,0.7796357489721448,-0.14895829902966573,-0.8901023917559695,1.1178610228151376,-0.21742507009216844,0.8242078190594359,1.0115713809398095,0.015427780966461621,0.7057745094829092,1.137707510905214,0.0,0.0,0.0,0.0
0.053306212973602905,-0.20250598802071607,0.7505985530821506,-0.008604256517828389,-0.5205398792898194,0.011726266575578037,0.8537134738956121,0.29006226010374836,-0.6925770023797954,0.7674671624814416,-0.14500470521594355,-0.8999967253176918,1.1239900282266257,-0.19846944246727435,0.8091015880802804,1.032235845554667,-0.002411520262507315,0.7121303905485005,1.1087153689393623,0.0,0.0,0.0,0.0
0.052654312320957845,-0.20415452326939185,0.7475443721547534,-0.008846107633194902,-0.5208481576061679,0.011915386080404834,0.8535203375857879,0.29381465260421435,-0.6913117530136258,0.7533988582642304,-0.14139958624761287,-0.9094476522982153,1.1275127308120791,-0.17684030502497522,0.7902972683691536,1.0560685412020818,-0.02271162816091406,0.7203706672466864,1.0753873484610064,0.0,0.0,0.0,0.0
0.05180999823747558,-0.2055322714919491,0.7441981586040121,-0.009338528147288418,-0.5210378478264972,0.012438419065410055,0.8533918436190537,0.2962919062915702,-0.6930038203197686,0.7414169438985059,-0.13929667227119774,-0.9176430690397516,1.1281448517723511,-0.151674577292949,0.76791596048618,1.0823694777236745,-0.047176196750318936,0.7319665787034246,1.0364238114661821,0.0,0.0,0.0,0.0
0.050846776640572224,-0.2065887793980204,0.7408008643679118,-0.010242552924589062,-0.5210830478958193,0.013534774864576446,0.8533371884399247,0.2968759829572243,-0.6987372120280632,0.7334913384013677,-0.13939027819137964,-0.9232878493066945,1.125486303884572,-0.11943210869853244,0.7418606550881534,1.1086774416627623,-0.07796866191955054,0.7481098838482433,0.9885891282858653,0.0,0.0,0.0,0.0
0.04998754209337307,-0.20729288051589154,0.7380453790712944,-0.011673650438839151,-0.5210570246816085,0.015283463277138799,0.8533051732326704,0.29526406926387727,-0.7078264220992209,0.7312676865440798,-0.14181275384284725,-0.9242592569726423,1.1198203504785387,-0.07963499716028254,0.7155589396250305,1.1289084968411738,-0.11250348501445351,0.7704088222110587,0.9292718991948472,0.0,0.0,0.0,0.0
0.05003180505260926,-0.2073294574209013,0.7379481977105771,-0.011736825888137948,-0.5211038050947212,0.015320896086928647,0.8532750678280526,0.2952925268865158,-0.707913717275079,0.731113272997857,-0.14181036742017722,-0.9242910927613059,1.1198791672721937,-0.0796437808913207,0.7155066730813531,1.1288897439679229,-0.11250856398021652,0.7704200749680181,0.9292652258082714,0.0,0.0,0.0,0.0
0.05003180505260926,-0.2073294574209013,0.7379481977105771,-0.011736825888137948,-0.5211038050947212,0.015320896086928647,0.8532750678280526,0.2952925268865158,-0.707913717275079,0.731113272997857,-0.14181036742017722,-0.9242910927613059,1.1198791672721937,-0.0796437808913207,0.7155066730813531,1.1288897439679229,-0.11250856398021652,0.7704200749680181,0.9292652258082714,0.0,0.0,0.0,0.0
0.04909094838758708,-0.207635347130964,0.7388915755974037,-0.010416198724218523,-0.5222190055222328,0.013633211338123544,0.8526388148707036,0.27212168835339245,-0.7483635793922669,0.7851272321486108,-0.13629289825116353,-0.9188084572709242,1.1124244972785924,-0.10721938202521397,0.7292459405503822,1.1247147207051569,-0.13415843843272493,0.7665600823339296,0.9230277666394815,0.0,0.0,0.0,0.0
0.04732423932620174,-0.20916292243243093,0.7400578164430363,-0.00925789938094456,-0.523080253604155,0.012013493090396907,0.8521484703807384,0.24557075468558986,-0.7854641669023136,0.8142580809283063,-0.12747551164940116,-0.9136063007636038,1.1040419999383597,-0.11900956482730486,0.7363664544898382,1.116454471200424,-0.14203848808016928,0.7622773204438618,0.9213132394933436,0.0,0.0,0.0,0.0
0.04522230006516505,-0.2117086114410587,0.7411478572952458,-0.008151696447550807,-0.5237079521877708,0.010485173726206963,0.8517943365579803,0.22178640079779421,-0.8177251790158131,0.8277648989206262,-0.11628797395774583,-0.9107409923014684,1.0977576699545473,-0.11630434754471235,0.7377963243859642,1.1061479640846485,-0.13984702834496712,0.7573180518734186,0.9250583477943389,0.0,0.0,0.0,0.0
0.043034875814387905,-0.21500307273277752,0.7420240009722346,-0.007040293544492281,-0.5241735889953753,0.008979873230901414,0.851534993258217,0.2021178340452205,-0.8454855469350556,0.8322278307906322,-0.10335636312913656,-0.9105932870648146,1.094242136519446,-0.10470570753513604,0.7358009864710046,1.095221337481913,-0.13152025191833633,0.7513649846560302,0.9337111919086685,0.0,0.0,0.0,0.0
0.040748234519730905,-0.2185527373723418,0.7426661228414525,-0.005969939356895,-0.5246093341018814,0.007596137783489222,0.8512882620405557,0.18666222432500942,-0.8704447109186517,0.8320844676004585,-0.0901573012612138,-0.9107628806134971,1.0904651152254805,-0.08950436748359741,0.7318237056976211,1.0852279820901447,-0.1201172909396499,0.7446700665276751,0.9455218980982113,0.0,0.0,0.0,0.0
0.038380905503902586,-0.2219479484250578,0.7432901307121812,-0.005004228308007943,-0.5249683665729629,0.006386961281541932,0.8510830620581898,0.17377289177062843,-0.8927981840392593,0.8292263340324963,-0.07785879358107765,-0.9096198467217,1.0847641992823833,-0.07412790388973985,0.7272248710217806,1.0753586492837899,-0.107767222674965,0.7382755040058969,0.9566676536104807,0.0,0.0,0.0,0.0
0.035932812557555434,-0.2250216683577499,0.7439906169194396,-0.004160419542250157,-0.5252324986550828,0.0053351577166336015,0.850931871161205,0.16164100872342627,-0.9117932724336404,0.8251668493948335,-0.06684769722661704,-0.9066430506522334,1.076579130181766,-0.06024135207440415,0.7226581474461607,1.0652985465590519,-0.09579493545808523,0.7323704410135603,0.9656287269650431,0.0,0.0,0.0,0.0
0.03334608682663461,-0.22778890233294463,0.7447586394309305,-0.0034272976344832122,-0.5253889893093623,0.004423879783314059,0.8508437534771435,0.14919512990032036,-0.9257179637283474,0.821683648675889,-0.05704709037332387,-0.9018764801556585,1.0657041491786547,-0.04775716162953442,0.717838305812539,1.0551845642140503,-0.08435103599019465,0.7265448059278613,0.9727025141057151,0.0,0.0,0.0,0.0
0.03052221860514973,-0.2303625048053736,0.7455820515262527,-0.0027740654753849294,-0.5254458336684293,0.00361563550703941,0.8508148492011101,0.13582828887763432,-0.9322559165736397,0.8210858920416536,-0.04806370847073513,-0.8953431338808113,1.051837393686688,-0.03610444273722101,0.7123968882625479,1.0449643470431014,-0.07311242803253128,0.7203175293212525,0.9785971875811383,0.0,0.0,0.0,0.0
0.027376608077949508,-0.2328612626808984,0.7464636019379515,-0.002170566824539462,-0.5254307174252408,0.0028849609846136985,0.8508287294313552,0.12135798708046341,-0.9298643439110457,0.8255788901369098,-0.03952735784478366,-0.886876005146193,1.0345640360971298,-0.024703118936593636,0.7061712710537851,1.0343814549723294,-0.061647611242286494,0.7134514623628032,0.9838457801945126,0.0,0.0,0.0,0.0
0.023890731093556855,-0.23529415031773812,0.747382822717697,-0.001612462410881776,-0.5253210588480108,0.0022161994243261912,0.8508996847783467,0.10567803182243946,-0.9202612926627275,0.833394057077377,-0.031391938188727965,-0.8765493979598676,1.0137401796456633,-0.013751602962827205,0.6990910195460668,1.0234948594672024,-0.050149386657863206,0.705674261607496,0.9885565935431586,0.0,0.0,0.0,0.0
0.020103680260937798,-0.23762140807318816,0.7483211262432838,-0.001102630712794031,-0.5251178299286715,0.0016008186927755426,0.8510273122973356,0.08866304229746821,-0.905998595436823,0.8429277598315943,-0.02375014722988953,-0.8643999918118511,0.9893718978891496,-0.00369780851014939,0.6913595895341975,1.012448935309185,-0.039121521562307894,0.6969700601988522,0.9925880144905481,0.0,0.0,0.0,0.0
0.01611155979871908,-0.2397624403330327,0.7492291179019546,-0.0006489801668150906,-0.5248391312772812,0.0010361229192250442,0.8512005589484467,0.07022092372718798,-0.8891275030463037,0.8533842183340378,-0.016806612229780547,-0.8506163773697075,0.9617622701511831,0.004905143593183623,0.6832133321854932,1.0017802668816884,-0.02926061272009324,0.6874142592330938,0.9959120140795208,0.0,0.0,0.0,0.0
0.01209483700292972,-0.241579130941276,0.7499305701032277,-0.00027492774167408945,-0.5245050541383594,0.000541877526463235,0.8514071170520011,0.050347461466885,-0.8709724521206719,0.8643943478051214,-0.01095505914704347,-0.8360184505217351,0.9319501284772732,0.011520110054888288,0.6743915945466892,0.993334026625401,-0.02132110092967174,0.6768162071241864,0.999431629736296,0.0,0.0,0.0,0.0
0.008420971681545559,-0.2430268391666953,0.7503216213547638,1.35584147420629e-05,-0.5241093452681392,0.00014104273401888853,0.851650969661703,0.030158931345960663,-0.8522031187899278,0.8754494029802271,-0.0063426740041803275,-0.8226343789941695,0.9033896735930205,0.01636031586245689,0.6652513401391047,0.9878891720732556,-0.015302969371105792,0.665876778544927,1.003565978528549,0.0,0.0,0.0,0.0
0.005374075838580683,-0.24403490478483864,0.7504174799510186,0.0002273377602824635,-0.5237103186235197,-0.0001731110207440703,0.8518963672403872,0.011536257856422236,-0.8351678874118602,0.8864254700859251,-0.0030906432223495057,-0.8115868316245466,0.8786494125904665,0.01912092127157892,0.6566841897995186,0.9856122036385695,-0.011637822756136871,0.655598172647298,1.0078925198597715,0.0,0.0,0.0,0.0
0.003429964891947721,-0.2445786527176599,0.7502350273854014,0.00036184094367701575,-0.5233719686670129,-0.00036225092976682554,0.852104172187304,-0.001390255908122983,-0.824176910635763,0.8952303718680543,-0.001323821715136183,-0.8051494815432474,0.8625976165358907,0.020208260601915624,0.6499914280641435,0.9863272883158376,-0.010022219412029161,0.6477169573304103,1.0120905183259292,0.0,0.0,0.0,0.0
0.003446834816032548,-0.24460974250147452,0.7502044487505454,0.0003754525176822541,-0.5233517030376799,-0.0003589754222061876,0.8521166147304097,-0.0013921254526217553,-0.8241858771839204,0.8952412496592617,-0.0012953425459062454,-0.8051902944410996,0.8624491851051432,0.020204252374760527,0.6500368964519235,0.9861964030401933,-0.010019404505918589,0.6476391818801148,1.012165849033102,0.0,0.0,0.0,0.0
0.003446834816032548,-0.24460974250147452,0.7502044487505454,0.0003754525176822541,-0.5233517030376799,-0.00035897542220618753,0.8521166147304097,-0.0013921254526217553,-0.8241858771839204,0.8952412496592617,-0.0012953425459062454,-0.8051902944410996,0.8624491851051432,0.020204252374760527,0.6500368964519235,0.9861964030401933,-0.010019404505918589,0.6476391818801148,1.012165849033102,0.0,0.0,0.0,0.0
0.003446834816032548,-0.24460974250147452,0.7502044487505454,0.0003754525176822541,-0.5233517030376799,-0.00035897542220618753,0.8521166147304097,-0.0013921254526217553,-0.8241858771839204,0.8952412496592617,-0.0012953425459062454,-0.8051902944410996,0.8624491851051432,0.020204252374760527,0.6500368964519235,0.9861964030401933,-0.010019404505918589,0.6476391818801148,1.012165849033102,0.0,0.0,0.0,0.0
0.0040622311525602426,-0.24513968342818052,0.750079563923548,-2.8395965660436995e-05,-0.5232265513457905,5.1557608447506274e-05,0.8521936238333826,-0.000908399864121301,-0.8285187874326987,0.9013520165866092,-0.0008305192564085164,-0.8095541993329055,0.8704495524873287,0.028727301995776947,0.6492043098477489,0.9840077576428343,-0.0012712230556136597,0.6505121079691668,1.014672149939499,0.0,0.0,0.0,0.0
0.005327164357408336,-0.2457175446262359,0.7498881415752028,-0.00015947857451787835,-0.5233656870230113,0.00019399000494275465,0.8521081472333154,0.00025945000736845767,-0.8339044979079921,0.9116123286239296,0.0003215483612430262,-0.8169768053376422,0.8845957695958352,0.03443632734917952,0.6515636942859049,0.9826000597861259,0.004538043602575929,0.6546922419750566,1.0175405031078895,0.0,0.0,0.0,0.0
0.007246368458313351,-0.24620365207679643,0.7496649915562847,-0.00010705440645069088,-0.523738522311138,0.00014557420108728337,0.8518790569058801,0.0016092969789238084,-0.8409272941101014,0.9267606893145522,0.0016586626882561153,-0.8267823528761289,0.9039716388561195,0.03758456995947281,0.6569722428348024,0.981903484544206,0.007485612601747796,0.6606059274972312,1.0199289391709718,0.0,0.0,0.0,0.0
0.009822667857613748,-0.2466324285199866,0.7494508458627492,0.00014624827974149096,-0.5243872875609323,-0.0001231808803775979,0.8514798506614232,0.0033030622285016254,-0.8489317092015126,0.9461061953791113,0.0033409797812186726,-0.838559048861338,0.9281269841169005,0.0380983170019107,0.6659250987133004,0.9814095813253186,0.007368216062017185,0.6685191381700415,1.0215129513016807,0.0,0.0,0.0,0.0
0.013099805031515852,-0.2471582225505646,0.7493635199273626,0.0009315103346106524,-0.5257704895144322,-0.0010772968301030617,0.8506252782957903,0.006803965452464545,-0.8533759276668399,0.9656607747202504,0.0068285415104011645,-0.850759027442206,0.9558518451362548,0.03193141152045216,0.6820825533666667,0.9807470339312763,-0.0004023919636641478,0.6786917693175425,1.0218857991218342,0.0,0.0,0.0,0.0
0.016611071330475624,-0.24762314639895322,0.7489664368156259,0.0010731009437789647,-0.5256545138571256,-0.001146675526114396,0.850696694275481,0.008170362074636239,-0.8706668511579237,0.9972439495144831,-0.015428958253504195,-0.8480872936419034,0.9219847224640638,0.03431742085006474,0.6908173515434423,0.9782634728196864,0.0013915421053924456,0.6875312278900716,1.022217572428103,0.0,0.0,0.0,0.0
0.020180487943974253,-0.24843945601286505,0.7484507851125517,0.0014310474802346606,-0.5257586471464322,-0.0015684042885216437,0.8506311404844349,0.011316431754599426,-0.8850378533906461,1.0252434719321601,-0.0408084043048204,-0.8555200447122348,0.8956392293745439,0.03575716797868621,0.7008503553979553,0.9761233910759421,0.002040695449410827,0.6957837772162262,1.024478995971559,0.0,0.0,0.0,0.0
0.0234806167896886,-0.24953929024082858,0.7478853717685139,0.0018556309243347808,-0.5259744522038053,-0.0021378569213138794,0.8504956565618448,0.015625723967913573,-0.896252916537162,1.0482842964223233,-0.06534345436586228,-0.8685976173269967,0.8757552798562604,0.03792168425587726,0.7105683609509402,0.9738027950435526,0.0034358220127783667,0.7032208448788505,1.0282105165678677,0.0,0.0,0.0,0.0
0.02636389399039204,-0.2508757434968451,0.747329165219701,0.002248434143150755,-0.5261360149461894,-0.0027125964016079807,0.8503931326987589,0.020647971029441915,-0.9050641508783507,1.0666786929481689,-0.08777390763037034,-0.8842027280597207,0.8593835225495389,0.04208963626836515,0.7187791390742693,0.9707038620818116,0.007107196614572342,0.7097372355064219,1.0328571146989458,0.0,0.0,0.0,0.0
0.02882884329634971,-0.25240734661459024,0.7468042483837538,0.0026095605248431155,-0.5262042641428553,-0.0032681176863445177,0.850347918206737,0.026200191143164873,-0.9118816782104263,1.081004185909602,-0.10798681954538264,-0.9004495951312746,0.8446827625705549,0.048193070227730395,0.7253415995073075,0.9667929892124644,0.013115573351205159,0.7153594765043315,1.0381486699405233,0.0,0.0,0.0,0.0
0.030946076888766837,-0.25411043377151155,0.7463050952819223,0.002972080360299215,-0.5261889028879632,-0.0038259829419542532,0.8503539069531117,0.03225238881790434,-0.9170216953664881,1.091973069571126,-0.126261210661042,-0.9159006420350261,0.8307984130456932,0.05567394845222422,0.7305710550329491,0.9622310180654089,0.020969097038579194,0.7201613679018681,1.0440111449356828,0.0,0.0,0.0,0.0
0.03280720586186411,-0.2559976631076606,0.7458315006943989,0.0033697348018573853,-0.5260898187563996,-0.004420113955299123,0.8504108478146583,0.03890909626777047,-0.9207702099371491,1.10028493554268,-0.14286591678442756,-0.9288750622351093,0.8177241786089859,0.06409553439452906,0.7349110290189017,0.9569113154805633,0.030286260329039614,0.7242778876301147,1.050339717251431,0.0,0.0,0.0,0.0
0.03446956848948734,-0.25810162990157814,0.7453613264218101,0.003817125762910705,-0.5258775824252081,-0.005076243345358706,0.8505365539511087,0.04632456020476844,-0.9234502040112484,1.106420074210322,-0.15802196765880303,-0.9371462162525824,0.8063306967559304,0.0733367849796519,0.7384652460982876,0.9508085996574643,0.04103757666848945,0.7276422665556697,1.057275347350241,0.0,0.0,0.0,0.0
0.0359738654069646,-0.2604278918357095,0.7448824739825631,0.004319544960263903,-0.5255429268588158,-0.005819691870870564,0.8507362133743537,0.05458671296096222,-0.9252247966944817,1.110684438935447,-0.17200786580714075,-0.9381308252640598,0.7984787532410718,0.08312855426643537,0.7414051438751987,0.9439472781886507,0.053004452938544847,0.7302203214747293,1.06482812302049,0.0,0.0,0.0,0.0
0.037399292157458984,-0.26291747236370144,0.7444592418889885,0.004891448439159858,-0.5251594393557373,-0.0066616147491957295,0.8509637241837446,0.06355143920977917,-0.9258824423230866,1.1134378019322075,-0.184765678996739,-0.9302116301912969,0.7964819545878883,0.0928128582623933,0.7446381205475922,0.9359423368909674,0.06541077650117619,0.7326164284256341,1.0722142654362832,0.0,0.0,0.0,0.0
0.03891745292449011,-0.2656132675501909,0.7440729899733756,0.00557638400343391,-0.5246873527083621,-0.0076579338299077844,0.8512422932977389,0.07348592295117429,-0.9260832297063364,1.1159388506484185,-0.19688426439788542,-0.9147495050390515,0.7973897271888643,0.10201719293792941,0.7487793458370866,0.9264683890810756,0.07776243586687114,0.7349909717892856,1.0793132820597628,0.0,0.0,0.0,0.0
0.0406301438344922,-0.26857612144112575,0.7436950875211364,0.006423775530657049,-0.5241205036265817,-0.008875712748259271,0.8515736342262837,0.08473700860018349,-0.925917824692891,1.1185798932276656,-0.2091483031603338,-0.8939838782696082,0.7983441959493819,0.11042005006572395,0.754296870305973,0.9153747904266047,0.0895897932433812,0.737330186589646,1.0862768968671372,0.0,0.0,0.0,0.0
0.04257883557277118,-0.2717300670325333,0.7432664014075373,0.007472457283575534,-0.5235467642256413,-0.01035918826436027,0.8519011886771314,0.09721023830146587,-0.9251858612024307,1.1213736753168186,-0.2229392147569586,-0.8694724442962463,0.7971165214665055,0.11701110420282916,0.7615376637925042,0.9035773478721145,0.09941521703587575,0.7394612953443928,1.0933533931401087,0.0,0.0,0.0,0.0
0.04470111018288545,-0.27469678609767684,0.7425243235461885,0.008740188209217445,-0.5232467817170059,-0.012094362896820782,0.8520505506828708,0.10981283503049061,-0.9238515841985394,1.1241511388153451,-0.24003182308718582,-0.841941400806521,0.7920073830696537,0.11939593032387474,0.7698184640346798,0.8957350319691786,0.10358931563071674,0.7403365460557715,1.1021536532840546,0.0,0.0,0.0,0.0
0.046906469957639946,-0.2770977797363632,0.7414799314470591,0.010124791141530044,-0.5231645585658363,-0.013823816022630634,0.8520594083604303,0.12087518438282865,-0.9235291361673865,1.1284491506737042,-0.26021626475846815,-0.8102604231114585,0.7787374750393422,0.1171637937756228,0.7779445924316359,0.8932504232668328,0.10120016244909538,0.7397949698990006,1.111787499003912,0.0,0.0,0.0,0.0
0.04889982719934126,-0.2787414356628366,0.7402905856824026,0.011564102634466871,-0.5233135767455087,-0.015329811907625052,0.8519238045687882,0.12921712492628742,-0.923746455264449,1.1330959453304215,-0.2823940660524158,-0.7740801046858232,0.7516375095175665,0.11036210889218144,0.7851795606050724,0.8958633275403478,0.09222895532664768,0.7377334760728482,1.1211364023851824,0.0,0.0,0.0,0.0
0.05012520381975193,-0.27944589800110364,0.7393135054030691,0.012897632160080833,-0.5235668305338931,-0.016205952703298398,0.8517328173472802,0.13312286597198258,-0.9237801311034369,1.1358356725030032,-0.3024028022277637,-0.7341355126593699,0.7028767639431363,0.10075801487456812,0.789862469543607,0.901387456322197,0.0794678644904526,0.7343347722418772,1.1280100190718303,0.0,0.0,0.0,0.0
0.05018989754930011,-0.27952549725732434,0.7392685603304726,0.01297306353249216,-0.5235336868535454,-0.016200722540461534,0.85175214407789,0.13333473286525918,-0.923822098993071,1.1358665289358407,-0.3024403539714547,-0.734066912921501,0.7028840801776293,0.10062771083155848,0.7899988571541885,0.9011904766826245,0.07955052182776966,0.7343111382545933,1.1282810040555071,0.0,0.0,0.0,0.0
0.05018989754930011,-0.27952549725732434,0.7392685603304726,0.01297306353249216,-0.5235336868535454,-0.016200722540461534,0.85175214407789,0.13333473286525918,-0.923822098993071,1.1358665289358407,-0.3024403539714547,-0.734066912921501,0.7028840801776293,0.10062771083155848,0.7899988571541885,0.9011904766826245,0.07955052182776966,0.7343111382545933,1.1282810040555071,0.0,0.0,0.0,0.0
0.04997394051012013,-0.2805420753623147,0.7428429659133166,0.011075468214347876,-0.5218098250696719,-0.014553677722062694,0.8528657754473172,0.13248131946874514,-0.9245838305464739,1.1391278412859276,-0.3031347664629635,-0.728229029072297,0.7063767548287798,0.055722383133135836,0.7550746140451721,0.9694377189394762,0.12382285047413835,0.7553777900911578,1.101822418144911,0.0,0.0,0.0,0.0
0.04980578763660318,-0.2821340862255151,0.7471258622781545,0.009872514648459705,-0.5206718678615456,-0.013447942378305414,0.8535938684865741,0.13383228879362868,-0.9163087570577276,1.1350519934682688,-0.30091522092807976,-0.7230264257751903,0.713342813241905,0.019229972342306778,0.7300406900512786,1.0210386668598819,0.16019341388890895,0.7780304432968876,1.0696521158808285,0.0,0.0,0.0,0.0
0.04963184267284996,-0.28413325450437454,0.751163397076958,0.00924305037715284,-0.5199149068812089,-0.012838972311363852,0.8540715522790917,0.13717804515648943,-0.9035025665673303,1.1258644512926597,-0.29662756084251324,-0.7206591886589357,0.7234342344659739,-0.006880487512737319,0.7128106308312971,1.0611860442253285,0.18956049469475447,0.7985350884214895,1.0391543237347745,0.0,0.0,0.0,0.0
0.049407558593223516,-0.2864146310915776,0.7547434329956874,0.008980585995783642,-0.5193232192007409,-0.012578643044388485,0.8544381316475251,0.14196774180462057,-0.8887776922354393,1.113385325590576,-0.29101978387185706,-0.7211879565175177,0.7358382442673865,-0.027091330934316562,0.7009221768062466,1.0948398809620894,0.21448972198052563,0.816127521000727,1.0122760024827155,0.0,0.0,0.0,0.0
0.04904873876603547,-0.28884841875130746,0.7578764396675541,0.00890660952926856,-0.5187559946831797,-0.012483517445500065,0.8547847986944701,0.14746223826447796,-0.8735634844478574,1.0986612559092055,-0.2847840919501963,-0.7234013340425365,0.7486391942427004,-0.04386788154315672,0.6920797190242199,1.1243790018720228,0.23705508842643028,0.830780869205052,0.9891657625852104,0.0,0.0,0.0,0.0
0.0484242158187223,-0.2912988903365116,0.7606406259274403,0.008884702908313771,-0.5181755785625812,-0.012410187007748133,0.8551380701933448,0.15295928159118344,-0.8582404343290544,1.081779650966468,-0.27842462966249065,-0.725340677243194,0.7590237591583324,-0.05893229591839475,0.6845723682201096,1.150550222999848,0.25817885921054984,0.8425704651192235,0.9693754137803419,0.0,0.0,0.0,0.0
0.04746913406611761,-0.29378471903953285,0.7630958213865812,0.008853146300423843,-0.5175335076856872,-0.012302193957781609,0.8555286939939286,0.15838779351235138,-0.8427918623177286,1.0624861850810878,-0.2719719738185774,-0.7266809421746306,0.7665929609750203,-0.07362268241903998,0.6775587510411416,1.172785289151051,0.27874178463383087,0.8515276739331555,0.9526714362238841,0.0,0.0,0.0,0.0
0.046117293796092224,-0.2963872015603034,0.76528196742184,0.008768545704323104,-0.5167722808684776,-0.012121521705340418,0.8559921676299203,0.16388132881914266,-0.8270174857337752,1.040181249359094,-0.2652849230264969,-0.7275212833290677,0.7714716619109047,-0.08925641900064381,0.6708549685565011,1.1889317458537292,0.29976112146784156,0.8575479636743473,0.9390352853286843,0.0,0.0,0.0,0.0
0.04430058907330725,-0.2992201606783233,0.7672147238059405,0.008585401866964746,-0.5158159903341795,-0.011825495020953092,0.8565747560241673,0.16965184767686048,-0.8107465485974484,1.014132982136403,-0.25817044578936615,-0.7281976751342072,0.7740240274652166,-0.10738837417802827,0.6652759228405393,1.194658438475626,0.32239192438953107,0.860362256649584,0.9286382651595494,0.0,0.0,0.0,0.0
0.042000110472150166,-0.3023889168288933,0.7689164646830479,0.008265594216064478,-0.5145968763724312,-0.011375658448818743,0.8573169362463616,0.1758977321057662,-0.7938687887306777,0.983852664479496,-0.25047344692423906,-0.7291758677912374,0.7749340582869999,-0.1295849094229889,0.6634259073877216,1.1834383145752851,0.3473675872650041,0.8598332344562833,0.9213560911964039,0.0,0.0,0.0,0.0
0.03924924236928325,-0.30588405419141984,0.7704558895700265,0.007790494371694294,-0.51313316850226,-0.01074715867083503,0.858206361058213,0.1825121146700185,-0.7761028499750804,0.9491630881905665,-0.24226667575424246,-0.7301302272889952,0.7740673615179436,-0.15570641201961363,0.6626355580169574,1.1625146244122877,0.37403238707594627,0.8562768534469993,0.9162295241130458,0.0,0.0,0.0,0.0
0.03612439200958268,-0.30959743582661475,0.7718844575781436,0.007119761068695893,-0.5114308911839569,-0.009891282255275266,0.859237985124293,0.18912700539714422,-0.7578373854655988,0.9108437267687333,-0.2339425221057499,-0.7305562578014809,0.7710377639711966,-0.18639411091538252,0.6621453350811778,1.1372369660099684,0.4012770870490164,0.8500779494463347,0.912080539673813,0.0,0.0,0.0,0.0
0.03273367144673944,-0.3132398156614169,0.7731301951090015,0.006149822037283751,-0.509422694935234,-0.008636521025704872,0.8604511073143004,0.19476258788436157,-0.741470337519866,0.871978088864308,-0.22668125366086508,-0.7297745964902721,0.7648540571523371,-0.22432850749589903,0.6630460889220734,1.110975117973444,0.4281345947009716,0.841202962588272,0.9084368082132965,0.0,0.0,0.0,0.0
0.029199185871004056,-0.31650373479889937,0.7738731459367392,0.004779524310382178,-0.5069873789041509,-0.006858009600489252,0.8619129431001631,0.19865091050718345,-0.7308461737854994,0.8371689309898966,-0.2216703014325627,-0.7284222435774413,0.7555535354582555,-0.2765148232588828,0.6675894172303866,1.086361849652653,0.45346621682648924,0.8282420876408427,0.9072733095609609,0.0,0.0,0.0,0.0
0.025857262585302528,-0.3193253250237776,0.7736082162749052,0.0031360184805987214,-0.5039343677038303,-0.004629441367782625,0.8637238486389341,0.2010987404695863,-0.7304094605454182,0.8123349981682799,-0.21935787544909527,-0.7312761653565872,0.7488611840387377,-0.3458603240312229,0.6770108115860928,1.06557912571872,0.47595756728209315,0.8090792765960816,0.9126547662060948,0.0,0.0,0.0,0.0
0.022866216154002205,-0.3214809106637192,0.7721636285239762,0.0013851924482559362,-0.5002524937740538,-0.0020915749779918764,0.8658759432094374,0.20188402616605403,-0.7422313865540346,0.8011370949450182,-0.22021386643693713,-0.7396605552138753,0.7462239514424596,-0.43430095493382853,0.6892369491914304,1.050988327884141,0.49271534859157173,0.7830352561319928,0.9256542690986982,0.0,0.0,0.0,0.0
0.020671300370625582,-0.3227143315545224,0.7699613545129234,0.00011264433749049116,-0.4963499303813089,0.00013784107827996203,0.8681225229894454,0.20136392963597266,-0.7633545185899612,0.8043330508443689,-0.22369094811060353,-0.7538861858745612,0.7500917860019176,-0.5245538309692632,0.6969018316644303,1.046820135628933,0.4977738371142087,0.7540997453393985,0.941914944963991,0.0,0.0,0.0,0.0
0.020700515294260056,-0.3227562830248007,0.769847476992675,6.235449674680564e-06,-0.49634961487045026,0.0001915627420191092,0.8681227004766036,0.2013810325817563,-0.7635655711138836,0.8040327286431077,-0.22378667152453335,-0.7539667730877657,0.75010701511455,-0.5246152070849163,0.6969003171029067,1.04681769646442,0.4978396307102537,0.7539680015290832,0.941690733935327,0.0,0.0,0.0,0.0
0.020700515294260056,-0.3227562830248007,0.769847476992675,6.235449674680564e-06,-0.49634961487045026,0.0001915627420191092,0.8681227004766036,0.2013810325817563,-0.7635655711138836,0.8040327286431077,-0.22378667152453335,-0.7539667730877657,0.75010701511455,-0.5246152070849163,0.6969003171029067,1.04681769646442,0.4978396307102537,0.7539680015290832,0.941690733935327,0.0,0.0,0.0,0.0
0.020431068079611567,-0.32351043279116476,0.7706669214612316,-9.720139107695868e-05,-0.4984472431816106,0.0001202850588808637,0.8669200204448196,0.2021967960299475,-0.7447340760345622,0.7830562345841,-0.22030290066184974,-0.7408870977055376,0.7382265341722279,-0.5294734428779366,0.707806787111035,1.0433434527931698,0.512470159055654,0.7654655555152424,0.9396775537629436,0.0,0.0,0.0,0.0
0.020548057296370877,-0.3245825628585449,0.7711272959024515,7.983074531177841e-06,-0.49973816815669364,-0.00015677672407507476,0.866176505479525,0.2047833479176785,-0.7311960324304121,0.7678969247777564,-0.21639075531677276,-0.7378117063878247,0.7386899596095929,-0.5322292511937126,0.7158731228884133,1.0402818781470993,0.5251891060124517,0.7734480439587753,0.939681117717774,0.0,0.0,0.0,0.0
0.021204612058393756,-0.3260353458625417,0.7712185138931507,0.00026556346248794775,-0.500473267783682,-0.0005729873305364,0.8657517596837384,0.20907931822388198,-0.7226507921419962,0.7591444987132757,-0.21193565326709785,-0.7443256616069205,0.7522289375576423,-0.5334353005874538,0.7224241571488077,1.0381318674793463,0.5386492388564564,0.7795521886501465,0.9422522125290864,0.0,0.0,0.0,0.0
0.022441516894631173,-0.3279470222878594,0.7707511924641894,0.0006425131981576318,-0.5009040116277672,-0.0010212830472796338,0.865502001900017,0.2149776725554057,-0.7185912362281379,0.756097235348738,-0.20690279621709348,-0.7594922431794879,0.7777531548325208,-0.5335978418243744,0.7277038546905742,1.0390298763596442,0.5566965788194694,0.7845366446580198,0.9499004792249852,0.0,0.0,0.0,0.0
0.024378361573940063,-0.3306379177755417,0.7697325479112228,0.0005795040895036351,-0.5021455493840844,-0.0007090003650398972,0.864782636693897,0.22120647227800297,-0.7150101902873265,0.7540685834458978,-0.20166700160844742,-0.775111093873957,0.8079973352204183,-0.5283046423155369,0.7349788994645811,1.0447454750563128,0.6014140137358915,0.7967498704202809,0.9654394691063894,0.0,0.0,0.0,0.0
0.02765505269866385,-0.3339043476508127,0.7717606189184277,-0.0016501005763721634,-0.5048504410352648,0.002232381191417994,0.8632023666723827,0.22291574175010953,-0.708896194363213,0.7582479858300266,-0.199473045851325,-0.7704750456877688,0.8312201595191715,-0.4893994654621991,0.7576824134505781,1.0228802063552496,0.479565593159909,0.7596566764681694,0.9947432716610877,0.0,0.0,0.0,0.0
0.03139212207532344,-0.33748913737165187,0.7727650022474922,-0.003874644362243558,-0.5080120259666459,0.005229114560150186,0.8613253885525765,0.22566139957162934,-0.7046075058613731,0.7640316917400046,-0.1967132261567956,-0.7690208157063037,0.8584807638544201,-0.4473488692596628,0.7781133775606565,1.0080592854925576,0.36694037243699357,0.7318493171134401,1.0231105229893938,0.0,0.0,0.0,0.0
0.0354717835916938,-0.34125120860833524,0.7730068441631983,-0.005403513495897361,-0.5107298802532237,0.0073717612777414445,0.8596926477492356,0.2311203812626454,-0.7026829195980235,0.7724985263698888,-0.1922163560926062,-0.77729994659142,0.8953545247013726,-0.40877667093326864,0.7956320489171024,0.9966449388096652,0.2827100821659227,0.7150722136522576,1.0523326155079022,0.0,0.0,0.0,0.0
0.039592416976277876,-0.3450106995501708,0.7728233329304371,-0.006272881030359897,-0.512834799385216,0.008600503458388266,0.8584213131343876,0.23884632078645934,-0.7019444701719977,0.7818192264967475,-0.18615538435910067,-0.7927763989698207,0.9376048204715363,-0.375749145050184,0.8108376612227933,0.9865894064294392,0.22280552000046383,0.7069415059938252,1.081548177827753,0.0,0.0,0.0,0.0
0.04336171833618466,-0.34840755588945815,0.7724508645481786,-0.006802733448681045,-0.5145339392244058,0.009367817019055927,0.857391854526353,0.2467165497101583,-0.7015944214747225,0.7902787300809192,-0.18003152873672723,-0.8088450134000695,0.9765829440840399,-0.3471049571587103,0.8235566800412554,0.9779559020451934,0.1776696966113367,0.7024936610812521,1.1106638278562375,0.0,0.0,0.0,0.0
0.046602842950316345,-0.35131947388285634,0.7719207956679728,-0.007159406698973996,-0.5159233519348524,0.009885991184464427,0.8565477832569096,0.253868331203041,-0.7015804887528637,0.7973492698829346,-0.1744818357271718,-0.8234111958720228,1.0097086884597488,-0.32232005881212566,0.8333410279162906,0.9716784685407406,0.14136798628525216,0.6992783850274004,1.1384252700887463,0.0,0.0,0.0,0.0
0.049255685821493346,-0.3537698208977584,0.7711819670466269,-0.007425298423292742,-0.5170711615184624,0.010268280857132921,0.8558486088541081,0.260061452322394,-0.7019133823546119,0.8027014590232898,-0.16968380596735275,-0.8361589964411505,1.036801337513229,-0.30077803950268844,0.8397697411917863,0.9688064517181509,0.11098633598239598,0.6963945481198774,1.163138447948924,0.0,0.0,0.0,0.0
0.05135539744815314,-0.35589703760002717,0.7702682995607625,-0.007639660661019634,-0.5180379891110617,0.010562184604598164,0.8552582754227698,0.26550028954787486,-0.7020766932642456,0.8057471227672282,-0.16539362223629323,-0.8473568163550053,1.0588561358478086,-0.2812158491171907,0.8430764404599714,0.9689739551692309,0.08441560753645608,0.6937211812113538,1.1822769535936235,0.0,0.0,0.0,0.0
0.052903519997734634,-0.3577951698030225,0.7690865085792561,-0.007807268161534739,-0.5188439779899255,0.010779361022585305,0.8547653353075265,0.27038056751055484,-0.7020028178930676,0.8060938479463926,-0.16143435970095643,-0.8576080877611758,1.0766086411726656,-0.2631322781078712,0.8428542311839542,0.9729850276674366,0.06138262915262928,0.6923668304898096,1.1912866822251533,0.0,0.0,0.0,0.0
0.05391769799266191,-0.35953684199953667,0.7675638440772246,-0.007924660629523395,-0.5194916034542959,0.010919260561117751,0.854369032352642,0.2748892453472659,-0.7017152913012891,0.803575754542118,-0.1576549802512716,-0.8675018151590171,1.0907610450404794,-0.24626808102395897,0.838867285511881,0.9813454863300708,0.04210492148303159,0.6951953809578268,1.183449691623383,0.0,0.0,0.0,0.0
0.05442576288599088,-0.36122376256580285,0.7656566521776651,-0.00801184923900059,-0.5200245113824932,0.011000595253837342,0.8540429173860246,0.2792341863373864,-0.7008982334296481,0.7976520846094912,-0.15383455908138452,-0.8773091108161073,1.1018268162003089,-0.2296060487002322,0.8310291081380792,0.9941349550581879,0.02487510936499339,0.699604215868919,1.1650998821377554,0.0,0.0,0.0,0.0
0.054485571709395546,-0.36293769905093937,0.7633776296309063,-0.00809768369232309,-0.5204703005019966,0.01105618473790193,0.8537697901619744,0.28356148460255254,-0.6993621680953312,0.7881507880663788,-0.14983232628378265,-0.8871685594348284,1.1103555171879027,-0.21186389889391533,0.819472354583313,1.0107612203524707,0.007973021003007646,0.7047427291840838,1.140306258873466,0.0,0.0,0.0,0.0
0.054142642981333054,-0.36470098474948437,0.7607412304986352,-0.008226986440343446,-0.5208330098285928,0.01113989773564871,0.853546246694014,0.28784201593717185,-0.6972793841394211,0.7753377915375879,-0.1457115810372202,-0.8970145491055821,1.1165463078607787,-0.1919060937098778,0.8041767126479671,1.0307058209043412,-0.010080187450063432,0.710821395370043,1.1108981280443693,0.0,0.0,0.0,0.0
0.05345955657906937,-0.3664348014574625,0.7577727522001557,-0.008479889867539715,-0.5211039084716403,0.011356875699769297,0.8533755500468446,0.29172283851419173,-0.6955768177330721,0.7606009633842328,-0.14192918816839908,-0.9064072741105309,1.1201962460606698,-0.16892362882186188,0.7851333271856064,1.0535270705032658,-0.030825791048563055,0.7186977864643923,1.0770514861464557,0.0,0.0,0.0,0.0
0.05259437581151197,-0.3679086119595149,0.7545366485167677,-0.00899616071163579,-0.5212390333959553,0.011928468024561396,0.8532799369535695,0.29431770472906704,-0.6969129294407336,0.7480658881468858,-0.13966868949433908,-0.9145554363061152,1.1210697295179217,-0.1421149330488814,0.7624752431940188,1.0785491723189824,-0.0561963690363267,0.7298003977881958,1.0374619868608734,0.0,0.0,0.0,0.0
0.051618416201015115,-0.36906623012060025,0.7512561537220337,-0.009941716447492706,-0.5212162351741473,0.013091521864741421,0.8532663186369368,0.2950058654016359,-0.702431588573063,0.7397465470470879,-0.13963277463662158,-0.9201832751839057,1.1187355132698604,-0.1082774059307546,0.7361367474490871,1.1034988716713212,-0.08869389920777762,0.7452260760530771,0.9888887211698988,0.0,0.0,0.0,0.0
0.05077164186445338,-0.3698428604451468,0.7485802307073466,-0.011410692619903939,-0.5211529061341111,0.014887337523258888,0.8532571779383827,0.29348124849131235,-0.7114266546964182,0.7373891192751081,-0.14195627844752481,-0.9211730856179059,1.1134104389469297,-0.06823059539434703,0.7099836448013878,1.1227913458896426,-0.12553886087803115,0.7667919860115704,0.928937058035625,0.0,0.0,0.0,0.0
0.05081620870732919,-0.36988271222833197,0.7484846225168816,-0.011479370202616449,-0.5212005473498508,0.014928463644851866,0.8532264379841799,0.29351065010603045,-0.7115160274349344,0.7372328880610638,-0.14195080377445085,-0.9211958647777261,1.1134761636253683,-0.06825233116481566,0.709920974323317,1.1227671000465618,-0.125538446874484,0.7668109571210368,0.9289365663680446,0.0,0.0,0.0,0.0
0.05081620870732919,-0.36988271222833197,0.7484846225168816,-0.011479370202616449,-0.5212005473498508,0.014928463644851866,0.8532264379841799,0.29351065010603045,-0.7115160274349344,0.7372328880610638,-0.14195080377445085,-0.9211958647777261,1.1134761636253683,-0.06825233116481566,0.709920974323317,1.1227671000465618,-0.125538446874484,0.7668109571210368,0.9289365663680446,0.0,0.0,0.0,0.0
0.04992793381594294,-0.3700894712271388,0.7493778133071539,-0.0100931273344166,-0.5223444106084033,0.013033841042437225,0.852575254434734,0.2707867240111012,-0.7510793698016759,0.7897600397908119,-0.13619528381625917,-0.9161602243902404,1.106277421447982,-0.09873999666032843,0.724670825366722,1.1193931936913522,-0.15004976554339852,0.7620557575340581,0.9223866821118589,0.0,0.0,0.0,0.0
0.048237036689984795,-0.3715306081659049,0.7504787858117318,-0.008943013198913656,-0.523215032957234,0.01138169351397144,0.8520777598642265,0.24428551557951056,-0.7878467592759495,0.8178708116710681,-0.1275560132525649,-0.9111691204110438,1.0981258450796727,-0.11184231042271155,0.7322463597188124,1.111706181270142,-0.15862771960282832,0.7576028022371053,0.9207383301696367,0.0,0.0,0.0,0.0
0.04621502995560646,-0.37402000598188917,0.7515118860457511,-0.007887639003158272,-0.5238227326007256,0.009937231686442533,0.8517328110317663,0.22037544660273073,-0.8200032213924809,0.8306022929555991,-0.11676303876561825,-0.9084538487523506,1.0921704799524747,-0.10879119553711943,0.733567116237437,1.1016520023838343,-0.15575043282311338,0.7529189804222453,0.9247693015526464,0.0,0.0,0.0,0.0
0.044100398286934905,-0.3772789197566458,0.7523490131811174,-0.006837533032736959,-0.5242571008994615,0.00855345882401293,0.8514896233311736,0.20052969749022162,-0.8477254619703879,0.8344928945397501,-0.10425953559781717,-0.9084390572017819,1.0890375807574872,-0.09627962877847607,0.7313132675336337,1.0907300261582158,-0.1462810849098379,0.7474102028375501,0.9337159049286546,0.0,0.0,0.0,0.0
0.04188069449206406,-0.3808092782144,0.7529736353414752,-0.005820525046432309,-0.5246662956621369,0.007280870057690376,0.8512569462950409,0.18490094568050688,-0.8726599255352624,0.8339717075250105,-0.09140956017608903,-0.908742211833422,1.0856845471382095,-0.08031458867803995,0.7272286479349085,1.0805348614270252,-0.13377497948277306,0.7412108404692017,0.9457013268310616,0.0,0.0,0.0,0.0
0.039558242205066256,-0.38420983189098706,0.7535681397642349,-0.00489184910158412,-0.525009527834932,0.006150845666209824,0.8510600640333792,0.1718890476479925,-0.895011989498012,0.8308533931130968,-0.07930626898972136,-0.9077986780534462,1.0803751267208095,-0.06446663332790728,0.7225649124435769,1.0705656593560122,-0.12046885152584272,0.7351018727339054,0.9572492709179692,0.0,0.0,0.0,0.0
0.0371418836982844,-0.38729782869190793,0.7542428628262015,-0.004073020260232732,-0.5252650923989908,0.005154800900706878,0.8509132865578687,0.1597232227761747,-0.9140103456948141,0.8266257568400831,-0.06840044053114566,-0.9050077641846895,1.0725168229581687,-0.05034820334414061,0.7180205618321137,1.060396661836891,-0.1076872476016352,0.7294033317955321,0.9666089325822236,0.0,0.0,0.0,0.0
0.034572625075189954,-0.3900876739111178,0.7549919482284607,-0.0033546025198432214,-0.5254191435691933,0.004276072416537728,0.8508261781454763,0.14725196287667847,-0.9279415783775127,0.8230339288247149,-0.0586178790102109,-0.900389128329118,1.0618801799590558,-0.03783943635643992,0.7133099546009977,1.0501381400791094,-0.09557349903614382,0.7237138425231815,0.9740528738871238,0.0,0.0,0.0,0.0
0.0317551683349964,-0.3926923965397906,0.7558032957678966,-0.0027103279221920617,-0.5254754692721925,0.003489927778868639,0.8507972765117561,0.13387058570985985,-0.9344967074800157,0.8223748039228468,-0.04960078523319013,-0.8939651188916978,1.048181834274348,-0.026218226196778344,0.708015967281573,1.0397064732414534,-0.08367755105573957,0.7175981591141701,0.9802977600231731,0.0,0.0,0.0,0.0
0.028605529563268776,-0.3952305453530825,0.7566735722329068,-0.0021133480631420447,-0.5254598526642946,0.0027792038441633166,0.8508112323094791,0.11940615770075985,-0.932134393988261,0.8268409981185962,-0.04100273448741437,-0.8855774433945723,1.031009448092288,-0.014832019799008295,0.701925942429354,1.0288769136365021,-0.07149405641704049,0.7108151631186703,0.9859382393401079,0.0,0.0,0.0,0.0
0.025108669637928585,-0.39771203039958464,0.75758568564665,-0.0015593242801562092,-0.5253498468946471,0.002128428563200652,0.8508822343117827,0.10376093141235096,-0.9225840388530943,0.8346847637765341,-0.03277681213128279,-0.8753034949810158,1.0102430744411952,-0.0038782612303163225,0.6950011452720769,1.0176649650121026,-0.05921489206928725,0.7031187851076971,0.991046495955892,0.0,0.0,0.0,0.0
