zhuoxili-jackie/tripod-support-walk/examples/trajectory_tripod_reorder_v0.15.csv
root_pos_x,root_pos_y,root_pos_z,root_rot_x,root_rot_y,root_rot_z,root_rot_w,FL_hip_joint,FL_thigh_joint,FL_calf_joint,FR_hip_joint,FR_thigh_joint,FR_calf_joint,RL_hip_joint,RL_thigh_joint,RL_calf_joint,RR_hip_joint,RR_thigh_joint,RR_calf_joint,FL_foot_joint,FR_foot_joint,RL_foot_joint,RR_foot_joint
0.0,0.0,0.72963,0.0,-0.5231245161092812,0.0,0.852256264656019,0.0,-0.81,0.872,0.0,-0.81,0.872,0.0,0.65,1.0,0.0,0.65,1.0,0.0,0.0,0.0,0.0
0.00045918297634158054,-0.0002630389228628178,0.7295257855010625,-6.171737350028631e-05,-0.5233162959173967,0.00014219804410295223,0.8521385042338937,0.0003177156224072281,-0.8112927769890521,0.8749653008083218,0.00031771562240722704,-0.8119556671977995,0.8765108988098937,0.003074248292634451,0.6507910359403334,0.9998783156284174,0.003074248292634452,0.6519196044214093,1.0020055950096673,0.0,0.0,0.0,0.0
0.0013930765464536842,-0.0005605708008102378,0.7293766217518316,-7.381423147756873e-05,-0.5235572708382215,0.00019762301967460698,0.8519904574870745,0.0009298999340474404,-0.8146715856045079,0.8822662742945427,0.0009302316603146796,-0.8165544265717074,0.8859105259820947,0.00556353741189999,0.6531604695353543,0.9998054857779288,0.005590565336936877,0.6549222719865133,1.0040976966295418,0.0,0.0,0.0,0.0
0.002829873974325079,-0.0008036610952437298,0.7292032968901314,-5.303660974926651e-05,-0.5238638929287935,0.00019713603453683608,0.8518019605577293,0.0015400093693938512,-0.8203440411533837,0.8943449702523185,0.0015411000120282106,-0.8234217209214345,0.8998274578005501,0.00718736175705483,0.6572925840224269,0.9998358679321816,0.007247088932646393,0.6593202302081169,1.0057874912662903,0.0,0.0,0.0,0.0
0.004796370500788348,-0.0009797072268494212,0.7290270740168048,1.6931360499993135e-06,-0.5242529039210689,0.0001434340205724042,0.8515626061271957,0.0021093372696178916,-0.8282084543416863,0.9111973838871322,0.0021114849130635742,-0.8323881925431411,0.9181520666194946,0.00786260462509397,0.6634557979587893,0.9997633958851986,0.007944337957639193,0.6653658937274662,1.0067904594664552,0.0,0.0,0.0,0.0
0.007313124077908735,-0.0011369615897599084,0.7288852579709095,0.00011353110628074013,-0.5247513595037563,2.978823484820531e-06,0.8512555420088459,0.002838238908167078,-0.8377482262927337,0.9323128306594834,0.0028420440569616938,-0.8433356359895249,0.9408639680744525,0.007516125341449172,0.6721257581557495,0.9990613517220176,0.007600232092863761,0.673308438544597,1.0068395395589333,0.0,0.0,0.0,0.0
0.010393009335815745,-0.0013751442634736004,0.7288408360550468,0.0003637487341335989,-0.5254774616090923,-0.0003913063336514245,0.8508073529930712,0.004388987174638123,-0.8473702428500917,0.9561509452099154,0.004397211835677554,-0.8558544661231346,0.967662015989985,0.005113337079919122,0.6845676559785224,0.9970875015523668,0.005161906781964137,0.6833300163137372,1.0056166502334236,0.0,0.0,0.0,0.0
0.013488892623593074,-0.0015993658424260178,0.7285647046742209,0.0005150721745391093,-0.5253738609040554,-0.0004997559581948649,0.8508711954364206,0.005206970853192695,-0.8628060933981097,0.984667239330329,-0.006553756464470289,-0.8530519139957732,0.9352227540505431,0.005012381148363009,0.6930553059340351,0.9949622473652686,0.005072715108440297,0.6910800925712978,1.0047698196601387,0.0,0.0,0.0,0.0
0.01645387341478475,-0.0020763405193032513,0.7281376728195282,0.0007209629852590674,-0.5253650658702012,-0.000746456600895628,0.850876295696452,0.007040503626569172,-0.876190952051468,1.0096422309342676,-0.01760871101751007,-0.8607442797215992,0.9110669474246179,0.005481319187241131,0.7010564184457988,0.9936196986135514,0.005558084688090234,0.6978141999330634,1.0061429794746284,0.0,0.0,0.0,0.0
0.019041494727631537,-0.0027085544371391553,0.7276984980450215,0.0009401959346857154,-0.5254572310467323,-0.001037196657847616,0.8508188635634487,0.00941653246948821,-0.8865229530560476,1.0295210516273312,-0.02786341989361716,-0.8739593627275339,0.8937597097912527,0.006764587525885707,0.7082042531495373,0.992364205859594,0.006871541483113091,0.703701276977296,1.0085785678393626,0.0,0.0,0.0,0.0
0.021173866184098708,-0.0034496799502475384,0.7273211767303889,0.0011483053294282918,-0.5255892682088146,-0.0013252912126233125,0.8507366491116948,0.012096906045564508,-0.8939676591418153,1.0444552305606023,-0.037195778237297125,-0.8896263652624153,0.8804441878944003,0.009058908896189261,0.714238898887776,0.9906938885780686,0.00922330366265244,0.7087889020442496,1.0113592049208913,0.0,0.0,0.0,0.0
0.022869313933127775,-0.0042457452566425965,0.7270150400040833,0.0013374850772025343,-0.5257229552402597,-0.001591187837148921,0.8506533098674119,0.014882490205602323,-0.8990826853780703,1.055240225717499,-0.0457525592737521,-0.9062005890009247,0.8691030195827433,0.012169132658389153,0.719075701774812,0.988677445573168,0.012433765752810796,0.7130601242352248,1.0142235953697591,0.0,0.0,0.0,0.0
0.024194953290409,-0.005047526374068172,0.7267706799279898,0.001509323881233383,-0.5258385110531851,-0.0018329484741431985,0.8505811087337185,0.017629546728372806,-0.9024862171543618,1.0628558895232791,-0.05370421643385376,-0.9227902171056915,0.8585519752170526,0.01569673649602797,0.722843283745627,0.9865009803799653,0.016113865976107263,0.7165492002174415,1.0170217357422755,0.0,0.0,0.0,0.0
0.025226056055790952,-0.005819193153746346,0.7265671337965849,0.0016646756419243431,-0.5259293353662606,-0.002047786219477238,0.8505241734529417,0.020230315691690662,-0.9047283658239619,1.0681807435938697,-0.06116029817746968,-0.9385002232203352,0.848335667453593,0.019341268701233115,0.7256866601528609,0.9843945483919125,0.01996222239319858,0.7193217638615965,1.0197403006082608,0.0,0.0,0.0,0.0
0.026017290070320047,-0.006538961912076221,0.7263782654315984,0.0018056359099668953,-0.525983875184398,-0.002236817218204659,0.8504896821088993,0.022627051339221584,-0.9062535627571408,1.071858551560337,-0.06814045746005926,-0.9520047222086182,0.8386846122786471,0.0228737126547901,0.7276573337699157,0.9825953420278392,0.023738774865901473,0.7213460164376359,1.0224590986486908,0.0,0.0,0.0,0.0
0.02660614566487101,-0.007214492419627585,0.726215049555927,0.0019374427618114027,-0.525996351605944,-0.0024100874326109423,0.8504812025502668,0.024863059751135154,-0.9071878906911897,1.074186318129142,-0.07459718751861093,-0.9613159145897444,0.8307173346587191,0.026211923723471725,0.7289505735315156,0.9809339451802115,0.027348813464919724,0.722723761019348,1.0250419357436351,0.0,0.0,0.0,0.0
0.026995540354393267,-0.007842433578303167,0.7260852736454904,0.002060226084221029,-0.525972903881596,-0.002570599957435386,0.8504949452328933,0.026934856083537358,-0.9074915600964378,1.075161978247878,-0.08059423614067206,-0.9640332694966747,0.8263556152143607,0.029281821701940172,0.7296479929198837,0.9793679215242918,0.03070291740658707,0.7234854471894843,1.0274196778994065,0.0,0.0,0.0,0.0
0.027176555239814732,-0.008421022216802599,0.7259945315616188,0.002177306858313141,-0.5259458899124545,-0.0027264798728497807,0.8505108738437998,0.028852729367908093,-0.9069192787863433,1.0745442328169117,-0.08617838500223243,-0.9585969201459356,0.8276585808407292,0.03197065219821093,0.7298745140570593,0.9779346355099219,0.03366797793317781,0.723674274162476,1.0296006590853957,0.0,0.0,0.0,0.0
0.02717347617289813,-0.009020336038807525,0.7259356316110536,0.0023004144284495803,-0.5258753478009848,-0.0028913780168509005,0.8505536235898442,0.0308354723665911,-0.9056168586082846,1.072462798873313,-0.09117351700236978,-0.9465420588071631,0.8324097462610804,0.03463688131706162,0.7295662243803211,0.9763585001565211,0.03662339347757558,0.7232331314218369,1.0317620040602384,0.0,0.0,0.0,0.0
0.027017305625175826,-0.009711388996101996,0.7259094949223871,0.0024470253574025813,-0.5257497587454947,-0.0030881078122708887,0.8506301586683217,0.03312495374998356,-0.9035433781337501,1.0689242806431656,-0.09551688600683658,-0.9302094547214809,0.8386129510721431,0.037535983504374905,0.7288413375133973,0.9743269463973786,0.03985279450225175,0.7222170081960966,1.0340316192058294,0.0,0.0,0.0,0.0
0.026720666042638726,-0.010534037023431718,0.7259175956453615,0.0026290361886160177,-0.5255775001812663,-0.0033367125072336877,0.8507351208346662,0.03587240854320823,-0.900546426553279,1.0637940955044731,-0.09950684260306586,-0.9114533334847003,0.8450584725187793,0.040731000108893606,0.7278322684313676,0.971687020919212,0.04343576023320962,0.7206640119859213,1.0364896835069641,0.0,0.0,0.0,0.0
0.02628383955987501,-0.011483782794883499,0.7259544922984207,0.002850096516020247,-0.52538330464656,-0.003649340069305411,0.850853067494951,0.039090914457133884,-0.8964759523769971,1.0569294765012203,-0.10378590300865083,-0.8913702225370772,0.8512157994658811,0.04405408432941128,0.7266469231480299,0.9685446457900503,0.04719475679007481,0.718574270831277,1.0391853720923492,0.0,0.0,0.0,0.0
0.02571645906521855,-0.012494300137996026,0.7259915878116978,0.0031085274943340752,-0.5252128158266895,-0.004030251762545098,0.8509556934523368,0.04260984044109377,-0.8913449188887203,1.0484225103655198,-0.1091893975903042,-0.8705588858751155,0.8569285059188202,0.04697626627788494,0.7253809092064176,0.9654618402603012,0.05053705530903101,0.7158983437667078,1.0422033572393716,0.0,0.0,0.0,0.0
0.025069338094583643,-0.01341708333022614,0.7259541535000165,0.003402845148849541,-0.5251446535174401,-0.004471842264847033,0.850994427804142,0.046012788267876414,-0.885530768056406,1.0389259110370208,-0.11638011250385956,-0.8496495184261238,0.8619839643840108,0.04849318005118616,0.7241301647605686,0.9637313524115974,0.05231267918986424,0.7125627967731881,1.0457858475066486,0.0,0.0,0.0,0.0
0.024472352421867908,-0.014068029399394697,0.725792806680124,0.003749120698342343,-0.5252900360483883,-0.004962885096220773,0.850900518212202,0.04877594940785728,-0.8795842915670247,1.0297225880224399,-0.12478554830147433,-0.829960110033016,0.8656024132472883,0.047315222510633644,0.7234578243687677,0.9645127414641914,0.05104043551409213,0.7089138306222564,1.049796578262783,0.0,0.0,0.0,0.0
0.024064329209836484,-0.01430316153514493,0.7255872666846405,0.0041619373565304875,-0.525612572820476,-0.005387066739004358,0.8506968208959227,0.050208832656880316,-0.8746213783155345,1.0227707886811568,-0.13120688055788143,-0.8138530622814671,0.8645488899326759,0.043122266144511257,0.7238551202910642,0.9672471676850202,0.04639032787926677,0.7058084525138614,1.05294765184216,0.0,0.0,0.0,0.0
0.02407596371196552,-0.014321338706636069,0.7255822031658851,0.004176877745245946,-0.5256042645375189,-0.005391102802828052,0.8507018554128376,0.05025082705209684,-0.8746267813491889,1.0227615163723667,-0.13121891705224686,-0.8138281743516287,0.8645647300703782,0.043104798835520944,0.7238815608579137,0.9671939281361507,0.04640578393806362,0.7057855177505677,1.052996303844247,0.0,0.0,0.0,0.0
0.02407596371196552,-0.014321338706636069,0.7255822031658851,0.004176877745245946,-0.5256042645375189,-0.005391102802828052,0.8507018554128376,0.05025082705209684,-0.8746267813491889,1.0227615163723667,-0.13121891705224686,-0.8138281743516287,0.8645647300703782,0.043104798835520944,0.7238815608579137,0.9671939281361507,0.04640578393806362,0.7057855177505677,1.052996303844247,0.0,0.0,0.0,0.0
0.024985117177883702,-0.014488754102312908,0.7275648355378856,0.0035059806193555006,-0.525074324999205,-0.0045593353734894124,0.8510369403189723,0.04883239201414095,-0.8774815523576147,1.0321965066199548,-0.13284021828176493,-0.8132576079075787,0.8726872344553462,0.027084672806457693,0.7032398421454201,1.008573407480129,0.05963482717510957,0.7200017505864436,1.0349872336855743,0.0,0.0,0.0,0.0
0.026168121800619656,-0.014962165210394363,0.7300443949207084,0.0031451895295970373,-0.5248439921525141,-0.004090944247612042,0.8511827981458493,0.04896932564616037,-0.8763253137067066,1.039678616383865,-0.13281032827722652,-0.8129669209525546,0.8836451878299972,0.014442231417412379,0.6875973614735937,1.0432591910220865,0.0703037208103393,0.7370601686942647,1.0127635260182704,0.0,0.0,0.0,0.0
0.027333362753064035,-0.015768041633987984,0.7324284540552238,0.0030177209366954363,-0.5247257216035917,-0.003921908232312706,0.8512569700647129,0.05064833970927811,-0.8729231780024194,1.0444192875729794,-0.13124137093603,-0.8140692919773252,0.896079303376251,0.006299769907261971,0.6756901191660408,1.0730773012517312,0.07974060712252579,0.7532942080312092,0.9916929334316137,0.0,0.0,0.0,0.0
0.028416695825155835,-0.016847895219079593,0.7345700218525728,0.0030391058524502582,-0.5246293226647211,-0.003963526763963532,0.8513161152542368,0.053528759863681344,-0.8684323548824024,1.0470007547185123,-0.1285038513791994,-0.8166980019158706,0.9094820544495209,0.0005605505900365361,0.6666248296251719,1.1002719022565706,0.08874674600297167,0.767840053083577,0.9731385466792066,0.0,0.0,0.0,0.0
0.029393704359626044,-0.018096152339315188,0.7364655789401099,0.00314556328161155,-0.5245173825851408,-0.004105329438695874,0.8513840303105726,0.057066251917965494,-0.8635431378740396,1.048057505512725,-0.125126161289959,-0.8203147150062987,0.9230667323155597,-0.003549522089810267,0.6595463595467412,1.1259417484799086,0.09777892254306664,0.7807278541310855,0.9570836535204499,0.0,0.0,0.0,0.0
0.030177339636364743,-0.019357586184932548,0.7381435161820169,0.003277162374631824,-0.5244100716418446,-0.004267498701766917,0.8514488389928053,0.06065959946823431,-0.8583199327664378,1.0475141798186336,-0.12163816737960811,-0.8236031141455842,0.9349621973088228,-0.006959216102818415,0.65358720650341,1.150555173496093,0.10655982401385522,0.7919514448602069,0.943170549101072,0.0,0.0,0.0,0.0
0.030735669890718794,-0.02053818198229271,0.739612502260689,0.0034022532134708504,-0.5243054661471028,-0.004404021466614079,0.8515120712216957,0.06395542075433512,-0.8530050601346058,1.0456011362478754,-0.11837364492171151,-0.82604620040845,0.9444282422456494,-0.0101286794152699,0.648303230450834,1.1738207888792154,0.11483971968249904,0.8014660870840276,0.9312213179942939,0.0,0.0,0.0,0.0
0.03103642582600421,-0.021605294920078063,0.740855910494617,0.0035033893556921394,-0.5241949713503284,-0.004495865429959534,0.851579206808202,0.0668299304070956,-0.8477368661672894,1.0423308797925483,-0.11545395717578798,-0.8275055981924566,0.9511471793616679,-0.013524811968561402,0.6435937248656118,1.1946631654079287,0.12256392986249787,0.8090553773123855,0.9214410085463998,0.0,0.0,0.0,0.0
0.031023224319160672,-0.02257512075814668,0.7418348535761876,0.003567290484959987,-0.5240596561432223,-0.004532996453049034,0.8516620240358262,0.06930923367631246,-0.8425303308674711,1.037383008573729,-0.11285263641139058,-0.8280142928446981,0.9548909646377454,-0.017762433023651825,0.6397273794406665,1.2107912039158135,0.12998451286933357,0.8142998061945449,0.9144177588776052,0.0,0.0,0.0,0.0
0.030616689067023094,-0.023507138722316034,0.7424974870514139,0.0035794101277654014,-0.5238630507619783,-0.0045068546267260316,0.8517830593119728,0.07153672064302581,-0.8373190157206243,1.030160961381494,-0.11042663099511676,-0.8277451804102857,0.955500111220394,-0.023725344540830876,0.6377372085851167,1.2180537802220983,0.13769881059617434,0.8166230325899779,0.9110045074244391,0.0,0.0,0.0,0.0
0.02975999356699183,-0.024484376492656352,0.7428271784552187,0.00352843472932458,-0.523557655383501,-0.004414166549512241,0.8519715058447467,0.07372746254543129,-0.831976390541799,1.0201169126415044,-0.10796594334724098,-0.8269799198114899,0.9531026629644153,-0.03240422442555167,0.6401211161329979,1.2102617983687418,0.1463925237358977,0.8156680633599406,0.9116759607055377,0.0,0.0,0.0,0.0
0.028437895970538786,-0.02552022849990583,0.7428961102483285,0.0034212151907969386,-0.5231610441525192,-0.004260403329819143,0.8522163259004907,0.0759083193427582,-0.8259999156100357,1.0067720744710245,-0.10541563665163009,-0.8253630989668974,0.9474120431519375,-0.043118757746855745,0.6441579985893442,1.1936418054335542,0.1559210553697054,0.8117435510526001,0.9157566895709911,0.0,0.0,0.0,0.0
0.02666845720451984,-0.026638345020602486,0.7428094788480136,0.003260798064571643,-0.522676609201656,-0.004049584166648361,0.8525151789015364,0.07813289454641437,-0.8189457474484891,0.9898582506546483,-0.10270760164994269,-0.8226540033598341,0.9384572793694167,-0.0554859473158927,0.6485955633768234,1.1724720585891333,0.16623932095059119,0.8054331553238798,0.9221323443067166,0.0,0.0,0.0,0.0
0.024477870605809,-0.02787402543388121,0.7426513589901643,0.003038483896263293,-0.522091440897461,-0.0037746182622378924,0.8528757513343896,0.08046864533867566,-0.810546735214558,0.9692272296889308,-0.09977545891456709,-0.8187786616237083,0.9264374561927478,-0.06976475621165582,0.6529508384883432,1.1494155080823054,0.17756810118551458,0.7972595263629016,0.9298832368455354,0.0,0.0,0.0,0.0
0.02192907136760479,-0.029252183502294565,0.7424625189091225,0.002734626860681332,-0.5213802577777861,-0.0034179609406625377,0.8533132286320834,0.0829488891879523,-0.8009539752865998,0.9452215696141018,-0.09661658557786662,-0.813966335811947,0.911918845178694,-0.08716232627736235,0.6572563462205869,1.1263859652660244,0.19021920267757378,0.7876501156157575,0.9384149159149558,0.0,0.0,0.0,0.0
0.01919223980018133,-0.030764861306597932,0.7422065304483044,0.0023148376734406896,-0.5204852812854531,-0.0029407222563445083,0.8538624395324808,0.085512496710291,-0.7914051366819751,0.9196620560413575,-0.09339652247019724,-0.8092480099718933,0.8965839097019516,-0.11046217873995515,0.6624380852620049,1.1052151395160896,0.20460237674823198,0.7769732354016299,0.9476008969965043,0.0,0.0,0.0,0.0
0.016625264720192105,-0.032264414331182385,0.7417537753226501,0.0017037386251586833,-0.5192447775244267,-0.0022156893485896956,0.8546209972900363,0.0876136259899429,-0.7856498593438406,0.8978552478174845,-0.09090839995386456,-0.8069142704542464,0.8839423592785209,-0.14527923383360072,0.6709219184259148,1.0875624784196762,0.22105828785996853,0.7656193472944595,0.9574551750199606,0.0,0.0,0.0,0.0
0.014488556100941664,-0.03357416277441895,0.7410473591631376,0.000863467683958221,-0.5176231064997586,-0.0011632684742056336,0.8556075156563056,0.08869370845273987,-0.786241994294372,0.8839210181713532,-0.08984904000676593,-0.808047548150343,0.8760375270655334,-0.19654394193995417,0.6829303014237037,1.0758709207106893,0.2391317248182687,0.7541479753452546,0.967637826449749,0.0,0.0,0.0,0.0
0.012960910000938793,-0.03448183233698552,0.739950467746842,6.349498435059442e-05,-0.5158193945822139,-2.9622851175450207e-05,0.856697348696558,0.08868525112058609,-0.7933048307974493,0.8793246584725146,-0.09028435077128984,-0.8132571486433731,0.8737516393725363,-0.2527822685383855,0.6927122382927438,1.0733207931159514,0.253918215284957,0.7419495023391851,0.9789512055635826,0.0,0.0,0.0,0.0
0.012975183095559695,-0.03450548845207744,0.7399171047003125,1.622271290851983e-05,-0.5158187042545346,3.0736353042531293e-06,0.8566977670500544,0.08867387269449871,-0.7933611948515814,0.8792154063292603,-0.09030910493260204,-0.8132615576293436,0.8737597834113665,-0.25278505232885806,0.6927265888250018,1.073321081949115,0.2539316423330682,0.7418739826150746,0.9788866087208244,0.0,0.0,0.0,0.0
0.012975183095559695,-0.03450548845207744,0.7399171047003125,1.622271290851983e-05,-0.5158187042545346,3.0736353042531293e-06,0.8566977670500544,0.08867387269449871,-0.7933611948515814,0.8792154063292603,-0.09030910493260204,-0.8132615576293436,0.8737597834113665,-0.25278505232885806,0.6927265888250018,1.073321081949115,0.2539316423330682,0.7418739826150746,0.9788866087208244,0.0,0.0,0.0,0.0
0.012408308547864934,-0.034669445397259316,0.7401217015841536,1.537393289982445e-05,-0.5167089031616827,-2.8683492397609414e-05,0.8561611462419619,0.08884850935203735,-0.7840839136778995,0.8673432645645318,-0.08948923116775709,-0.8050609779487121,0.8635866828143156,-0.25328252581528654,0.6948353147545405,1.0734511265829894,0.25627278622702443,0.7440319988060584,0.9796808827511814,0.0,0.0,0.0,0.0
0.012214084907657628,-0.034891303232772,0.7401433853890005,6.575835822651818e-05,-0.5172170936482152,-0.0001076741555493377,0.8558542294808199,0.08943079355391248,-0.7790973135801018,0.8610750676845771,-0.08860860542769049,-0.8018603187232202,0.8598508872435018,-0.25371598532618717,0.6962482568342194,1.073930763850892,0.25821388569958476,0.7452048582114084,0.9812190057482743,0.0,0.0,0.0,0.0
0.0125292345162693,-0.03519839554520145,0.7401055458194673,0.00014613760530561974,-0.5175409126792531,-0.00020428350988134676,0.8556584251996667,0.09039521218111983,-0.7776506891891216,0.8605992412603799,-0.08763228487780896,-0.8029096462409738,0.8628774789376823,-0.2542407825158287,0.6985928734936989,1.0738394304266576,0.2610623226952285,0.7472952204650234,0.9826401076749841,0.0,0.0,0.0,0.0
0.013423243786031502,-0.035634720880182595,0.740044299586754,0.00025648429523080494,-0.5177668787883616,-0.0003133953299488786,0.8555216509410686,0.09183274920046579,-0.7793629576710897,0.865880057716233,-0.08645068563667174,-0.8080544144125008,0.8729922922390287,-0.2548318152968775,0.7025575293250907,1.072827320937815,0.2656314261990217,0.7511174615186562,0.9837908430177977,0.0,0.0,0.0,0.0
0.01494378158647957,-0.03624680472760677,0.7400250176376315,0.0003995810340768196,-0.5179650770739089,-0.00042651355554793773,0.855401564969929,0.09382997216761645,-0.7836540478622447,0.8765434251987372,-0.0849533138338647,-0.8169290831173088,0.8901611341944152,-0.255305033985412,0.7088086828617373,1.0702407953661004,0.27276080378220413,0.7575328345836521,0.9842228586989539,0.0,0.0,0.0,0.0
0.017186166571560465,-0.03708192105945745,0.7403251956566093,0.00048776059246433926,-0.5184045287223229,-0.00043624932392371846,0.85513526203538,0.09622604516491227,-0.7886177751104801,0.8913893385441224,-0.0831812591076413,-0.8271616574312071,0.9129596274463546,-0.25446363975982556,0.719408187764201,1.0637880401566422,0.2856507591560501,0.7697919042025032,0.9818680836858735,0.0,0.0,0.0,0.0
0.019839447923882425,-0.03852971991473724,0.7420227296941807,-0.0006384719400375209,-0.5196586994508071,0.0009610581438172589,0.8543731648442158,0.09707564687805224,-0.7891341716286693,0.9042348401923483,-0.0826182743841406,-0.827072267487831,0.9315271126570391,-0.22784768918375106,0.7333306890568233,1.043333346539636,0.21783849129491822,0.7404016495075647,1.0122256883060061,0.0,0.0,0.0,0.0
0.022642567652405812,-0.040086072492358696,0.7434714183209683,-0.001589724099231171,-0.5208670452362769,0.0021297696027121143,0.853633679071742,0.09880850853349316,-0.7901595535719984,0.9176511226957357,-0.08126739379675625,-0.8293322589270862,0.9525042842450644,-0.20219586216629265,0.7470673519062543,1.0236926152219283,0.15932221226054283,0.7169619241220456,1.0387634201556992,0.0,0.0,0.0,0.0
0.02524852970234297,-0.04149522029414805,0.7446220675172643,-0.002166812156819638,-0.5217774016044021,0.0028447798350774716,0.8530741792644562,0.10119388126550732,-0.7916202505589118,0.9303694442515339,-0.07932985495613191,-0.8339317462494394,0.9735847439402333,-0.1826786297169634,0.7596868164334795,1.0063844588375241,0.11971814514132581,0.7004364518788795,1.063352271509495,0.0,0.0,0.0,0.0
0.027480896722506507,-0.04266061535145148,0.7455553966063524,-0.0025120739350592038,-0.5224454045236421,0.0032792866345466116,0.8526627323014894,0.10354910183208167,-0.7930222021714866,0.9413490168702052,-0.07740037610152996,-0.8388048241212351,0.9920837842187092,-0.16820129213850074,0.7706649236049309,0.9915854802482393,0.0928585574202919,0.6884014443449827,1.0871981745119494,0.0,0.0,0.0,0.0
0.02930745788659846,-0.0435939905564193,0.7463541311563465,-0.002740270365627557,-0.5229457825211801,0.0035675209871489275,0.8523540768105942,0.10558524493090048,-0.7940282279886985,0.9502300937461976,-0.07571840725643748,-0.8428926878055579,1.0071710997694379,-0.15710755705794366,0.7799663609398274,0.9788780602238647,0.07306963848462036,0.6789230304677529,1.110667074873534,0.0,0.0,0.0,0.0
0.03076528635433392,-0.04435499589751915,0.747061069014309,-0.002912745986858503,-0.5233313113658666,0.0037813763980668897,0.8521159285258283,0.10729167221004322,-0.7945132888490023,0.9570462594111859,-0.07428274521985143,-0.845980470218015,1.0191009891359568,-0.14805963825675725,0.7877068054551096,0.9678380640606401,0.05696887920000201,0.6708523715391577,1.1336537626010108,0.0,0.0,0.0,0.0
0.031905830706381894,-0.04501830514566709,0.7476707182425446,-0.0030554129204937684,-0.5236374410637857,0.00395288063936005,0.8519265634447059,0.10879162256838747,-0.7944697854616933,0.961905925637023,-0.07297655819720018,-0.8482808329597286,1.0284863112903748,-0.14008725782008993,0.7939207536189989,0.9583388908343748,0.04286800909154922,0.6636045650864402,1.155611119534068,0.0,0.0,0.0,0.0
0.03276239019035646,-0.045653672026263865,0.7481324323093016,-0.00317410081316802,-0.5238872322614163,0.004091478659732039,0.8517718900972711,0.1102459527106886,-0.7939468654920779,0.9648229509804466,-0.07164997958375299,-0.8501665974901129,1.0358892803294375,-0.13255461645288164,0.7984338882370589,0.9506832465738153,0.030129180855685327,0.6569929193653979,1.1753309104300234,0.0,0.0,0.0,0.0
0.03333456973560772,-0.04631066149915252,0.7483579184822959,-0.003263458611402503,-0.5240921236884389,0.004193728013092347,0.8516450013773262,0.11178883974058,-0.793037872429159,0.9656747865051257,-0.0701779309516126,-0.8520249648101101,1.0416205052809204,-0.1251736265156384,0.800819682764473,0.9456344088556432,0.01880966450734063,0.6512888585026301,1.1905105385152344,0.0,0.0,0.0,0.0
0.033594323039173576,-0.04700807687285629,0.7482404662122251,-0.0033115641474851213,-0.5242492589669039,0.004248551437463376,0.8515478247439966,0.11348983966068599,-0.791906753479443,0.9643044970029346,-0.06849889166646105,-0.8542023164161214,1.0457388785775588,-0.11803255165790204,0.8004940842519095,0.944257121289329,0.00950932021715627,0.6476468793424233,1.1971190088966965,0.0,0.0,0.0,0.0
0.03353041795352767,-0.04774260412247609,0.7477132055491235,-0.0033073238953981905,-0.5243451824916339,0.004248271280354837,0.8514887805471042,0.11535746717459694,-0.7907701996816426,0.9607735849387442,-0.0666167117471829,-0.8569713399591562,1.0483328055014514,-0.1113656069914106,0.7971107385380556,0.9472276875258142,0.0031031505807073197,0.6487816912278942,1.1891774977077232,0.0,0.0,0.0,0.0
0.03316778043195265,-0.048569060305360366,0.7467937749947868,-0.0032619435257609936,-0.524409802869208,0.0042001728186924,0.8514493977491594,0.11751660759110365,-0.7893633481762149,0.9548526873603643,-0.06439593255224178,-0.8603127862223564,1.0496067164966096,-0.10456891392790366,0.7908452476628657,0.9541587168324943,-0.0015305930716600653,0.6520532022652806,1.1726389689636616,0.0,0.0,0.0,0.0
0.03255597153895075,-0.049515243250914595,0.7455425860074609,-0.0031917162062721316,-0.5244620088535203,0.004121660401172661,0.8514178915976137,0.12000562284211755,-0.7875297743210999,0.9466261438331299,-0.06179512046240099,-0.8641209488030804,1.0498159602948658,-0.09713316529686958,0.7821370436784529,0.9642110164188574,-0.0053202190334472235,0.6563800075989309,1.1514526422031404,0.0,0.0,0.0,0.0
0.031733233272563825,-0.050562022174594434,0.7440135633317672,-0.0031167520051732147,-0.5245099622006951,0.004035065824557888,0.8513890436533437,0.12273408827421037,-0.7852853067662876,0.9363603324790574,-0.05890714927920049,-0.8681839093247138,1.0489826288708604,-0.08890392565384564,0.771363816216003,0.9767423231597322,-0.008913683345038175,0.661577991314486,1.1277748298007406,0.0,0.0,0.0,0.0
0.030733195771449444,-0.05163444753750863,0.7422429124413773,-0.0030665255197037467,-0.5245599199589955,0.003976884701147613,0.851358720623641,0.12544201151197715,-0.7829051533324092,0.9246239226680286,-0.05600623444828027,-0.8721617607384466,1.0468853195917691,-0.08005250906587545,0.7588061148353261,0.9914575920142864,-0.012818842626066643,0.6679769282330469,1.1025942495511576,0.0,0.0,0.0,0.0
0.029651069610264418,-0.05257897054998531,0.7402531235369703,-0.003089192532039869,-0.5246068711165078,0.004006158016644462,0.8513295709446451,0.12765021601491652,-0.7813874552530204,0.9131083280368624,-0.053635458759003225,-0.8758291594913162,1.0435608293857457,-0.07114612974903267,0.7448523277445878,1.008311613872836,-0.017936017559263728,0.676394401728575,1.076001826123103,0.0,0.0,0.0,0.0
0.0285165788007063,-0.05330147024473472,0.7380924361733538,-0.003244203645722434,-0.5246665368519131,0.004225762736584201,0.8512911623996923,0.12889475299477968,-0.7812174170520048,0.9026397319993087,-0.052286067957937575,-0.8785563243894969,1.0385433367309893,-0.06165296925262195,0.7295784998060508,1.0269504499310982,-0.02466847451168659,0.6875613548528304,1.0473541154220216,0.0,0.0,0.0,0.0
0.027387809751598872,-0.053753504224363355,0.7359169926418191,-0.003604802132757113,-0.5247792653931745,0.004707852582984974,0.8512176949165475,0.12889958801603257,-0.7823794445650213,0.8938024044272327,-0.05223348285820061,-0.8795054010558353,1.0315441021503344,-0.050842562364392704,0.7137169972310716,1.0459593836387853,-0.03460757561760286,0.7021316242166443,1.014932456537388,0.0,0.0,0.0,0.0
0.02652570704891076,-0.05394646865652088,0.7342129519492699,-0.004219290785379852,-0.5250309355816092,0.005485029145823675,0.8510550092225755,0.12762778716764622,-0.784228979305931,0.8879801432054457,-0.0534886828304475,-0.8777181686474298,1.0237276201101384,-0.03802988161372818,0.7003069287874771,1.0607805334345086,-0.04669122971808563,0.7206786817202788,0.9776208163770437,0.0,0.0,0.0,0.0
0.026540743890167875,-0.053952738539289384,0.7341748052331502,-0.004228886261772713,-0.5250425919291485,0.005489442533336893,0.8510477420227257,0.12763561658464903,-0.7842431277468743,0.8879250483025343,-0.053485170209323425,-0.8777535396689081,1.0237346431327474,-0.038015768913450154,0.7003040298414812,1.0607910083326155,-0.04669575008034918,0.7206879842663363,0.9776158250638184,0.0,0.0,0.0,0.0
0.026540743890167875,-0.053952738539289384,0.7341748052331502,-0.004228886261772713,-0.5250425919291485,0.005489442533336893,0.8510477420227257,0.12763561658464903,-0.7842431277468743,0.8879250483025343,-0.053485170209323425,-0.8777535396689081,1.0237346431327474,-0.038015768913450154,0.7003040298414812,1.0607910083326155,-0.04669575008034918,0.7206879842663363,0.9776158250638184,0.0,0.0,0.0,0.0
0.026903255971057874,-0.054092736185369604,0.7343134299048049,-0.0038248376157723808,-0.5249802105815382,0.004972604558024361,0.8510913125622221,0.11961025512500713,-0.799757649421263,0.887611145698063,-0.05200083181210175,-0.8811270374458067,1.028691052555889,-0.044399693754193,0.7042760585366444,1.0589303433332933,-0.05249187151642226,0.7201323869483126,0.9755629822588748,0.0,0.0,0.0,0.0
0.02741058283605363,-0.054664626977706056,0.7344044584027151,-0.0034767600374365688,-0.5249941170793957,0.0044261138138065904,0.8510872450508086,0.10939832948728197,-0.8195557232508259,0.8831762775082297,-0.04926925449419592,-0.8859071737771829,1.036154287691957,-0.04696489645143843,0.7081510415995901,1.0561279370230408,-0.0547863868209124,0.7203823410779921,0.975448904330357,0.0,0.0,0.0,0.0
0.02792551690918457,-0.055528347676125626,0.734402054579495,-0.0031536118292728155,-0.5251224305024399,0.003929120685331879,0.8510117800161644,0.100661693997781,-0.8407090369028366,0.8777260577439588,-0.045872207550036626,-0.8909423045691811,1.0441675692154846,-0.04641406707030754,0.7113877988849057,1.0533688478519336,-0.054350389869566466,0.7209454715926659,0.9775153306265948,0.0,0.0,0.0,0.0
0.02829192361370839,-0.05649782634479634,0.7343643985473245,-0.002858170066094444,-0.5252956100889529,0.003500684698184054,0.8509078082211915,0.09409447110003276,-0.8616896697419066,0.8718692916943627,-0.0423359525399025,-0.8952370136980109,1.050924462859052,-0.04405179871074156,0.7136723035270867,1.0508007946849283,-0.05233014158517676,0.7213616930516287,0.9806604534309027,0.0,0.0,0.0,0.0
0.028461035231320257,-0.057437561648949774,0.7343634902051177,-0.0025943048308936694,-0.5254776705250535,0.0031401534879627368,0.8507976415094719,0.08916842954578458,-0.8819956200835669,0.8656940467836812,-0.03901374182825092,-0.8982287120917335,1.0556237237757362,-0.041005755906586144,0.7152185900891463,1.048232269540632,-0.04968304024237543,0.7216273763752393,0.9837343474988416,0.0,0.0,0.0,0.0
0.028415728661328833,-0.05829463644294715,0.7344161556830285,-0.0023608250436952705,-0.5256450473892982,0.0028329315259023368,0.85069600043681,0.08506832912464116,-0.9014024537816854,0.8590569620472314,-0.03601463204676209,-0.8998364882190159,1.0580752785818028,-0.037892903526839626,0.7160994258335817,1.0456880380167137,-0.04693391720884929,0.7215994915296293,0.9863703917036928,0.0,0.0,0.0,0.0
0.02815218571247276,-0.05906438665721559,0.7345313228474596,-0.00215339977995271,-0.5257820510033018,0.00256236232358003,0.8506127391542356,0.08106138370924176,-0.9194041993428772,0.852010323370729,-0.03331536193789192,-0.9001368581746926,1.0583409759765712,-0.03495409220200207,0.7163715327789153,1.0431051058632912,-0.044292654145916904,0.7211851574354314,0.9884425155181648,0.0,0.0,0.0,0.0
0.02765087660202072,-0.05977754632814446,0.7347126096811329,-0.0019633833167453686,-0.5258757348226916,0.0023115352221233423,0.8505560025392582,0.07664730410390037,-0.9348708428843878,0.845058378339834,-0.030797514968065178,-0.8992208292134569,1.056457372679175,-0.03214207488780412,0.7159855094789674,1.04037752083152,-0.04171739313500838,0.7202521129602086,0.9900238924243153,0.0,0.0,0.0,0.0
0.026860202754007426,-0.06049424340192807,0.734958098656086,-0.0017771251669215405,-0.5259157170650816,0.0020644748431615416,0.850532326436617,0.07161081942218643,-0.945934211161289,0.8393595691597713,-0.02826753051485041,-0.8971068502424197,1.0522746064244655,-0.029174032321373677,0.7147395011259848,1.037396124128075,-0.03894869268289916,0.7185756390755341,0.9913877404580643,0.0,0.0,0.0,0.0
0.025703326470882356,-0.061291997333227516,0.7352644102292678,-0.0015781641853689506,-0.5258980920180715,0.0018083410834801134,0.8505441999755697,0.06603533326740206,-0.9503083512008719,0.8366921152805683,-0.02549565248112062,-0.893695776774156,1.0454348580413693,-0.025624540998341577,0.7123478770303433,1.0340388855616387,-0.035585152302313156,0.7158886352901975,0.9929188821275248,0.0,0.0,0.0,0.0
0.024125498994483564,-0.062208644317773926,0.7356699446831315,-0.0013582435871841731,-0.5258402337687441,0.0015457182060109893,0.850580868865282,0.06009087304462224,-0.9465015462826387,0.8388637857994713,-0.022396545747197707,-0.8885827949434976,1.035407301435412,-0.021269957133193726,0.7088637478658136,1.0299092191255899,-0.03139602069269209,0.7122767673346466,0.994476629482599,0.0,0.0,0.0,0.0
0.022108450227243233,-0.06321359785655899,0.7361727472063367,-0.0011242329707006871,-0.5257137569689442,0.001278998654956624,0.8506598297770185,0.05375827994827005,-0.9360886543307773,0.844055718416686,-0.019066536449488955,-0.8816975794475483,1.0219360701863776,-0.016400541912085564,0.7042328624795706,1.0250322347282552,-0.026615516397122476,0.7075904771646176,0.9958900480324406,0.0,0.0,0.0,0.0
0.019657932996779877,-0.06426062681571679,0.7367716185515157,-0.0008854067515716947,-0.5255119085768426,0.0010138860668680322,0.8507851797215628,0.04696180801422314,-0.9214502770425341,0.8505566527848571,-0.01564983385201653,-0.8728904177575714,1.0047642513435755,-0.011395005515174608,0.6985627867649196,1.0194563481851504,-0.021585158382123625,0.7018267512387109,0.9969113750712485,0.0,0.0,0.0,0.0
0.016793173798604084,-0.0653106131638146,0.7374581360024676,-0.0006484998734768317,-0.5252403145825235,0.0007556978276385968,0.8509533596537234,0.03966785301638341,-0.9045406098017365,0.8574042940821258,-0.012270262905091922,-0.8620269776075499,0.9836866130334043,-0.006557615135804671,0.6919994942512292,1.013262514287553,-0.016605364202103394,0.6950401949339272,0.9973734215818744,0.0,0.0,0.0,0.0
0.013564606788589381,-0.06634001367797362,0.7381799761365719,-0.0004160233148564287,-0.5249119508595039,0.0005045459469942669,0.851156281891204,0.03185831082557182,-0.8865604846407753,0.8643569512536796,-0.008997545525471003,-0.8492429814576412,0.9588184368778065,-0.0020926330829119802,0.6845978165953407,1.0068485709114476,-0.01190349397468076,0.6872028629957139,0.9975231213056919,0.0,0.0,0.0,0.0
0.010119334801602056,-0.06731301946848839,0.7388248569653926,-0.00019060701594231965,-0.5245573380681724,0.00025850701358242387,0.8513750618393296,0.023478026450486147,-0.8681114000124552,0.871760939809367,-0.0059247901916712215,-0.8351911799046591,0.9311010327024825,0.0017385958114401788,0.676459370470266,1.0011379583189752,-0.007781570020784813,0.6783421560928503,0.9980359126654876,0.0,0.0,0.0,0.0
0.006908412753126862,-0.0682166982056114,0.7392283249498469,1.044979364704247e-05,-0.5241166704177639,3.660013631266885e-05,0.8516464726290064,0.015036868735900518,-0.8487980684573294,0.8785531891136784,-0.0031302517642998236,-0.8227943214282554,0.9051293972117644,0.005166102619943942,0.667932416422087,0.9970094592032098,-0.004064522848075922,0.6690004594327994,0.9997254742336293,0.0,0.0,0.0,0.0
0.00420524498034037,-0.06887056687219562,0.7392960158198243,0.00016045834620350934,-0.5236741780010182,-0.00012820360000141457,0.8519186070933736,0.007095041517955102,-0.8309128744035015,0.8847605333020514,-0.0011291535750852979,-0.8128878505014362,0.8828123061328009,0.007391176441083299,0.6594825459944721,0.9959081190323584,-0.001592127777274209,0.6597648411510146,1.0028308750842503,0.0,0.0,0.0,0.0
0.0024446200422916075,-0.06923580739291729,0.7391307836715446,0.0002541815009806052,-0.5232728111663781,-0.0002275357907304077,0.8521651534258277,0.0016199339360138242,-0.8183204910424937,0.8884050375875961,-1.391852806434564e-05,-0.8073057199310567,0.8684404083947418,0.008413837781976137,0.6528167755027673,0.9968746356861279,-0.0004096651437837508,0.6525128717722014,1.0061159868777592,0.0,0.0,0.0,0.0
0.0024547058735879296,-0.06925798867406013,0.739107562829782,0.00026849288410177107,-0.5232562429861013,-0.00022368477440453798,0.8521753235413256,0.0016291785326419611,-0.818326709450599,0.8884155995420575,6.364477226335945e-06,-0.8073377515262024,0.8683120886699831,0.008409199641213857,0.6528358776495818,0.9967739583974851,-0.00040750936340215095,0.6524547256852392,1.0061662914833307,0.0,0.0,0.0,0.0
0.0024547058735879296,-0.06925798867406013,0.739107562829782,0.00026849288410177107,-0.5232562429861013,-0.00022368477440453798,0.8521753235413256,0.0016291785326419611,-0.818326709450599,0.8884155995420575,6.364477226335945e-06,-0.8073377515262024,0.8683120886699831,0.008409199641213857,0.6528358776495818,0.9967739583974851,-0.00040750936340215095,0.6524547256852392,1.0061662914833307,0.0,0.0,0.0,0.0
0.0024547058735879296,-0.06925798867406013,0.739107562829782,0.00026849288410177107,-0.5232562429861013,-0.00022368477440453798,0.8521753235413256,0.0016291785326419611,-0.818326709450599,0.8884155995420575,6.364477226335945e-06,-0.8073377515262024,0.8683120886699831,0.008409199641213857,0.6528358776495818,0.9967739583974851,-0.00040750936340215095,0.6524547256852392,1.0061662914833307,0.0,0.0,0.0,0.0
0.0028003852583382907,-0.06971957331869165,0.7389825875705549,1.319404765373963e-05,-0.5232232389148525,6.285148245337e-05,0.8521956571909173,0.0021870780240775102,-0.8204505058720576,0.89120507109299,0.0005518741726378642,-0.8099573031949292,0.8731041883577773,0.014946715072796699,0.6519301388537228,0.9954719527649534,0.006208196154613578,0.6541821942989839,1.008740524806584,0.0,0.0,0.0,0.0
0.0036308562438298543,-0.07021327731376747,0.7388224286175215,-9.93900719882567e-05,-0.5233159963419384,0.00019485188273122127,0.8521386742350108,0.003160644750063797,-0.8239396844538618,0.8976923888470596,0.0015145810634787772,-0.8150894806662584,0.8827561063955516,0.019894071327710296,0.6531505258271371,0.9944041830068665,0.011284811245904273,0.6569648235723803,1.011380351582203,0.0,0.0,0.0,0.0
0.004987416719770507,-0.07060065760519706,0.7386339559515688,-0.00011137089239667404,-0.5235536228830141,0.00021724999305838493,0.8519926903237113,0.004106496580252922,-0.8292855655200239,0.9087112425882949,0.0024509714878056294,-0.8222452318855699,0.8967339948314058,0.02296416364628715,0.6565953796773755,0.9938935781615286,0.01442829083030277,0.6611571470251405,1.0135588624862732,0.0,0.0,0.0,0.0
0.006904088327731259,-0.07085883719393889,0.7384309705646871,-3.553603731238052e-05,-0.523939759975988,0.0001425630479354391,0.8517553089527952,0.004942325406998273,-0.836598890837936,0.9245092584832946,0.003277810327013471,-0.8313245991166729,0.914999553499277,0.024179098007589533,0.6624460080129214,0.9937837033827714,0.015595290671542274,0.6670050200819264,1.0149966513337796,0.0,0.0,0.0,0.0
0.009413507978717381,-0.07105422844994502,0.7382562353550626,0.0001895848358880775,-0.5245505378379918,-0.00010085488714840963,0.851379285124882,0.005994391149684688,-0.844968606064424,0.9442717611129192,0.0043203969833663204,-0.84211383302092,0.937518764966278,0.0230897976122143,0.6715368235812497,0.9935517985041704,0.014275218646755773,0.6747965820768391,1.0154654275517332,0.0,0.0,0.0,0.0
0.012562010016667765,-0.07133748951547626,0.7382102407322011,0.0008198747979025425,-0.5257305562722417,-0.0008757965646930896,0.8506503059350371,0.008476466879804854,-0.8508643465546377,0.9649005177696561,0.006795145284380832,-0.8535760763839756,0.9636216524864638,0.01653599083653499,0.6868307923063577,0.9926504137330311,0.007115209260411241,0.6848088103053461,1.0146208762088955,0.0,0.0,0.0,0.0
0.01582984557097876,-0.07160082011969425,0.7378665386724356,0.0009491319650411753,-0.5255917025991924,-0.0009372633010744034,0.8507359066390107,0.009315588480947736,-0.8674173526065643,0.9950048885420647,-0.011322884226003341,-0.8493144962020859,0.9293676346787229,0.017257640032968993,0.6952994962989177,0.9905193638907979,0.007702467909896905,0.6929630529487485,1.0140983861692154,0.0,0.0,0.0,0.0
0.019052706024982772,-0.07220834159304422,0.7374111983911695,0.001244305411231443,-0.5256341427431911,-0.0012915195231839045,0.8507088407110833,0.01176513218560436,-0.881026576742352,1.021079287134599,-0.031264210675703584,-0.8551548125058509,0.903672359453959,0.01753948292592356,0.704475859023362,0.988716462840509,0.007790542550534507,0.7003145052461367,1.0156054849462295,0.0,0.0,0.0,0.0
0.021922800410849524,-0.07305250460770733,0.736918409640603,0.0015718345708309732,-0.525771493297773,-0.0017371832256539348,0.8506226239443389,0.015100443713740487,-0.8914867251580278,1.0419332428276944,-0.05026280997149099,-0.8666065010125624,0.8849383242010258,0.018791825488855503,0.7128622418754287,0.986905281811764,0.008882008235659504,0.7067042826367143,1.0185436108479013,0.0,0.0,0.0,0.0
0.024339136441754776,-0.07408984825593382,0.7364698761033766,0.0018635749811978103,-0.5258821071226941,-0.002175853176955029,0.8505526451428136,0.01897896874471135,-0.8993231696233487,1.0579345468656052,-0.06759683884894646,-0.8806610143682844,0.8701334369595258,0.02190762112803621,0.7197643738835884,0.9843701156539375,0.011953242788858655,0.7122089368248785,1.0221347925895259,0.0,0.0,0.0,0.0
0.026322978192815445,-0.0752623658146775,0.7360845539872264,0.002115397101165357,-0.525934781073609,-0.0025825473627435636,0.850518348774016,0.02317393737477282,-0.9050498161077141,1.0698696174528683,-0.08336919815371681,-0.8957087720386365,0.8572517722177436,0.026716361630272766,0.7251391478497359,0.9811285003937653,0.016887786436187407,0.716908123637568,1.026048527760086,0.0,0.0,0.0,0.0
0.027956314881401254,-0.0765055556557984,0.7357412653934765,0.002346161939382445,-0.5259448844163891,-0.0029619294506656557,0.8505102592293138,0.02750787176163713,-0.909188352340849,1.0787037204076655,-0.0979459193445399,-0.9107814557332093,0.8451675931663027,0.03253823192118173,0.729262728924602,0.9775840174772262,0.023035323187273776,0.7208748154691152,1.0302181961304624,0.0,0.0,0.0,0.0
0.029338707243547816,-0.07778167957824865,0.7354115192940474,0.0025780428800340352,-0.525929973565676,-0.0033304542599845014,0.8505174452499715,0.031907682131855145,-0.9122229465230768,1.0853640069962434,-0.11161563612613137,-0.9249778765358354,0.8334567347712144,0.0387524281357503,0.7324950265363164,0.9740674968659228,0.029774871201774786,0.7241969002436737,1.0346610408802075,0.0,0.0,0.0,0.0
0.03056447566503511,-0.07909588842205409,0.7350923170955015,0.00283180359874486,-0.5258916643830783,-0.0037118318245658185,0.8505387472215948,0.03643929671079662,-0.9144882598225528,1.090581886543114,-0.12446198364948181,-0.9369943412177776,0.822381325941683,0.045035551933672355,0.7352481987210543,0.9704870540521847,0.03676959989524929,0.7270505651667454,1.039263005437404,0.0,0.0,0.0,0.0
0.031690005234456635,-0.08046471814902764,0.7347809632087754,0.003116441338215226,-0.52581575690798,-0.004120071396808148,0.8505828017261804,0.04118282042396069,-0.9162320442065879,1.0948086446938783,-0.13647113709882233,-0.9448832085537311,0.8129553926314737,0.051321147549900706,0.7377099231524431,0.9667120188407434,0.04394905380274732,0.7295161889760108,1.043978598651696,0.0,0.0,0.0,0.0
0.03272982672538574,-0.08189866942606287,0.73447163799795,0.0034332778079869085,-0.5256975199305439,-0.004563853420036264,0.8506523975069541,0.0461911512262186,-0.9175095783122705,1.0981349299765903,-0.1476324650878587,-0.9463050343506746,0.8070181940426071,0.05759364451401032,0.7399182409012258,0.9627326867821964,0.05129825711069646,0.7315773814580702,1.0488535777944967,0.0,0.0,0.0,0.0
0.03369356980861913,-0.08341742902668953,0.7341717983506704,0.0037980022006343464,-0.5255665063183631,-0.005069448065962653,0.8507289364491492,0.05157585366545704,-0.918052463335262,1.1003612283766562,-0.15788541614625898,-0.9397032702093709,0.8065419818519537,0.063687782847352,0.7421238301264897,0.9584678483575648,0.05862699460835041,0.7332933223471534,1.0538870022423568,0.0,0.0,0.0,0.0
0.03462336258544097,-0.08512546017108034,0.7338811246924806,0.004221643663330342,-0.5253431249395262,-0.005661311853268549,0.8508611686706905,0.0576897210714789,-0.918141619907839,1.1017725224909123,-0.16724993876723857,-0.926558695707923,0.8091043376165744,0.07012168341514768,0.7442690880914289,0.9533405956050597,0.06655317946909428,0.7346098560966208,1.0591881329876904,0.0,0.0,0.0,0.0
0.03557346146486334,-0.08710851454499921,0.7336118439725239,0.004730998871376785,-0.5249944703239848,-0.006377838638579169,0.8510685912153132,0.06486440289904931,-0.9177829833478769,1.1025111102802998,-0.17588585531676404,-0.9090998739184267,0.8124248964700673,0.07704402020992111,0.7466299827964207,0.9467815028464943,0.07530765797848608,0.7356177797635346,1.064722293072464,0.0,0.0,0.0,0.0
0.0365920164929855,-0.08938199736167425,0.733372885622359,0.005350358681697352,-0.524536426478857,-0.007254779997444098,0.8513402839793007,0.07323238692189955,-0.916857224241301,1.1026748024509918,-0.18449042390287215,-0.8889879118374973,0.8148936232092991,0.08410550811071354,0.7496387936665775,0.9385841055806848,0.08452066472083848,0.7364336721106799,1.0703429634834272,0.0,0.0,0.0,0.0
0.03771755376082583,-0.09184602154220207,0.7331386231263205,0.006100985622068878,-0.5240550126526928,-0.008318962907935077,0.8516219328693699,0.0825837999100654,-0.9152335327619496,1.1024240252880881,-0.19436684592806375,-0.8669573129063286,0.8154125421129287,0.09022984776743832,0.7537604469308864,0.9294303250734702,0.09285182794979328,0.7370638571809155,1.0759827988695656,0.0,0.0,0.0,0.0
0.03892868993667992,-0.09420310475130195,0.7327037362555062,0.006991897283990062,-0.523734172937506,-0.009558857707922246,0.8517994234026907,0.09207317859523145,-0.9131953409485575,1.1020261425167843,-0.20712407265115992,-0.843019569548631,0.8128518098576465,0.09339369104326303,0.7585611569747391,0.9227591606648603,0.09759837894894255,0.7366991006836365,1.082827258570334,0.0,0.0,0.0,0.0
0.040175017867598646,-0.09613894046391892,0.7320100179042618,0.00798913136752166,-0.5236354674590646,-0.010848126437596646,0.8518358933220138,0.10051886143317024,-0.9115208231931362,1.1022996691448925,-0.2229285619217411,-0.816292948388901,0.8045522214370684,0.09247162490186167,0.763429567476712,0.9205402340252736,0.09708884965403616,0.7350517597369859,1.0907434154072113,0.0,0.0,0.0,0.0
0.04130474683030324,-0.09741869638148824,0.7311467133633963,0.00904046008356867,-0.5237348270595604,-0.01198846654260059,0.8517490109629283,0.10674271166464722,-0.9106331727483057,1.1034122218572735,-0.24054754595743266,-0.7861037619148916,0.7857472106400454,0.0872601993450727,0.7677051160095236,0.9229836713560944,0.09096065106235318,0.7321301780432761,1.0986953161694024,0.0,0.0,0.0,0.0
0.04196986628504422,-0.09792804800766992,0.7303975392866228,0.010080319460374274,-0.5239985694950547,-0.012722736140388382,0.8515644534102014,0.10964658135749245,-0.9094970463812591,1.1034926152538538,-0.25638067770996,-0.7536296754358512,0.7502352746047581,0.07873623952702408,0.7708134085561192,0.9281959066384275,0.080600756434124,0.7284158630720728,1.1047554302705327,0.0,0.0,0.0,0.0
0.04201124742903737,-0.09798727195163243,0.7303719873150488,0.010136697812886102,-0.5239751946831165,-0.012722376517628618,0.8515781724832924,0.1097926180176894,-0.9095214077904041,1.103518787687196,-0.25640944185792913,-0.7535751045639411,0.7502439830565119,0.07864224475427276,0.7709090889645638,0.9280416400331813,0.08066840301611787,0.7283823170758092,1.10494824483019,0.0,0.0,0.0,0.0
0.04201124742903737,-0.09798727195163243,0.7303719873150488,0.010136697812886102,-0.5239751946831165,-0.012722376517628618,0.8515781724832924,0.1097926180176894,-0.9095214077904041,1.103518787687196,-0.25640944185792913,-0.7535751045639411,0.7502439830565119,0.07864224475427276,0.7709090889645638,0.9280416400331813,0.08066840301611787,0.7283823170758092,1.10494824483019,0.0,0.0,0.0,0.0
0.04224535007522011,-0.0986546190752656,0.733281648244868,0.008606635745330547,-0.5227276252652837,-0.011279332751021522,0.852381682263501,0.10846664339746911,-0.91156583232364,1.1094472647953113,-0.2577857465304893,-0.7492433407454416,0.754845901917164,0.045400853341377743,0.7415394531340782,0.9848067299093943,0.11376191824278285,0.7470132891878618,1.081932433319295,0.0,0.0,0.0,0.0
0.04261903601440509,-0.09975003992030197,0.7367704844806939,0.007673695672470955,-0.5219912008968258,-0.01035791188580306,0.8528534541422588,0.10909803246943656,-0.9063854518189085,1.110013107934911,-0.2567617752714061,-0.7453978044726188,0.7624641201437662,0.018185686078119052,0.7206163313474635,1.0286030813212164,0.14030691195197695,0.7675124807005704,1.0541468317344338,0.0,0.0,0.0,0.0
0.04301636611442522,-0.10118140729016316,0.7400409787639072,0.007217809841714675,-0.5215435107495527,-0.009900184248004377,0.8531367158714807,0.11155582651957274,-0.897709288710034,1.1067430407225638,-0.2539169582331514,-0.7440852066669037,0.7728639007198158,-0.0012772844797665564,0.7062322821316716,1.0635288767568534,0.1615322982920146,0.7862597389819451,1.0280551248933953,0.0,0.0,0.0,0.0
0.04338343400730507,-0.10285706455761873,0.742927036950261,0.00705907987470087,-0.5212049869078734,-0.009757762083325797,0.853346539861041,0.11533875920334438,-0.8876516528193793,1.1010589962745039,-0.24987852884647832,-0.745338891240983,0.7853573893645722,-0.01638500672520711,0.696303422427613,1.0935637007044123,0.17960295254952302,0.8025630271777716,1.005203727641606,0.0,0.0,0.0,0.0
0.04367218427512699,-0.10466967385364231,0.7454417225743136,0.007061799286952283,-0.5208698958778037,-0.009774098837371546,0.8535509062446095,0.11981775655310554,-0.8773815633291291,1.0939252576010083,-0.2452520531288765,-0.7483238975712612,0.798688589527011,-0.0288035044572547,0.6890313466186714,1.1207203276313509,0.1960301057220409,0.8164918637423436,0.9855776058683723,0.0,0.0,0.0,0.0
0.0437534758304794,-0.10644519930821392,0.7476497673111269,0.007107351715494325,-0.5205428775947019,-0.009812091636468394,0.8537495657361924,0.12419452986226273,-0.8671329043436443,1.0853436895382875,-0.24063470643221163,-0.7508979539869567,0.809807494014698,-0.03979635677931499,0.6829607461074354,1.1458922574068373,0.2112349377963233,0.8281642602971176,0.9686870603323489,0.0,0.0,0.0,0.0
0.04359274656973542,-0.10815738810641404,0.7495947547956467,0.007155375174705099,-0.5202064194584541,-0.009830032738805946,0.8539540105981575,0.12830837878409637,-0.8569733082832575,1.07533952661202,-0.23615235198556606,-0.7526755797558017,0.8182556580235438,-0.050167407555178525,0.677434400113736,1.1690870026610338,0.22553010469583665,0.8376680286911248,0.9542720730882838,0.0,0.0,0.0,0.0
0.04315382017562198,-0.10983724600120603,0.7513055569609245,0.00718744439863596,-0.5198388871711592,-0.009813136983692154,0.8541777182590322,0.13220913860998068,-0.846769712342981,1.0636272570256031,-0.23174389912511392,-0.7536443237483629,0.8240300759117266,-0.060610942039959315,0.6721904881078269,1.1894016950364996,0.23932322351059795,0.8449766465130943,0.942289465074971,0.0,0.0,0.0,0.0
0.042376118267293796,-0.11155514932443686,0.7527930270506903,0.007184419817279907,-0.5194009789301935,-0.00974701008566556,0.8544448507613792,0.13604990053895133,-0.8363131316034802,1.0496271962049402,-0.22725076159796906,-0.7539417710214267,0.8272017281176983,-0.0719461070946861,0.6673364225521451,1.2046078098038069,0.2533188333414357,0.8498845769303035,0.9329536025543084,0.0,0.0,0.0,0.0
0.04118063821697456,-0.11341318447443045,0.7540532846710266,0.007119015520309698,-0.5188297763252333,-0.009608596520138998,0.8547939270310962,0.14004947606522158,-0.8254046816820932,1.0325764517813547,-0.22245879269189822,-0.7538436904953686,0.8279234389044039,-0.08525838745388761,0.6637295833559392,1.2105597079759123,0.2685214097741886,0.8520287080640164,0.9266655710600881,0.0,0.0,0.0,0.0
0.039520389023820934,-0.11552442831171557,0.7551013422287329,0.006967397518748292,-0.518057681110949,-0.009377232974948586,0.8552659012935658,0.14445852069689752,-0.8138465078879795,1.0118278139661274,-0.21713918386724984,-0.7537714434601406,0.8266784588045235,-0.10168797986835894,0.6637387154650286,1.2011121801756452,0.28582253373210026,0.851193776099471,0.9235271026091572,0.0,0.0,0.0,0.0
0.037394829771195855,-0.11792531080289056,0.7560195692901656,0.006727274720738952,-0.517095343743406,-0.009047402663027048,0.855853546910202,0.1493197220461307,-0.801092146018036,0.986818578674377,-0.21120185572162795,-0.7534889895041724,0.8234090396586516,-0.1207281569106811,0.6648432180949245,1.1825576658530994,0.305040260929044,0.8477075316503901,0.9227036654408203,0.0,0.0,0.0,0.0
0.034837782932485906,-0.12063253860324706,0.7569050271114435,0.006382246650591261,-0.5159340184258843,-0.008599089363259264,0.8565613878880678,0.154607690139354,-0.7868495818167475,0.9573762706989593,-0.20465907696295596,-0.7528277676468884,0.8182544823355908,-0.14221302349473672,0.6659363396648916,1.1593279095935438,0.32594982504192266,0.842069256551785,0.9229992306765754,0.0,0.0,0.0,0.0
0.03189031577419682,-0.12361324146475769,0.7578149891266254,0.0058879777347177606,-0.5145442860116028,-0.007981279484220172,0.8574064430763277,0.1601325737933449,-0.7713317974117333,0.9238241505591017,-0.19772542636742663,-0.7515765674463005,0.8111664482069163,-0.16687750680779348,0.6666936569342965,1.1343350351690502,0.3482763396978546,0.8346114938194393,0.9234062926213414,0.0,0.0,0.0,0.0
0.02863430732561187,-0.12671664399541344,0.7587212449652235,0.005169573884645065,-0.5128859059700197,-0.007103698952539584,0.8584118244900608,0.16537997718963082,-0.7557910423788754,0.8877740912803378,-0.19102129120638212,-0.7494890601399422,0.8018664425565228,-0.19722983061330035,0.6677100851515921,1.1099067271662026,0.3713692116883641,0.8254125428201098,0.9233899403568724,0.0,0.0,0.0,0.0
0.025302984104359764,-0.12959399101203892,0.7594034332644721,0.004088304982829189,-0.5107839217250779,-0.005717953241532939,0.8596803918202651,0.16915980217701193,-0.7448074793078686,0.8550238073671771,-0.1861706806033292,-0.7473006979997077,0.7911607127707956,-0.23943837345324565,0.6718184620035786,1.0876249353823717,0.39493567296141874,0.8140772601685247,0.9234859546947745,0.0,0.0,0.0,0.0
0.02222326557498075,-0.13216639635733368,0.7594146760305635,0.002648810285439916,-0.5080362088684803,-0.003794052430956675,0.8613232839351115,0.17151809548345673,-0.7431454779488038,0.8317093078045981,-0.1837496459916872,-0.7490517079385448,0.7839737280129347,-0.30127737572146995,0.6811233702863586,1.0694411613462425,0.41860564477653883,0.7989147393350735,0.9269923749511184,0.0,0.0,0.0,0.0
0.019449473617751137,-0.13421129970222576,0.758240730760803,0.0011138175498329268,-0.5047225903833019,-0.0015950506215009763,0.8632793997198996,0.17247522708232751,-0.7524900499384861,0.8200608009171372,-0.18392058293703198,-0.7566658110718403,0.7812677577695594,-0.37934813787170585,0.6927497383808758,1.057552295324473,0.43751765747035914,0.77689222493584,0.9386037246143771,0.0,0.0,0.0,0.0
0.017374293008066942,-0.1354697595377774,0.7562307051781691,-4.9413508508017035e-05,-0.5011646823414082,0.0003848055379281667,0.8653518421177819,0.1722280245160564,-0.7708772930854657,0.8214288871416734,-0.18638826759666666,-0.7702708906819986,0.7849779695002093,-0.46101866613514164,0.6997458228847213,1.0559401474454304,0.4459716365269933,0.7511112681231735,0.9544577368734627,0.0,0.0,0.0,0.0
0.017402616703774198,-0.1355151897159475,0.7561388475261868,-0.00014819890425798695,-0.5011708565107275,0.0004430349595928123,0.8653482272134226,0.17223216517253737,-0.7710433502343811,0.8211796977461698,-0.18645956487264012,-0.7703130730139716,0.7850050591984462,-0.4610594224080513,0.6997521935336011,1.0559396993293895,0.4460163226363587,0.7509882774133763,0.9542829555653924,0.0,0.0,0.0,0.0
0.017402616703774198,-0.1355151897159475,0.7561388475261868,-0.00014819890425798695,-0.5011708565107275,0.0004430349595928123,0.8653482272134226,0.17223216517253737,-0.7710433502343811,0.8211796977461698,-0.18645956487264012,-0.7703130730139716,0.7850050591984462,-0.4610594224080513,0.6997521935336011,1.0559396993293895,0.4460163226363587,0.7509882774133763,0.9542829555653924,0.0,0.0,0.0,0.0
0.016710019389539414,-0.13586621832407644,0.7568711619360948,-0.00027152296816899735,-0.5030844047979621,0.0004471569049636697,0.8642371248535093,0.17200420578675144,-0.753149074883116,0.8000165995352316,-0.18427813065348345,-0.7543229326714245,0.7671554840622162,-0.4648124246648612,0.7078013048845008,1.053631423239709,0.45561705843091277,0.7596301353239876,0.9525251838459792,0.0,0.0,0.0,0.0
0.01636967124708538,-0.13633513350272977,0.7573300675698256,-0.00022333514018476342,-0.5042655010842254,0.00029064429131639115,0.8635485916053515,0.17284806836863256,-0.7407121238308655,0.7851967793293652,-0.18204626616508046,-0.7462191713213588,0.7586443010376052,-0.4677087341886875,0.7135282662817298,1.051574571607684,0.4622261550104768,0.7651741588318229,0.9518044924765575,0.0,0.0,0.0,0.0
0.016525548522158307,-0.1370787526510716,0.7574995131848031,-4.911482724578138e-05,-0.5049595988397184,5.094876284608596e-06,0.8631429783653497,0.17502515101649133,-0.733027830087663,0.7766846865221759,-0.17936671783532426,-0.7461977292506619,0.7611190630605696,-0.46974816492949145,0.7181988919597491,1.050076675791805,0.4688545502550235,0.7691798615288162,0.9529377346250574,0.0,0.0,0.0,0.0
0.0172774151939994,-0.13818140125042538,0.7574294874193155,0.00023248972003165407,-0.5053219816909625,-0.00037344389055893394,0.8629307627545266,0.1786198080380004,-0.7294884667438263,0.7743852308558724,-0.1760582035991927,-0.753968998288818,0.775124529307759,-0.4709691735378351,0.7229188423576727,1.0487605447085848,0.4776258792923481,0.7730715859133656,0.9557889858225203,0.0,0.0,0.0,0.0
0.0186532347471234,-0.1397242921348289,0.7570479935740035,0.0006142866703697676,-0.5055064667194881,-0.0007869253615974935,0.8628222386477652,0.1836615490703589,-0.729396779254673,0.7774171204703012,-0.1720049127812298,-0.7688740328260595,0.7999495525569774,-0.4713519460255445,0.7280253698053106,1.0483796917558066,0.49106210806092215,0.7775991504199135,0.9614939891798507,0.0,0.0,0.0,0.0
0.020681017740715096,-0.1418820437094893,0.7561484386481406,0.0006657848205410366,-0.5063989831208897,-0.0006469984056775589,0.862298792772995,0.18910603605066056,-0.7299000434955456,0.7819318335582411,-0.16769506929356567,-0.7845324645650823,0.8290861171823615,-0.46759133846671647,0.7348749241964984,1.0522324429780354,0.525527826263985,0.7881841966683768,0.9744277327617368,0.0,0.0,0.0,0.0
0.024045490355670635,-0.14481623295032361,0.7580765758070233,-0.0013274352785352772,-0.508839185106036,0.001958839576041162,0.8608583417518365,0.19091955534010718,-0.7261035296517389,0.7902144309172598,-0.16582816077749518,-0.7818757693631864,0.853293382255255,-0.42930857485437357,0.7557590027363265,1.0300479234148894,0.41961128531274394,0.7555390504364662,1.0006929426057867,0.0,0.0,0.0,0.0
0.02775891434696376,-0.14802249829305913,0.7589552639584767,-0.003291604864238385,-0.5116263255369493,0.004557872720645185,0.8591896729775327,0.19375215603831214,-0.7242354637753394,0.7997365233228881,-0.16334059832540934,-0.7824969615399249,0.8808651575476085,-0.38799102994543366,0.7736251241224856,1.0151410426259193,0.32133322979560786,0.7304043326590671,1.0260969370096875,0.0,0.0,0.0,0.0
0.031698569405411284,-0.1513258855729514,0.7592343376656745,-0.004516103338064942,-0.5138836592118965,0.006228435914357099,0.8578253879384149,0.19916089085348282,-0.7243132984557362,0.8113689103065851,-0.15900250559754503,-0.7920898773557374,0.916708941263989,-0.35238801706072564,0.789316991426662,1.0026760457876736,0.2509315763944412,0.7152019419294645,1.0518166618768428,0.0,0.0,0.0,0.0
0.035447461092311616,-0.15443982766230546,0.7592687423198337,-0.0051906448782389585,-0.5156145151380042,0.007159326211224098,0.8567750422561048,0.20582607574560716,-0.7248170792558832,0.8225577538592401,-0.153702431609566,-0.8055585307093158,0.9536021650642359,-0.32318944101393376,0.8031668265856652,0.991221731863588,0.20161866012916918,0.706439459578669,1.0778166150087494,0.0,0.0,0.0,0.0
0.03871622190196088,-0.15710546174311965,0.7591814582527946,-0.005579329427695307,-0.5169590923298306,0.007709001537392202,0.8559572064279565,0.21217389139706536,-0.7254455065425779,0.8322832670361381,-0.14866837329432558,-0.8185345294269465,0.9858871168438735,-0.29944894875936484,0.8147094848664029,0.9814243589142018,0.16521105344383546,0.7006138476859328,1.103785510129551,0.0,0.0,0.0,0.0
0.04139890841891018,-0.15925113142292785,0.7589552674591967,-0.005829637505171227,-0.5180062049777682,0.00807186275586486,0.8553189065855724,0.21754244284898494,-0.7263888910023397,0.8404192250786406,-0.144452901070428,-0.8296647623489732,1.0120434512704624,-0.2804110866963939,0.8234560745224251,0.9743713327323212,0.13668806097458763,0.6959740775366151,1.1290025234512076,0.0,0.0,0.0,0.0
0.04357238752747121,-0.16100599235306418,0.7587174725499273,-0.006024857756086089,-0.5188531789196791,0.00834388010059257,0.8548014152297768,0.2220152471156596,-0.7270951377759485,0.8467339278697154,-0.1409160136407191,-0.8387214065911973,1.0329665245593898,-0.26431434415145094,0.8301612843322805,0.9688671467323132,0.11219808874520101,0.6916784791756267,1.1528862901461971,0.0,0.0,0.0,0.0
0.04531062295188478,-0.1624972466142414,0.7584502568751994,-0.006194641686867462,-0.5195585917629644,0.008566880352946584,0.8543694193384235,0.22581735017225255,-0.7274174589667425,0.8511528142485543,-0.1378489282748305,-0.8461575887296177,1.0497909826322749,-0.24993782802473924,0.8349548144456567,0.9648470694582647,0.09017419140894453,0.6875480503778494,1.1742275106377291,0.0,0.0,0.0,0.0
0.04665048877905816,-0.16382713115723316,0.7580604190150098,-0.006341781971550158,-0.5201550866182153,0.008750515329566111,0.8540034520703585,0.229187683203785,-0.7273550482261883,0.8534998561419337,-0.1350435814353568,-0.8526028061719195,1.0633847256337414,-0.23657939152204965,0.8375416305298555,0.9629804054963694,0.07026553776713815,0.6838425496180074,1.19070704830283,0.0,0.0,0.0,0.0
0.047591548075627745,-0.16506050770944403,0.7574232975743015,-0.006455938397566766,-0.5206511711148366,0.00888708016849683,0.853698833712589,0.23230985545656285,-0.7270174224067538,0.8535637122206986,-0.13234867260351338,-0.8586758266405055,1.0742695380671903,-0.22403610485446934,0.8373842793367224,0.9643387135762079,0.05284783097341939,0.6816124521398584,1.1982553271177503,0.0,0.0,0.0,0.0
0.04814098903393264,-0.16623352147839057,0.7564464797577566,-0.0065249686402699646,-0.5210401857639899,0.008967433771476196,0.8534600955726194,0.23530641894722665,-0.7265986784087201,0.8513559111984298,-0.12968119662050823,-0.8649026053054281,1.0828877589360133,-0.2123541988694561,0.8341257119161131,0.9696888368473461,0.03861840108599672,0.6834463683924576,1.1908682851720298,0.0,0.0,0.0,0.0
0.04833354221546151,-0.16742919645163853,0.7551150495020571,-0.006560086052073104,-0.5213624869648386,0.008998253049591405,0.8532626523520664,0.23837012468553853,-0.7257916099614647,0.8464938078878739,-0.12683429486737985,-0.8714586454902454,1.0896732764652124,-0.20073511425757848,0.8278488460085124,0.9788772554791979,0.026236008387634024,0.6868464087120427,1.1744627337102929,0.0,0.0,0.0,0.0
0.04822010377363314,-0.16870620206922735,0.7534503998040496,-0.006576716205328974,-0.5216439461216462,0.008995496269608534,0.8530905118013299,0.24162226469930081,-0.7244126314690523,0.8388852751204652,-0.12368518253609033,-0.8784231084367847,1.0950466505926548,-0.18837709893384297,0.8187942033059763,0.9913515042182877,0.014542393813592118,0.6908964825386705,1.1529421933989743,0.0,0.0,0.0,0.0
0.04782855812177292,-0.17008385563106102,0.751469603399253,-0.00659640978583713,-0.5218922316142813,0.00898287251917307,0.852938622621761,0.24507147137948035,-0.7224428295715524,0.8285670025627309,-0.12022986995740644,-0.8857457223148522,1.0991305592512048,-0.17467107452446903,0.8070506350707638,1.0066949207698763,0.0026458804585603925,0.6955593366009645,1.1283109453378228,0.0,0.0,0.0,0.0
0.04717263260980355,-0.17152978625230783,0.7491810363999992,-0.006656887602632914,-0.5221059754779536,0.009004054915108124,0.8528071078577771,0.24856236724114442,-0.7201424449832607,0.8158868177003086,-0.11664526195995806,-0.8931805517093535,1.101714383026158,-0.15921154544483354,0.7925769604972245,1.024705649155938,-0.01029842205507406,0.7012864065089757,1.1012271667354687,0.0,0.0,0.0,0.0
0.0462927172021189,-0.1729239970865851,0.7465929175899824,-0.006826627825500047,-0.522274483964947,0.00915054284591567,0.8527010191839256,0.25165099469896934,-0.7184836834407395,0.8022438355301336,-0.11346380438968731,-0.9002475608428986,1.1023721036847993,-0.1418296106845834,0.7753394561611091,1.0453228675805808,-0.02531926941930463,0.7089655543210553,1.0713264491670529,0.0,0.0,0.0,0.0
0.04529223086729072,-0.1740832476008615,0.7437559983397067,-0.007217837433228118,-0.5223732931617665,0.009601469216954133,0.8526323106726571,0.2535828024711859,-0.7193185579558438,0.790468399079394,-0.11161941199979805,-0.9062432548938584,1.1007705573220712,-0.12174014203876089,0.7553540951036256,1.0680835566590048,-0.043754974499130544,0.7198183804785853,1.0371952146267742,0.0,0.0,0.0,0.0
0.04422764242278967,-0.17495170763302964,0.7408626001467632,-0.00797064443873862,-0.5223954998588582,0.01055064657768372,0.8526007825537328,0.25381144330660144,-0.7234324238762184,0.7820431264837564,-0.11170496942508835,-0.9100341051856836,1.0964605375428196,-0.09637334538446865,0.7326754127289646,1.0910742812474417,-0.06763950355814066,0.7348120127968812,0.9958821654327125,0.0,0.0,0.0,0.0
0.04333240435651363,-0.17550140619544866,0.7385153723858698,-0.009180568031967932,-0.5224164955448105,0.012066787575267773,0.8525556374752927,0.252090699108277,-0.7302625308799233,0.7786090559577995,-0.11386471881328986,-0.909908672065077,1.0899619631540052,-0.06513485702460545,0.7104962240367743,1.108901976274168,-0.09469844689777301,0.7552218000385263,0.9450767540699118,0.0,0.0,0.0,0.0
0.04336403045958224,-0.17552737077190356,0.7384433366921753,-0.009225667594748252,-0.5224485325277515,0.01209230954767086,0.8525351570268721,0.2521108410748063,-0.7303178352100056,0.7784917146507405,-0.11385897173434874,-0.909938394811567,1.09000480901133,-0.06513812048885839,0.7104560654472656,1.1088934543909463,-0.09470289381590224,0.7552345588150631,0.9450720848622928,0.0,0.0,0.0,0.0
0.04336403045958224,-0.17552737077190356,0.7384433366921753,-0.009225667594748252,-0.5224485325277515,0.01209230954767086,0.8525351570268721,0.2521108410748063,-0.7303178352100056,0.7784917146507405,-0.11385897173434874,-0.909938394811567,1.09000480901133,-0.06513812048885839,0.7104560654472656,1.1088934543909463,-0.09470289381590224,0.7552345588150631,0.9450720848622928,0.0,0.0,0.0,0.0
0.04292156567712337,-0.1757202318173521,0.7391238190454413,-0.008211054714022791,-0.5231775533442412,0.010786905203803404,0.8521158776441976,0.23379211048690093,-0.7623136485027161,0.8158038512980893,-0.10996590247209163,-0.9070537535656868,1.0864076072703923,-0.08547943523071959,0.7211141926341536,1.1054585293935666,-0.11146768227366731,0.7527936370565069,0.9397639985579235,0.0,0.0,0.0,0.0
0.0420025122503769,-0.17685131739424406,0.7399175445489361,-0.00734527427447536,-0.5237606534442893,0.00955688179354719,0.8517801892858438,0.21279203753252254,-0.793061396437161,0.8352393516745059,-0.10363584028801526,-0.9047548984713472,1.0829683346865115,-0.09425671215427583,0.7275108999419364,1.0989660396545244,-0.11794028350112193,0.7504342361415642,0.9380312080295734,0.0,0.0,0.0,0.0
0.04089587705119497,-0.17880462931989508,0.7405977315313811,-0.006529806556561029,-0.5241804040894743,0.008400697252075928,0.8515407764051046,0.19409211106154098,-0.8203236256831686,0.843363527197484,-0.09536745788334394,-0.9047423385479734,1.0818748708146395,-0.09260261811620925,0.729953252729787,1.0910810026737017,-0.11652213823591272,0.7475689042880248,0.9409301239649479,0.0,0.0,0.0,0.0
0.03971367976059031,-0.1812878843455605,0.7410886076264261,-0.005723731317899964,-0.5245365113299955,0.007301924705335713,0.8513374002574746,0.17920575016916368,-0.8445246398520085,0.8454570059500047,-0.08591237576158792,-0.9064033046936736,1.082436870112541,-0.08458845895337742,0.7298616873859934,1.083156269071227,-0.11039218765288494,0.7440476465177811,0.9477759098173271,0.0,0.0,0.0,0.0
0.03839833745432946,-0.18391540977115867,0.7414136171487011,-0.004958386906441599,-0.5248689407530662,0.006310420696349627,0.8511452214649832,0.16780664142315455,-0.8667506537988631,0.8442324168699731,-0.07636859482511604,-0.9079932173607849,1.0822506742544413,-0.0738623242657802,0.7279549418268378,1.0761577061179062,-0.10196240391128537,0.7398649219942309,0.9568965586010965,0.0,0.0,0.0,0.0
0.03701131323733692,-0.18636668573479867,0.7417670246120713,-0.004277572875385955,-0.5251555536912672,0.005457049283420433,0.8509780064200441,0.15847850081998627,-0.8874180075341448,0.8409560162937568,-0.06763556836158388,-0.9083375148644729,1.0803672456491675,-0.06312502460871666,0.7256251111368016,1.0692068314226462,-0.09311838511015233,0.7360541959779955,0.9650629553572333,0.0,0.0,0.0,0.0
0.03556995257602562,-0.18852851372235183,0.7421824548616679,-0.003690968906045618,-0.5253827957935694,0.004726723131210672,0.8508448464444666,0.1498622358724715,-0.9064011816697597,0.8363628868610751,-0.05997824788377338,-0.9072691147886577,1.0766083287541817,-0.05356288663721983,0.723263330129103,1.062332849956204,-0.08484381953964729,0.7326166396616705,0.971512477056594,0.0,0.0,0.0,0.0
0.034048666743870686,-0.19041450984366648,0.7426497750977998,-0.00318738764193859,-0.5255445910543505,0.004091415766608941,0.8507502475406987,0.1409619119334634,-0.9227972490720908,0.8313566794865811,-0.0532937097557927,-0.9049103086212814,1.0709762760521908,-0.04531547176513579,0.720784128123541,1.0556598962496222,-0.07737468551378264,0.7292529687660303,0.9764541179817052,0.0,0.0,0.0,0.0
0.03238322198489706,-0.19210847269562314,0.7431641568834471,-0.0027450925293197558,-0.5256364970029855,0.0035229501537391303,0.8506975527810399,0.13122818196645072,-0.9348506178871345,0.8273132497431077,-0.047289903806395736,-0.9013527756006654,1.0633720259961552,-0.037939804363779146,0.7179129904752544,1.049101704563514,-0.07042514685081554,0.7256404984297901,0.9803486059904563,0.0,0.0,0.0,0.0
0.03047893010480688,-0.19372914294357932,0.7437307323214203,-0.0023372599520799426,-0.5256604167985522,0.002998489143169132,0.850686001113188,0.12054195791103112,-0.9403353712196367,0.8261566298433092,-0.04159779525240636,-0.8965347159084022,1.0534725561747091,-0.030731789894982462,0.7143159379013299,1.0423988823179813,-0.06341047602194612,0.7214844365335668,0.983720443454866,0.0,0.0,0.0,0.0
0.028244135499148604,-0.19538375605374209,0.7443606249140292,-0.001939339312764824,-0.5256363488185052,0.0025033425566904927,0.8507034742140321,0.10903993851164932,-0.9377823978895858,0.8297332010491363,-0.03590538846651656,-0.8901975386686796,1.0407624379939526,-0.023114940443477415,0.7097984438638497,1.0352520627820212,-0.05579881756675977,0.7166041972613566,0.986984451846665,0.0,0.0,0.0,0.0
0.025636398091948107,-0.1970876295819309,0.7450440919686023,-0.0015471413939909624,-0.5255394998002665,0.0020276894197974356,0.8507653783381229,0.09680755940110464,-0.928747813181075,0.8362989837141999,-0.030162623733361912,-0.8823049027290132,1.0249469114754555,-0.015201279844358484,0.7042212765501159,1.0276503566359272,-0.047637594341545075,0.7107282763934958,0.9902266029617466,0.0,0.0,0.0,0.0
0.02265634595850143,-0.19881379698304763,0.7457935361953566,-0.0011652690645086558,-0.5253640729220121,0.0015715036586214704,0.8508752925118068,0.08384776308825828,-0.9155731261818189,0.8442160177035399,-0.02445211492254261,-0.8726854872250501,1.0057658433507548,-0.007318131267493692,0.697759822762023,1.019462900409872,-0.03921856446834913,0.7038880218949621,0.9931325399717061,0.0,0.0,0.0,0.0
0.019323309568002454,-0.20052688610587863,0.7466032770274784,-0.0007985275350772308,-0.5251159753629606,0.001136258666559235,0.8510295433700436,0.07014338908502984,-0.9001905461212801,0.8525810249012286,-0.01888108614644364,-0.8612067549491702,0.9830200928830697,0.00020552449362814217,0.6905941832720945,1.0107302126814053,-0.030891779948588757,0.6961270633992777,0.995511179876836,0.0,0.0,0.0,0.0
0.01569573727248124,-0.20217877591988187,0.7474156689212199,-0.00045082611527408296,-0.5248102766223608,0.0007204388930587956,0.8512188034078995,0.055638209730887324,-0.883809799317926,0.861237891413707,-0.013580314063838925,-0.8479910066195081,0.956806715530535,0.006987433904296875,0.682804016598418,1.0019776246468501,-0.0231126249206164,0.687385241598115,0.9975612724492451,0.0,0.0,0.0,0.0
0.011953238715963661,-0.20366422316432356,0.7481346126647919,-0.0001378300298982413,-0.5244688397553923,0.00033252207922248835,0.8514295664102711,0.04026673281250838,-0.8669452979445511,0.8704670443954547,-0.00884212210307953,-0.8336619672528056,0.9281356071668679,0.012483837070605075,0.6746023471644802,0.9941807424014248,-0.016552882180683515,0.6778346127761579,0.9995321224562873,0.0,0.0,0.0,0.0
0.008505667607030098,-0.20487524254848627,0.7484853033326718,0.00010856103538988408,-0.5240724269984814,1.3862077493283392e-05,0.8516736929612571,0.02462116300561564,-0.8496670963857443,0.8795073554899755,-0.00503131202034344,-0.8208141194126631,0.900812528536264,0.016630821345094624,0.6656788822496335,0.9897146321938415,-0.011452576807660705,0.6675048973100163,1.0030767291355998,0.0,0.0,0.0,0.0
0.005630793310691036,-0.20572638852157848,0.7485388924138269,0.00029633965306009944,-0.523676812363055,-0.00023780385221679542,0.8519169277725426,0.010202517514648044,-0.8338835703528451,0.8886271222019957,-0.0023249674178196745,-0.8103064703613045,0.8771945261431779,0.019012118360408267,0.6571904246338311,0.9882595959062596,-0.008330470161858622,0.6576394884011185,1.0071933148410859,0.0,0.0,0.0,0.0
0.0037853535059483396,-0.20617968693767497,0.7483624350630355,0.0004194436212512324,-0.5233288490981062,-0.0003993315912225151,0.8521306122320571,0.00016221773800820065,-0.8234809965549275,0.8959613446693429,-0.000846064396451243,-0.8042131918228909,0.861897057163182,0.019815033188921465,0.6506643137815482,0.9891825033940348,-0.007088760737717096,0.6500722573071174,1.0109977907269256,0.0,0.0,0.0,0.0
0.003798665830430941,-0.20620722187247256,0.7483359692855042,0.00043459093831234123,-0.5233107745984872,-0.00039610509432526906,0.852141706185422,0.00016536690326091064,-0.8234906143824385,0.8959717203370628,-0.0008195119276425717,-0.8042483464424576,0.8617577051513802,0.01981352981184375,0.6506968220121943,0.9890640793100344,-0.007089261462602075,0.6500028148793181,1.0110624949640976,0.0,0.0,0.0,0.0
0.003798665830430941,-0.20620722187247256,0.7483359692855042,0.00043459093831234123,-0.5233107745984872,-0.00039610509432526906,0.852141706185422,0.00016536690326091064,-0.8234906143824385,0.8959717203370628,-0.0008195119276425717,-0.8042483464424576,0.8617577051513802,0.01981352981184375,0.6506968220121943,0.9890640793100344,-0.007089261462602075,0.6500028148793181,1.0110624949640976,0.0,0.0,0.0,0.0
0.003798665830430941,-0.20620722187247256,0.7483359692855042,0.00043459093831234123,-0.5233107745984872,-0.00039610509432526906,0.852141706185422,0.00016536690326091064,-0.8234906143824385,0.8959717203370628,-0.0008195119276425717,-0.8042483464424576,0.8617577051513802,0.01981352981184375,0.6506968220121943,0.9890640793100344,-0.007089261462602075,0.6500028148793181,1.0110624949640976,0.0,0.0,0.0,0.0
0.004112280471883625,-0.20668915094472914,0.7482106837454852,0.00017482243159903991,-0.523262883699251,-0.00010406381235529708,0.8521712933152491,0.0007621112248827156,-0.8254947993192945,0.8984433200763434,-0.00024084595738821932,-0.8068139112747793,0.8663655738433945,0.02643696630402184,0.6496678144578022,0.9876463039649668,-0.00028478945342053606,0.6516453872941773,1.01369930077724,0.0,0.0,0.0,0.0
0.004913030802871005,-0.20719530766801236,0.7480498874085412,5.5569147037938055e-05,-0.5233398711505313,3.389964195682807e-05,0.852124037348454,0.0017543557759037462,-0.8288951011614522,0.9046532716081044,0.0007361998775447842,-0.8119203892020533,0.8758855351951171,0.031507525753245995,0.6507289763070007,0.9865114786829307,0.004917883895831278,0.6543399697582841,1.016365598842752,0.0,0.0,0.0,0.0
0.006246780900160095,-0.20757973059162457,0.7478622069953541,3.721181670671821e-05,-0.5235678635264651,6.198718790887283e-05,0.8519839711257495,0.002678792283227094,-0.834170678678203,0.9154583738778541,0.00164878826579827,-0.8190345323821662,0.8897501685460621,0.03468623957434959,0.6540172365539683,0.9860132097835788,0.00804458562797009,0.6584695490148496,1.0185002904270668,0.0,0.0,0.0,0.0
0.00814878841791981,-0.2078164350831926,0.7476618020514413,0.00010508049289079273,-0.5239495565071299,-5.052775119759343e-06,0.8517492889157826,0.003439663946209778,-0.8414575246340108,0.9311408482593361,0.0024000116725360707,-0.8280510815211227,0.9079174308875407,0.036007793354834984,0.659707234179039,0.9859977940164527,0.009049656914345434,0.6642871258442581,1.0198100270078954,0.0,0.0,0.0,0.0
0.010652173598983667,-0.2079708712334059,0.7474930980515357,0.0003229070081336604,-0.5245667982336254,-0.00024119095962145095,0.8513691982617811,0.0043659058577151764,-0.8498064422189915,0.9508606128545074,0.0033162214072056445,-0.8387221160578819,0.9303222834016929,0.03501227874174277,0.6686628691294694,0.9859417371006693,0.007369071667683037,0.6720887131309544,1.0200546088993068,0.0,0.0,0.0,0.0
0.013805266458429607,-0.2081940541521704,0.7474625440996291,0.000960958165558335,-0.5257882394193035,-0.0010212751677648882,0.8506143431924863,0.006698996513058929,-0.8555075251130433,0.9713881257992362,0.00563642675229326,-0.8498987763935347,0.9562027826152045,0.028490020260627125,0.683965437240632,0.9853068086850605,-0.0005752259271442905,0.682173528754215,1.018856183720313,0.0,0.0,0.0,0.0
0.017099035144841002,-0.2084064758166964,0.7471226457782963,0.001079394817325839,-0.5256698955558523,-0.0010786426380487125,0.8506872705896021,0.007387618075517485,-0.8721262285889081,1.0016672249199579,-0.012317644069238916,-0.8467234945600703,0.9241674834859115,0.029180486480771928,0.6924595671466695,0.9833850931339714,-0.00047381692905696,0.6904435637350914,1.0180746941444683,0.0,0.0,0.0,0.0
0.020342456272590872,-0.20896955058504202,0.7466740405207655,0.0013671923569389085,-0.5257358997677298,-0.0014293626107593177,0.8506455498049711,0.009704108838807355,-0.8857395976968696,1.0278392714326257,-0.03217303704661853,-0.8532423471998116,0.8998817182851675,0.029486904833969027,0.7016637606230686,0.9817469245522434,-0.0008832593654218884,0.6979061970277742,1.0193167946143311,0.0,0.0,0.0,0.0
0.02322266821930276,-0.20978414459692665,0.7461861363464768,0.0016878899984570082,-0.5258900511927188,-0.0018698579831606865,0.8505488279428732,0.012942715684140417,-0.8961843524919423,1.0487164481998827,-0.05112342869922074,-0.8651021797194647,0.8819681071455823,0.03084939778230354,0.7100245364146673,0.9800444312028985,-0.0001737190059924519,0.7043601667583292,1.0220615502579744,0.0,0.0,0.0,0.0
0.025634891184130627,-0.2108055777531316,0.7457377743605882,0.0019710532779993553,-0.5260072618523888,-0.002299568390959646,0.8504746835813181,0.01675402610075549,-0.9040066979977078,1.0646647475077096,-0.06841755832174662,-0.8793965852402641,0.8676170593961656,0.034140708417233316,0.7168193856871196,0.9775853628043432,0.00269068597420661,0.709865454269275,1.0255679505665576,0.0,0.0,0.0,0.0
0.027602967292688265,-0.21197457444148693,0.7453514106235628,0.0022133103333983398,-0.5260584414621242,-0.002695192390663173,0.8504412697898581,0.02091214192792271,-0.9097065959960353,1.0764762645147272,-0.08413908790943847,-0.8945790290108654,0.8549810483518763,0.039161523077288825,0.7220405766457432,0.9743680942568244,0.007583386822191583,0.7145293921640987,1.0294719491870226,0.0,0.0,0.0,0.0
0.02921344165497359,-0.213222357071311,0.7450054258741861,0.002435380171309615,-0.5260636375412157,-0.003063102777833472,0.850436203122667,0.025231336577980094,-0.9138020193505904,1.0851365078518485,-0.09865465646838903,-0.9097201036506876,0.8430267803067796,0.0451929380540902,0.7259910325153508,0.970827138613824,0.01379137549563322,0.718437896816014,1.0336918296646218,0.0,0.0,0.0,0.0
0.030572335697696636,-0.21450928529210855,0.744671885511001,0.0026608458544592796,-0.5260440531149495,-0.003421930911898903,0.8504462737119666,0.029638041931428445,-0.9167787554149612,1.0916045740408158,-0.1122572022498984,-0.923954983940861,0.8313946361667911,0.05159650069983955,0.7290645585789047,0.9672994248229213,0.02064115372449679,0.7216997973133986,1.0382217274666117,0.0,0.0,0.0,0.0
0.0317815711889237,-0.21583946129949252,0.7443516080980549,0.002911712852785487,-0.5260027636354437,-0.0037968746332905593,0.8504693988140651,0.03419853124985533,-0.9189794535064126,1.0966590566348642,-0.1250345281584014,-0.935989686154731,0.8203705278948672,0.0580372289660713,0.7317225234064091,0.9636549591077195,0.027758078337881378,0.7245280607922349,1.0428957533419676,0.0,0.0,0.0,0.0
0.03289758368656312,-0.2172268240040125,0.7440371017124537,0.0031956415718716476,-0.5259249399161434,-0.004200846658405813,0.8505146079500913,0.03898403154696527,-0.920678272704068,1.100768190172503,-0.13697887853933377,-0.9438974823204495,0.8109812254073558,0.06445260917604878,0.7341235365176276,0.9598126012291756,0.03506711713380649,0.7269834248198082,1.0477002655103507,0.0,0.0,0.0,0.0
0.03393561122458933,-0.21868134687465476,0.7437215124022362,0.003513723936969531,-0.525805534939804,-0.004642417647057162,0.8505848817896727,0.04404625772471642,-0.9219390837221009,1.1040314854656115,-0.1480814355419699,-0.945348286543409,0.8050711310357352,0.07082866054153222,0.7363013575074628,0.9557713190930924,0.04255208808266916,0.7290477481770538,1.0526854271960713,0.0,0.0,0.0,0.0
0.03490575285529415,-0.22022372339149848,0.7434117965405056,0.0038824677611436504,-0.5256746437761676,-0.005148755804296369,0.8506612637522356,0.04950216857085203,-0.9224883924483069,1.106245444386651,-0.15828225624539663,-0.9387861497444143,0.8046133298066733,0.07700737474927526,0.7385074796155984,0.9514512601438728,0.050015509104053474,0.7307779517021111,1.0578553189190234,0.0,0.0,0.0,0.0
0.03584982966295355,-0.2219601256088276,0.7431079818903711,0.0043119882996456825,-0.5254501402897767,-0.0057453611384020355,0.8507940688860889,0.055713447358616996,-0.9226134395011449,1.1076970646248145,-0.16760530362767706,-0.9256945302796131,0.8071866928041681,0.0834961632278168,0.7406900711289622,0.9462551387110979,0.05809682115102302,0.7321179972614401,1.0633184502940296,0.0,0.0,0.0,0.0
0.036820286708707704,-0.22397626441679958,0.742822828129607,0.0048279751714900634,-0.5250975544882204,-0.006469466168894947,0.8510037572970659,0.06301014012285173,-0.9223218811250136,1.1085222089408806,-0.17618134998024107,-0.9083063050581909,0.8105070510362361,0.09045347986723072,0.7431178226381678,0.9396015045400096,0.0670490299909687,0.7331583974846002,1.0690370907717783,0.0,0.0,0.0,0.0
0.037866794660132236,-0.2262871621120891,0.7425665593605987,0.005455594045999954,-0.5246338754416249,-0.007358612454602792,0.8512786759078662,0.07152899855435842,-0.9214846854238908,1.1088199908358394,-0.18471075087526184,-0.8882792018990249,0.8129617087900671,0.09752441071823043,0.7462407031837744,0.9312733254048259,0.07647229801698116,0.7340203271726738,1.0748478171722808,0.0,0.0,0.0,0.0
0.039030960625633826,-0.22878992567661102,0.7423146839287091,0.006217967872267929,-0.5241494781550913,-0.008440541048091664,0.8515617527179696,0.08105339771763269,-0.919955538914615,1.1087562418494412,-0.19451134995458322,-0.866340789345936,0.8134498760013327,0.10364304430686397,0.7505378524798507,0.9219659356652273,0.08496051875325289,0.7347218594751949,1.0806589970444531,0.0,0.0,0.0,0.0
0.04029594797278152,-0.2311802529359427,0.7418578834475259,0.0071289108301187416,-0.5238406376108958,-0.009706923643693582,0.8517311434080368,0.09072291828313594,-0.9179819218694557,1.1085881281231103,-0.20724466346188983,-0.842490500348631,0.8108529137401514,0.10678579837885507,0.7555705700553094,0.9152356227358074,0.0896470346364077,0.7344494394454899,1.0876611970302594,0.0,0.0,0.0,0.0
0.041603061487432605,-0.23314205054615353,0.7411424680564849,0.008152038208213757,-0.5237653012735204,-0.011024897027143016,0.8517522557061127,0.09933001450534153,-0.9163311089118109,1.1090901606653785,-0.2230569555920258,-0.8158032761949606,0.8024606792749918,0.10590082536407587,0.7606669492568233,0.9130421601589913,0.08888884960534481,0.7329077086308866,1.0956862109743781,0.0,0.0,0.0,0.0
0.042793305227138964,-0.2344390822326796,0.7402643151216342,0.009238414187849818,-0.5239084916937295,-0.012195903229029694,0.851637131634667,0.10568120557586097,-0.9153303765180216,1.1103262830401968,-0.2406912031125169,-0.7855581259722642,0.7834832227187789,0.10072412045418164,0.765215044804415,0.9155705383429924,0.08227228456995737,0.7301176073216702,1.103668099520819,0.0,0.0,0.0,0.0
0.04350340244437736,-0.234954340306841,0.7395124323648022,0.010324120501278115,-0.5242387166402699,-0.012955655388442068,0.8514102016682052,0.10864142641837858,-0.9138842166944887,1.1103238178675552,-0.2564986619962234,-0.7528312012556337,0.7476159326313917,0.09214369797191245,0.7686538393894876,0.9208915430067733,0.0712270661738477,0.7265470378851256,1.1096827066622068,0.0,0.0,0.0,0.0
0.043546009756451266,-0.2350137255293227,0.7394854437777393,0.01037955290522132,-0.5242168777945424,-0.012954850199322451,0.8514229864016725,0.10878756993794304,-0.9139087279647894,1.110351405353499,-0.25652690427737124,-0.7527763634746428,0.7476250786593024,0.09205144832168095,0.7687561187690879,0.9207402471225503,0.07129042837408696,0.7265172526418352,1.1098809831259178,0.0,0.0,0.0,0.0
0.043546009756451266,-0.2350137255293227,0.7394854437777393,0.01037955290522132,-0.5242168777945424,-0.012954850199322451,0.8514229864016725,0.10878756993794304,-0.9139087279647894,1.110351405353499,-0.25652690427737124,-0.7527763634746428,0.7476250786593024,0.09205144832168095,0.7687561187690879,0.9207402471225503,0.07129042837408696,0.7265172526418352,1.1098809831259178,0.0,0.0,0.0,0.0
0.043739780237148515,-0.23571253661410752,0.7424835205243698,0.00877225720358339,-0.5228598858563356,-0.011465203118269944,0.8522963899860837,0.10746442082447491,-0.9162155775161807,1.1164136586606077,-0.257922622912515,-0.7484611091459995,0.7523299367211362,0.05537414111961255,0.7391002226631787,0.9793789955828694,0.1061817391794187,0.7455559906538904,1.0863867354279106,0.0,0.0,0.0,0.0
0.044087068079175375,-0.23683626449337708,0.7460665504737157,0.00779943550670973,-0.5220765485999848,-0.010520168860252142,0.8527980841059952,0.1081192625536775,-0.9109179607276146,1.1168890629134114,-0.25685914135104226,-0.7444641314489977,0.7599386447492757,0.025738625024487507,0.7181895378804771,1.0244062047444895,0.13377961736989077,0.7664636286217472,1.0580422221276582,0.0,0.0,0.0,0.0
0.044470920510175406,-0.2382901870018117,0.7494182968872104,0.007324523420823214,-0.5216157522824348,-0.010049835162724388,0.8530898892500658,0.11060459270012088,-0.9020012041400065,1.1134757604086174,-0.25396412388746104,-0.7429590470682574,0.7703011598971626,0.0049195718224483605,0.7038757359275852,1.0600673649055274,0.15566790172289635,0.7856089577966093,1.0314373216963726,0.0,0.0,0.0,0.0
0.04483547458299941,-0.239979248392313,0.752367695697563,0.00716211284158494,-0.5212834996922013,-0.009908047708484137,0.8532959906614478,0.11442042125104654,-0.89167539938812,1.1076619598383686,-0.24987366231025082,-0.7440447333326985,0.7827712476632747,-0.010954859254539148,0.6940749193563507,1.0905498507185152,0.1740530692119118,0.8022492612117469,1.0081586939096647,0.0,0.0,0.0,0.0
0.0451226566278446,-0.24179121355602368,0.7549286383083307,0.007164151956405915,-0.5209610785040255,-0.009927206827893165,0.8534926362747745,0.11890141739044924,-0.8811914965417662,1.1004437560210987,-0.24522721547771037,-0.7468306178702269,0.795983207318783,-0.023823711898705538,0.6869213814585479,1.1179795352638895,0.19062250328208172,0.8164405752955387,0.9882030376515989,0.0,0.0,0.0,0.0
0.0452052243407284,-0.24355612353424508,0.7571682460910129,0.007210824993598337,-0.5206464368494024,-0.00996908909433507,0.8536837289427286,0.12325874384918882,-0.8708143118924416,1.0918591213261963,-0.24061828447565659,-0.7492280489023365,0.8069667119023268,-0.0351118266307416,0.6809607343185812,1.1433085342837679,0.20585776039089723,0.8283043684140313,0.9710740420147458,0.0,0.0,0.0,0.0
0.045049230864063164,-0.2452527327642824,0.7591330963580938,0.007261471523556932,-0.5203212331331917,-0.00999263495516427,0.853881275487828,0.12734709655032617,-0.8605961410469527,1.0819225379246988,-0.23615840690023082,-0.7508729763317683,0.8153058253264771,-0.04570106367249359,0.6755412389120007,1.1665996353297592,0.22012334185093196,0.8379464642483828,0.9565049361498015,0.0,0.0,0.0,0.0
0.04461802388268112,-0.24691488267099973,0.7608549509161546,0.007297493898822125,-0.5199642077628898,-0.009982773340283236,0.8540985384981896,0.13122283659997902,-0.8503858350663186,1.070332950584686,-0.23177879205202756,-0.7517498438412682,0.821003941557763,-0.05630865153697323,0.6704058143829273,1.186982827628427,0.23387007066834384,0.8453597065816777,0.9444419905285216,0.0,0.0,0.0,0.0
0.04384947233231802,-0.2486142041221309,0.7623469112038674,0.007299914547523,-0.5195360166935465,-0.009925135201063034,0.8543597194958588,0.13504196014768147,-0.8399602273794863,1.0564956179985436,-0.22731631981629977,-0.7519869864103549,0.8241221280537692,-0.06775918134688708,0.6656655097524564,1.20224809183104,0.24782449606522475,0.8503467028591186,0.9350906010034307,0.0,0.0,0.0,0.0
0.04266231261910693,-0.25045322237824974,0.7636068388461991,0.007241480865523908,-0.518973375282323,-0.009796543425889013,0.8547035886433683,0.13902376967634653,-0.8291104763480641,1.03963407960034,-0.22255459638054975,-0.7518472692467284,0.824793929312931,-0.08114072498735674,0.6621790927656306,1.208262654671969,0.26301056513370025,0.8525479158602223,0.9288463139109046,0.0,0.0,0.0,0.0
0.04100741122754047,-0.25254517645259983,0.7646511099496449,0.007098299705748327,-0.5182090016187402,-0.009576204994317397,0.855170942607677,0.14341854905282964,-0.8176278568489759,1.0190870897444293,-0.2172631895371035,-0.7517364463585067,0.8234804537417015,-0.09760068780664977,0.6623163479262641,1.1988913894559365,0.2803387872493739,0.8517528404254355,0.9258084530486894,0.0,0.0,0.0,0.0
0.03888427375459979,-0.25492706192764597,0.7655616658620034,0.006869494855075722,-0.5172548479207474,-0.009259145702925183,0.8557537616416141,0.14827051128835092,-0.8049586764283889,0.9942880290946962,-0.211350017166168,-0.7514186896104681,0.8201247046799526,-0.11661260739076901,0.6635470502046992,1.180415299100776,0.2996220346109731,0.8482875909707067,0.9251534040928348,0.0,0.0,0.0,0.0
0.03632781270982092,-0.2576166814526589,0.7664344715065543,0.006540422268597861,-0.5161036874667085,-0.008826703768642611,0.8564556590743009,0.15355894319960342,-0.7908040261794556,0.9650630717618657,-0.2048227158858233,-0.7507361167433113,0.8148821859528342,-0.13799547366213266,0.6647584447175006,1.1572524648399731,0.3206301695278701,0.8426495629777584,0.9257027990878292,0.0,0.0,0.0,0.0
0.03338135516076299,-0.2605834278093034,0.7673249787500316,0.006069156434236367,-0.5147273818991838,-0.008230272704648196,0.8572929197623154,0.15910381788439457,-0.7753699981714764,0.9317347851132733,-0.19788667290873294,-0.7495051423151926,0.8077444363339159,-0.16246565385653222,0.6656270176789391,1.1322953930583677,0.3430847021609373,0.8351678636742794,0.926474626114891,0.0,0.0,0.0,0.0
0.03012974434558462,-0.26368048852960535,0.7682035964869831,0.005383512828837128,-0.5130869772333014,-0.007383796086317937,0.8582879768111464,0.1644083725366737,-0.7598883897332317,0.8958969196058663,-0.1911440631086209,-0.7475200696609635,0.7984932401162005,-0.19249701121616816,0.6667501421044035,1.1078380609098402,0.36632464606163356,0.82591748185762,0.9269553162566135,0.0,0.0,0.0,0.0
0.026806917668049966,-0.266563180035493,0.7688554223091784,0.004345064846993659,-0.5110111901216842,-0.0060476889400895425,0.8595418020319775,0.16830950945211884,-0.7488469223487694,0.8632388512229439,-0.18618210951997505,-0.7455198766676899,0.7879573956361284,-0.23416428769038694,0.6709267810535209,1.085434653829324,0.3900229881712753,0.8145284811677879,0.9276335971794203,0.0,0.0,0.0,0.0
0.023742557435347044,-0.2691410485805285,0.7688586280144059,0.002948432813295982,-0.5083037153136484,-0.00418596371549035,0.8611626544678187,0.17081112366411244,-0.7469419815708763,0.8398639174025317,-0.18360590099141447,-0.7473792444211693,0.7809302304640242,-0.29530595437066276,0.6803201544973008,1.06699044089325,0.413839249507548,0.7994895061294398,0.9315211725545023,0.0,0.0,0.0,0.0
0.020981992873153547,-0.27119579637481017,0.7676871344133007,0.0014498648277080407,-0.5050435944516939,-0.002058739974591694,0.8630901616778002,0.17194643465167148,-0.7558476032688594,0.8279025766945345,-0.18356484090161007,-0.7550186289032935,0.7783154996168117,-0.3725230104695979,0.6921592571953913,1.0545510144717252,0.4329356747334351,0.7776844544471292,0.943416249955833,0.0,0.0,0.0,0.0
0.01891677102741251,-0.2724657662307703,0.765689410097262,0.00030910016456119587,-0.501548545741039,-0.00015373578309559174,0.8651294337192823,0.17189871576212232,-0.7736477489407045,0.8287509152904545,-0.18578001356681043,-0.7685533027988604,0.7820253248819344,-0.4533930475389764,0.6996249309529609,1.0519476623402515,0.44152579060493713,0.7521629994435327,0.9594280511166844,0.0,0.0,0.0,0.0
0.018944782668663365,-0.2725108374907395,0.7655994694782219,0.00021219101134408187,-0.5015548173616577,-9.542412593976026e-05,0.86512583538496,0.17190362694908493,-0.7738087491041796,0.8285065486345912,-0.1858494679170435,-0.7685942117167355,0.7820517382468193,-0.453433080319722,0.6996312027569447,1.0519474924728645,0.4415693519388568,0.752041133731411,0.9592564792995203,0.0,0.0,0.0,0.0
0.018944782668663365,-0.2725108374907395,0.7655994694782219,0.00021219101134408187,-0.5015548173616577,-9.542412593976026e-05,0.86512583538496,0.17190362694908493,-0.7738087491041796,0.8285065486345912,-0.1858494679170435,-0.7685942117167355,0.7820517382468193,-0.453433080319722,0.6996312027569447,1.0519474924728645,0.4415693519388568,0.752041133731411,0.9592564792995203,0.0,0.0,0.0,0.0
0.018281262158315485,-0.27285493816842527,0.766306660837024,0.00010392325071594779,-0.5034542933935504,-9.718216492253377e-05,0.8640218482302318,0.1716845426336882,-0.7562893045021274,0.8079239215860706,-0.1837119764454496,-0.7528944739495776,0.7645592705969323,-0.4572969418895635,0.7076312530630818,1.0498011607824151,0.4511136262109972,0.760635867997527,0.9576834823957586,0.0,0.0,0.0,0.0
0.017968255684116703,-0.2733168304684556,0.7667508476548104,0.00014030065883997788,-0.5046268207827603,-0.00023513760431836904,0.8633375335132348,0.17248815566094866,-0.7442555782552038,0.7937061794824452,-0.1815600443074599,-0.7449238283570229,0.7562883443393913,-0.4599955786454413,0.713301377210456,1.047826338217207,0.45802199059214005,0.7662682259896719,0.9570531134941471,0.0,0.0,0.0,0.0
0.01814685957503723,-0.2740354365009587,0.7669257855836488,0.000288398229326749,-0.5053205819294058,-0.000489976067437438,0.8629315072637234,0.17455345934306196,-0.7369367635810015,0.7857828595003459,-0.17901305882144083,-0.744791523519103,0.7587406375755983,-0.46178790682198667,0.7179844106134002,1.0462821657142556,0.4650192636177583,0.7705144574889251,0.9580496048604282,0.0,0.0,0.0,0.0
0.01890985631128166,-0.2751032815859678,0.7668588770390549,0.0005364509152234947,-0.505696601189682,-0.000839539959095255,0.8627108176777872,0.17801662937952892,-0.7336454866023134,0.7838869055825554,-0.17584018233807508,-0.7522835767999244,0.7724761355492844,-0.4628407191004307,0.7227208130271164,1.0450020386000234,0.47421545607301047,0.7746783842317423,0.960794656437625,0.0,0.0,0.0,0.0
0.02028497571629083,-0.27659941520760445,0.7664767656932864,0.00087720614410395,-0.5059176046845676,-0.0012284224783298105,0.8625804882779491,0.18290507478716678,-0.7336393938574831,0.7870912638974088,-0.17192313902479367,-0.76669926190715,0.7967418581132417,-0.46321186296403927,0.7278813041994193,1.0447777639036353,0.48820271072368704,0.7795612591170066,0.966447926091257,0.0,0.0,0.0,0.0
0.022292802066411488,-0.2786816190399414,0.7655562697391534,0.0009254555467589787,-0.5068532658233318,-0.0011183212763536822,0.8620311246200898,0.18823448891406927,-0.7340563397852172,0.7915518187818089,-0.16770241400480648,-0.7819196945662253,0.8251856943836015,-0.4602808042239093,0.7347975990365371,1.0490665789242684,0.5226882623492014,0.7903871044136804,0.9794533814668049,0.0,0.0,0.0,0.0
0.025613083852974533,-0.28153978633981785,0.7674375264439035,-0.0010415266846128114,-0.5092303187298188,0.0014885563639604955,0.8606283645734921,0.18985899408024567,-0.7307293005132407,0.8001762075942067,-0.16608357652193811,-0.779402802260169,0.8491405708705665,-0.4221307976880888,0.7550507584946643,1.0272417971216221,0.4152860443900035,0.7574588182162144,1.0048101222628247,0.0,0.0,0.0,0.0
0.029270432218487834,-0.28466067354146857,0.7682597464864165,-0.002956853097882022,-0.511942242684211,0.004055811153975153,0.8590052081164009,0.192547314102855,-0.7292794619044761,0.8099478788357115,-0.1637999169019198,-0.7803126227386713,0.8765183789001718,-0.381519863567826,0.7722721135000802,1.012888082967644,0.3156642260853806,0.7318976088584512,1.029695094394303,0.0,0.0,0.0,0.0
0.03312609809087371,-0.287890210124653,0.7685002715619306,-0.004151981090614113,-0.5141516420211811,0.005698462938929429,0.8576703198666024,0.1978180310134333,-0.729422465318056,0.8213278037725475,-0.1596123912098948,-0.7898800943508151,0.9118034195549798,-0.3466507792089675,0.7874283374995339,1.000977623533456,0.24464843807739522,0.7163203452390043,1.0550350738880234,0.0,0.0,0.0,0.0
