zhuoxili-jackie/tripod-support-walk/examples/trajectory_walking_sideways_sc_v0.10.csv
root_pos_x,root_pos_y,root_pos_z,root_rot_x,root_rot_y,root_rot_z,root_rot_w,FL_hip_joint,FL_thigh_joint,FL_calf_joint,FR_hip_joint,FR_thigh_joint,FR_calf_joint,RL_hip_joint,RL_thigh_joint,RL_calf_joint,RR_hip_joint,RR_thigh_joint,RR_calf_joint,FL_foot_joint,FR_foot_joint,RL_foot_joint,RR_foot_joint
0.0,0.0,0.72963,0.0,-0.5231245161092812,0.0,0.852256264656019,0.0,-0.81,0.872,0.0,-0.81,0.872,0.0,0.65,1.0,0.0,0.65,1.0,0.0,0.0,0.0,0.0
5.176592831315146e-05,-0.00010589291909893449,0.729592095650203,-0.00021167764846304692,-0.5231944409398644,0.0001842490930841664,0.8522132938498832,-9.704977668481023e-05,-0.8103165674564866,0.8722835433504394,-9.704977668481042e-05,-0.8096270375952773,0.8720627867772887,0.003212168600479999,0.6493376955895159,0.9998476215936317,0.00321216860048,0.6509687657220116,1.0010410894221433,0.0,0.0,0.0,0.0
0.000527998872569225,-0.00017916012269586756,0.7295076746381707,-0.0003437869686666694,-0.5232934059489055,0.0003039241545251701,0.8521524515783678,-0.00015242821942405423,-0.8127382116898059,0.8767611407896377,-0.0001520171671939955,-0.8116393532591955,0.8764498222983559,0.005303512037508484,0.6500673379112194,0.9999956447766045,0.005325817862458749,0.6527617662668109,1.0019921969678356,0.0,0.0,0.0,0.0
0.001462839344423368,-0.00016846044898099978,0.7293917001583322,-0.00040941104055125104,-0.5234762272894719,0.0003611750150488242,0.852040105510292,-0.000293450453907093,-0.8171873637599325,0.8856055146542621,-0.0002926478794814348,-0.8156649243971447,0.8848989308770125,0.006053110383440565,0.6525057380623279,1.0005511551432373,0.006092209203514237,0.6557099681832812,1.0026165946282788,0.0,0.0,0.0,0.0
0.0028863610331178236,-4.432663971827038e-05,0.729252910772856,-0.0004204376283996812,-0.5237536454579889,0.00036782840213512365,0.8518695949521466,-0.0006205566903926146,-0.8237681914242411,0.8990608230529985,-0.0006194245905738814,-0.8216021670283503,0.8973845515542609,0.005398516601280107,0.6568086926876153,1.0014791683368238,0.0054354737385380264,0.6600190792003165,1.0027062236838273,0.0,0.0,0.0,0.0
0.004829233769336726,0.0002039598902115257,0.7291114166803072,-0.0003688894079044154,-0.5241479984526348,0.00031776389059101347,0.8516270537417252,-0.0011524209553004218,-0.8323371516355729,0.9170961570864659,-0.0011509271050630424,-0.8293155869482551,0.9138624440519002,0.003112924989399229,0.6633182725371919,1.0025925622365872,0.0031294693393065266,0.6659153704471394,1.0019854426606887,0.0,0.0,0.0,0.0
0.007314729644714416,0.0005610990519123699,0.7290050698752407,-0.00022408664952823523,-0.5247021486275347,0.00018307901849226512,0.8512858341901943,-0.001797940550234816,-0.8423718370118851,0.9392549597564186,-0.0017960179334254728,-0.8385524342055571,0.9341739828548105,-0.001213451062293975,0.6726138818118493,1.003493961362318,-0.0012155034713063383,0.6736610342537008,1.0000919891581126,0.0,0.0,0.0,0.0
0.010338066833762274,0.0009664486380156674,0.7289801286512384,5.665579196059976e-05,-0.525455316431642,-8.667376914054539e-05,0.8508211913860055,-0.002295333014920066,-0.853036618234637,0.9646057471151452,-0.002293158118653371,-0.8490516277204508,0.9580696468249257,-0.008025355269708847,0.6853316050413352,1.0035587054034365,-0.007984824479673063,0.6833983848063928,0.9966934974975986,0.0,0.0,0.0,0.0
0.01295923705713092,0.0012674584604868558,0.7287472857172203,-0.00015601315768662427,-0.5252946674679753,1.966223020400722e-05,0.8509203767703537,-0.004407822030924892,-0.8520074817223279,0.9382771670755145,-0.0032465561691587827,-0.862108145020296,0.9819939228320276,-0.008504877694727228,0.6917599121344534,1.0029998742557016,-0.008387413126873227,0.6903772810671709,0.994359187741701,0.0,0.0,0.0,0.0
0.01538830220879471,0.0016625345086961254,0.7283805602982711,-0.0002984625302280522,-0.5252907552047074,7.6772851339136e-05,0.8509227506198876,-0.009146764488271581,-0.8595356640322898,0.9192330826990183,-0.004368864056155576,-0.8734009779197762,1.0026876803433584,-0.01043774817018282,0.6977381136139479,1.0044686658961604,-0.01024116239044168,0.6963080725307855,0.9932805716746966,0.0,0.0,0.0,0.0
0.01747188287877698,0.0020782398270530484,0.7280311181463625,-0.00039209345018135285,-0.5254502370491284,0.00010013163169022981,0.8508242383838142,-0.014413667574939044,-0.8716096004298093,0.9067982575976523,-0.005493590880389636,-0.8819690258224968,1.0190428476600855,-0.013159120513629382,0.7034476581528899,1.0065144107606738,-0.012862093541962383,0.7015411346126416,0.9925545253721518,0.0,0.0,0.0,0.0
0.019124493868925115,0.002445598808644517,0.7277385257814772,-0.00047766701380782764,-0.5256615249739944,0.00012861299748344362,0.8506936678117073,-0.019380620953638465,-0.885729806507056,0.8981801133327989,-0.006514291469878527,-0.8881060098592989,1.031239122882369,-0.015581965427018809,0.708238745314082,1.008438044697418,-0.01517379447590511,0.7058926389049462,0.9920515017183361,0.0,0.0,0.0,0.0
0.020343611713353815,0.002724522922397602,0.7275147504406415,-0.0005628378350512251,-0.5258675532964979,0.00016670635628808717,0.8505662653859,-0.02390260731760197,-0.9006733633853705,0.8914379770547417,-0.0073268915046072565,-0.8922453752680632,1.0398200727567242,-0.017227800801477802,0.7118696809888044,1.0099545180096055,-0.016724478188182616,0.7092984487815781,0.9917719736756985,0.0,0.0,0.0,0.0
0.021177351308630705,0.002896989559614796,0.7273600559263502,-0.0006396016122162371,-0.526049953179096,0.00020238932593214152,0.8504534065477128,-0.02808635104363362,-0.9159132963895892,0.8853892680424876,-0.007851513190463972,-0.8948235535823854,1.0454679594523812,-0.018034612420152835,0.7144198009224347,1.0109678516546106,-0.01747104628836008,0.7118206606104156,0.9917140290929443,0.0,0.0,0.0,0.0
0.021695844150674132,0.002959343467207256,0.7272666276477238,-0.0006970366483994617,-0.5262076131426806,0.00022098403330196717,0.8503558156305223,-0.03208887564610109,-0.9312186209786066,0.8793642175284823,-0.008043103744830764,-0.8962516963647308,1.048881893686736,-0.018140006266578596,0.7161077466468195,1.0114821339380626,-0.017554063491519206,0.713578195333493,0.9918715155054679,0.0,0.0,0.0,0.0
0.021970519004094077,0.002915775190862819,0.7272189287014834,-0.0007259629728729453,-0.5263449621572678,0.0002102077179687797,0.850270786045329,-0.036048126791296334,-0.946378403561225,0.873052985957144,-0.007884936102327371,-0.8968999349833497,1.0506921980687152,-0.017747560989142003,0.7171582260119562,1.0115829953847981,-0.017169079388666852,0.7146776477595073,0.992272898996996,0.0,0.0,0.0,0.0
0.022057711894923792,0.0027722791900174643,0.7271868678053283,-0.0007220915654360386,-0.5264606450292041,0.00016174414922477334,0.8501991776390022,-0.040059961718223965,-0.9610023698055568,0.8664160988946118,-0.007374283256005148,-0.8971244595746578,1.0514153594672886,-0.01702092313742736,0.7176560153043227,1.0114884033239344,-0.016469687535656315,0.7151133618622578,0.9930789161046479,0.0,0.0,0.0,0.0
0.022016557144210046,0.0025662202842111634,0.7271852157670167,-0.0006887092883165564,-0.5265629109642979,8.520180863719063e-05,0.8501358827957874,-0.044257394755644726,-0.9742843466860535,0.8598629447722955,-0.0066360595102398735,-0.8969880405123996,1.0513530616770475,-0.016187138916186186,0.7178969846022835,1.0111095937364007,-0.01566983606750389,0.7151659730844273,0.9939604058182632,0.0,0.0,0.0,0.0
0.021869689509885732,0.00231225609801672,0.7272195025328942,-0.0006322899447201086,-0.526645930202001,-1.0083215525538456e-05,0.8500845042167418,-0.04865314665733735,-0.9849031275934713,0.8541815489701218,-0.005732172326879366,-0.8965453850422258,1.0506475491016796,-0.015252639725577208,0.7179429941515455,1.0103905710786818,-0.014773924802346,0.7149435229007307,0.9947806331327194,0.0,0.0,0.0,0.0
0.021597234617493237,0.0019956313231724817,0.727291511635001,-0.0005577607374719652,-0.5266991044314416,-0.00011826632789907701,0.8500516033201471,-0.05309611189726742,-0.9911209904637835,0.850655851099523,-0.004637403094659404,-0.8957739555343359,1.0492091625503601,-0.014009798176511384,0.7176660001335203,1.0092652251665462,-0.013581302650776823,0.7144025120297748,0.9955894015478635,0.0,0.0,0.0,0.0
0.02115742484912121,0.0015833948782364225,0.7274085070419443,-0.00046402190206918764,-0.5267231482882268,-0.00023966413702340185,0.8500367358544656,-0.05731056255063001,-0.9913819968999935,0.8508201836289397,-0.0032650401672933075,-0.8945299935034792,1.0467696536505091,-0.012198089503894914,0.7169384429533826,1.007611759310161,-0.011837548401793083,0.7134748250093258,0.9964915737020215,0.0,0.0,0.0,0.0
0.020518824486344588,0.0010535993272060384,0.727573760738838,-0.0003521615982151181,-0.5267126676890905,-0.000373805662779146,0.8500432353400483,-0.06121535245161257,-0.9856773734544315,0.8546450017425229,-0.0015596568163820446,-0.8927296314854604,1.043137272186517,-0.009639985941300076,0.7156440392013657,1.0053497877011712,-0.009361616464427618,0.7120848986954006,0.997560976780845,0.0,0.0,0.0,0.0
0.019665076941745015,0.0003972145619203874,0.7277764024480564,-0.00022423560732622459,-0.5266576841763478,-0.0005219194467470488,0.8500772676742331,-0.06495786407036387,-0.9755801123553329,0.8605993845919989,0.000503945050235994,-0.8903942919015884,1.0382386254260856,-0.006292206575926922,0.7136659600478019,1.002535020706709,-0.006094514543368351,0.7101091248899378,0.9989171750520068,0.0,0.0,0.0,0.0
0.01858701465396909,-0.00039134549713020525,0.7280203776446912,-8.055541031171512e-05,-0.5265630040768962,-0.0006856799049555786,0.8501358280247977,-0.06863785531634774,-0.9628689454728867,0.8674617157262768,0.0029411560354860814,-0.8874380364860056,1.0319528568907146,-0.0021748908841069895,0.7110405900279336,0.9991104259741619,-0.0020336497143052315,0.7075489574385423,1.000540848281595,0.0,0.0,0.0,0.0
0.017271210577324964,-0.0013111852815894099,0.7283247641403376,7.423750198048607e-05,-0.5264384094739795,-0.0008596871507382793,0.8502128300945022,-0.07230904585192874,-0.9489422128625682,0.8745984086117873,0.0057319804231200505,-0.8836420433024895,1.0240323554539617,0.0027140498236437544,0.7078615797985294,0.9949032554224799,0.002848547940376366,0.7044994083574583,1.002269383769747,0.0,0.0,0.0,0.0
0.015697904569866302,-0.002363199200931718,0.728704587916187,0.00023049038652049516,-0.5262903040225306,-0.0010350681100571477,0.8503042934150465,-0.07604750714813788,-0.9347469428836637,0.8819009705268454,0.00885278469260146,-0.8787732652395245,1.0141748961101675,0.00843869426097079,0.7041652043927951,0.9897585130745574,0.008645168495536214,0.7010266504584654,1.0039834590229222,0.0,0.0,0.0,0.0
0.013858868378597233,-0.0035416918467499423,0.7291667797985676,0.0003756596839897062,-0.5261289526240404,-0.0012028203477518705,0.8504038671794379,-0.08006329771392061,-0.9209430288252662,0.8897938178002984,0.012262280910177469,-0.8726252087295436,1.0021220306605878,0.015012045496401692,0.7000130567878688,0.9835953060858277,0.015403872462062138,0.6972042599752138,1.0055980775587858,0.0,0.0,0.0,0.0
0.011781232513621445,-0.0048240887369906,0.7296882972140043,0.0005067457440575151,-0.52598973357999,-0.0013677685866218,0.8504896663606768,-0.08473866078122543,-0.908143285263041,0.899351696906535,0.01590643135776903,-0.8650928471081453,0.9877862580942811,0.02215021566786056,0.6955793845054906,0.9766748673467424,0.022868232520115314,0.6930777872292767,1.0072218436729587,0.0,0.0,0.0,0.0
0.009553562339439155,-0.006153500630780567,0.7301546042039093,0.0006521962909728306,-0.5259603401775127,-0.0015722603780910494,0.8505073916184718,-0.09054363083057954,-0.8972308350144808,0.9124991911965254,0.019727621141266066,-0.8563668192117458,0.9714318237685654,0.02891945974202935,0.6910697856197113,0.9703123412733538,0.03007866702372719,0.6884288457196621,1.009667608562384,0.0,0.0,0.0,0.0
0.007445710981140293,-0.007311693699099437,0.730451208900149,0.0008833614755883306,-0.5262425832455634,-0.0018728119805796412,0.8503319680141546,-0.09809509703920531,-0.8896099357979802,0.9325968288230992,0.023266958710454314,-0.8465889932595783,0.9539512662279277,0.033091037452174524,0.6876130923427268,0.9665288291912308,0.03463152724765151,0.683720646621498,1.0132467368638827,0.0,0.0,0.0,0.0
0.005972146815289336,-0.008103206589967238,0.7304598433894764,0.0013539432846417442,-0.5270446875916571,-0.002367894129342898,0.8498331937482713,-0.10682470072963114,-0.8876228143821859,0.9640352656097383,0.02621241732339031,-0.8373751712478111,0.9388796570484477,0.03210622779880892,0.6871056088457801,0.9672573677946206,0.03368477719669731,0.6799773699859866,1.0181914859305508,0.0,0.0,0.0,0.0
0.00547333127129436,-0.008396553692609015,0.730357919917524,0.002110086175502161,-0.5283448073279896,-0.002937788017521293,0.8490221914104752,-0.11516814915835236,-0.8954303965242244,1.0096376484400602,0.027897323294916596,-0.8297560983847031,0.929149647485869,0.025696520964829557,0.6910756050499947,0.9709485062553601,0.026946445733798407,0.6791545005323845,1.0222941579591784,0.0,0.0,0.0,0.0
0.0054727884846465305,-0.008427826638086578,0.7303527936902193,0.0021319961791142748,-0.5283419959029585,-0.002934387129113818,0.8490238979732826,-0.11516972969081897,-0.8954506980571384,1.0096454015550032,0.02793053952573426,-0.8297572786572012,0.929086491193178,0.025663708294498898,0.6911235978912506,0.9708343432539209,0.02697241345537835,0.6791047272723167,1.0223838871013764,0.0,0.0,0.0,0.0
0.0054727884846465305,-0.008427826638086578,0.7303527936902193,0.0021319961791142748,-0.5283419959029585,-0.002934387129113818,0.8490238979732826,-0.11516972969081897,-0.8954506980571384,1.0096454015550032,0.02793053952573426,-0.8297572786572012,0.929086491193178,0.025663708294498898,0.6911235978912506,0.9708343432539209,0.02697241345537835,0.6791047272723167,1.0223838871013764,0.0,0.0,0.0,0.0
0.006136605507863969,-0.008778927735100707,0.7318755210331157,0.0015916257342584378,-0.5273597717986059,-0.0022411372295514935,0.8496376375372989,-0.11613013809281302,-0.9005609636264544,1.0193556541213102,0.027312405886701956,-0.8331578776839073,0.9387629959886762,0.015226341893984746,0.6715302824648824,1.0016860087293737,0.037994172562053015,0.6885104103977079,1.008091109424425,0.0,0.0,0.0,0.0
0.006999755144119862,-0.00946848271880383,0.7338936971296098,0.0014012630980564588,-0.5269219798379352,-0.0019432621036979906,0.8499102819461575,-0.11515144121765782,-0.9004103127840585,1.025881105399475,0.02837931754519337,-0.8343755182479387,0.9484100493759138,0.007216231495391764,0.6569846193053431,1.0275088401300059,0.046368031025771195,0.7010947958969511,0.9904472735729882,0.0,0.0,0.0,0.0
0.007864150877847507,-0.010474870130712029,0.7359112801186513,0.0014247692574481568,-0.526719199960635,-0.001927874009750281,0.8500359626081676,-0.11261034248613844,-0.8977317778269807,1.0298920177462878,0.03088381301372893,-0.835409820454004,0.9581214293461935,0.002651329002197147,0.645926312102329,1.049858878564919,0.053753996588573,0.7136645693608805,0.9735608327391264,0.0,0.0,0.0,0.0
0.00868165163273937,-0.011728378984082707,0.737784980628601,0.0015573510912152316,-0.5265869179676237,-0.0020876737546163177,0.850117306082656,-0.1089898117127205,-0.8940690524927217,1.0323305066831026,0.03442824207367836,-0.8370095637954114,0.9680808898642804,-5.4257456542392696e-05,0.6373072078353831,1.07035034526665,0.06106970236296572,0.7252905767815577,0.9584793804001441,0.0,0.0,0.0,0.0
0.009421456227187326,-0.013119218010301564,0.7395047263747969,0.001734465099975744,-0.5264661379494922,-0.0023065106927677975,0.8501912003965857,-0.10487704254064711,-0.890028731366084,1.0336356926109713,0.03845806642516658,-0.8389369669645295,0.9778065542647993,-0.0014593579809188014,0.630151356532298,1.089857455517339,0.06873253473833693,0.7359408003434275,0.9450875929590479,0.0,0.0,0.0,0.0
0.010051302302953345,-0.014549637121925705,0.7410733216782289,0.001920936233335939,-0.5263466530031102,-0.002539527897080935,0.8502641128934414,-0.10062638604824833,-0.8857684325063662,1.0338850935008053,0.04262214528077325,-0.840799877371711,0.9866806517749263,-0.0023232359955860102,0.623788681730274,1.1089214142723272,0.07654426608987908,0.7455614674350738,0.9331823571855802,0.0,0.0,0.0,0.0
0.010559413691694337,-0.015911864938073367,0.7424995014479252,0.002095387067251035,-0.5262415160564345,-0.0027430212418805243,0.8503281436987314,-0.0966202098443077,-0.8813955185077362,1.033232659956245,0.04653532710706994,-0.842171680169392,0.994161554621484,-0.00297669961249662,0.617795735965451,1.1277900145817992,0.08414291487878793,0.7542390563819195,0.9224708699778397,0.0,0.0,0.0,0.0
0.010977053308284062,-0.017143415681819554,0.7437787630682073,0.002251408274265791,-0.526155108714324,-0.0029100218104061238,0.8503806585921762,-0.09304301840330725,-0.87719130934116,1.0321497250616027,0.05002277180365567,-0.8430923584545299,1.000377106882238,-0.0036360335366595444,0.6121330075547321,1.1465069529509564,0.09115222358934412,0.7620262262887652,0.9128220529970537,0.0,0.0,0.0,0.0
0.011331955638395707,-0.018206321878789223,0.7449004630017731,0.0023885322377521024,-0.5260939867478882,-0.0030426689686325597,0.8504176351575792,-0.0899911113268403,-0.8733677874565895,1.0309998311502355,0.05299471451193529,-0.8436540286889926,1.0055006597250422,-0.004480029344045629,0.6069141313128205,1.1648527863381168,0.09728334097670589,0.7689293185432693,0.9042425391776729,0.0,0.0,0.0,0.0
0.011631178838397606,-0.019085237817817735,0.7458449253007549,0.002506302573340601,-0.5260603356785246,-0.0031437662767491797,0.8504377451682198,-0.08749609382339778,-0.8700532529898912,1.0299351143153186,0.055421622084962346,-0.8439452005786685,1.0096136497619623,-0.005714587852160283,0.6023242435550185,1.182150998300259,0.10241155492893629,0.7748449739021697,0.8969203266711222,0.0,0.0,0.0,0.0
0.011851328969162248,-0.01978989651021259,0.7465795762020805,0.0026003663396997243,-0.5260464180534806,-0.003212677345443659,0.8504458141776442,-0.085527576909605,-0.8672972267115769,1.0288416199122015,0.05733147381812291,-0.8440466566215468,1.012654619925423,-0.007666705387995245,0.5986606526171827,1.1969687994674267,0.10663975869783193,0.7795053888832155,0.8912803221822451,0.0,0.0,0.0,0.0
0.011940564126592125,-0.020358770697173515,0.747059446416286,0.0026595091202244324,-0.5260277105184381,-0.00324374314592693,0.8504570846952673,-0.08398832722814846,-0.8651176192453229,1.0273865143798886,0.05881774969569509,-0.8440810533607362,1.0144805421406689,-0.01086632723909646,0.5965708773509719,1.2066749727596686,0.11034946717370886,0.7824749089602289,0.8879769108076653,0.0,0.0,0.0,0.0
0.0118432356279036,-0.020853528215920188,0.7472487989445166,0.002669728925316305,-0.525965777314539,-0.003231853752701786,0.8504954019644664,-0.08271934654840601,-0.8635237112288274,1.0251965517896124,0.0600378979874399,-0.8442373584550944,1.0150289438695737,-0.015960487508379976,0.5975333400053794,1.2070968406655187,0.11409250143111971,0.7833290173079508,0.8876139907525231,0.0,0.0,0.0,0.0
0.011525498797775743,-0.0213129996736462,0.7471637256093333,0.0026345774502324485,-0.5258522258927004,-0.003180878966845213,0.8505659160431656,-0.08160446124015021,-0.8622774736606926,1.021877212356348,0.06109580498602269,-0.8444387999080692,1.0141374879680816,-0.022873915569583573,0.6014662842439463,1.1981687192086914,0.11806596664304714,0.7820157196610823,0.890183449054766,0.0,0.0,0.0,0.0
0.01097492807814354,-0.021752013236488305,0.7468713425347169,0.0025724161634766295,-0.5257059735368022,-0.0031017171862258433,0.8506568000159063,-0.08057771451059133,-0.8609157582424831,1.0170286068535592,0.06203520458416871,-0.8443496949483679,1.0115459534878817,-0.030852248733858965,0.6067391139571033,1.1839314709719053,0.12213598283168568,0.7788565258480036,0.8950584835517142,0.0,0.0,0.0,0.0
0.010176587848009571,-0.022203456231863757,0.7464469073628991,0.002494442862060403,-0.525529617471554,-0.003001868330500306,0.8507663531790244,-0.07953355346759661,-0.8590036787569605,1.0102488397641742,0.06294290885463293,-0.8436997017032064,1.007071233293867,-0.03932595651933144,0.61254060081938,1.1669193392191985,0.12635864728911936,0.7741956991847401,0.9015433702820073,0.0,0.0,0.0,0.0
0.009093610124160748,-0.022717214001932117,0.7459508543881488,0.002401044928546176,-0.5253103626554669,-0.0028794586462521582,0.8509024424620824,-0.07834106836643244,-0.8561263888261549,1.0009953505263849,0.06393201489722164,-0.8422535596745852,1.0004530949917518,-0.04802697103488407,0.6183846273246182,1.1485309102172931,0.1310344582009647,0.7682306377776376,0.9091519521433676,0.0,0.0,0.0,0.0
0.007674246373172306,-0.023346952781716973,0.7454251441896467,0.0022841974525261684,-0.5250299703340187,-0.00272376660268131,0.8510763149028125,-0.07687940134882815,-0.8518882002124142,0.9886201682267575,0.06510655857326818,-0.8397746002311124,0.9913293039613241,-0.05697584256995795,0.6238734668707463,1.1295189847620437,0.13658890665240742,0.7610295468572751,0.9176082730630487,0.0,0.0,0.0,0.0
0.005876643131072014,-0.024133670954712128,0.7448936577498868,0.002130743204306153,-0.5246742492751897,-0.0025179305656956668,0.8512966886500732,-0.07507944912006323,-0.8459845700550583,0.9725660641860248,0.06652511668825381,-0.8360552762208949,0.979357363896025,-0.06652121434449697,0.6287017572026066,1.1103839383737768,0.14341659980758886,0.7526215988986661,0.9267646656734457,0.0,0.0,0.0,0.0
0.0037101365937289785,-0.025088935518929087,0.7443604912395452,0.0019242600189708734,-0.5242374544645529,-0.0022429379832515175,0.8515670013505153,-0.07296463694541058,-0.838399956637213,0.9527641505245187,0.06817232181457886,-0.8310673396346994,0.9645272031926162,-0.07752542451865434,0.6328563852738076,1.091726963270176,0.15174433674229587,0.7431148201186915,0.9365186000248653,0.0,0.0,0.0,0.0
0.0012965759111165003,-0.026179913134978534,0.7437976712625965,0.0016417855133905115,-0.5237073649915518,-0.0018815020078589199,0.8518945711437115,-0.0706877883575816,-0.8298912735457296,0.9304078496761894,0.0699477534444725,-0.8253781785811698,0.9478252955777824,-0.09182900188821788,0.6370647816999263,1.0745556326235772,0.16157096343321123,0.7327764918898806,0.9468038071203465,0.0,0.0,0.0,0.0
-0.001030107617513874,-0.02729216145455826,0.7431410479652083,0.0012286334454507145,-0.5229928139919394,-0.0013824618878675709,0.8523350842079527,-0.06872672444247598,-0.8231849260255107,0.9096865745627154,0.07152519591128319,-0.8210162098899361,0.9325619154365595,-0.1128072257547118,0.6432968387245366,1.0601198626502093,0.17285736972192292,0.7222112348645486,0.9573415691269935,0.0,0.0,0.0,0.0
-0.002897752726783855,-0.028243429327038355,0.7424255956403474,0.0006509738770828236,-0.5220748634717868,-0.0007272261202907153,0.8528991055840641,-0.06762906871965194,-0.8207430869486004,0.8951849128593065,0.07247513623666962,-0.819535920546629,0.9219743633154577,-0.14445701099026204,0.6525947865833276,1.050340673567868,0.18485920852221774,0.7126846123164012,0.9668897494063553,0.0,0.0,0.0,0.0
-0.004071642521759376,-0.028855419150607263,0.7418587162826744,4.499725839995938e-05,-0.5211506315204828,-2.2622749395080524e-05,0.8534647132302893,-0.06762620265661319,-0.8222082467216565,0.888525989072926,0.0725353304745105,-0.8203837439330968,0.9169040756154566,-0.18240409760414986,0.6619410057488181,1.0473941488005445,0.19516837562092185,0.7059989618729662,0.9732228656178149,0.0,0.0,0.0,0.0
-0.004059171757052287,-0.02886190579535446,0.7418380784058772,2.106891787466813e-05,-0.5211513427977374,-1.2957289132278266e-05,0.853464280030702,-0.06763832923422435,-0.8222218097655296,0.888465326300453,0.07253599743531797,-0.8203908278813876,0.9168941247224487,-0.18238691352275382,0.6619309798481688,1.0473833517662097,0.19514899906796665,0.7059682191162284,0.9732008443904477,0.0,0.0,0.0,0.0
-0.004059171757052287,-0.02886190579535446,0.7418380784058772,2.106891787466813e-05,-0.5211513427977374,-1.2957289132278266e-05,0.853464280030702,-0.06763832923422435,-0.8222218097655296,0.888465326300453,0.07253599743531797,-0.8203908278813876,0.9168941247224487,-0.18238691352275382,0.6619309798481688,1.0473833517662097,0.19514899906796665,0.7059682191162284,0.9732008443904477,0.0,0.0,0.0,0.0
-0.004689743280563261,-0.028982974720434908,0.7418735100244224,0.00011751675963083175,-0.5215025270849575,-4.3881791898387124e-05,0.8532497281032105,-0.06716002134035418,-0.816061195856742,0.8791779042938797,0.07269412468129788,-0.8152193260551537,0.9089396677894447,-0.18226950505974318,0.6613163137426399,1.047956319501433,0.1949681003281735,0.7050710353734244,0.9743547310280533,0.0,0.0,0.0,0.0
-0.005155305534830504,-0.02920601124489242,0.741801305410603,0.00020945490999769333,-0.5217316090019299,-0.00010591431357008362,0.853109648919209,-0.06638807605886725,-0.8116415832311984,0.8720994331781264,0.0732552630932267,-0.8122025244847887,0.9037895474513663,-0.1815999618597251,0.6603565985726486,1.0488477928239908,0.19543819071900653,0.7038048955778792,0.9764519106997176,0.0,0.0,0.0,0.0
-0.005156652704509641,-0.029425377064545382,0.741722764669326,0.00027984064565700736,-0.521905775390428,-0.00016374728186551403,0.8530030811727216,-0.06570291656331387,-0.8101612094505628,0.8702500656938847,0.07389561188305475,-0.8119356907326845,0.903622195484342,-0.18124495654041037,0.6606724788558427,1.0493549346536273,0.1965786386337666,0.7038936794325432,0.9781476272157309,0.0,0.0,0.0,0.0
-0.004645257553518268,-0.029635874110514382,0.7416585409826024,0.00033692442894204047,-0.5220664976202674,-0.00021915930222403404,0.8529046901697966,-0.06511429260173489,-0.8115927145552442,0.8739283617438236,0.07460309721543928,-0.8143754573935023,0.9086854604674185,-0.18143968275161368,0.6626727518437079,1.049365999536982,0.1984217681716671,0.7057148112888662,0.9792770712155491,0.0,0.0,0.0,0.0
-0.003596556509894422,-0.02985572576842654,0.7416149880542773,0.0003896022524314694,-0.5222303528013158,-0.00028299319210827427,0.8528043308625675,-0.06455096737137087,-0.8158521617356123,0.8831451807563043,0.07545086160642014,-0.8195468470231503,0.9191185663459204,-0.18225628016275244,0.6665625844820726,1.0487806183029262,0.20105708190007124,0.7094279684771552,0.9798176269342586,0.0,0.0,0.0,0.0
-0.002004551890659374,-0.03012083429025604,0.7416048271423177,0.0004487908142454115,-0.5224061973044418,-0.00037491408353485867,0.8526965597703251,-0.06387249816763317,-0.8226694887940673,0.8975735143101365,0.07657824822664516,-0.8273913414526907,0.93486265427229,-0.18368824746990037,0.6725186135084168,1.047370434110857,0.20461234921215454,0.7151450026687756,0.9797034957814192,0.0,0.0,0.0,0.0
0.00011404219954149744,-0.03047516843056069,0.7416508972893091,0.0005409201072733514,-0.5226247017267942,-0.0005946833887873527,0.8525624756591649,-0.06270069974568843,-0.8313116104689513,0.9163352993054963,0.07834544555267499,-0.8376431037220973,0.9554934965929454,-0.18640473986116007,0.6810016895987966,1.0448903776967742,0.20861501713130876,0.7228303293792027,0.9787820233833622,0.0,0.0,0.0,0.0
0.002404198375022,-0.0306632326253618,0.741496975864306,0.0006550148325207915,-0.5223626080724298,-0.0006475312731079738,0.8527229663534275,-0.06252285775795106,-0.8446124997921967,0.9399530144250756,0.06837335275370308,-0.8346687992339328,0.9274478013826422,-0.18873872945420755,0.6873885340052476,1.043246698936342,0.2118352958197767,0.728925712781296,0.9780461884346036,0.0,0.0,0.0,0.0
0.004576209337463994,-0.031019969039931643,0.7412285411765309,0.0007799871034340429,-0.5221671523721997,-0.0007930553772170627,0.8528424401182173,-0.061643904238838594,-0.8564622756062588,0.9609290144985629,0.05870811263032756,-0.8404891404403384,0.9071430011600566,-0.19066154555085063,0.6932961465857648,1.0423556162704044,0.2157717961761286,0.7342843744494548,0.9789538382002287,0.0,0.0,0.0,0.0
0.006423084329119732,-0.031497185031383185,0.7409926012649096,0.00091749974132176,-0.5220906598485442,-0.0009844576219069149,0.8528889329428112,-0.06025757975446821,-0.8653328132652561,0.9772292154646074,0.05061824402984186,-0.8508741827259336,0.8932119788153573,-0.19191883306958038,0.6987462155307858,1.041312887368745,0.22014769523773228,0.7391474674587005,0.9803328798144186,0.0,0.0,0.0,0.0
0.00787492207130879,-0.03201612412512015,0.7408050989326983,0.0010538600075311111,-0.5221003274813144,-0.0011818634000501573,0.8528826065889094,-0.05866092206470623,-0.8714020621202617,0.9889430858525473,0.04394027555494008,-0.8632261729148213,0.8830367878327813,-0.19250528363012548,0.7033552183466768,1.04020781594439,0.22452660542835423,0.7432632561923398,0.9818794020426813,0.0,0.0,0.0,0.0
0.008954964393025367,-0.032516985392310724,0.7406617024100021,0.0011768960686455556,-0.522163771458399,-0.001361690377192458,0.8528433364289721,-0.057080105763223164,-0.875249993475776,0.9968702105760274,0.03819452845998063,-0.8763427649197651,0.8748447410332733,-0.19255914486271095,0.7070080532104126,1.039185886184905,0.22860184569162773,0.7465658497517385,0.9834344920977542,0.0,0.0,0.0,0.0
0.009729067434336616,-0.03296610385472503,0.7405546528166514,0.001279857463134193,-0.5222556281567443,-0.0015137777852984493,0.852786684523331,-0.055645804139609116,-0.877504117056214,1.001971880901508,0.03293887629522149,-0.8897490681797021,0.8675216878232545,-0.19225254187591342,0.7097845386634116,1.0383180485905714,0.2322153925089504,0.749132597912884,0.9848924929396676,0.0,0.0,0.0,0.0
0.010275614111245036,-0.03335454772580165,0.7404779054339463,0.0013619751399412206,-0.5223572391165541,-0.0016382960657770529,0.8527240912230931,-0.054398051180802244,-0.8787053941292969,1.0051358436589928,0.02788929299866103,-0.9032645840352508,0.8604059247313999,-0.19172745672017877,0.7118670538311378,1.0375832735735107,0.23533713634685574,0.7511156541218039,0.9861792911142915,0.0,0.0,0.0,0.0
0.010667970772557612,-0.03368966201051,0.7404240533214598,0.00142674073249481,-0.5224548433812177,-0.0017409343844537004,0.8526639843372408,-0.05331818782020612,-0.8792859671012381,1.0070928287898862,0.022923756179321672,-0.9167275773481925,0.8531578904758443,-0.1910774200940557,0.7134455613866586,1.0369349174485116,0.23802188829633955,0.7526670133106547,0.987280290823597,0.0,0.0,0.0,0.0
0.010964047042391633,-0.033986825896451266,0.7403816935894121,0.0014796905059407343,-0.5225372167998537,-0.0018291272624384072,0.8526132311127521,-0.05235923646996619,-0.8795753868507274,1.0083858035899396,0.018045973804265016,-0.9297744004269154,0.8457093375397315,-0.1903444930566681,0.7146504299994707,1.036356016468038,0.24036222611745758,0.7538829512219685,0.9882559705117068,0.0,0.0,0.0,0.0
0.011207968318215631,-0.034264134115630576,0.7403418841218997,0.0015272827306088168,-0.5225950082184059,-0.0019109125504387545,0.8525775467404063,-0.051463010923752335,-0.879809841391829,1.0094066558312829,0.013326487233702517,-0.9416530808032783,0.8383281044714861,-0.18954087809892667,0.7155818016842661,1.0358159997212846,0.24244994287314928,0.754832286797791,0.9891668971465688,0.0,0.0,0.0,0.0
0.011428396531449732,-0.034535478473251606,0.7403051245120211,0.0015753860777678753,-0.5226229971896299,-0.0019935390075692273,0.8525601132878897,-0.05058079642024181,-0.88010748685722,1.0103855506584594,0.008822433870225847,-0.9510756017794898,0.8317623572495595,-0.18868356203599002,0.7163418896795539,1.0352346518482265,0.24433116390624818,0.7555858618300714,0.9899982251673657,0.0,0.0,0.0,0.0
0.011615727499317607,-0.03479829422847594,0.7402687615535397,0.0016248480276929538,-0.522621882929374,-0.0020779607617783906,0.8525605019183771,-0.04971574066580043,-0.8804280509210604,1.0112374495809033,0.00449537735467299,-0.956233457526183,0.8272836614257978,-0.18780027593771148,0.7168954716460935,1.0346552477349273,0.24595115052255725,0.7560910573021058,0.9907793665296716,0.0,0.0,0.0,0.0
0.011742552717817507,-0.03503982867100468,0.7402367248488474,0.0016733503052431251,-0.5226029401782473,-0.002162492590020857,0.852571809551316,-0.048899514163710515,-0.8805934569627126,1.011689324387692,0.00023157894189155398,-0.9554531334712577,0.8264603075908865,-0.1869565405603822,0.7172085856856095,1.0341298926434386,0.24720489330617793,0.7562999059589978,0.9914941227300388,0.0,0.0,0.0,0.0
0.011806884821244043,-0.03526732778470838,0.7402076957490088,0.0017229026656777513,-0.5225665386555164,-0.002249477553323537,0.8525937978514355,-0.04810800688379383,-0.8805771258824712,1.0116978742586467,-0.003916518855239956,-0.9487476597119283,0.8292540246785765,-0.18612570248734778,0.7172727047842562,1.0336548516115458,0.24811441465549858,0.7561967627209369,0.992176676502284,0.0,0.0,0.0,0.0
0.01183543389189186,-0.03551094208455318,0.7401750420628794,0.0017807134555350562,-0.5225021180779459,-0.002345667731420779,0.8526329007882252,-0.047253041855201544,-0.8805103240992199,1.0114662606689702,-0.007735426271548512,-0.937826060008548,0.8340780212176611,-0.18517785141709836,0.717115816040465,1.0331581737737903,0.2488543783709575,0.755812580121789,0.9929147563120372,0.0,0.0,0.0,0.0
0.011842390504624776,-0.0357956470872618,0.7401393709757762,0.001852212399501707,-0.5224096288323787,-0.002456970611580247,0.8526891064789425,-0.046257937846468825,-0.8803934136970982,1.011035586189044,-0.011120983282193773,-0.9245153827878908,0.8396672188248792,-0.18401052801218334,0.7167915180802735,1.032550187600662,0.24958036375913617,0.7552052559440369,0.993749102059736,0.0,0.0,0.0,0.0
0.011811450065362996,-0.036134236323793756,0.7401046606486433,0.0019396204107785073,-0.5222951674896792,-0.00258694768288123,0.85275864322285,-0.04507800224134519,-0.8800668843356128,1.0101741138974958,-0.014120559203368998,-0.9101029762774173,0.845305139103071,-0.1825522480850696,0.7162833534946004,1.0317891344883754,0.25034168410366897,0.7543565789382899,0.9947041074199803,0.0,0.0,0.0,0.0
0.01169616621780297,-0.036529441465282066,0.7400706216584538,0.0020428547623912064,-0.5221645873200679,-0.0027378809103569646,0.8528378946208967,-0.04369414201935896,-0.8792680005998441,1.0084159208544943,-0.016882987137125747,-0.8952709948908658,0.8507042269141908,-0.18075166861310868,0.7154528232786469,1.0309318943939019,0.251069491310126,0.7531126145640678,0.9958512329045046,0.0,0.0,0.0,0.0
0.011449788130474106,-0.036982561480498305,0.7400451359359819,0.002163464192552085,-0.5220226270575555,-0.0029161224490782418,0.8529239077974529,-0.04208149048912869,-0.8777064455990893,1.0052830269330617,-0.019623705493750362,-0.8802943923747946,0.8559109542737453,-0.17861272543357093,0.7142103170457479,1.0299663096479386,0.2516194593678832,0.7513339463077865,0.9971753715726138,0.0,0.0,0.0,0.0
0.011031957701292717,-0.03748954657206008,0.7400364368680832,0.0023044152423116154,-0.5218704610028455,-0.003131294075473423,0.8530158888323719,-0.040223280827948446,-0.8751419708609872,1.0003779218846962,-0.022607438562325312,-0.8652461471483992,0.8611792198573848,-0.17622856515652321,0.7124984618151863,1.0288791110516582,0.25176221098829116,0.7488765245097703,0.9986249407410437,0.0,0.0,0.0,0.0
0.010419782759974561,-0.038030450678495635,0.7400473132853819,0.0024693681189169813,-0.521704873446973,-0.0033941080729310512,0.8531157056772314,-0.038145312815091724,-0.8714830240006214,0.9935274457416003,-0.026085999716605038,-0.8502516632379525,0.8668805244867362,-0.17386057984652029,0.7103056192560405,1.0277230305356306,0.2511477232676414,0.7456026275253228,1.0001246970764595,0.0,0.0,0.0,0.0
0.009633788752553381,-0.038554619369506764,0.7400697105984871,0.002662406419022892,-0.5215176662622883,-0.0037132869470748076,0.8532282501584468,-0.03596467539434739,-0.8669670953956768,0.985083077149101,-0.03010657289226507,-0.8358857348687184,0.8733835307332934,-0.17205913683979515,0.7077313707859355,1.026679129280302,0.24927351225507455,0.7414476126055672,1.0015600906986137,0.0,0.0,0.0,0.0
0.008768894681162117,-0.03895859935706176,0.7400499349077404,0.0028851664625688896,-0.521292899481603,-0.004084457581996738,0.8533631735496954,-0.03397688259266453,-0.8625132600544445,0.976375347698613,-0.03412636638253786,-0.8238257914833673,0.8807916925459781,-0.17176391329170337,0.7049030924058132,1.0263956905699434,0.24551807417943308,0.7363852645650463,1.003017889005167,0.0,0.0,0.0,0.0
0.008047625532895892,-0.03911316369019461,0.739909451735305,0.0031417381000201435,-0.5209764996874712,-0.004444696504521654,0.8535536661089822,-0.032715109767834906,-0.8601152556097255,0.9703402551239451,-0.03638972906143274,-0.817468215631717,0.8881799035418784,-0.17371412414446077,0.701982296966938,1.0275824993362033,0.23970832984995497,0.7307369501667434,1.0045831317207665,0.0,0.0,0.0,0.0
0.008050728512695978,-0.039119373943856166,0.7399055508173922,0.0031496807712931944,-0.5209683209465147,-0.004450434618512828,0.8535585988746844,-0.032692656584448594,-0.8601292611403083,0.9703330376003192,-0.03639909187681411,-0.8174587838247409,0.8881924219379936,-0.1737460078179629,0.7019783512975529,1.0275629441357885,0.23973840024047863,0.7307201351424829,1.0045856082204019,0.0,0.0,0.0,0.0
0.008050728512695978,-0.039119373943856166,0.7399055508173922,0.0031496807712931944,-0.5209683209465147,-0.004450434618512828,0.8535585988746844,-0.032692656584448594,-0.8601292611403083,0.9703330376003192,-0.03639909187681411,-0.8174587838247409,0.8881924219379936,-0.1737460078179629,0.7019783512975529,1.0275629441357885,0.23973840024047863,0.7307201351424829,1.0045856082204019,0.0,0.0,0.0,0.0
0.009251888927206409,-0.0400000728935779,0.7411619918379222,0.0019257868868207476,-0.5220303995561958,-0.0028686364786375145,0.852919881471184,-0.03398383098081047,-0.8577404414990556,0.9742187434922348,-0.03768465465940977,-0.8111471429999477,0.8922611344141197,-0.14833528461951057,0.7082511558276293,1.0132785025562203,0.18699588318884822,0.7082967011499698,1.0217757749739131,0.0,0.0,0.0,0.0
0.011015158711860429,-0.041053372946602044,0.7424184726009905,0.0009714794142444123,-0.5230066648108995,-0.0016546379941503708,0.8523264321633087,-0.033999767144099705,-0.8572854337907878,0.9825307533491795,-0.03769750063916,-0.8095572240452207,0.9037061255637489,-0.12625015471851955,0.7172828150409437,0.9975044778659105,0.14234150409199922,0.6893279319372165,1.0390994905946542,0.0,0.0,0.0,0.0
0.01302104699239941,-0.042062340433452736,0.7434203529710576,0.00039751717546710293,-0.5236899638409076,-0.0009256411914475898,0.8519083324752662,-0.033070628628674985,-0.8593344247706776,0.9941098562514824,-0.03678303218940547,-0.8127927982135554,0.9201828811985961,-0.1103217291913098,0.7269283117269159,0.9832762094060958,0.11343917105533753,0.676707756978938,1.0566122137303773,0.0,0.0,0.0,0.0
0.014944436583531236,-0.042874401800343735,0.744251182458735,4.3544163105206284e-05,-0.524206131362732,-0.0004821682401705518,0.8515912737102301,-0.03201117677996751,-0.8620927927579737,1.005942775360545,-0.03574369922238313,-0.8172006401243286,0.9365041339976385,-0.09920089555198705,0.7362975132212992,0.9709428479825157,0.09421501513987122,0.6677924125874628,1.0747806647430596,0.0,0.0,0.0,0.0
0.016614317338036144,-0.04347682030167806,0.7449938907871044,-0.00019734272210874463,-0.5246064034172601,-0.00017897084337062334,0.8513448481778075,-0.03117042807929021,-0.8645825037554469,1.0164164875581252,-0.034920177814006054,-0.8210212789177731,0.9503730140874065,-0.09121244988751796,0.7448322761424606,0.9601149700770358,0.08034330395022872,0.6605968563391647,1.0933833381111673,0.0,0.0,0.0,0.0
0.017996153548637775,-0.043908896588357525,0.7457029878649348,-0.00038253701495362597,-0.5249181623360311,4.9028287951167914e-05,0.8511526150529195,-0.030586303525508212,-0.866448690854785,1.0250908468079647,-0.034348195369850634,-0.8237628861469763,0.9614046611604188,-0.08525439413645457,0.7524584712348918,0.9503016255591002,0.06908812496930171,0.6540941619378169,1.1121519269472881,0.0,0.0,0.0,0.0
0.019109208699181476,-0.04422688750504639,0.7463986098031148,-0.0005402287961508348,-0.5251609245631228,0.0002364035565737862,0.8510027353529555,-0.030191055773332167,-0.8676174070677694,1.031967633547839,-0.033960693045983745,-0.825451928061637,0.9699043082852637,-0.08049698878351803,0.7592031283204591,0.941171601278714,0.0590598014316486,0.6478326443363357,1.1309099552134119,0.0,0.0,0.0,0.0
0.01999250816376459,-0.044488177422234335,0.747074498451887,-0.0006819721772605651,-0.5253503712599605,0.0003994530940449247,0.8508856343646874,-0.029875279401671524,-0.8681480966202006,1.0372162470571467,-0.03365023229517258,-0.8263394333995298,0.9764107851343374,-0.0763324167664925,0.7650955124139492,0.9325916959108922,0.049629099543852015,0.6416632694973402,1.1494590328338576,0.0,0.0,0.0,0.0
0.02068207774476784,-0.04474604537804037,0.7477042143303078,-0.0008099127342287754,-0.5254996343020415,0.0005435461502912648,0.8507932668676722,-0.02951617534931204,-0.8681365874692978,1.0409942067639402,-0.033296497695138864,-0.8267427605712256,0.9814515145058583,-0.07231910793358505,0.770097950922666,0.9246309692939249,0.040579791715426146,0.6355835536681032,1.1674318941459274,0.0,0.0,0.0,0.0
0.021197062506810988,-0.04504493399404899,0.7482435218086848,-0.0009208244689344132,-0.5256186173228549,0.0006676379728137878,0.85071956334943,-0.028999594070113877,-0.8676754712219629,1.0433583016917156,-0.032787742481816234,-0.8269642896394359,0.9854076470156818,-0.06816348610431092,0.774051714092956,0.917583381324807,0.03194988222975349,0.6296948546642549,1.1840883181729862,0.0,0.0,0.0,0.0
0.02153181480391882,-0.04541441289001125,0.748630697004793,-0.00100803089048682,-0.5257123892442961,0.0007664057651191902,0.8506614369365645,-0.028240593068342118,-0.866848205590538,1.0442326440389897,-0.032040757758837815,-0.8272501261798656,0.9884359264076086,-0.06374293425432197,0.7766404152554905,0.9120031364219005,0.023994958330990544,0.6242839341255644,1.198009373825479,0.0,0.0,0.0,0.0
0.021656473506897606,-0.045863031481980995,0.7487910974852412,-0.001062190494670265,-0.5257785338037899,0.0008311080843046764,0.8506204290997496,-0.02720168241991507,-0.8657467258199427,1.0434429062447572,-0.031018631418619658,-0.8277790751706205,0.9904616364625807,-0.05914544355507195,0.7774071783660007,0.9086787529447781,0.017211420689320148,0.6200953781425337,1.2066537329538902,0.0,0.0,0.0,0.0
0.021535897438039017,-0.04638087778022225,0.7486634770553515,-0.0010738389122078376,-0.5258061412834096,0.0008536076544985948,0.8506033270641573,-0.0258954430139865,-0.864474694804819,1.040841356860658,-0.029733311140095413,-0.8286626794967553,0.9913132714050156,-0.054597723115599635,0.7759330797876783,0.9083201529352757,0.012277936832390013,0.6187876053611011,1.2060065052144409,0.0,0.0,0.0,0.0
0.021149790742366233,-0.046980105988945475,0.7482413967817547,-0.001041388016463457,-0.5257940633919521,0.0008319915005358767,0.850610854740828,-0.024286330250781408,-0.8629279506465168,1.0362068060014937,-0.028148728543579686,-0.8298664967050543,0.9908677570288034,-0.050036010246365274,0.7721147834908691,0.9109791818374152,0.00918090837295376,0.6203623817606781,1.1960789966465166,0.0,0.0,0.0,0.0
0.020493309721577587,-0.04769588980358443,0.7475730557064684,-0.0009716732214430246,-0.5257500429967157,0.0007720683439698096,0.8506382027928058,-0.022292441647322296,-0.8607996798401109,1.0292464600657554,-0.026182221801063818,-0.8312129501633165,0.9890556498349576,-0.04508775918148716,0.7661652006354919,0.9160293651772561,0.007220522005179341,0.623157894810079,1.1808779245015906,0.0,0.0,0.0,0.0
0.01955757386902163,-0.04854541803362286,0.7467217021874828,-0.0008728944632858523,-0.5256721850730723,0.0006827038110438672,0.8506865026619759,-0.0198874787729655,-0.8577968635896386,1.0196950049909592,-0.023805039651418246,-0.8324508597255383,0.9857112343793076,-0.03949951086269221,0.7583484111748595,0.9227207264754362,0.005874230811136449,0.6263851054936607,1.1629066795299277,0.0,0.0,0.0,0.0
0.018313643036199218,-0.04952225623898948,0.7457406831254515,-0.0007532537787329119,-0.5255511616809414,0.0005723988797966031,0.8507614715207079,-0.01710757116341521,-0.8536443110641267,1.0072130867977573,-0.021049478672600302,-0.8332481190272147,0.9804431123564343,-0.033228441845286186,0.7488179325129567,0.9304981466376451,0.004825478711156386,0.6296609490199178,1.14351103639032,0.0,0.0,0.0,0.0
0.016718812551533912,-0.0505966933822779,0.7446699350176459,-0.0006220193513411888,-0.5253750013285357,0.0004499440698879489,0.8508704476130908,-0.014051612012452256,-0.8480952340452883,0.9914162936730426,-0.018010061602992223,-0.8331996737458053,0.9726643869143825,-0.026430121673390157,0.7376303458289974,0.9390349455947657,0.0038850612175597658,0.6327363605908547,1.1233233497137842,0.0,0.0,0.0,0.0
0.014737471645837018,-0.05171245617935762,0.7435372098071931,-0.0004905525230477379,-0.5251346615710786,0.000325072801722462,0.8510189427401275,-0.010890459186739147,-0.8409954368604032,0.9720341922134254,-0.014853939732836753,-0.8318715525092145,0.9617246305844348,-0.019464311270979664,0.7248348954299142,0.9482054835315904,0.0029148019884464183,0.6354303375953092,1.1025946769552917,0.0,0.0,0.0,0.0
0.012377820582216901,-0.0527777652032755,0.7423546132671163,-0.00037386206238770663,-0.5248298794705903,0.00021179184319575434,0.8512070329750918,-0.007896239071923569,-0.83246259716104,0.9492597044976829,-0.011851752795755045,-0.8289188525030524,0.9471733501039674,-0.012899852770030189,0.7105768259974814,0.958104594924931,0.0017595686764714832,0.6377350586391939,1.081463957125768,0.0,0.0,0.0,0.0
0.009743054399952376,-0.053664921402188585,0.7410989726002237,-0.00029254115535620056,-0.5244547954025326,0.00014153559918525765,0.8514382314452612,-0.005473986426698578,-0.8233346270226709,0.9244072005949181,-0.009411352924475971,-0.8244663659206429,0.9293436372272507,-0.00735608626267843,0.6950605612922929,0.9691393385000882,0.0001593932467970152,0.6400652057951675,1.0600996584028786,0.0,0.0,0.0,0.0
0.00706397690236837,-0.05431798023313429,0.7397406329473455,-0.00025024181585439533,-0.5240460322622804,9.993740303781821e-05,0.8516898986495671,-0.003721272745594712,-0.8146748099142038,0.8996032373036084,-0.007637509369085088,-0.8193264081957448,0.9099285030281202,-0.003278571546757025,0.6790367913873531,0.9815261569760417,-0.0024859706547276338,0.6432379946121979,1.0387771803306018,0.0,0.0,0.0,0.0
0.004905575270091143,-0.05479248744428234,0.7382532612571934,-0.00022813865480519332,-0.5235907264092726,9.584811213036044e-05,0.8519698879562022,-0.002527402035106833,-0.8094440297282262,0.880414727065034,-0.006428570754387098,-0.8166592077114375,0.8947776590825529,-0.00022340755891333934,0.6640040765329893,0.9946663614213836,-0.0058742890183370155,0.6491530869735574,1.0178598522544824,0.0,0.0,0.0,0.0
0.0035746812058918115,-0.05500272204323213,0.7370241578437711,-0.00023896185395508865,-0.5232097321599968,0.0001475000254795217,0.8522039059485935,-0.002138719412317743,-0.8078441653467546,0.8695626923951385,-0.0060329234465672735,-0.8160698932111944,0.8857122279422366,0.0015145200765199862,0.652974192752111,1.0053434550491198,-0.009842926460888995,0.6565437144741193,0.9985176590527516,0.0,0.0,0.0,0.0
0.0035900116156788197,-0.055002360271682434,0.736996190783952,-0.0002505115664468234,-0.5231970907907931,0.0001484312045189862,0.8522116634969173,-0.0021406849717682023,-0.8078732313847555,0.8694706509993367,-0.0060338611980296445,-0.8161126243508413,0.8856745051820569,0.0015071693554959682,0.6529502664747622,1.0053149294750103,-0.009847761562481417,0.6565561429759925,0.9985188435103359,0.0,0.0,0.0,0.0
0.0035900116156788197,-0.055002360271682434,0.736996190783952,-0.0002505115664468234,-0.5231970907907931,0.0001484312045189862,0.8522116634969173,-0.0021406849717682023,-0.8078732313847555,0.8694706509993367,-0.0060338611980296445,-0.8161126243508413,0.8856745051820569,0.0015071693554959682,0.6529502664747622,1.0053149294750103,-0.009847761562481417,0.6565561429759925,0.9985188435103359,0.0,0.0,0.0,0.0
0.0035900116156788197,-0.055002360271682434,0.736996190783952,-0.0002505115664468234,-0.5231970907907931,0.0001484312045189862,0.8522116634969173,-0.0021406849717682023,-0.8078732313847555,0.8694706509993367,-0.0060338611980296445,-0.8161126243508413,0.8856745051820569,0.0015071693554959682,0.6529502664747622,1.0053149294750103,-0.009847761562481417,0.6565561429759925,0.9985188435103359,0.0,0.0,0.0,0.0
0.003417185059434044,-0.05535119450463971,0.7369723534294975,-0.0005958486137650869,-0.5230283230392051,0.00044920301475190934,0.8523149749241051,-0.0018551751575724437,-0.8080651753931714,0.8680366038308396,-0.005746191987256615,-0.816058114031164,0.8852852910743054,0.008008441099239158,0.6504693678588458,1.0036533916674089,-0.0032890002506648424,0.6569425517994809,1.0001671889890846,0.0,0.0,0.0,0.0
0.0036691692836224904,-0.05571376788319625,0.7368995222708967,-0.0008560068231863044,-0.5228426825124783,0.0006716350061360033,0.8524284987621501,-0.0013787281512419145,-0.8105830806453088,0.870995414613537,-0.005270463897515972,-0.8188252589619898,0.8896942292557505,0.013489170398826172,0.649293359200045,1.00209686409518,0.002315324269614132,0.6579934814897938,1.001747412348884,0.0,0.0,0.0,0.0
0.004423932123879658,-0.05591854512580806,0.7367922685300068,-0.0009811824395121048,-0.5228503695592279,0.0007756557027846806,0.8524235606146922,-0.0010654552716607068,-0.814751314080667,0.878343156720886,-0.00496183317656551,-0.8231890574146499,0.8978345274779662,0.016349359052471295,0.6505037734938903,1.001495947870094,0.005243022426412097,0.6603275218047849,1.0028429406763535,0.0,0.0,0.0,0.0
0.0057221800549891845,-0.055885992384938896,0.736647154324879,-0.001005741617282332,-0.5230488568705232,0.000794684246881193,0.8523017366444738,-0.0011860317516169231,-0.8210334583740481,0.8907736300037817,-0.005092756903717167,-0.8290292588947272,0.9096322480381701,0.016560426249998542,0.6540973845913284,1.002043899595024,0.005381012022990619,0.6641622998717598,1.003192652240864,0.0,0.0,0.0,0.0
0.0076066442833154085,-0.05558733934359417,0.7364884010503618,-0.0008901906386374026,-0.5235147714023654,0.0006991607955660981,0.852015846600483,-0.001762211643008503,-0.828961955176964,0.9080411522545369,-0.0056850250029389605,-0.8359840301141888,0.9248679147918373,0.013433684159591626,0.6607362437939958,1.0037002994122848,0.0019892241779484897,0.6697998519521678,1.0024866456732402,0.0,0.0,0.0,0.0
0.010120961359057575,-0.05505903730581671,0.7363871722007351,-0.00047972249309639236,-0.5244663775770364,0.00036134872496543496,0.8514309473378624,-0.002457381069870926,-0.8365747519589954,0.9284737176658155,-0.00639958004019015,-0.8431745717237504,0.9429574825017745,0.005139206756231286,0.6721921250185904,1.006114300270278,-0.006781963042152331,0.6777162620181874,1.0002992202469134,0.0,0.0,0.0,0.0
0.013244894027419908,-0.054504300132019796,0.7364236748557884,0.0003618459119082367,-0.5259980019183949,-0.0003629386412294101,0.8504856490975817,-0.0024525490267125923,-0.8419451746310873,0.9499579577417729,-0.0064125371745449395,-0.8504973747049984,0.9639866617426941,-0.009574546656677558,0.6899326261355765,1.0079868889722197,-0.0219509227382019,0.6878934747101798,0.9963772723497244,0.0,0.0,0.0,0.0
0.015666227109378702,-0.05434299029711719,0.736134407865993,-0.00011729342474859299,-0.5254540113923598,-0.0001103746879601275,0.8508219884155314,-0.009878356441491655,-0.8462509182313159,0.9292507930230963,-0.00726550785732267,-0.8646093832571654,0.9880372089338001,-0.006603785976981231,0.6937475018534653,1.0065422362944745,-0.018922618487484007,0.6938555839548352,0.9944787511007445,0.0,0.0,0.0,0.0
0.01788804779092002,-0.054090797737798166,0.7358188236009144,-0.000312212290829394,-0.5253798452639181,-6.1489816005172e-05,0.8508677435024491,-0.020879698761914228,-0.8567268687154803,0.9140842907509812,-0.007984766327253652,-0.8753435367033078,1.0074439244634878,-0.00734617710613809,0.6990801470192853,1.0070563054053654,-0.01969066267048749,0.6993362765555688,0.9933792749657228,0.0,0.0,0.0,0.0
0.01978895830003549,-0.053828282165767245,0.7355238298657331,-0.0003037127254093068,-0.5256851610574846,-0.00016799602876645697,0.8506791351501934,-0.03217962260664918,-0.8704175117774162,0.9046444816258233,-0.008427549439846983,-0.882717439848412,1.0220718351750164,-0.010643891966442075,0.7053637927246778,1.0086639543713627,-0.02304941938173273,0.7041960759863568,0.9929090858664673,0.0,0.0,0.0,0.0
0.021253330282514377,-0.053657863539423215,0.7352787003023602,-0.0002887285388898705,-0.5260220652117717,-0.00027270638008422354,0.8504708279402672,-0.04270350773956165,-0.8856992789941237,0.8981081532110956,-0.008629198925748212,-0.8879201358864633,1.0328396262950454,-0.013298379856482384,0.7105692340912559,1.010061575996113,-0.025748003376843572,0.7080914292763238,0.9928841890991866,0.0,0.0,0.0,0.0
0.022258810717486793,-0.053623880479598256,0.735108804358463,-0.00032738612303708246,-0.5262515306910187,-0.0003261633689331956,0.850328826326112,-0.05238896960010256,-0.9016053262408636,0.8926000386941962,-0.00856986604847039,-0.8915551914618732,1.0403727506812475,-0.014015819078111523,0.7139656979847798,1.0106596983928693,-0.026525612815452217,0.7109797572334122,0.9931453297188985,0.0,0.0,0.0,0.0
0.02285469577710467,-0.05372953433776755,0.735020209752576,-0.00040070163674618475,-0.5263762461307244,-0.0003458026858281363,0.8502515906295194,-0.06149961509858044,-0.9176440740880404,0.8871932246724898,-0.008203995124551017,-0.8939024464021386,1.0451911042162807,-0.012932572568779622,0.7157544821939478,1.0104089571617392,-0.02553965865322867,0.7129748802340645,0.9936166354921013,0.0,0.0,0.0,0.0
0.023126315705076575,-0.053958786893286266,0.7349996092982363,-0.00046571175755296876,-0.5264539749293612,-0.0003705722960775695,0.8502034215820399,-0.07032131987658212,-0.9335714606635827,0.8815149685115379,-0.00749383788631957,-0.895159870022449,1.0478225712155074,-0.010817630661375081,0.716520402884688,1.0095304892343058,-0.02353419399402176,0.7142282203172311,0.9943077680255283,0.0,0.0,0.0,0.0
0.023157391979994425,-0.054296593919199915,0.7350175795670841,-0.0005035738155454805,-0.5265079946813115,-0.000422216678796596,0.8501699240052852,-0.07908884866103391,-0.9492591386829511,0.875368588484308,-0.006433373776140108,-0.8956900474248196,1.0489037585140457,-0.008160414524903285,0.7166030301113702,1.0082833779775515,-0.020972817914119878,0.7148100816877176,0.9953216256751641,0.0,0.0,0.0,0.0
0.023023177154990977,-0.0547192524836176,0.7350370932228687,-0.0004955536277287252,-0.5265669709537735,-0.0005203094324603714,0.8501333476609798,-0.08795709901145597,-0.9643655781325442,0.8688501883623279,-0.0050457681073461155,-0.8957826255425912,1.0489379323213355,-0.005500599791363113,0.7163011998757052,1.007037204222472,-0.018377970342539254,0.7147443329870147,0.9968161601399443,0.0,0.0,0.0,0.0
0.02280764813368006,-0.05517171543760942,0.7350805762296063,-0.0004173549191758767,-0.5266902451744908,-0.000674136730871495,0.8500569139725729,-0.09704570978779442,-0.9780165546999724,0.8625474012209132,-0.0034682999280523617,-0.8953285607624669,1.048169763326857,-0.0035732852405958833,0.7163073364459182,1.0057684228698411,-0.016482999041381962,0.7144409591431549,0.9983498605852564,0.0,0.0,0.0,0.0
0.022525495282805192,-0.055646862484692305,0.7351514231680354,-0.00027511290539044197,-0.5268688779073813,-0.0008758696993063245,0.8499460822062632,-0.10631393264383333,-0.9888985876491264,0.857260623193527,-0.0017398265558066885,-0.8943887582724943,1.0467166774926746,-0.0023202218892774853,0.7166306263065515,1.0044232219825249,-0.015244443532542748,0.7139672532791008,0.9998375203655175,0.0,0.0,0.0,0.0
0.022126555122678554,-0.05618646299693459,0.7352563706035091,-0.00010004222512901142,-0.5270407206536855,-0.0011016546917095467,0.849839311353233,-0.115529743651363,-0.9953165816465791,0.8541404743642936,0.0002019821780464184,-0.8930695332935613,1.04451363001392,-0.0009657741114478069,0.7167842382820734,1.0027294146190895,-0.013891636187282801,0.7131945661317225,1.0013609324730366,0.0,0.0,0.0,0.0
0.021528955515800495,-0.056858876858861304,0.7353998684024515,8.36685495718507e-05,-0.527150575008048,-0.0013354990597961962,0.849770840115451,-0.12429137496327318,-0.9957490633140944,0.8545623793009991,0.002507002144082512,-0.8913811611100894,1.0412902002691684,0.001354853701886213,0.7162064649926737,1.0004037290310865,-0.01155067428576676,0.7118918126291509,1.0031576865408907,0.0,0.0,0.0,0.0
0.02067947630913066,-0.05770534022101036,0.7355866312305586,0.00027242486805346153,-0.5271822128029108,-0.0015757558475177095,0.8497507618604567,-0.1324238089317439,-0.990165504766059,0.8584819699587394,0.005278378888896459,-0.8892270447844268,1.0367663206488271,0.004981239647023941,0.7146721688659847,0.9972866312204538,-0.007856338927562607,0.709918939603746,1.0053623313965008,0.0,0.0,0.0,0.0
0.019568995728371483,-0.058728744693967,0.7358332884087595,0.0004664616842217803,-0.5271380237993949,-0.001819789021302905,0.849777603050518,-0.14010128172540026,-0.9801144130927991,0.864451965729364,0.008510496667192,-0.886478366566981,1.0307986961141893,0.009874793962837003,0.7122747007564197,0.9931987865557742,-0.002806379462625635,0.7073373662372731,1.0078247885648877,0.0,0.0,0.0,0.0
0.018194599664663844,-0.05993041318105123,0.7361515535545617,0.0006820956277316981,-0.5270541189379999,-0.002079601213837386,0.8498289037887772,-0.1474473607978837,-0.9673289865373546,0.8713929417439865,0.012221384509714547,-0.8828927541280136,1.0231497211234712,0.01572903685525137,0.7092934380227834,0.9880648028794243,0.003333925275175527,0.7042218829496546,1.010454868457999,0.0,0.0,0.0,0.0
0.016539996690943463,-0.061322490216327866,0.736564094813413,0.000905783545503057,-0.5269247897126352,-0.002345472483616337,0.8499081975727099,-0.1545834987602418,-0.9532181809302301,0.8786718034310071,0.016413818184715538,-0.8783061858276524,1.013619155416838,0.02269878386109945,0.7057785415608266,0.9815776171648884,0.010768697952186296,0.7006680693366852,1.0130708248611735,0.0,0.0,0.0,0.0
0.014577418582800686,-0.06292743205185071,0.7371013748529964,0.0010539327356915479,-0.5266428425103065,-0.0025555682474424006,0.8500821576350052,-0.1618433886568084,-0.9389664421310973,0.8859102331694256,0.021019320969414883,-0.8728957409396935,1.0022917698941347,0.03181354955237101,0.7012599723009566,0.9730589550958506,0.020644906331693955,0.6967601728535605,1.0153466745868935,0.0,0.0,0.0,0.0
0.012319794534684923,-0.06472915220949475,0.7377614915646639,0.0010831445213725238,-0.5261938747046087,-0.0026882749105115807,0.8503596922475228,-0.16976915118449232,-0.9254270834948771,0.8935514450592664,0.025954624817084177,-0.8666370827846477,0.9891370800600938,0.04307208421698546,0.6958094532288368,0.9623665020596031,0.03309634210473667,0.6925657714843027,1.0171376766889342,0.0,0.0,0.0,0.0
0.00981509951777743,-0.06666676898743995,0.7384333496728417,0.0009205610555967406,-0.5255354081870725,-0.002714800213538293,0.8507668994317954,-0.17937133314799833,-0.9139239981857227,0.902496748666144,0.031029113327705492,-0.860041216616164,0.9745435155244592,0.0563505157439777,0.6889851393361073,0.9504011491637435,0.048120591642707336,0.6876888227734154,1.0190368150902156,0.0,0.0,0.0,0.0
0.007302174793568739,-0.068404273867028,0.7388670311966513,0.0008481081426984221,-0.5252594999380557,-0.002864569764144748,0.8509368558697339,-0.191787853899181,-0.9053446597066964,0.9165922134121814,0.03580198424884716,-0.8515756684879362,0.957298249713245,0.0661156977164197,0.6830787499006116,0.9418477998460804,0.05957153761286123,0.6820193010777859,1.0226445915502134,0.0,0.0,0.0,0.0
0.005215729726528278,-0.06959442437897782,0.7389821664805983,0.0012425310905424007,-0.5259690779133006,-0.0034203939169177235,0.8504959059871918,-0.20732226329092307,-0.9006060475179728,0.9412239002175061,0.039890950789035096,-0.8401869671358541,0.937829052922828,0.0672357012981212,0.6813275563704365,0.9402690986648147,0.06116924838313452,0.6768350487409915,1.0281037257782093,0.0,0.0,0.0,0.0
0.0040197815290933525,-0.07014838788008185,0.7389599791956811,0.002329822556807694,-0.5278398305616041,-0.004433886507515715,0.8493291622510023,-0.22409873781978473,-0.9017847422032688,0.9824156193404933,0.043070144545802325,-0.8267325181774001,0.919388888800966,0.05835313649878372,0.6864304544754383,0.9446775831505348,0.05115745317927873,0.674499583756342,1.0335709837646472,0.0,0.0,0.0,0.0
0.003868437255592326,-0.07012708858268774,0.7389013514712515,0.0038824576104404982,-0.5303195112233982,-0.005396564731252424,0.8477717969051463,-0.23911910729106695,-0.9126723455940181,1.0410068789422056,0.044313972084504265,-0.8142872684618137,0.9062007401904235,0.04335148774699735,0.6966933766059169,0.951908006333213,0.034435578896070095,0.6758752159534187,1.037612253303794,0.0,0.0,0.0,0.0
0.0038791341843072346,-0.07016488438252007,0.7388822877498966,0.003866738885928494,-0.5303139572841239,-0.005377847408216402,0.8477754618985468,-0.2391326846503,-0.9127045711971017,1.041003854576378,0.0443320943179602,-0.8142902948875351,0.9061313301719033,0.04322064376776121,0.6968140685451205,0.951751561317297,0.034549633911039795,0.6757816699466874,1.0377567977682285,0.0,0.0,0.0,0.0
0.0038791341843072346,-0.07016488438252007,0.7388822877498966,0.003866738885928494,-0.5303139572841239,-0.005377847408216402,0.8477754618985468,-0.2391326846503,-0.9127045711971017,1.041003854576378,0.0443320943179602,-0.8142902948875351,0.9061313301719033,0.04322064376776121,0.6968140685451205,0.951751561317297,0.034549633911039795,0.6757816699466874,1.0377567977682285,0.0,0.0,0.0,0.0
0.0034683490948192518,-0.07121292800442573,0.740795784795154,0.0021472498550109517,-0.5277646504547043,-0.003665161014143016,0.8493800266330874,-0.24084768451950891,-0.9213649461566599,1.0485663611742673,0.043553456725932464,-0.8190125066387328,0.9136386960927683,0.024031115600461388,0.6660448630245784,0.986902681972342,0.06577857236578817,0.6843930502111247,1.021750155718988,0.0,0.0,0.0,0.0
0.0037077543216671215,-0.07260576612941994,0.7432440446673207,0.0015749379828611195,-0.5267988567095084,-0.0029654868314580494,0.8499833469120187,-0.23890021379891452,-0.920142502606235,1.0515672374102214,0.04552369266593006,-0.8193393173571929,0.921124069572802,0.006632475058822709,0.6488963512243409,1.015633573482515,0.08361244446548712,0.6973209800633334,1.0022632223394674,0.0,0.0,0.0,0.0
0.004228339468688939,-0.07425206325954246,0.7456818528701891,0.001683971967037738,-0.5266325967829524,-0.0029535276126594553,0.8500862008753581,-0.23448348549719106,-0.9142870692848764,1.051897832378059,0.04951762847036622,-0.8185169336501045,0.9288819570609259,-0.0054540803658248115,0.6392447298274112,1.0404017141249378,0.09443722407660704,0.710969271854639,0.9836773170476264,0.0,0.0,0.0,0.0
0.004772168110236139,-0.07615596503014677,0.7479380528531638,0.0019108885732056853,-0.5264966967922163,-0.0031484115126278987,0.8501691974405406,-0.22896208663341897,-0.908364196689036,1.0518262614814258,0.05465163570547802,-0.8189479299293511,0.9377913853750969,-0.013951870342981048,0.6318727656239659,1.0624825159864653,0.10521822557331065,0.7236472384472523,0.9670429494619665,0.0,0.0,0.0,0.0
0.005276077922947757,-0.07821458855518418,0.749999634113236,0.002165762022408431,-0.5263272803599138,-0.0034222204048416525,0.8502724221279316,-0.22290681859686978,-0.9027198335263033,1.0513436832340353,0.06037897436831321,-0.8202372786197388,0.9470629278394164,-0.020817216733165368,0.6257074446452123,1.0829709957214435,0.11653032376091087,0.7352001435416974,0.9523096712878176,0.0,0.0,0.0,0.0
0.005690612590574074,-0.08032826831958098,0.7518735267242544,0.0023863679440067026,-0.526088379736305,-0.003682179817581307,0.8504185813505347,-0.2167762109760282,-0.8975160184596855,1.050396454616088,0.06624100578202446,-0.8219566696372489,0.9559772320932294,-0.0268470101483241,0.6198110432919214,1.1025297548362962,0.12858278100713635,0.74558432180793,0.9392383272566045,0.0,0.0,0.0,0.0
0.005973659224089681,-0.08237747303450567,0.753568967164842,0.002553993566508096,-0.525816961973453,-0.003880162086483925,0.8505850598029883,-0.2109480609334308,-0.8924863243007882,1.0486236896272771,0.07180880974502993,-0.8233830352992256,0.9635512909382976,-0.03254164739991801,0.6137916929908126,1.1215662554259358,0.1408961921363172,0.7548304209897955,0.9275902857342704,0.0,0.0,0.0,0.0
0.006167316080612568,-0.08428177599952333,0.7550867081017585,0.0026955204077529172,-0.5255654856271844,-0.004030913253208376,0.850739329186995,-0.2056002720288108,-0.8876029867387527,1.0462791607386839,0.07689546804090983,-0.824374216842828,0.9697903531983356,-0.03817183309297645,0.6079547275629567,1.1402863728169113,0.1526176022639999,0.7630647351636684,0.9172189099957557,0.0,0.0,0.0,0.0
0.006311997513558824,-0.08599271558532014,0.7564227975466201,0.0028397895330691905,-0.5253758488761451,-0.0041615514650957695,0.8508553546299638,-0.20080331343566235,-0.882862537903737,1.0436103581446157,0.0814283519282855,-0.8249224770271343,0.9748414056193436,-0.043968739369238945,0.6027064860048849,1.158605161877637,0.16306812087379943,0.7703637323790689,0.908104612074205,0.0,0.0,0.0,0.0
0.0064258404319204425,-0.08750145143164252,0.7575668290358242,0.0030026700897287945,-0.5252594687382934,-0.00429229909975666,0.8509259959841022,-0.1965411418731385,-0.8783271624512259,1.0407780509722717,0.08542927899828416,-0.8251481425784627,0.9788962695608345,-0.05017491437966798,0.5983871597864495,1.1758940780984466,0.17198360794377132,0.7766801487500352,0.900386876200927,0.0,0.0,0.0,0.0
0.006468673505077436,-0.0888335896636282,0.7584979000017693,0.0031741457181955414,-0.525195319097303,-0.004419856394352725,0.8509643156247476,-0.1927441480178387,-0.874006981801668,1.0375637116020882,0.08896129224428079,-0.8251095229987565,0.9818297924991158,-0.05713708308535609,0.5951994000863056,1.190685757156508,0.1796181695087807,0.7817377360315716,0.8944283027728643,0.0,0.0,0.0,0.0
0.006371949939567324,-0.09005925060991872,0.7591841903815423,0.003322808384184511,-0.5251242202891141,-0.004523729128975064,0.8510070787513813,-0.18926576403488765,-0.8700202578269383,1.0336521836927346,0.09217459792042032,-0.8250177981421606,0.9835564094481241,-0.06534067868474253,0.5935632201922046,1.2002611241385812,0.18673687170601203,0.7850831819668186,0.8907896840390082,0.0,0.0,0.0,0.0
0.006064593027255744,-0.09127528674119184,0.7596027895983164,0.0034131790299020163,-0.5249741254733097,-0.004581761200407891,0.8510990102548269,-0.1858941417273885,-0.8664869637855551,1.0287060339397576,0.09528815120918718,-0.8251483498783244,0.9840741255550643,-0.07531259821579593,0.5947019338545115,1.2003773633339927,0.19429022280483632,0.7862783261803806,0.8899736063570309,0.0,0.0,0.0,0.0
0.005503524590497604,-0.09254995252934675,0.7597812857718071,0.0034521469248947234,-0.5247330515624398,-0.004600458240796594,0.8512474041449721,-0.18242030922781108,-0.863086195812552,1.0222168533814233,0.09848002192438414,-0.8254047625932153,0.9831936287437142,-0.08694604188312381,0.5985261608104874,1.1909413662021766,0.20256916687181914,0.7852789813275017,0.8919119659705407,0.0,0.0,0.0,0.0
0.004670435412449755,-0.09392224171656571,0.7597953850012074,0.003474655650168251,-0.5244320669292141,-0.004603904667511291,0.8514327560097025,-0.1786701481863232,-0.8591679086613145,1.0135780298754686,0.10186671851339034,-0.8253774400632995,0.9805767174660879,-0.09954992417046196,0.6035574576797753,1.1760041073903353,0.211367152956699,0.782417854287785,0.8959631027410228,0.0,0.0,0.0,0.0
0.0035453610192005235,-0.09544687784987178,0.7597240096869252,0.0034928005341523017,-0.5240700356261726,-0.004600482073913508,0.8516555839468783,-0.17447300654511214,-0.854251474932343,1.002299261713555,0.10558216851069403,-0.8247935940498176,0.9760221841942829,-0.11259285985673273,0.6090299194124049,1.1581205711188158,0.2207983184515055,0.7780234682729029,0.9014185192868382,0.0,0.0,0.0,0.0
0.002077496275530042,-0.09717738969045854,0.7596322887938858,0.0034849168279891866,-0.5236175585506861,-0.004560742985045536,0.8519340980120147,-0.1697455480816161,-0.8479639129385672,0.9877811137456248,0.10967876131865306,-0.8233511737884669,0.9691311882103462,-0.12576040566685176,0.6143133026197204,1.1386913380439991,0.231364009990298,0.7722887432058101,0.9076899140058157,0.0,0.0,0.0,0.0
0.00021138693812942683,-0.0991594296898313,0.7595643516931561,0.0034100409739318757,-0.5230340193031708,-0.004437092176057233,0.852293434496094,-0.16447221542396645,-0.8400610628367228,0.9694566722529961,0.11415448911465839,-0.8207945215868206,0.9594759522296259,-0.13913743133498713,0.618857964035057,1.1185003857315605,0.24367769107657347,0.7652911387964851,0.9143456951373266,0.0,0.0,0.0,0.0
-0.002078064877422422,-0.10140417457915772,0.759542083372552,0.003218520103857236,-0.5222855712202837,-0.0041742517783108,0.8527543602031796,-0.15875890389461983,-0.8305046551019769,0.9470528573537366,0.11891001574496483,-0.8169626672229229,0.9467799181633924,-0.15340488405046712,0.6223198602765044,1.0981767524445476,0.2581670842692029,0.7571009820359428,0.9210323140367863,0.0,0.0,0.0,0.0
-0.004743664578964457,-0.10384715874088711,0.7595607914340101,0.0028541054411032932,-0.5213541159625961,-0.003709240062782508,0.8533275932425646,-0.15294769316273363,-0.8197005023972853,0.9210629650408036,0.12365483442456492,-0.8119086829415061,0.9311971552564949,-0.17030024560462512,0.6248801050178258,1.0786115733433783,0.274850464018918,0.74790478437078,0.9273967270438834,0.0,0.0,0.0,0.0
-0.007589036939619136,-0.10632279127042375,0.759555243345126,0.0022349062895658197,-0.5201894933243432,-0.0029587563926140982,0.8540428221052204,-0.14773947386714645,-0.8094464355832752,0.8940701391271029,0.1278709966090271,-0.8066678999791146,0.9143935035448659,-0.19367356114839177,0.6279485916461309,1.061211487227401,0.2934785758437565,0.7379819760158368,0.9332489568503833,0.0,0.0,0.0,0.0
-0.010111714216535004,-0.10858059157379517,0.7593393035726862,0.0012300048067844618,-0.5185709837768457,-0.0017928227230470692,0.8550318167527882,-0.1442950323035711,-0.8050753539410631,0.8736992227553404,0.13091076856453454,-0.8052262190279651,0.9022780837015575,-0.2298766515716001,0.6346349645388417,1.0473653685501694,0.3140316744362363,0.7275543873835315,0.9388692538774056,0.0,0.0,0.0,0.0
-0.012197532882105445,-0.11040098609975989,0.7587263051918236,-2.263026886447586e-05,-0.5166946109563478,-0.00036758599311433575,0.8561696930965712,-0.1428188090201388,-0.8069966590179726,0.8612398577878321,0.13256762891547594,-0.8077945083433187,0.8952731078816495,-0.280193611977332,0.6437771968492463,1.03947630683507,0.33375359898194634,0.7160538233222458,0.9459390395727182,0.0,0.0,0.0,0.0
-0.013636835449415873,-0.11151018132555404,0.7574937180710345,-0.0009130509594799593,-0.5150633422494485,0.0006871558999166191,0.8571513563108573,-0.14264282384920976,-0.8133515117128377,0.8563357434643166,0.13336915997779916,-0.8140736384291457,0.8934668520141262,-0.3328730213269082,0.6513874652977713,1.039971764166079,0.3454186711065428,0.7028763082697915,0.9571401726079222,0.0,0.0,0.0,0.0
-0.013617446097694871,-0.1115414231137917,0.7574561398446555,-0.0009645030689687067,-0.5150723800527848,0.0007165798653830666,0.8571458449726547,-0.1426578026948223,-0.8133589001231276,0.8562108539376266,0.13339239336729497,-0.8141045722414373,0.8935028183127233,-0.3328815616720594,0.651368228400769,1.0399639435835681,0.3454287928029922,0.7028092509858396,0.9570653096455697,0.0,0.0,0.0,0.0
-0.013617446097694871,-0.1115414231137917,0.7574561398446555,-0.0009645030689687067,-0.5150723800527848,0.0007165798653830666,0.8571458449726547,-0.1426578026948223,-0.8133589001231276,0.8562108539376266,0.13339239336729497,-0.8141045722414373,0.8935028183127233,-0.3328815616720594,0.651368228400769,1.0399639435835681,0.3454287928029922,0.7028092509858396,0.9570653096455697,0.0,0.0,0.0,0.0
-0.014269163390556252,-0.11175542398217907,0.7577508444992983,-0.0005827272320167897,-0.5159770665341546,0.0005193811426115125,0.8566020414889345,-0.14128486918978836,-0.8018627081610588,0.8417873442303605,0.1336834175954904,-0.8048683635887929,0.8817763180534988,-0.3365460173993016,0.654448851876808,1.0392805030819854,0.3444611964734227,0.7044686986317726,0.9570112060908119,0.0,0.0,0.0,0.0
-0.014774456834441925,-0.11213424528799155,0.7578586454758544,-0.00031543953651703624,-0.5166055596696059,0.0003218651313462139,0.8562233894371195,-0.13960790982135723,-0.7933792324785931,0.8305283593284417,0.13461887984983434,-0.7988156066935082,0.8736599092293832,-0.337961737616123,0.6560088582217263,1.0392402859698995,0.34501417350832303,0.7049578073144626,0.9584992807151923,0.0,0.0,0.0,0.0
-0.014875370231546323,-0.1125460462112993,0.7579033002035476,-0.00013123859867642744,-0.5170297913078583,0.00015738807980837609,0.8559673784120367,-0.1380945126998337,-0.7888125875611132,0.8251215349184582,0.13579252709502435,-0.7963736212229826,0.8710948107660029,-0.3386242175691326,0.6577353275504257,1.0390499999671956,0.34682860123149367,0.7059577387863758,0.960029435921259,0.0,0.0,0.0,0.0
-0.014528387072420821,-0.11296288119005943,0.7579317840509766,5.151669924617845e-06,-0.5173152967691038,1.8204212402131244e-05,0.8557948839358418,-0.13679025456907204,-0.7879170276427291,0.8257496344177628,0.1371226359039568,-0.797271173270052,0.8741414628803367,-0.3392731050611217,0.6602880417220762,1.03847604235494,0.349703937052626,0.7080073828421181,0.9611923981367951,0.0,0.0,0.0,0.0
-0.013713768632412932,-0.11339611274732543,0.7579652590901115,0.00011871639228061705,-0.517498635098923,-0.00011400021030289488,0.8556840162005609,-0.1356187188607625,-0.7904354722019098,0.8322977654491417,0.13866710847554845,-0.8013575456490403,0.8827740096173083,-0.34026941752671686,0.6640279170683381,1.037370943899092,0.353610490475,0.7113590261322412,0.9618583841683078,0.0,0.0,0.0,0.0
-0.012428512164425424,-0.1138834433240644,0.7580189434136564,0.00023038470592655588,-0.5176001973349789,-0.0002676528382596424,0.8556225283404104,-0.1344115776836639,-0.7960131539076468,0.8443649834587996,0.14058123758044352,-0.8084888633924742,0.8968379181750274,-0.34175641731699485,0.6691880861786001,1.0355418328343555,0.3585977136823273,0.7161338888592482,0.961968927278729,0.0,0.0,0.0,0.0
-0.010689294445973885,-0.1144621421285421,0.7581102175683184,0.0003975004353050808,-0.5176515272373893,-0.0006282080908001895,0.8555912246492462,-0.132591922541772,-0.8038749384984547,0.8610661857633806,0.14340716011382312,-0.8184513519447447,0.9158909215803779,-0.34521662750557286,0.6763655515646263,1.0328646525784149,0.36340488035430607,0.7220988945103346,0.9614041860540716,0.0,0.0,0.0,0.0
-0.008749417623203875,-0.11471129330620697,0.758038536962033,0.00047974578343560167,-0.5173670200670825,-0.0006290983589523943,0.8557632503362979,-0.13268811281552495,-0.8161977872025769,0.8828727137699697,0.12830134196957751,-0.8189734460055412,0.89597087506363,-0.34746672916970744,0.681687547219743,1.0312590833909767,0.36838871342368834,0.7275104834846328,0.9608012821915913,0.0,0.0,0.0,0.0
-0.006961763230360657,-0.11510047510736839,0.7579036939630147,0.0005695466074319832,-0.5171315603881967,-0.0007645002847701948,0.8559053922054969,-0.13202423986076706,-0.8269119452152779,0.9018598519461544,0.11126898156317308,-0.8267108807670529,0.880723772122188,-0.34965930586757477,0.6866521649986963,1.0301096078011203,0.37341582073024876,0.7321456353998346,0.9612079820239801,0.0,0.0,0.0,0.0
-0.005508828792741863,-0.11564481058421901,0.7578013252448131,0.0006762259796785249,-0.5170036781288856,-0.00096679172379567,0.855982362454619,-0.13065188610292572,-0.8345227187178359,0.915893707418578,0.09620130018358117,-0.8379565136060987,0.8694627273312665,-0.3509353931003173,0.6911074872821967,1.0287239889250426,0.3786820218728718,0.7361541178382129,0.9620326742062508,0.0,0.0,0.0,0.0
-0.0044064718089827735,-0.11627741690922522,0.7577421707946617,0.0007918349780452575,-0.5169658618968743,-0.0011912194135302308,0.8560048198619551,-0.12885166831131648,-0.8393274544890785,0.9253907313070806,0.08363925186093503,-0.8505499424339491,0.8605903559352477,-0.35124682722443223,0.6948819485583756,1.0271299034144703,0.383920594984368,0.7395050281377242,0.9630380946427861,0.0,0.0,0.0,0.0
-0.003604941087869072,-0.1169267487079766,0.757712299433021,0.0009040580770661986,-0.5169880502037114,-0.0014075101356630872,0.8559909798244231,-0.12690917960513545,-0.842054315864133,0.9314066978802863,0.07294945000189001,-0.8635143770725471,0.852936290699616,-0.35081112273991344,0.6979176918949281,1.0255277962738552,0.38888090411680426,0.7422080296430766,0.9641305945615228,0.0,0.0,0.0,0.0
-0.003034185130771033,-0.11754661362388756,0.7576999164850186,0.0010048897811730355,-0.5170437718596291,-0.0016017339336614237,0.8559568696062326,-0.1250102423389248,-0.8433974510274146,0.9350004862371392,0.0633384564008731,-0.8764976228439937,0.845747412818485,-0.34988775464908034,0.7002892055014454,1.0240356747997494,0.3934170155734145,0.7443497336223177,0.9652300809185977,0.0,0.0,0.0,0.0
-0.0026282807349341667,-0.11811883588156183,0.7576933604120324,0.0010916419769127104,-0.5171125633284555,-0.0017712673483940048,0.8559148718053968,-0.12323724452197671,-0.843906940671706,0.93702836239104,0.05422104574812646,-0.8893939155042593,0.8385570238673633,-0.3486704490982699,0.7021012633106269,1.0227208328545139,0.39749970858701456,0.7460196721432026,0.9663229001397645,0.0,0.0,0.0,0.0
-0.0023266118579902155,-0.11865018284091183,0.7576838323938867,0.0011669595133098486,-0.517177763041765,-0.0019216951338191285,0.8558750532107026,-0.12158474838506718,-0.8440096436303759,0.9381797824950338,0.04528962940588824,-0.9021094843521505,0.8311143770411267,-0.3472626912747261,0.7034789107003014,1.0215776400693395,0.40120315794188627,0.7473145031279373,0.9674272298127352,0.0,0.0,0.0,0.0
-0.002064419127601075,-0.11916821346795144,0.7576787125644523,0.001239713379920425,-0.5172258911873332,-0.0020666016633127393,0.8558455291428294,-0.119972805389684,-0.8440288169808056,0.939073667360383,0.03647181571104953,-0.9143829344447212,0.8234277664047744,-0.3457134141701066,0.7046582230679218,1.0204062708602153,0.4046721063932205,0.7484264004460921,0.9684463052153622,0.0,0.0,0.0,0.0
-0.0018047558012833924,-0.11970055034880425,0.7576726748607792,0.0013177488701059353,-0.5172467009408572,-0.0022166391265718006,0.8558324604820134,-0.11832047427877172,-0.8441681566789436,0.9400551298054008,0.027816996089097948,-0.9255233603478427,0.8157653808828683,-0.3440009741801245,0.7057254808885258,1.019146671356652,0.4080454817160949,0.7494115849180428,0.969435657074169,0.0,0.0,0.0,0.0
-0.0015398249835522682,-0.12026820876815324,0.7576581080338485,0.0014073361322007706,-0.5172364712093546,-0.002379242580903909,0.8558380638068435,-0.11656122794435783,-0.8444635559724722,0.9411659599571025,0.019410950560811976,-0.934261878598358,0.8088363642775029,-0.3420763719344955,0.7066728200989274,1.0178078383496132,0.4114015393281991,0.7502405437427683,0.9704965406780081,0.0,0.0,0.0,0.0
-0.0012916113847595287,-0.12088278985467533,0.7576312520406058,0.0015124639958518605,-0.5172017055062338,-0.0025588514877855767,0.8558583764579089,-0.11464775561188105,-0.8447433618934078,0.9421165512315666,0.011307074120130689,-0.9388137576550539,0.8039016026940112,-0.3398895831503131,0.7074384654055144,1.0164277921862368,0.41474176409907787,0.750834924957449,0.9717199782080167,0.0,0.0,0.0,0.0
-0.001049230372102786,-0.1215349338987087,0.7575925460452636,0.0016337451579283326,-0.5171417909326241,-0.002756612425792258,0.8558937434259529,-0.11260383478068461,-0.845075801468513,0.9430351539542146,0.003392441229079647,-0.9374669536605185,0.8024137333443653,-0.33755228938860493,0.7080724940545512,1.0150146574085694,0.41800483847611913,0.7512248297354035,0.9730701439985653,0.0,0.0,0.0,0.0
-0.0007787470339593545,-0.12224162317823191,0.7575363880450443,0.0017762608325353766,-0.5170452679607047,-0.00297874754618716,0.8559510282954007,-0.11038432798767009,-0.8456797425997448,0.9442748831000541,-0.0042745649650684486,-0.9302215706976493,0.8042862946200673,-0.3350593696137092,0.7086388782210041,1.013531223305078,0.42129053832066327,0.7514581743248613,0.9745804047442777,0.0,0.0,0.0,0.0
-0.00047684773089113014,-0.12306953732322808,0.757456020306932,0.001953156815430342,-0.5169081656518395,-0.0032408484099327286,0.8560324937538811,-0.10778555687241356,-0.8464717383649517,0.9457018504563938,-0.011343369537113568,-0.9188517884762787,0.8080459732882364,-0.33210320681410055,0.7091140231997924,1.0118731900234799,0.42491409183819234,0.7515020100247695,0.9764356973489253,0.0,0.0,0.0,0.0
-0.00012927287499514415,-0.12407626520045094,0.7573502250263168,0.0021763586490477663,-0.516726184053823,-0.0035587657582965473,0.8561405546769074,-0.10462680589150748,-0.8474169490338085,0.9472981749469163,-0.017662751999856237,-0.9051958787888692,0.8124553004400364,-0.3284605939679292,0.7095444675332506,1.009893123846299,0.4291514835782924,0.7513855885873741,0.9787330284740857,0.0,0.0,0.0,0.0
0.0002844282563027488,-0.12529634601270498,0.7572184085133984,0.0024543444015857475,-0.5164917723276481,-0.003945637426230763,0.8562795438737889,-0.10079222773623335,-0.8485659215953449,0.9491771257051321,-0.023328843768481718,-0.8904936830497339,0.8167298057109118,-0.32404589283973745,0.70999727587078,1.0074746232932938,0.43414471246703634,0.7511471560203126,0.9814982054415684,0.0,0.0,0.0,0.0
0.0007602179707938835,-0.12674689743465875,0.7570603816257283,0.002793307387870914,-0.5162003946354081,-0.004413023156643444,0.8564519106398821,-0.09620468734148792,-0.8498495332560173,0.9512310814378806,-0.028562450024211053,-0.875362966048945,0.8204685892939946,-0.31883682740798164,0.7104734231934676,1.0045588414191058,0.4398643206167779,0.7507418113957602,0.9847396188724727,0.0,0.0,0.0,0.0
0.001275790482832925,-0.12841551186003874,0.7568746366527545,0.003195856792183759,-0.5158450459100262,-0.004968942014518389,0.856661534519149,-0.09086549380637444,-0.8511770401831426,0.9532656701693412,-0.03372012374685061,-0.8599466119761219,0.8234493227205792,-0.3129425493080518,0.7109034385979703,1.0011752212415799,0.4460214424005922,0.7500273564032413,0.988426057025737,0.0,0.0,0.0,0.0
0.0017942348212874038,-0.13023767033392003,0.7566525712588491,0.0036585778056383825,-0.5154117694514044,-0.005614093140919385,0.8569164513986282,-0.08492480580779632,-0.8525544849762346,0.9551454069471486,-0.03931374590134261,-0.8441011829113453,0.8254247446604375,-0.30673290548320437,0.7111188992142377,0.9975443209842123,0.451919081026488,0.7487213693084804,0.9924920829982808,0.0,0.0,0.0,0.0
0.0022581093385931374,-0.13205799551698855,0.7563391279189989,0.004166260372872263,-0.514867524092222,-0.006332489851485943,0.8572362419321359,-0.07880808135153003,-0.8543595641658716,0.9570042971160067,-0.04600241469866058,-0.8276250374046189,0.8257626919784068,-0.30100666314473323,0.7105981220609139,0.9945335357868421,0.45623133521269016,0.7461459633361298,0.9971328638172422,0.0,0.0,0.0,0.0
0.0026420352367859832,-0.13360361472393664,0.7558012779781547,0.004699067057555325,-0.514154464939674,-0.0070878618501939526,0.8576554478144348,-0.0733110700256091,-0.8578107146271805,0.9599325789180057,-0.054424861395381954,-0.810789946249757,0.8231333212411868,-0.29732090937548844,0.7084890712653865,0.9939898772596892,0.45699787645769274,0.7412541858801045,1.0030125962683818,0.0,0.0,0.0,0.0
0.0029083720246806627,-0.13464866164627778,0.7550699155380873,0.00526559367374528,-0.5131235690743804,-0.007855569841451448,0.8582626441865558,-0.06909478409869833,-0.8639703205837838,0.9650155197922128,-0.0637630637325217,-0.7940209713268879,0.8144605309979661,-0.29659038229953966,0.7043112923031302,0.9959177774061024,0.4515220184465695,0.733240983526172,1.0091222610947004,0.0,0.0,0.0,0.0
0.0029368887864868946,-0.1350578712283023,0.7542968274273623,0.005904066622138227,-0.5117327837319793,-0.008669965514047157,0.8590806316925239,-0.06641343326181179,-0.8721912848405362,0.9714332467702123,-0.0722421913231086,-0.7802321099258468,0.7973875174477663,-0.2997267782568949,0.6983500082352498,0.9992577437840369,0.4375735568050273,0.7219347079159366,1.013779358941746,0.0,0.0,0.0,0.0
0.0029588636796898907,-0.13510735047720385,0.7542840775462385,0.005974004359292127,-0.5117024891884622,-0.008679982131070617,0.8590980920363234,-0.06628203624309008,-0.8722385796772765,0.9714567015283748,-0.07226063840874328,-0.7802136127783206,0.7973963657589151,-0.2998033936961882,0.6983402077309603,0.9991319969039534,0.4376566740697822,0.7218693457005191,1.013865655844584,0.0,0.0,0.0,0.0
0.0029588636796898907,-0.13510735047720385,0.7542840775462385,0.005974004359292127,-0.5117024891884622,-0.008679982131070617,0.8590980920363234,-0.06628203624309008,-0.8722385796772765,0.9714567015283748,-0.07226063840874328,-0.7802136127783206,0.7973963657589151,-0.2998033936961882,0.6983402077309603,0.9991319969039534,0.4376566740697822,0.7218693457005191,1.013865655844584,0.0,0.0,0.0,0.0
0.0047513580979345795,-0.13655289807156373,0.7565831965142733,0.0040679134875833585,-0.5145092630972254,-0.006154560114384198,0.8574530842307385,-0.06809269001229622,-0.8598098729466539,0.9697508572718084,-0.07405336649302938,-0.7622113054763202,0.7961382080003938,-0.26955864478419894,0.7163813000821501,0.977788613696271,0.3637600666049057,0.7060935224909443,1.0216612512487067,0.0,0.0,0.0,0.0
0.007080517991250512,-0.13838085856427945,0.7578517787291619,0.002331957125345112,-0.517139192102383,-0.0038244370158469422,0.85588959080548,-0.06849778032719235,-0.8530262718801103,0.9738410848388749,-0.07444621198410391,-0.7530312627946276,0.8051662509697308,-0.23742759731320845,0.7307072509950753,0.9630237359075424,0.2888160396011659,0.6884781603068691,1.0349579672539733,0.0,0.0,0.0,0.0
0.009744612319763382,-0.14039829648216304,0.7582330071348339,0.001159707729441517,-0.5191980543468367,-0.002236824476364587,0.8546502396048944,-0.06688696601010533,-0.8521241436305013,0.9837136709898161,-0.07288652436900936,-0.7547066247209123,0.8253654599789615,-0.21009890109112325,0.7417152433399852,0.9540331480913902,0.23348185224457202,0.6756505414429839,1.0516942449324953,0.0,0.0,0.0,0.0
0.012608238081133368,-0.14247067798285387,0.7579902082879652,0.0005431849058330591,-0.5206054463612314,-0.0014173217717286834,0.853796032649588,-0.06356746758745303,-0.8562653905930021,0.9984392254690053,-0.06969761266926569,-0.7655313569560483,0.8543119625944291,-0.18937725298564173,0.7504516659652076,0.9491257448005141,0.1982946226356479,0.6694701638047399,1.070147429370227,0.0,0.0,0.0,0.0
0.015245663843977934,-0.14439214664639347,0.7576546588613452,0.00020129636796826171,-0.5216900696475265,-0.0009632827535047044,0.8531345162383643,-0.059820775205091395,-0.8608256205914107,1.0124370140402725,-0.06609926929334309,-0.7774608170807402,0.8821273347923771,-0.1727034593061832,0.7581693560536688,0.9449709310044406,0.173866562763616,0.6653916201281155,1.0902718361195352,0.0,0.0,0.0,0.0
0.017482841288577092,-0.14606032570827385,0.7574217151190479,-1.078326335097055e-05,-0.5225460327070127,-0.0006818679528528677,0.8526108013871145,-0.05628933672266239,-0.8644333130366133,1.0239918034797506,-0.06270077024580163,-0.7877341709978962,0.9055646302436795,-0.15879861107584786,0.765010187770908,0.9404513444991904,0.15480965108943728,0.661347074091155,1.1110259777192053,0.0,0.0,0.0,0.0
0.01930031743315193,-0.1474633711542405,0.7573389470799445,-0.00016544061797979092,-0.5232226627502318,-0.0004807707900473487,0.8521958616852152,-0.05320751972657728,-0.8668660089798134,1.0329423930225112,-0.059727095991072655,-0.7957648530022614,0.9242847926784492,-0.14693408426596982,0.7710088918947876,0.9353654872224335,0.13838456808334104,0.6568148040397024,1.1317419654549306,0.0,0.0,0.0,0.0
0.02074218597639342,-0.14864531006034673,0.7573901273878331,-0.00029718404339506275,-0.5237593336940602,-0.0003147542023160916,0.8518661708154577,-0.05057468945332051,-0.8682369430341267,1.0395713195691882,-0.05717983073855671,-0.8017558920391609,0.9389350139186258,-0.13649693977536892,0.7761887276376561,0.9298290116707884,0.12326319792377767,0.6518377179713084,1.152031447479289,0.0,0.0,0.0,0.0
0.02186593935039623,-0.14967585553415194,0.7575264811352878,-0.00041874994157864063,-0.5241880658215252,-0.0001650621214609528,0.8516024125454734,-0.04826530110312259,-0.868734210315257,1.0441946063435674,-0.05493985467926053,-0.806184623281463,0.9503912522483012,-0.12693161439803077,0.7805072324159924,0.9241263403258716,0.1088782799575277,0.6466058153396332,1.1714747206033795,0.0,0.0,0.0,0.0
0.02271518116107485,-0.15062852838504606,0.7576785082709919,-0.0005304835260023213,-0.5245335252889053,-2.7797659289239147e-05,0.8513896279979642,-0.04610806297670401,-0.8685323540366386,1.0470006400875078,-0.052842668228257506,-0.8095730376669571,0.9594197339774804,-0.11777526069290155,0.7837959886175558,0.9187178059080505,0.09511188489342597,0.641336161727385,1.189328071376934,0.0,0.0,0.0,0.0
0.023306153732850447,-0.15156450367538227,0.7577601527375952,-0.0006257629708496877,-0.5248121074513594,9.243836756019682e-05,0.8512178638564367,-0.04394227086346128,-0.8677777916850904,1.048006091564434,-0.05073286622414576,-0.81238381027788,0.9665226645304603,-0.10872663329758689,0.7857212789909487,0.9142870744071607,0.0821607713489981,0.6363500725052542,1.2041785797126947,0.0,0.0,0.0,0.0
0.02362694126906191,-0.15252130760501795,0.7576749769513688,-0.0006939692850776373,-0.5250300793976257,0.00018573250463564735,0.8510833682065412,-0.04165550143758857,-0.8666093699614132,1.047098004754625,-0.0485010150719063,-0.8149853531897889,0.9719104157255731,-0.09971504056206211,0.7858045488608969,0.9117267363791409,0.07048437423044147,0.6323672189065955,1.2134841180582734,0.0,0.0,0.0,0.0
0.023657025433241125,-0.15351338012435614,0.757343132215769,-0.0007240996756405842,-0.5251834810299097,0.00024213053334258333,0.850988676955088,-0.03919522541685827,-0.8651654099185724,1.0441705060915214,-0.04609536605209803,-0.8176463040330869,0.9756403504668537,-0.09084156413293372,0.7836070731874379,0.9118327739429182,0.06070215049686551,0.6309977336952894,1.2132242889960683,0.0,0.0,0.0,0.0
0.02338671469936314,-0.15457140159415278,0.7567445416160816,-0.0007126165708356059,-0.5252764944389069,0.0002572887568827998,0.8509312724128145,-0.036473655627549735,-0.8633590199622861,1.0390240140371498,-0.043428535732501154,-0.8204511254750877,0.9777597923653916,-0.08196204685874198,0.7790147169341557,0.9147225792454982,0.05277435136924409,0.6322425593170827,1.203428360445295,0.0,0.0,0.0,0.0
0.022819180996430048,-0.15574394047629944,0.7559179019459188,-0.0006646960705034739,-0.5253207936639264,0.00023521903439783508,0.8509039702548357,-0.033371198787116196,-0.8608922903327996,1.0313791944207993,-0.04038033928323885,-0.8233092296140855,0.9783253920151291,-0.07264900702375099,0.7722337781626818,0.9198175687892505,0.04600291824482122,0.6344903768594873,1.1881476087117473,0.0,0.0,0.0,0.0
0.021953101749514523,-0.15705735978242405,0.7549194414002363,-0.0005882810842968556,-0.5253173580829991,0.000184724395735852,0.850906159984144,-0.029839109819682363,-0.8574858210607057,1.0209918674582499,-0.03689859731978174,-0.8260328846984707,0.9772690300982546,-0.0626057298035817,0.7635239117367705,0.926400760498444,0.039840107869503996,0.6370043835174856,1.1699242624492838,0.0,0.0,0.0,0.0
0.020766323437098194,-0.15850923554363333,0.7537981259878264,-0.0004929590172165442,-0.5252587475972611,0.00011573078013689629,0.8509424138391215,-0.02590763804450541,-0.8528836699737494,1.0075530173076195,-0.033007894441953685,-0.8283271459014541,0.9742641497712573,-0.051774291980797936,0.7530422120592459,0.9339367411343469,0.033928253824770854,0.6394462250544825,1.150127878979939,0.0,0.0,0.0,0.0
0.019222268310795286,-0.16006718492119937,0.7525919776014254,-0.00039096769568054565,-0.5251344192909928,3.958052918366006e-05,0.8510192049851486,-0.02168940542683384,-0.8468660935841329,0.9907233341051188,-0.028814360709393,-0.8297957212436452,0.9687539425123617,-0.040342845790340504,0.7408623979515493,0.9421150214547663,0.02802673397764159,0.6416063577278341,1.1294025463132802,0.0,0.0,0.0,0.0
0.017291176051696586,-0.1616633263078599,0.7513287189776185,-0.00029781296635864404,-0.5249371064745414,-3.1064487517374485e-05,0.8511409663437489,-0.01739269896860498,-0.8393184359136621,0.9703027925731873,-0.024521003285861792,-0.8299829387091653,0.9600806519844695,-0.028774526987574486,0.7270687662883182,0.9508403363801136,0.021926945284551184,0.6433437003637364,1.1080036681672298,0.0,0.0,0.0,0.0
0.014986845289185787,-0.16318256821445706,0.7500202632331414,-0.00023365187653184648,-0.5246664604238152,-7.589978011643381e-05,0.8513078438217101,-0.013365937005322497,-0.8304443960133948,0.9466146593841999,-0.020474903459945563,-0.8285015323270465,0.9477535514720362,-0.017794260911205957,0.7118318143207633,0.960277159693326,0.01539272481554987,0.6446958014763757,1.0860612041902575,0.0,0.0,0.0,0.0
0.012401257974402446,-0.16448210134290278,0.7486463725937178,-0.00022058454375352163,-0.5243167577950041,-6.168193047024363e-05,0.851523273336163,-0.01005841973205973,-0.8210577550026343,0.9209241914310974,-0.017131378451015526,-0.8253765124324087,0.931948515471067,-0.008140933482637384,0.695348854051145,0.9708747891986119,0.008063282373589274,0.6460461492640726,1.0636781143884728,0.0,0.0,0.0,0.0
0.009737221663782002,-0.16548704648793353,0.7471910065575326,-0.0002586722283309622,-0.5239418734515228,-1.936217295615305e-05,0.8517539820616591,-0.007573479726956871,-0.8119593482472865,0.8950347160575883,-0.014605177292104256,-0.8211266267023627,0.9139331598469981,-0.0005319657029604335,0.6784604172858838,0.9828763627335786,-0.0010402812140493933,0.6480232495958345,1.0410629588358231,0.0,0.0,0.0,0.0
0.007599983590220202,-0.16623777375494073,0.7456119497139009,-0.0003166189323015505,-0.5235208592693406,6.290594120219634e-05,0.8520127966792432,-0.005860098066753987,-0.8064521466025366,0.8750471314999874,-0.012862123802530828,-0.8191609961357379,0.8999245150900106,0.005388839285131332,0.6626891164995635,0.9958248873646701,-0.011535729065872809,0.6527404188818017,1.01857558367123,0.0,0.0,0.0,0.0
0.006293529659850771,-0.16660870293016386,0.7443071551385727,-0.0003924805760304034,-0.5231842776819169,0.00019132879233643384,0.8522194675896236,-0.005235466634809563,-0.8047187901279873,0.8637560183253646,-0.012223421068702221,-0.8189027113426302,0.8914900955827254,0.008988600968242586,0.651154875446964,1.0065882584537245,-0.022260485019883352,0.6591473989723357,0.9975467777739965,0.0,0.0,0.0,0.0
0.006310716732015029,-0.16660973628301415,0.7442768818071157,-0.00041197500061200223,-0.5231733628878816,0.00019573593468927067,0.8522261579701879,-0.005242139092526521,-0.8047471084040091,0.863651777084893,-0.012228129187215046,-0.8189452498965898,0.8914667526646541,0.00898054935624662,0.6511313860826292,1.0065618331485817,-0.02226635655815974,0.6591572667278027,0.9975463648745563,0.0,0.0,0.0,0.0
0.006310716732015029,-0.16660973628301415,0.7442768818071157,-0.00041197500061200223,-0.5231733628878816,0.00019573593468927067,0.8522261579701879,-0.005242139092526521,-0.8047471084040091,0.863651777084893,-0.012228129187215046,-0.8189452498965898,0.8914667526646541,0.00898054935624662,0.6511313860826292,1.0065618331485817,-0.02226635655815974,0.6591572667278027,0.9975463648745563,0.0,0.0,0.0,0.0
0.006310716732015029,-0.16660973628301415,0.7442768818071157,-0.00041197500061200223,-0.5231733628878816,0.00019573593468927067,0.8522261579701879,-0.005242139092526521,-0.8047471084040091,0.863651777084893,-0.012228129187215046,-0.8189452498965898,0.8914667526646541,0.00898054935624662,0.6511313860826292,1.0065618331485817,-0.02226635655815974,0.6591572667278027,0.9975463648745563,0.0,0.0,0.0,0.0
0.006122274619265568,-0.16696729699053325,0.7442565001354919,-0.000749026239695627,-0.5230090453472452,0.000493077113973454,0.852326659397449,-0.004932532902426777,-0.8047610020676647,0.8619498710466071,-0.011913885135276246,-0.8188162875527588,0.8909603133362267,0.015394058003582286,0.6486611688033046,1.004850207036232,-0.015652124093472913,0.6595385834857476,0.999255024529422,0.0,0.0,0.0,0.0
0.006348551000403979,-0.16735588812428637,0.7441853429473848,-0.0010172912909780865,-0.5227964494016788,0.0007239850962109246,0.8524566343556765,-0.0044132588699725105,-0.8072716618661908,0.8647431697065528,-0.01139630154485297,-0.8216288051652122,0.8953246296367586,0.021116704538744733,0.6473061974112578,1.003129541749661,-0.009720633498125717,0.6605263774808054,1.0009091320093793,0.0,0.0,0.0,0.0
0.0070807320707545465,-0.16759184471227975,0.7440783148698469,-0.001146905241367923,-0.5227827278836762,0.0008331888346945684,0.8524647850974463,-0.004038981693318979,-0.8114187402374835,0.8719358642275189,-0.011030606875028262,-0.8260313466472685,0.9034143870322976,0.024255534087145005,0.6483584192740852,1.0023698948038184,-0.006555705641951832,0.6627877426776124,1.002064585483835,0.0,0.0,0.0,0.0
0.008361621552727844,-0.16759017950017194,0.7439313289951001,-0.0011688551665344818,-0.5229734568489153,0.0008514059492045898,0.8523477414277608,-0.004088689877281005,-0.8176333855863117,0.8842102757805054,-0.011098513010741962,-0.8318604894475913,0.9151139171179076,0.024722599073645424,0.6518458000304229,1.0028107117081109,-0.006347274301942934,0.666552252216724,1.0024562923497988,0.0,0.0,0.0,0.0
0.010233888156033941,-0.16732262793167044,0.7437686886662218,-0.0010456479939106964,-0.5234435368573044,0.0007506172507568917,0.8520593916601891,-0.004585102892979946,-0.8254616163214515,0.901331907898856,-0.011622703062021065,-0.8387638358522603,0.9302156650356531,0.02187493804993427,0.6584127630888308,1.0044049428072679,-0.009826380648456813,0.6721195692102956,1.001768302266183,0.0,0.0,0.0,0.0
0.012741158105766322,-0.16682963896634842,0.7436625894718873,-0.000620216719521875,-0.5244164273454116,0.00039997671623818196,0.8514616057580764,-0.005172882903295296,-0.8328870690048147,0.9215686439559786,-0.012243201994645098,-0.8458609343338396,0.9481446306417911,0.013914885544353672,0.6698503322931134,1.006792066092518,-0.018897898061381424,0.679957124289928,0.9995736168592708,0.0,0.0,0.0,0.0
0.01585933747617636,-0.16632364843254302,0.7436894920297547,0.00024443853835696137,-0.5259850471416107,-0.00034742398139622283,0.8504937094004962,-0.0050027663878105255,-0.837958409412701,0.9427427517615221,-0.012102410903542415,-0.8530938600805973,0.9690232619263398,-0.00034152630230752795,0.6875937552622459,1.0086733090756808,-0.034573457881696204,0.68999325585729,0.9956828924189256,0.0,0.0,0.0,0.0
0.01828284523672947,-0.16620461367215975,0.7434001964325302,-0.00020737197027739085,-0.5254582739701154,-0.00011405662801554851,0.8508193382289208,-0.012466424017345996,-0.8432904128741507,0.9241333321578702,-0.0128527337746987,-0.8671705530267736,0.993030436905375,0.0027361483471358625,0.6914998257287972,1.0071091903087321,-0.03170348840239692,0.6959656999734372,0.9938145241552436,0.0,0.0,0.0,0.0
0.02048718941911716,-0.16599723688120951,0.7430888846880871,-0.0003908287656159146,-0.5253883666056643,-7.299205857612779e-05,0.8508624484371533,-0.02341972664378029,-0.8544250423341889,0.9102393339935855,-0.013472797697345818,-0.8778318205429667,1.0122911454381798,0.00236398191429247,0.6967721908958433,1.0074452458063885,-0.03247574267949642,0.7014137795610956,0.9927167833175944,0.0,0.0,0.0,0.0
0.022362631256260534,-0.16577400637409018,0.7427991099077925,-0.0003667515001161967,-0.5257130668778222,-0.00019109191093781775,0.8506618601366428,-0.03464432109583476,-0.8684405127589847,0.9015452296706643,-0.013811641782971597,-0.8850379748025635,1.0266579512809075,-0.0006157426445996613,0.7030237466354342,1.0089352785215127,-0.03597701412968335,0.7062129375300191,0.9922557980318897,0.0,0.0,0.0,0.0
0.02379262151386222,-0.1656418804115269,0.7425598613350277,-0.0003519772494260413,-0.5260435910464385,-0.00029487128582384294,0.8504574824657068,-0.04511308048873756,-0.8839307139573255,0.8953590915189302,-0.013929623383404668,-0.8901521761706633,1.0372161692965407,-0.002768803538775598,0.7080355415422956,1.0101679636132146,-0.03856963953988309,0.7100185202885113,0.9922455311462202,0.0,0.0,0.0,0.0
