zhuoxili-jackie/tripod-support-walk/examples/trajectory_tripod_com_left_tilt_v0.10.csv
root_pos_x,root_pos_y,root_pos_z,root_rot_x,root_rot_y,root_rot_z,root_rot_w,FL_hip_joint,FL_thigh_joint,FL_calf_joint,FR_hip_joint,FR_thigh_joint,FR_calf_joint,RL_hip_joint,RL_thigh_joint,RL_calf_joint,RR_hip_joint,RR_thigh_joint,RR_calf_joint,FL_foot_joint,FR_foot_joint,RL_foot_joint,RR_foot_joint
0.0,0.0,0.72963,0.0,-0.5231245161092812,0.0,0.852256264656019,0.0,-0.81,0.872,0.0,-0.81,0.872,0.0,0.65,1.0,0.0,0.65,1.0,0.0,0.0,0.0,0.0
-0.0001055814433231612,-0.00026296972268863473,0.7296180500235739,8.760255109699193e-05,-0.523068568613753,-0.00010213627997489061,0.8522905927102169,0.0008892594292858114,-0.8088962829792112,0.8700298009112162,0.00088925942928581,-0.8107273399355989,0.872492225741952,0.0005875319158955133,0.6497434334100131,0.999300297806272,0.0005875319158955121,0.6492243890240109,1.000871706628992,0.0,0.0,0.0,0.0
-0.00023360475728763055,-0.0005779680350127855,0.7296100386118549,0.00019740607353347668,-0.5230122853853283,-0.00022717105935043358,0.8523250898337839,0.001957802865088682,-0.8074624697020395,0.8675603304693325,0.0019591081444808285,-0.8115128315123983,0.8729984759954379,0.0012409248295334545,0.649506778236771,0.9984292799349701,0.0012426564824949823,0.6483366048373375,1.0018750909803686,0.0,0.0,0.0,0.0
-0.0003524704079673604,-0.0008643992780461135,0.7296073224062304,0.00030032354037115577,-0.5229599422600678,-0.00033900014891591313,0.8523571397460202,0.0029212760006473927,-0.8061285391644374,0.8652741934941305,0.002925193469408788,-0.812204709888539,0.8734315737489147,0.001824874145707249,0.6493061859290131,0.9975913067937624,0.0018299172441445114,0.6475422467735048,1.002743711770393,0.0,0.0,0.0,0.0
-0.0004416493390894146,-0.0010968002331648242,0.7296078701049455,0.00038217702505057455,-0.5229184099142029,-0.0004225923249065397,0.8523825502256894,0.003683825614045148,-0.8050787372621432,0.8634854622313682,0.0036908044666023572,-0.8127751690630352,0.873835436174243,0.00235208425506376,0.6491627001681528,0.996872284054457,0.002361229616437854,0.6469556206816925,1.003424452001186,0.0,0.0,0.0,0.0
-0.0004949904782659668,-0.0012755923905393614,0.7296091762213436,0.00043969658862149036,-0.5228926836679608,-0.000475939134289193,0.8523982763446722,0.004243716211661047,-0.8043346708423549,0.8622438065892442,0.004253471365403328,-0.8132297556264898,0.8742447399640761,0.002859665341722788,0.6490840849974795,0.9962972294157159,0.002873287287159116,0.6466053499382489,1.00395075412539,0.0,0.0,0.0,0.0
-0.0005169881899671187,-0.0014102278128668858,0.7296094156716849,0.00047651954029102666,-0.522883189400322,-0.0005041709347168947,0.8524040643869216,0.004636818180435956,-0.8038413511362947,0.8614595674966437,0.004648751744313898,-0.8135841462253904,0.8746608571040676,0.003357118560862362,0.6490622299269008,0.9958616686330937,0.0033754483867465945,0.6464567267822035,1.0043713523208626,0.0,0.0,0.0,0.0
-0.0005153679539773366,-0.0015101895987094532,0.7296076703792846,0.0004977524996756157,-0.5228880241934343,-0.0005135440629655955,0.8524010808709893,0.00490098006182932,-0.8035320990770346,0.8610159954848432,0.0049144644518362935,-0.8138512122031867,0.8750668273636935,0.003837605843585728,0.6490831945894078,0.9955516547365687,0.0038607915479390753,0.6464590925435141,1.004722800495745,0.0,0.0,0.0,0.0
-0.0004981304680659736,-0.001581572980876318,0.7296039451109266,0.0005074176574907615,-0.5229049379627064,-0.0005086586352486978,0.8523907024645048,0.0050615454459157,-0.8033495651203547,0.8608092949195457,0.0050760138927305,-0.8140291230640981,0.8754272387139701,0.004288430148769956,0.6491319191809567,0.9953538957958349,0.004316491375483478,0.6465686631278104,1.0050227878175344,0.0,0.0,0.0,0.0
-0.00047315799193110153,-0.0016250597606658746,0.7295991313145784,0.0005090341214540647,-0.5229296968448164,-0.0004927733383958223,0.8523755218308938,0.005126798452574035,-0.8032620461488078,0.8607699657982971,0.0051417323330259475,-0.8141103650744498,0.8756960009906071,0.004671782476699067,0.649191308994195,0.9952600349397203,0.0047043287755308815,0.646742473702992,1.0052596059842651,0.0,0.0,0.0,0.0
-0.0004546064180814096,-0.001637181479231302,0.7295951309699535,0.0005107031414274137,-0.5229515127462612,-0.0004723948411882774,0.8523621479992013,0.005100378391931296,-0.8032386812066868,0.8608062102707345,0.005115348612173021,-0.8140924305074064,0.8757945306279538,0.004872412462757307,0.6492302889704784,0.9952630902542212,0.004907780129665447,0.6468896891387618,1.0053859094981834,0.0,0.0,0.0,0.0
-0.0004638252006617899,-0.0016125018374482465,0.7295943607851528,0.0005286393235382715,-0.52294969911426,-0.0004605492593651273,0.8523632562652793,0.004993459249219386,-0.8032507450706068,0.8607977461925113,0.005008236387694385,-0.8140100857306058,0.8756393675184583,0.004669455267901762,0.6492022789263725,0.9953524457456907,0.00470346150322006,0.6468452712103921,1.005320663327497,0.0,0.0,0.0,0.0
-0.0005281754590642975,-0.0015514305357260665,0.7295985434776837,0.0005898854849856452,-0.5228943837750694,-0.0004794286699785942,0.8523971407740383,0.0048499801396767375,-0.8032502007126884,0.8605682974440266,0.004864760309286947,-0.8139675215161019,0.8751874651019643,0.0037561075930167692,0.6490515276766702,0.9955011830607698,0.0037818775659328677,0.6463633489283808,1.0049837652304296,0.0,0.0,0.0,0.0
-0.0006766891668048799,-0.001479432950114056,0.7296116822939528,0.0007202932891709917,-0.5227765979425388,-0.0005467982358525302,0.8524692433354367,0.0047656256502584355,-0.8029920120576539,0.8597049223439094,0.004781264448273065,-0.8139765873280161,0.8743398394794935,0.0020327976702589055,0.6487584792327744,0.9956132195473564,0.0020462503514124077,0.6452865479295039,1.004407971740732,0.0,0.0,0.0,0.0
-0.0009277706413173259,-0.001506256625818982,0.7297292840112871,0.0007584212386797128,-0.522982069582631,-0.000467499212982247,0.8523432179215006,0.004584032476754607,-0.79999165973608,0.8555994521070194,0.004599557767210353,-0.8110225154112977,0.870481697035579,0.0024765238410251467,0.6489756284541217,0.9950178358744868,0.002496173945166098,0.6458068800911145,1.0041420732981383,0.0,0.0,0.0,0.0
-0.0009858714150298346,-0.0014209327148574742,0.72974933175642,0.0009066782489102952,-0.5230066418328763,-0.00047959269776438266,0.8523279888189139,0.010916459604714091,-0.8122211011037719,0.8555579245314227,0.004317668500854006,-0.8105423671937989,0.8696367412281814,0.0009096753933905883,0.6492463713876552,0.9952779181836514,0.0009226512052130434,0.6455122748226477,1.003724106949772,0.0,0.0,0.0,0.0
-0.0009501967026609961,-0.0013134489242388973,0.7297974840027937,0.0009854281113515397,-0.5231743250789028,-0.00038214592479835695,0.8522250339400761,0.019876198468677456,-0.828202919497537,0.851355989427907,0.0037231624370358237,-0.8092925841715886,0.8685869502519852,0.00031303661339998005,0.6499421350464738,0.9954502694946449,0.0003266342923426435,0.6463650723640075,1.00331546170946,0.0,0.0,0.0,0.0
-0.0008596422200507958,-0.001180606499630888,0.7298608556514199,0.0010275701978937392,-0.5234090784486659,-0.00022662372640606373,0.8520808819230092,0.02934546231692012,-0.8452817856399051,0.8450208263771087,0.0029292188636853016,-0.8076821997739454,0.8674801368164748,0.00013713485889567238,0.6508647357129522,0.9955972522911448,0.00015139985322568024,0.6478132035118617,1.002838183798618,0.0,0.0,0.0,0.0
-0.0007362339201727689,-0.0010138656688680836,0.7299262367315396,0.0010557477267307406,-0.5236529769907674,-5.160768007157181e-05,0.8519310080177218,0.038432947903189005,-0.8621711476785895,0.8376618989263063,0.002006532334417467,-0.8060555359236716,0.8664857184863484,-5.66604829986369e-05,0.6518655680136656,0.9958095963659008,-4.249954145707415e-05,0.6494465188251624,1.0022363177387832,0.0,0.0,0.0,0.0
-0.0005839155818079358,-0.0008061404105364285,0.7299857363949931,0.0010733358518258177,-0.5238813343733509,0.00012943942191425548,0.8517905720837619,0.046912132915630754,-0.878442510949364,0.829746569576393,0.0009722685573111802,-0.8045735751263677,0.8657100732590746,-0.0004230478719627719,0.6528721655916153,0.9961495406366732,-0.0004100333899122809,0.6511091484333287,1.001494593724391,0.0,0.0,0.0,0.0
-0.00039361573862006256,-0.0005518056696217831,0.7300353312548322,0.0010711204311229104,-0.5240918388540541,0.00031972043171448475,0.8516610211383657,0.054844231272952765,-0.8941205622735614,0.8214249157792002,-0.00019052082258324112,-0.803278933599274,0.86522679993321,-0.0009242083480715699,0.6538679539439375,0.9966547173167913,-0.0009130873023696539,0.6528207392905041,1.0006222418099329,0.0,0.0,0.0,0.0
-0.00015148172025419585,-0.00024363551742019504,0.7300729843200776,0.00103506342574078,-0.5242902439852033,0.0005296968752122202,0.8515388353603499,0.06235229669403924,-0.9093677676508135,0.8127255477448774,-0.0015195611372119955,-0.8021620520345952,0.8650868989691446,-0.0014559635990061056,0.6548570821775263,0.9973535833119953,-0.0014467028702159755,0.6546710706616731,0.9996249241303553,0.0,0.0,0.0,0.0
0.0001525777456618938,0.00013099721048309042,0.730097348027847,0.0009531253517199593,-0.5244773381609503,0.0007693808331961761,0.8514235264313534,0.06950597980332451,-0.924247853881836,0.8036765414384958,-0.0030662907669888302,-0.8012106590511793,0.8653121967516486,-0.001965062327792361,0.655829821676626,0.9982798674862576,-0.0019569979745805892,0.6567234184083802,0.9984745623055302,0.0,0.0,0.0,0.0
0.0005175260456628669,0.0005918180614521572,0.7301067947201351,0.0008210897708708149,-0.5246393314063956,0.0010423841194643004,0.8513235643328486,0.07628399917732545,-0.9385250021457986,0.7944138393905233,-0.004887933108277724,-0.8004448414098121,0.8658854100984227,-0.0025369369790216273,0.6567354702750597,0.9994814169397297,-0.002529048767397055,0.6589377303512163,0.9970920615985173,0.0,0.0,0.0,0.0
0.0009264131117854584,0.001162129875296453,0.7300983400694163,0.0006467461163209757,-0.5247447320244035,0.0013421356157302974,0.851258331297901,0.08259934805290053,-0.9514780062141983,0.7853285229897796,-0.007031486551523809,-0.7999340241090742,0.8667443436001248,-0.003425500856621577,0.6574692309353767,1.001021260140507,-0.003416151457239027,0.6611275825121502,0.9953632613189358,0.0,0.0,0.0,0.0
0.0013469243340904755,0.001858265541127074,0.7300665033270836,0.00044913800153405806,-0.5247539602783461,0.0016530546471266627,0.851252222820934,0.08837392797835306,-0.9617795915242979,0.777273723382295,-0.009510255249135891,-0.7997681193873324,0.8677709816863185,-0.00497116614887737,0.6578843941726994,1.0029706355098043,-0.004956126290473125,0.6629900587797721,0.9932074195521894,0.0,0.0,0.0,0.0
0.0017422202131986816,0.002675905900092693,0.7300039527625916,0.00024306043581194507,-0.5246555539492394,0.0019653472497004813,0.8513122975982605,0.09358151037900309,-0.967614379658225,0.7717913946045565,-0.012298863963835092,-0.7998820680183613,0.8687029949545556,-0.007309541825226112,0.657854486915523,1.0054017217283446,-0.007276894683973863,0.6643064100020918,0.9907011362097896,0.0,0.0,0.0,0.0
0.0021384195696026466,0.0035677354345590127,0.7299036292592042,1.5645107699546462e-06,-0.5245121510623226,0.0023027615965120402,0.8513998477064446,0.09826031877116022,-0.9672092435060307,0.7707998122491977,-0.015325739481902221,-0.8000871216265952,0.8695541360399366,-0.009789266798141434,0.657466554196481,1.0082852256219315,-0.009718732533270089,0.6654148209820295,0.9882032506792968,0.0,0.0,0.0,0.0
0.0025894301099830264,0.004523764403286781,0.7297586291243611,-0.0003027325549923301,-0.5243534126467521,0.0026889626458291814,0.8514964336264682,0.10237809334697466,-0.9605106558095827,0.7742966012355941,-0.018613468870162235,-0.8004506420059967,0.87067392640013,-0.012011894139005323,0.6568246913486436,1.011624240257523,-0.011885238198835659,0.6666290514572883,0.9858488895468052,0.0,0.0,0.0,0.0
0.003159646332703258,0.005582398617438024,0.7295621644687684,-0.0006837884119799625,-0.5241464533517404,0.003135542746134303,0.8516220970852545,0.10585403535504773,-0.9491655793648491,0.7803056362115129,-0.022287033583995843,-0.8013877626610836,0.8727249263466047,-0.014081273953308665,0.6559795670890091,1.015460532972186,-0.013881416449950775,0.668055594063363,0.9834468197327956,0.0,0.0,0.0,0.0
0.0038762683745905873,0.00679737220323367,0.7293222678880745,-0.001153230834574099,-0.5238757983397058,0.0036593398853746496,0.8517860219586733,0.10859641619892318,-0.9351047424432186,0.7873080347061743,-0.026527675023104474,-0.8029061576176195,0.8757825244308678,-0.016192142098689143,0.6549919060395117,1.019812508915538,-0.015896153665459187,0.6698153910758239,0.9806834598582067,0.0,0.0,0.0,0.0
0.004775167178049243,0.008187676280300968,0.729048462088771,-0.0017282098461551946,-0.5235483727519229,0.004281036806589041,0.8519834431509816,0.11071445103773087,-0.9195983468281452,0.794294273541411,-0.03143698597920084,-0.8049759140839551,0.8799795429051431,-0.01823868099688655,0.6539814307894096,1.024594965432879,-0.017819564380594802,0.672159767146813,0.9773892747130266,0.0,0.0,0.0,0.0
0.005868391769474726,0.009750869858568594,0.7287525060260289,-0.0024142572921094538,-0.5231717402969024,0.005011549133237418,0.8522091209859955,0.11246679855980606,-0.90322916407843,0.8006402144567341,-0.03704397058252741,-0.8075049116285256,0.8852956779198737,-0.020100653031356525,0.653039525625705,1.029664437310771,-0.019529930073745937,0.6752521526597598,0.9734566338837412,0.0,0.0,0.0,0.0
0.007122601049300833,0.011468121221379027,0.7284495850597639,-0.0031959796180993545,-0.5227463382532025,0.005843907133671912,0.8524622574088322,0.11423773036924982,-0.8860846333894579,0.8059050858368396,-0.04329939094838814,-0.8102940770407654,0.8914014300425193,-0.021788025472293283,0.6521815493228598,1.0348455620433483,-0.021034956033827778,0.6790510257856559,0.9688102756705057,0.0,0.0,0.0,0.0
0.008506298751747169,0.013254704392595615,0.7281444551619928,-0.004053434428674268,-0.5222908149331931,0.0067570493369347425,0.8527310341426607,0.11668179498678168,-0.8677743095313517,0.8094843141252975,-0.04994817936411707,-0.8132900448393032,0.8982009906945908,-0.02296116627276431,0.651419018799086,1.0398989730955914,-0.022008607870851363,0.6834986934808108,0.9637368284472941,0.0,0.0,0.0,0.0
0.009920533975029943,0.014943839060528569,0.7277654253774527,-0.004937543307324031,-0.5218269212112943,0.007686470968905826,0.8530024637298971,0.12074213535182732,-0.8478341836922211,0.8102407923132321,-0.05642463438374366,-0.8166839300827978,0.9054924754543459,-0.02316904866823734,0.6502953729960365,1.0451391078405043,-0.022031873988326785,0.6878294902059938,0.9595865169246138,0.0,0.0,0.0,0.0
0.011235927513991181,0.01636393607447008,0.727268583488728,-0.005778404298538641,-0.5213531949803768,0.00853993556280652,0.8532786916524395,0.1273216943545672,-0.8259862521154697,0.805987891825338,-0.06208168350480811,-0.8207253647089054,0.9130419417277661,-0.022233495409518123,0.6484076960855752,1.0506554480498995,-0.020957701661886576,0.6911380696222935,0.9574712145156621,0.0,0.0,0.0,0.0
0.012298630813930166,0.017387392573360517,0.7267102195396502,-0.0064718979593969255,-0.5208099792956064,0.009187467813076458,0.8535986588778692,0.13667580708716004,-0.80244890711541,0.7928596777604071,-0.06629247397194052,-0.8256379967337513,0.9205683505304655,-0.020759391077204654,0.6457430550723533,1.0557731495300167,-0.01939210179886038,0.69261029875052,0.9572922466403253,0.0,0.0,0.0,0.0
0.012853751100058628,0.017872190561453186,0.7262224759231174,-0.006864543349170396,-0.5201346560712092,0.009437699058585332,0.8540045359567897,0.14709887775617003,-0.7784648318189543,0.7658900845474719,-0.06822734991160648,-0.8312014645544425,0.9270063411737176,-0.020002088753672154,0.6425265434928922,1.0593099882936945,-0.01857829483941403,0.6912469259007555,0.9583365067086317,0.0,0.0,0.0,0.0
0.01288270462917151,0.017903172600777905,0.7262114218096588,-0.006905158830296662,-0.5201204658076358,0.009433257867435188,0.8540129000639175,0.14709019263741752,-0.7784036215908556,0.7659062402486231,-0.06829538843779598,-0.8312269245029447,0.9270455701185476,-0.02000098257062835,0.6425155493656057,1.0594203634433481,-0.018561743299626614,0.6912865149347632,0.9582571879321635,0.0,0.0,0.0,0.0
0.01288270462917151,0.017903172600777905,0.7262114218096588,-0.006905158830296662,-0.5201204658076358,0.009433257867435188,0.8540129000639175,0.14709019263741752,-0.7784036215908556,0.7659062402486231,-0.06829538843779598,-0.8312269245029447,0.9270455701185476,-0.02000098257062835,0.6425155493656057,1.0594203634433481,-0.018561743299626614,0.6912865149347632,0.9582571879321635,0.0,0.0,0.0,0.0
0.013091698051195566,0.01781615931245518,0.7261665950669149,-0.006646367778474534,-0.520107433775451,0.00903906156111916,0.8540271532527303,0.14830568774536895,-0.7781424550220823,0.7666268300058794,-0.06721662278974837,-0.8338018743693253,0.9303819321455676,-0.023843858521722043,0.6443419138039481,1.0596962298971844,-0.022290179498558643,0.6902770518639169,0.9582447193289256,0.0,0.0,0.0,0.0
0.013371945201746716,0.017734476857586508,0.7260976839541007,-0.006517755119791629,-0.5202595500645414,0.008773694193471848,0.8539382540471171,0.1492136658937289,-0.7779117726685927,0.7676549219337562,-0.06638952892768814,-0.8353959923720451,0.9331395313013714,-0.02605340947734873,0.6462115017451672,1.0602858150297418,-0.02439187521875416,0.6903186757304843,0.9588519735576069,0.0,0.0,0.0,0.0
0.01369253761229108,0.0177363641480131,0.7260056912721209,-0.006483645252073476,-0.5205045881882976,0.008620055621047007,0.8537907417278932,0.14965595374578095,-0.7781441646550449,0.769448721504858,-0.06600652214798935,-0.8361446069597959,0.9351689675993137,-0.02752999270295173,0.6480055041815789,1.0613369154133203,-0.02576972330580913,0.6910088581609007,0.9596307186324866,0.0,0.0,0.0,0.0
0.014026197039678437,0.017876149737914293,0.7258984444992896,-0.006509609547802193,-0.5207802049840253,0.008548430569247466,0.8536231764749211,0.14956710161915168,-0.779098787438523,0.772275034804562,-0.06615790856322089,-0.8362113183066358,0.9364078346072428,-0.02908881186946379,0.6496831905417929,1.0628903179708091,-0.02720717383397268,0.6919968262093407,0.9601635052033385,0.0,0.0,0.0,0.0
0.014358095754078119,0.018201103742954857,0.7257828828866553,-0.00658000816134517,-0.5210498445560824,0.008547330967271595,0.8534580869111352,0.1488568291103719,-0.7809980257084959,0.776398933696999,-0.06694830228960526,-0.8356296333264851,0.9367469981124685,-0.031265794930834284,0.6512303771623623,1.0649889661011613,-0.029205269802110342,0.6931048536175105,0.9601321528923156,0.0,0.0,0.0,0.0
0.014702202797794228,0.01876004954502749,0.7256620741495228,-0.006706154370279975,-0.521310302628544,0.00863454611788361,0.8532971583687806,0.14736668130854005,-0.7841510627856846,0.7822977293409278,-0.06854526105762258,-0.8342887187139781,0.9360815114532274,-0.034246116701042,0.6526852684985722,1.0677104691860608,-0.031920854553375885,0.6944257879758783,0.959316763006149,0.0,0.0,0.0,0.0
0.015130560851971318,0.019629401928656934,0.7255336253235298,-0.006937778138551494,-0.5215878020290098,0.00887351161490201,0.8531232576835933,0.14477828624992461,-0.7892848607733066,0.7911825899247936,-0.07128734311728788,-0.8319780274314039,0.9344547035603815,-0.037860979396247614,0.6541767720215167,1.0711960041403985,-0.03516560343304919,0.6964529810687503,0.9574796237136646,0.0,0.0,0.0,0.0
0.015714251206652124,0.02088705821392424,0.725402266254347,-0.007322638310618891,-0.5219014914592622,0.009325559702657757,0.8529233530142094,0.14076849764641539,-0.7970883452639818,0.8042002655743584,-0.07551016413191385,-0.8284851069373329,0.9319032705402372,-0.041984837401055755,0.6558657669609668,1.075505808080521,-0.038790778438838165,0.6996927886301737,0.9542789206140307,0.0,0.0,0.0,0.0
0.016481087757625558,0.02259219109085348,0.7252910523038208,-0.007883829075445423,-0.5222491737224181,0.01003041730866461,0.8526975058682738,0.1350826514331953,-0.8078480771776895,0.821818991781168,-0.08145064204593919,-0.8235560157799164,0.9282546024272842,-0.04666375214700468,0.6578897129546893,1.0805046142773276,-0.042807361171455435,0.7044783679356446,0.9492334913802154,0.0,0.0,0.0,0.0
0.017456515576907135,0.024764809116896887,0.7252370003827422,-0.008629603662840234,-0.5226207356480767,0.011000202646303851,0.8524506391299297,0.12761835676387873,-0.8215492048749699,0.8440964923915725,-0.08917382646754732,-0.817075390665234,0.9235141693276181,-0.05194489969410946,0.6604870497826955,1.0858240216878385,-0.0472209411739325,0.7111197318916426,0.9418085761750552,0.0,0.0,0.0,0.0
0.018646169531267687,0.027310715351638898,0.725255618687948,-0.00952991297841445,-0.5229935196549056,0.012213905251400394,0.8521958575797629,0.11861645024815051,-0.8376419338973383,0.8701706700630811,-0.0983892401035393,-0.8093919541469381,0.9181608832466638,-0.05747481674076912,0.6637280870935955,1.0909793447640792,-0.05168595720154771,0.7196399253748852,0.9320457936886667,0.0,0.0,0.0,0.0
0.0196759520475174,0.029529994354959926,0.7251769019266235,-0.010297525687115186,-0.5232875078722843,0.013216172656281906,0.8519914775687938,0.11082628952782649,-0.8513553471297026,0.8919448638223584,-0.10626829474879029,-0.8029903568355165,0.9134199130651021,-0.06308972789335127,0.6664048183440653,1.096149087660166,-0.056145765746664966,0.7264028605282479,0.9240792156092971,0.0,0.0,0.0,0.0
0.02050891755161057,0.031272258623131634,0.7250322636080829,-0.010893069097165125,-0.5235355852465783,0.013961779917393237,0.8518197583571923,0.10476426856806409,-0.861961000087713,0.9086023029029344,-0.11234306878313996,-0.7981635383849507,0.9097644271052043,-0.06813133073241567,0.6685737322350865,1.1008479303649958,-0.060078257172987336,0.7313351218736697,0.9184184622447551,0.0,0.0,0.0,0.0
0.021170912901377202,0.032568860481665345,0.724861880009513,-0.011335803058307295,-0.5237619200453077,0.014487505796853394,0.8516660512520516,0.10030581452108678,-0.8697947334575692,0.9209150914849747,-0.11678670715665534,-0.7947043105696788,0.9072138666759907,-0.07234986112158595,0.6703914050455709,1.1048556092677582,-0.06331537960047652,0.7348562516036007,0.9147159768084979,0.0,0.0,0.0,0.0
0.021700989627138508,0.0335024947469832,0.724691097074879,-0.011657152969044484,-0.5239760822959902,0.01484479097249783,0.8515238153729964,0.09714697374406016,-0.8754464407200361,0.9299141804172275,-0.11993116466520307,-0.7923294841730152,0.905637628057155,-0.07573794001148412,0.6719762142016017,1.1081443458322364,-0.06588037439087333,0.7373853977836018,0.9124693911636295,0.0,0.0,0.0,0.0
0.022137755012696266,0.034155921015265996,0.7245320724654195,-0.011887952606769262,-0.5241829522967713,0.015081089784689897,0.8513891412480935,0.09497952671693002,-0.8794753090866487,0.9365082647442694,-0.12209631235128993,-0.7907857489244153,0.9048857727990134,-0.07835390438350012,0.6734108007074087,1.1107756402249591,-0.06783490432719019,0.739265718980669,0.9112531907288758,0.0,0.0,0.0,0.0
0.022516566164332973,0.03459481765363711,0.7243877533366381,-0.012056859345940476,-0.5243917663786555,0.01523715291028283,0.8512553886279807,0.09354686920899262,-0.8823210241448464,0.941399845652685,-0.12353998846932339,-0.7898548616538562,0.904827153589955,-0.08020619903992449,0.6747578235637417,1.112846662898783,-0.06918707664106558,0.7407845672796836,0.9107890002333423,0.0,0.0,0.0,0.0
0.022879850452067602,0.03485762736027631,0.7242549185565026,-0.012192518464290371,-0.5246229201142543,0.015348676447221066,0.8511090131796333,0.09267340595941309,-0.8843093802863627,0.9451459144546492,-0.12443676464570433,-0.789392731712826,0.9054672601293302,-0.08113262235990204,0.676097887235727,1.1144375649828029,-0.06979592356517515,0.7422452716070003,0.9109693530540618,0.0,0.0,0.0,0.0
0.023265193903884093,0.034968193389106374,0.7241294498098624,-0.01232052082638623,-0.5248984686219963,0.015444331168741669,0.850935529308537,0.09223671373790025,-0.8856709541162523,0.9481615657656416,-0.12490636803568286,-0.7892865842491905,0.9068380436002614,-0.08092463869024928,0.6775055184949756,1.115606159135275,-0.06948084390695562,0.7439194317432949,0.9117538273480295,0.0,0.0,0.0,0.0
0.02367159440626335,0.03496702943268872,0.724013252092139,-0.012456320420901282,-0.5252200394403891,0.01554068376330502,0.85073335270223,0.09209274957736388,-0.8865538134935174,0.9506481867710742,-0.12508112114599892,-0.789325506642399,0.9086652674855109,-0.07966018699567588,0.6789657189115565,1.1164306439482006,-0.06829988412193826,0.745887247123995,0.9129733639459847,0.0,0.0,0.0,0.0
0.02407107740003501,0.03491124815624632,0.7239181196867338,-0.012610234292580444,-0.5255718691861012,0.01564662739285109,0.8505118314065614,0.09206907580293679,-0.8870697101867386,0.9526983670628034,-0.12511493756482198,-0.7892116859971873,0.9104453862584649,-0.07764139686167335,0.6804158870575683,1.1169662777402265,-0.06649413188839064,0.7481163549917373,0.9142932243152485,0.0,0.0,0.0,0.0
0.02441933859289059,0.03488233577444063,0.7238739879676914,-0.012789417039185319,-0.5259161022723859,0.015766179666460555,0.8502941324983632,0.09194130817753673,-0.8873779541396389,0.9544523220312284,-0.12521114441295192,-0.78858141927228,0.911520030243688,-0.07543528840671154,0.681803305024574,1.1171780387862915,-0.06452549502933391,0.7505241893028691,0.9150864210842781,0.0,0.0,0.0,0.0
0.024641269864075038,0.03503334578040939,0.7239596651021285,-0.012993901565802705,-0.5261648807349474,0.01589860960038339,0.8501346428749104,0.09130843713402256,-0.8878061708266889,0.9562825904269813,-0.1257418989306436,-0.7868602157940227,0.910834139242062,-0.0743039300870552,0.6831597007468871,1.116793048640671,-0.06344567976268377,0.752982042138116,0.9139164267561201,0.0,0.0,0.0,0.0
0.024680112989908673,0.035656857909896054,0.7244261323459504,-0.01321837157087476,-0.5261455709963971,0.01604926957298598,0.85014030237371,0.0894034774853262,-0.8891216503062724,0.9596120066440346,-0.12743816761781757,-0.7830719596153765,0.907070417072924,-0.07664687874578903,0.6852290918653855,1.1143253133953566,-0.06526963604379453,0.7560207883916092,0.9069324052903618,0.0,0.0,0.0,0.0
0.024759577681752378,0.03734352772504955,0.726329818412579,-0.013538168221771963,-0.5256535953911884,0.01641872010202077,0.8504325024854866,0.08424751223697333,-0.8924849602199284,0.9694097170603921,-0.13210933364401417,-0.7737670741874506,0.898720341936437,-0.08471600148206941,0.6925021799643429,1.1016997376170528,-0.07182083728368745,0.765865630696384,0.8808386923173898,0.0,0.0,0.0,0.0
0.02413437308772986,0.039246375676098524,0.7293561819261648,-0.012732524355829848,-0.5239143778664255,0.015595305039444389,0.8515329670359751,0.08124368659885763,-0.8925098866657266,0.9755249132083176,-0.1349515612103162,-0.7683520160390154,0.8915814395610149,-0.11182339228911219,0.7042863826235656,1.0800781673692854,-0.04321679307701326,0.7288168703855881,0.9439944084196259,0.0,0.0,0.0,0.0
0.023752341712318437,0.04119264416649011,0.7324667321023127,-0.012181629627383107,-0.5225553754774439,0.015029104116148792,0.8523858360441677,0.07752525989822857,-0.8921498399488281,0.9824152555448815,-0.13830433531421105,-0.7604300286303606,0.8831748696436611,-0.13369297228327334,0.7168601110134507,1.0567438021080235,-0.020584510819483107,0.7022276785010663,0.9901635747666309,0.0,0.0,0.0,0.0
0.023644518584887086,0.043023742094602954,0.7352440390321987,-0.0119500274412056,-0.5215844017471103,0.014729425391630016,0.8529888350534817,0.07354490757457632,-0.8924326635881329,0.9901668115129877,-0.14183913132998055,-0.7517392200159113,0.874929375778116,-0.1497624038957433,0.7286837400527174,1.0351574972859572,-0.007202975835751798,0.6838154265516586,1.024771972746408,0.0,0.0,0.0,0.0
0.02376677576462658,0.04468118079388226,0.7376404093773341,-0.011944424775578288,-0.5208871173126915,0.014632044115443641,0.8534165717980045,0.06959770576608615,-0.8935283894029371,0.9986046286274776,-0.14534290918351503,-0.7433838992933423,0.8677686690784914,-0.16143337269675823,0.7394836298090306,1.0159569736731637,0.000537860458325233,0.6710173743093091,1.0532255666012338,0.0,0.0,0.0,0.0
0.023987161726827955,0.046119149613408614,0.7397056291151933,-0.012040695570041364,-0.5203624902603103,0.014628309623226917,0.8537352709932072,0.06602123171247934,-0.8947603579886767,1.0065750779776483,-0.14850171487389455,-0.7357965789583315,0.8616631620844993,-0.17021545229145843,0.749172207998875,0.9989652164649866,0.005559855904099787,0.6614395857655562,1.0785077309226516,0.0,0.0,0.0,0.0
0.024249372385987164,0.047359339314325566,0.7414996186786621,-0.01217190409582904,-0.5199387887293482,0.014661699795671756,0.8539909456688881,0.06287460769919175,-0.8959822981871252,1.0138739011852718,-0.1512746259101307,-0.7291406931855775,0.8565844700441755,-0.17716707672109608,0.7578498241121272,0.9838494548741301,0.009424443600754165,0.65359657191965,1.102225671053748,0.0,0.0,0.0,0.0
0.024525046600112243,0.0484336084735093,0.7430718080797847,-0.012304862968464324,-0.5195765311263116,0.014704331426815168,0.8542087574401042,0.060131036237042676,-0.897148854034445,1.0204976724920334,-0.1536933363054621,-0.7233955147458618,0.8524161651837766,-0.18293431142567435,0.7656445959306754,0.9703154476072077,0.012876942236846795,0.6466647494980297,1.1252323028152331,0.0,0.0,0.0,0.0
0.02479291307708796,0.0493656312611734,0.7444531296459537,-0.012421321830205738,-0.5192526306522732,0.014739459808932577,0.8544033969087583,0.057762210372792874,-0.898225376784197,1.0264292961122068,-0.15578620443539057,-0.7185051429422917,0.84901895776688,-0.18791015806735012,0.7726210111180734,0.9581923186432361,0.01623866311084102,0.6402526257031866,1.1478402733580768,0.0,0.0,0.0,0.0
0.0250190225086384,0.05016308861611221,0.7456548095149039,-0.012504566300770407,-0.5189513495511124,0.01474868863836132,0.854585050655672,0.05578405768394649,-0.899097169296827,1.031458788619312,-0.1575348656615302,-0.7144228800657193,0.8461926276304682,-0.19236022928553845,0.7787204522094093,0.9474715279913045,0.019677357055420903,0.6341893341503945,1.1698589357648803,0.0,0.0,0.0,0.0
0.025173335303774642,0.05083655113640898,0.746669653094346,-0.012541723814829528,-0.5186552355556727,0.014717921574741964,0.854764783188312,0.05419587329075791,-0.8997549705901235,1.0354624179025476,-0.15894201310471323,-0.7111622558922593,0.8437808271239522,-0.19652297184382173,0.7837928183721756,0.9383145933393886,0.02336691888946826,0.6284981180099755,1.1905002970243206,0.0,0.0,0.0,0.0
0.025209939708320906,0.05139874939988966,0.7474719273498535,-0.012513517661409778,-0.5183386095520666,0.014626404187203835,0.8549588095481093,0.05300299916986913,-0.9002074503347106,1.0382350402122427,-0.16000647462164508,-0.7087862197953505,0.841562680848365,-0.20073426912305795,0.7875444364846743,0.9310841987544749,0.02766270911241754,0.6233750031225557,1.208073705851445,0.0,0.0,0.0,0.0
0.025069603665091825,0.051871745229882756,0.7480200638898252,-0.012391869739496526,-0.5179616527137395,0.014444844796658068,0.8551920920712558,0.052202658142025085,-0.9005273022686028,1.0395602764947935,-0.16074002948169344,-0.707428991253545,0.8392773623538862,-0.205501186957332,0.789552448068013,0.9263231225219082,0.03323058554874414,0.6194685611392571,1.2195110547288885,0.0,0.0,0.0,0.0
0.02470681693171422,0.052285524734225625,0.7482772609305215,-0.012150051411519171,-0.5174807599077847,0.01414725640373557,0.8554916098432562,0.05176605233205201,-0.9008743871292384,1.0393793732293388,-0.16118400538565453,-0.7072555152089288,0.8367520935518796,-0.21133643433507743,0.7894434480399282,0.924506928859882,0.04097634521198122,0.618469216105227,1.2200579891972607,0.0,0.0,0.0,0.0
0.024114983643287187,0.052638962422674726,0.7482473969298642,-0.011790757409239893,-0.5168972996684018,0.013733512009032665,0.8558560336196319,0.05169966599138155,-0.9012031248704551,1.0376260266579556,-0.1613274194319841,-0.708209716339079,0.8339047471462572,-0.218131973692184,0.7871813816384073,0.9256071286270755,0.05089195030577469,0.6203803910436172,1.2096960484966461,0.0,0.0,0.0,0.0
0.02332168545948545,0.05290304510808645,0.7479770734993684,-0.01134014088698522,-0.5162478362476541,0.013223938932128556,0.8562620511346967,0.052047690016222864,-0.9012763380522795,1.034227080543352,-0.16110811791607382,-0.7100524909865082,0.8307536485325072,-0.22528206340900553,0.78307201348566,0.9290687451044858,0.062101298204088,0.6235074563013294,1.1931329250622065,0.0,0.0,0.0,0.0
0.022360290736833467,0.05306328128152475,0.7475229235154183,-0.010817634769108334,-0.5155511053368355,0.012634080147948668,0.8566973891537107,0.052827091067867434,-0.9009552193709046,1.0292612116353341,-0.1604979298103049,-0.7126108567686592,0.8273947005955288,-0.2323762464396465,0.7774858560506424,0.9342218246650232,0.07398921764048629,0.6271575821115346,1.1734103389850337,0.0,0.0,0.0,0.0
0.021245350273903306,0.053122371890812946,0.7469325664315243,-0.01022903636154697,-0.5148029928068687,0.011964791463733327,0.8571639803313218,0.05403908858649655,-0.9001656068429594,1.0227956498219395,-0.15948929329630684,-0.7157808688452657,0.8238483383437958,-0.2393121998852672,0.7706870145161658,0.9405240881701199,0.08627114261201413,0.6310731261890438,1.15223601765581,0.0,0.0,0.0,0.0
0.01997246636656963,0.05309406172006368,0.7462425497892318,-0.009568954268091862,-0.5139839925196111,0.011203657276102888,0.8576732295061186,0.055683053078682626,-0.8988555935272837,1.0148338394708172,-0.1580789738778218,-0.7195035133786495,0.8200433098019831,-0.24620663234396944,0.762823299443016,0.9475784628349972,0.09894824523052542,0.6351626132939621,1.13048933859613,0.0,0.0,0.0,0.0
0.018528953123210595,0.052997738476448106,0.745480620831447,-0.008823745401599298,-0.5130657590461127,0.010328483176736462,0.8582418020853981,0.05776496598056877,-0.8969949109668869,1.0053567849274287,-0.1562608130001105,-0.7237748524364085,0.8158938449356453,-0.2533094130627094,0.7539738535909996,0.9550866968279502,0.11234656023183877,0.6394556315817891,1.108594372324829,0.0,0.0,0.0,0.0
0.016911438237025095,0.052856832395886184,0.7446695737846235,-0.007973940937429974,-0.5120157461080524,0.009311898945809891,0.8588885728319848,0.06029353666706487,-0.894621860356944,0.9944489396035389,-0.1540334411146969,-0.7286840665091621,0.8114360943862607,-0.26095728719037203,0.7442270603224047,0.9627860367418372,0.1273071884245672,0.6441719529493559,1.0867864323156669,0.0,0.0,0.0,0.0
0.01515367287319961,0.052702970996160954,0.7438317204529913,-0.006999385619819405,-0.5108040703629743,0.008132941673688505,0.8596301911643721,0.06324462886374618,-0.8919583111265468,0.9825459188014597,-0.15144032931218318,-0.7344533803738631,0.807012693305765,-0.2695314219972972,0.7337895248397619,0.9703903714675499,0.14556873732004694,0.6498740544582513,1.0653566656178886,0.0,0.0,0.0,0.0
0.01343133791077079,0.052618779181352306,0.7429885797235477,-0.005898799911473641,-0.5093891953016273,0.006815142217098176,0.8604890503115805,0.06637437766344217,-0.8901956179184728,0.9717168041722304,-0.14879603474831307,-0.741805713331447,0.8041118174990401,-0.27950951060703666,0.7232208440680968,0.9775404878098141,0.16996124056707176,0.6578425609748403,1.04475544402208,0.0,0.0,0.0,0.0
0.01190541824536414,0.05256528967899945,0.7422043223203125,-0.004692453654850232,-0.5078045245406624,0.005373355687475093,0.8614427855542031,0.06978828299130285,-0.889668849455858,0.9630947376474683,-0.1460373869932553,-0.7512541087694695,0.8042505387176273,-0.290509710329077,0.7133600752483317,0.98340256336369,0.20288749383608462,0.6690269204586896,1.025344733940605,0.0,0.0,0.0,0.0
0.010975999633187714,0.052478484373007825,0.7416260377655622,-0.0036192101544996755,-0.5062666627179864,0.004105015258234716,0.8623596212648061,0.07300783946439825,-0.8913620920595027,0.959551995961014,-0.14361630540045575,-0.7622836073771067,0.809410725735207,-0.2995222651529106,0.706005405363751,0.9864130745733352,0.24015871671640118,0.6823710627569126,1.0083405186295675,0.0,0.0,0.0,0.0
0.010988484197492342,0.052491768503270704,0.741608710279219,-0.0035925142963884964,-0.5062704663638474,0.004091568906154257,0.8623575637707649,0.07301546466933719,-0.8913331567746533,0.9595558748910179,-0.14360165679665265,-0.7623269114855912,0.8093806239122529,-0.299516292409243,0.7059771648331731,0.9863991795249313,0.2401701263239051,0.6823617411232095,1.0083353642537003,0.0,0.0,0.0,0.0
0.010988484197492342,0.052491768503270704,0.741608710279219,-0.0035925142963884964,-0.5062704663638474,0.004091568906154257,0.8623575637707649,0.07301546466933719,-0.8913331567746533,0.9595558748910179,-0.14360165679665265,-0.7623269114855912,0.8093806239122529,-0.299516292409243,0.7059771648331731,0.9863991795249313,0.2401701263239051,0.6823617411232095,1.0083353642537003,0.0,0.0,0.0,0.0
0.011339989818482941,0.05277163554615574,0.7415243545680829,-0.0034025775805683815,-0.5068174193285462,0.00403386402944233,0.8620372694216606,0.07230565100705798,-0.8904899228593465,0.9608317668259215,-0.14420480898178337,-0.760744293784918,0.8088295376274529,-0.3056721073953124,0.7092992124238153,0.9887373527775873,0.2385950594799416,0.6845347122654049,1.009257135276354,0.0,0.0,0.0,0.0
0.011685887114440453,0.052987394198190214,0.7414159039266579,-0.0032583873569839586,-0.5072728799869342,0.0039915028315729946,0.8617700830539077,0.07176231280935967,-0.8901529701532674,0.9623950551005077,-0.1446989412748058,-0.759861165543373,0.809065909847777,-0.31094061112670957,0.7121285931137702,0.9909639871895054,0.23762352362914402,0.6864027915321615,1.0103520270587576,0.0,0.0,0.0,0.0
0.011953643011826786,0.05303360149918687,0.7413262740598966,-0.0031299356363091767,-0.5076453302108153,0.0039265493086612716,0.8615515100262964,0.07173335084498625,-0.8893899670549598,0.9629445423041317,-0.14470824400417673,-0.7596011932579925,0.8099003781010831,-0.31468117954215324,0.7144301073192936,0.9925163417923631,0.23746845909648723,0.6878698916348932,1.011588554062196,0.0,0.0,0.0,0.0
0.012132803527231945,0.052854987568512764,0.7412603753866595,-0.0029849795934333424,-0.507954431176647,0.003807461631959604,0.8613703552948389,0.07242611701473727,-0.8877657852397145,0.9619582066942111,-0.14402438960472258,-0.7600930836758727,0.811513187780555,-0.3168449901335289,0.716289310814063,0.993290034509592,0.23815845370894353,0.6889065837389433,1.0131199155406088,0.0,0.0,0.0,0.0
0.012233008124021984,0.052402886963517276,0.741214101102599,-0.0027949080973590956,-0.5082155132500008,0.003607167441330458,0.8612178405745063,0.07402311749305567,-0.8850193115933513,0.9591607485386666,-0.14247434816027812,-0.7615822444836545,0.8142775154270986,-0.3174686250335561,0.7178185651874679,0.9932479461285426,0.23974747059507293,0.6895114618730074,1.0151291892564351,0.0,0.0,0.0,0.0
0.012287136016755363,0.05160068096826183,0.7411783013574926,-0.002525490457844822,-0.5084329163344563,0.003290903361466816,0.8610916103648046,0.07680087711551847,-0.8809653624567502,0.9543971844297013,-0.13981054854556918,-0.7646267075065101,0.8190380310999333,-0.31652298005420004,0.7191724208312943,0.9922843514693322,0.24241436414777867,0.6896997623526366,1.0178604245696172,0.0,0.0,0.0,0.0
0.012324865739076749,0.0503591412721515,0.7411456023950674,-0.002145530586244374,-0.5086018936707193,0.002822809350051415,0.8609945076482399,0.0810703495428232,-0.8753974231000204,0.9474464364528807,-0.13574623512407116,-0.7698270319192748,0.8266748247126875,-0.31384808007931364,0.7204703267912698,0.9902189430609755,0.2464170390826978,0.6894696576717343,1.02154427930246,0.0,0.0,0.0,0.0
0.01235381083829339,0.048600350010438775,0.741116354776165,-0.0016383137960914197,-0.5087088847100567,0.0021829269463407882,0.8609342723895377,0.08706903759152154,-0.8680811813060277,0.9379606114128929,-0.13004024640819895,-0.7775502720964405,0.8376847208475174,-0.3090759641803025,0.7217189314209065,0.9868018848184317,0.2520808328843097,0.6888064908681907,1.026303705007593,0.0,0.0,0.0,0.0
0.0123671896211106,0.04626370152569809,0.741096410326588,-0.0010019434754270384,-0.5087325699674446,0.0013644707444048843,0.8609229388180911,0.09495372443635762,-0.8587929052641641,0.9255375703151983,-0.12250433207724974,-0.7879486394806989,0.8522160815976998,-0.30172877367730233,0.7228502742801077,0.981738427044235,0.25974780322496416,0.6876920523372061,1.0321478950216478,0.0,0.0,0.0,0.0
0.012375672629827722,0.04333781080383695,0.7410895788722685,-0.00024777244837894286,-0.508652362313669,0.00037642791531606267,0.8609718759771207,0.10471551343760717,-0.8475342944353748,0.9101129955705751,-0.11309795945245041,-0.8009976758061521,0.8701984611940182,-0.29158667939610483,0.7238636685393212,0.9748181190599314,0.2696182535747467,0.6861913557057189,1.0389461207768758,0.0,0.0,0.0,0.0
0.01243815662488138,0.03996295708617696,0.7410710358462479,0.0005955155185009346,-0.5084698556217616,-0.000769632397418279,0.8610792408084316,0.1159690621401364,-0.8349511939759606,0.8926724785765169,-0.102155034172043,-0.816340981170827,0.8911193433316364,-0.27971432197826496,0.7249837546884569,0.9664617304511219,0.2810277007590805,0.6844139282232391,1.0464299254372837,0.0,0.0,0.0,0.0
0.01254181664376766,0.037021452486011984,0.7410294435532822,0.0013589280100171268,-0.5082954146488716,-0.001745382995288718,0.8611799338116252,0.12563034872982978,-0.8238913558713583,0.877249723668727,-0.09260551541486496,-0.829595709179396,0.909054988069148,-0.26962565192654264,0.7261170978353692,0.959084274234848,0.29110743649265564,0.6830138178170392,1.0529100220475125,0.0,0.0,0.0,0.0
0.012627370352165773,0.03465921672585988,0.7409831925956076,0.0019958242340150922,-0.5081771793973209,-0.002542449085754159,0.8612464844503323,0.13335177422388753,-0.8145402215366851,0.8641957425327742,-0.08483947941795461,-0.8399035611828914,0.9228747889348077,-0.2619709871189107,0.7272229214587685,0.9531823999664144,0.2990907752809668,0.6819414328868587,1.058132795869828,0.0,0.0,0.0,0.0
0.01269291470888501,0.032858507005151076,0.7409356694478278,0.0025037850377949756,-0.5081150102548664,-0.0031655574074003746,0.8612797725829174,0.1392247354603671,-0.8070263055979108,0.8537295203302203,-0.07884875232031334,-0.8475348187857689,0.9330460364268454,-0.256540660932073,0.7282284692934959,0.9487894274819987,0.30505833575685776,0.6811611800856063,1.0622010683902428,0.0,0.0,0.0,0.0
0.012753985427719727,0.03154268426693125,0.7408884402985226,0.00289889265599989,-0.5081004093445055,-0.003636799617311558,0.8612852861473128,0.14352029479869868,-0.8012841759951392,0.8458168051730715,-0.07442328242986618,-0.8530243910149826,0.9403793587760533,-0.25298524861581245,0.7291494181057815,0.9457268760573908,0.30931572586530326,0.6806635891195081,1.0652942026945234,0.0,0.0,0.0,0.0
0.012818426880050611,0.030612778832021736,0.7408447664012401,0.0032022685618805355,-0.5081227780368641,-0.003988517764123446,0.8612694582081746,0.1465776790326255,-0.7970454941272618,0.8401105667113079,-0.07125213945928377,-0.8568898186649758,0.9456067219276336,-0.2509071502786187,0.7300204495025973,0.9437112124747781,0.312214509079356,0.6804130151250762,1.067596275220939,0.0,0.0,0.0,0.0
0.012874504080797098,0.029957656903193713,0.7408103617651597,0.0034331456488113357,-0.5081674956314085,-0.004251747818740059,0.861240925952281,0.14875120972222353,-0.7938752398918764,0.8359501168388022,-0.06898216106192659,-0.8595542437750212,0.9492684313333453,-0.2497679970869528,0.7308118732926084,0.942386953861567,0.31416885511401677,0.6803220117505613,1.0692884406370868,0.0,0.0,0.0,0.0
0.012919179465806051,0.02949139129026514,0.7407879043207795,0.003609460258313612,-0.5082239303070989,-0.004451289092248507,0.8612058955239833,0.1503132975816517,-0.7914411362141283,0.8328416221066534,-0.06733775063866283,-0.8613657441765764,0.9518169811169286,-0.24919809265957624,0.7315282409747224,0.9414830454932299,0.3154910214579011,0.6803379354474753,1.0705147058914266,0.0,0.0,0.0,0.0
0.012959261575954647,0.029156797866747974,0.7407769397788619,0.003747498499145194,-0.5082883580529518,-0.004606655014514181,0.8611664647746162,0.15145101298331012,-0.7895325815080839,0.8305033177761579,-0.06612989041668789,-0.8625921958607055,0.9536211683879504,-0.24902952289791672,0.7322184752757774,0.9408386643578127,0.3163725553330884,0.68045090857432,1.0713859934456031,0.0,0.0,0.0,0.0
0.013003677396390816,0.02891491147390046,0.7407759942101128,0.003861565011451536,-0.50836242574652,-0.004734442841524181,0.8611215462730895,0.1522980492107724,-0.7879916628231061,0.8287481714648492,-0.06522242623508563,-0.8634250325482845,0.9549565745133777,-0.2492132430133328,0.7329517422159828,0.9403620842577267,0.3169248293505523,0.6806705039107217,1.0719906323333157,0.0,0.0,0.0,0.0
0.013064006148113526,0.02874069988241434,0.7407829660806918,0.003965050302650194,-0.5084528671118126,-0.004849980855350743,0.8610670345493303,0.1529496747352663,-0.7866986839863566,0.8274666338352146,-0.06451785656635152,-0.8640004325245804,0.9560365926026431,-0.24980733560733512,0.7338231727740526,0.9400155094050424,0.3171914105577632,0.6810257615731704,1.0723996259313162,0.0,0.0,0.0,0.0
0.013160638956875678,0.028623573054024347,0.7407953740639462,0.0040727889627991815,-0.5085745420596807,-0.004970254869180695,0.8609939861145292,0.15346862206706224,-0.7855773514116144,0.8266659094948452,-0.06395291447936527,-0.8644185148421839,0.9570587437124429,-0.2510390591972109,0.7349974473263834,0.939816845787756,0.3171292061057496,0.6815897136469802,1.072662907166709,0.0,0.0,0.0,0.0
0.01334849371667182,0.02858053005027126,0.7408176542193468,0.004206034033790516,-0.5087590893196108,-0.0051193535562748535,0.8608834360885059,0.1538671319135694,-0.784679054703587,0.8267238634550329,-0.06352356639973769,-0.864774151544156,0.9583442249972257,-0.2535450018510639,0.7368903850529086,0.93980151202973,0.3165059786868738,0.6826055448737185,1.0727064836554956,0.0,0.0,0.0,0.0
0.013773239396829675,0.02867594312516541,0.7409219332621635,0.00439867198702693,-0.5090658885866312,-0.005337784092311441,0.8606997622999777,0.1540794592093824,-0.7842566131551296,0.8288884630082365,-0.0633194599339627,-0.8651349296913465,0.9606431358882771,-0.25873514607103454,0.740741940776372,0.9394482597701578,0.31470295708223145,0.6849311965994009,1.071711822600172,0.0,0.0,0.0,0.0
0.014857576063082871,0.028847808045179214,0.7415945891411275,0.004791542457974243,-0.5096598773207647,-0.005783125805840327,0.8603431908408239,0.15454866561084227,-0.7831874942317337,0.8348976197664906,-0.0628657435551315,-0.8656316710616917,0.9668923291919106,-0.26924691636123255,0.7515014673031815,0.9337901966624272,0.31088846136503223,0.6922206705894558,1.065351400752118,0.0,0.0,0.0,0.0
0.016017041737826573,0.029372806710514583,0.7431037415097912,0.006019711458692427,-0.5108278163790565,-0.007077120817697314,0.8596328399079985,0.15541404279396903,-0.774291366453402,0.8358932603341738,-0.06147934194417273,-0.8623978249566678,0.9703653312782677,-0.2165504877601124,0.7203497333581216,0.9725889694663664,0.29251150183936725,0.701720862502406,1.051347270080958,0.0,0.0,0.0,0.0
0.017497992908946727,0.030044378309002556,0.7446975385234504,0.0072412955076449105,-0.5121595009615021,-0.008368781141666072,0.8588190570291503,0.15587349467401335,-0.7662231588104881,0.8396328434801816,-0.06055542360681502,-0.8589632222142803,0.9750309508413865,-0.17285641381093703,0.6979011557955425,1.0033026719962153,0.2733954776067955,0.7130924855348179,1.0358307412231857,0.0,0.0,0.0,0.0
0.019040882655860607,0.030645740685638637,0.7460969551568977,0.008260460153434273,-0.513367319498308,-0.009436306642528026,0.8580773369493707,0.156123914720052,-0.7602844649085169,0.8451514403542345,-0.059999844341216406,-0.8565136171455106,0.9807623603064748,-0.14292287454009475,0.6830950190489032,1.0292435497057175,0.257220502824478,0.7241983124723445,1.021562083729519,0.0,0.0,0.0,0.0
0.020479111448883938,0.031127823242602368,0.7473036511468149,0.009089760522151588,-0.5144061195034298,-0.010296972499000061,0.8574366990212325,0.1563140006753603,-0.755700853312931,0.8508066475567057,-0.05960301775074216,-0.8547367565148634,0.98656601010527,-0.12198065181405904,0.6729135699361997,1.0527282457777514,0.24401247398226758,0.7343351393327326,1.008896552069678,0.0,0.0,0.0,0.0
0.02177152716107395,0.03149657143254396,0.7483740668788654,0.009780261789687033,-0.5152863518743748,-0.011005357932872759,0.8568915941635163,0.15651988488586183,-0.7518780961112205,0.8559594882794306,-0.059243400742888884,-0.8533890427262373,0.9920898299779479,-0.10582228532066305,0.6652785057054125,1.0749665871241867,0.23309584875069608,0.7434690212739489,0.9974952653249823,0.0,0.0,0.0,0.0
0.02292074175097504,0.03178636469206822,0.749356130218451,0.01037280021383309,-0.5160358900381219,-0.011606231746249269,0.8564255137447386,0.15672977582884384,-0.7484901421242783,0.8604793519601603,-0.058905490183736614,-0.8522417993106249,0.9971422433057016,-0.09193837616241923,0.6589548294702342,1.0965877901050747,0.2237329216765747,0.7517349310377627,0.9869509102490995,0.0,0.0,0.0,0.0
0.02394447985732904,0.03203812085266866,0.7502732788381039,0.010894014572815849,-0.51668448180066,-0.012130187966367077,0.8560206336606445,0.15689521995009706,-0.745418881108195,0.8644761811876784,-0.05862605246600877,-0.8511358143405852,1.0016214913903807,-0.07905908703424126,0.653280810420071,1.117871594939698,0.21531555972014563,0.759255838395674,0.977011457042055,0.0,0.0,0.0,0.0
0.024860688078224818,0.03229214691170664,0.751124258308466,0.011358939649121462,-0.5172594357544642,-0.012596185473178801,0.855660555783978,0.1569533063945569,-0.7426773681555972,0.8681422468619387,-0.05846605270147521,-0.8499695472143773,1.005446981187609,-0.06663423651356742,0.6479419429801543,1.1388306361828673,0.2073867026672148,0.766075754152726,0.9676344988106045,0.0,0.0,0.0,0.0
0.025679341850353973,0.03258565428406278,0.7518848565830581,0.011773755977185532,-0.5177840463932123,-0.01301412192918939,0.8553313349815226,0.15683649546001852,-0.7403598095058881,0.8716647941428426,-0.05849643002644173,-0.8486838568263811,1.0085142255529291,-0.054509211449345965,0.6428312574905042,1.1591684582134911,0.19962836019818475,0.7721259589430267,0.9590040649251776,0.0,0.0,0.0,0.0
0.02639657783849488,0.03295004423255305,0.75250738694152,0.012137581354071227,-0.5182762065713724,-0.013386317374873917,0.8550223735832885,0.15648133630098682,-0.7386114231121954,0.8751643668716784,-0.05878645388052568,-0.8472598816554715,1.0106701347565583,-0.04278314994223543,0.6379965725011396,1.1781079397123266,0.19186510807003082,0.7771924948057964,0.9515625786595953,0.0,0.0,0.0,0.0
0.02699053586366598,0.033405924023631774,0.7529191580891107,0.012443532306940293,-0.5187461313108125,-0.013707962061350722,0.8547278523190385,0.15584129228513408,-0.7376098515365801,0.8786456141994102,-0.05938915007218159,-0.8457341083703926,1.0117144739668826,-0.03179680742718483,0.6337090780452236,1.1940607002256876,0.1840979455969651,0.7808886277275383,0.9460509798361778,0.0,0.0,0.0,0.0
0.027423796382928807,0.033956887485534985,0.7530279710074935,0.012679954253321732,-0.5191932980115223,-0.0139673029197034,0.8544486248506703,0.15490190794844397,-0.7375537175646606,0.8819941051280821,-0.06032600009204636,-0.8442231160618792,1.0114522608415282,-0.02218334621954939,0.6307482019830281,1.2041130584885709,0.17654781545057838,0.7826861977240742,0.9434647986972163,0.0,0.0,0.0,0.0
0.027665802192426113,0.03459071507382183,0.7527548832304779,0.012835151950381075,-0.519608053808065,-0.014150699745527979,0.8541911302448167,0.1536842467534356,-0.7386326895666256,0.8851063892579004,-0.0615844996378351,-0.8429083341050436,1.0098246138566127,-0.014801070986425982,0.6309296422431256,1.2036181958669956,0.16957000565002728,0.7821411167547929,0.9446806533415845,0.0,0.0,0.0,0.0
0.02771605782094565,0.035319998803374046,0.7520845927940673,0.01290960565178409,-0.5199996586443495,-0.014257582818073104,0.8539498922207679,0.15215613752156099,-0.7408842233711627,0.8880146893208313,-0.06319565717893906,-0.8417485943186954,1.0067441830599977,-0.009639999240930262,0.6342900818954447,1.1926297221210431,0.1631064859974121,0.779209401785321,0.9498253968964687,0.0,0.0,0.0,0.0
0.027604374394322163,0.036184136097198144,0.7510631228669261,0.012916426674392325,-0.5203950955155274,-0.014302395294432479,0.8537081187233678,0.1502324101028093,-0.7442045558823233,0.8908970097299497,-0.06523465972701678,-0.8404921602323582,1.0020968434165716,-0.005824133582694364,0.639078203272024,1.1758613660444188,0.15662828528144607,0.7742222974980457,0.9582715817469643,0.0,0.0,0.0,0.0
0.027366437426488567,0.0372098651164034,0.7497483467886902,0.012869909118828573,-0.5208099524046375,-0.01430078114048542,0.853455825789668,0.1478623332789598,-0.7484857587796141,0.8939426151191141,-0.06774411549241655,-0.8389594763730744,0.9958934436319945,-0.0027067006421335905,0.6445486038456377,1.1562365688935106,0.14964809190972275,0.7675600144893975,0.969249361884653,0.0,0.0,0.0,0.0
0.027021570313855305,0.03840927834973053,0.7481785931255341,0.012783385680558201,-0.5212483636412564,-0.014266366014309462,0.8531900135682557,0.14503023536214432,-0.7536262541377018,0.8972070027847328,-0.07073094640000026,-0.8370547358249157,0.9881401703265069,0.0001055746039367051,0.6504573265955169,1.135270201078753,0.14180033420027277,0.7594320287140572,0.9822242021488191,0.0,0.0,0.0,0.0
0.026573303765550643,0.03978224504741899,0.7463678410668464,0.012672304842279988,-0.5217079226000009,-0.014213869542061903,0.8529116144707006,0.141755499294528,-0.7595193082191344,0.9006033614902088,-0.07416583043011148,-0.8347621755117676,0.9788260121731274,0.002905603925355204,0.6568175922617594,1.1135525316555028,0.13279480950953654,0.749858451531512,0.9969454292683044,0.0,0.0,0.0,0.0
0.026020223527935045,0.0413111859188697,0.7443101995773447,0.01255955126202034,-0.5221837069921709,-0.01416322764141956,0.8526229159521744,0.13811345528311975,-0.7660312272081962,0.90393197238859,-0.07796428848497748,-0.8321847872321292,0.968023449885997,0.006066601242024141,0.6638750562768322,1.0910460961500659,0.12240904405801618,0.7387358696146302,1.0133939024644398,0.0,0.0,0.0,0.0
0.02537356886820323,0.042941385694168534,0.741988438752008,0.012483093812929143,-0.5226740125685106,-0.014144364122198615,0.852323873840202,0.13429304746050869,-0.772938876678885,0.9068826876954779,-0.08193221613447405,-0.8296388712909929,0.9561083597015022,0.010239702239039167,0.6721908696204189,1.0672441790169203,0.1105869418100744,0.7259643355269597,1.0317235183579507,0.0,0.0,0.0,0.0
0.024745721241459004,0.04450209464717057,0.7393852010877013,0.012524823756657222,-0.5231688413119715,-0.014220031272906771,0.8520183583589918,0.13085928808019895,-0.7800310859754466,0.9094436368023339,-0.08554411042914578,-0.8284056029617922,0.9450488891256966,0.016768317234822014,0.6829307511891753,1.041125440569214,0.0977565376943886,0.7117611687741217,1.0522031403597651,0.0,0.0,0.0,0.0
0.024155761535107664,0.04588398521159407,0.736557377624163,0.012755980680199692,-0.5236461880117868,-0.014485736877521634,0.8517171585477928,0.12828990545318136,-0.7866650863223854,0.9110015390761369,-0.08831921496055131,-0.8291040303006716,0.935772385220812,0.027020244043434217,0.6970705219761638,1.0106349887644581,0.0834183642342583,0.6961146174218636,1.0743534332949518,0.0,0.0,0.0,0.0
0.023629669131735503,0.04697940241961483,0.7337247478766612,0.013254488154064492,-0.5240610134473264,-0.015009186990103876,0.8514452989089969,0.12696338033724425,-0.7919233234958227,0.9109902834485171,-0.08985671702253074,-0.8319884521062315,0.9291763284447827,0.043764109824909636,0.7155363144102763,0.9720225930758708,0.06718418112198254,0.6796919597966488,1.096296733612959,0.0,0.0,0.0,0.0
0.0232910220155117,0.047645836618783084,0.7315264021698706,0.014048521778975158,-0.5243630512646016,-0.01583049023660359,0.8512317105719048,0.12723921974498234,-0.7941658935339242,0.9092833330669466,-0.08971985996001158,-0.8364789526114086,0.9266053752452369,0.06520607554824098,0.7390421294594017,0.9220487030069734,0.049499687712240566,0.6653774926801932,1.112764269697308,0.0,0.0,0.0,0.0
0.023311892380111793,0.04764674358317979,0.7314766185693338,0.014055116921697093,-0.5243867642481854,-0.015829642003158558,0.8512170097006329,0.1272420108680786,-0.7942095456306542,0.9092884536322108,-0.08971943278195192,-0.8364876430897656,0.9265531502090985,0.06521235787003646,0.7390301945755736,0.9220318181866929,0.04946969414448767,0.6653841040568624,1.11278298155803,0.0,0.0,0.0,0.0
0.023311892380111793,0.04764674358317979,0.7314766185693338,0.014055116921697093,-0.5243867642481854,-0.015829642003158558,0.8512170097006329,0.1272420108680786,-0.7942095456306542,0.9092884536322108,-0.08971943278195192,-0.8364876430897656,0.9265531502090985,0.06521235787003646,0.7390301945755736,0.9220318181866929,0.04946969414448767,0.6653841040568624,1.11278298155803,0.0,0.0,0.0,0.0
0.023508573943038995,0.047179698533079545,0.7312653555622342,0.013798969665704755,-0.5243071737326412,-0.015506260133200915,0.8512761783964922,0.12786628707267733,-0.7958886322723331,0.9105053170304065,-0.08929940497464008,-0.8387756174257529,0.9302861480655348,0.0729681117533017,0.7367903505220902,0.9211648544789083,0.05833228462689386,0.6672665488055259,1.1155713787028212,0.0,0.0,0.0,0.0
0.023681720358325224,0.0467367363522642,0.7310323704592291,0.013651009760438428,-0.5242600377315636,-0.015263812634411822,0.8513119750092099,0.12855466386349917,-0.7970605884849349,0.9111610277884475,-0.08878149471612565,-0.8411224793255658,0.9338619532313829,0.07915692516619893,0.7348942183099996,0.9208023287892965,0.06567790536083702,0.668609462068572,1.118548191848813,0.0,0.0,0.0,0.0
0.02375986364022154,0.0464573974660482,0.7308391633902456,0.01353712702860982,-0.5242103050815972,-0.015067819703491326,0.8513479095219845,0.12889882434547809,-0.7980314009318471,0.9115503104690769,-0.08855540180692217,-0.8426008230912946,0.935905134112242,0.08346788495092054,0.7331633833432524,0.9209558882743244,0.07093693075075115,0.6693133447885886,1.120858644655748,0.0,0.0,0.0,0.0
0.023696086722147864,0.046377651075040535,0.7307147495970252,0.013411124952389114,-0.5241217091897841,-0.014873733095356695,0.8514078621596696,0.12871575303847882,-0.7989817035297999,0.9117193903905497,-0.08880071286754822,-0.8428432558868029,0.9358480244974081,0.08622266393703495,0.7313161764603928,0.9214583723387513,0.07435079527826836,0.6693566663325977,1.1222013508006323,0.0,0.0,0.0,0.0
0.02345136472246205,0.046508641217011995,0.7306731745529285,0.013244006525542399,-0.5239639892106346,-0.014649384636974655,0.8515114384618608,0.12790864826917922,-0.8000058596587106,0.9116028018630978,-0.08961106603961914,-0.8416504180340906,0.9333324196870687,0.08771343695184876,0.7290958565835871,0.9221872695651074,0.0762066148531721,0.6686841750845446,1.1224579492440518,0.0,0.0,0.0,0.0
0.02298549818638454,0.046869412262790316,0.7307226364828933,0.01301425456393128,-0.5237104736022941,-0.014372848347033115,0.8516756367583842,0.12638287838875592,-0.8011757202303067,0.9111138314655689,-0.09107420735291483,-0.8388134602195281,0.927945834298918,0.08805535394254967,0.7262685741080322,0.9231214766735223,0.07662214744892441,0.6671828186519394,1.1215300170101334,0.0,0.0,0.0,0.0
0.022253259658576236,0.04749946054957381,0.7308675185472473,0.012703316411840774,-0.5233361963460468,-0.014030341737385781,0.8519160761817591,0.12401139670139119,-0.8025754871290665,0.9101834092537262,-0.09330525128505966,-0.8340457446479291,0.9191127065269805,0.0871503872694669,0.7226066369390749,0.9243711580261778,0.07547998148078001,0.6646704005373965,1.1192860756567073,0.0,0.0,0.0,0.0
0.02120625793625146,0.048459778396253914,0.7311028219596196,0.012295201413204386,-0.5228191342512118,-0.013615468799276718,0.8522462084939997,0.12063178251967295,-0.8043215721169426,0.9087775887473398,-0.09644982337213291,-0.8269837353036508,0.9060818720370474,0.08470868384876543,0.7178643514916517,0.9262258874416368,0.07245517311227169,0.6608995045826352,1.1155969432661121,0.0,0.0,0.0,0.0
0.0198038656213162,0.04981928863404359,0.7314006670618587,0.011780199973373637,-0.5221467550831614,-0.013128808309255877,0.8526732242993743,0.11608005970294066,-0.8065648599024807,0.9069008128552342,-0.10065272557728142,-0.8172675090781097,0.8880415519030462,0.08036128703624425,0.7117552957422535,0.9292098027670606,0.0671736504796353,0.6555998695281832,1.1104717816342626,0.0,0.0,0.0,0.0
0.01804216746416009,0.051609052397655945,0.7316950448339916,0.011164331551462885,-0.5213294263319823,-0.012575397828403724,0.8531898067316748,0.1102976292868788,-0.8094430062188415,0.9045774730916721,-0.10595941319213006,-0.8047744963378899,0.8645299270036376,0.07398088121764292,0.7039872613164906,0.9340051367267007,0.05961980824722679,0.6486260114557322,1.1042951994988384,0.0,0.0,0.0,0.0
0.01602626009454173,0.05370033005668749,0.731903322236269,0.01049018428174309,-0.5204192230129098,-0.011960668051970052,0.8537626899625709,0.10361705956055775,-0.8128670306132023,0.901820023248713,-0.11205412174010494,-0.7902096321770534,0.8366518928503992,0.06642103289497744,0.6946320107146073,0.9406886478705145,0.050969551386215665,0.6404297898605954,1.0979590209536683,0.0,0.0,0.0,0.0
0.014276107755825745,0.05546545867042972,0.7321756925653485,0.009928576842053642,-0.519540137642028,-0.011440764798932189,0.8543117567033767,0.0979684040419247,-0.8156673229067657,0.8992286361769467,-0.11715049671406197,-0.7774166695607042,0.8120533226766186,0.0601637155792934,0.6868536450582248,0.944958789881462,0.04413504493149867,0.6338180901392558,1.09137823554972,0.0,0.0,0.0,0.0
0.012925643942246158,0.05685855953477413,0.7324350622588416,0.009495014500562466,-0.5187974330066563,-0.01101561702813453,0.8547734930300703,0.09347202078149505,-0.8180791267640313,0.8975316935105825,-0.12120042903707637,-0.7672153063885927,0.7924379267270106,0.05542513585495744,0.680908711796511,0.947566665199983,0.03911794864209036,0.6290366170511911,1.0854999602273243,0.0,0.0,0.0,0.0
0.011941565613980382,0.057900843759163774,0.7326290828900263,0.009176239882070175,-0.5182160449690509,-0.010674640330791354,0.8551338956046998,0.0900507509109175,-0.8201416484667089,0.896594398617895,-0.12429194269468762,-0.7596182721787014,0.7777592243317281,0.052090080724560395,0.6764381482718224,0.9493085234259903,0.03565763447102801,0.6256621361082082,1.0809366315244908,0.0,0.0,0.0,0.0
0.011254654742742004,0.0586433142665285,0.7327487023099946,0.008950167297575291,-0.5177847896828754,-0.010401442213614812,0.8554008511091642,0.08753772045310727,-0.8218667858719867,0.8961797332688867,-0.1265790382399057,-0.7542776739778965,0.7673439670759227,0.049946002284505756,0.6730923665954003,0.9505911099618383,0.03346668075568426,0.6233138759096318,1.0777741511289325,0.0,0.0,0.0,0.0
0.010797410087398788,0.05913511007799274,0.7328036742267795,0.008796660498872875,-0.5174805137776126,-0.010180630401615667,0.8555892071485891,0.08577284513823619,-0.8232495243221158,0.8960565854052676,-0.12820247723765005,-0.750780106311598,0.7604150774531988,0.048812643248362556,0.6706018444641292,0.9515650418927658,0.03233471698806911,0.6217262226436706,1.0758695423060156,0.0,0.0,0.0,0.0
0.010524958803269004,0.059438912364487305,0.7328083072041086,0.008696578600888401,-0.5172801276615238,-0.009998783630056216,0.8557135404871397,0.08456971467042496,-0.824404031955578,0.8962429268075718,-0.12933288360521958,-0.7487240719544473,0.7562534945558956,0.04843560883557699,0.6687980608992753,0.9523427658232204,0.03198539224617974,0.6207452651719082,1.0749460500415575,0.0,0.0,0.0,0.0
0.010365017840754777,0.05962492580737412,0.7327897870492064,0.008627928395657666,-0.5171530286382183,-0.00984179559383794,0.8557928738201824,0.0837174922242791,-0.8253326056935296,0.8965441439935647,-0.13014907517656515,-0.7474896908071631,0.753751761550424,0.04853511696467671,0.6674739899877221,0.9529467621691665,0.03212669216919647,0.6201874913237266,1.0745915833017203,0.0,0.0,0.0,0.0
0.01026203675088749,0.0597450459078229,0.7327702009692979,0.008573140603600921,-0.5170709058112054,-0.009695849350234563,0.8558447114571357,0.08305254308563902,-0.826058817285169,0.8968270767663076,-0.1307910435032224,-0.7466108962139627,0.7520653444792866,0.04893563537259135,0.6664571706365997,0.953355752525624,0.03258011825801807,0.6199220471016806,1.0744721078696962,0.0,0.0,0.0,0.0
0.010186832027383613,0.05982404807457442,0.7327644208922232,0.008520923054242503,-0.5170139468126503,-0.00954781694765654,0.8558813071115899,0.0824810840219104,-0.8266198622108875,0.8970435897042754,-0.13134127262548487,-0.7458503085020912,0.7507679546072253,0.04960827257125245,0.6656442989229341,0.9534986457291464,0.0333225880514973,0.6199035927457063,1.0743851189369757,0.0,0.0,0.0,0.0
0.010096222578516681,0.05991056936022114,0.7327919994318985,0.008454291387261746,-0.5169608781440062,-0.009383926873260479,0.8559158354313551,0.0818479146471094,-0.8270576131234376,0.8971293349427729,-0.13193427512949255,-0.7447895904951677,0.7491314658137155,0.05039901063069827,0.664905324473766,0.9533663563343774,0.03419360564161895,0.6200478539207355,1.0740302143810505,0.0,0.0,0.0,0.0
0.009912208596797497,0.06010703924559428,0.7328700193274522,0.00834510255164602,-0.5168847731947108,-0.009191248406449696,0.8559649592451701,0.08086687232610063,-0.8274525163591888,0.8969724469965248,-0.13281692092835345,-0.7426410576240838,0.7457416598221717,0.05085416555598812,0.6639766126591682,0.9532105931003826,0.03470361028812469,0.620103760912742,1.0729923133966202,0.0,0.0,0.0,0.0
0.009477706680958492,0.06063748451536062,0.7329495471625072,0.00814168547022437,-0.5167543092813056,-0.00895520755194741,0.8560481885119587,0.07895258338374306,-0.8281058339538493,0.8963742065077346,-0.13450292366705868,-0.737901131462614,0.7376416925067598,0.04988453156260148,0.6619987744041456,0.9544474819366688,0.033661316292002835,0.6192129286945004,1.0711339141849812,0.0,0.0,0.0,0.0
0.008592648877187388,0.061816463962000454,0.7330741607289333,0.0077636672591106185,-0.5165193161590335,-0.00863155672702733,0.8561968335223872,0.07521045699818145,-0.8292758728256311,0.8951678982609377,-0.13776283498304617,-0.7281051992883701,0.7205509868758833,0.046141044909620545,0.6583105953381596,0.9579299037616608,0.029613226933534582,0.6168139677156379,1.0672620273977935,0.0,0.0,0.0,0.0
0.006991555495441758,0.06400786049874276,0.7336067641751735,0.007066247246029491,-0.5164825895552544,-0.008085882316651305,0.8562303553035935,0.06828846926169846,-0.8282246004401722,0.8905456201547419,-0.14350474488983464,-0.7063420906850194,0.6853753660277107,0.03900284081185708,0.6542192677390707,0.9623293826249554,0.021943987937892512,0.6149613871829996,1.058028514500116,0.0,0.0,0.0,0.0
0.005524301371621507,0.06571868329346996,0.7341855487965804,0.006010382887774448,-0.5174461211364919,-0.0074374992663071545,0.8556623578392384,0.062413712197057374,-0.8210705341153195,0.8799064989368732,-0.131398699831145,-0.7474619604088795,0.7472988328569367,0.03823994901783137,0.6523811316222624,0.9660042028319193,0.021028441258698564,0.6178817031861773,1.051664489336187,0.0,0.0,0.0,0.0
0.0038458198926649687,0.06779642225244155,0.7348096850727622,0.004899593341970372,-0.5183148199595364,-0.006658696833907442,0.855149930218012,0.055346954128825246,-0.8142917792714404,0.8690453595752187,-0.12073328009040506,-0.7822944914718982,0.7813506530513475,0.036115462627849204,0.6496522958271507,0.9704524252431697,0.01869425187095432,0.6203061971013679,1.0438196162013993,0.0,0.0,0.0,0.0
0.0020956585664970327,0.07012769908743717,0.735310196271293,0.0037965704407749434,-0.5190224374236199,-0.0058709370065803505,0.8547320209295997,0.047718429130322114,-0.8088158466514601,0.8591262722834803,-0.11355711104254915,-0.8110082771377479,0.7972925908407729,0.032310634397192804,0.6458205474506387,0.9766056188610991,0.014666165185642493,0.6214690323629419,1.0358652013474814,0.0,0.0,0.0,0.0
0.0004355470769045193,0.07242990265021343,0.7358104099206915,0.002759449263448765,-0.5195903018627019,-0.005121606510897215,0.8543957354743387,0.04031859659778044,-0.8040526643267935,0.8501827045846334,-0.10923469145356218,-0.8349207327908352,0.8033634552793235,0.028040465079893283,0.6421726434506826,0.9821639374114011,0.010268943469695573,0.6224965362167106,1.0274224547414224,0.0,0.0,0.0,0.0
-0.0010456662918512968,0.07456804621972755,0.7362852577691589,0.0018199120569897152,-0.5200590841778666,-0.004423465482878015,0.8541168947148308,0.033487347551124896,-0.799956508126629,0.8424045024284397,-0.10662331742176734,-0.8553951510899958,0.8039774407475514,0.023954491114324565,0.6389626850221074,0.9869117954628984,0.006157448445552305,0.6236415646939755,1.0191471414857427,0.0,0.0,0.0,0.0
-0.0022948669991935677,0.07648278359100133,0.7367002597921274,0.0009959978495912858,-0.5204647717411642,-0.0037892202244969838,0.853874154178935,0.027379228957815117,-0.7965973444369779,0.8360296684643215,-0.10480494444010645,-0.8736074816628588,0.8014156445566997,0.020269371462974306,0.6362791643988861,0.9910456070414068,0.002511371444534237,0.6249250024738632,1.0116030842020365,0.0,0.0,0.0,0.0
-0.003316476337094189,0.07815068319535899,0.7370460758824451,0.00028917899752024925,-0.5208281337948536,-0.003215146113897069,0.8536554540672389,0.02202225383422723,-0.7938900471929018,0.8309395581415722,-0.10309816651720273,-0.8905444540071727,0.7969364641398499,0.017142436291289778,0.6340825468712893,0.9946582586285396,-0.000543509296983222,0.6263072264562722,1.005060782670404,0.0,0.0,0.0,0.0
-0.004138758618624642,0.07957179711507581,0.7373289297797079,-0.000306591071589757,-0.5211544551447661,-0.002695203207373939,0.8534580691307263,0.017388344207597654,-0.791718046731677,0.8269120392207483,-0.10110899656167384,-0.9068019511918843,0.7912427683650378,0.014633314884009424,0.6322972217990649,0.9977582059353263,-0.002970935017051108,0.6277265701812279,0.9995549471406472,0.0,0.0,0.0,0.0
-0.004796978511110309,0.08076029628582115,0.7375591355434375,-0.0008002368512666289,-0.5214398844834073,-0.0022231413305465186,0.8532847497368842,0.013420027668608465,-0.789987772849615,0.8237287691692389,-0.098615956349772,-0.9224472154733153,0.784836688121503,0.012732870940360958,0.6308273170974094,1.0003409384540547,-0.004794160274218707,0.629111558649879,0.9950070606345913,0.0,0.0,0.0,0.0
-0.005327198658625591,0.08174039061110384,0.7377441869345117,-0.0012015079047276009,-0.5216757963027928,-0.0017940717141079552,0.8531410793282003,0.010042488760353704,-0.7886465226577359,0.8212105994919571,-0.09547064655138153,-0.9368826508412292,0.7783139446829815,0.011368280172670438,0.6295567624123801,1.0024448529137995,-0.006091861487743291,0.6303706225757597,0.9913049801946402,0.0,0.0,0.0,0.0
-0.00576214445449992,0.0825494980186985,0.7378855625074083,-0.0015210724525895915,-0.5218547289410237,-0.0014058424541182383,0.8530318586239782,0.007158197830784595,-0.7876897809790439,0.819249200904675,-0.09157851773629105,-0.9487440272607681,0.7726490070536303,0.010373070281689475,0.6283650822303344,1.0042037043109586,-0.007029802203703864,0.631395718875998,0.9883326682295679,0.0,0.0,0.0,0.0
-0.006123286894651223,0.08324415187480064,0.7379795759081361,-0.001771366024763693,-0.5219780737825688,-0.0010602194632702978,0.8529564049160632,0.004635056751015822,-0.787173383714082,0.817873423687575,-0.08696545041026317,-0.9560219069788651,0.7693848028119922,0.009445643028754207,0.6271778378142658,1.005872023927342,-0.007904523931713045,0.6321019309244664,0.9859545642803589,0.0,0.0,0.0,0.0
-0.006431855655763785,0.08387829381106333,0.7380293624929091,-0.0019671912603807106,-0.5220644863769596,-0.0007601691695965309,0.8529034085788028,0.002353340501440325,-0.7870129667150126,0.8169794846530983,-0.08175580455058856,-0.9569428091889944,0.7705750191986956,0.008309116508949561,0.6259997503887634,1.0076656396196466,-0.008987265018364023,0.6324874829455781,0.9840128546577006,0.0,0.0,0.0,0.0
-0.006691693539388075,0.08445986948098286,0.7380371948394543,-0.002111820856576502,-0.5221141736540991,-0.0005048070670295455,0.8528728363900401,0.00029191650201887756,-0.7872082529474185,0.8165627048223641,-0.07602216998217035,-0.9514472754178083,0.7762009342727981,0.006937010380713144,0.6248268021206944,1.009593081814746,-0.010301277569975205,0.6325570177375768,0.9824651326716753,0.0,0.0,0.0,0.0
-0.006900296039200189,0.08494548607541057,0.7380081040080655,-0.00219820000694252,-0.5221081855763218,-0.0002877889064601156,0.8528763847407641,-0.0014632828423581743,-0.7877704422368983,0.8165874595319511,-0.06970812442262908,-0.9412778079162764,0.7843013851130085,0.005605001025906121,0.6236206247727953,1.01141322222325,-0.011573241588031843,0.6323101448382673,0.9813821011862625,0.0,0.0,0.0,0.0
-0.007054677688267272,0.08529132563493365,0.7379540710764492,-0.0022220900060182375,-0.522046445782315,-0.00010331516420022129,0.8529141575141278,-0.0028217748930349073,-0.7885780354951046,0.8169011388010408,-0.062775210127548,-0.9284364914850878,0.793465411342924,0.004607509756700799,0.6224215774240671,1.0128636040411128,-0.012518202488455638,0.6318303341913089,0.9808149594978235,0.0,0.0,0.0,0.0
-0.0071217635547359825,0.08548518911749327,0.7378785392897751,-0.0021803496426623524,-0.5219423418357004,4.970870644908216e-05,0.8529779806088461,-0.0037584544426478516,-0.7896973611489095,0.8177313356876545,-0.05528943499625805,-0.9142185664121848,0.8027878428140409,0.004012701693504871,0.6213706140794886,1.0138801362247962,-0.013078500392788238,0.6312591260743428,0.9807855997450377,0.0,0.0,0.0,0.0
-0.007086875356067787,0.08552465144913021,0.737785809317611,-0.002074207956603684,-0.5218078036944552,0.0001722120200543513,0.853060539474158,-0.004268708165571415,-0.7911237061400226,0.819153796936254,-0.04729047922057832,-0.8992937940390189,0.8118753384381722,0.0038485914993857465,0.6205553863203798,1.0144328316640432,-0.013231341607372197,0.6306908676748962,0.9812823864536443,0.0,0.0,0.0,0.0
-0.006950357823353756,0.0854154286401481,0.7376840515748907,-0.0019083348760745601,-0.5216472761636289,0.00026578567097278107,0.8531590747844415,-0.004367148683586558,-0.7928237213069634,0.8211539931439866,-0.03878371496580811,-0.8838465767080997,0.8205766551078553,0.004114617290497706,0.6200175439401443,1.014475829982223,-0.01297654580162003,0.6301848736486255,0.9822218831730324,0.0,0.0,0.0,0.0
-0.006724711358827596,0.08517157672762003,0.7375876548962637,-0.0016909662588389953,-0.5214588541824592,0.000332624442650352,0.8532746881214796,-0.004088067715345901,-0.7947385725448445,0.823649973760932,-0.029772656593008866,-0.8678275109076808,0.8287905352668774,0.004781391120954183,0.6197751265634164,1.0139270348932121,-0.012337448155093194,0.6297879388044393,0.9834271425847058,0.0,0.0,0.0,0.0
-0.0064337325296243775,0.08482063555552836,0.7375188655090932,-0.0014354808591522951,-0.5212373449625389,0.0003748440290648596,0.8534104692954382,-0.0034957881212556606,-0.7967804300977811,0.8265053134722218,-0.020368640849646305,-0.851253176447663,0.8362792894205309,0.0057623387146539164,0.6198421611523053,1.012677614938728,-0.011389709239508545,0.6295503257142204,0.9846016846818739,0.0,0.0,0.0,0.0
-0.006114553691557853,0.08441579401293568,0.7375027530751128,-0.0011633857819993518,-0.520979340549868,0.0003930208169283761,0.8535684031103683,-0.0027098900803214105,-0.7988402617100412,0.8295382472641333,-0.011002237343464503,-0.8345723975173809,0.8424323552596058,0.006843864359410293,0.6202151775202286,1.010693034917126,-0.010332137523019239,0.6295030042324464,0.9853469367976023,0.0,0.0,0.0,0.0
-0.00582821386263302,0.08405854914137548,0.7375296544290002,-0.0009099358394622631,-0.5206928512738811,0.00038668172274635153,0.85374350780916,-0.0019609841812460774,-0.8008550183040359,0.8325053607018068,-0.0027648630098814197,-0.819140464825536,0.8459535840072746,0.007577800606845944,0.6206836490756119,1.0084585618344784,-0.009598275983675367,0.629466763135111,0.9854609420363579,0.0,0.0,0.0,0.0
-0.005657413730291076,0.08389753290388237,0.7375151142920603,-0.0007283361227798499,-0.5204286382768204,0.00036232520529683973,0.8539047784784157,-0.0016078751071013674,-0.802771700466738,0.8350066713387766,0.002232866268973982,-0.8078159304231207,0.8449904757615989,0.007370009879220122,0.6206906181879163,1.0074019036684632,-0.009780500929351073,0.6289630551013418,0.9853898304983791,0.0,0.0,0.0,0.0
-0.005650226243562938,0.08388524432753681,0.7375132396982005,-0.000712799250757868,-0.5204243920942911,0.00036415253965399637,0.8539073787147196,-0.0015908456736451267,-0.8027849136622578,0.8350276641255975,0.0022397566643315497,-0.8077880156504108,0.8449900464525767,0.007365314926386951,0.6207062820671986,1.0073615987817934,-0.009783820587265157,0.6289498810388903,0.9854340993514397,0.0,0.0,0.0,0.0
-0.005650226243562938,0.08388524432753681,0.7375132396982005,-0.000712799250757868,-0.5204243920942911,0.00036415253965399637,0.8539073787147196,-0.0015908456736451267,-0.8027849136622578,0.8350276641255975,0.0022397566643315497,-0.8077880156504108,0.8449900464525767,0.007365314926386951,0.6207062820671986,1.0073615987817934,-0.009783820587265157,0.6289498810388903,0.9854340993514397,0.0,0.0,0.0,0.0
-0.0058164939021064805,0.08356895670248195,0.7373783048346201,-0.0005754668923113051,-0.5204081763976288,0.0003084132540293705,0.853917386904386,-0.0007280752301560196,-0.801295928809131,0.8320148182686281,0.00310364038527059,-0.8084601831113855,0.84501366935519,0.008235742402522766,0.6197524246857602,1.007661983634282,-0.00892059412730096,0.6275316956612109,0.9877895076879235,0.0,0.0,0.0,0.0
-0.006014561287987436,0.08318456085032087,0.7372849726817956,-0.0004450231316251691,-0.5203483595472932,0.0002598320895064005,0.8539539326908323,0.00029051247982436767,-0.7996103611047416,0.8286010507640595,0.004125189887463182,-0.8092349504631811,0.8451432885236235,0.009614747966921385,0.6187534324679695,1.0072687181863298,-0.0075389497472168904,0.626167495790176,0.9899276841326019,0.0,0.0,0.0,0.0
-0.006202264362241928,0.08282818810845531,0.7372365616936604,-0.0003310369179132921,-0.5202739524288026,0.00021602332117562462,0.8539993314825227,0.001234939299486431,-0.7980241134923101,0.8254474676756475,0.005073843446616927,-0.8099106969971893,0.8452618391884843,0.010930148853626576,0.6179455912530885,1.0065140081318487,-0.006209017400521553,0.6250472374446351,0.9915150948237758,0.0,0.0,0.0,0.0
-0.006353986845357276,0.08253630793463426,0.7372110540177436,-0.00023504823637649953,-0.5202062867734595,0.0001747710684873057,0.8540405923659421,0.002020725281357002,-0.796713416107387,0.8228838193405504,0.005864240874982506,-0.8104810483649558,0.845405287323389,0.011952228601447885,0.6173622018023056,1.005754011079653,-0.005168141791020064,0.6241736991161693,0.9926579975470747,0.0,0.0,0.0,0.0
-0.006468679885304564,0.0823093732816571,0.73719474800384,-0.00015530705910239337,-0.5201523652145382,0.00013568247958490218,0.8540734596225923,0.0026471925233946232,-0.7956868239280606,0.8209057137222986,0.006495054581074202,-0.8109557794244192,0.8455661594883875,0.012671850512123346,0.6169576833902389,1.0051319813753172,-0.004431130315844015,0.62349554492322,0.9934982074496277,0.0,0.0,0.0,0.0
-0.006555730922921464,0.08213433317385567,0.7371819348934933,-8.887390510842533e-05,-0.5201107958768894,9.875163330267101e-05,0.8540987895799014,0.003145634103470085,-0.7948833888369674,0.8193766829686804,0.006997314885432487,-0.8113466868130577,0.8457178571609935,0.013157032048093356,0.6166721269921634,1.004660323251817,-0.003931671091530055,0.6229536254772245,0.9941383422246571,0.0,0.0,0.0,0.0
-0.006625453300065084,0.0819972629874362,0.737169950714852,-3.251498533935046e-05,-0.5200784410147381,6.313408571316216e-05,0.8541184988914258,0.0035514570592447593,-0.7942322691503871,0.8181482741143642,0.007406415372139959,-0.8116646901305976,0.8458336815845618,0.0134721807667997,0.6164568007623557,1.0043175840769962,-0.0036050902622495407,0.6224949247678239,0.9946506925951316,0.0,0.0,0.0,0.0
-0.006685918454016576,0.08188958567811513,0.7371565251533074,1.6901108318097638e-05,-0.5200540450961196,2.6532816760946897e-05,0.8541333556240063,0.003890559677005136,-0.7936728192272829,0.8171024962219032,0.007748304906393128,-0.811908858466866,0.8458788515756466,0.013639483745441668,0.6162813211993831,1.004100802025759,-0.003428694247995169,0.6220750026383423,0.9950858707313975,0.0,0.0,0.0,0.0
-0.006737995401685131,0.08181524831840853,0.7371415564942714,6.135677183396737e-05,-0.5200418849394335,-1.2426419696296015e-05,0.854140757714776,0.004155465489098896,-0.7931786114793347,0.8162148866317653,0.00801537898147364,-0.8120439420727057,0.8458081071053678,0.013615249517088914,0.6161600378556469,1.0040366697883734,-0.0034468560784086935,0.6216948181398922,0.9954394654643837,0.0,0.0,0.0,0.0
-0.0067382314255405446,0.08181253786347409,0.7371380486182244,6.207502576506516e-05,-0.520042221695283,-1.307310655252432e-05,0.8541405526200118,0.004163491582796525,-0.7931760227973211,0.8162004668869325,0.008023641053336607,-0.8120595908668061,0.8458196971300718,0.013624090667598388,0.6161451348273282,1.0040604202688745,-0.0034379553126086173,0.6216761404972635,0.995480617827228,0.0,0.0,0.0,0.0
-0.0067382314255405446,0.08181253786347409,0.7371380486182244,6.207502576506516e-05,-0.520042221695283,-1.307310655252432e-05,0.8541405526200118,0.004163491582796525,-0.7931760227973211,0.8162004668869325,0.008023641053336607,-0.8120595908668061,0.8458196971300718,0.013624090667598388,0.6161451348273282,1.0040604202688745,-0.0034379553126086173,0.6216761404972635,0.995480617827228,0.0,0.0,0.0,0.0
-0.006122109132206541,0.08181997109451533,0.7374561691608021,0.00015153659339503346,-0.5203493281445967,-4.6056974014493274e-05,0.8539534832851745,0.0041776797206859425,-0.7936133398574247,0.8204207052351022,0.008040214555696163,-0.8127717226047386,0.8502257057475735,0.012935197845929973,0.62040310053489,1.0014992767056523,-0.0042190183595626485,0.625556947606489,0.9927560248438002,0.0,0.0,0.0,0.0
-0.005083870753431387,0.08170730360495368,0.7376497301623662,4.928910279412494e-06,-0.5209003341075822,0.00011191886922917087,0.8536174959409406,0.00412594065073626,-0.7956578534380673,0.8279637881637086,0.007990348572782791,-0.8143311557907653,0.8576578414024933,0.015564704607384044,0.6250807693231597,0.9996005087003359,-0.0017707397655297736,0.6314253746288174,0.9920558397245544,0.0,0.0,0.0,0.0
-0.004122482860003889,0.08155665140071966,0.7377350495765518,-0.0001485750273902154,-0.52147092127729,0.00026863333454162097,0.8532689986304479,0.004179526869360709,-0.7973419286759891,0.834468574011572,0.008046410976464925,-0.8157097364135553,0.8643492142527247,0.018549730733106323,0.6290461390014654,0.9985820331159614,0.0010453118194183805,0.6366766317754318,0.9925106016563043,0.0,0.0,0.0,0.0
-0.003348149023603017,0.0814444306499536,0.7377556143739045,-0.00023446510639129985,-0.5219258052695935,0.0003602754076861787,0.8529907789779623,0.0042715602622624685,-0.7987574732100773,0.8396875590602491,0.008141489411620203,-0.8170502436161009,0.8698298892059318,0.0205330272013809,0.6321305555536045,0.9982147803121859,0.0029013399730462297,0.6405804857981849,0.9931813620885288,0.0,0.0,0.0,0.0
-0.0027874710502200474,0.08140212870739666,0.7377470705980489,-0.00024851412015327267,-0.5222382869492401,0.0003855125850403609,0.8527994847941115,0.0043219573058477295,-0.7999022688089424,0.8436056449738261,0.008194543309000298,-0.8182193175801545,0.8738660275587807,0.021208755371523166,0.6343898999025355,0.9982898330912245,0.003480692100729262,0.6431000074758024,0.993630532051654,0.0,0.0,0.0,0.0
-0.0024152805997674723,0.08142722829378936,0.737730183848668,-0.00021290237856160156,-0.5224314505190387,0.0003650592137243499,0.8526811836278088,0.004293943987878073,-0.800782152750014,0.8463925937170909,0.008168261345167594,-0.8191061289910306,0.876537281948773,0.020816634454178883,0.6359766507806253,0.9986368490085787,0.0030128729546150725,0.6445172730993665,0.9937582696075153,0.0,0.0,0.0,0.0
-0.00218344441225307,0.08150001974812472,0.7377137685974753,-0.00015504763272576253,-0.5225463185787553,0.0003234105768874716,0.8526108234743565,0.004187945856680943,-0.8014204383382092,0.8483005139372924,0.008062969886734194,-0.8196691252779138,0.8781069071490708,0.019799915982938295,0.6370691656350408,0.9991309435300658,0.0019384246414751484,0.6452152594050008,0.9936418677195157,0.0,0.0,0.0,0.0
-0.002042906189906495,0.08159815647975228,0.7376998410497626,-9.68667827849524e-05,-0.5226215045631147,0.00028030783362491295,0.8525647629432799,0.004020844814991689,-0.8018544925834862,0.8495826382473844,0.007895668790169135,-0.8199228755232212,0.8788831850497347,0.018573617414046218,0.6378263579208109,0.9996907855375086,0.0006706144266331777,0.6455347993588717,0.9934083496116392,0.0,0.0,0.0,0.0
-0.001957828726101575,0.0817061171192299,0.7376881420185432,-4.9654463909330556e-05,-0.5226816947597255,0.00024681923142756023,0.8525278778889299,0.0038091682833599084,-0.8021265568667387,0.8504368327984558,0.007683063195919421,-0.8199129418314648,0.8791182628779388,0.017390453032582267,0.6383622664558153,1.0002703195827019,-0.0005415561968889673,0.6456950943454141,0.9931491593820527,0.0,0.0,0.0,0.0
-0.001912517834304004,0.08181892973623633,0.7376788051059431,-1.1508649777174656e-05,-0.5227322377274709,0.00022317805133264987,0.852496896005809,0.0035637887183474822,-0.802274088308281,0.8509726598853669,0.007436232996934659,-0.8197037354461594,0.878961108196025,0.016280021124972163,0.638735832958543,1.000847811687012,-0.0016714359527508725,0.6457584946184532,0.992877283706352,0.0,0.0,0.0,0.0
-0.0019123056388434102,0.0819396218678427,0.7376730235566853,3.448876989234815e-05,-0.5227577458931656,0.0001968415123622532,0.8524812603058441,0.0033004806696957756,-0.8023201512313444,0.8511960534743861,0.007171287769153929,-0.8193924719139314,0.8784710463729317,0.01504135654986918,0.6389537233432201,1.001411613758023,-0.002918380293338749,0.645621332258663,0.9925258852367006,0.0,0.0,0.0,0.0
-0.0019792973602557,0.08206872850166025,0.7376722445568022,0.0001210701402672431,-0.5227258842447516,0.00014126756134998238,0.8525008007773598,0.0030692894059600262,-0.8022474409105655,0.8509893582617576,0.006938936344861558,-0.8191390896645511,0.8776814445716107,0.013301908145270241,0.6389875645250538,1.0019361707532783,-0.004646849950733167,0.645033374183419,0.9919948436430172,0.0,0.0,0.0,0.0
-0.002143419997946068,0.0821804812380569,0.7376821671263097,0.0002813027856218772,-0.5226237378020869,3.273398108247263e-05,0.8525633985123949,0.0029785552869348924,-0.8018019924770284,0.8499291216005458,0.006848362609211439,-0.8189887410991866,0.8765213937527694,0.010882832657126381,0.6388381681120815,1.0023086546023565,-0.007024956893484511,0.6438113881645245,0.9912858351281274,0.0,0.0,0.0,0.0
-0.0024249519467964024,0.08215653857644241,0.7378085246506381,0.000345347540133255,-0.5228611764305358,7.462515822517494e-05,0.85241777629742,0.002876933326381232,-0.7982953495973588,0.8451893396503135,0.006742168542831657,-0.8157363591106936,0.8722228987744886,0.0109110847803765,0.6392212707642373,1.001778308822002,-0.006996178400492303,0.6442419102588501,0.9909698249591474,0.0,0.0,0.0,0.0
-0.0024995281866117213,0.08221868928035896,0.737826540531163,0.0005072899185164411,-0.5229737152748257,4.579550333227822e-05,0.8523486573529379,0.009142697154979076,-0.8115687778630494,0.847837504587151,0.006554673828096617,-0.8147353845293426,0.8708137363371753,0.009336401140404441,0.6397083824701482,1.002194255583098,-0.008572416789677923,0.644080507372241,0.9908205243410803,0.0,0.0,0.0,0.0
-0.0024902880678183245,0.08228807184519829,0.7378760446605578,0.0006070912856902578,-0.5232135558378028,0.00011991804337862048,0.8522013799844471,0.018169197753441578,-0.8281361123618917,0.8453113472688973,0.006104592973005186,-0.8130549183307882,0.8692629039927208,0.00874146978677564,0.6405841269231967,1.0024262920337856,-0.00920176834491366,0.6449718427219142,0.990677968801123,0.0,0.0,0.0,0.0
-0.0024296135845536986,0.08238413956082996,0.7379437449190308,0.0006752128195561807,-0.523497149256993,0.00024736001230891335,0.8520271225849998,0.027722381927271444,-0.8455235428747951,0.8399210478099663,0.005461210948499142,-0.8111409332789848,0.8677625724182725,0.008498035843728501,0.6416479775344726,1.0025719897982963,-0.009495924704279401,0.6463761206067996,0.990385849754226,0.0,0.0,0.0,0.0
-0.002333761976687098,0.08252056172670101,0.7380151063096365,0.0007285690795428326,-0.5237738777211877,0.00039445295402367044,0.8518569355301826,0.03686114450634413,-0.8625599346194758,0.8330770827743783,0.004672832064839111,-0.8093004750098751,0.8664673902907941,0.008200171901668584,0.6427638032857558,1.0027556744694277,-0.00984735220334538,0.647937715301045,0.9898957291578014,0.0,0.0,0.0,0.0
-0.0022030864067873915,0.08270439754450945,0.7380809164384033,0.0007672382996011468,-0.5240259392244925,0.0005506960290694944,0.8517017806128878,0.045355707400148354,-0.8788789401093453,0.8254385066468216,0.0037508921400584453,-0.8076670780200054,0.8654745345783641,0.00773251310193973,0.643869520943903,1.003058923287388,-0.010367213530709128,0.6495366812544723,0.9892187290620827,0.0,0.0,0.0,0.0
-0.002026853814268825,0.0829396674833783,0.7381363123877372,0.0007808445549313092,-0.524255687321543,0.0007204694194619518,0.8515602418599716,0.05327925007846533,-0.8945428188165971,0.8172681306233419,0.0026800785743837565,-0.8062673058693934,0.8648521684484568,0.007158667537906299,0.6449559762004834,1.0035281608138646,-0.010993501659432406,0.6512099455348891,0.988387678021171,0.0,0.0,0.0,0.0
-0.0017911487304495158,0.08323205668946375,0.7381788252366337,0.0007555122031765647,-0.5244715200296713,0.000914280625304755,0.8514271653935027,0.060766752261360975,-0.9097395876839086,0.8086577732413719,0.0014262833519551425,-0.805081570848237,0.86464373238739,0.006592935459400233,0.6460313054306889,1.0041957769460361,-0.011615208368479613,0.653051128000873,0.9874238442621806,0.0,0.0,0.0,0.0
-0.0014871071718967842,0.08359336958331437,0.7382068001717795,0.0006801006277924982,-0.5246753193584788,0.0011415338883744542,0.8513013823667832,0.06789518535235092,-0.924551625277792,0.7996689435304338,-5.884538096709801e-05,-0.8040900056559932,0.8648581564571883,0.006085025444151109,0.6470857926483097,1.0050994566761788,-0.012183833256000217,0.655118464160245,0.9863071909391684,0.0,0.0,0.0,0.0
-0.0011179541626528116,0.08404338897808657,0.7382181734495267,0.0005516267364695456,-0.52485331194866,0.001404911456456439,0.851191355024395,0.07464628226302858,-0.9387572489334254,0.7904534145616049,-0.001830960806951188,-0.8033055897591502,0.865459134347297,0.005535537464086884,0.6480647696564354,1.0062940786993722,-0.012794405837124276,0.6573618701384423,0.9849611024146648,0.0,0.0,0.0,0.0
-0.000703374358944999,0.0846062259487904,0.7382093604095333,0.00037908210906975305,-0.5249734581410392,0.0016968949687065288,0.8511168222351491,0.08093355812668915,-0.9516460057608529,0.7814079075148903,-0.003937232131734947,-0.8027894872608944,0.8663600119421911,0.00467083112571998,0.6488567751439543,1.0078529083951315,-0.013708638865861935,0.6595839214685564,0.9832702140325701,0.0,0.0,0.0,0.0
-0.0002784487525521465,0.08529947903395965,0.7381744728785425,0.00018228854718034898,-0.5249956076524626,0.0020012519929431755,0.8511025635650312,0.0866786617200411,-0.9618977225962502,0.7733851762751888,-0.0063927641797448,-0.8026199684030295,0.8674143708194351,0.0031311282250899093,0.649308796654839,1.0098565476343764,-0.015268084519169913,0.6614739044966562,0.981149171070593,0.0,0.0,0.0,0.0
0.0001176100322602912,0.08612024972523392,0.7381066676138084,-2.3310134039855257e-05,-0.5249068796455924,0.002307412527495367,0.8511565326100676,0.09185961298380356,-0.9676975360308384,0.7679146913066055,-0.009174172581356582,-0.802723783479781,0.8683378484841238,0.00075966373706809,0.6492912558034739,1.0123765132299534,-0.01761316368185419,0.6628040057949816,0.9786619271065388,0.0,0.0,0.0,0.0
0.0005007135851528816,0.08702736398105546,0.7380013028811381,-0.000261607131348057,-0.5247666075063165,0.002637300949683073,0.8512420242514587,0.09650134685928141,-0.9673037962606525,0.7669324197518887,-0.012222802560631782,-0.802861752132179,0.8690370961508705,-0.0018673653560864734,0.6488751534607103,1.015386874584721,-0.02017842122838831,0.6638615750910479,0.9761312925593719,0.0,0.0,0.0,0.0
0.0009336952496735154,0.08800681078291064,0.7378508946988062,-0.000560173404250592,-0.5246029581641809,0.003014491017549055,0.8513414916090093,0.10059346716827368,-0.9606394793359759,0.7704127304904554,-0.01555083094124668,-0.80317045510398,0.8699792542745378,-0.004322080277500457,0.648180419351589,1.018871084899448,-0.022554046266336565,0.6649738144866136,0.9737059108362118,0.0,0.0,0.0,0.0
0.0014788827291904822,0.08909911489662815,0.7376478113306417,-0.0009305285429289173,-0.5243824608754902,0.00344997779177366,0.851475346969031,0.10404138125922974,-0.9493812088573134,0.776406850788626,-0.019288368027280546,-0.8040618283390946,0.871809165381224,-0.006741363634308431,0.6472519307359619,1.0228884805416045,-0.024875264193236487,0.6662311300522016,0.971193084921786,0.0,0.0,0.0,0.0
0.0021786468907292736,0.09034990346096651,0.737397178927975,-0.0013895141335042902,-0.5240984008209748,0.0039651867439829255,0.8516473523715405,0.10676020233042535,-0.9354358743140807,0.7834034767549223,-0.023605654149396464,-0.805586955690002,0.8747313940371058,-0.009199992612687675,0.6461811593594591,1.0274548265407162,-0.027213240990014504,0.667833148078731,0.9683414316503107,0.0,0.0,0.0,0.0
0.0030893344845150062,0.09176650353255805,0.7371061652262044,-0.001963592839439301,-0.5237723268033583,0.00458857068583656,0.8518436705154402,0.10886700873612605,-0.9200371206992637,0.7904168210004833,-0.028590394700550713,-0.8077461143983515,0.8790281022050305,-0.011401206225192244,0.6451365095106886,1.0324681905561701,-0.029285600130299357,0.6701516764296713,0.9650671252676594,0.0,0.0,0.0,0.0
0.004238900278794011,0.09333682554260475,0.7367860110360129,-0.0026639764868427998,-0.5234186405779423,0.005334922385336317,0.8520547919752337,0.1106434489229124,-0.9037223431665504,0.7968053123671544,-0.034254974586650236,-0.8104976666867385,0.8848212760993104,-0.013095351004719388,0.6442495174853724,1.0377512334464385,-0.030857446938628862,0.6734306927100441,0.9613070719340174,0.0,0.0,0.0,0.0
0.005563196945050612,0.09505807789154695,0.7364559339524676,-0.003464100909992961,-0.5230255312419643,0.006190207395838526,0.8522874955121322,0.11242703770223733,-0.8866592092781564,0.8021482879916434,-0.04057901903702778,-0.8135234842253394,0.8914873029402786,-0.014520349196488912,0.6434756843423813,1.043157393425338,-0.03214881995703599,0.6774910668777415,0.9568799579919586,0.0,0.0,0.0,0.0
0.007024005135808406,0.09684677516196073,0.7361244184753467,-0.004341047714841854,-0.5226055301379,0.007130146498355814,0.8525337390302709,0.11487148380401004,-0.8684521374654499,0.8058093974656436,-0.0473037605477554,-0.8167620422063325,0.8988892191862532,-0.01538556652685969,0.6428209064879068,1.048414771391916,-0.032884247084051646,0.6822417513427183,0.9520262661150841,0.0,0.0,0.0,0.0
0.008520753163918555,0.09853204562882648,0.7357211305221154,-0.005247934262443832,-0.5221815540048057,0.008089567432568697,0.8527798325135609,0.11891673958471961,-0.8486195384913567,0.8066322910808251,-0.05384885443596769,-0.8203853831064555,0.9068018605666707,-0.015201719452475216,0.6418297754902625,1.0538097400379107,-0.03261304812250239,0.686913913439054,0.9481164226533908,0.0,0.0,0.0,0.0
0.009917219151514884,0.09994182211874958,0.7352047969298362,-0.006114380093296761,-0.5217487505732732,0.008973255942272676,0.8530300910923937,0.12545245033769267,-0.8268688820545885,0.8024008121638916,-0.05955639027843149,-0.8246219183953193,0.9149371149301861,-0.013810243586819123,0.6400895725047573,1.0594060633154596,-0.03119606525326351,0.6905753398530865,0.9462456042153843,0.0,0.0,0.0,0.0
0.011050575386755423,0.10095051679357803,0.7346374129611224,-0.006837536297044741,-0.5212470323553566,0.00965059270122373,0.8533238807267938,0.13471699155178682,-0.8033836778034918,0.7892163135971911,-0.06379830229305533,-0.8296284829566987,0.9229118190895083,-0.011831657584145942,0.6375856781726938,1.0644996838514125,-0.02921207978648201,0.6924276765810173,0.9462563229695963,0.0,0.0,0.0,0.0
0.011651603666369015,0.10142056004385873,0.7341532450311153,-0.0072653882460577725,-0.520612527552942,0.009927844971432155,0.8537044267091476,0.1450212386529568,-0.7793397679229994,0.7620519684736531,-0.06574441335993925,-0.8351060922979227,0.9295150238065853,-0.010576931557985893,0.6345157428055025,1.0679311207171605,-0.027891246449848837,0.6914545624621329,0.9473966160988071,0.0,0.0,0.0,0.0
0.011680646214509623,0.10145068003305364,0.7341419021961599,-0.007304900730335321,-0.5205988083244562,0.009923119941390232,0.8537125106773971,0.14501138701212715,-0.779278861718049,0.7620694110638416,-0.06581079631019371,-0.8351317165474977,0.9295535643547458,-0.010575762469627414,0.6345070234036323,1.0680406721233253,-0.02787391806968304,0.6914943051106636,0.9473211677563207,0.0,0.0,0.0,0.0
0.011680646214509623,0.10145068003305364,0.7341419021961599,-0.007304900730335321,-0.5205988083244562,0.009923119941390232,0.8537125106773971,0.14501138701212715,-0.779278861718049,0.7620694110638416,-0.06581079631019371,-0.8351317165474977,0.9295535643547458,-0.010575762469627414,0.6345070234036323,1.0680406721233253,-0.02787391806968304,0.6914943051106636,0.9473211677563207,0.0,0.0,0.0,0.0
0.0118302177979811,0.10142719382742299,0.7340999233054315,-0.007012267488440881,-0.5205065123130804,0.009491560757363942,0.8537761469019458,0.14615808297081864,-0.7792413409130636,0.7628741412283323,-0.06481623060474687,-0.8378049079751491,0.9325721232590551,-0.015310552880864385,0.6361490340194844,1.0684518656449022,-0.03241638136010772,0.6899625683661362,0.9468957345929229,0.0,0.0,0.0,0.0
0.012058793168186447,0.10140933960504091,0.7340376370601713,-0.006858764448425498,-0.5205879262234352,0.009195903557482406,0.8537309902881502,0.1469816064161188,-0.7792482187477089,0.7640462438159797,-0.06408761804836487,-0.8394503544167813,0.9350171537609723,-0.018297658088268706,0.6378565454987543,1.0691384538703919,-0.035262726601407036,0.6895586222423301,0.9470845534780897,0.0,0.0,0.0,0.0
0.01234803772812485,0.10146836548258978,0.7339511041381482,-0.0068160333642177445,-0.5207872559281616,0.00902761257921999,0.853611549806534,0.14732151062408477,-0.7797273562826388,0.7660751419813012,-0.06381774612703042,-0.8401766419079347,0.9367819497906189,-0.020293044127388117,0.6395406111731273,1.0702809455482707,-0.03717128013921648,0.6899741805500114,0.9475368805566297,0.0,0.0,0.0,0.0
0.012667275073460217,0.10165124323155708,0.7338465441744032,-0.006842103787182785,-0.5210371707876138,0.008949641902390063,0.8534596394576742,0.14714631451803525,-0.7808956506550225,0.7691501330041145,-0.06406368606082978,-0.8402087508472895,0.9378512469822872,-0.022159091442835982,0.6411576503901442,1.0719148586860379,-0.03895116893967059,0.6908117257035048,0.9478530327244138,0.0,0.0,0.0,0.0
0.012999463736537,0.1020046601100063,0.7337303688839956,-0.006916723962956589,-0.5212962186971363,0.00894592815571645,0.8533008740597425,0.1463774411989592,-0.7829720441802082,0.7735201265637728,-0.0649197233847292,-0.8396157078556513,0.9381367041310622,-0.024486112718175856,0.6426907834885689,1.0740834855936292,-0.04113827470169497,0.691865017627166,0.9476995616494145,0.0,0.0,0.0,0.0
0.013358274672337358,0.10257852979275527,0.7336051663692509,-0.007049081872675971,-0.521558321696556,0.009031764017837701,0.8531387078034558,0.14485960778941936,-0.7862764046857865,0.7796736674309428,-0.06655164426901353,-0.8383084197950438,0.9375493365249028,-0.027495467469460612,0.6441783375206823,1.0768686205505702,-0.043920621877950476,0.6932113630853071,0.9468430160695284,0.0,0.0,0.0,0.0
0.013798155831438503,0.10343822151495857,0.7334694293430385,-0.007279305861530462,-0.5218476948476262,0.009259007551747984,0.8529573646247214,0.14232081610283415,-0.7913637462366321,0.7885410662019477,-0.06924332284534847,-0.8360686876929949,0.9360558812011615,-0.03107673184646374,0.6457276644826437,1.0803984073669226,-0.04717948169848285,0.6952456928192984,0.9450813355939182,0.0,0.0,0.0,0.0
