zhuoxili-jackie/tripod-support-walk/examples/trajectory_trot_sideways_v0.15.csv
root_pos_x,root_pos_y,root_pos_z,root_rot_x,root_rot_y,root_rot_z,root_rot_w,FL_hip_joint,FL_thigh_joint,FL_calf_joint,FR_hip_joint,FR_thigh_joint,FR_calf_joint,RL_hip_joint,RL_thigh_joint,RL_calf_joint,RR_hip_joint,RR_thigh_joint,RR_calf_joint,FL_foot_joint,FR_foot_joint,RL_foot_joint,RR_foot_joint
0.0,0.0,0.745913,-0.00590261038931276,-0.5534150365010598,-0.008528410562500121,0.8328410549308913,-9.86e-07,0.349071,-0.872662,2.4067e-06,0.349062,-0.872669,2.38753e-06,0.610854,0.872668,-3.27e-06,0.610866,0.872669,0.0,0.0,0.0,0.0
0.0009140577418864071,-0.00019169112456951312,0.7458979023910922,-0.005942101994244522,-0.5537242790202006,-0.008354292221185933,0.8326369677410029,4.2518689208932135e-05,0.35405405070705404,-0.8794945198104626,4.591294197789372e-05,0.35481030134059993,-0.8803535690177884,0.0018314318842614604,0.6128986941175669,0.8737224141453381,0.0018257869872417417,0.6133990349317384,0.8754487873671726,0.0,0.0,0.0,0.0
0.002608195754396716,-0.0005251933963014289,0.7458301137170781,-0.0059448960747195325,-0.5540171185139309,-0.008273885278331948,0.8324429310328624,0.000581691989821335,0.3635358752383688,-0.8936392912059213,0.0005853087394772122,0.3655123755632618,-0.8965826487249141,0.0037535245266135144,0.6163547626339113,0.875529955291323,0.0037577079110218316,0.6168995330600547,0.8796863123722809,0.0,0.0,0.0,0.0
0.005013956715873397,-0.001106740544009234,0.7457261438677733,-0.005891014568329054,-0.5543140441140434,-0.008298948452820613,0.8322453748143437,0.0018955861051162275,0.3767188552360309,-0.913472832737438,0.00190030435171193,0.3807553088271533,-0.9205462760924603,0.00619502013657555,0.6213814543500359,0.8774173498431551,0.006220766764416733,0.6213861731839535,0.8854746318705277,0.0,0.0,0.0,0.0
0.008116938125734679,-0.002108710023872536,0.7458389547943831,-0.005736892859732361,-0.554688679808262,-0.008480273679820707,0.8319949768545473,0.004504591254571583,0.39316093142099845,-0.9365959457692938,0.004514724337616142,0.4006715320379791,-0.951196402449339,0.009646024512289783,0.6298690781571392,0.8762496576778979,0.00971809093986558,0.6284008293582055,0.890837864950445,0.0,0.0,0.0,0.0
0.012092487345803624,-0.0039358477186006826,0.7471683776640905,-0.00532215397079305,-0.5555512469825309,-0.009055751022292955,0.8314159488647594,0.009840662880196532,0.4136411555135527,-0.9573626773151919,0.009875150999498476,0.42738247374330895,-0.986519121294646,0.014355277435774307,0.6497359166425634,0.8616164700205885,0.01452639730046591,0.6444189824847497,0.8878839387143759,0.0,0.0,0.0,0.0
0.015459244405032792,-0.005570833122206543,0.7480621180282548,-0.005066124020361766,-0.5551937954172899,-0.00913518381027797,0.8316554168249656,0.013762742296303889,0.4308423955845053,-0.9812109942390832,0.005504301026473229,0.40191309434354305,-0.9554061441251722,0.011750021830941516,0.6394191119372034,0.8840510162978682,0.021884412556494662,0.6555260794425356,0.884731604127505,0.0,0.0,0.0,0.0
0.018910957316551465,-0.007351875824581455,0.7490600536275831,-0.004795024463211164,-0.554945626402333,-0.009287682697063347,0.8318209533471961,0.01826140439883272,0.4479517445507059,-1.003514545417599,0.002323381125368185,0.3821097962198496,-0.9410053007132866,0.009608963996724826,0.6316667940985289,0.9027597733308051,0.02990224592587427,0.6676836838801793,0.8810298536811686,0.0,0.0,0.0,0.0
0.02218848383822721,-0.009223651029517341,0.7501344745394424,-0.0044934835992819205,-0.5548547419497757,-0.009512003460177124,0.8318807280681314,0.02318600637172468,0.46361698443648486,-1.0220624756098518,-7.899003784146838e-05,0.36781894462262543,-0.9374258966451098,0.008902426640826895,0.6257964744105897,0.9193455663705437,0.03823630632752389,0.6803297666197818,0.8768034964080234,0.0,0.0,0.0,0.0
0.02511282488932192,-0.01113703657680813,0.7512384708067505,-0.004187271519331356,-0.554845856283267,-0.009756956889911872,0.8318854153756754,0.028305261881532016,0.4770388473644307,-1.036360364863272,-0.001946912989857863,0.3572474880444794,-0.9396803978106442,0.009450545438655132,0.6209507549700825,0.9345539088363181,0.046997729286677205,0.6927436256485109,0.8721720761307711,0.0,0.0,0.0,0.0
0.027605419024439613,-0.01305223342304946,0.7523372442311194,-0.003894014123849527,-0.5548672088106592,-0.00999501449908757,0.8318697716144243,0.03345352009566982,0.4879456516491199,-1.0465420631464066,-0.0034082753653386488,0.34897751379444053,-0.9449543850896465,0.010798507709660062,0.6165967773177807,0.9488057445302867,0.056152288973719364,0.7044425097694258,0.8673107398922165,0.0,0.0,0.0,0.0
0.0296574693093922,-0.014933714848728357,0.7534124966121474,-0.003622113772532778,-0.5548929685583526,-0.010213782570188559,0.8318511599931365,0.03850292810534186,0.4964138861549988,-1.0530437489968534,-0.004571971345348608,0.3419790407331389,-0.9516930361190183,0.012568326149394925,0.6123932045586634,0.9623906379936348,0.06553667909935097,0.7152017551410281,0.8623245972363778,0.0,0.0,0.0,0.0
0.03130292399684382,-0.016750889357166364,0.7544566084494284,-0.003374406952967045,-0.5549128878441778,-0.010409438614851453,0.8318364886622096,0.04335593682243912,0.5027199332182186,-1.056449325860642,-0.0055492281722767265,0.3355464461585478,-0.959044819880879,0.014500529671082002,0.6081242377708772,0.9755272531014552,0.0749282049618414,0.7249769250103661,0.8572483984390276,0.0,0.0,0.0,0.0
0.03259773000642866,-0.018479683283503266,0.7554669058573065,-0.0031509207548135157,-0.5549246024693745,-0.010582464470184728,0.8318273671371608,0.04794324328297654,0.5072298870176151,-1.057389060560473,-0.0064473415912893696,0.32922511988121,-0.966550525162792,0.016424488514589004,0.6036660043158532,0.9883865403009684,0.08410597050737248,0.7338263330897435,0.8520823313379436,0.0,0.0,0.0,0.0
0.03360530671100902,-0.020103233812094713,0.7564422479718386,-0.002950404329351018,-0.5549291315150748,-0.010735214133538921,0.8318231237996003,0.05222147279551566,0.5103261054567044,-1.0564716687393605,-0.00735947873260607,0.32273773635444486,-0.9739723227486616,0.01822817817096148,0.5989644445441292,1.0011009207771688,0.0928877402006891,0.7418549685565117,0.8468218603510699,0.0,0.0,0.0,0.0
0.03438734507499279,-0.021611428721320436,0.7573813764647426,-0.002771096935661831,-0.5549285683835671,-0.010870594002949954,0.831822357958453,0.05616898233567292,0.5123636237678834,-1.0542437131495948,-0.008358633726849536,0.31592073825717215,-0.9811993488785601,0.019839591136050636,0.594019995316838,1.0137666216103234,0.10114403288141557,0.7491787045236542,0.8414745888051479,0.0,0.0,0.0,0.0
0.034998702916406554,-0.022999561164416888,0.7582819585439123,-0.0026111504947805755,-0.5549249744564613,-0.010991333320244679,0.8318236863719575,0.05978010206880288,0.5136482798594184,-1.0511720188004983,-0.00949669827962513,0.3086814535039938,-0.9881916550192773,0.021215859772977633,0.5888790915046325,1.026440314371011,0.10879644538926242,0.7559017865844523,0.8360695521269775,0.0,0.0,0.0,0.0
0.03548511036432277,-0.02426647988299975,0.7591394411269778,-0.0024689524271562283,-0.5549197797335564,-0.01109954871608847,0.8318261491157108,0.06305875226616978,0.514428911314661,-1.047644310503772,-0.010807090241507588,0.3009863572364633,-0.9949378646762356,0.02233367542458926,0.5836325952543437,1.0391269565840897,0.11580746087330357,0.7621001837455257,0.8306668227368245,0.0,0.0,0.0,0.0
0.03588244739465295,-0.0254125882738714,0.7599451573426023,-0.002343490237407752,-0.5549133001783899,-0.011196433776659097,0.8318295361486752,0.06601232912257211,0.5148967507459327,-1.0439820641237214,-0.012309205541964262,0.29289200870932164,-1.001408457933913,0.023174281429949106,0.5784202322076581,1.0517509044301532,0.12216768038242018,0.7678047204552978,0.8253741436842438,0.0,0.0,0.0,0.0
0.036216432885351854,-0.026438036836543766,0.760683455114118,-0.00223485694355499,-0.5549042514024988,-0.011281979293576992,0.8318347156335166,0.06864665016762199,0.5151856302204665,-1.0404577430995163,-0.014013643214811668,0.2846278062451316,-1.0074915228158146,0.023694332404080812,0.5734407871624544,1.0640961053196267,0.12788510221817453,0.7729798634576857,0.8203749130553689,0.0,0.0,0.0,0.0
0.03650178993631831,-0.027341548943955962,0.7613281550849275,-0.0021449568860836756,-0.5548894074858677,-0.011354700403740689,0.831843864795961,0.07096291372899645,0.5153675906663132,-1.0373064424524887,-0.015927754899310094,0.27672396779972935,-1.0129074085424312,0.02377183232203808,0.56897396603883,1.0756939783586585,0.13298043647619234,0.7774980955531856,0.8159666728653129,0.0,0.0,0.0,0.0
0.03674074025653725,-0.028120541357993457,0.7618399233844017,-0.0020782760101937326,-0.5548639263551434,-0.011411508193450727,0.8318602535758817,0.07295818472282632,0.5154426026561032,-1.0347206381918175,-0.018060477533399396,0.2701322164570685,-1.0171194459886619,0.023122621558556936,0.5654369741385114,1.0856321862552887,0.13749155652670592,0.7811202590436647,0.8125954200940713,0.0,0.0,0.0,0.0
0.03692280997921364,-0.028773297437843487,0.7621693504337188,-0.002041807935381203,-0.554823613820129,-0.011448421091507928,0.8318867243936754,0.07463149709180711,0.5153338351440265,-1.032817762125494,-0.020422902646472833,0.26618935606572147,-1.0192917933153374,0.021222551192954797,0.5635286900585895,1.0922643243567431,0.1414830829884714,0.7835179947382567,0.8108341216999285,0.0,0.0,0.0,0.0
0.037031966860731125,-0.02930271692371043,0.7622773681892667,-0.0020405368339753063,-0.5547727079365297,-0.011465216443791105,0.831920445445414,0.07599709094515057,0.5149276677506498,-1.0315679659459884,-0.023016501334167154,0.26613148815307647,-1.0184116066451916,0.01740209597627288,0.5644858285460108,1.0929496245025423,0.14501825846301572,0.7844248874906863,0.8111727995023651,0.0,0.0,0.0,0.0
0.03705711641024675,-0.029715461702492972,0.7621646171533617,-0.0020737259466454224,-0.5547117685311048,-0.011461845045971069,0.8319610445338977,0.07707025275548983,0.5141555784816566,-1.0308570545964868,-0.025807823634566015,0.26993964420226146,-1.014452971903688,0.011705466092684533,0.5682702963143897,1.0876492480375544,0.1481285072675017,0.7838156376882791,0.8136365710605348,0.0,0.0,0.0,0.0
0.03699377688311304,-0.03002301991922211,0.7618727214089274,-0.002135021269648866,-0.5546369933708988,-0.011438306313943998,0.8320110650810697,0.07786989600337288,0.5130014659136457,-1.0304948694076814,-0.028725571657663124,0.2763589345264289,-1.0084134366455366,0.0048720203742105535,0.5735874633033137,1.078929690012487,0.1508191882247602,0.7819181894921376,0.8177674217141252,0.0,0.0,0.0,0.0
0.03683395961105229,-0.03024306572914802,0.7614560720043351,-0.002216611714377901,-0.5545518537423743,-0.011397912010376567,0.8320681557091387,0.07843328993943675,0.5114205999307235,-1.030151634994861,-0.031694267753174604,0.2840456261927368,-1.0011272938256865,-0.002520551371532601,0.5797000672244159,1.0683783413743222,0.15310760869405962,0.7790426223812359,0.822992710199691,0.0,0.0,0.0,0.0
0.036558281832488916,-0.030395624727010122,0.7609612289716283,-0.002313538490771414,-0.5544597860985994,-0.011343009689297426,0.8321299954155814,0.07880305773912746,0.5092961536175974,-1.0294224097996354,-0.03465092113151153,0.29204573979621157,-0.9931250379379138,-0.010141154828484992,0.5861651254604651,1.0568633799524958,0.15504693255230795,0.7754241756488405,0.8288439915214791,0.0,0.0,0.0,0.0
0.03613623807591944,-0.030501249972806253,0.7604232823777156,-0.002423417325965305,-0.5543622203559647,-0.011274731623736822,0.8321956116907141,0.07902273096304296,0.5064435615288183,-1.027857807495712,-0.037542461848578394,0.2998316661387171,-0.9846814864589568,-0.017823861662387475,0.5926841581530544,1.0448218962777283,0.15671207918014468,0.7711953798506965,0.8349891036673615,0.0,0.0,0.0,0.0
0.035528871587677625,-0.030581306372973866,0.7598680370502386,-0.002545483479437357,-0.5542583006442375,-0.01119340359348832,0.8322655612223848,0.0791378045822265,0.5026249605556743,-1.0249752142805484,-0.04032121187799874,0.3071813722099214,-0.9759135035647111,-0.025487631372379374,0.5990413778812701,1.0324530364370246,0.15819282995558293,0.7664053115757462,0.8412031305773096,0.0,0.0,0.0,0.0
0.034691947740969106,-0.03065900509270859,0.7593152473307289,-0.002679915367765502,-0.5541451708313526,-0.011098921666864945,0.8323417336861978,0.0791985977522343,0.49756385075941795,-1.0202630060056583,-0.04294741894384049,0.3140494968661183,-0.9668700865911125,-0.03309165422565332,0.6050765254067306,1.019837261985465,0.15959475180694185,0.7610493117610106,0.847330173116983,0.0,0.0,0.0,0.0
0.033580013878278796,-0.030759992959394373,0.7587811017445223,-0.002827559198456777,-0.554018388084632,-0.010990946692709011,0.8324270716788849,0.0792619764270899,0.49096360052850097,-1.013193717946929,-0.045400602384060816,0.32048443591838105,-0.9575970070756812,-0.04062335187646223,0.6106701689342576,1.007010594297663,0.16104158769680085,0.7550975458814411,0.8532527972990283,0.0,0.0,0.0,0.0
0.0321526822421851,-0.030911493509691006,0.7582793156635302,-0.0029900378524209538,-0.5538723158823251,-0.010868809249957014,0.8325253067374463,0.07938939860267478,0.48253884801652674,-1.0032643666124277,-0.047697606864667674,0.3265993511235545,-0.948177169475118,-0.04811505216583369,0.6157395708623646,0.9940201057658911,0.16267363141313854,0.7485214944776,0.8588729690671899,0.0,0.0,0.0,0.0
0.030384871193981894,-0.031138933676127623,0.7578204969434839,-0.0031703399951545576,-0.5537004574010024,-0.01073088415151519,0.8326407391808083,0.07963846145923928,0.4720722528345695,-0.9900867303869301,-0.04991239248747658,0.33258819346678886,-0.9387540034802658,-0.05569841910037713,0.6202555026446628,0.9809842731415962,0.16463871974300934,0.7413209947533096,0.8641055039858286,0.0,0.0,0.0,0.0
0.028283024553988047,-0.031458798324248166,0.7574091503490658,-0.0033742858705326636,-0.5534956070972181,-0.010572897765544556,0.8327781462981513,0.08004454670537597,0.45951352892310227,-0.9735612386269709,-0.05218830249597906,0.33877166079110366,-0.9295469400476578,-0.06373170000510486,0.6243021052140366,0.9681820958098053,0.16707644533140834,0.733553648980311,0.8688894823268366,0.0,0.0,0.0,0.0
0.025909557266683442,-0.03186639348897186,0.7570364694396463,-0.0036138498090150205,-0.5532491362756511,-0.01038406059840315,0.8329432781320062,0.0805888448997269,0.4451440918867906,-0.9541894279522538,-0.05472804636888454,0.3456461730771353,-0.9208703806289623,-0.073081646783605,0.6282187101233101,0.9561945270838245,0.17010450303690283,0.7253614279324414,0.8732375234602358,0.0,0.0,0.0,0.0
0.02341707022727208,-0.03231722360478336,0.7566634715030361,-0.0039142267268637955,-0.5529423962735973,-0.010138534174909525,0.8331486034058552,0.08114823206510328,0.42983729533656206,-0.9336399715102307,-0.057753419428782746,0.353839302355045,-0.9131363038736263,-0.08571068298334925,0.6328756380747246,0.9460738891676743,0.1738217031812496,0.7169516541126435,0.8773669484350145,0.0,0.0,0.0,0.0
0.02120980348753043,-0.0326409197238605,0.7562188163982697,-0.004328674528112738,-0.552460204483865,-0.009782263629140394,0.8334706307703744,0.08130543764415483,0.4163264935751385,-0.9172794987380244,-0.06187953388941867,0.3636339623151637,-0.9065898999318716,-0.1059574554870929,0.6402528895569646,0.9391425190511007,0.17793660614416698,0.7087608116098216,0.8813077501919732,0.0,0.0,0.0,0.0
0.0194652018097388,-0.032830392664007814,0.7558396900266955,-0.00486545474092855,-0.551854300331696,-0.00929526773268097,0.833874544852735,0.08101351216283327,0.40586915530804824,-0.9064254675456341,-0.06662631407046102,0.37479665378870064,-0.9032932911729674,-0.13646286148215683,0.6497565016244352,0.9373668228064064,0.1827446621237404,0.702171748581423,0.8838593427092587,0.0,0.0,0.0,0.0
0.01844079323970043,-0.03286401120207797,0.7556915336474279,-0.005408420650387603,-0.5512113045477698,-0.008744422818084822,0.8343023323678249,0.08027823526916619,0.40016505948611064,-0.9025277036472472,-0.07059771083351617,0.3857197497400336,-0.9064881824887796,-0.17287307449670974,0.658102990009785,0.9421852441951398,0.1873234075358171,0.6986849317038065,0.8835981565379497,0.0,0.0,0.0,0.0
0.018413263197012197,-0.032819169450803876,0.7556710865429835,-0.0054768824505110995,-0.5512126241744502,-0.008743413158550636,0.8343010244723895,0.0802226721053052,0.4000516638834009,-0.9024969835443468,-0.070628056731986,0.38573853546024667,-0.9064912913734698,-0.17287608729370743,0.6581287263307583,0.9421958079045606,0.18733411720820076,0.6986074645897813,0.8835419792188747,0.0,0.0,0.0,0.0
0.018413263197012197,-0.032819169450803876,0.7556710865429835,-0.0054768824505110995,-0.5512126241744502,-0.008743413158550636,0.8343010244723895,0.0802226721053052,0.4000516638834009,-0.9024969835443468,-0.070628056731986,0.38573853546024667,-0.9064912913734698,-0.17287608729370743,0.6581287263307583,0.9421958079045606,0.18733411720820076,0.6986074645897813,0.8835419792188747,0.0,0.0,0.0,0.0
0.01856147937150037,-0.03296692127465389,0.75561660384421,-0.005631914168904612,-0.5514325530927588,-0.008621623309623395,0.8341559138098241,0.08043176176053064,0.4003768163058581,-0.9024837812848275,-0.07042411713378324,0.3867086186247373,-0.906917324146757,-0.17093505642639142,0.6584281747005645,0.942896599442692,0.19039190766269096,0.6997241882013928,0.8852770649043938,0.0,0.0,0.0,0.0
0.019131914667876157,-0.03314058471674721,0.7555388462270354,-0.005713676220584008,-0.5516227395812473,-0.008551988003363035,0.8340303175437427,0.08081910303151037,0.40315110997593945,-0.9063842344892779,-0.07019278643538172,0.39022054448487525,-0.9118128244031002,-0.16997698425580907,0.6597488503003048,0.9439188740190355,0.19329949959560436,0.701510927085238,0.8873821742887749,0.0,0.0,0.0,0.0
0.020232312707360645,-0.03327713895419804,0.7554614223211671,-0.005698059932992259,-0.5518785642366836,-0.008584018560707752,0.8338608379546351,0.08132531736689479,0.40906186734938765,-0.9146627250554996,-0.0700001756726981,0.3966573827569922,-0.9213067150368153,-0.171102143645934,0.6629086159763935,0.9455432058308166,0.19550302573755565,0.7045386359568363,0.8896620547707189,0.0,0.0,0.0,0.0
0.021938944745712036,-0.03334043082700541,0.7554937592373514,-0.005529448638863132,-0.5523653022305791,-0.008822502387548066,0.8335371386693534,0.08203513449653033,0.4185201556237302,-0.9265088724957204,-0.06972620574885253,0.40625547830130493,-0.9347671419249187,-0.1758857781417563,0.6694970878555964,0.9473036680237126,0.19614711016022474,0.7098574002307839,0.8912197470569017,0.0,0.0,0.0,0.0
0.024384170136680067,-0.03335520823784604,0.7561331012697335,-0.005146870029548931,-0.553534270047036,-0.00953107086494319,0.83275595482744,0.08347497435665606,0.4322188186814545,-0.9383451073888313,-0.06869182249623766,0.4197670100330487,-0.9498065316430157,-0.18718704931623914,0.6845768844332232,0.9455825857853687,0.19410584276232742,0.7213599917826875,0.8879232510319719,0.0,0.0,0.0,0.0
0.026390695568686416,-0.03394217817385081,0.7567384097665096,-0.006279757035950945,-0.5530758317552001,-0.008189779764120685,0.8330669939970483,0.07630275159050577,0.41079766011601193,-0.9214401245445404,-0.06982255291704313,0.4331175916021662,-0.9670129883026362,-0.16974363815481805,0.6876242499999385,0.9362497928901616,0.15157722968028814,0.6965661914826771,0.902308112473593,0.0,0.0,0.0,0.0
0.028548618970131074,-0.034531156333651836,0.7574800023228048,-0.007112753740033852,-0.5530051151586728,-0.007344214178505434,0.8331151264145171,0.06632117032892762,0.3936533873573679,-0.9166737825018347,-0.07001563044492026,0.446969742766457,-0.9837652197552289,-0.1577328423487535,0.6942355744338632,0.9267747493294317,0.11316616701927976,0.6768657746747632,0.9138016952055926,0.0,0.0,0.0,0.0
0.03067426585545799,-0.03507217526918794,0.7582133140173739,-0.007563319397211341,-0.5532326530109701,-0.007013614784769806,0.8329629265758411,0.05707765353561952,0.38104207155170966,-0.9194158755876449,-0.06940566768999863,0.4601848653501433,-0.9994259847981193,-0.15171152043858746,0.7031105918379121,0.9184714352259817,0.08505777770229453,0.6632666980699804,0.9249951483471167,0.0,0.0,0.0,0.0
0.032583685342614035,-0.0355759324483623,0.758884880803298,-0.007821120293285695,-0.5535442950687243,-0.006903948126679657,0.8327543929481797,0.049322154354346004,0.37136066912895505,-0.9260336172738807,-0.06848325161979515,0.4719310796454419,-1.013194408687652,-0.14824833060457068,0.7120723929389738,0.911058842483817,0.06460103674803559,0.6534910088929483,0.9363533470713314,0.0,0.0,0.0,0.0
0.034179095433532494,-0.036062352616130215,0.7595046263626636,-0.00801107308050646,-0.5538396293550385,-0.006845449304206787,0.8325566812462656,0.042807482131114516,0.3634287336998972,-0.9344612367821951,-0.06747923868754013,0.4818504055437817,-1.0245366708516621,-0.14522794183278276,0.720113764529069,0.9040277467996511,0.04861699344514289,0.6456321140391643,0.9477940223416427,0.0,0.0,0.0,0.0
0.03543142260638662,-0.03654950697569464,0.7600963972441325,-0.008188256543423197,-0.5540870009047608,-0.006773380002759243,0.8323909353221507,0.03704011621503982,0.35642118388700933,-0.9436041256062174,-0.0664485743764725,0.489911551020153,-1.0333198265471726,-0.14171050450966038,0.7269563944961719,0.8970044435838777,0.0350002457665608,0.6384933414684578,0.9591730114403871,0.0,0.0,0.0,0.0
0.03635670699683809,-0.03704991554925232,0.7606775252910425,-0.008365595327819103,-0.5542899603587648,-0.006681419798920834,0.8322547778713925,0.03159588511470888,0.34978821741889193,-0.9529180895915804,-0.06536621666435745,0.4962691853495554,-1.0397037912730331,-0.13751261993119027,0.7326951845686054,0.8898202288347757,0.022560638008094793,0.6314377986055516,0.9703964501927181,0.0,0.0,0.0,0.0
0.03699600001940105,-0.03757168370354307,0.7612553481008051,-0.00853655364192416,-0.5544667667884671,-0.006588202180930217,0.8321360029292599,0.02621489960305272,0.34319554443734795,-0.9621500987047824,-0.06418157195613683,0.5011685050490374,-1.044014461853689,-0.13283191968030963,0.7375792690984413,0.8824601077054568,0.010633117560949598,0.6241740728759063,0.9814269947172963,0.0,0.0,0.0,0.0
0.037396180695215636,-0.038126785740173516,0.7618282278713838,-0.00870603261479762,-0.55461287884795,-0.00648723193338129,0.8320376646726647,0.02074459190122766,0.33633418358571165,-0.97117987125598,-0.06288705797165249,0.504891022098274,-1.046708115870493,-0.12758018010825478,0.7416952830836255,0.8748950907395064,-0.000985227490449124,0.6165319765901037,0.9922614861528457,0.0,0.0,0.0,0.0
0.037608445785918945,-0.03871830466623263,0.7623903537250902,-0.008861329996927124,-0.5547479491401798,-0.006401187355078711,0.8319466416519122,0.015167449240033907,0.3291141575768168,-0.9799784138872674,-0.061443653380750377,0.5076957730125674,-1.0481745609212936,-0.12207988122933913,0.7452849338724297,0.8672464390105282,-0.012525052418124075,0.6085140429421608,1.0029151045907938,0.0,0.0,0.0,0.0
0.037676742743482594,-0.039351441740452235,0.762932495176803,-0.008997835446381547,-0.5548791617536377,-0.006337588083649674,0.8318581548474128,0.009502544122469314,0.32145776803932324,-0.98854313811631,-0.059835233407248244,0.5098112465474909,-1.0487886433779396,-0.1164519897214403,0.7484666976233945,0.8596188538357784,-0.02406583944670041,0.6001564061760624,1.01339574125093,0.0,0.0,0.0,0.0
0.0376358071633161,-0.04003428823437206,0.763443430258012,-0.009114843460349423,-0.5550072246920368,-0.00629682323855136,0.8317717536592829,0.00378783645071856,0.31332644402531906,-0.9968641326705594,-0.05805022658464511,0.5114258336759963,-1.0488845275933507,-0.11069936275655541,0.751278099506801,0.8521072788215477,-0.03562509759108818,0.5915274055322076,1.0236807735872748,0.0,0.0,0.0,0.0
0.037510727187005856,-0.04077781267696053,0.7639082372107899,-0.009211032394150699,-0.5551320621469711,-0.006279820761601056,0.8316875100119561,-0.0019276196296318035,0.3047795835103326,-1.0048889293806942,-0.056067278502548674,0.5126811062846653,-1.0487466895378417,-0.10479937997795398,0.7537052423958,0.8448374793230574,-0.04719656338958622,0.582745484966331,1.0336852977732696,0.0,0.0,0.0,0.0
0.0373160508313169,-0.04159745245341886,0.7643050636049915,-0.00928454486627198,-0.5552514840242726,-0.006287218914138089,0.8316069129064494,-0.007590409804378823,0.29604723860800597,-1.01246416691024,-0.05385337079237884,0.5136687773802492,-1.0486244028970808,-0.0986886458907984,0.7556560105000308,0.8379927815608402,-0.05871756496952116,0.5739910061520169,1.0432038616974604,0.0,0.0,0.0,0.0
0.037054547698286616,-0.04251408012462618,0.7646013085689087,-0.009333400481311772,-0.5553596144214851,-0.006317650421690141,0.8315339281101067,-0.0131424863107885,0.287640089476197,-1.0192594724214543,-0.05136518155118872,0.5144237242198499,-1.0487410706919125,-0.0922449808517925,0.7569261494098615,0.8318478471296634,-0.07000010997972139,0.5655355420269965,1.051806984573725,0.0,0.0,0.0,0.0
0.036715948855600485,-0.04355208058646236,0.7647505938886754,-0.009353443894306989,-0.5554496966519687,-0.006369974778631217,0.8314731330583518,-0.018514188304951402,0.280462943861724,-1.0247006729782246,-0.04855022065279638,0.5149080552775892,-1.0492746828092345,-0.08533599384534628,0.7571945576000836,0.826818652450651,-0.08063792172908507,0.5578236441950184,1.0586674993265968,0.0,0.0,0.0,0.0
0.03627753639317011,-0.044733737104678685,0.7646957776598396,-0.00933291140083359,-0.555523857983408,-0.006451704292481022,0.8314231867633576,-0.023611686303540956,0.2758044537078171,-1.0279637083371682,-0.04534529168980243,0.5149968735776932,-1.0502967362331597,-0.07795655941267045,0.7560958172249487,0.8234821162046907,-0.08995091018905585,0.5516511876898168,1.0622919053690214,0.0,0.0,0.0,0.0
0.03571032270327379,-0.046075710503924706,0.7643909768663484,-0.009253808245913077,-0.5556000443185046,-0.00657857857338123,0.8313721670167804,-0.028321809973325625,0.2748909214715991,-1.0281189611662196,-0.04168405400357206,0.5145154101695818,-1.051702571710021,-0.07023776657015815,0.7533841341135172,0.8223567523842368,-0.09711506690621752,0.5483967923187637,1.06025823702107,0.0,0.0,0.0,0.0
0.03498469785909765,-0.047603697295048625,0.7638319022119189,-0.009114392104565276,-0.5556774538398164,-0.006749309063827139,0.8313206011989743,-0.03257530285793259,0.2776783333990642,-1.0251133778127774,-0.037500767376835796,0.5133416229966561,-1.0533398795981561,-0.062007552813203776,0.7489590294651003,0.823379435183552,-0.1019943525436874,0.5480833179783461,1.0526351621593886,0.0,0.0,0.0,0.0
0.034072354965655346,-0.04935242798063408,0.7630556642565939,-0.008928758935874572,-0.5557371326144405,-0.0069471198865168485,0.831281092184002,-0.03636345295693586,0.28287239371385003,-1.0198001687822258,-0.03272813762754459,0.5114152306514778,-1.0550241853441011,-0.0528350043937898,0.7428895109761168,0.8258972009824472,-0.10518316435562242,0.5493633656639658,1.041940774768207,0.0,0.0,0.0,0.0
0.032940845224443856,-0.051349905732659816,0.7621109012427932,-0.008707004160297984,-0.5557733367100574,-0.00716122918897238,0.8312574228704516,-0.03968813871671826,0.2891176875206109,-1.0129368297705148,-0.02730497295762447,0.5086362463034891,-1.0564121212631918,-0.04244303794962931,0.735377131707003,0.8291721800069801,-0.10717652547126427,0.5514340771907597,1.029716473922726,0.0,0.0,0.0,0.0
0.03154758891809691,-0.05361774731125087,0.761036349564097,-0.008455743664060296,-0.5557850406707157,-0.007384082941562955,0.8312502416750631,-0.042551393692894894,0.29543099698413217,-1.0050315615199987,-0.021184171393467278,0.5048226500840739,-1.0570545768422408,-0.0306786741402177,0.7265780023312878,0.8326045722481442,-0.10821576543173123,0.5538142947650984,1.0167996375429647,0.0,0.0,0.0,0.0
0.029842023049831072,-0.05617100537522968,0.7598578092893084,-0.008180834956693783,-0.5557715823250672,-0.007607951190232011,0.8312599721495012,-0.04495539561941271,0.30123719563231405,-0.9963696110625295,-0.014340943956941622,0.4997203783823487,-1.0564324621631922,-0.0174773651217996,0.7165704745447852,0.8357495847769386,-0.10837238190119215,0.5561912409345771,1.003600932256167,0.0,0.0,0.0,0.0
0.02777023666516134,-0.05901528021289042,0.7585914174624561,-0.0078896508776328,-0.5557311421527991,-0.007822958826532686,0.8312878276299809,-0.04691186024422755,0.3062596043331611,-0.9870987354560644,-0.006784601229087337,0.49302326658425,-1.0539706372180289,-0.0028584386205873762,0.7053809383170541,0.8382775248945213,-0.10764971361979493,0.5583480003316991,0.9902834501974723,0.0,0.0,0.0,0.0
0.025280465468752483,-0.062141251728998474,0.7572479471280807,-0.007591322968157171,-0.5556626310446305,-0.008018530158971247,0.8313345388291296,-0.04845276489853003,0.3104065236537735,-0.9773190577231701,0.0014297261164073621,0.48439130747125725,-1.0490358650253158,0.013036164324500605,0.6930337347825891,0.839946873576275,-0.10606856672243214,0.5601316274442842,0.9768680879537557,0.0,0.0,0.0,0.0
0.022329451477898766,-0.06551892051993229,0.7558370151646248,-0.007297212583641848,-0.5555669856112826,-0.008184163808468032,0.8313994795825038,-0.049646600548567656,0.313692615563496,-0.9671498177668411,0.010187938494631848,0.4734744225337162,-1.0409449092760295,0.02992258517931718,0.679592281299307,0.8405845089829906,-0.10371820519846463,0.5614343603048799,0.9632931996726813,0.0,0.0,0.0,0.0
0.01889126352435115,-0.06909288916344399,0.7543706843227496,-0.007021272060277475,-0.555447786988233,-0.008310038081953356,0.831480246870367,-0.05061954926753883,0.3162120530745432,-0.9567657824900343,0.01930739152369039,0.4599527273782682,-1.0290053066071336,0.04737928180209584,0.6651908870028452,0.8400777219296628,-0.10079649092496,0.5621841765914808,0.9494520334880808,0.0,0.0,0.0,0.0
0.014970853251860788,-0.07277986816232555,0.7528650827866645,-0.006779494119250171,-0.5553114791676179,-0.008388372807715283,0.8315725072209867,-0.05157925834171514,0.3181674030031825,-0.9464034573199651,0.028536626429163874,0.44360696333847,-1.0126195437188519,0.06487058663537368,0.6500552952049173,0.8383944936790065,-0.09766354508782829,0.5623548405329222,0.9352264937046953,0.0,0.0,0.0,0.0
0.010625252050222536,-0.07646912880101683,0.7513355884739362,-0.0065870287327315985,-0.555167443895657,-0.008416653133158298,0.8316699346741306,-0.052831161463164064,0.31995253845513455,-0.936345058286978,0.037569265198685996,0.42443515844401947,-0.9915020375115268,0.08177825659980481,0.6344918765138636,0.8356856293949853,-0.09493667790360263,0.5620169749731062,0.9205305376375854,0.0,0.0,0.0,0.0
0.00599495971993926,-0.08002456595161542,0.7497707251672697,-0.006453695398134209,-0.5550254204338129,-0.008393038139294885,0.8317660063976946,-0.05479656777190696,0.32224890761411545,-0.9269262248641914,0.04604832424801586,0.4028285812812521,-0.9660931868282124,0.09747857461738169,0.6187292128607838,0.8326225098207335,-0.09360399221165697,0.5614514548971247,0.9054103036590649,0.0,0.0,0.0,0.0
0.0015390045924521933,-0.08339886117373162,0.7480777134456649,-0.006359274760061786,-0.5547764139181703,-0.00835704792297857,0.8319332004041153,-0.05775888433442888,0.32543438247507067,-0.9176721674177578,0.053964581418839405,0.38118919665170214,-0.9411202526300929,0.11167285434013888,0.6028864485551799,0.8304654660456439,-0.09514155646452663,0.561892527826019,0.8896266395395743,0.0,0.0,0.0,0.0
-0.002423899468069271,-0.0863481775797521,0.7463531973206543,-0.006275719393348201,-0.5544993580279455,-0.008345951044462254,0.8321186348074748,-0.06184572385189917,0.3299305589530929,-0.9094890426776693,0.06083549748929888,0.361098288989975,-0.9183732186225985,0.12327721659438248,0.5880030018892733,0.8300309091000638,-0.10197596222636165,0.5629018721408204,0.8730550883183534,0.0,0.0,0.0,0.0
-0.005562046714852537,-0.08857855153201506,0.7447413152027755,-0.0061616368813411666,-0.554245428571203,-0.008408191462309861,0.8322880159266978,-0.06663974145785884,0.33516768165617306,-0.9035395787489782,0.06609560396609222,0.34434792885331195,-0.9000038384402324,0.13106206055471636,0.5751637992363108,0.8320995869959938,-0.11600329466413833,0.5639151038338941,0.855200944124654,0.0,0.0,0.0,0.0
-0.007424387201696673,-0.08981387686931964,0.7435168229989273,-0.005988761007793594,-0.5540695818566843,-0.008553109188259335,0.8324048759623913,-0.0705025228194205,0.3393110996317069,-0.9008345803218298,0.06915568240314096,0.33373468195248,-0.8892557701917531,0.1341983368145403,0.5663016851454387,0.8362448714074087,-0.1340559968230492,0.5653353371823915,0.8368755421139568,0.0,0.0,0.0,0.0
-0.007450294695756682,-0.08997185235072391,0.7434208307577413,-0.00586995640215128,-0.554092196278112,-0.00852176959568738,0.8323909905077619,-0.0705068610118508,0.3393233679871394,-0.9008556891417616,0.06933060807960856,0.3335232547421983,-0.8891953448254738,0.1342388702775381,0.5661977726206332,0.8361491316254631,-0.13408083608523944,0.5653745032353628,0.8368856070419787,0.0,0.0,0.0,0.0
-0.007450294695756682,-0.08997185235072391,0.7434208307577413,-0.00586995640215128,-0.554092196278112,-0.00852176959568738,0.8323909905077619,-0.0705068610118508,0.3393233679871394,-0.9008556891417616,0.06933060807960856,0.3335232547421983,-0.8891953448254738,0.1342388702775381,0.5661977726206332,0.8361491316254631,-0.13408083608523944,0.5653745032353628,0.8368856070419787,0.0,0.0,0.0,0.0
-0.007450294695756682,-0.08997185235072391,0.7434208307577413,-0.00586995640215128,-0.554092196278112,-0.00852176959568738,0.8323909905077619,-0.0705068610118508,0.3393233679871394,-0.9008556891417616,0.06933060807960856,0.3335232547421983,-0.8891953448254738,0.1342388702775381,0.5661977726206332,0.8361491316254631,-0.13408083608523944,0.5653745032353628,0.8368856070419787,0.0,0.0,0.0,0.0
-0.006553480396438895,-0.09040097836759992,0.7432997687240033,-0.00588074656189984,-0.5543654900127587,-0.008335139613411209,0.8322108180926355,-0.07005860261709353,0.3438141960568976,-0.9073845429703583,0.06997989198360498,0.3393290880816379,-0.8977102394349304,0.13746433310048956,0.5674841912862533,0.8368928939797058,-0.1323189635426535,0.5663599878504197,0.8422183405363697,0.0,0.0,0.0,0.0
-0.004848799250879924,-0.09112460426524174,0.7431055329152342,-0.005855385543861321,-0.5546284591777481,-0.008245751459001105,0.8320366544288335,-0.06885943075588796,0.3527407613827645,-0.9212225206624279,0.07166161520160684,0.3504812569035871,-0.9156385104884814,0.14200814921375313,0.5699377275141247,0.8381714243734358,-0.13023635544669487,0.5678104202319649,0.8501679169335548,0.0,0.0,0.0,0.0
-0.0023873981308059015,-0.09224632829140891,0.7429016580719751,-0.005771300869497125,-0.554912210117716,-0.008260635371947137,0.831847878552201,-0.06662378423460352,0.3655064248107406,-0.9408397811453678,0.07463035653091785,0.3665846555042481,-0.9418972793825087,0.1482388752371743,0.5741292672823206,0.8387117387259375,-0.12744159715830747,0.5701009489688373,0.8603871562734654,0.0,0.0,0.0,0.0
0.0008401247045084527,-0.09401869539713571,0.7430536688586462,-0.0055691755247263336,-0.5553343512095538,-0.008449393585949238,0.8315656019813882,-0.06254786129623478,0.38190743350365103,-0.9634718696807766,0.07962493937682621,0.38802704380623354,-0.975172865136118,0.15688557298720823,0.5829866463675419,0.8338237393900431,-0.12327901055081428,0.5754806343139959,0.8702625217291508,0.0,0.0,0.0,0.0
0.00512127098391283,-0.09711303724477294,0.745134635612698,-0.005090167685818599,-0.5564442335935026,-0.009140117677950468,0.8308190918258336,-0.05417016730559485,0.40394076104895543,-0.982162361177295,0.08887312667850394,0.4184395944573942,-1.0128302024719473,0.16950428065982154,0.6089802880574184,0.8060742987941842,-0.11684165961945078,0.5938638059150531,0.8678579223546974,0.0,0.0,0.0,0.0
0.008533373736582462,-0.1000187036388618,0.7468096436086067,-0.005084508523982061,-0.555937135255676,-0.008882426293591351,0.8311613272523697,-0.04811501814739497,0.42093060483772216,-1.0037379720050346,0.08132706859915567,0.3911069001722293,-0.9739829023338927,0.14506749433999772,0.5995775517549313,0.841926151327571,-0.10263866079938025,0.6084048924231951,0.8638887672086382,0.0,0.0,0.0,0.0
0.01236343073580633,-0.10304246008727617,0.7483957735822113,-0.005046226613527368,-0.5555775057784871,-0.00881226803174213,0.831402739111471,-0.04129917402476455,0.4396357853564005,-1.0271006705377126,0.07338691247340112,0.37111962607339105,-0.9548192771452636,0.12322151897309777,0.5949911438530907,0.8703262290830533,-0.0885614340251196,0.6233667792075501,0.8611929482332977,0.0,0.0,0.0,0.0
0.016074480276255753,-0.10617031240862973,0.749960562569508,-0.0048810584857843465,-0.5554561340265556,-0.00891559016762091,0.8314837164324353,-0.033759135834547566,0.456990951559285,-1.0465204728803859,0.06681923962080759,0.35736476317485777,-0.9486111371667775,0.10971134258128501,0.5915845115335492,0.8929401058009652,-0.07484429394765567,0.6383605242503602,0.8588506360206002,0.0,0.0,0.0,0.0
0.01945143952143697,-0.10931918418968706,0.7515101604295621,-0.004631129222780829,-0.555451713080657,-0.009104347969318327,0.8314860539575748,-0.025885392645279517,0.4720912270224543,-1.0614134707024412,0.06185123631427457,0.347529461309253,-0.9493879517567005,0.1028168930579172,0.5883416713277785,0.9116797492915893,-0.06116080619970728,0.6530129025530679,0.8561766636182238,0.0,0.0,0.0,0.0
0.022392295571384002,-0.11242994717374952,0.7530206803722798,-0.004343475343122655,-0.555490156263519,-0.009323597964531603,0.8314594945259033,-0.01794726831208956,0.48457467913633645,-1.071920550893937,0.05821417398852761,0.34001853271505106,-0.9538063242547365,0.09981175434805689,0.585105707963508,0.9279574679611655,-0.04731421325757549,0.6669261252550943,0.8531370194835972,0.0,0.0,0.0,0.0
0.024874372479546318,-0.1154544407807651,0.7544710480218807,-0.004049952303352872,-0.555533766230175,-0.009543571255001427,0.8314293431868751,-0.01014423870967256,0.4944625969014196,-1.078532892197252,0.05545416308632749,0.33374624578097745,-0.960027440617402,0.09870041347222887,0.5818464573896912,0.9427208005524422,-0.03332220408747921,0.679853450711947,0.8498355539923633,0.0,0.0,0.0,0.0
0.02692416017281671,-0.11835447228452081,0.7558508967643197,-0.003767974704992642,-0.5555670280542463,-0.009751122574842803,0.8314060351682114,-0.002620608660918027,0.5020076487741234,-1.0818861115175702,0.05313554026655275,0.3279929775419286,-0.967042407934251,0.0983173970337476,0.5785090934476108,0.9565913504847344,-0.01935001201684316,0.6917101408382933,0.8463428894196505,0.0,0.0,0.0,0.0
0.028594318005098564,-0.12110277436032095,0.7571584510975897,-0.0035056551699075896,-0.5555861048024094,-0.009942112431762079,0.8313921727636783,0.004526433861558642,0.5075740137024722,-1.0826452749459348,0.050926260389469756,0.32230175504652236,-0.9743020799484325,0.09805019756476317,0.5750265283718649,0.9699760640702272,-0.0056162492757162,0.7025278200677975,0.8426803744296101,0.0,0.0,0.0,0.0
0.02994771739045946,-0.12368288045453435,0.7583964270565134,-0.003266018637226058,-0.5555923337729017,-0.010116527609172933,0.8313868820496115,0.011239495554986038,0.5115548957336936,-1.0814404177836792,0.048609359685291516,0.31639442950174673,-0.9815160771114654,0.09759252895395587,0.5713503255389806,0.9831412856450198,0.007675434512184625,0.7124023967626969,0.8388466643835061,0.0,0.0,0.0,0.0
0.031047340336192795,-0.12608761384657505,0.7595687658156975,-0.0030495078600772016,-0.5555887186444207,-0.010275913162019793,0.8313881655553852,0.017492782956054567,0.5143227890216392,-1.0788328456481873,0.04606132804270323,0.3101064973205787,-0.9885425624912328,0.09679589371236796,0.5674689203907337,0.996257191638943,0.020369558119396593,0.7214532071952955,0.8348433526989558,0.0,0.0,0.0,0.0
0.031950565138310974,-0.12831674192122963,0.7606783777242325,-0.0028553588856150432,-0.5555782602226507,-0.01042211247495471,0.8313940240735234,0.02328317994385452,0.51620388426812,-1.075302611237166,0.04322258590916286,0.30334544399826424,-0.9953235806941195,0.09559375978998011,0.5634154217873516,1.0094201691925806,0.03236623178353863,0.7297946558177689,0.8306924408589232,0.0,0.0,0.0,0.0
0.03270642906806381,-0.13037436038587075,0.7617252738202954,-0.002682390249312768,-0.5555631345072594,-0.010556674193301193,0.8314030099710944,0.02862153641881706,0.517468098120409,-1.071251579568412,0.040071688504966375,0.29608021425970416,-1.0018378131480488,0.09396262697077376,0.559272337259019,1.0226560657876678,0.04361384370332977,0.7375152850430439,0.8264503758685071,0.0,0.0,0.0,0.0
0.033354595754107014,-0.1322664512088077,0.7627043894676385,-0.002529600376311867,-0.5555441676473458,-0.010680517866969757,0.8314145809721207,0.03352506731853512,0.5183271293201024,-1.067016645766649,0.03660619175300437,0.28837244365146936,-1.008051162125675,0.0918942102981798,0.5551781066291969,1.0359008991009226,0.05409664422403847,0.7446584292510459,0.8222264571023751,0.0,0.0,0.0,0.0
0.03392484347598695,-0.13399896415787835,0.7636027016268432,-0.002396798238354242,-0.5555203937019542,-0.010793667750438782,0.831429398250942,0.03801166974023979,0.5189336969383062,-1.0628859158312747,0.032829148904213075,0.28045848112278954,-1.0138512375671416,0.08935910608936254,0.551338653109249,1.048947860038183,0.06382402353589643,0.7511999863371779,0.8182112236161938,0.0,0.0,0.0,0.0
0.034436072968980484,-0.13557681801095797,0.7643958601698124,-0.0022853961946639346,-0.5554887932392972,-0.010894997920605394,0.8314495033194094,0.04209707844795125,0.5193761859305025,-1.059108046667574,0.028739640113690488,0.27287588676628194,-1.0189616508437243,0.08624482144596128,0.5480512336725542,1.0613409566676177,0.07282652197281984,0.7570229680406289,0.8147144496139969,0.0,0.0,0.0,0.0
0.034894562939272775,-0.13700437152084452,0.7650459274206052,-0.00219929209851018,-0.5554447502805765,-0.010982050756693583,0.8314780135765413,0.0457960256477078,0.5196670693764356,-1.0558831249846203,0.02432787605626283,0.26658283192483156,-1.0228525685324237,0.08226104106784178,0.5457628605316693,1.0721888177359238,0.08116208321094627,0.7618993499454957,0.812197688847166,0.0,0.0,0.0,0.0
0.035293294723874956,-0.13828780615177516,0.7655050780037731,-0.002144921282091719,-0.5553844541381854,-0.011051554249717101,0.8315175106773093,0.04912856128640633,0.5197366761908665,-1.0533253514443128,0.019579690069245308,0.26292207938529794,-1.0246973094603546,0.07685156605696263,0.5452116468825449,1.0798761378571,0.08892659426287135,0.7655150969255509,0.811248118428313,0.0,0.0,0.0,0.0
0.03561832886546649,-0.13943826585027763,0.7657365736514675,-0.0021267834873448994,-0.5553124865505669,-0.011103609052187659,0.8315649276749474,0.05213112689577025,0.5194730826559245,-1.0513907773538214,0.014499084814564637,0.2631378458767408,-1.0234909091360962,0.06930593382173876,0.547663717239335,1.081789812730567,0.09622114494739042,0.7676214058611965,0.8123618065636319,0.0,0.0,0.0,0.0
0.03585911728667957,-0.14046778306170177,0.7657424569379065,-0.002143370260383993,-0.5552286836518806,-0.011138124198271962,0.8316203803439828,0.054833481610555755,0.5188084660541862,-1.0499603814192058,0.009144925860659323,0.2672104939712411,-1.0192030388863684,0.05971307631972457,0.5530507064883337,1.077843067551887,0.10310458959361654,0.7682017012223781,0.8155693164978125,0.0,0.0,0.0,0.0
0.03601045492072126,-0.14139091089325947,0.7655652883125188,-0.0021873367304549255,-0.5551277826626845,-0.011154810218140247,0.8316873996178108,0.05726276849207038,0.5177269437380998,-1.0488453745238622,0.0036291373790445355,0.2738786090662003,-1.0128176846961179,0.04892518326680359,0.560002075223759,1.0704999919100981,0.10959839890360049,0.767484973864201,0.8204173003181082,0.0,0.0,0.0,0.0
0.03606298745729382,-0.1422292647367167,0.7652616853276432,-0.002250067376641594,-0.5550121511937194,-0.011156568068559258,0.8317643778216594,0.0594667734960955,0.5161806349977001,-1.047705115868421,-0.001933007112445627,0.28179617486709496,-1.0051582306996267,0.037599021714234335,0.5677180010555594,1.0612707018563012,0.1157387571136332,0.7657866407768674,0.826329651211606,0.0,0.0,0.0,0.0
0.0359961699798742,-0.14300768276373396,0.764881005531908,-0.002325980261416052,-0.5548845231794093,-0.011145558639536157,0.8318494649120091,0.06150097813459063,0.5140478184492732,-1.0461161735527953,-0.007448223463828617,0.29000717598496945,-0.9967484394283097,0.026103538719188097,0.5757176417298597,1.0509780109925713,0.12160218516400453,0.7633508113900743,0.8328318142278769,0.0,0.0,0.0,0.0
0.03577882954836168,-0.14375170169200574,0.7644611074068053,-0.0024122173734104366,-0.5547458401522017,-0.011122904497498603,0.8319420142273803,0.06342202992081246,0.5111394497471935,-1.043610221255691,-0.012844159108770722,0.2979812376316722,-0.9878591807207852,0.014619127364243338,0.583683551067283,1.040037039304625,0.1272873438532053,0.7603194783204023,0.8395856852864193,0.0,0.0,0.0,0.0
0.035371770533160006,-0.14448709248422267,0.7640302753648732,-0.00250774278914291,-0.554594899013612,-0.01108892295858446,0.832042814404285,0.06528645980290779,0.5072147323813,-1.0396893102753648,-0.018063493131496782,0.3054931914902695,-0.9786039454981164,0.0032301076393369873,0.5913920359808125,1.0286400968842389,0.13290312614942848,0.7567498803120841,0.8463607689313338,0.0,0.0,0.0,0.0
0.03473075821700408,-0.14524018212858122,0.7636103422391042,-0.00261278322561779,-0.554428631770505,-0.011043316501972692,0.8321538985052818,0.06715130298749432,0.5019962058610232,-1.0338322046367705,-0.023065768876629027,0.3124940289554372,-0.9690268586431984,-0.00802681060752219,0.5986799747588636,1.016870588723443,0.138564701560874,0.7526429272945485,0.8529950595556415,0.0,0.0,0.0,0.0
0.03381041106703357,-0.14603765977461258,0.7632190618717308,-0.0027286978811840246,-0.55424253119129,-0.01098520797943634,0.8322782563735482,0.06907345726122777,0.495188661205814,-1.0255095591422567,-0.027840088207504724,0.31902679922247984,-0.9591652465364741,-0.019151794679991854,0.6054263520150144,1.0047745977768046,0.14439072158789065,0.7479705662781747,0.8593632658465333,0.0,0.0,0.0,0.0
0.03257041164234098,-0.1469047236289923,0.7628710248996867,-0.0028582297718908805,-0.554031031327599,-0.01091291731764296,0.8324195787487619,0.07110494794847828,0.4865115957976668,-1.0142276642610735,-0.03242631859352231,0.3251952316511595,-0.9490871546249608,-0.03020242599175492,0.6115466364644995,0.9924158869648338,0.15049560363429662,0.7427010369306224,0.8653562339632681,0.0,0.0,0.0,0.0
0.030985806604513125,-0.14786038150244749,0.7625767755777768,-0.003006215423675134,-0.5537877488908077,-0.010823217347649463,0.8325820979420129,0.07328108993168361,0.4757583612712991,-0.9996250535411881,-0.03693833214031553,0.33117574029895036,-0.9389098782312363,-0.041354127492257746,0.617010826961952,0.9799377975837716,0.15697353116532983,0.7368248589180272,0.8708722999722103,0.0,0.0,0.0,0.0
0.029063431150299666,-0.1489085521258508,0.7623395435921014,-0.0031811524732835504,-0.5535053731731313,-0.010709460647769379,0.8327706704669949,0.07559803340668418,0.46289988376445146,-0.9816576153120596,-0.04157709790693951,0.33725670492383286,-0.9288064891617863,-0.05303726181867968,0.6219081851490109,0.967656343122348,0.1638758039673369,0.7303840136242351,0.8758253898015681,0.0,0.0,0.0,0.0
0.026866697195969468,-0.150023540658838,0.7621479025097333,-0.0033986649901548184,-0.5531742635244237,-0.010557309567581614,0.832991732531116,0.07797576849230935,0.44825784058664037,-0.9609307788331702,-0.04661434981225242,0.34387586793730235,-0.9190076296260663,-0.06623796029049245,0.6265985341584531,0.9562081624139775,0.17119232454055633,0.7235002152285873,0.8801876467219305,0.0,0.0,0.0,0.0
0.024550201321288257,-0.1511282781779865,0.7619594071286447,-0.0036891103342625697,-0.5527707557106408,-0.010335044697625575,0.8332611049047751,0.0802008944472944,0.4327806833865401,-0.939308198953677,-0.05233541649430827,0.3515510124984285,-0.9097703568841295,-0.08312397172561917,0.6320009252627745,0.946715781461343,0.1788527166981083,0.7163579496477784,0.8840999645153267,0.0,0.0,0.0,0.0
0.022501242110420205,-0.15201587976489203,0.7617035548555036,-0.0041115955331593994,-0.55217519660932,-0.0099790370175853,0.8336582428380541,0.08175077698115385,0.4191836430054594,-0.9221962948414518,-0.05931532821124985,0.36038364420356134,-0.9011187272499109,-0.10824634138028336,0.6400724546188193,0.940591159745468,0.18640573309974823,0.7093649251700085,0.8874635098974893,0.0,0.0,0.0,0.0
0.020879428404862534,-0.15262706518607164,0.7615117208223813,-0.00467710854897845,-0.5514310888228477,-0.009459578476027502,0.8341537000519301,0.08244219729395819,0.40875573462616605,-0.9110824636173439,-0.0668821521651345,0.36986015295025626,-0.8947255540631218,-0.1443480830834996,0.6501241419577507,0.939895849241466,0.19389313961298385,0.7038240384077582,0.8889714879522661,0.0,0.0,0.0,0.0
0.01991258457068176,-0.1528830781693585,0.7615167302669195,-0.005253751353307294,-0.550635626314215,-0.008848510205197255,0.8346822802704141,0.08214531879748167,0.4031234751675571,-0.9073922673734552,-0.07312178515700364,0.3781293707988077,-0.8934391137381071,-0.1861016954023751,0.6584933530298837,0.9461645145947539,0.19996348007888534,0.700996783483533,0.8873873228387651,0.0,0.0,0.0,0.0
0.01989687091970128,-0.15286579791873378,0.7615007981251939,-0.005302255190551727,-0.5506293254721203,-0.008841995581102727,0.834686199199529,0.08212329607109854,0.40301820756338746,-0.9073594128346754,-0.07315606210113967,0.37814774098230736,-0.8934403948437238,-0.18610673703501712,0.6585184456065004,0.9461756145967978,0.19998152693544094,0.7009213671263315,0.8873299258772053,0.0,0.0,0.0,0.0
0.01989687091970128,-0.15286579791873378,0.7615007981251939,-0.005302255190551727,-0.5506293254721203,-0.008841995581102727,0.834686199199529,0.08212329607109854,0.40301820756338746,-0.9073594128346754,-0.07315606210113967,0.37814774098230736,-0.8934403948437238,-0.18610673703501712,0.6585184456065004,0.9461756145967978,0.19998152693544094,0.7009213671263315,0.8873299258772053,0.0,0.0,0.0,0.0
0.020096496792131536,-0.1531029808106703,0.7615042493578152,-0.005447971859827723,-0.5509456768494436,-0.008755282457436316,0.8344773968134868,0.08260750472707457,0.4034112711673228,-0.9066415885352429,-0.0726572040665628,0.37960126280429407,-0.8940928840906874,-0.18411723427295196,0.6596224490939632,0.9463783545567769,0.2035816091573666,0.7027235848827329,0.8889477819047559,0.0,0.0,0.0,0.0
0.020708073032313888,-0.1533927391124185,0.7614522819067961,-0.005518428588067607,-0.551196749694816,-0.008712991929982117,0.8343115568200028,0.08332485918036363,0.4061233176000788,-0.9099076597067386,-0.07209372758114474,0.3836396622107466,-0.8995931532542123,-0.18287558236438703,0.6614427552359617,0.947026828466687,0.20723857814584087,0.7049336816486214,0.8912430146779874,0.0,0.0,0.0,0.0
0.021836299048181525,-0.15365567309511985,0.7613575382107982,-0.0054943982852033,-0.5514864292798514,-0.00876255288750607,0.8341197441462087,0.08417510875505411,0.41185263040156095,-0.9176651995702682,-0.07156938029829986,0.39056519341951323,-0.9099226364820855,-0.18358912186916065,0.6647575188121447,0.9485691647938526,0.21036425841940298,0.7080943855960922,0.8941063050084848,0.0,0.0,0.0,0.0
0.02355334097179666,-0.1538565110436265,0.7613129471890946,-0.005327953292449513,-0.5519788378412984,-0.008997206315291793,0.8337925555961765,0.08522615769421278,0.42097647181788794,-0.9291521573857074,-0.07098126561048755,0.40056547679811105,-0.9244127723639763,-0.18774415627245872,0.67103178490644,0.9506809145225434,0.21225061592651767,0.7131959234385122,0.8968183914077201,0.0,0.0,0.0,0.0
0.025975860606450317,-0.15402843962979523,0.7617497803878591,-0.004985310858621873,-0.553109104754148,-0.009642789305444713,0.8330381032870697,0.086965575561316,0.4340419462711253,-0.940997560824075,-0.0696959073389281,0.41425335177653055,-0.9407008738957978,-0.19777746111185554,0.684789279977875,0.9502950069976944,0.21229353302598902,0.7238142102634144,0.8959507525679077,0.0,0.0,0.0,0.0
0.028003685283024406,-0.15474074636191346,0.7622464460831317,-0.006125986852470564,-0.5527402078064357,-0.008302870278860262,0.8332897439092323,0.08009015076278034,0.4123764144671415,-0.9234138150974296,-0.07051023465627214,0.42792562535647516,-0.9585463446282553,-0.17964632721714138,0.6875631167720736,0.9419944858335623,0.16635073694910796,0.699579514203201,0.9084184820559857,0.0,0.0,0.0,0.0
0.03017904164225469,-0.15545247241970417,0.7628533917982404,-0.006989465159695781,-0.5527330564205003,-0.007423880988673668,0.8332959868545506,0.07029793241129911,0.39503055089412387,-0.9183077457503289,-0.0704585136811333,0.4420589553259858,-0.9760108960847838,-0.16660723208763428,0.6935658173691613,0.9337024045446304,0.125059441740938,0.6800457656898641,0.9188064245836357,0.0,0.0,0.0,0.0
0.032321824636780655,-0.1561151873266753,0.7634746431721408,-0.0074678751585206,-0.5529943489708674,-0.007054792250831253,0.8331216662368114,0.061224429316848294,0.3822371819663593,-0.9208728282216176,-0.06962214321462938,0.4555790290725827,-0.992458559639041,-0.15952873169119788,0.7018522107570692,0.9262627798021095,0.09541210350604573,0.6665491059257272,0.9294854491334766,0.0,0.0,0.0,0.0
0.03424767268678376,-0.15672890498468062,0.764063113923463,-0.007742103572545077,-0.5533286061721013,-0.006919051040321614,0.8328983372276673,0.05364216452015489,0.37242509409851504,-0.9274016078418252,-0.06848082370864726,0.46761583659350386,-1.0069472348321324,-0.15519610172348558,0.7103806390486413,0.9194343242543045,0.07426829333585819,0.6568947328919329,0.9406872082546521,0.0,0.0,0.0,0.0
0.03585859866474702,-0.1573089572224379,0.7646238121646638,-0.007939381647577811,-0.5536410786736132,-0.00684558456719481,0.8326894140050692,0.04729921513291091,0.3644047388552622,-0.9357979040069869,-0.06727770627892732,0.4777938468331174,-1.0189007939385568,-0.1514958343275027,0.7181260044314541,0.9127906743781021,0.05806020733371364,0.6491761897232733,0.9521715547414411,0.0,0.0,0.0,0.0
0.03712710515269406,-0.15787186080612325,0.7651749145116155,-0.00811501934520109,-0.5539065557394757,-0.006771193486946985,0.8325117566188602,0.041701821405759676,0.35736302745553,-0.9449505575074157,-0.06606876301590496,0.48608123875932,-1.0281812802251822,-0.1475250114274584,0.7248063712583764,0.9060411991676732,0.04441606940628422,0.6422018182700363,0.9637012894789089,0.0,0.0,0.0,0.0
0.03806976279317752,-0.15843268481663522,0.7657288224744792,-0.00828621443476734,-0.5541269581174723,-0.006683455587199628,0.8323640936268408,0.03641869531282228,0.35073223790037766,-0.9543000594431952,-0.06483454416479091,0.4926414872265606,-1.0349763862683456,-0.14302427203420615,0.7304690159867557,0.8990513176547673,0.032031760856889635,0.6353216123939037,0.975130194375366,0.0,0.0,0.0,0.0
0.03872713000197441,-0.1590037456063642,0.7662889764847369,-0.008452228252243673,-0.5543147950756666,-0.006591480560765233,0.8322380790265552,0.031178194322214137,0.34414281183434925,-0.9635801360771843,-0.06353222686125413,0.49772941994124176,-1.039648568270101,-0.1380604255336445,0.7352956929316126,0.891809825678443,0.020222216772765294,0.6282245404871959,0.9863931097164158,0.0,0.0,0.0,0.0
0.039147326085127145,-0.1595973373033066,0.7668510781215825,-0.008614014253890929,-0.5544738418276356,-0.006496763514881583,0.8321312093361044,0.025837309864427692,0.33731771016991563,-0.9726713573633408,-0.062138042567741976,0.5016276240813958,-1.042648822489326,-0.13263951990431802,0.739411117752947,0.884341488332641,0.00871306871246177,0.6207635406343865,0.9974748003518008,0.0,0.0,0.0,0.0
0.03938030636645091,-0.1602204098484045,0.7674073463379241,-0.008762769537534524,-0.5546188249892167,-0.006415105046468516,0.8320336647425124,0.020372457912390285,0.3301375446811045,-0.981536016955203,-0.060616249829727936,0.5045999112379765,-1.0443910414616477,-0.1269827553136743,0.7430093374397859,0.8767556613622295,-0.002704818024362333,0.6129254241227887,1.008383652719234,0.0,0.0,0.0,0.0
0.03946928895762626,-0.160880392368506,0.7679472951495642,-0.008894503658870904,-0.5547567723302683,-0.006353215082312708,0.8319407719402162,0.014805162552801236,0.32251928401218716,-0.99016728653584,-0.0589463012058955,0.5068756551188187,-1.0452572118034222,-0.12118909966854287,0.7461987259621808,0.8691598528197589,-0.014114848923436299,0.604743739445477,1.0191247196003295,0.0,0.0,0.0,0.0
0.039448457464553104,-0.16158622591324953,0.768458482640768,-0.009007666002263943,-0.5548901447422924,-0.006313146411443785,0.8318509081581008,0.009177375657418056,0.31442724286678936,-0.9985548947794682,-0.05711106052699932,0.5086405642901636,-1.0455794730356232,-0.11527657912592558,0.7490203278056129,0.8616631019629108,-0.025543032816929705,0.5962900919192295,1.0296744413123065,0.0,0.0,0.0,0.0
0.03934214002574584,-0.16234934704464615,0.7689249808225567,-0.009100774819845746,-0.5550194303354469,-0.006296210816409664,0.8317637678915508,0.003539118864615905,0.3059182818009899,-1.0066458150640019,-0.05508703353816822,0.5100323525202337,-1.045639505483033,-0.10922431720701484,0.7514567290841951,0.8544003335914451,-0.03698305271069109,0.5876820657438295,1.039946157331652,0.0,0.0,0.0,0.0
0.03916400948850367,-0.1631852956602697,0.7693243069591663,-0.00917227003649993,-0.5551423347543478,-0.0063026715182223055,0.8316809087370003,-0.0020577501960268784,0.2972179242885706,-1.014285095383215,-0.05284137137277352,0.5111380557349319,-1.045681798629833,-0.10296327025421248,0.7534097618602617,0.8475586563921355,-0.04837067072353689,0.5790949996466139,1.0497299190936227,0.0,0.0,0.0,0.0
0.03891605911914496,-0.16411435488038006,0.7696236171241643,-0.009219966918877871,-0.5552536631062309,-0.006331724480356052,0.8316058387735333,-0.007557474605263955,0.2888377759278414,-1.0211404501852672,-0.05033088801044909,0.5119865644768803,-1.0459195119601818,-0.0963798895774364,0.7546767842522033,0.84141696604578,-0.05952681629433768,0.5707935243745019,1.0585869113111113,0.0,0.0,0.0,0.0
0.038587369975848496,-0.16515988683766947,0.7697767807086792,-0.009239188912402517,-0.5553478651644778,-0.006383459549697688,0.8315423245329581,-0.012893348933608476,0.2816888387036631,-1.0266349873375213,-0.04750306945813231,0.5125336832510827,-1.0465166070955187,-0.08935948754303781,0.7549452779747994,0.8363926163821339,-0.07006659917016564,0.563211590133112,1.0656732304540395,0.0,0.0,0.0,0.0
0.03815449429317994,-0.16634370771877893,0.7697275158694055,-0.009219278521154329,-0.5554259961117264,-0.0064639719674344,0.8314897382489156,-0.017979178034314515,0.2770583033914512,-1.0299394727123248,-0.044298185360830085,0.5126509502465434,-1.0475362284816752,-0.0818813984193914,0.75384852135761,0.8330453020344476,-0.07932295292846799,0.5571273756629385,1.0694695209807872,0.0,0.0,0.0,0.0
0.03758826549848952,-0.16768214742543755,0.7694311076198327,-0.009143572166925271,-0.5555043095950908,-0.0065872029938434645,0.8314372891962614,-0.022708906591076557,0.276170169839811,-1.0301203069016966,-0.04065394452493644,0.5121639492795708,-1.0488719562466118,-0.07405904057125777,0.7511405329063461,0.8318705968280877,-0.08648141314869154,0.5539060288189772,1.0675228063719675,0.0,0.0,0.0,0.0
0.036859954106353135,-0.169199714298569,0.7688838022124665,-0.009009976020205738,-0.5555824336862488,-0.006752445512171334,0.8313852200941423,-0.02701422701111545,0.27898454846479176,-1.0271252813539882,-0.03650700748060833,0.5109532096003687,-1.0503717631846072,-0.06573436534274721,0.7467279745699744,0.8328071754284766,-0.09141253723967292,0.5535722944599033,1.0598965561783247,0.0,0.0,0.0,0.0
0.035942974990152664,-0.17092933979186425,0.768122547793573,-0.008831142725049274,-0.5556432113464783,-0.00694488826477499,0.8313449351080047,-0.030882905624311487,0.28421351876453943,-1.0218125596281284,-0.031791965757665124,0.5089631213249546,-1.0518546082446487,-0.05650754677626055,0.7406875076741064,0.8352264478677385,-0.09470950180984596,0.554793592383925,1.0491314326074361,0.0,0.0,0.0,0.0
0.03480682293261476,-0.1728976816743488,0.7671959283996341,-0.008616399827320249,-0.5556814867118479,-0.007154508914261265,0.8313198277329381,-0.0343143379415555,0.29050312163067954,-1.0149451152970148,-0.026450679555015184,0.5061015529630775,-1.0529877038415132,-0.04611636094493864,0.7332221426181845,0.8384092598149071,-0.09685704424163628,0.556784201154344,1.0367889922790388,0.0,0.0,0.0,0.0
0.0334108124407997,-0.17512540460962472,0.7661429691531202,-0.008371719558475078,-0.5556965653214059,-0.007374347102420926,0.8313103274989669,-0.0373084786567392,0.2968729663746398,-1.0070358206768153,-0.020438268393960044,0.5021954342477464,-1.0533337032404588,-0.034417098691078646,0.7244907355503293,0.841767595416835,-0.09809154431508622,0.5590770116635186,1.0237198111937007,0.0,0.0,0.0,0.0
0.03170601981730016,-0.177627199206133,0.7649902510832233,-0.008102407732485419,-0.55568782017313,-0.007597016846821856,0.8313168366123717,-0.039865556398009455,0.30275226146616074,-0.9983729694559879,-0.01373094155328402,0.4970002076021768,-1.0523853728611172,-0.021346622309212866,0.7145755320196532,0.8448591852501109,-0.09848461833797832,0.5613678543666919,1.010342431841553,0.0,0.0,0.0,0.0
0.029639607267676338,-0.18040934630324845,0.763755129979269,-0.007816676944371865,-0.5556516370580291,-0.007810681573911303,0.8313417775197097,-0.04199876120258742,0.30786139753178254,-0.9891057402772043,-0.006340259127278485,0.4902199448830438,-1.0495827947023706,-0.006895473057933647,0.7034969299311117,0.8473407570561721,-0.09802249091754003,0.5634441296905494,0.9968240717736108,0.0,0.0,0.0,0.0
0.027161001803750858,-0.18346301394625866,0.7624495415794013,-0.007521972526674235,-0.5555880245016146,-0.008006714908564073,0.831385145089852,-0.04373324901933219,0.31212111460732345,-0.9793391638737037,0.0016833004742732678,0.48152307377133735,-1.0443014674865674,0.008781310869548843,0.6912925925612105,0.8489703645314431,-0.0967381866915818,0.5651589141869479,0.9831890498605161,0.0,0.0,0.0,0.0
0.02422750358613658,-0.18676007902328084,0.7610847632669312,-0.007229382621163211,-0.5554969099752862,-0.00817410899681601,0.8314469934860151,-0.045131745688814895,0.31554932967508864,-0.9691984111588374,0.01022973024395691,0.4705688405631331,-1.0358715537445826,0.025419048002520116,0.6780287886250402,0.8495559155114473,-0.09471145298246805,0.5664079362718523,0.9693792550529123,0.0,0.0,0.0,0.0
0.020813353915559687,-0.19024794077373564,0.7596750488926075,-0.0069522739266305675,-0.5553810050189458,-0.008302922890059726,0.8315255056959325,-0.0463097634748275,0.3182450066323832,-0.9588686279380418,0.019123912734151052,0.45704616323708896,-1.0236125413163752,0.04261264040025401,0.6638486377789243,0.8489560549246314,-0.09213190457102255,0.5671212506948726,0.9552939447075924,0.0,0.0,0.0,0.0
0.016923145032225174,-0.1938470426527213,0.7582395687701593,-0.0067059031819508355,-0.5552460742841414,-0.008385565076740223,0.8316168048764454,-0.04746057013201577,0.3204164268456524,-0.9486031492070874,0.02812518766553107,0.4407432555438424,-1.0069343578577146,0.05984046071161074,0.6489954000756338,0.8470952844349849,-0.08934767749987986,0.5672719440084206,0.9408262093442364,0.0,0.0,0.0,0.0
0.012612887066365652,-0.19745156523636742,0.7567984481409382,-0.006505089731882845,-0.5551009365850271,-0.008419509698945565,0.8317149426735312,-0.04887504146043772,0.32246387582419106,-0.9387068722465403,0.036940696571304235,0.421664839390725,-0.9855508595568924,0.07650117975757575,0.6338073116882419,0.8440519021844158,-0.0869472461483278,0.5669254625337247,0.9259122621406493,0.0,0.0,0.0,0.0
0.008021617537153808,-0.20093223397404386,0.755348260661416,-0.006360291460777413,-0.5549544074177483,-0.008402029310184092,0.8318140166429155,-0.05096486557592682,0.3250801622132572,-0.9295419217370451,0.04522971595158953,0.4002132806832254,-0.9598967459102795,0.09199815397149518,0.6185714319158566,0.840367557759634,-0.08584497884252032,0.5663557422648403,0.9106402509606593,0.0,0.0,0.0,0.0
0.003580900785482252,-0.20424180333589456,0.7538117059584368,-0.00625404819849559,-0.5547110053088173,-0.008376036490153182,0.8319774212580097,-0.05408715280451882,0.3286825905801327,-0.9206587904731715,0.05298922177468436,0.3786471306210188,-0.9343482470908107,0.10600961841852637,0.6035042382005512,0.8371347800892606,-0.08742655712364052,0.5667567987437654,0.8948347340648867,0.0,0.0,0.0,0.0
-0.00036269836884449125,-0.20715492408944255,0.7522847951317498,-0.006160150908735427,-0.5544387142787381,-0.008374568980675876,0.8321596188497189,-0.05827631838687438,0.33376472475002844,-0.912957068717811,0.059772341214032076,0.3587401514014802,-0.9110574344197622,0.11754095308345544,0.5897045212289203,0.8350506350169299,-0.09391118244691656,0.567750321232964,0.8785350160242437,0.0,0.0,0.0,0.0
-0.0034767504901501815,-0.20938532470993157,0.7509099001399983,-0.006038695910585147,-0.5541900394102129,-0.008448301885410316,0.8323253934402453,-0.06311286162159747,0.33989032088670196,-0.9077197906338323,0.06503738938867769,0.3423061321950689,-0.8922219207156843,0.12536320921863514,0.578281716304237,0.834862764441273,-0.10710410781768467,0.5687306335168555,0.8614452836594887,0.0,0.0,0.0,0.0
-0.005311124919821845,-0.2106513156577902,0.7499143229649989,-0.005862696632365867,-0.5540160574307318,-0.008607222572617784,0.8324408403104032,-0.0669785862780275,0.3453101312050379,-0.906234785918223,0.06818633789803563,0.33209882048581946,-0.8812275658344747,0.12860720149370308,0.5708725553423427,0.8366404747842985,-0.12406599019157188,0.5699665333831454,0.8444846350748006,0.0,0.0,0.0,0.0
-0.005338271062891348,-0.21080922320171658,0.7498208265994728,-0.005744348704477119,-0.5540373022791893,-0.008576049822653031,0.832427847630411,-0.06698172232926013,0.34532200554822545,-0.9062567717119444,0.06835943906741741,0.33188654522685473,-0.8811663780748177,0.12864641911960986,0.5707725175367074,0.8365453817544656,-0.124090204147767,0.5700059062765903,0.8444952662557499,0.0,0.0,0.0,0.0
-0.005338271062891348,-0.21080922320171658,0.7498208265994728,-0.005744348704477119,-0.5540373022791893,-0.008576049822653031,0.832427847630411,-0.06698172232926013,0.34532200554822545,-0.9062567717119444,0.06835943906741741,0.33188654522685473,-0.8811663780748177,0.12864641911960986,0.5707725175367074,0.8365453817544656,-0.124090204147767,0.5700059062765903,0.8444952662557499,0.0,0.0,0.0,0.0
-0.005338271062891348,-0.21080922320171658,0.7498208265994728,-0.005744348704477119,-0.5540373022791893,-0.008576049822653031,0.832427847630411,-0.06698172232926013,0.34532200554822545,-0.9062567717119444,0.06835943906741741,0.33188654522685473,-0.8811663780748177,0.12864641911960986,0.5707725175367074,0.8365453817544656,-0.124090204147767,0.5700059062765903,0.8444952662557499,0.0,0.0,0.0,0.0
-0.004452956055773495,-0.21122541917585166,0.7497042510424794,-0.005766736860790961,-0.5543114450115003,-0.00838160434811371,0.8322471480178183,-0.06656434414714943,0.34973747347051504,-0.9126526836032253,0.06896330581845479,0.33764211452496534,-0.8895510496907082,0.13188987104202765,0.5720498887375239,0.8372761829596636,-0.12219776576042363,0.5711417644495586,0.8496072023614483,0.0,0.0,0.0,0.0
-0.0027697357316659476,-0.21191938341252453,0.7495116237244143,-0.005748731198548106,-0.5545787143045169,-0.008287358053026505,0.832070142131333,-0.06542402159606117,0.35852108855081916,-0.9262216996250338,0.07055674280713396,0.348696609161953,-0.9072654680655896,0.13633342432376153,0.5744760591755876,0.8386329821950579,-0.12004861555089022,0.5727761413878989,0.8572162355942397,0.0,0.0,0.0,0.0
-0.00033923391409838464,-0.21299465655396757,0.7493055969929827,-0.005668730926424749,-0.5548685127027694,-0.008300423095296598,0.8318773359559325,-0.06327630956668004,0.3710883123067758,-0.9454702905445179,0.07339327118241436,0.3646570752795708,-0.9332435974813058,0.1423496713830041,0.578609672476246,0.8393577206576688,-0.11724194019270481,0.5752735486258599,0.8669858473706792,0.0,0.0,0.0,0.0
0.0028478413670553963,-0.21470143006517758,0.7494460330734484,-0.005466652096891954,-0.5552955255825173,-0.00849222345138309,0.8315917731217277,-0.05932337039890295,0.387238663572043,-0.9676775897499771,0.0782061958721566,0.38589481015948485,-0.9661892332812348,0.15064477604949927,0.5873346876332889,0.834833716903097,-0.11313299360325894,0.5808356268835739,0.8763428899662147,0.0,0.0,0.0,0.0
0.0070747259407571966,-0.21769584073287573,0.7514714392657206,-0.004973787621920318,-0.5564033025857932,-0.009202984993383385,0.830846514932527,-0.05113099924643781,0.40891819431379584,-0.9859545773627739,0.08720107761841808,0.4159175797123581,-1.0034732352160927,0.1625984515374358,0.6128957710027584,0.8080739542772172,-0.10696066828607224,0.5991245942454437,0.8735846567829122,0.0,0.0,0.0,0.0
0.010474973893034574,-0.22050055037034078,0.7531268900638536,-0.004978710152324217,-0.5558883303815468,-0.008950837127900221,0.8311938757627761,-0.0452786969361516,0.425879038627517,-1.0075850938323359,0.07973800568521117,0.389838673992101,-0.9669529103264547,0.13854134991430544,0.603300520789419,0.8438407463544633,-0.0928772616961564,0.6137920589199021,0.8690427955131059,0.0,0.0,0.0,0.0
0.0142304067758513,-0.22343011461805937,0.7547058443555559,-0.004941274781471266,-0.555536203282955,-0.008885181236464382,0.8314301920184811,-0.03864861282824083,0.4441921403673808,-1.0302798882487068,0.07189884233164501,0.37053760759326415,-0.9491753051563017,0.11703495055029108,0.5984103348750806,0.8721130433310651,-0.07890088178450766,0.6288710948268186,0.8656680399950872,0.0,0.0,0.0,0.0
0.017863034066179173,-0.22646594523709163,0.7562563593414289,-0.004774376074959668,-0.5554154634633214,-0.00899709427117795,0.8315106256528502,-0.03129095803505545,0.4611567490110172,-1.049106191975748,0.06531515420915704,0.35711817384762895,-0.9437150344659424,0.10363480357147993,0.59477665926033,0.8946402179132595,-0.06531842669506721,0.6438938146186823,0.8627270517573585,0.0,0.0,0.0,0.0
0.021164638253371962,-0.22952765131445904,0.7577858126880314,-0.004523588185981183,-0.5554082785681544,-0.009194021645776488,0.8315146728794748,-0.023596835525158618,0.475894243535849,-1.0635076740329366,0.06026416380790933,0.34743262297277333,-0.9448634689245684,0.09666677298891856,0.5913936078171533,0.9133432075934681,-0.05177055995400741,0.658507153142471,0.8595730949720637,0.0,0.0,0.0,0.0
0.024036315010081143,-0.23255745687911053,0.759273564183621,-0.0042367269598886015,-0.5554416167647923,-0.009419976334742773,0.8314913857378402,-0.015832225457849083,0.48805437998335566,-1.0736239842373485,0.05651397313102637,0.33997097871713067,-0.9494389509612626,0.09347941356381158,0.5880760268109977,0.9296239109218418,-0.03804826291070168,0.6723401560146176,0.8561522692997712,0.0,0.0,0.0,0.0
0.0264565476925266,-0.23550812636496632,0.7607012864011823,-0.003945311583290302,-0.5554787926224313,-0.009645136716444269,0.8314654032495626,-0.008192702739879461,0.4976611806144269,-1.0799299941203024,0.05363378647544218,0.33369347186837783,-0.955697449579121,0.09214107839011093,0.5847664176121373,0.9444155255365219,-0.02416575694831794,0.6851686710367091,0.8525423325894256,0.0,0.0,0.0,0.0
0.02845197835991412,-0.23834201578564515,0.7620603700515025,-0.0036661893957941234,-0.5555051336694369,-0.009856639765525586,0.8314466021187097,-0.0008193173295294818,0.5049654173176135,-1.0830422866534477,0.051200698154437514,0.3279069946088356,-0.9626854974869995,0.09152463828420891,0.5813928798421362,0.9583275367661748,-0.010288138061707319,0.6969235081665169,0.8487927358163396,0.0,0.0,0.0,0.0
0.030074908297300834,-0.24103203133822115,0.7633498742696417,-0.0034070024816213727,-0.5555173994999302,-0.01005065866329357,0.8314371867118762,0.006192795898357234,0.5103271092070747,-1.0836092112134783,0.04888851715603703,0.3221707001087039,-0.9698861298369591,0.09103604784552115,0.5778801095790875,0.9717584608931299,0.0033655793105999542,0.7076455070566763,0.8449105060225283,0.0,0.0,0.0,0.0
0.031387603691290705,-0.2435615338416677,0.764572699272832,-0.0031704414777001515,-0.555517260949465,-0.010227463187548552,0.8314360589274367,0.012787100573124072,0.5141344894229715,-1.0822478216177873,0.046482142638907695,0.31621631493423735,-0.977027366713911,0.09037593303330312,0.57417676378729,0.9849693592135749,0.016591240741146075,0.7174350334280013,0.8408852819458965,0.0,0.0,0.0,0.0
0.03245234289859233,-0.24592291019665463,0.765732591292032,-0.002956737113952858,-0.5555078571519378,-0.010388824321519656,0.8314411288102831,0.018937677031378625,0.5167551064056428,-1.0795099420773415,0.04385791805140324,0.30988518258101283,-0.9839776796861518,0.08939732362780499,0.5702708326816724,0.9981272976015301,0.029232850809903517,0.7264128334483992,0.8367131416941808,0.0,0.0,0.0,0.0
0.03332578600545777,-0.24811532410613238,0.7668321012259721,-0.0027649930637633096,-0.5554921826233994,-0.010536770604694766,0.8314503991958109,0.024640625388926515,0.5185106829466604,-1.075868938051531,0.040955330395494045,0.30308779973018457,-0.9906847246030741,0.08803289499249922,0.5661957227570877,1.0113268494435366,0.04118975382642437,0.734692974815471,0.8324124543208243,0.0,0.0,0.0,0.0
0.034056286678862596,-0.25014220504178997,0.7678708419560734,-0.002593956810071901,-0.5554723352834652,-0.010672987414011218,0.8314624726723759,0.029905652579849083,0.519667295894241,-1.0717219777141387,0.037751865367243405,0.29579409519756333,-0.9971302049932821,0.08625757384715799,0.5620340903030628,1.0245926858175447,0.052409506226088684,0.7423628666692059,0.8280371391422863,0.0,0.0,0.0,0.0
0.034682881658103286,-0.2520088924935641,0.7688433768440402,-0.0024425989468626493,-0.5554490405397103,-0.010798478854828273,0.831476872756135,0.034748717815639825,0.5204334098487496,-1.0674025604997264,0.034244249096636196,0.28806515448445646,-1.003281731504059,0.08406138689710187,0.557923896048666,1.037859729221337,0.06287570198220813,0.7494644852234422,0.8236947206303754,0.0,0.0,0.0,0.0
0.03523477890683962,-0.25372077415586314,0.769736362806026,-0.002310728236613944,-0.5554212247041815,-0.01091330346309634,0.8314943316046394,0.039186523471106786,0.5209590044671872,-1.063196228728391,0.030435227888136712,0.2801354866111518,-1.0090280257997704,0.08141363524150443,0.5540695185598142,1.0509195520205419,0.07259743526154196,0.7559723923295875,0.8195745606976093,0.0,0.0,0.0,0.0
0.03573035380097351,-0.2552823114086102,0.7705251787163706,-0.002199777984140916,-0.555385743083991,-0.01101631406834129,0.8315169740782272,0.04323374378407529,0.5213300964574692,-1.059349726446835,0.02632430424967569,0.272539605518725,-1.0140934858366886,0.07820199368720358,0.5507650060267927,1.063313258083033,0.08160548954043713,0.7617683064032769,0.8159858521952483,0.0,0.0,0.0,0.0
0.036175401983566634,-0.2566974938390654,0.7711716450369663,-0.0021136620374693884,-0.5553377902820981,-0.011104996193280895,0.8315480444189229,0.04690418757013977,0.5215571605559189,-1.0560621042676013,0.021902871207705597,0.26623128549535485,-1.0179485065585139,0.07413957901943773,0.5484518194088475,1.07414439111677,0.08995831878305409,0.766622718907409,0.8133900837185252,0.0,0.0,0.0,0.0
0.03656251140670071,-0.25797218821742995,0.7716276863374542,-0.002058787099564836,-0.5552732544140053,-0.011176043961337744,0.8315903260437391,0.05021713932231645,0.5215691352586429,-1.053448004868188,0.017158315921255274,0.26254728760465906,-1.019765371435535,0.06867886700585774,0.5478601563435475,1.0817898243901978,0.09775197774786026,0.7702196094665282,0.8123748284145376,0.0,0.0,0.0,0.0
0.03687758346661196,-0.2591173014768784,0.7718563108777965,-0.002039478869756404,-0.555196408676364,-0.011229699144108608,0.8316409574906352,0.05320869677717015,0.521253748050436,-1.0514651355147535,0.01209580897072653,0.26272456479342804,-1.0185356598919386,0.06112056947086472,0.5502490832358821,1.083627665756749,0.10508615306638845,0.7723079978624949,0.8134368084544803,0.0,0.0,0.0,0.0
0.03711033215122525,-0.2601451043405894,0.7718596489306305,-0.002054142677924524,-0.5551070778937579,-0.01126600766441121,0.8317000599022568,0.05590946446182021,0.5205439994500259,-1.0499949010252325,0.006774395441672811,0.2667438237116222,-1.0142304933534947,0.05155296819932648,0.5555514952419653,1.0795738519552711,0.11202060155383527,0.7728721812521222,0.8166060099537434,0.0,0.0,0.0,0.0
0.03725620000640947,-0.26107088615565943,0.7716806563650621,-0.002095458101336615,-0.5550002404834631,-0.011284776543349008,0.8317709996970383,0.05834861524070671,0.5194256662220786,-1.048847613322151,0.0013052407493580583,0.27335126379960195,-1.0078397144145788,0.04081547213091613,0.5624062685205568,1.0721053306034587,0.11858089478131299,0.7721450432455761,0.8214272660852536,0.0,0.0,0.0,0.0
0.037306633726685454,-0.261917123933706,0.7713762926630373,-0.0021547262927233226,-0.5548784144883676,-0.01128912170223837,0.8318520649855182,0.06057641831338864,0.5178528905980944,-1.0476825888670067,-0.004197359177700963,0.2812069170746481,-1.0001894928614015,0.02955513821261027,0.5700228862287826,1.062742407324494,0.12480718756302221,0.7704455638674915,0.8273229155043959,0.0,0.0,0.0,0.0
0.03724187535799729,-0.26270962426775607,0.7709962233574039,-0.0022262481011273414,-0.554744313087073,-0.011281405832737162,0.8319414166871253,0.06265105893698797,0.5157057879864768,-1.0460769947941368,-0.00964053766272188,0.2893590971328873,-0.9918044447968025,0.018137371187148407,0.577926642391716,1.052314175317607,0.130780488624698,0.7680207017892513,0.8338172259077483,0.0,0.0,0.0,0.0
0.0370314487925032,-0.26347502674894463,0.7705786230675279,-0.0023070525891501444,-0.5545987396550893,-0.01126288885581122,0.8320384983977358,0.06463207434134367,0.5127965699788747,-1.0435628378221329,-0.01495152110832252,0.2972802824612323,-0.9829549916271847,0.006742808415104802,0.5858035360577517,1.041239218026957,0.1366047408963382,0.7650147479277479,0.8405712970460331,0.0,0.0,0.0,0.0
0.03663672392392699,-0.26424032817983534,0.7701521025013974,-0.002396015834115131,-0.5544402596229914,-0.011233947508044528,0.8321442519423534,0.06657899237233676,0.5088848958384404,-1.0396418428252028,-0.020071971622005302,0.30474667116481313,-0.9737529052152678,-0.004542723912565397,0.593431649477119,1.0297117371289057,0.14239479377276826,0.7614865977307171,0.8473542314858017,0.0,0.0,0.0,0.0
0.036013853663771904,-0.2650331298966746,0.7697387912810206,-0.002493320625226091,-0.5542654670498102,-0.011194257667797122,0.8322609350339486,0.06855172289105127,0.5036928064449973,-1.0337918718190724,-0.024960386069126768,0.3117089044055724,-0.9642387575333954,-0.015681462208900633,0.6006487753214351,1.0178163924548627,0.14827192092580585,0.7574377363875904,0.854004098062672,0.0,0.0,0.0,0.0
0.035117590869537085,-0.26588129720576853,0.7693566291499542,-0.0026003475973144503,-0.5540693642082045,-0.011142816736591286,0.832391864132191,0.07060950157978382,0.4969234640076213,-1.0254825248478023,-0.029605602501165416,0.3182074206261215,-0.9544433319609356,-0.026674456995548074,0.6073345412367243,1.0056005043097103,0.15436001723205428,0.752838781868198,0.8603963292000668,0.0,0.0,0.0,0.0
0.033907382259329745,-0.2668108793126438,0.7690201527303069,-0.00271995359903793,-0.5538456620953083,-0.011077700241624503,0.8325412115853397,0.07280555069755332,0.4882933731972618,-1.0142196102253338,-0.03404909504982251,0.32433991408224433,-0.9444233028113863,-0.03758428068838878,0.6134052900070872,0.9931294104188576,0.16077639354158405,0.7476535176075978,0.8664234256828081,0.0,0.0,0.0,0.0
0.032357498809623006,-0.2678410891894795,0.7687394369788453,-0.0028572158920589018,-0.5535868899479994,-0.010995287287547664,0.8327139336245744,0.07517444588275521,0.47759125595394986,-0.9996428704836977,-0.03840959769287636,0.3302709536501623,-0.9342769478544102,-0.0485995118995392,0.6188325737469871,0.9805484186934906,0.16761387255558605,0.741863291914544,0.8719865576139112,0.0,0.0,0.0,0.0
0.03047322426744272,-0.26897496219342804,0.768516641054674,-0.0030210393180462123,-0.5532840548945003,-0.010888348130120344,0.8329160052465889,0.07770867253062312,0.4647815800753493,-0.981712842894978,-0.04289772167678138,0.3362666211924215,-0.9241461822854066,-0.06017963028181967,0.6237080800223476,0.9681755073389571,0.17491584061745322,0.7354944302598108,0.8770032489462155,0.0,0.0,0.0,0.0
0.028315338795736365,-0.27018420796402726,0.7683385948217689,-0.0032276591216342273,-0.5529249049077912,-0.010741717218306496,0.8331555960686494,0.08032036565084673,0.45017797104690166,-0.9610455193546322,-0.047800784627670005,0.34272391614203523,-0.9142110324309787,-0.0733699121632859,0.6283943109208419,0.9566487692908324,0.18265511901120352,0.7286454498082066,0.881447406696952,0.0,0.0,0.0,0.0
0.026034493413780897,-0.27138657109801295,0.7681608458466471,-0.003508253902885061,-0.5524829448709264,-0.010522520870548457,0.8334503970458174,0.08278230359761443,0.4347204657460305,-0.9395183846537469,-0.05342428191015305,0.35009456108512277,-0.90464854633228,-0.09044906007117698,0.6338127324607721,0.947098523898219,0.19073327812021362,0.721475384804528,0.8854542474187926,0.0,0.0,0.0,0.0
0.02401156401305101,-0.2723646544293234,0.7679063150577216,-0.003924522308967885,-0.5518297227763851,-0.01016336078857684,0.8338856404104016,0.08454447925206808,0.42111688854745327,-0.9226063873547989,-0.06036721735067023,0.35836126217378006,-0.8953339828376681,-0.1162038268785037,0.6419613156248833,0.9409166115944827,0.19865371024601655,0.7143259403499879,0.8889352753752183,0.0,0.0,0.0,0.0
0.02239719907981192,-0.2730462279376066,0.7676974816269275,-0.004485533383122088,-0.5510027068304049,-0.009634411540040078,0.8344357825321927,0.08539223565267844,0.4106318946772716,-0.9118288252528142,-0.0679702736301949,0.3668325329573322,-0.887711899223939,-0.15347274867946947,0.6521189451748189,0.9401354786451741,0.2063558248301298,0.7084102072679421,0.8906127797780644,0.0,0.0,0.0,0.0
0.02140582101560804,-0.27333780689076853,0.7676437850048772,-0.005042986980612721,-0.5501047315117966,-0.00901591950277273,0.8350317753511941,0.08516415546494631,0.4048180285280125,-0.908534593283549,-0.07429666447484676,0.3734487217737809,-0.8843409800464622,-0.196428839043836,0.6604337528791735,0.9462452657563922,0.21226121344250584,0.7048147851072276,0.8894537887814917,0.0,0.0,0.0,0.0
0.02139340853661079,-0.2733283780901218,0.7676285743353051,-0.005085003891809089,-0.5500960113382117,-0.009007820577096827,0.8350373525858955,0.08515164581773987,0.40471495508444233,-0.908503112413129,-0.07433120094331191,0.3734668806290169,-0.8843411621684983,-0.19643491822446552,0.6604584232162606,0.9462562881917592,0.2122809738210472,0.7047400166586432,0.8893963243785237,0.0,0.0,0.0,0.0
0.02139340853661079,-0.2733283780901218,0.7676285743353051,-0.005085003891809089,-0.5500960113382117,-0.009007820577096827,0.8350373525858955,0.08515164581773987,0.40471495508444233,-0.908503112413129,-0.07433120094331191,0.3734668806290169,-0.8843411621684983,-0.19643491822446552,0.6604584232162606,0.9462562881917592,0.2122809738210472,0.7047400166586432,0.8893963243785237,0.0,0.0,0.0,0.0
0.0216111658620267,-0.2735752607579691,0.7676480061414703,-0.005237497697838873,-0.5504879541656789,-0.008930620625883621,0.8347789078262502,0.08567717229008494,0.40514376003194474,-0.9074154490132763,-0.07377415432551976,0.3749950838498017,-0.8847125227403393,-0.19460621364921782,0.6619415990307904,0.9465100860468937,0.21617711321523536,0.7069257059188174,0.8910533586419019,0.0,0.0,0.0,0.0
0.022236304896546193,-0.2738789876241779,0.76761063328598,-0.005311055163733116,-0.5507911085778231,-0.008896838460576503,0.8345788121382347,0.08644667593343563,0.4078654941526585,-0.9103716842028508,-0.0731518303761915,0.37913812326951213,-0.8901050232372866,-0.19348287900543823,0.6640619382952059,0.947138482153211,0.2201329983536641,0.7094526648935866,0.8933344421750097,0.0,0.0,0.0,0.0
0.023371204121329325,-0.2741687930403144,0.7675276171741109,-0.005292905964568115,-0.5511077867073856,-0.008946637911925305,0.8343693128627215,0.08736967982635517,0.41354987003205157,-0.9178620466191241,-0.0725578859588966,0.3862055508231302,-0.9005099635406956,-0.1941595812158248,0.6675640074991538,0.9485653466953543,0.22370255351861226,0.7128737908510545,0.8961696136917956,0.0,0.0,0.0,0.0
0.025085565738945898,-0.2744187804943293,0.7674834207703221,-0.005143597120470462,-0.5515968909601242,-0.009159116013332478,0.8340446773918299,0.08851214236259357,0.4225370917938074,-0.9291529300921065,-0.07189285430650078,0.39638332878049454,-0.9152842892896152,-0.1979451934792415,0.6738120957353384,0.9504948484739134,0.2263890636138629,0.7181594138949893,0.8989492157353175,0.0,0.0,0.0,0.0
0.027490932474605115,-0.274667283910433,0.7678732074719963,-0.0048468756281561136,-0.552699611337675,-0.009734296115950187,0.8333096008705019,0.09032908109808824,0.43529510628043183,-0.9409314569911179,-0.07055600515783544,0.41020914873441555,-0.9319981210643673,-0.20703049022494635,0.6870733428674326,0.9501940041680683,0.22800170046488766,0.7287940000350086,0.8986671331967071,0.0,0.0,0.0,0.0
0.029529789458363185,-0.27543122711120566,0.7683834079533659,-0.0060027416555089716,-0.552420596111631,-0.008396583260398577,0.833501619358858,0.08349418176873388,0.4137368789377322,-0.9230810456940006,-0.07121269826367342,0.4240690373843614,-0.9497098756408491,-0.18864356512435357,0.6902261992642664,0.9418947548956467,0.17896157450858508,0.704265481733346,0.9106718437148585,0.0,0.0,0.0,0.0
0.031714887538411396,-0.27619782780444113,0.7689770886767011,-0.006896068195104037,-0.5524819816232627,-0.00749124714098714,0.8334626478981251,0.07371810766087569,0.3964066791534963,-0.9178840722448701,-0.0710532099823883,0.43838711632025085,-0.9671797334848913,-0.1750497636425933,0.696321092372601,0.9337520926470415,0.13528302163757938,0.6843834500020596,0.9207820909124392,0.0,0.0,0.0,0.0
0.03386784769984297,-0.2769222844310544,0.7695794313013404,-0.007404057844201047,-0.5527762671431821,-0.007084700224620633,0.833266695262337,0.06469112697271098,0.38353697620988925,-0.9204071994096075,-0.07012544533310808,0.45212766176193564,-0.983858807465229,-0.16727081017540568,0.7045378210905686,0.9263723723344757,0.10440666182970681,0.6706525838706818,0.9313430296851447,0.0,0.0,0.0,0.0
0.03580456569788951,-0.27759595591904573,0.7701493490914473,-0.007699430142205232,-0.5531273202363337,-0.006917972331216169,0.8330324291661653,0.057187528024910554,0.3736476147943227,-0.9269168223359214,-0.0688922884009439,0.4643837565500405,-0.9986654658336374,-0.16231131953071057,0.7129697622074578,0.9195587679873084,0.08273005831280328,0.6609019306336865,0.942547191452514,0.0,0.0,0.0,0.0
0.037427883530861114,-0.27822796877505734,0.7706932197043179,-0.007906305113124705,-0.5534543512131646,-0.006828455035911793,0.8328139910355108,0.050947414984851426,0.3655993274219823,-0.9353173745383425,-0.06759268063933219,0.4747590745305841,-1.01093608407706,-0.15818190360160078,0.7206646881257582,0.9129416339503085,0.06631769440637258,0.6532046312650913,0.9541145999694951,0.0,0.0,0.0,0.0
0.0387101327890113,-0.27883378852271934,0.7712288770338706,-0.008084333039127287,-0.553733013231434,-0.006747665250742065,0.8326276854817001,0.045460025257734696,0.35856480447287875,-0.9444961431704109,-0.06629350387757327,0.4832191041464199,-1.0205115436077024,-0.1539280547723552,0.7273255602905404,0.9062386950030012,0.05262944645863222,0.6463221736375709,0.9657773267691943,0.0,0.0,0.0,0.0
0.03966796096964523,-0.27942908624471363,0.7717685970018732,-0.008254022307176718,-0.5539651113685766,-0.006658793579521931,0.8324723340569453,0.04028367604252324,0.35196199861233307,-0.9538900204971006,-0.06498142178814131,0.48993166934434623,-1.0275769028729809,-0.1492405337237992,0.7329858257082132,0.8993126519755628,0.040272050388629174,0.6395710670930341,0.9773691713336348,0.0,0.0,0.0,0.0
0.040341852419281676,-0.2800274990144015,0.7723157214597335,-0.008417152294850048,-0.5541625874766674,-0.006567412213225322,0.8323399829908641,0.035140104193589976,0.3454085475249093,-0.9632291721187972,-0.06361668164975384,0.4951571578059255,-1.032498516674518,-0.14414056363527766,0.7378141457021677,0.8921455838142351,0.028524829643872054,0.6326197822763225,0.9888135415961778,0.0,0.0,0.0,0.0
0.04078028430739947,-0.2806418639292947,0.7728661571875401,-0.008573474997832429,-0.5543327200513418,-0.006477512020060497,0.8322257943881409,0.029890151516770717,0.3386380316892185,-0.9723919958090161,-0.062169293675521285,0.49918160797048733,-1.035722809698287,-0.13866360068898384,0.7419556649782119,0.8847697821815061,0.017068592784193932,0.6253188740187066,1.0000893714805081,0.0,0.0,0.0,0.0
0.041032264199068226,-0.2812814195877347,0.7734120230112683,-0.008717293749273306,-0.5544870839103472,-0.006399885791041347,0.8321220607748301,0.02450536818252603,0.3315116110932804,-0.9813356646476524,-0.0606069567615616,0.5022729003600933,-1.0376740090466985,-0.13295812048745687,0.7455765544562244,0.8772762770634264,0.005713240205114203,0.6176419764465575,1.0112012811077538,0.0,0.0,0.0,0.0
0.04114036407250689,-0.281955012723757,0.7739429198944406,-0.008845507408855013,-0.5546321270593522,-0.006339899060607527,0.8320244986250103,0.01900780221098149,0.32394111775963363,-0.9900493894692143,-0.05890782879297937,0.5046621826418064,-1.038737004371457,-0.1270995370200606,0.7487785710440487,0.8697641224704593,-0.005622894010732377,0.6096183723269072,1.0221523271075406,0.0,0.0,0.0,0.0
0.04113828092504504,-0.2826721829588033,0.7744463884757133,-0.008956374175044341,-0.5547709922446719,-0.006300052050092931,0.8319310301158774,0.013441398760018404,0.3158918589269349,-0.9985208199237496,-0.057052214613316374,0.5065347174340844,-1.0392419748863733,-0.12110884503284891,0.7516055556124881,0.8623421750459629,-0.016969430850383296,0.6013202563016862,1.032917778458241,0.0,0.0,0.0,0.0
0.04104987926743221,-0.2834444628958319,0.7749064554164307,-0.009048074493519472,-0.554904916475505,-0.006282329382713928,0.8318408491753694,0.007857218668680903,0.30742190717043955,-1.0066956070849624,-0.05501496216472507,0.5080264801422122,-1.0394666032777777,-0.11497342039836655,0.7540435997831538,0.8551476345338113,-0.028322770587187768,0.5928660410669174,1.0434091905537486,0.0,0.0,0.0,0.0
0.04088839732365109,-0.284287116012816,0.7753007544376167,-0.009118646658253318,-0.555032387368725,-0.006287783635735836,0.8317549897847596,0.002307079315725287,0.29875866690242375,-1.0144173309298201,-0.0527623233321863,0.5092221018633978,-1.0396494808512002,-0.10863506210077445,0.7559991543809687,0.8483699117072679,-0.03962330445019873,0.5844301629228388,1.0534128485221637,0.0,0.0,0.0,0.0
0.04065534988720097,-0.2852200470214608,0.7755968569512419,-0.009165832049502479,-0.5551485599277004,-0.006315903053305475,0.8316767240350436,-0.0031553592028118888,0.29041469715442203,-1.0213510136894564,-0.050251383668542454,0.51014812985579,-1.0399972832525746,-0.10198438333171875,0.7572725947163892,0.8422861181392285,-0.05069696343008849,0.5762721071008226,1.0624825594622673,0.0,0.0,0.0,0.0
0.04033936668055466,-0.28626626117479315,0.7757494101217007,-0.009185112164521059,-0.5552479293936664,-0.006366757392167059,0.8316097853073162,-0.00846708400977181,0.28330238293907,-1.026915436676156,-0.04743042681199789,0.5107587374840006,-1.0406675812344364,-0.09490623740955248,0.7575546207441832,0.8373068719852249,-0.06116821024865188,0.5688158003740285,1.069761688366926,0.0,0.0,0.0,0.0
0.03991669451855884,-0.2874473930083546,0.7757031217201038,-0.009166251258036221,-0.555331145879029,-0.006446049559762933,0.8315538146744517,-0.013546451741393942,0.2787100433137848,-1.0302756232559724,-0.04424084327286412,0.5109253800843898,-1.0417197241503449,-0.08737473234338583,0.7564812809859867,0.8339805245581072,-0.07038445390890087,0.5628252904146275,1.0737116526682235,0.0,0.0,0.0,0.0
0.039358118786066605,-0.2887798644592975,0.7754139394202786,-0.009093664230924938,-0.5554129752927978,-0.006566212450214463,0.8314990180398988,-0.018292921200036817,0.2778570272267126,-1.0304922075995147,-0.04062300762230277,0.5104755402173606,-1.0430502402245203,-0.07948625241246844,0.7538023941734543,0.8327897731205979,-0.07753768290146813,0.5596525266539907,1.0718570206131417,0.0,0.0,0.0,0.0
0.03863561046682442,-0.2902874289206632,0.774878011816887,-0.008964798551525717,-0.5554935797294558,-0.006727288824646757,0.8314452831373542,-0.02263800441564792,0.28070653984991306,-1.0275142749725075,-0.03651452608301172,0.5092915347028933,-1.0445091101112403,-0.07109583450776048,0.7494289388002691,0.8336804944482071,-0.08250511750343552,0.55932313076637,1.0642581538466305,0.0,0.0,0.0,0.0
0.037723871559848805,-0.29200168901617357,0.7741315012287309,-0.008790807416878467,-0.5555576887405557,-0.006916619573451838,0.8314027523167622,-0.026564867403014673,0.2859782125984122,-1.0222076398472943,-0.031850044250866766,0.5073197277541001,-1.0459175236562315,-0.06183317382697088,0.7434451384149066,0.8360477343964224,-0.08588273643547871,0.5605174553871832,1.0534734936119534,0.0,0.0,0.0,0.0
0.03659364772820173,-0.2939487665704484,0.7732220195995099,-0.008580925591867425,-0.5555999506117373,-0.007123942729732808,0.8313749527356507,-0.030071364371014247,0.29231480840554697,-1.0153417498074166,-0.026573852696733825,0.5044723008672108,-1.0469535175465168,-0.051433910557019596,0.7360472621189904,0.8391877757166583,-0.08814088170085982,0.5624619165220427,1.0410810513273903,0.0,0.0,0.0,0.0
0.03520566776384158,-0.29614899674166045,0.7721877673410019,-0.008340210860163183,-0.5556203334366231,-0.007343356241166113,0.8313618713133885,-0.033153603991847004,0.29873870323096174,-1.0074355533637809,-0.02064054457946173,0.5005812403289993,-1.0471904548027768,-0.03976475647258559,0.7273949071134577,0.8425292785394232,-0.08951693069778514,0.5646995908197908,1.0279431864292738,0.0,0.0,0.0,0.0
0.033512034647381055,-0.29861766237500975,0.7710548038878282,-0.008074273020274001,-0.555617191343118,-0.007566507303455033,0.8313645955694804,-0.03581209088889768,0.3046750907659388,-0.998781109455685,-0.014026905929472047,0.4954082102949333,-1.0461360235289994,-0.026744694724746106,0.717561137473238,0.8456337845693694,-0.09007056195762363,0.566931171333626,1.0144859596498266,0.0,0.0,0.0,0.0
0.031461073758045126,-0.30136155459922515,0.769839993735624,-0.0077897035035331364,-0.5555881067223645,-0.007783596207667832,0.8313847435562319,-0.03805487469531371,0.3098529613535633,-0.9895323728558434,-0.006739586901351714,0.488662516175936,-1.0432406015050015,-0.012377777661834621,0.7065720015195205,0.8481712209877885,-0.08980141249219302,0.5689484346323274,1.0008822276594596,0.0,0.0,0.0,0.0
0.029002694511648233,-0.3043738139599397,0.7685551866995125,-0.007494723568191747,-0.5555310554606533,-0.00798403016363681,0.8314236770743031,-0.03990757360611802,0.3141875804462123,-0.9797967149776092,0.0011725983718584854,0.48001938922486515,-1.0378975662223313,0.0032160663381526934,0.6944516604003764,0.8498905782555546,-0.08872480200948364,0.5706046312129849,0.9871605992664056,0.0,0.0,0.0,0.0
0.02609468234569624,-0.30762831079482733,0.767211422816853,-0.007199696142550593,-0.5554455632206572,-0.008157112145181205,0.8314817209027465,-0.04142716637018575,0.31770125692507306,-0.9697041564105703,0.009605800360603916,0.46914335288874637,-1.0294515438123395,0.01978008666718042,0.6812639854793053,0.8505983301590496,-0.08692093120217773,0.5717971442813705,0.9732679977812799,0.0,0.0,0.0,0.0
0.022711363772656975,-0.3110748558544603,0.7658226606231575,-0.006917514257573708,-0.5553334016400757,-0.008292709303917121,0.8315576901164221,-0.042721216566376695,0.3204966812184519,-0.9594469901795308,0.018391507263777928,0.45572720740402767,-1.0172366060246454,0.03692056246360353,0.667147034907508,0.8501476847095779,-0.08457336271135373,0.572457945367495,0.9591098934629545,0.0,0.0,0.0,0.0
0.018856920540944636,-0.3146364020379857,0.7644078168131616,-0.006663023914051123,-0.5551992937805382,-0.008382956197503842,0.8316484078883956,-0.04397094220491427,0.3227876091587583,-0.9492891022825084,0.027295956842969045,0.4395606109021297,-1.0006740709705289,0.054123357848363626,0.6523400876499889,0.8484540497089772,-0.08201894856836563,0.5725619831340839,0.9445884665981493,0.0,0.0,0.0,0.0
0.014586324659554697,-0.3182093531892852,0.7629871190035543,-0.006450575843036416,-0.5550514969433797,-0.008425398409913215,0.8317483023570537,-0.04545005957929597,0.3249841135354772,-0.939549526889148,0.03603305209025867,0.4206465682762368,-0.9794811455954338,0.070785465669025,0.6371833905192129,0.845581687734384,-0.07982525533388089,0.5721763980122411,0.9296552129186764,0.0,0.0,0.0,0.0
0.010036635423668425,-0.3216667233433296,0.7615586865231763,-0.00629160472131708,-0.554896856746607,-0.008415185639651409,0.8318527987170665,-0.04755370352172718,0.3277876333343639,-0.9306106345042079,0.04426439958621402,0.3993856807890863,-0.9540918827792703,0.08632108910710301,0.6219692969886039,0.8420295101141204,-0.078834010089974,0.5715783797340722,0.9144225848002157,0.0,0.0,0.0,0.0
0.005607780166568483,-0.32495371631817993,0.7600533877943132,-0.006170997871159809,-0.5546531821904396,-0.008398920738170794,0.8320163606574855,-0.05072536825752337,0.3316478125791454,-0.9220711876481664,0.051974751114668226,0.3778527493168236,-0.928490078502402,0.10034433316349062,0.6069452131640242,0.8388381338036358,-0.08037198299131915,0.5719200036235635,0.8987396027589554,0.0,0.0,0.0,0.0
0.001672681184207563,-0.32785485583885005,0.7585600088829223,-0.006064715240632258,-0.5543795482470891,-0.008405319996337741,0.8321994270066296,-0.054926497017816295,0.3370989310177851,-0.9148097819306871,0.0587326091771217,0.3579822548845496,-0.9051468550405516,0.11192094401193539,0.593217049666257,0.8366968269869447,-0.08647375163628333,0.572904343494544,0.8827502371185802,0.0,0.0,0.0,0.0
-0.0014358355298018121,-0.3300830338574287,0.7572216746866988,-0.005936256446560966,-0.5541324152909919,-0.008485909387061528,0.8323641129488025,-0.05976935269932614,0.3437816446650716,-0.9102014896561801,0.0639979438412358,0.3415880931441557,-0.8862352960392945,0.1198095925828232,0.581923617630811,0.8363334368061387,-0.09889003127005903,0.5739001554506462,0.8662798455486196,0.0,0.0,0.0,0.0
-0.003264559570887798,-0.3313533253595346,0.7562598461391925,-0.0057636295050988925,-0.5539631475669369,-0.008650203735822795,0.8324762973730776,-0.06367364608005907,0.34999148270082103,-0.9097034385420416,0.06716770707587838,0.3314355509732343,-0.8751750050099997,0.12313695209165618,0.5746799536448949,0.8378677482486615,-0.11491378901323131,0.5750490470836586,0.8503299512987643,0.0,0.0,0.0,0.0
-0.0032925572578283227,-0.33151236707537085,0.756166892012321,-0.005644275842244783,-0.5539843497076251,-0.008619218496281385,0.8324633274215446,-0.0636763862782225,0.35000368112767954,-0.9097258003212952,0.06734227279748758,0.33122330357405577,-0.8751144150980994,0.12317565528430237,0.5745797127003092,0.8377729209019081,-0.1149371829607559,0.5750888677372018,0.8503409421617196,0.0,0.0,0.0,0.0
-0.0032925572578283227,-0.33151236707537085,0.756166892012321,-0.005644275842244783,-0.5539843497076251,-0.008619218496281385,0.8324633274215446,-0.0636763862782225,0.35000368112767954,-0.9097258003212952,0.06734227279748758,0.33122330357405577,-0.8751144150980994,0.12317565528430237,0.5745797127003092,0.8377729209019081,-0.1149371829607559,0.5750888677372018,0.8503409421617196,0.0,0.0,0.0,0.0
-0.0032925572578283227,-0.33151236707537085,0.756166892012321,-0.005644275842244783,-0.5539843497076251,-0.008619218496281385,0.8324633274215446,-0.0636763862782225,0.35000368112767954,-0.9097258003212952,0.06734227279748758,0.33122330357405577,-0.8751144150980994,0.12317565528430237,0.5745797127003092,0.8377729209019081,-0.1149371829607559,0.5750888677372018,0.8503409421617196,0.0,0.0,0.0,0.0
-0.002417400532206274,-0.33191847410917913,0.7560505912351944,-0.005676945865378639,-0.5542587111860087,-0.008418117322935416,0.8322825173345908,-0.06328268749885002,0.3543527670370502,-0.9160232657777667,0.0679110540592935,0.33692766727105666,-0.8833877692117851,0.12644106899253352,0.5758292215558255,0.8385145347753247,-0.11291786089049649,0.5763319436304194,0.8553034447790824,0.0,0.0,0.0,0.0
-0.0007525171268858266,-0.3325879675372691,0.7558573863373371,-0.005664801237015782,-0.5545295968134799,-0.00832040531246122,0.8321031229001973,-0.062189017427078004,0.3630202030183881,-0.9293811472142112,0.06943305499677795,0.3478896927299129,-0.9009100673020551,0.13079576823999498,0.5782266472966728,0.839949189924497,-0.11070321957984304,0.5781122694376127,0.8626440459664166,0.0,0.0,0.0,0.0
