zhuoxili-jackie/tripod-support-walk/examples/trajectory_trot_sideways_v0.20.csv
root_pos_x,root_pos_y,root_pos_z,root_rot_x,root_rot_y,root_rot_z,root_rot_w,FL_hip_joint,FL_thigh_joint,FL_calf_joint,FR_hip_joint,FR_thigh_joint,FR_calf_joint,RL_hip_joint,RL_thigh_joint,RL_calf_joint,RR_hip_joint,RR_thigh_joint,RR_calf_joint,FL_foot_joint,FR_foot_joint,RL_foot_joint,RR_foot_joint
0.0,0.0,0.745913,-0.00590261038931276,-0.5534150365010598,-0.008528410562500121,0.8328410549308913,-9.86e-07,0.349071,-0.872662,2.4067e-06,0.349062,-0.872669,2.38753e-06,0.610854,0.872668,-3.27e-06,0.610866,0.872669,0.0,0.0,0.0,0.0
0.0009232537564218145,-0.00020792987451026724,0.7458971617107253,-0.005972473929081175,-0.553721876516058,-0.008320087026388298,0.8326386906543409,2.6278079870057503e-05,0.3540842932514372,-0.8796327976066602,2.967117486998822e-05,0.3549001643229075,-0.8804363008731222,0.002223242562064514,0.6128253530658008,0.8736255487514714,0.0022176077524326807,0.6134910422182933,0.8755654888715497,0.0,0.0,0.0,0.0
0.0026308754024512186,-0.0005943091376117613,0.7458065615189693,-0.005980012655974072,-0.5540218404174505,-0.008231019297382966,0.8324399618653716,0.0006764587311833261,0.3635245913539066,-0.8937554604696687,0.000680121990218498,0.3657703307886733,-0.8970064217932232,0.004486675378440602,0.616189087617933,0.8754917046500862,0.004494806144236318,0.6169017446774147,0.8802799169813011,0.0,0.0,0.0,0.0
0.005057622157565905,-0.0012372530384040827,0.7456882377905842,-0.0059142924609890905,-0.5543322749820144,-0.008261777766639382,0.8322334366546954,0.0021431054801534176,0.3766939717055776,-0.9135034225803738,0.002148137046278014,0.3812377187089219,-0.9213806510531549,0.007173032621436317,0.621245535371723,0.8773584943316427,0.007209673620286976,0.6213429778465428,0.8864835612546366,0.0,0.0,0.0,0.0
0.008188920123625187,-0.002315522578330525,0.7458010280439112,-0.005728698363396686,-0.5547272709871233,-0.008468802510915176,0.8319694202446812,0.004974035092309516,0.39314415631629546,-0.9364244404163313,0.004985659820297432,0.40144366260532116,-0.9525115601746944,0.010763225133359113,0.6299387928240963,0.876010097566351,0.010856386820516904,0.6283787987351911,0.8921547355283584,0.0,0.0,0.0,0.0
0.012211307996223329,-0.004252191298760944,0.7471957088083808,-0.005244210034932246,-0.5556259280932815,-0.009122534996873419,0.8313658073596844,0.010706137154087478,0.4137313656048854,-0.9566635920997192,0.01074680482525394,0.42863961804564743,-0.9884152795761734,0.015348220603110065,0.6506201393160193,0.8605052772333242,0.015551409230563416,0.6447358044209013,0.8889447949090444,0.0,0.0,0.0,0.0
0.015608937782224303,-0.006004321253213386,0.7481371837614966,-0.005014824359122261,-0.5552319489502053,-0.009176789422900915,0.8316297980096019,0.014884974627215684,0.4309590820636706,-0.9805240121159413,0.0053501044259668265,0.40265283498930715,-0.9562232184253461,0.011065462796998314,0.6403591318182289,0.8836581356780022,0.02387065671086871,0.6561933279858206,0.8856433708713358,0.0,0.0,0.0,0.0
0.01908764658845944,-0.007916663543308649,0.7491798470408427,-0.0047593158712180604,-0.5549567756724092,-0.009317727695295507,0.8318133841182873,0.019703144897771294,0.4480279903384435,-1.0026534986109206,0.0009594349331499214,0.38250695155923264,-0.9410153748718308,0.006984174534341975,0.6328646385108925,0.9029250926970384,0.03285442993092624,0.6686728374781435,0.881866493515347,0.0,0.0,0.0,0.0
0.022397065153431997,-0.00993674956913194,0.7502955549677364,-0.004459430079750332,-0.5548440102739517,-0.009551875518641978,0.8318876122533375,0.02503139074244094,0.4636377734669617,-1.020930107842467,-0.0026916708164377505,0.36803269551141643,-0.9368612152805269,0.0044417988048027325,0.6273005865631954,0.9199634018379135,0.04211305095232049,0.6816020612498331,0.8776348775152848,0.0,0.0,0.0,0.0
0.02535564796806221,-0.012011960507660915,0.7514410797647776,-0.004149203097234402,-0.5548144156623238,-0.009813420782647131,0.8319059111819526,0.03060133466887171,0.4769823873025135,-1.0348858588523415,-0.005718965858156795,0.35735699949698674,-0.9386633893076907,0.0033544639554307235,0.6227535972596769,0.9355394377562672,0.051850291847613444,0.6943036829205995,0.873022643032256,0.0,0.0,0.0,0.0
0.027883382156479578,-0.014099763544975703,0.752581381931696,-0.003851398024198703,-0.5548130240867308,-0.010068471550697738,0.8319052235186581,0.03622860964879909,0.4877864513861303,-1.0446829750889821,-0.008223042789904114,0.34901713005440976,-0.9435587511241494,0.003218669009886981,0.6186853493661013,0.9501017571702158,0.06207411357779423,0.7062997808109069,0.8681955207742087,0.0,0.0,0.0,0.0
0.02997104722009217,-0.01616203056008418,0.7536973680666229,-0.0035764038047768052,-0.5548135194928491,-0.010302153378631778,0.8319032597360984,0.041773563692295734,0.4961273952085526,-1.0507733498343559,-0.010333920471693361,0.3419639451163731,-0.9499648007186263,0.0036000652783575336,0.6147634767347989,0.963962122231547,0.07262632369277615,0.7173637748606352,0.8632594170400476,0.0,0.0,0.0,0.0
0.031652731807736596,-0.018165694871245912,0.7547809231075923,-0.0033273175325454277,-0.5548065035758527,-0.010510220045963392,0.8319063696249478,0.04713074270189682,0.5022861143002512,-1.0537493548203154,-0.01219695940070417,0.3354861541259302,-0.9570129786557602,0.0041994690444374025,0.6107812173523652,0.9773555342730363,0.08326783961986313,0.72744894270148,0.8582491739316713,0.0,0.0,0.0,0.0
0.03298470188517307,-0.020084488965315655,0.7558292176959813,-0.0031037314512637575,-0.5547907453354444,-0.010693597349553299,0.831915405986057,0.052225362919819066,0.5066346191029201,-1.0542466454379216,-0.013949733148246962,0.3291286345378719,-0.964232956047431,0.004820959253385293,0.6066205626392391,0.9904641114744275,0.09375325288254431,0.7366118504912045,0.8531628551950735,0.0,0.0,0.0,0.0
0.03403064912092606,-0.02189976116089723,0.7568411693839053,-0.002903812653194605,-0.5547681549037986,-0.010855322914854823,0.831929098025261,0.05701032925281147,0.5095609393381569,-1.0528781974575327,-0.015706484174233922,0.3226144761917256,-0.971379357034775,0.005336300248223745,0.602230340453812,1.0034272449039963,0.10387608203836277,0.7449560311638079,0.8479925448283224,0.0,0.0,0.0,0.0
0.034852400653563737,-0.023600082103888653,0.757815693553248,-0.002725297282314395,-0.5547413207841679,-0.010998947556741826,0.8319457091192933,0.061461726320593206,0.5114246735074869,-1.0501941918382083,-0.01755248139930425,0.31577995031678885,-0.9783360865473891,0.0056629560587326076,0.5976117722801669,1.016344893207257,0.11348704927901605,0.7525960619153133,0.8427421966131873,0.0,0.0,0.0,0.0
0.03550480669018849,-0.025179930021559934,0.7587506927822365,-0.002565967976805966,-0.5547124425591331,-0.011127716692497859,0.8319637587056505,0.06557291519352583,0.5125347985807364,-1.0466642105864252,-0.019545429470653315,0.30853138713706457,-0.9850596143703041,0.005751439498504722,0.5928106895006529,1.0292749815161217,0.12249386839186796,0.7596351066321623,0.8374375554656277,0.0,0.0,0.0,0.0
0.03603347297304034,-0.026637849624008506,0.7596418937373651,-0.002423958632980787,-0.554682844973012,-0.01124412731801059,0.8319823528885979,0.0693480670493974,0.5131418487110436,-1.0426774087240056,-0.021720362805753162,0.3008336008452015,-0.9915362868502376,0.005574712761276081,0.5879162580754095,1.0422216761397014,0.13085110660002236,0.7661484506421002,0.8321360660204971,0.0,0.0,0.0,0.0
0.03647406648652878,-0.027974441128023057,0.7604809536638283,-0.00229808027302721,-0.5546526129529884,-0.011349631635228265,0.8320014324706573,0.07279596532235813,0.513437414639692,-1.0385549425442724,-0.024095428444333544,0.292740978185818,-0.9977354382535236,0.005112446679124446,0.5830651878528521,1.0551064694286532,0.13854686770453117,0.7721668151833212,0.8269436399588086,0.0,0.0,0.0,0.0
0.036852019075341746,-0.029190510621110517,0.7612525900215054,-0.002188298645335523,-0.5546201853966384,-0.011444360775853772,0.8320220477283455,0.07592479952030086,0.5135545314590887,-1.0345671210095613,-0.026677307660381705,0.2844802776377223,-1.0035449986238043,0.004321692530062874,0.5784510623650181,1.0677077200538279,0.1455913075369075,0.7776552167735745,0.8220426705492136,0.0,0.0,0.0,0.0
0.03718170673215762,-0.030285791542290247,0.7619310238606696,-0.002096426247263173,-0.5545820340933086,-0.011526836025880338,0.8320465759253808,0.07873881077968704,0.513563669172667,-1.030945694863384,-0.02946608613060782,0.2765785970388184,-1.008685870239338,0.0030842398843483813,0.574344616193033,1.0795471218300416,0.15201088571263835,0.7824872037885484,0.8177304463529745,0.0,0.0,0.0,0.0
0.03746501057297613,-0.03125886552226013,0.7624773008950159,-0.0020268629491498095,-0.5545329351547241,-0.011593850841170312,0.8320785409310497,0.08123828077124928,0.5134633257137563,-1.0278804836475597,-0.03245929573787264,0.2699839614281475,-1.012622133119318,0.0011277079864300222,0.5711481847667932,1.0896964449042699,0.1578508411976793,0.7864246995539267,0.8144532569635836,0.0,0.0,0.0,0.0
0.03769133677248532,-0.03210906884782107,0.7628422605530311,-0.0019863758051545293,-0.5544681452277135,-0.0116413543142791,0.8321211504995107,0.08342519808238205,0.5131769030764789,-1.0254899419870438,-0.0356529658908277,0.26602849043752497,-1.0145182704761921,-0.00204495990825258,0.569538716863706,1.0964857386277933,0.16318092145188173,0.7891394782367714,0.8127847909538211,0.0,0.0,0.0,0.0
0.0378451802702966,-0.032840196948590104,0.7629868547581828,-0.0019791874461064837,-0.5543913820195727,-0.01166964487660148,0.8321719159812685,0.08531702517412366,0.5125942581800744,-1.0237493316053645,-0.039032744087873404,0.2659421515704601,-1.0133610790233694,-0.0070635072426310525,0.5707300597773388,1.0972469451812368,0.16806235314479287,0.7903640583262059,0.8132171253035408,0.0,0.0,0.0,0.0
0.03791686989713223,-0.03346116735791584,0.7629121819349616,-0.002004117544389607,-0.5543029829284086,-0.011679059118540905,0.8322306087904014,0.08693539352909443,0.511651614224909,-1.0225479351121765,-0.042555782659358464,0.2697059238399789,-1.0091295572673071,-0.013873292015301141,0.5746805922696985,1.0919371235737667,0.17253565073579785,0.7900779088008902,0.8157774748303823,0.0,0.0,0.0,0.0
0.037904205394263514,-0.03398741591518962,0.7626608623925656,-0.0020547924131023303,-0.5541991751687794,-0.011669716878643465,0.8322997475539422,0.08830925248037408,0.5103376148116945,-1.0216954424014293,-0.046149748541585975,0.27607182645469913,-1.0028314768994968,-0.02175897361210206,0.5801145595879313,1.0831434403036726,0.17662955215303322,0.7885201331304575,0.820009487750553,0.0,0.0,0.0,0.0
0.03780202644314393,-0.034440892794171715,0.7622881891234156,-0.002123047042846614,-0.5540833298234692,-0.011645452779114877,0.8323770417981023,0.08948688611623236,0.5086130996014151,-1.0208627517392044,-0.049740563233349744,0.28370248575272383,-0.9953098078627031,-0.030158153192516142,0.586315426867356,1.07247250177476,0.18038240948388287,0.7860111842230523,0.8253427627486116,0.0,0.0,0.0,0.0
0.03759382149280879,-0.03484611854937652,0.7618416320145625,-0.002203581153524469,-0.5539584541514108,-0.011609035297115154,0.8324604528767414,0.09052189052496906,0.5063660460035638,-1.0196459521714096,-0.0532649619812771,0.29164977226221317,-0.9871013761433656,-0.03874004042703635,0.5928549634444317,1.0608059960055742,0.18386854218041804,0.7827955235945889,0.8313103741800779,0.0,0.0,0.0,0.0
0.03725164994606827,-0.03522845232968585,0.7613573073234047,-0.0022938367892968788,-0.5538252585236481,-0.011561707128382016,0.8325494869749641,0.09146855806820116,0.5034142043744975,-1.017594354270044,-0.05666643552811743,0.2993911418414941,-0.9784845882853813,-0.04733067543460448,0.5994437947315705,1.0485901998267637,0.18718563848079833,0.7790137998225218,0.8375806147591015,0.0,0.0,0.0,0.0
0.03673855880536226,-0.03561437570750163,0.7608621746989576,-0.0023931565910909,-0.5536818116687889,-0.011503493189651439,0.8326454190549143,0.09238269740180438,0.49951821920656375,-1.014220299941405,-0.05989182104529271,0.30670803393080187,-0.9695763293852439,-0.05583900774118311,0.6058712664021505,1.0360315458761724,0.19044802883760306,0.7747212813973778,0.8439278353490157,0.0,0.0,0.0,0.0
0.03601150910212333,-0.03603231613466378,0.7603771765671216,-0.0025022536052509577,-0.5535236407667524,-0.011433463638716414,0.8327512196018907,0.09332373135282804,0.4943952645790271,-1.0090035993878814,-0.06289679320323455,0.3135559839403992,-0.9604201948083825,-0.06421720245426024,0.6119796309371391,1.023218267044302,0.19378661112043147,0.7699158350326953,0.850194125758513,0.0,0.0,0.0,0.0
0.03502514693551008,-0.03651274433213418,0.7599195009564522,-0.0026231530573660195,-0.5533438521972895,-0.011349751640902066,0.8328714687400401,0.09435493728303375,0.4877367829941832,-1.0014066890146274,-0.0656617669224892,0.31998036450435535,-0.9510478687995357,-0.07245467936964049,0.6176502756769354,1.0101970317758802,0.19734916023701335,0.7645638299376424,0.856258753134267,0.0,0.0,0.0,0.0
0.03373774703893711,-0.037086461661409234,0.7595033008009747,-0.002759626423253091,-0.5531330960676545,-0.011249181262983337,0.8330123759089821,0.09553916889837637,0.47923967979507603,-0.9909195560136226,-0.06821633141977936,0.32608471243793535,-0.9415143613150735,-0.08060609234064696,0.6228003744398449,0.9970312417961541,0.2012957444842994,0.7586231087107507,0.8620190963292889,0.0,0.0,0.0,0.0
0.03212109712161705,-0.03777988182132585,0.759138535712948,-0.0029182844272293866,-0.55287924460102,-0.011126187956688224,0.8331819923923942,0.09692703995000629,0.4686643528968486,-0.9771594126367252,-0.07066737489323834,0.3320406313904182,-0.9319135541289368,-0.08886938386366765,0.6274008436310078,0.9838652558548163,0.20578651417621416,0.7520660171143337,0.8673834841278711,0.0,0.0,0.0,0.0
0.030176447642436686,-0.03860580242017604,0.758827412447773,-0.0031108659627612873,-0.5525664762708844,-0.010970326495212344,0.8333908229343111,0.09853368576165614,0.45593875158798086,-0.9600634888863364,-0.07322107039571825,0.33812045413243547,-0.9223812522745318,-0.09776175956231065,0.6315387305984943,0.9710196443954976,0.210963667397241,0.7449055648406532,0.8722791927717295,0.0,0.0,0.0,0.0
0.027959059342284275,-0.03954782467404285,0.7585570091318684,-0.0033589321059725274,-0.5521728393006579,-0.010760955779565541,0.833653450148482,0.10029919058148595,0.44133700656860986,-0.9402390609661591,-0.07618228707669157,0.34472068382317794,-0.9130935235351726,-0.10849732551164591,0.6355650059703942,0.9591443092462106,0.21693769710818114,0.7372232502201335,0.8766892901986616,0.0,0.0,0.0,0.0
0.025613808780854563,-0.040536106906038004,0.7582840035412286,-0.0037032526898149523,-0.5516608376116345,-0.010456052835425752,0.8339947704417864,0.10202536063027119,0.42577357629772605,-0.9195934714012676,-0.07991947027794098,0.35228528487711486,-0.9042391734371068,-0.12374476906693192,0.6403876750590156,0.9494195112300668,0.22379469738373145,0.729171200579451,0.8807507230000307,0.0,0.0,0.0,0.0
0.02352295183315844,-0.041354863544917665,0.7579249417161369,-0.0042256683444746234,-0.5508764082348879,-0.009968859321601029,0.8345165956534943,0.1031687848658151,0.41204589446457474,-0.9039556472378736,-0.08521486069282073,0.3607434047844033,-0.8956805992985192,-0.1491915563933093,0.6481176298595034,0.9432716677235824,0.2312445465520673,0.7210384229332101,0.8844000492009364,0.0,0.0,0.0,0.0
0.021844371403151222,-0.04193642355095164,0.7576113095870497,-0.004949054182311157,-0.5498415609189872,-0.009257699773549262,0.8352030051094016,0.10351116684022627,0.4014847301455281,-0.8950320192236982,-0.09171886741424061,0.3693651415665846,-0.8889324181828115,-0.1882188769562578,0.6579135962365288,0.9428905025762099,0.239356066463253,0.7140961618106291,0.8862203016168801,0.0,0.0,0.0,0.0
0.02080936178977455,-0.04218662942309107,0.7574713089010024,-0.005709755920874731,-0.5486787492350694,-0.008426369912093936,0.8359713063947041,0.10292245807956654,0.3957329886311226,-0.8940887945230508,-0.09784109321215446,0.3761562526526225,-0.8867856202559524,-0.23417469304399785,0.6654179384396106,0.9500758877360885,0.24636803296699003,0.7095846837819573,0.8850296826646058,0.0,0.0,0.0,0.0
0.020795881504765655,-0.04217730645299989,0.7574534929873384,-0.0057566683030309635,-0.5486721042234548,-0.008414877658607309,0.8359754617517465,0.10290556199511797,0.3956256550128035,-0.894068508082011,-0.0978750447850122,0.3761754861572002,-0.8867855170787722,-0.23418437693973268,0.6654429472555233,0.9500872724966853,0.246388319675006,0.7095070858697907,0.8849707414657887,0.0,0.0,0.0,0.0
0.020795881504765655,-0.04217730645299989,0.7574534929873384,-0.0057566683030309635,-0.5486721042234548,-0.008414877658607309,0.8359754617517465,0.10290556199511797,0.3956256550128035,-0.894068508082011,-0.0978750447850122,0.3761754861572002,-0.8867855170787722,-0.23418437693973268,0.6654429472555233,0.9500872724966853,0.246388319675006,0.7095070858697907,0.8849707414657887,0.0,0.0,0.0,0.0
0.02125110171816805,-0.04209165059990261,0.7573711278095616,-0.005907513776143975,-0.5493339974441692,-0.00833737018045293,0.8355403932734001,0.10262956013833763,0.3979286414200013,-0.8953703024321086,-0.09813697657804285,0.3779428850120939,-0.8864592029143298,-0.23571180892718271,0.6679558713720708,0.9531357927192492,0.2493322688756072,0.7125161144937567,0.88762781909904,0.0,0.0,0.0,0.0
0.022220977809292223,-0.041880176211043396,0.7572274738216858,-0.0059276722976962445,-0.5500785021332983,-0.008431263436948932,0.8350493506307126,0.10241257337407227,0.4034569157778139,-0.9012480979536656,-0.09854873562960673,0.382297211760994,-0.8904907706156335,-0.24091547980479489,0.6723020202422912,0.9576405717773044,0.250740773401081,0.7163609505086485,0.8908988402845067,0.0,0.0,0.0,0.0
0.02383684053375095,-0.04157591489870633,0.757108691396304,-0.005552153251894448,-0.5514413191414996,-0.009192911291047906,0.8341445531319767,0.10315127343393167,0.4124587798417269,-0.9080134251103397,-0.09805544566890206,0.3896709278449655,-0.898041197965136,-0.2559867099086364,0.6823593276518095,0.9643876444471056,0.24754054288794733,0.7223097038191978,0.8951371548244264,0.0,0.0,0.0,0.0
0.026138907962595163,-0.041400714277836474,0.7571166978144692,-0.004504182735138361,-0.5539497178302251,-0.011142298335457095,0.8324633755556494,0.10620645474794456,0.4242338836514175,-0.9102665748380674,-0.09509201188245453,0.40045060321597603,-0.9083606722843025,-0.2875850749904626,0.7024600222234796,0.973217969068774,0.23705145737721875,0.7314036352334728,0.9007540066829264,0.0,0.0,0.0,0.0
0.028885473895425395,-0.041766773485137805,0.7573519845801773,-0.0032843975319812356,-0.5568788836438294,-0.013598436318269918,0.8304758902064238,0.11147163687865067,0.43704700118031115,-0.9097486915818298,-0.08987929158299232,0.4148688238639784,-0.9230235596368304,-0.32737788044323973,0.7295927046323883,0.9791373539338551,0.22609128504495224,0.7432373593622471,0.905586776840652,0.0,0.0,0.0,0.0
0.029610586050675042,-0.0445668639812096,0.7587485955765741,-0.007133100422549842,-0.5500342594494146,-0.006478315227737704,0.8350865007543267,0.09638540321333625,0.3969749569610616,-0.9028185792096504,-0.09722096966344036,0.43252676673273704,-0.9606171051965504,-0.20145332753118583,0.6903817733817486,0.9385661165561535,0.20381553108871614,0.6934251438674076,0.9070613870461866,0.0,0.0,0.0,0.0
0.03140735573571693,-0.04605175694748114,0.7600188463999119,-0.007861875389413608,-0.5509751878949165,-0.006133876768778806,0.8344620475463868,0.08516641429830238,0.3874664912669077,-0.9023894493557831,-0.09401302736019297,0.4460209804499825,-0.9714173844551912,-0.2039247575234832,0.707478664010465,0.9206704733340041,0.1541526516043061,0.6786610082044793,0.9166191587410978,0.0,0.0,0.0,0.0
0.0332909826413012,-0.047463897630289964,0.7607444412028255,-0.007969437605934044,-0.5522936139026199,-0.006558412602164251,0.8335857720299505,0.07534743716866962,0.3807737767284418,-0.9091349790603294,-0.08970430887793385,0.4591754690049003,-0.9844053542141846,-0.20937113161272997,0.7234307933311634,0.9113484918655165,0.11572383536280889,0.6693544491992012,0.9282447684463991,0.0,0.0,0.0,0.0
0.034850946731595084,-0.0488744633588725,0.7609451771846318,-0.008096771064907029,-0.553041600486351,-0.006704951088256097,0.833087314788025,0.06671270093819026,0.3727190536543796,-0.9187083981722948,-0.0860515841887177,0.47052759117817033,-0.9987368131186173,-0.20788470552115954,0.7323132724663749,0.906374282042666,0.09101774218903488,0.6614105495691466,0.939534878679652,0.0,0.0,0.0,0.0
0.03605478280408976,-0.05032820309309018,0.7610831679400437,-0.008301154034074209,-0.5533829458743761,-0.006598811679415863,0.8328594489717455,0.05925609720986903,0.36448314443793217,-0.9288231631268415,-0.0827519726647001,0.48022399906482155,-1.012070532124972,-0.20028720832011163,0.7372801336516135,0.9010767783161583,0.07358096646925144,0.6535727606854127,0.9508192242007034,0.0,0.0,0.0,0.0
0.036914872120207706,-0.05178529389230221,0.7612854004400147,-0.008559906111534711,-0.5535022023640911,-0.0063416751929136605,0.8327795765634567,0.05251222159841475,0.3564334077805909,-0.9388181357546918,-0.07966049254805714,0.4882245513189882,-1.0232004533067678,-0.18899126939214747,0.7401402568417191,0.8945798968273478,0.05963832478689562,0.6454721340990496,0.962123599549922,0.0,0.0,0.0,0.0
0.037494409486221514,-0.05316677830652948,0.7615620759277887,-0.008759914576233539,-0.5536546028595558,-0.006164783973592687,0.832677512646765,0.046168794393734065,0.34909420380132355,-0.9486469962619358,-0.07652842016823513,0.49455372861015545,-1.0314876776451494,-0.17821487743299474,0.7428257512486165,0.887686632585714,0.04654139937723353,0.6374879261846238,0.9734265458003457,0.0,0.0,0.0,0.0
0.03786929400862501,-0.054422917683949204,0.7619053083258125,-0.008788271868798029,-0.5540418721682268,-0.006280478412513532,0.8324187202080431,0.040153535394980476,0.34297440112250527,-0.958343749457696,-0.07309253340097584,0.4993917045582738,-1.0368219586318939,-0.17132838952256024,0.7468812503829867,0.8812584109516358,0.03220636672493129,0.6299661582398136,0.984662750059139,0.0,0.0,0.0,0.0
0.03800894873852163,-0.05569025189436327,0.7622830765329757,-0.008964621049430587,-0.5541761333242523,-0.006134627661511899,0.8323285500129592,0.03361383653282138,0.33553645714382835,-0.9676494070754682,-0.07007776872684982,0.5031902642446482,-1.0409263416125276,-0.1606222367807633,0.7488828532437333,0.8735374443904215,0.01956824534122209,0.6214271153672004,0.9956331231067567,0.0,0.0,0.0,0.0
0.038000096832800735,-0.05692077111974622,0.762685586102866,-0.00913162257931736,-0.5543014353974685,-0.006004265440789808,0.8322442435859148,0.026844392665008602,0.3277832652321673,-0.9766823759081467,-0.06709355132407702,0.5061322182014142,-1.0436835296950873,-0.15016081711475746,0.7506816220156348,0.8655633840992357,0.0067468381775193445,0.6125258052957158,1.0063705322592076,0.0,0.0,0.0,0.0
0.03790165871608254,-0.05809277576372473,0.7630872923258918,-0.009208030075589997,-0.5545395836754569,-0.006028788595592188,0.832084560623046,0.02002046657305818,0.32016272695720915,-0.9855707394615961,-0.06394860815579351,0.5083801827147555,-1.0452231326108397,-0.14189257918888185,0.7531019910860781,0.8581045721728798,-0.007045980390198794,0.6036218183815046,1.0169048873408242,0.0,0.0,0.0,0.0
0.037722377006914186,-0.05925858401721085,0.7634693351288716,-0.009276579768159952,-0.5547627404013535,-0.006062809149315033,0.8319347866722513,0.01299952764103021,0.31203613163843935,-0.9942417201320635,-0.060795795229332726,0.5101620837236365,-1.0462173993839838,-0.1336937528181736,0.755218225568779,0.8507695549862014,-0.020903136553687585,0.5944372033593296,1.0271606924518608,0.0,0.0,0.0,0.0
0.03747542797539001,-0.06045226244660805,0.7638170277185625,-0.009354694457574746,-0.5549406250433896,-0.0060741303008740284,0.8318151821824037,0.005817678122333763,0.3033413067196658,-1.0025992289165462,-0.05761598264271878,0.5116281085213761,-1.0470370121742085,-0.12500826980353752,0.7568019027020039,0.8434973339801066,-0.03466115220970099,0.5849831163915443,1.037029564164212,0.0,0.0,0.0,0.0
0.03717399731993372,-0.061690701699627384,0.7641054422914305,-0.009411770049075499,-0.5551109685302698,-0.006111481965756766,0.8317005957615465,-0.0013828908834531877,0.2944963817644448,-1.0105069065185628,-0.05428216168491916,0.5128373760224645,-1.0478360017409312,-0.11635577832780483,0.7580090139668433,0.8366401921191323,-0.04853855094842559,0.5755177712101651,1.0463081475018077,0.0,0.0,0.0,0.0
0.0368144539212025,-0.06300349873067128,0.7642981549318153,-0.0094410664988995,-0.5552727354091327,-0.0061802275381613436,0.831591763043742,-0.008519835247727616,0.28601891914195293,-1.017635477923231,-0.05071628802712687,0.5138023664121019,-1.0488207382774903,-0.10762896546631427,0.7586283927622085,0.8305070794135738,-0.06233507861156465,0.5663152899731426,1.0545656627414628,0.0,0.0,0.0,0.0
0.036377437736839,-0.06442997645140688,0.7643472363682635,-0.009450395101633972,-0.5554003884048105,-0.006257561490640113,0.8315058277104252,-0.015539763204014333,0.27870952217339423,-1.0233901482767185,-0.04686749440131714,0.5144778537042678,-1.0502080229714656,-0.09834560342286869,0.7581884053779586,0.8254112979943158,-0.07546177745207944,0.5577750798218738,1.060973562136385,0.0,0.0,0.0,0.0
0.035835938078524254,-0.06600009019512305,0.7641938266502106,-0.009423330779763582,-0.5555014329504903,-0.006357520037720738,0.8314378754699218,-0.02232151104175378,0.2738699749341543,-1.0269452560293448,-0.04264067611453192,0.514723706154192,-1.0520513888734417,-0.08854098713416958,0.7563426461740492,0.8219367156069444,-0.08723639709121311,0.5507099315145393,1.0640467151321267,0.0,0.0,0.0,0.0
0.03516028727534111,-0.06773273946365121,0.7637893317439852,-0.009324313425229517,-0.5556168609472917,-0.006523700527647093,0.8313605730016618,-0.028683805042152084,0.2728287165421014,-1.0273874648194994,-0.03791306277164405,0.5143436878629254,-1.0541883693107603,-0.07865356336174235,0.7529762194865652,0.8207072807513242,-0.09697611721375826,0.546553423107709,1.0613824127487856,0.0,0.0,0.0,0.0
0.03431563311445937,-0.06966483145728793,0.7631284439798666,-0.009157396017746866,-0.5557363518021549,-0.00674349873695817,0.8312808037050959,-0.03454649545413166,0.2754935350245467,-1.024651374807471,-0.032611587019700905,0.513210767975745,-1.056484745706135,-0.06830738482127985,0.747911485709605,0.8215902172557458,-0.10442764095825355,0.5453247231400631,1.053077488257826,0.0,0.0,0.0,0.0
0.03326781761417663,-0.07184483719298428,0.7622480271750238,-0.008948855402195498,-0.5558236895143831,-0.006978882379815878,0.831222737515245,-0.03990432894519054,0.280489663034258,-1.0195649213385458,-0.02667329811716319,0.5112658068040965,-1.0587943302880922,-0.05676639409060951,0.7411035177297417,0.8238049006163062,-0.1100208904235345,0.5456567193165899,1.0416808894706373,0.0,0.0,0.0,0.0
0.03198233603670778,-0.07430873603777312,0.7611944980427203,-0.008709235894634118,-0.5558728075093361,-0.007217819570111619,0.8311903958555305,-0.04473521786244357,0.2864607035228825,-1.0128790532332386,-0.02002030996621893,0.5084035969309559,-1.060777088097726,-0.043730088738266615,0.7327496779626046,0.8265857660661753,-0.1142320888509404,0.5467531336865132,1.0287615033822035,0.0,0.0,0.0,0.0
0.030416796251564314,-0.0770825453000851,0.7600028681051452,-0.008442903653605435,-0.5558869432407768,-0.0074565195915156654,0.8311815830658801,-0.0490200458944367,0.29243868335295353,-1.0051073840482292,-0.01258970381425482,0.5044354013281803,-1.0619777541993052,-0.02910655389504708,0.7230290834716034,0.8293471554222993,-0.11731257904110656,0.5481497429846667,1.0151779373984642,0.0,0.0,0.0,0.0
0.02852209209066141,-0.08018407166543237,0.758695282572017,-0.008155894031038665,-0.5558671653639128,-0.0076874464161708405,0.8311955720710026,-0.052753685631740994,0.29785022715224974,-0.9965432189536527,-0.004352556256583054,0.4991039035160882,-1.0618765067023868,-0.012869516376647214,0.7120338032596862,0.8316470217665616,-0.11932407879118954,0.5495473309786151,1.001356621110599,0.0,0.0,0.0,0.0
0.026247226434938414,-0.08361896315142651,0.7572843957130877,-0.007856158240740025,-0.5558136924722243,-0.007900872380156335,0.8312322156014651,-0.05594756477061446,0.30242226950170686,-0.9873456258356046,0.004678019836238305,0.4921009165354084,-1.0598941041632208,0.004904525277799578,0.6998130415137652,0.8331605609395191,-0.12027128545270953,0.5507425889355381,0.9874710606117164,0.0,0.0,0.0,0.0
0.023544478399694518,-0.0873745155478227,0.755777584205658,-0.007553200643418507,-0.5557285230730846,-0.008087367591922532,0.8312901733380959,-0.058641399293360104,0.30607142604320026,-0.9776295449095879,0.014435243378910558,0.48308347773835775,-1.055385485781157,0.02399143011415988,0.6864234367259524,0.8336623851451237,-0.12019506128540851,0.551597678762675,0.9735461671526715,0.0,0.0,0.0,0.0
0.020375098933413056,-0.09141355842232202,0.7541815550371049,-0.007258768248487988,-0.5556163032775073,-0.008238287623716502,0.8313663238505519,-0.06092390872530218,0.30882287788417395,-0.9675314993323539,0.024784291414824897,0.47169639616021836,-1.0476455435711083,0.044013353576297175,0.671963886215015,0.8330072409352532,-0.11922346178942689,0.5520200426928161,0.9595157557797543,0.0,0.0,0.0,0.0
0.01671723939430249,-0.09566950931675271,0.7525069104346943,-0.006987761991699963,-0.555484108665124,-0.008345587544185752,0.8314559082545522,-0.0629598292378103,0.31078001801224614,-0.9572443478673237,0.03551122857604973,0.4576116521802606,-1.0359470478791812,0.06446038859234836,0.6566007651736987,0.8311164205999775,-0.11761256406071895,0.551948709514979,0.9452567300185162,0.0,0.0,0.0,0.0
0.012578474141831426,-0.10004342065595444,0.7507710968956703,-0.006758095345342719,-0.5553410422088917,-0.008402615160236531,0.831552795103302,-0.06501886458709605,0.31215244860727565,-0.9470225016309893,0.04632162477848939,0.44059690209338753,-1.0196387623825018,0.08472378458686575,0.6405849443815406,0.8279919443862689,-0.11580892693965807,0.5513562790725471,0.9306176868016203,0.0,0.0,0.0,0.0
0.00801587073991643,-0.10440337761849937,0.7489948499374807,-0.006587710400394055,-0.5551981796357258,-0.008407355306915568,0.831649505367255,-0.06749341493934799,0.31334393957413,-0.9371680760284118,0.0568538131225223,0.4206269391691429,-0.9983507465618459,0.104124964604689,0.6242388882038205,0.8238199088399386,-0.11456903040031084,0.55028535820507,0.9154530084251439,0.0,0.0,0.0,0.0
0.0031662987160014384,-0.10858390705986633,0.7471752150337199,-0.006488945125239623,-0.5550684721289301,-0.008358388975897895,0.8317373516762033,-0.07091217208992748,0.3150651342390791,-0.9280459558432052,0.06668051372289477,0.39804519153532253,-0.9723800968100329,0.12197444531626661,0.6077861129952481,0.8193515824756664,-0.11513299195532609,0.5489339504113026,0.8997228454928006,0.0,0.0,0.0,0.0
-0.0014276171922476613,-0.11252675758423569,0.7452205043624714,-0.0064353228906880834,-0.5548191852936154,-0.008291748853166614,0.8319047452385264,-0.07550529526037413,0.31768454479577224,-0.9190676552909113,0.07579102471449856,0.37573094456510414,-0.9473421548618959,0.1380206888924377,0.5913701814438266,0.8159778376191357,-0.1193887151003713,0.5485451329904328,0.883117714244498,0.0,0.0,0.0,0.0
-0.005504689041770703,-0.11593727842186533,0.7432536122778894,-0.0063945521096363655,-0.5545515940411129,-0.008257902886654539,0.8320837976368081,-0.08158171752508679,0.3216122295934441,-0.9112654000684327,0.08362012097582286,0.3549367462601759,-0.9243138486232462,0.151016264927457,0.5759868790825703,0.8146723125977658,-0.13028753628539563,0.5483884216671021,0.8653171790350379,0.0,0.0,0.0,0.0
-0.008722568234425668,-0.1184902366135008,0.7414200869285524,-0.006311988876680961,-0.5543115244706954,-0.00831034807153981,0.8322438529363398,-0.08847123194199921,0.32624754105520215,-0.9057991090737412,0.08955177778057433,0.3375422252639202,-0.9056356925834015,0.15968759321039827,0.562582759085019,0.8165613415162739,-0.14976868057018924,0.5478870127514709,0.8457058294750772,0.0,0.0,0.0,0.0
-0.010619758127946154,-0.11988336850503652,0.7400108557354587,-0.006139412985835088,-0.5541598428052917,-0.008466265437150724,0.8323445792337157,-0.093928594441475,0.32983976770380036,-0.9035350073333839,0.09296214829768147,0.3264670067332072,-0.8947092444182774,0.16313426289052274,0.5530812592865461,0.8214277956461555,-0.17326851638263954,0.5479504285538568,0.8252732734513445,0.0,0.0,0.0,0.0
-0.010638703649811183,-0.12005299192018895,0.7399014212532237,-0.00601701245960117,-0.5541852983928541,-0.008431101389280243,0.8323288815940775,-0.09394186834684555,0.32985143538519246,-0.9035567371644112,0.09315021337945555,0.32624426726504074,-0.8946488278263948,0.1631832663235215,0.5529744286776016,0.8213280662838106,-0.17329696991800325,0.5479883126514684,0.8252816711073164,0.0,0.0,0.0,0.0
-0.010638703649811183,-0.12005299192018895,0.7399014212532237,-0.00601701245960117,-0.5541852983928541,-0.008431101389280243,0.8323288815940775,-0.09394186834684555,0.32985143538519246,-0.9035567371644112,0.09315021337945555,0.32624426726504074,-0.8946488278263948,0.1631832663235215,0.5529744286776016,0.8213280662838106,-0.17329696991800325,0.5479883126514684,0.8252816711073164,0.0,0.0,0.0,0.0
-0.010638703649811183,-0.12005299192018895,0.7399014212532237,-0.00601701245960117,-0.5541852983928541,-0.008431101389280243,0.8323288815940775,-0.09394186834684555,0.32985143538519246,-0.9035567371644112,0.09315021337945555,0.32624426726504074,-0.8946488278263948,0.1631832663235215,0.5529744286776016,0.8213280662838106,-0.17329696991800325,0.5479883126514684,0.8252816711073164,0.0,0.0,0.0,0.0
-0.009712350283883002,-0.12057023092596125,0.7397371279058766,-0.0060491618033915485,-0.5544507770169224,-0.00820739004276577,0.8321540616108855,-0.09340584625591701,0.33441922862960854,-0.9104821040107809,0.09398419247934474,0.3322651371026523,-0.9037273015435288,0.16703517447694916,0.5539827528541671,0.8220280923884197,-0.17127955601587733,0.5484739396805376,0.83183596626975,0.0,0.0,0.0,0.0
-0.007954776035755616,-0.12145369760687766,0.7394877222678183,-0.006026167489360821,-0.5547147966280682,-0.008096832716754218,0.8319793392910836,-0.09196794172349301,0.3434860426452879,-0.9248181841835389,0.09610531553982046,0.34381024851169495,-0.9226096977725574,0.17246649596555674,0.5561678332637903,0.8232008660772492,-0.16893730924944528,0.5491647938662483,0.8416110207700216,0.0,0.0,0.0,0.0
-0.005420104446489774,-0.12280921886910974,0.7392273569529004,-0.00592534188270569,-0.5550130806970276,-0.008107191885343881,0.8317810072480027,-0.08932269827643945,0.3564477309545346,-0.944950542030457,0.09977465582033204,0.3604378363801457,-0.9500559380542619,0.17984160583182393,0.5602057760379541,0.8234022799493583,-0.16588026222535446,0.5505229339893758,0.8541457818484993,0.0,0.0,0.0,0.0
-0.0020920178524753328,-0.1249157845699063,0.7393854833824548,-0.005680276907059879,-0.5554832804979487,-0.008314460932953882,0.8314667337187284,-0.08456211978281784,0.3732123107064566,-0.9679074667083833,0.105798056988307,0.38263356774377355,-0.9845413568663923,0.1899482334852433,0.5695748641720847,0.817122857144028,-0.16142712626291622,0.5551968634816006,0.8663683256398522,0.0,0.0,0.0,0.0
0.0023648796539985748,-0.1285741842863083,0.7418379366025266,-0.005118082939038344,-0.5567288974952195,-0.009099882909133104,0.8306286366673296,-0.07470682270157517,0.39641031400468885,-0.9861107086200279,0.11678384666357775,0.4147829752364253,-1.023146707310232,0.20470415494073235,0.5992291052151936,0.7831096613798291,-0.15444607109977027,0.5748135357453494,0.8642009912342902,0.0,0.0,0.0,0.0
0.00584796471008648,-0.13202739199395672,0.7439200580331475,-0.005189899539714038,-0.5561349052866688,-0.008734046588657179,0.8310299323699133,-0.06763532065799721,0.4138780653639332,-1.0073573695364626,0.10710303096037686,0.38688615484333316,-0.9811622949142842,0.17505145422273885,0.5889544283694904,0.8247482715424057,-0.1376313288713641,0.5911664308770763,0.8594444922276354,0.0,0.0,0.0,0.0
0.009899903896237738,-0.1356144959770052,0.7458278827104947,-0.005208309117629641,-0.5557252335348393,-0.008614620791949669,0.8313050743483974,-0.05966033872045526,0.433775457005286,-1.0316059389644485,0.09623531830309785,0.3669938550941718,-0.9599538442006796,0.14732170477748968,0.5850652937261295,0.8573284601632012,-0.1212849311968009,0.6076307554166502,0.8568587262572258,0.0,0.0,0.0,0.0
0.013839306983454381,-0.13933533064614165,0.7476672295378107,-0.005069531590465365,-0.5555929078692835,-0.008703526577817191,0.8313934502989041,-0.05077852302696599,0.45219091743447903,-1.0515573116423718,0.08701492489896645,0.3535930861825242,-0.9525628571855288,0.12909702630826472,0.5825413965360294,0.8826617408718775,-0.10534258678494587,0.6239019067280869,0.8551084966389166,0.0,0.0,0.0,0.0
0.017442026299873205,-0.14308816170645144,0.7494648874792809,-0.004824591959530275,-0.5555882659951772,-0.008895256130641642,0.8313959805166649,-0.04146705983144229,0.4682208799141183,-1.0667240858530018,0.07989230636066307,0.3441582732771618,-0.9526291406545354,0.11877495147344817,0.5800770558218887,0.903132749335628,-0.08937630491236029,0.6397608963635495,0.8531492595302603,0.0,0.0,0.0,0.0
0.02059984284745916,-0.14680230112882908,0.7512021700122705,-0.0045300170314789365,-0.555626209217491,-0.00912536631939266,0.8313697867169773,-0.03204785730278509,0.4814920112046112,-1.077294992541958,0.07454270071188047,0.3370316434545448,-0.9565910962986681,0.11319847946671634,0.5775398970133341,0.9205447964195999,-0.07313268089154093,0.6548504845356111,0.850835514834402,0.0,0.0,0.0,0.0
0.023286956233108662,-0.15042104316149324,0.7528580044923614,-0.00422456215397928,-0.5556649533273208,-0.009358959676352196,0.8313429031345188,-0.02275748386297866,0.4920234250001858,-1.0838053069511364,0.07035949784576499,0.3311147836499714,-0.9624927414779572,0.10995202887380513,0.5749654434804667,0.9361066151336691,-0.05661226869469812,0.668920952702987,0.8482502068276958,0.0,0.0,0.0,0.0
0.025529030077424276,-0.15389990181276147,0.7544218924110765,-0.003929391182799664,-0.5556884171295358,-0.009580733623904821,0.8313261408714581,-0.013766194708856195,0.5000773127780418,-1.0869289028473061,0.0667584331198013,0.3256896765018481,-0.9692613719109262,0.10760211324687285,0.5723372025168437,0.9506010970888484,-0.03999596862704448,0.681876838376571,0.8454638531331414,0.0,0.0,0.0,0.0
0.02737928145126331,-0.15720741756699436,0.7558932195236838,-0.0036542218542011664,-0.5556937650218974,-0.009785967674866433,0.831321430624217,-0.005188449907259297,0.5060349553610226,-1.0873613355544098,0.06330041454299988,0.32030305825783034,-0.9763118430603928,0.10539561010582824,0.5695994122877328,0.9645300374809378,-0.02353586522936473,0.6937437262514187,0.8424959992810896,0.0,0.0,0.0,0.0
0.028901809170895666,-0.16032483861171598,0.757276953891297,-0.003402574165301457,-0.5556836654037726,-0.009974720042804615,0.8313270063293658,0.0029079990174028375,0.5103093646704422,-1.0857563386354245,0.05970592641737564,0.314678876381275,-0.9833322394049728,0.10296050910916961,0.5667008157854101,0.9782131673286324,-0.007473310050807851,0.7046173430948746,0.8393388147403829,0.0,0.0,0.0,0.0
0.030161038785543628,-0.16324432234230632,0.7585797745099194,-0.0031749291387163435,-0.5556621881338398,-0.010148771553832283,0.8313401559766167,0.010492499542046362,0.5132920140293411,-1.082693562912098,0.05582266985450917,0.3086529954001787,-0.9901669903475911,0.10012035923756472,0.5636224442200422,0.9918488997049967,0.008003117957642436,0.7146205747008348,0.835985592354846,0.0,0.0,0.0,0.0
0.031215749703224323,-0.16596626767812728,0.7598073323419892,-0.0029703952316325025,-0.5556329420959895,-0.010310201128156676,0.8313584727195723,0.01756143767468283,0.5153252780562317,-1.0786669341342088,0.05158330533395519,0.3021324047698348,-0.9967489224625119,0.09679862650102432,0.5603899732683538,1.0055466252610836,0.022768916784348562,0.7238728686244447,0.832450936851736,0.0,0.0,0.0,0.0
0.032116206061463065,-0.16849643346633875,0.7609621055725033,-0.0027876075154063084,-0.5555983018044567,-0.01046074785629837,0.8313803756588382,0.024128597693238833,0.5166915559284528,-1.0740878700074183,0.046969701042191656,0.2950855618359236,-1.0030504379390721,0.0929709566241189,0.5570797267926395,1.0193357459233758,0.03675750113312454,0.7324679512852944,0.8287865271058138,0.0,0.0,0.0,0.0
0.03290306332912124,-0.17084330917164608,0.7620411181690394,-0.002625341943192257,-0.5555590086675916,-0.010601486254639171,0.8314053788358342,0.03021686890363343,0.5176110388020494,-1.0692982556173631,0.04198768091041981,0.28757402945731136,-1.0090332828212214,0.08863359798374229,0.553824881611133,1.0331495909188675,0.049947436930959696,0.7404538712830224,0.8251001967709722,0.0,0.0,0.0,0.0
0.033606832153517154,-0.17301607509343028,0.7630330520152118,-0.002483135973905002,-0.5555138323098183,-0.010732581302629671,0.8314343196228892,0.03585207968715727,0.5182409978209005,-1.0645864494915183,0.03665063860079108,0.27983443089031146,-1.0145825558939114,0.08376544715741839,0.5508258935551139,1.0467739459972027,0.06235078347527988,0.7478105705794944,0.8215842848156902,0.0,0.0,0.0,0.0
0.03424688863055283,-0.17502350303992117,0.7639149200910541,-0.0023620768401548275,-0.5554593554355836,-0.010853038054866003,0.831469504321756,0.04105975534284707,0.5186707764552697,-1.0601969444444364,0.030969364121640724,0.2724046308021764,-1.0194206289579357,0.07826611374242545,0.548372636837912,1.0597410295339493,0.07400797443183281,0.7544244657419582,0.8185530927758666,0.0,0.0,0.0,0.0
0.03482977951702395,-0.176874261831716,0.7646498867308229,-0.0022656575965259796,-0.5553903840154248,-0.01096055155619885,0.8315144342995124,0.04586582717706586,0.5189111287240632,-1.0563226420649832,0.024947622024302032,0.2662426631426109,-1.0230172997500808,0.07186351556477773,0.5469004213681933,1.0711428171274289,0.08499197301516123,0.7600703841707941,0.8164739536882234,0.0,0.0,0.0,0.0
0.035348706160689546,-0.178579009397231,0.7651911004424405,-0.002199722258779323,-0.5553022982388288,-0.011052153589388818,0.8315722269855431,0.05030236944536695,0.5188898534967736,-1.0530699893667517,0.018587355959531107,0.2626904197298398,-1.024546100469627,0.06403084088061813,0.5471289687672194,1.079342099692616,0.09541478427037237,0.7644368750836978,0.8159386000310332,0.0,0.0,0.0,0.0
0.03579019781729567,-0.18015325005654106,0.7655028876629141,-0.0021676555941115665,-0.5551989072438511,-0.011128755694708996,0.8316403221712776,0.054418345613130255,0.518494080057878,-1.0503874858339803,0.011911892400017245,0.26299109946158483,-1.0230029182870817,0.054098268306372044,0.5503017827541801,1.081700230191153,0.105388509456661,0.7672783313518884,0.8174444833180872,0.0,0.0,0.0,0.0
0.03614444813254951,-0.1816139999406089,0.7655889169083744,-0.0021671893094329137,-0.5550792994126139,-0.01119071170750431,0.8317193292364788,0.058256934938381126,0.5176553507116343,-1.0481469743147462,0.005001435679044419,0.26712556607831867,-1.0183583718959408,0.04218279586885569,0.5563357843169562,1.0781090480357876,0.11499244428480582,0.7685862554410039,0.8210208714353571,0.0,0.0,0.0,0.0
0.036407303218872054,-0.1829819281504842,0.7654941389355264,-0.0021907148881059385,-0.5549375296301113,-0.011237724571582954,0.8318132317550385,0.06186066514627879,0.5163563385190313,-1.0461462192788695,-0.002012431403841858,0.2738357896106166,-1.0115988332914938,0.029140530531243696,0.563861353180187,1.0710237531026154,0.12428074352766243,0.7686029286551397,0.8262106496995121,0.0,0.0,0.0,0.0
0.036570808825520884,-0.18428521209123672,0.7652778739227478,-0.0022290765459939614,-0.5547752997608367,-0.011273114031822412,0.8319208585514918,0.06529405590372171,0.5145475339370229,-1.044027902674239,-0.008999043726382222,0.2817796947314194,-1.0035515640932644,0.015629440510200224,0.5720853920568101,1.061953644437226,0.133319713825986,0.767657267702936,0.8324312848688723,0.0,0.0,0.0,0.0
0.036615830608436664,-0.18555546424495212,0.7649922792492481,-0.0022762177559033686,-0.5545944336324413,-0.011299510230421193,0.8320409569757922,0.06862935887967546,0.5121036671695008,-1.041349305557762,-0.015854650882512297,0.2900045174407236,-0.9947440015905731,0.002023148234060209,0.5805319968678704,1.0517248226391984,0.14221531689948747,0.7660059084220436,0.8391991721551877,0.0,0.0,0.0,0.0
0.03651230036675487,-0.1868249437013527,0.7646780515000337,-0.0023290868639880185,-0.554394772443448,-0.011318281155883203,0.832173604576253,0.07193878362588971,0.5088289048748312,-1.0376190918839479,-0.02250264035483685,0.29798183881408097,-0.9854492770661992,-0.011492374957883463,0.5888843843001321,1.0407579036548211,0.1510946729279134,0.7638019374679781,0.8461643781926688,0.0,0.0,0.0,0.0
0.03622157844500387,-0.18812561178751125,0.7643663173316955,-0.0023869542966413306,-0.5541738375280567,-0.011329549314422828,0.8323204320217934,0.07529154281942083,0.5044718411119499,-1.0323127168903405,-0.028891495381230578,0.30548572401070767,-0.975780775314725,-0.024831223982934653,0.596913612061938,1.0292525889768402,0.16009168582101393,0.7611115346335914,0.8530807752781048,0.0,0.0,0.0,0.0
0.035699278645278776,-0.1894886105431506,0.7640816402555071,-0.002451130484145747,-0.5539270303730797,-0.011332136040400112,0.8324844861462422,0.07875188072763258,0.49874093923604373,-1.0248814466453158,-0.03500264475022036,0.3124613078073528,-0.9657787601591246,-0.037964738283652204,0.6044439749679156,1.017302256731554,0.16933849106166565,0.7579410793045485,0.8597653705439029,0.0,0.0,0.0,0.0
0.034899122138685526,-0.19094268566958597,0.7638441098030873,-0.0025251831633740112,-0.5536478661808975,-0.011323260190165494,0.8326700712178843,0.08237447006324371,0.49132533805489753,-1.0147743970087226,-0.04086910008458576,0.3189374691175575,-0.9554700806549097,-0.050918292731143254,0.6113347144119774,1.0049675694427318,0.17895548005805323,0.7542624206301243,0.8660648127539063,0.0,0.0,0.0,0.0
0.033779318374696284,-0.19251017971158976,0.7636696992855941,-0.0026156284160696293,-0.5533279772365101,-0.01129780364959475,0.8328827454858435,0.08619386669733202,0.4819320907328855,-1.0014966038076607,-0.04659811669020249,0.3249913445350129,-0.944899548035942,-0.06380531013825232,0.6174794059911694,0.9923362323583039,0.1890336659161736,0.7500351091477391,0.8718334692271443,0.0,0.0,0.0,0.0
0.03231340975974096,-0.19419908815424167,0.76356837241363,-0.0027332629860317877,-0.5529565997220157,-0.011246715228446506,0.8331296654746402,0.0902044109904204,0.47035571954729544,-0.9847341430454617,-0.05238425032717643,0.3307549675253069,-0.9341357671827508,-0.07691780842362957,0.6228397653506467,0.9795951866358544,0.19960697778973918,0.7452281527145886,0.8769249094742559,0.0,0.0,0.0,0.0
0.030507928971354917,-0.19598933537540508,0.7635390416454579,-0.002895838120930612,-0.5525188831812873,-0.011153572797997358,0.8334207194829752,0.09432608181605502,0.45660350020767043,-0.964595892590706,-0.058491667583868145,0.33644626898241226,-0.9232523171285987,-0.09093660580161446,0.6275473906609313,0.9671437626558589,0.21061940084598232,0.7398431345798361,0.8812035857856018,0.0,0.0,0.0,0.0
0.028429732672157197,-0.19781095670707524,0.763559229287668,-0.0031341714649342016,-0.551990473950902,-0.010986724363313612,0.8337721424492734,0.0983494540428118,0.44111310537637877,-0.9420636991760739,-0.06518313385674278,0.34238557952995974,-0.9122750020335336,-0.10740303814532519,0.6321328171108804,0.9557648399228998,0.2219077554587441,0.7339329030844417,0.8845950103403248,0.0,0.0,0.0,0.0
0.026245365680463203,-0.19951045709838244,0.7635646783860349,-0.0035083965783786076,-0.551303557660184,-0.010668502905711991,0.834229142088925,0.10182143510755591,0.42512540959442324,-0.9199347642049425,-0.07265862617784222,0.34879856892452077,-0.9009509820425953,-0.1296224749649688,0.6379542603474443,0.946622183556734,0.23328975213704134,0.7275592036005165,0.8871694690006484,0.0,0.0,0.0,0.0
0.02428041307970428,-0.20086373032280846,0.7634793094259877,-0.0041037993698127264,-0.5503159460577004,-0.010108541093141833,0.8348852230949586,0.10417278712157231,0.4111815117257647,-0.9035943324728313,-0.0816033260377952,0.3554479381127497,-0.8889534157427971,-0.16349860636640767,0.6468485907757481,0.9412845211347735,0.24442262133860765,0.7209427561705287,0.8888074197867012,0.0,0.0,0.0,0.0
0.022669569458815632,-0.20178248492398376,0.7633423408565528,-0.0049301335474909785,-0.5490374348504196,-0.009267558640615441,0.8357318357421343,0.10515026506444729,0.40051525346711353,-0.8950224296080492,-0.09162639168737238,0.3612856027638029,-0.8772857974435724,-0.2117125427096369,0.6577163887859923,0.9417310087188457,0.2551701309906536,0.7147289727811849,0.8889783806456273,0.0,0.0,0.0,0.0
0.02156153907170807,-0.20223953053761218,0.7628616007926845,-0.0056636456457212795,-0.5476483991105635,-0.008417280171427585,0.8366470602734181,0.10504524791679944,0.393791113939441,-0.8947875599176506,-0.10061348861667381,0.3637274118875449,-0.8687888061805994,-0.2616875919242753,0.6645806133314479,0.9494949034000273,0.26259901251357304,0.7073546330584309,0.89115122873169,0.0,0.0,0.0,0.0
0.02156934957515221,-0.20227478970802754,0.7628482467059414,-0.005678339939040956,-0.5476272463545172,-0.008399137898673546,0.8366609886855397,0.10509178899305661,0.39368716494097894,-0.8947561477658867,-0.10066119168959685,0.36374357214639735,-0.8687874028448559,-0.26170373430472343,0.6646014285981502,0.9495054022053283,0.26263614686871256,0.7072774424625217,0.8910811074923328,0.0,0.0,0.0,0.0
0.02156934957515221,-0.20227478970802754,0.7628482467059414,-0.0056783399390409545,-0.547627246354517,-0.008399137898673543,0.8366609886855397,0.10509178899305661,0.39368716494097894,-0.8947561477658867,-0.10066119168959685,0.36374357214639735,-0.8687874028448559,-0.26170373430472343,0.6646014285981502,0.9495054022053283,0.26263614686871256,0.7072774424625217,0.8910811074923328,0.0,0.0,0.0,0.0
0.0219078416202949,-0.202601804004068,0.7630207983549033,-0.005693556391625995,-0.5484681483511488,-0.00852486138222646,0.8361086056238696,0.1060711171243079,0.39430500474789715,-0.8907035083985761,-0.09949517795669816,0.3659430550811511,-0.8681891588251816,-0.2629952415482822,0.6691951408069164,0.9495915065222044,0.2664030976505169,0.7115251558733793,0.8924794353292478,0.0,0.0,0.0,0.0
0.022615209612098973,-0.20309478920755114,0.7630710233497595,-0.005702915218295322,-0.5490045253935283,-0.008571458560025075,0.8357559679437493,0.1073996642011528,0.3968626389202409,-0.891613337061121,-0.09829009800931741,0.37098876820522014,-0.8739948313304735,-0.26274863416462796,0.6730470164394624,0.9497323906438561,0.2717188744802767,0.7153804646328227,0.8949210979583039,0.0,0.0,0.0,0.0
0.023812199375813192,-0.20369089439924923,0.7630132097978402,-0.005603045998062741,-0.5495015820479803,-0.008723203532741301,0.8354283469708439,0.1092321010157401,0.40200890888837904,-0.8968020881083455,-0.09683757091964942,0.379171181730278,-0.8857961686115596,-0.26391354019703944,0.6778312631021043,0.9508252713173194,0.27731590727558053,0.7196249009065931,0.898733609619213,0.0,0.0,0.0,0.0
0.025578830652383824,-0.20440994789633127,0.7628974526660988,-0.005234312570727739,-0.550346221928578,-0.00927013892861751,0.8348686738075015,0.11208005883465776,0.4098121437681089,-0.9036303480833556,-0.09450388004016687,0.39060188179197913,-0.9025061333776039,-0.27034523484232026,0.6860468024524702,0.9535168116807519,0.28175655420025963,0.7253317321956616,0.9043146495332227,0.0,0.0,0.0,0.0
0.027932660263054864,-0.20539727121615936,0.7628560104688471,-0.004639722179834425,-0.5519481043345924,-0.010376442233901103,0.8338009909721326,0.11661888945512873,0.41976708445160404,-0.9085239206220319,-0.09043682219344888,0.4053214735299885,-0.9220601774119461,-0.28358416722427765,0.7003031986028017,0.9571853803578885,0.28640456860513736,0.7345334572075878,0.9115146504866067,0.0,0.0,0.0,0.0
0.029667286870651167,-0.20708589933250068,0.7635349558242817,-0.006266433965090722,-0.5510172244473205,-0.008114691100131544,0.8344308850684291,0.10654511107821206,0.40117484157237665,-0.9010257404661237,-0.09065907172530958,0.4204548810958416,-0.9423549103754876,-0.24744378718313575,0.6988776324568384,0.9430465280890529,0.23000570368822185,0.7062361166975372,0.9184155854085644,0.0,0.0,0.0,0.0
0.0315789167984477,-0.2086692557549193,0.7640384967463104,-0.007341323591518092,-0.5511102157135035,-0.0068998366865531836,0.8343716362376176,0.09384221398284003,0.3871375132894212,-0.9026146631288816,-0.08905905334594993,0.4351642445473736,-0.9603741800418245,-0.2260721624489689,0.7032071654708216,0.9336426950886862,0.17580469165140927,0.6848953253184175,0.9255143820089096,0.0,0.0,0.0,0.0
0.03353448302524981,-0.21015459045200294,0.7644500465025319,-0.00780882824512894,-0.5517097387417109,-0.00656508638746353,0.8339737921659867,0.08268826111076256,0.37714373637766563,-0.9095000410608451,-0.08610784726970641,0.44930664793405206,-0.9777929195148161,-0.21544454309952768,0.7111187265425616,0.9270344072725162,0.13671417357718835,0.6712194533270782,0.9345883695977197,0.0,0.0,0.0,0.0
0.03530822785389631,-0.21156394624210317,0.7648030972232202,-0.008016549367082952,-0.5523471280728325,-0.006538089846133213,0.8335500215506584,0.07359413360804622,0.3691179522556664,-0.918776791785501,-0.08279470412839857,0.46207362047501477,-0.9938926527687075,-0.20826070320412152,0.719240168646333,0.9212975286704678,0.1095839731253718,0.6617934360727646,0.9451223807265655,0.0,0.0,0.0,0.0
0.036776961022893066,-0.21290994114315295,0.7651406061381952,-0.008162016107198092,-0.552861397165751,-0.006535929356613522,0.8332076203710842,0.06604491989152618,0.3620099743852055,-0.9289018477757945,-0.07956412823933481,0.4730065596868788,-1.0077911575844545,-0.2010468560207752,0.7261756383634873,0.9153999441871733,0.08964443492605474,0.6541920005340461,0.956421890612719,0.0,0.0,0.0,0.0
0.03790559480297169,-0.21419925890376013,0.7654948158025593,-0.008314633691784375,-0.5532406265487602,-0.006479006167364801,0.8329547997830314,0.059360910901805064,0.35530303218198045,-0.9391604415289315,-0.07651805377937144,0.4820139125696237,-1.0190809415381492,-0.19280375544591255,0.7316926792856794,0.9089637049944546,0.07352362677554704,0.6471037861787922,0.9679964832722227,0.0,0.0,0.0,0.0
0.03871423218626812,-0.21543340474221573,0.7658782349875917,-0.008475671711804102,-0.5535339482118029,-0.006387428779723863,0.8327589878948595,0.053007821054882026,0.34874613201002247,-0.9492795120836572,-0.07360788657996531,0.4892249946941013,-1.027754185495152,-0.18387390767177597,0.7361135236009758,0.9020324796098987,0.0592263315912059,0.6399768841079745,0.9795752920639547,0.0,0.0,0.0,0.0
0.03925948985904627,-0.2166035886125742,0.7662960006244253,-0.00858511157852159,-0.5538592741208719,-0.006377709783431084,0.8325416056554793,0.04677201415369663,0.34251957765500374,-0.9591851988893434,-0.07064220857616553,0.49487435238506744,-1.0339127235990258,-0.17592535672717619,0.7403580200507601,0.8949841375611076,0.04511421512542142,0.6327892128939516,0.9910337085762592,0.0,0.0,0.0,0.0
0.03955745488981261,-0.21777674337903746,0.7667325090337453,-0.008768182970152482,-0.5540299365127065,-0.0062330423045287514,0.8324272326148143,0.04019800908420691,0.33547030156053925,-0.9687372157732239,-0.06787865873030088,0.4993208454870583,-1.038526857583655,-0.16587769712817677,0.7431442531548305,0.887155751450879,0.03206269579386495,0.6248295813887023,1.0022519186792382,0.0,0.0,0.0,0.0
0.039684287381726795,-0.21892460757682325,0.7671781414279685,-0.008915492629781403,-0.5542205506361827,-0.006146511675649008,0.8322994146567183,0.03346388283815583,0.3282344284660797,-0.9780359031659978,-0.06503563972029151,0.50278439768735,-1.041646709802192,-0.15651969032813828,0.7457982776621366,0.8793089598061726,0.018751179537271234,0.6165525659393523,1.0132604171961248,0.0,0.0,0.0,0.0
0.03968234929420129,-0.22005864150778587,0.7676135216120138,-0.009023552933137797,-0.5544375409221516,-0.006122847412954751,0.8321538916860379,0.026577108794935928,0.3207077144984723,-0.9871205589070116,-0.06208997523093954,0.5054943964524876,-1.0436901977109012,-0.1478981078253659,0.7483665808974098,0.8716413284380427,0.005148679663454735,0.6079985172399345,1.0240556903716234,0.0,0.0,0.0,0.0
0.039577098550408606,-0.22120667033844205,0.7680238498754692,-0.009117257858720867,-0.5546421751307441,-0.0061173149445745275,0.8320165332691674,0.019531393286052228,0.31266402218696393,-0.9959571208602076,-0.0590663757422904,0.5076579448018708,-1.0451156181769286,-0.13931733131317503,0.7505780335357397,0.8640953870664891,-0.008513889836947813,0.5991150358976107,1.0345868256338366,0.0,0.0,0.0,0.0
0.03938904250021128,-0.22239023301587219,0.7683930617108452,-0.009196730737145914,-0.5548314077922113,-0.006127680735319502,0.8318894040675523,0.012392745843599916,0.30415344460852795,-1.0044795771400028,-0.05592253285256322,0.5094168377427885,-1.0462270590532536,-0.1306535948719196,0.7523839916589085,0.856764765045882,-0.022235034163947273,0.5899950549295954,1.044754731212579,0.0,0.0,0.0,0.0
0.03912885176624243,-0.2236313066434775,0.7686973481148495,-0.009256121341684404,-0.5550081751436114,-0.006160694092902625,0.8317705786992949,0.0052381200761571515,0.2954271475361027,-1.0125302939599958,-0.05259714123357706,0.5108507385375867,-1.0472609452521038,-0.12187938000155457,0.7537080541068433,0.8498486687833192,-0.03598056066568932,0.5808190264074533,1.054344009285825,0.0,0.0,0.0,0.0
0.03879496435964383,-0.22495671703239314,0.7689025424853465,-0.00929135205235308,-0.5551689794361516,-0.006217970614257989,0.8316624386674567,-0.001859360339628022,0.2870012854079459,-1.0197726905834823,-0.04902577646801252,0.5119795648759157,-1.0484254635610688,-0.11286805983844737,0.754344040806925,0.8436247172160273,-0.04956752288483058,0.5718500052239435,1.0629108829915617,0.0,0.0,0.0,0.0
0.03837192577521581,-0.22639827753782946,0.7689618036270363,-0.009302218844401881,-0.5553010009216531,-0.006291187555871135,0.8315736215508027,-0.008833166498355093,0.27974689035482386,-1.0256196329135399,-0.04514968142698359,0.5127540300556661,-1.049898616097267,-0.1033552975309336,0.7539197197204242,0.8384601833943067,-0.06253425871730263,0.5635047278894315,1.0696068113847745,0.0,0.0,0.0,0.0
0.03783412481077911,-0.22798285553825348,0.7688180240199795,-0.009275218902982954,-0.5554087962855726,-0.0063904019523925975,0.831501173833086,-0.015578046559290577,0.2749626405407144,-1.0292428526667445,-0.04088870019254012,0.5130372272238338,-1.0517317205944747,-0.09334687944994975,0.7520857211318487,0.834911998062021,-0.07421090787564964,0.556576566961193,1.0729133457218132,0.0,0.0,0.0,0.0
0.03715240872191463,-0.22972898698396488,0.768425285534601,-0.009183748937489584,-0.5555218286256028,-0.006545090312222883,0.8314254737910816,-0.021944466718136303,0.27393408071631575,-1.0297213599436619,-0.036146683625578234,0.512644176091893,-1.0537853152737915,-0.08313011086626895,0.7486773111298233,0.8335229366347792,-0.0838574044625692,0.5524707327059722,1.0703873733800213,0.0,0.0,0.0,0.0
0.036295561242482774,-0.23166792894261728,0.767779255025224,-0.009027731739642138,-0.5556360927788091,-0.006750047548606877,0.831349186154186,-0.027848027292965528,0.2766047798606107,-1.02699901457209,-0.03085187915443631,0.5114519945024465,-1.055912703441889,-0.07245292923087353,0.7435703701476281,0.8341947139235575,-0.09128133841515783,0.5512223547324964,1.0621154807322983,0.0,0.0,0.0,0.0
0.035233463599278224,-0.23384187908020365,0.7669165301536931,-0.008828255873346907,-0.5557225798710068,-0.006975683591790223,0.831291655171742,-0.03327661797005424,0.2816318225940719,-1.0219172140085693,-0.02494302838020431,0.5094059321960233,-1.0579585913803369,-0.06070675174624586,0.7367624469108143,0.8362140087875608,-0.0969522775807382,0.551492673108151,1.0506682843845323,0.0,0.0,0.0,0.0
0.0339345365137424,-0.2362835565414358,0.7658842059564399,-0.008596267597575926,-0.5557744249571916,-0.0072089165944356215,0.8312574356169262,-0.03821363116352331,0.2876547860730775,-1.0152335122104417,-0.01835366967599989,0.5064125348867085,-1.0595966098884357,-0.04759389063554166,0.7284469010645678,0.8388320117146056,-0.10132412205714433,0.5525043774803579,1.0376342891567454,0.0,0.0,0.0,0.0
0.032358729007490164,-0.23901711907611867,0.7647188485924551,-0.008337309275881276,-0.5557928760080325,-0.007443607555928955,0.8312456682349156,-0.04264440284885007,0.2937009248882869,-1.0074642037073858,-0.011030964006173547,0.5022967322711938,-1.060388181080701,-0.033003205959731066,0.7187975423152713,0.8414585427881002,-0.10462930867940916,0.5538056905549216,1.0238846978555483,0.0,0.0,0.0,0.0
0.03045885830162642,-0.24205887113700628,0.7634443676684483,-0.008057335565339777,-0.5557786069243724,-0.007671920585210411,0.8312558938517824,-0.04656407711106896,0.2992020591170175,-0.9989050915633049,-0.002951204962968598,0.49681303689940176,-1.0598247152588096,-0.016907418469415875,0.7079120073179984,0.8436490797621693,-0.10692876400155003,0.5551075392961052,1.0098525723839382,0.0,0.0,0.0,0.0
0.02818523776467993,-0.24541367185436597,0.7620753297324364,-0.007763817510619706,-0.5557317355410043,-0.007884329742981842,0.8312880358785089,-0.04998274306100135,0.3038926091366805,-0.989717898320044,0.005870276478785321,0.4896636908685011,-1.0573361310206517,0.0006194018066252235,0.6958464247052256,0.8450739835102753,-0.10822799109116651,0.5562143069043051,0.9957146930216689,0.0,0.0,0.0,0.0
0.025490829415719753,-0.24906918915593068,0.7606213411041444,-0.007465821134158234,-0.5556537533856322,-0.008071306045924608,0.8313410983958178,-0.05293649748870932,0.3076954875388556,-0.9800210269962033,0.015367233003329298,0.48051592689639655,-1.0522872983278944,0.019366145766968424,0.6826629556344774,0.8454946519745168,-0.10856363216956323,0.5569935962942807,0.9814985647282525,0.0,0.0,0.0,0.0
0.022337024258629587,-0.2529900268111406,0.7590917518122546,-0.0071746154253768376,-0.5555484821343855,-0.008223937782327747,0.8314125183920619,-0.05550618604699705,0.31064104913463314,-0.9699573089252219,0.025409084265999915,0.4690249141582375,-1.0439842368891186,0.038975726730328154,0.6684670819529287,0.8447419638185149,-0.10805505278834143,0.5573566111366214,0.9671421711738638,0.0,0.0,0.0,0.0
0.018701621067221487,-0.2571129321949119,0.7575003226392489,-0.006904481351653144,-0.5554220810809398,-0.008333991158704002,0.8314981566884856,-0.05784359336963448,0.3128369032169557,-0.9597316026066643,0.035790768175792693,0.4548728215148255,-1.031710784983402,0.058962443201905745,0.6534363754552879,0.8427002597761662,-0.10694548642258533,0.5572440014030694,0.9525304672979614,0.0,0.0,0.0,0.0
0.01459136144566893,-0.26134400473440095,0.7558684641773378,-0.006672591907680017,-0.5552829026599567,-0.0083948814760679,0.8315923884306358,-0.0602017434100403,0.31449623895956974,-0.9496186790929863,0.046232071277554826,0.4378367602912375,-1.0148238272700745,0.07874245589181131,0.6378425539872694,0.8393158465029469,-0.10566201773808105,0.5566260868228324,0.9375276358527044,0.0,0.0,0.0,0.0
0.010062085703248718,-0.2655584861108514,0.7542224552754697,-0.00649631405352909,-0.5551416797041888,-0.008404872937801308,0.831687965206801,-0.0629569180044432,0.316027696949881,-0.9399494439420388,0.05639154458359405,0.4179010610480496,-0.9929553165567317,0.0976640196902433,0.6220472393903663,0.8346862944234199,-0.10492539550491388,0.5555374920423641,0.9220187551494021,0.0,0.0,0.0,0.0
0.0052495060438451716,-0.26960135192432527,0.7525682185490556,-0.006388375204678331,-0.5550110053161091,-0.00836237405299368,0.8317764383176791,-0.06662895279379964,0.31815377373609266,-0.9311207310736603,0.06586930412884867,0.39542524156965336,-0.966401855223199,0.11507617610258492,0.6063469924560752,0.8294072268192749,-0.10589476677905554,0.5541659703484534,0.9060221766709936,0.0,0.0,0.0,0.0
0.0006733754588838185,-0.2734216253306578,0.7508298836509266,-0.006325583323039116,-0.5547709897932994,-0.008306231616186105,0.8319375832330959,-0.07149756961024265,0.32128093089660786,-0.9225444816407804,0.07467644782622407,0.3731829753260056,-0.9404917142858944,0.13074046565367564,0.5910038349316135,0.8246573431553179,-0.11032602080128555,0.5537294145721959,0.8893210012406575,0.0,0.0,0.0,0.0
-0.0033804655074382043,-0.2767483821358324,0.7491329122209388,-0.006278151635871901,-0.5545111484335089,-0.008281708432068616,0.8321114014243731,-0.07777717294152717,0.3259067996639283,-0.915269118595225,0.08229500737692012,0.35260927711649603,-0.916641463578967,0.14351265029597124,0.577096511945654,0.8212155403930286,-0.12096724423942938,0.5535309249917638,0.8717893446213982,0.0,0.0,0.0,0.0
-0.006568811274896755,-0.27927271056696984,0.7476219693689166,-0.00619321156715995,-0.5542762220259174,-0.008343403425594696,0.8322679264794709,-0.08477038137469506,0.3315908561302578,-0.9105814939147204,0.08815067717399577,0.3356204621607018,-0.8972729762468862,0.15214710558615946,0.565615568984862,0.8201000436093133,-0.13965096568368804,0.5529437597259259,0.8530508556964679,0.0,0.0,0.0,0.0
-0.008431709103944578,-0.2806917112323328,0.7465268202616993,-0.006020850151020596,-0.5541205765481585,-0.008510252967680418,0.8323711381372023,-0.09023668445298544,0.33669280304597093,-0.9096716372769298,0.09162454001431664,0.32508474383851144,-0.8859922591290899,0.15569525180217517,0.5581063179004492,0.8217050649938235,-0.16205083849755855,0.5527332713655679,0.8342160074055216,0.0,0.0,0.0,0.0
-0.008452374971182054,-0.28085984525497626,0.7464215838525112,-0.005900124861394993,-0.5541437443014234,-0.008475441497423514,0.8323569342954034,-0.09024804659617044,0.3367037749896686,-0.909694430668283,0.09180806939249206,0.3248615880578083,-0.8859300345248529,0.15574194244706813,0.5580053105546711,0.8216066292504118,-0.16207872511224905,0.5527713417285706,0.8342251915558808,0.0,0.0,0.0,0.0
-0.008452374971182054,-0.28085984525497626,0.7464215838525112,-0.005900124861394993,-0.5541437443014234,-0.008475441497423514,0.8323569342954034,-0.09024804659617044,0.3367037749896686,-0.909694430668283,0.09180806939249206,0.3248615880578083,-0.8859300345248529,0.15574194244706813,0.5580053105546711,0.8216066292504118,-0.16207872511224905,0.5527713417285706,0.8342251915558808,0.0,0.0,0.0,0.0
-0.008452374971182054,-0.28085984525497626,0.7464215838525112,-0.005900124861394993,-0.5541437443014234,-0.008475441497423514,0.8323569342954034,-0.09024804659617044,0.3367037749896686,-0.909694430668283,0.09180806939249206,0.3248615880578083,-0.8859300345248529,0.15574194244706813,0.5580053105546711,0.8216066292504118,-0.16207872511224905,0.5527713417285706,0.8342251915558808,0.0,0.0,0.0,0.0
-0.007536908892271381,-0.28136467104472984,0.7462633226606448,-0.005946118535822567,-0.5544110947092246,-0.00824131331723889,0.8321809073107147,-0.08974414638366664,0.3411934690275007,-0.9164713264275108,0.09259113148999092,0.3308498631670223,-0.8948911465101748,0.15963185139494657,0.5590062178216603,0.8222988649510815,-0.15989419349902825,0.5534521183861706,0.8405178483462218,0.0,0.0,0.0,0.0
-0.005799310144622729,-0.28221886834183174,0.7460166914311751,-0.005931368105556568,-0.5546816732326332,-0.0081245625344911,0.8320018339738596,-0.08836337241445878,0.3501130344590843,-0.9305090329301051,0.09461754352300888,0.34232719661175776,-0.9135878775666054,0.16497347198567888,0.5611653144803935,0.8235767736456133,-0.1574505201058103,0.554385647476773,0.8498948299319686,0.0,0.0,0.0,0.0
-0.0032932692244751834,-0.28352712179640344,0.7457555361427961,-0.005834513649118132,-0.5549894583329379,-0.008132422642486906,0.8317971647533756,-0.08580547640350028,0.3628727795348871,-0.9502331887915362,0.09814333539486327,0.35885070953093157,-0.940788307854998,0.17213519453691292,0.5651467816299427,0.8240112897220067,-0.15434818035029646,0.5560277835615531,0.8618979691172504,0.0,0.0,0.0,0.0
-2.5496747613601954e-06,-0.28556526854180886,0.7459050162175274,-0.005587957087614656,-0.5554693038772848,-0.00834344701423964,0.8314764062062087,-0.08116957107523705,0.37938558810457806,-0.9727112910356109,0.10396796617917008,0.3808854304673268,-0.9749739847989026,0.18187588756107584,0.5743926799336702,0.8181606766267198,-0.14992102865487822,0.560986553281962,0.8734774925211479,0.0,0.0,0.0,0.0
0.004404346915515859,-0.289115485394857,0.7483080368711365,-0.005004505886023247,-0.5567190018375607,-0.009154116020835632,0.8306353652919576,-0.07151025382014876,0.4022276246465346,-0.9904116745251657,0.11467294706788511,0.41267819270373496,-1.0132100059897782,0.19589881296482145,0.6036359768799002,0.7852400491327575,-0.1432188344393327,0.5806406471220817,0.8707392262162005,0.0,0.0,0.0,0.0
0.007874222770575846,-0.29247323044431184,0.7503432874521813,-0.005089567284463318,-0.5561094122163617,-0.00879515320740162,0.8310469681247192,-0.06462214937938933,0.41959327413501496,-1.011728911109468,0.10513150080970847,0.3859897906399294,-0.9736959673150116,0.16663915000964666,0.5931036262606415,0.8267568493371394,-0.1263846388477491,0.5970026953119479,0.8655763083534029,0.0,0.0,0.0,0.0
0.011847273242773746,-0.2959620567215791,0.7522362636296948,-0.005107889861369997,-0.5557028816637826,-0.008682190153192612,0.8313199362134147,-0.056830934126699297,0.4390417453955544,-1.0352487733717326,0.09438258684170993,0.36676361149328807,-0.9539418160944013,0.13931830759599076,0.5888443464283438,0.8591889977380605,-0.11005055678612297,0.6136001272697006,0.8622356167030412,0.0,0.0,0.0,0.0
0.01570441486449645,-0.299584462069452,0.7540574898866297,-0.00496454954603137,-0.5555686458781984,-0.00878266749400848,0.831409464533908,-0.048135791470705874,0.45702292132526295,-1.054543858381469,0.08515170380969914,0.3536837563335308,-0.9473260341558932,0.12127768492726332,0.5860478942287202,0.8844231882410722,-0.0941777937454604,0.6299417028108313,0.8597677715518606,0.0,0.0,0.0,0.0
0.01922743028209762,-0.3032431166673174,0.7558310547455829,-0.004715822617561435,-0.5555591205925836,-0.008985822724037099,0.8314151066305008,-0.039010944210317644,0.4726481226046726,-1.0691605497897443,0.07794571452511184,0.34438478155614255,-0.947773166088715,0.11091725444946365,0.5834166865289301,0.9048488444820478,-0.07829050304455581,0.6457961567576079,0.8572184447354423,0.0,0.0,0.0,0.0
0.022311035932579146,-0.30686891030145375,0.7575408574077871,-0.004419705682645455,-0.5555896720995736,-0.009225642084182018,0.831393691331671,-0.029774879581872964,0.4855537357546694,-1.0792900150278257,0.07247823991955664,0.337291570775516,-0.951892905910826,0.10515466760801932,0.580781165990317,0.9222572527922562,-0.062117924214129996,0.6608272810385237,0.854431073145511,0.0,0.0,0.0,0.0
0.02493063840666801,-0.3104060795763127,0.7591687816804569,-0.004114692171170223,-0.5556194147669221,-0.009467003337027897,0.8313726667928265,-0.020660180848992626,0.49576200163091005,-1.0854515551130524,0.0681669360245796,0.33135079524633154,-0.9578280927716207,0.10165293777653304,0.5781418828337066,0.9378412629249199,-0.04565723814523931,0.6748089976610633,0.8514604522017115,0.0,0.0,0.0,0.0
0.02711214326908578,-0.3138107772079907,0.7607064538252559,-0.003821264555160437,-0.555633208546943,-0.009694852259562594,0.8313622227024114,-0.011833444860791619,0.5035337691409957,-1.088298347193712,0.06444155837266868,0.32587132580258654,-0.9645630806546212,0.0990305692670801,0.5754611735556953,0.952370181404655,-0.029090438183522735,0.6876639932136731,0.8483521704127946,0.0,0.0,0.0,0.0
0.028908487904484116,-0.3170518741378578,0.7621544155782907,-0.003548518053129516,-0.5556289314720122,-0.009904824640250819,0.8313638150531586,-0.0034064502142161154,0.509246368230652,-1.0885069125240976,0.060870102769680856,0.3204168233186635,-0.9715454610272769,0.09656104166734651,0.5726736290918523,0.9663361768225727,-0.012671075138857034,0.6994295491490895,0.8451079823530453,0.0,0.0,0.0,0.0
0.030383227828049857,-0.32011063026902375,0.7635180332885085,-0.003299512824024425,-0.5556096666071785,-0.010097324876644992,0.8313753999356245,0.0045545880563354745,0.513307697100101,-1.0867157750057546,0.05717592036427703,0.31472192432645874,-0.9784819112215587,0.09388319709969564,0.569724927771462,0.9800527975927925,0.003358698630113982,0.7102078028316705,0.8417084746167081,0.0,0.0,0.0,0.0
0.03160013427236692,-0.32297893922450965,0.7648039058985144,-0.00307441805164193,-0.5555796446501714,-0.010274434168392113,0.8313941558650461,0.012019527226086776,0.5161039428111908,-1.0834933194889458,0.053207289275946486,0.30862892818361,-0.9852272941678855,0.09082366901022151,0.5665958437116095,0.9937146681503984,0.018810067712168085,0.7201244050486848,0.8381396294573688,0.0,0.0,0.0,0.0
0.03261731208524493,-0.3256567451194368,0.7660173602352685,-0.002872142244459819,-0.5555424663935695,-0.010438475530146435,0.8314176790644302,0.018984496060221564,0.5179725934053651,-1.079325467629706,0.04889639051209505,0.30204823806997283,-0.9917202423678669,0.08730579770457876,0.5633124866468675,1.0074288612309037,0.03355858247130132,0.7292993881395902,0.834411363587739,0.0,0.0,0.0,0.0
0.03348438194815539,-0.32814925901498077,0.7671604656980395,-0.0026911995222160335,-0.5555004084112123,-0.010591375236724957,0.8314444518250771,0.025462554866078336,0.5191918096289264,-1.0746180322288161,0.044224302447758185,0.2949495188954041,-0.9979364392779421,0.08330396842382436,0.5599513254464094,1.0212232394596192,0.04753786314704894,0.7378259598156394,0.830572208469742,0.0,0.0,0.0,0.0
0.034241410003830366,-0.33046441817078565,0.7682298453001672,-0.002530296889473598,-0.5554540786782057,-0.010734340314761625,0.8314740753718084,0.03147567011110242,0.519978222571649,-1.0697089170341476,0.039196228349175105,0.28739385069414225,-1.0038396397614087,0.07881286039296684,0.5566449502764457,1.0350298025895746,0.060726857688847155,0.7457512297978691,0.8267277906795044,0.0,0.0,0.0,0.0
0.03491837411820376,-0.3326109095116592,0.7692138313193738,-0.002388938082125445,-0.5554020986905626,-0.01086761514152571,0.8315074844438227,0.03704874318024935,0.5204861391909518,-1.0648835872898315,0.03382548118030122,0.2796159529693186,-1.0093163762738113,0.07381004999020596,0.5535921465827195,1.0486326217342596,0.07313830148411335,0.7530541290427348,0.823068883468441,0.0,0.0,0.0,0.0
0.03553416923090803,-0.3345970962103041,0.7700891478756128,-0.002268199288891331,-0.5553408756988828,-0.010990230857287567,0.8315471014174045,0.042206456680805464,0.5208024597059492,-1.0603845588092626,0.028123580130006168,0.27215042748059703,-1.0140901228551462,0.06819514118963838,0.5510795369102938,1.061561097624108,0.08481364717818629,0.7596200651927962,0.8199087138876135,0.0,0.0,0.0,0.0
0.03609492554222567,-0.33643130581106906,0.7708187137236482,-0.0021715656973198454,-0.5552649719257879,-0.011099869360075993,0.8315965897927103,0.04697398118986912,0.5209360981619912,-1.0564039980713258,0.022095835535726957,0.2659505491587495,-1.017631218225001,0.06169949634955653,0.5495369903408419,1.072902496908552,0.09582695783618149,0.7652226987578455,0.8177139298955329,0.0,0.0,0.0,0.0
0.03659356064734659,-0.33812388226074674,0.7713554357095693,-0.0021048170350045393,-0.5551694270518192,-0.01119358594118409,0.8316592936088559,0.05138274283528308,0.5208139569320339,-1.0530494763051155,0.015746068646227872,0.26235172003708357,-1.0191124411646066,0.05380573553699151,0.5496766226961393,1.0810126688405293,0.10629049330316374,0.7695489551938224,0.8170759284290975,0.0,0.0,0.0,0.0
0.03701659849986154,-0.33969008906971504,0.7716633911502075,-0.0020710761587162427,-0.5550577670898162,-0.01127255071924331,0.8317328389796174,0.05548155487760629,0.5203235319578235,-1.0502717209994412,0.009099020682261186,0.2625893830103348,-1.0175264136793771,0.04385694201520865,0.5527354826297194,1.0832457998736569,0.1163142168831453,0.7723513908448882,0.818492312658739,0.0,0.0,0.0,0.0
0.03735461272457589,-0.34114731883028393,0.7717463714826569,-0.002067932399370024,-0.5549290637461629,-0.0113373417786871,0.8318178421666561,0.05931495323198239,0.5193974270383686,-1.047942827227246,0.0022353146429268164,0.26664486996588704,-1.0128459232483777,0.03196875597334615,0.5586331557897624,1.079498125036457,0.12597870569859487,0.7736227776219317,0.821991325866241,0.0,0.0,0.0,0.0
0.037604161351185834,-0.3425172670788311,0.771649770935641,-0.0020877930200944752,-0.5547775433006416,-0.01138779733267249,0.8319181670341861,0.06292832085604382,0.5180195706489973,-1.0458587663957348,-0.004714023476439194,0.2732684023619862,-1.0060642998719815,0.01898140576771309,0.5660111189001258,1.0722387194238743,0.13534413637168627,0.7736096882857766,0.8271135921694767,0.0,0.0,0.0,0.0
0.037758158146518304,-0.34382927946528524,0.7714332619968437,-0.002121374104368662,-0.5546049993962928,-0.011427531061296348,0.8320325750536396,0.0663895834749872,0.516141916824195,-1.043661005520474,-0.011619322399674947,0.2811244677283432,-0.9980123362935942,0.005541503241429128,0.5740864330043605,1.062987845378703,0.14448245530788068,0.7726448273079539,0.833274788443098,0.0,0.0,0.0,0.0
0.03779832632699374,-0.34511623627160193,0.7711493018126883,-0.002162462875286098,-0.554413164034531,-0.011459450482154935,0.8321598694326592,0.06977460146078487,0.5136404093633764,-1.0409062649249985,-0.018377730631738105,0.28926497252833083,-0.9892188098097099,-0.007981202485179304,0.5823893835315567,1.052578429163071,0.15350567494641992,0.770987830169198,0.8399898262000133,0.0,0.0,0.0,0.0
0.03769535680237578,-0.34641177751587127,0.7708388788788499,-0.0022078784716429538,-0.5542016589506253,-0.01148511934144727,0.8323002694477167,0.07315930290857388,0.5103197300702059,-1.0371023339265928,-0.024913502671617557,0.2971644625481862,-0.9799567237755311,-0.021400459527727442,0.590606031918638,1.0414349117257655,0.16254762033836823,0.7687941370988296,0.8469075635534343,0.0,0.0,0.0,0.0
0.03741122201515965,-0.34774930905737444,0.7705333906842886,-0.0022568209014776986,-0.5539676919961126,-0.011504754204709682,0.8324556105971105,0.0766165389687725,0.505928057960837,-1.0317231280282462,-0.031176699303711853,0.30459818590854937,-0.9703379664008976,-0.034629030461693196,0.5985079246948046,1.0297590738944111,0.171749168602999,0.7661314276548576,0.8537810261421729,0.0,0.0,0.0,0.0
0.036901954820601435,-0.3491613296317045,0.7702575836109832,-0.002310617963851284,-0.5537062542585691,-0.011517148990190464,0.8326292093835693,0.08021366412638213,0.5001724603607733,-1.0242180953100977,-0.0371520185111825,0.31151038017613236,-0.9603993556350278,-0.04763775439579747,0.6059182755899916,1.0176455434867153,0.18124861433235231,0.7630061056760704,0.8604269100430232,0.0,0.0,0.0,0.0
0.036121436574970155,-0.3506775814036907,0.7700315234549403,-0.002372973042282757,-0.5534103206963343,-0.011519338362122095,0.8328257265415255,0.08400716348999349,0.49273979777391186,-1.0140353330272711,-0.042878027557090595,0.3179263503655377,-0.950161023659362,-0.06045364179530894,0.6126945667718364,1.0051560467260814,0.19116980132744152,0.7593875158079615,0.866692380815423,0.0,0.0,0.0,0.0
0.03502767909705134,-0.35232062872391284,0.7698707778490315,-0.002450685056532112,-0.5530707803709813,-0.011505808507571845,0.833051212359225,0.08803098757889696,0.48333426355019377,-1.000681583022164,-0.04846915253838085,0.3239157619205938,-0.9396555224994666,-0.07319564717367862,0.618729426061829,0.9923797184016181,0.2016016865024022,0.7552286334184342,0.8724335830599099,0.0,0.0,0.0,0.0
0.03359352652964083,-0.3540973278337794,0.7697842877250858,-0.002555007285355395,-0.5526757716009871,-0.0114668220938899,0.8333135516803338,0.09227496750593914,0.4717476242935733,-0.9838506225867929,-0.054125560182593416,0.32959675890480533,-0.9289299281011524,-0.08616917926113858,0.6239870349684243,0.97950593915554,0.2125669472866938,0.7504857376664705,0.8775076183611102,0.0,0.0,0.0,0.0
0.03182412264572837,-0.35598429281526084,0.7697690487556972,-0.0027043696403722004,-0.5522086739355897,-0.011384850030097893,0.8336238072445735,0.09664876995523203,0.45798604185485614,-0.963670832048403,-0.060108467047718335,0.33516187619111315,-0.9180207717351517,-0.10008628818053522,0.6286091645503147,0.966938311925198,0.2239849038881281,0.7451389889101103,0.8817843419401256,0.0,0.0,0.0,0.0
0.029784050862261706,-0.3579049238268155,0.7697995651956727,-0.002930718801878496,-0.5516419623525116,-0.01122631554553323,0.834000315406683,0.1009240991031849,0.44249138612330025,-0.9411671215009143,-0.06665855519674231,0.34088411481485037,-0.9068893035066565,-0.11656055237596959,0.6331513673947935,0.9554646883079162,0.23565130472190518,0.7392088786003861,0.8851943828801518,0.0,0.0,0.0,0.0
0.027636740259038506,-0.35969408838551775,0.7698079669055921,-0.003296992597023203,-0.5509008105085114,-0.010905573211433407,0.8344929570067147,0.10460723374065203,0.4265230251925045,-0.9192388605142411,-0.07393981852938794,0.34688848782664894,-0.8951410270541313,-0.13903074348689415,0.6390249683930934,0.9462160849618457,0.24735293314054493,0.7327209102847096,0.8878006568503295,0.0,0.0,0.0,0.0
0.025698771332202823,-0.3611291596315972,0.7697156546888323,-0.003888920036344094,-0.5498367541057819,-0.010336413477815111,0.8351991251742212,0.10714714532494733,0.4125849551635841,-0.9032435181366747,-0.08275959975683762,0.352819429769883,-0.8823346791841288,-0.17365202819888587,0.6480135294600894,0.9407694879088803,0.25870550453623714,0.7258311856372632,0.8894926063281163,0.0,0.0,0.0,0.0
0.02409677535354615,-0.3621122297675781,0.7695509720827,-0.004712729059038626,-0.5484523516015714,-0.009479398920526497,0.8361147942738653,0.1082664035414291,0.401886433109044,-0.8952024360696678,-0.09281140877843547,0.35742096140797713,-0.8691962037561093,-0.22312056202801134,0.6589533549923822,0.9410425627294297,0.2694699111139947,0.7190798093704013,0.8898014674102307,0.0,0.0,0.0,0.0
0.02296461335554181,-0.3626072087858935,0.7689874033987468,-0.0054211669876982616,-0.5469385995779944,-0.008628122786684952,0.8371107063807819,0.10826132679598768,0.39498528192572463,-0.8955368803657132,-0.10203979029260316,0.3579094645327422,-0.8582786165291991,-0.27417864902530137,0.6656373398194968,0.9485381568904458,0.276437821140834,0.7106696779855626,0.8925539524079561,0.0,0.0,0.0,0.0
0.02297789512454751,-0.3626533620045035,0.7689739856238806,-0.005426288014601653,-0.5469135901248108,-0.008608361798973318,0.8371272164028064,0.10832307128664007,0.3948823905155351,-0.8955072596423059,-0.10208868674514092,0.3579253625546419,-0.858275921959957,-0.274196388321479,0.6656572414453895,0.9485484190940602,0.2764774451215481,0.7105934259364394,0.8924830380768091,0.0,0.0,0.0,0.0
0.02297789512454751,-0.3626533620045035,0.7689739856238806,-0.005426288014601653,-0.5469135901248108,-0.008608361798973318,0.8371272164028064,0.10832307128664007,0.3948823905155351,-0.8955072596423059,-0.10208868674514092,0.3579253625546419,-0.858275921959957,-0.274196388321479,0.6656572414453895,0.9485484190940602,0.2764774451215481,0.7105934259364394,0.8924830380768091,0.0,0.0,0.0,0.0
0.023307720929595776,-0.36302054215758994,0.7691696428554124,-0.0054507599771912415,-0.5478345196082006,-0.008740205750131418,0.836523303408081,0.10939842363418924,0.3952964053703399,-0.8906476184450903,-0.10078732025186042,0.3601089978723764,-0.8572243545469275,-0.2755381531294115,0.6706193653336188,0.9485576329153074,0.28086729611527567,0.7152631440154676,0.8939223822888248,0.0,0.0,0.0,0.0
0.024001329941694922,-0.36356342412436904,0.7692438654709556,-0.0054599961692163,-0.5484261319365511,-0.008802755981918266,0.8361348442315196,0.11086846239839644,0.3976044373446888,-0.8907424630146566,-0.09941527112532814,0.36519991674659913,-0.8628288657193194,-0.27531498987719794,0.6747845564601336,0.9485240116487702,0.2867190866667564,0.7194466345829154,0.8963245435888998,0.0,0.0,0.0,0.0
0.025172072388292065,-0.364230507937362,0.7692036214137736,-0.005375605362191281,-0.5489209291173405,-0.008938119559739603,0.8358092045812139,0.11284517585888904,0.40241944061726925,-0.8953316372439721,-0.09781602665231783,0.3734990309153419,-0.8747760439105332,-0.27593877612734813,0.6795576376560432,0.9492732070084678,0.293177832037111,0.7238828084062362,0.9000550563491483,0.0,0.0,0.0,0.0
0.026892515531183683,-0.3650484539267635,0.7690847927931762,-0.005073214738277224,-0.5496568414743982,-0.009371849947752246,0.8353225649658725,0.11574830535026451,0.40978341012979347,-0.9021727144187515,-0.0954649627440134,0.38511003578627584,-0.892086257975553,-0.2804896600336973,0.6870115134266208,0.9514095444101127,0.29939671091116754,0.7295772431080053,0.9055795236977446,0.0,0.0,0.0,0.0
0.029197843671507497,-0.3661334554167581,0.7690101847939008,-0.004585030047902281,-0.5511410865477414,-0.010294516407649053,0.8343359653942574,0.12022070631035661,0.41926470664248455,-0.9073630149574958,-0.09151592892966261,0.39997707533607413,-0.9121704794680742,-0.2911029798358785,0.7000721705564252,0.954801238090848,0.30683115469378486,0.73885524513039,0.9130493268088018,0.0,0.0,0.0,0.0
0.0310128581729015,-0.36777346681569256,0.7696697556339863,-0.006064277426337986,-0.5506511022831979,-0.008337386387854449,0.8346718373599381,0.1103958147490663,0.40233916151099247,-0.8999873090532451,-0.09123174678779605,0.415153864493375,-0.9313257589156272,-0.2599165787176707,0.7011694098668221,0.9424158938555064,0.24510245246784315,0.7113633619595454,0.919991546480225,0.0,0.0,0.0,0.0
0.03296219265580198,-0.36939839518202533,0.7701501156488476,-0.007171341717440464,-0.550839528100637,-0.007089585944042409,0.8345502524779327,0.09765632624864429,0.3884569204209564,-0.901694675944243,-0.0895743125759656,0.43017934141138753,-0.9494679061835138,-0.23797767895021568,0.7056568198722301,0.9335395579135716,0.1879158513691817,0.6894939697270989,0.9269688872249412,0.0,0.0,0.0,0.0
0.03494745172482858,-0.37096218427054284,0.7705509720857727,-0.007707899807811302,-0.5514336085364437,-0.006648460210540318,0.8341566769101939,0.08646934244330227,0.37824333651570324,-0.9085956783022061,-0.0866310088828911,0.4447600811050175,-0.967446149726889,-0.22571291374953442,0.7132570085545722,0.9268448954503856,0.1474949721940655,0.6752693759074001,0.9359725030953848,0.0,0.0,0.0,0.0
0.036752026118153994,-0.3724498051645889,0.7708979012399851,-0.007965756293224234,-0.5520618307199393,-0.006540754826630091,0.8337394678885748,0.0774086476500722,0.3700540419056026,-0.9178727643112324,-0.08328443334197069,0.4579569945639381,-0.9841504439974486,-0.21720772054011947,0.721157666031306,0.9209350157578985,0.11980457182464738,0.6655692469372972,0.9465491452587859,0.0,0.0,0.0,0.0
0.03825530477894461,-0.3738571635527468,0.7712286222036974,-0.008129326650336506,-0.5525932804789812,-0.006508791181039836,0.8333859946357701,0.06995729629133489,0.36295002047172337,-0.928030779657357,-0.07996839247099252,0.46925847742385235,-0.9985528120735283,-0.2093805038493058,0.7281107024021102,0.9149972762097526,0.09959297469872785,0.6579771890831551,0.9579819854097217,0.0,0.0,0.0,0.0
0.03941994722449006,-0.37519117879183017,0.7715734696615555,-0.008280017134391514,-0.5530050819576874,-0.006454064927030658,0.8331117366182902,0.06340330528077068,0.35634785950577913,-0.9383541762101218,-0.07681888585965592,0.4785714937560038,-1.0102538366584684,-0.20100476680079532,0.7337837587880197,0.9086436809664441,0.08332451041702418,0.6510618146138354,0.9697455844610825,0.0,0.0,0.0,0.0
0.040263866441288626,-0.3764592594559782,0.7719468593922351,-0.00843244764193226,-0.553331147092497,-0.006375012190725149,0.8328942878322768,0.057188230453547276,0.3499253810573715,-0.9485499828239903,-0.07381309135897952,0.486043494244791,-1.0192853501832624,-0.19211038543409056,0.7383871347090676,0.901835647294242,0.06893210554719502,0.644161477956979,0.981538907157238,0.0,0.0,0.0,0.0
0.040834305695376834,-0.3776681554376768,0.7723508720416646,-0.008567065171367868,-0.5536302800703986,-0.006317659652532491,0.8326945451724997,0.05100084622160127,0.34356969041494134,-0.9585215966499909,-0.07085441782888055,0.4919344457032803,-1.0259040190739295,-0.18337714256557608,0.7423935510447811,0.8947380034066994,0.055157736793535,0.6370606692927896,0.9932161301302612,0.0,0.0,0.0,0.0
0.04117073424597365,-0.3788507887053262,0.7727750045545465,-0.008720120655245897,-0.5538567545222026,-0.006221813502643212,0.8325430583475122,0.04458066515162184,0.33678454362694,-0.9681999066158402,-0.0679880840237582,0.49656624852564873,-1.03073359522434,-0.17394310654747608,0.7455370500498422,0.8872126639534016,0.041903229732906395,0.6294383825399168,1.004692366694556,0.0,0.0,0.0,0.0
0.04133062503652863,-0.3800103078743523,0.7732076731599571,-0.008855225596254835,-0.5540738313558677,-0.006152754347162706,0.8323976922122095,0.03794850767708033,0.3296787192957938,-0.9776214769542766,-0.06509653283781025,0.5002048445628619,-1.0341092930841485,-0.1647540938399471,0.748331153634204,0.8795777652502754,0.028605319265402242,0.6214254058854363,1.0159634820588552,0.0,0.0,0.0,0.0
0.04135617297004934,-0.3811614634703537,0.773633133407684,-0.00896769872523331,-0.554290962841205,-0.006117882812316735,0.8322521735640214,0.031126099504826858,0.32217301303220286,-0.9868073924182085,-0.06214192051736077,0.5030888863057625,-1.0364452627515024,-0.1558906599046266,0.7508655337494377,0.8719862688047284,0.015165518352275453,0.6130600124533149,1.0270204272274968,0.0,0.0,0.0,0.0
0.0412767541948573,-0.3823253894404358,0.7740361207750496,-0.00906475036942736,-0.554496915167662,-0.006103239254122747,0.8321140257446052,0.0241465912061285,0.3141652348314703,-0.9957417551445616,-0.05910761454375924,0.5054147411057298,-1.0381332590609682,-0.14709511289361482,0.7530606415689773,0.8644973795682136,0.0016393820855858388,0.6043654547350038,1.037821777195129,0.0,0.0,0.0,0.0
0.041113195601835885,-0.38352176391792203,0.7743990599180705,-0.009144576212003415,-0.5546920683943185,-0.0061099825341756255,0.8319830251271763,0.017075065366528315,0.3057106801236045,-1.0043662624507084,-0.055949911711065586,0.5073195429083798,-1.0394677159431143,-0.1382965525356919,0.7548807506234875,0.8572394595648172,-0.011968516694719678,0.5954477978624887,1.0482694205615015,0.0,0.0,0.0,0.0
0.04087572134959753,-0.3847724204409102,0.7746980642994591,-0.009202852561889395,-0.554877466122019,-0.006142413864364227,0.8318585071072186,0.009982239924992923,0.2970471488584407,-1.0125214336241497,-0.052612563632139626,0.5088825337355941,-1.0406868362894843,-0.12943545540601828,0.7562336250278601,0.850407945915606,-0.025607827492017718,0.5864798152751989,1.0581430840979764,0.0,0.0,0.0,0.0
0.04056189973110628,-0.3861047510718201,0.7748997245050644,-0.009238380928864077,-0.5550456479344656,-0.006197387273180902,0.8317454979846952,0.002931623536528741,0.28867200281373656,-1.019864036229356,-0.04903850160735569,0.5101245944080014,-1.042003775176787,-0.1203214145381375,0.7568882829489668,0.8442574282141039,-0.03907422587372232,0.5777071623397344,1.0669894578814518,0.0,0.0,0.0,0.0
0.04015657049006133,-0.3875491904543307,0.7749582996598497,-0.009248543037909184,-0.5551874882626258,-0.0062709937359066905,0.8316501620067641,-0.0040064297720252655,0.28147767156967307,-1.025803778105899,-0.045164218825206756,0.510994661356321,-1.0435821116684547,-0.1107476147883486,0.7565032448191233,0.8391623065887076,-0.051951888013307815,0.5695415749353555,1.0739457410964686,0.0,0.0,0.0,0.0
0.03963361434084979,-0.38913304255437725,0.7748180882811224,-0.00922181135611444,-0.5553049212189237,-0.006370314195271873,0.8315712968605943,-0.010734442474228244,0.2767554870653024,-1.0295037595510128,-0.04091396794196849,0.5113580083217623,-1.0454752107412755,-0.1006788784124533,0.7547190394606349,0.835654232523506,-0.06357481104136518,0.562754986809166,1.0774709967253202,0.0,0.0,0.0,0.0
0.0389635183868029,-0.39087581183502973,0.7744342936904737,-0.009135087901707365,-0.5554227286807928,-0.00651936991497388,0.831492417553956,-0.017114462029712462,0.27577253738477864,-1.0300336828312116,-0.03619935494724155,0.5110343552786388,-1.0475546190603193,-0.09033778242287077,0.7513487101986767,0.8342426012162895,-0.07318876012259003,0.5587321879556871,1.0750957709361502,0.0,0.0,0.0,0.0
0.03811611131517908,-0.39280718370721124,0.7738023771094885,-0.008986809819659552,-0.5555389600218009,-0.006715505897103562,0.8314148201275384,-0.02305999738809969,0.278482687388793,-1.0273400256982854,-0.030948385167414487,0.5099017748969673,-1.0496719618694128,-0.07951359827197914,0.7462831499060739,0.8348456381372699,-0.08062121960856512,0.5575119347290814,1.066901550956363,0.0,0.0,0.0,0.0
0.0370630150372096,-0.3949664852255758,0.7729575937570718,-0.008794460410691414,-0.5556292924081513,-0.006934789685036004,0.8313547110446455,-0.028550828622761783,0.2835623256698171,-1.0222755908606218,-0.025097399167603146,0.5079046109058108,-1.051666719218914,-0.06767417582077906,0.7395428208539252,0.8367968117299481,-0.08636422430634015,0.5577741042062303,1.0554766581055728,0.0,0.0,0.0,0.0
0.0357740793431191,-0.3973849877235748,0.7719456666370077,-0.008568052564962991,-0.5556876763881871,-0.00716524400978628,0.8313160975608627,-0.03356851489452862,0.28965117271045787,-1.0156065594319847,-0.018582296857258502,0.5049520685015051,-1.0532203169088687,-0.054536917081847186,0.7313181598759827,0.8393756567152323,-0.09086346636628223,0.5587563013935392,1.0424262170358236,0.0,0.0,0.0,0.0
0.03421042918070277,-0.4000866618479208,0.7708023476755819,-0.008313228662582502,-0.5557145646545879,-0.007400061965923767,0.8312986538800997,-0.038097954298107015,0.295771991718513,-1.0078544286492261,-0.011352481643252144,0.5008745192280246,-1.0539080939575356,-0.039978167261092414,0.7217731231020791,0.8420036885530401,-0.09433954668270161,0.560015268251512,1.0286331745482784,0.0,0.0,0.0,0.0
0.032325860255825144,-0.40308842234064285,0.7695511441062368,-0.008035908638993075,-0.5557098432376499,-0.007630886300455509,0.8313024503003715,-0.042132898810788764,0.30135480411430077,-0.9993184699264395,-0.0033839330283804737,0.49543283163069285,-1.0532362533010953,-0.02395482192160542,0.7109977848461945,0.8442410769097412,-0.09684719637324928,0.5612663533916055,1.0145384284718693,0.0,0.0,0.0,0.0
0.03007143252117709,-0.40639643507736006,0.7682064296038775,-0.007743338581305964,-0.5556729100121579,-0.007847867153816872,0.8313278948570002,-0.04568123969252966,0.3061342450527774,-0.9901633290323085,0.005310779199190225,0.4883357522851183,-1.0506498368154966,-0.006524023366427427,0.6990421378744892,0.8457587748114792,-0.09838750772660658,0.5623162352785365,1.0003244441758907,0.0,0.0,0.0,0.0
0.027400618412921907,-0.41000038140092554,0.7667776985893285,-0.007444305310692874,-0.5556043873814692,-0.008041092128798413,0.8313745773586535,-0.048775771207878224,0.3100341735800251,-0.9805107561227185,0.014670211423561268,0.47925693518427154,-1.0455298084967644,0.012122006937115397,0.6859621010180625,0.8463148028707277,-0.09899123787512082,0.5630340345706424,0.9860239229140031,0.0,0.0,0.0,0.0
0.024275100369684655,-0.41386749460138195,0.7652741478505463,-0.007149738165036336,-0.5555070730912129,-0.008201215837406756,0.8314406250891241,-0.05149180539461877,0.3130868205769786,-0.9705086182849366,0.024570443166216215,0.4678574160682178,-1.0371990947188634,0.03164439289909464,0.6718569849600059,0.8457334730231495,-0.09877028445436856,0.5633326629825195,0.9715808927435797,0.0,0.0,0.0,0.0
0.020672720880735573,-0.41793754621535706,0.7637092508433942,-0.006873457623808677,-0.5553860716015634,-0.00831966441853178,0.8315226095754942,-0.053971987846886234,0.3154035683478846,-0.960370027050227,0.03481460642520902,0.453823775016597,-1.024957849996808,0.05157104633391482,0.6568992373351537,0.8438905101419264,-0.09795921121316528,0.5631550279233355,0.9568884092906592,0.0,0.0,0.0,0.0
0.01659989560716021,-0.4221197609804531,0.7621040661834924,-0.006632111885868933,-0.5552487580491505,-0.008389639532721614,0.8316155636622731,-0.05645560883736033,0.3172041650201106,-0.9503824898333414,0.045131396465071145,0.43693505865564536,-1.008176020734286,0.07132506272221543,0.6413577708361868,0.8407208985181958,-0.09697244872899903,0.562473824932421,0.9418226417033946,0.0,0.0,0.0,0.0
0.012111594845070066,-0.42629231013708024,0.7604848583168682,-0.006442697591752631,-0.5551051648137111,-0.008409248530729408,0.8317127101253367,-0.059300526462483634,0.3189077489280085,-0.9408941242258159,0.055187806715309734,0.41717465878933085,-0.9864913354123631,0.09025486901023524,0.6255968300005111,0.8363038803622704,-0.09650501076593225,0.5613258572575021,0.9262884252606652,0.0,0.0,0.0,0.0
0.00734186505612274,-0.43030312166317636,0.758859018269007,-0.006318945582867534,-0.5549660476699768,-0.008374839583075302,0.8318068399107111,-0.06300861037917999,0.32124897996854435,-0.9323263632423385,0.06458828630490626,0.39490140623537184,-0.9602016927029198,0.107718156492569,0.6099220144268238,0.8311874216297943,-0.09763941037749305,0.559902981275983,0.9103363304028796,0.0,0.0,0.0,0.0
0.002776713871855501,-0.434094455793523,0.7571590590632957,-0.006240970065578268,-0.5547263017070767,-0.008328836637642993,0.8319677944291433,-0.06794317060349794,0.32467032710247756,-0.9241336380247567,0.07333075817746962,0.37269871179472036,-0.9342206985607764,0.12341748951154835,0.5946300595531824,0.8264900122674352,-0.10204699625503728,0.5593871728919584,0.8937839208064495,0.0,0.0,0.0,0.0
-0.0012700360943251271,-0.43740546055789864,0.755503699720228,-0.006181687384919989,-0.554465193704928,-0.00831113051691055,0.8321424522402175,-0.07424656424371796,0.32971966659271684,-0.9173574048520624,0.08091239786864371,0.35216696217353577,-0.9102948370921992,0.13626878024833997,0.5808110495736223,0.8229674065067025,-0.11230437747070905,0.5591534255272647,0.8766264324978885,0.0,0.0,0.0,0.0
-0.004454262992450647,-0.43992666902330674,0.7540388694777067,-0.006092610315521089,-0.5542314629299717,-0.008376664529828187,0.8322981419475843,-0.08125490849546706,0.3360455884018855,-0.9133883100363493,0.08676017577396022,0.3352263164546145,-0.8908233389004206,0.14501786088365748,0.5694912705573695,0.8216037452022059,-0.13020511981127825,0.5585384866881429,0.8586306641418712,0.0,0.0,0.0,0.0
-0.006311949822225123,-0.4413512913438168,0.7529866648328879,-0.00592847069395713,-0.5540801110725974,-0.008545184740146532,0.8323983803244488,-0.08676936947388257,0.3420621092082939,-0.9136130251512813,0.0902512624685472,0.3247596397691867,-0.8794583362251643,0.14869991530922175,0.5621886061919202,0.8228665712560447,-0.15168969382617742,0.5581568890603741,0.8410117762491572,0.0,0.0,0.0,0.0
-0.006333765455340148,-0.4415210728487199,0.7528819762394899,-0.005806480186037906,-0.5541033225113737,-0.00851039607373114,0.8323841456493353,-0.08678024431172465,0.3420734429933422,-0.9136362768314392,0.09043659388313677,0.32453644614839855,-0.8793967060474701,0.14874607236444792,0.5620872964161376,0.8227684340043412,-0.1517166585234009,0.5581954876609411,0.8410214029170517,0.0,0.0,0.0,0.0
-0.006333765455340148,-0.4415210728487199,0.7528819762394899,-0.005806480186037906,-0.5541033225113737,-0.00851039607373114,0.8323841456493353,-0.08678024431172465,0.3420734429933422,-0.9136362768314392,0.09043659388313677,0.32453644614839855,-0.8793967060474701,0.14874607236444792,0.5620872964161376,0.8227684340043412,-0.1517166585234009,0.5581954876609411,0.8410214029170517,0.0,0.0,0.0,0.0
-0.006333765455340148,-0.4415210728487199,0.7528819762394899,-0.005806480186037906,-0.5541033225113737,-0.00851039607373114,0.8323841456493353,-0.08678024431172465,0.3420734429933422,-0.9136362768314392,0.09043659388313677,0.32453644614839855,-0.8793967060474701,0.14874607236444792,0.5620872964161376,0.8227684340043412,-0.1517166585234009,0.5581954876609411,0.8410214029170517,0.0,0.0,0.0,0.0
-0.005427815928641206,-0.4420186612869362,0.7527241302379545,-0.005864583903046174,-0.5543716945681455,-0.008267512399428637,0.8322074736242232,-0.08629515582897246,0.34649163630337826,-0.9203010486820653,0.09118634306142005,0.3304899298515368,-0.8882648358957793,0.15268405337993363,0.5630582829883993,0.8234722887981863,-0.14936161221647345,0.5590117000643016,0.8471544883443691,0.0,0.0,0.0,0.0
