zhuoxili-jackie/tripod-support-walk/examples/trajectory_tripod_lowstep_p2_left_v0.15.csv
root_pos_x,root_pos_y,root_pos_z,root_rot_x,root_rot_y,root_rot_z,root_rot_w,FL_hip_joint,FL_thigh_joint,FL_calf_joint,FR_hip_joint,FR_thigh_joint,FR_calf_joint,RL_hip_joint,RL_thigh_joint,RL_calf_joint,RR_hip_joint,RR_thigh_joint,RR_calf_joint,FL_foot_joint,FR_foot_joint,RL_foot_joint,RR_foot_joint
0.0,0.0,0.745913,0.00590261038931276,-0.5534150365010598,0.008528410562500118,0.8328410549308913,-2.4067e-06,0.349062,-0.872669,9.86e-07,0.349071,-0.872662,3.27e-06,0.610866,0.872669,-2.38753e-06,0.610854,0.872668,0.0,0.0,0.0,0.0
2.343092964553374e-05,6.898638407137784e-05,0.7459141166424917,0.005902476607681192,-0.5534137016772118,0.00852580073893709,0.8328419695762106,-0.0001616326662444116,0.34935405387057056,-0.8731803082467319,-0.00015823929581168858,0.3490896641706319,-0.8726586458536381,-0.0003608227057989169,0.6108918136398289,0.872938220989235,-0.00036647191028374237,0.6109300208714233,0.8724120204666701,0.0,0.0,0.0,0.0
5.346743503453659e-05,0.0001749411005338888,0.7459138597533519,0.00589785167519714,-0.5534157978514017,0.008526714773473897,0.8328406000966125,-0.000414446685567163,0.349760855166819,-0.8738983510074523,-0.0004110108296720708,0.34907566294544334,-0.8725598350184245,-0.0008759743842745556,0.6109041198304114,0.8733727603961574,-0.0008812020130430085,0.61104544919806,0.8720523281205377,0.0,0.0,0.0,0.0
9.049881498448459e-05,0.0003191385181072875,0.7459119039339009,0.005890065114355025,-0.5534196024324977,0.008529836888719843,0.8328380951055594,-0.000761974095244669,0.35028823931710074,-0.8748392979422703,-0.0007583935847105168,0.3490303140216382,-0.8723800287791638,-0.0015619899753645788,0.6109017367254931,0.8739772502855196,-0.001565953038432244,0.611192644852541,0.8715804199049783,0.0,0.0,0.0,0.0
0.00013959682000264437,0.0005219854382330501,0.7459086469453409,0.005877620568645236,-0.5534237873267668,0.008536195946455036,0.8328353370001255,-0.0012545387967344674,0.35101139986741814,-0.8761446647208239,-0.0012505970831789524,0.34894810731324316,-0.8721002330453389,-0.002512078471428013,0.6108833156687533,0.874822904540479,-0.002513081015468708,0.6113938550621542,0.8709167566662169,0.0,0.0,0.0,0.0
0.0002147736583002449,0.0008261325662571603,0.7459100879367482,0.005853958781608528,-0.5534302077700487,0.008552733516620059,0.832831067530251,-0.0020056495248379656,0.35210778120831127,-0.8781108521893229,-0.0020008301251693665,0.34883843211490667,-0.8716603572767844,-0.0038816187206655263,0.6108810840916732,0.8760153417030251,-0.0038759757059489506,0.611753981630873,0.8698648480953128,0.0,0.0,0.0,0.0
0.0003522948849097114,0.0012790196278013612,0.745958171154793,0.005788138801700632,-0.5535059960341173,0.008673461279114732,0.8327799114249405,-0.0033245199322210852,0.3538505100647112,-0.8808866493106373,-0.003317408316739228,0.3488246466999574,-0.8705639091319602,-0.005337982530449866,0.6111473552403822,0.8774146641658241,-0.005321375056840157,0.6129388169749493,0.8681629350177725,0.0,0.0,0.0,0.0
0.0006663941232950076,0.0016676808687060964,0.7459330917376276,0.005744659692282264,-0.5534543010801245,0.008694123608575285,0.8328143536921117,0.002932018587420575,0.3497341070753547,-0.8771034916134125,-0.004254224097799831,0.3500608272383329,-0.8726192809005573,-0.007015305787417445,0.6112773487644302,0.8791918688349349,-0.006981194702357971,0.6135450417196999,0.8671109111603267,0.0,0.0,0.0,0.0
0.0010336563292501395,0.002129473266424163,0.7459130025667603,0.005693494861292996,-0.5534306445993273,0.008765394003109897,0.8328296786273937,0.011189645130306222,0.3457388140313003,-0.875163462057897,-0.005479945532221854,0.3514742425618854,-0.8746770050104864,-0.00881330185425783,0.6114887258907238,0.8812489093122082,-0.008755054505591707,0.6144662616640427,0.8659182535593588,0.0,0.0,0.0,0.0
0.0014167666515709093,0.0026512264391773165,0.7459024392240281,0.005635091376404477,-0.553424633638589,0.008858311621599951,0.8328330870843136,0.019442059447635728,0.34203590494241853,-0.8743141597015307,-0.006896744341092442,0.35286058160515993,-0.8764874998249439,-0.010799063937055082,0.6117703773526302,0.8834581585293616,-0.010708271511000922,0.6155855365315106,0.864482205426392,0.0,0.0,0.0,0.0
0.0018027157334891781,0.0032123207674695734,0.7458966636945793,0.005572557747753829,-0.5534266063166866,0.008956779187471309,0.8328311438266043,0.027001157397505585,0.33860115007888714,-0.874031003703811,-0.008419984807901355,0.35417904236851433,-0.8780896647709376,-0.012956112510483236,0.6120880523905323,0.8857685663762674,-0.012822635999043392,0.6167918055495386,0.8628664035571214,0.0,0.0,0.0,0.0
0.0021920539993325414,0.0037993759932101996,0.7458917137446176,0.0055076322727844705,-0.5534319196845812,0.0090541611166441,0.8328269918941514,0.03381490638400766,0.3353817109539384,-0.8740411570927686,-0.010003092821073641,0.35545780482527956,-0.8795873432562767,-0.015254964990364618,0.6124283572789693,0.8881638674715657,-0.015067347135302524,0.6180342829285657,0.8611398572527,0.0,0.0,0.0,0.0
0.002590512797840912,0.004410426162750696,0.7458849744385979,0.005440428451180238,-0.5534380812300013,0.00914945688447769,0.8328222976250342,0.04005437046369241,0.3323412249505912,-0.8742026338848523,-0.011638924553969195,0.3567354973609309,-0.8810684709555957,-0.017691835096559413,0.6127855642839373,0.8906601639212582,-0.01743710061131232,0.6193007237487465,0.8593325428450609,0.0,0.0,0.0,0.0
0.003004238312291866,0.005054932287722511,0.7458743185655574,0.005369591513405309,-0.5534433452360997,0.00924457665775672,0.8328182087966577,0.0458968281188961,0.3295076877156619,-0.8744198822502759,-0.01335375370736048,0.358031145976016,-0.882570578368705,-0.02030286036580409,0.6131499382685898,0.8933088386676559,-0.019965334981073373,0.6205963167593804,0.857430989596553,0.0,0.0,0.0,0.0
0.0034478920111176955,0.005748404488906373,0.7458574941794235,0.005291633813998028,-0.5534458928514153,0.009343382522195609,0.8328159121321603,0.051456133586581895,0.3270186744432458,-0.8745578745327885,-0.015191300251315246,0.35940340391398057,-0.8841867006083819,-0.023137107913593243,0.6135217805969655,0.89618631160263,-0.022697037687096827,0.6219505357586079,0.8554083029423348,0.0,0.0,0.0,0.0
0.003947439793079101,0.0065087218580920335,0.7458323765171234,0.005200710109061311,-0.5534439295835245,0.009451393365885288,0.8328165707915228,0.05677578206387464,0.3251399564156238,-0.8743868055917751,-0.017203103374735847,0.3609737591844837,-0.8861033195906032,-0.026238115755718782,0.6139210356878027,0.8993793622859154,-0.025670426656818825,0.6234223030045137,0.8532373643426104,0.0,0.0,0.0,0.0
0.004531849993102651,0.0073564616079351336,0.7457983293253807,0.0050891288545821005,-0.553437038518006,0.009575665573263288,0.8328204198941989,0.06184393627493024,0.3242096817473528,-0.873578611912774,-0.01944986316775737,0.36287411159906113,-0.8885035464757813,-0.02965009197505742,0.6143833454628302,0.9029695916348465,-0.02892280941179616,0.625094921992706,0.8508706197524557,0.0,0.0,0.0,0.0
0.005233749264917087,0.008312244600106782,0.7457576391558135,0.004947060385163288,-0.5534266180943672,0.009725460398131063,0.8328264647561467,0.0666596349465491,0.3244209516864397,-0.8717493256617496,-0.021996449534498568,0.3652558473581529,-0.8915735634137398,-0.03339990098622511,0.6149707451729277,0.907009287432364,-0.03247303395923358,0.6270873480064446,0.8482369981176452,0.0,0.0,0.0,0.0
0.0060738439381802616,0.009404765846348305,0.7457082803719798,0.004766032060539195,-0.5534069485177742,0.009909307185765647,0.8328384236463527,0.07128246384905391,0.32548373275264597,-0.869092733696275,-0.024928218082659114,0.36818076011025,-0.8954015406634965,-0.03757242118105379,0.6156871055929283,0.9115891660256237,-0.03639341337839528,0.6294595631831728,0.8452391223833536,0.0,0.0,0.0,0.0
0.007068897638116019,0.010652565095183008,0.7456533826471256,0.004536214629840166,-0.553373136951053,0.010138026175356432,0.8328594206005302,0.0758856213408637,0.3269225984915021,-0.8656713622155026,-0.02831125236129337,0.3717050177545099,-0.9000396502262094,-0.042183654515168346,0.6165613715594164,0.9167025346348306,-0.0406876112915722,0.6322996189881107,0.841761380209831,0.0,0.0,0.0,0.0
0.008212980204592341,0.012055543498761449,0.7456021921646115,0.004249251698686931,-0.5533173218951042,0.01042244093152256,0.8328945058504467,0.08076390841218009,0.328231847925346,-0.861306046955481,-0.03216858233228668,0.3757877336337751,-0.9053831930594731,-0.04715415857856361,0.6176104213058583,0.9221901860309899,-0.045268642003435146,0.6356750564070125,0.8376646946338511,0.0,0.0,0.0,0.0
0.009417432292989162,0.013598000576664415,0.7455674001263692,0.003903691064575942,-0.553235079009206,0.010769126155662329,0.8329464175273182,0.08621682385581998,0.32886713853248084,-0.8556314231828519,-0.03647959101252822,0.3799240571905661,-0.910574689473887,-0.052361734722354863,0.6187150708198011,0.9277760518643409,-0.050013395303420236,0.6395025315699917,0.8327738422194332,0.0,0.0,0.0,0.0
0.010621485548248304,0.01516565589215249,0.7455485560633516,0.0035006524560247426,-0.5531218830688472,0.011180211567468852,0.8330179654557645,0.09273185884462852,0.328173902706335,-0.847762338261508,-0.040972671601591834,0.3839738848619258,-0.91547596990739,-0.05715129341048898,0.6197396973374607,0.9330220264140816,-0.05431483758543788,0.643600878949267,0.8274938622624106,0.0,0.0,0.0,0.0
0.011728628679774734,0.016486940059905836,0.7454030182963524,0.0030560783391883947,-0.5529809991340833,0.011633087519970102,0.8331070436964318,0.10085001272839092,0.32509402401895104,-0.836508272321679,-0.04494977004891746,0.3877869285275697,-0.9206393429967002,-0.060159761566798635,0.619739006405526,0.9384308036517038,-0.056948293813099654,0.6466895383931156,0.8244277809987812,0.0,0.0,0.0,0.0
0.012606502309659373,0.0174144322272232,0.7451590761216221,0.002557227318498267,-0.5527628250483906,0.012114799108148855,0.8332466330418221,0.10983892689899781,0.3177562788451402,-0.8192726694374638,-0.04800371380545534,0.390953988212279,-0.9256514126170317,-0.06042089277343267,0.6184207440127394,0.9430862491797709,-0.057080809048310255,0.6484647103172981,0.8237257487290256,0.0,0.0,0.0,0.0
0.013049640887951436,0.017803834039128334,0.7448601950189448,0.0019790325608976026,-0.5524282789309962,0.012593689737842131,0.8334629440150577,0.11760385775293494,0.3035332694389777,-0.792940999008092,-0.049670265193321204,0.3926378191431022,-0.9293297502221369,-0.0570035068601826,0.6154311882105529,0.9459716997331703,-0.05388961742460563,0.6485843894389223,0.8253091644775213,0.0,0.0,0.0,0.0
0.013070568224950573,0.017831716689222094,0.744854721298874,0.0019531589521929464,-0.5524205437065863,0.012599526308090497,0.8334680437772276,0.11762302467024655,0.30353468285171464,-0.7929265525520801,-0.0497411571532419,0.3926664567934713,-0.9293542387963164,-0.05700946763946797,0.6154080867128209,0.946067738099192,-0.05387203192693958,0.6486409549661295,0.8252335240837421,0.0,0.0,0.0,0.0
0.013070568224950573,0.017831716689222094,0.744854721298874,0.0019531589521929464,-0.5524205437065863,0.012599526308090497,0.8334680437772276,0.11762302467024655,0.30353468285171464,-0.7929265525520801,-0.0497411571532419,0.3926664567934713,-0.9293542387963164,-0.05700946763946797,0.6154080867128209,0.946067738099192,-0.05387203192693958,0.6486409549661295,0.8252335240837421,0.0,0.0,0.0,0.0
0.013164197868587385,0.018287246702231457,0.7459036786477988,0.0026676313706620533,-0.5523844322612421,0.011883188712357282,0.8335005174349456,0.11754674130517873,0.30594353270723645,-0.7908243974154264,-0.049721402533356183,0.39327509368383345,-0.9279992061337784,-0.06707201358253648,0.6234552408377767,0.9380871198430776,-0.03925673580473019,0.6395499655783045,0.8487736639925668,0.0,0.0,0.0,0.0
0.013279957557361848,0.019084695493978208,0.7471414035564513,0.0031566367605455102,-0.5523652293600912,0.011376268534084891,0.8335186078022351,0.11634847338925199,0.3096653715044951,-0.7910017949217751,-0.05082881059306158,0.3934345623890118,-0.9242363763689423,-0.07682057541128127,0.6320135693180768,0.9290230456948069,-0.02469875227133994,0.6337835731755308,0.8658701729069695,0.0,0.0,0.0,0.0
0.013378826088422576,0.02010931152559221,0.7483027170844745,0.003448350266246359,-0.5523418015435249,0.011057624952288583,0.8335372649609069,0.11434869289305902,0.31395285778723303,-0.7932222095198729,-0.05276897601652085,0.39290864056943686,-0.9190105156677708,-0.08585728512622537,0.6395751533796022,0.9210456516803859,-0.01385319908794536,0.6295731814156076,0.8782198961600516,0.0,0.0,0.0,0.0
0.013474319089308417,0.021255523882217593,0.7493369919321397,0.003610247893022639,-0.552304635867461,0.010875114764526178,0.8335636071640368,0.11187310474822751,0.318529865957688,-0.796998979016172,-0.055217242210307146,0.3919528801327763,-0.9132151242768445,-0.09420258460347285,0.6460249866792942,0.9144140448404865,-0.005682016262644477,0.6263390643041099,0.8877556776281147,0.0,0.0,0.0,0.0
0.01356046031379368,0.0224308775573169,0.7502556715711975,0.003699598757367114,-0.5522602667476675,0.010763557153724335,0.8335940598266209,0.10923620269568113,0.3230607587484629,-0.8014337449981215,-0.05784015332129156,0.39073000422151133,-0.9072684458059109,-0.10196741448246599,0.6515992443168136,0.9088490337513274,0.000962149448880738,0.6238020260134673,0.8956225009875712,0.0,0.0,0.0,0.0
0.013629837365344875,0.023575310697137423,0.7510702317241056,0.003752670504205871,-0.5522106309987799,0.010687782872382728,0.8336276793468946,0.10662478428859364,0.32731501104778854,-0.8059368789921254,-0.060439237901822575,0.38934077055074634,-0.901416402993876,-0.1091807569035396,0.6564463439515286,0.9041124412202091,0.006934823681787409,0.6217603616134681,0.9024657072369631,0.0,0.0,0.0,0.0
0.013677176948189563,0.024656060976376452,0.7517856943966479,0.0037906149348563255,-0.5521567784366834,0.010627851535445593,0.833663944306445,0.10414130385614338,0.3311649490951367,-0.8101894165302964,-0.06290716625952088,0.3878400287644657,-0.8958015507963131,-0.11586867669456703,0.6606388314353786,0.9000921443733101,0.012740182841935677,0.6200996259897004,0.9085653479066648,0.0,0.0,0.0,0.0
0.013698114325237024,0.0256626134271115,0.7523995412930514,0.0038253005813359887,-0.5520979789506473,0.010573499108430421,0.8337034183873046,0.1018231981270074,0.33455664207609637,-0.8140788979053362,-0.06520634921436462,0.38623681031135837,-0.8904903499309528,-0.12208583475487263,0.6641774838044673,0.8968050847610703,0.01868619152228463,0.6188218016752042,0.913909639848453,0.0,0.0,0.0,0.0
0.013672860479361079,0.026590743003741472,0.752900216896553,0.003866321412137642,-0.5520348001220827,0.010517062309947953,0.8337457780482482,0.09968538549204371,0.33735162217583425,-0.8173992750161764,-0.06731763257565886,0.3844256174304588,-0.8853858983832511,-0.127893895177343,0.6669727996054461,0.8943725012315594,0.025069126743781367,0.6180610916400782,0.9181758809273507,0.0,0.0,0.0,0.0
0.01360663496917003,0.02746552541193967,0.7532748911215901,0.003917003175110906,-0.5519632742787332,0.010456054359048313,0.8337936626413436,0.09767510319979895,0.3396566798501162,-0.8204058800922818,-0.06930163027271859,0.3823867493970643,-0.8805168805596995,-0.13347339290702281,0.6689583693919453,0.8930130071488159,0.03215430057984283,0.6182422385402722,0.9206809654128707,0.0,0.0,0.0,0.0
0.013500687496490279,0.02831463579737488,0.753520892519777,0.003978644990756573,-0.551881104613315,0.010391060247142238,0.8338485729566041,0.09572541464337492,0.34156116521823143,-0.823286012083853,-0.07122886873653128,0.38007368254143953,-0.8758107316422986,-0.1389910448463122,0.6701141116335393,0.892843314657969,0.04021250080458359,0.6200715237302281,0.9202530241047022,0.0,0.0,0.0,0.0
0.013347284559068914,0.029151644242604576,0.753671721856534,0.004051287813750121,-0.551779642627982,0.010318479927467795,0.8339162679912012,0.09380921824951442,0.34308586842973193,-0.8259849528193506,-0.07312170161948679,0.3774415345614709,-0.871097914647369,-0.1445193730749993,0.6705946210059414,0.8935352564467032,0.049008713677960336,0.6228025167158775,0.918153873756362,0.0,0.0,0.0,0.0
0.013141229805412163,0.029991463204244773,0.7537717228915508,0.004135219575904958,-0.5516483717412612,0.010236533355829507,0.8340037094036988,0.09189215320228017,0.3442780239503662,-0.8284594410102887,-0.07500931679160251,0.3744634426388855,-0.866199259012469,-0.15012087412754635,0.670614273446599,0.8946406198248993,0.058467957508658845,0.6259896932401914,0.9152292392764801,0.0,0.0,0.0,0.0
0.012878270524503155,0.03084618551359746,0.7538614998081581,0.004236726414723587,-0.5514723997019331,0.010136702620033078,0.8341207884810635,0.08995810921139308,0.3451827769085828,-0.8306755723372485,-0.07690454531553415,0.37112458906932544,-0.8610112843827243,-0.15590299198134697,0.6703739930444688,0.8957328551030116,0.06892784101858307,0.6294385935815688,0.9120711499894131,0.0,0.0,0.0,0.0
0.012555815544168628,0.0317210252660226,0.7539745985913378,0.004372014368792858,-0.5512299479145308,0.010002413047083868,0.8342819557833779,0.0880191532866583,0.3458358388241724,-0.8326118533927277,-0.0787955597698549,0.36743975565013215,-0.8555698521006762,-0.1620211090079172,0.6700430564208311,0.8964242936345634,0.08144184133266699,0.6331482092767561,0.9092204204112109,0.0,0.0,0.0,0.0
0.0121782929265996,0.03260464361737315,0.7541371974970499,0.0045714798530609915,-0.5508897956203312,0.00980399748972676,0.834507888690433,0.08614798602992327,0.34627213811546287,-0.8342653541080111,-0.08061635648078448,0.3635149608376883,-0.850183890217475,-0.16867021088832487,0.6697759361760267,0.8963379621793034,0.09809459252392728,0.637296256394167,0.9073216158136063,0.0,0.0,0.0,0.0
0.011766222993465414,0.033456234125419995,0.7543583762661942,0.004876296096724863,-0.5504102467490091,0.009501913299324814,0.8348260271779528,0.08450711407381353,0.3465445807324667,-0.8357270891767566,-0.08222295724934629,0.35963373088775713,-0.8456183663991428,-0.17597611584065123,0.6696656983915751,0.8951659931325734,0.12195107858035259,0.6421554813256466,0.9072199701113358,0.0,0.0,0.0,0.0
0.011362668100105531,0.03419570575862083,0.7545717145600472,0.005298508104879236,-0.5497498685175168,0.009077459876876767,0.835263196602735,0.08334082680619938,0.34670713712342893,-0.8374378310455645,-0.08340945548256506,0.3562688392368236,-0.8432003869371325,-0.18358683473047566,0.6693617428173724,0.8932562456400461,0.15474076408497273,0.6475206087624212,0.9097957655543754,0.0,0.0,0.0,0.0
0.011023805976626702,0.03464046688284003,0.7543683354799993,0.005626117043420826,-0.5489627340799829,0.008722120688340147,0.8357823807721372,0.0828668759785207,0.3463898976033686,-0.8406713021391637,-0.08402420691933808,0.3538628175335827,-0.8445527116582314,-0.18845149913347783,0.6662626597790832,0.894356878662243,0.18760233499939477,0.6503648378226939,0.915676194944097,0.0,0.0,0.0,0.0
0.011022636606087525,0.034646023715695924,0.7543659963681549,0.005632147092567533,-0.5489583353873074,0.00871409395883651,0.8357853130406161,0.08286831338838661,0.34638879802815076,-0.8406826910277143,-0.08402272794548683,0.35383528808754217,-0.8445538653887107,-0.18847674282515747,0.6662444544188288,0.8943330270700267,0.18762090176360902,0.6503737614012949,0.9156820615144748,0.0,0.0,0.0,0.0
0.011022636606087525,0.034646023715695924,0.7543659963681549,0.005632147092567537,-0.5489583353873079,0.008714093958836516,0.835785313040616,0.08286831338838661,0.34638879802815076,-0.8406826910277143,-0.08402272794548683,0.35383528808754217,-0.8445538653887107,-0.18847674282515747,0.6662444544188288,0.8943330270700267,0.18762090176360902,0.6503737614012949,0.9156820615144748,0.0,0.0,0.0,0.0
0.011090058793012607,0.03480466730306083,0.7544844596052449,0.005675509537028789,-0.5495407469514442,0.008688820602169932,0.8354024541669046,0.08242950662683754,0.3466801762909399,-0.8379751788802207,-0.0842994601938011,0.35336685434345333,-0.8405789320782419,-0.19071190782622566,0.6687258582653626,0.895327247919676,0.18739063888547122,0.6527152965251707,0.915778695422098,0.0,0.0,0.0,0.0
0.011170770068665143,0.035035770235647704,0.7545614502162633,0.005680181791417636,-0.5499277876217565,0.008691610263173341,0.8351476634986712,0.08182422493774755,0.34742650432654626,-0.8372283262165833,-0.08481199822194392,0.3529551600264468,-0.8376271413829509,-0.19277068619750365,0.6704112726220794,0.8963687645269278,0.18678326018698346,0.6544193970467735,0.9155316107193462,0.0,0.0,0.0,0.0
0.011241425038805961,0.03531528607358554,0.7545836060689806,0.005660514370506512,-0.5501723839905378,0.008714316283102147,0.8349864472929771,0.08110297153029304,0.34836202641565106,-0.8377702554357449,-0.08548648438372439,0.35246672966692866,-0.8353390937518035,-0.19467529461603575,0.671328093603077,0.8976781004223547,0.18588569345525696,0.6554653481113109,0.9152874601727519,0.0,0.0,0.0,0.0
0.011340461363798016,0.03568657975397604,0.7545465796764047,0.0056191100707695205,-0.5503321506458282,0.008754042974764323,0.8348810192471416,0.08016672848478915,0.3497748177219564,-0.8398343287518139,-0.08641947293942519,0.3519796122231692,-0.8335631817153443,-0.19683418707224407,0.6717045992101839,0.8996180431099341,0.1845634629587084,0.6560724775853042,0.9151644848004812,0.0,0.0,0.0,0.0
0.011503635857173612,0.03620177775480981,0.7544297568260819,0.005555129873064311,-0.5504544829687517,0.008807771690544695,0.8348002311149326,0.0789005897498809,0.35195489226373133,-0.8437791063849647,-0.08772765777039836,0.35152857652626196,-0.83218029522426,-0.1996963907858415,0.6716516449373784,0.902705462545094,0.18263242305377209,0.656342016894047,0.9153825403696545,0.0,0.0,0.0,0.0
0.01181199155883681,0.03688380397980101,0.7541714037080507,0.005564534423609747,-0.550624578155657,0.0087883044479867,0.8346881906391648,0.07737422342014161,0.3552877074267576,-0.8498040203076797,-0.08935634997149128,0.3514683877161292,-0.8318637440411438,-0.20470665564524118,0.6715314756184497,0.9079795729876926,0.17920830242293448,0.6561097237237077,0.9167426121455653,0.0,0.0,0.0,0.0
0.012109477017802303,0.03768266057956025,0.7543484378107701,0.006044906070730929,-0.5509136118439024,0.008322136034960043,0.834498887625093,0.0761288259068394,0.3588485420113146,-0.8525737084005789,-0.09060506587874484,0.35131709006699247,-0.8304090334118899,-0.16228706179248048,0.6621244687899285,0.9033351528666541,0.16999189554882893,0.6572963084197928,0.9133572980128126,0.0,0.0,0.0,0.0
0.01244200243562962,0.0385990605083564,0.7543339404388872,0.006557069092563525,-0.5512333974552436,0.007824989086915818,0.8342886286655562,0.0746594607403272,0.362755430471845,-0.856507074115917,-0.09210859614210137,0.35095471054512106,-0.8292515950489201,-0.12341669459424642,0.6527737598508287,0.9011037371788664,0.15985597107485044,0.6574879640051616,0.91159325144897,0.0,0.0,0.0,0.0
0.012783253907294182,0.03955689651433748,0.7543129274680401,0.00690023083494931,-0.5514868865391535,0.007487083635460044,0.8341214206387526,0.07288090933791815,0.366913765824186,-0.8617067541062692,-0.09393678915897506,0.3505448944403327,-0.8278349560429501,-0.0966809441821907,0.645667917230308,0.9013081646988621,0.15114236085098612,0.6579221741010307,0.9096347540721227,0.0,0.0,0.0,0.0
0.013091853866942572,0.040485853094586376,0.754307849720075,0.007114789274636492,-0.5516734951472736,0.007274234246027743,0.8339980935480024,0.07099413172125515,0.37088462716600307,-0.8672144838827384,-0.09587180371678035,0.35002586958952425,-0.8261311058519946,-0.07874804438720155,0.64025726122518,0.9031568800561783,0.14383264885627525,0.658537905822622,0.9074335629027266,0.0,0.0,0.0,0.0
0.013350897122695137,0.041360060611269234,0.7543170050280755,0.00725850443698831,-0.551812176259716,0.007131911614782159,0.8339063329184958,0.06913014594988012,0.37446543577418834,-0.8724346206560544,-0.0977728713561946,0.34935410427812463,-0.8241734528659826,-0.06568363972369967,0.635780653942709,0.9059232268123895,0.13749571810105404,0.6591883173980535,0.9051065118005791,0.0,0.0,0.0,0.0
0.013558965272970592,0.04218316204009299,0.75433211711115,0.007368726833256391,-0.5519185987805911,0.007024533066887527,0.8338358460273327,0.06732832816043449,0.3776329467268393,-0.8771837004627351,-0.09959809578225284,0.34850444636066086,-0.821987955782666,-0.054951168347373666,0.6317538317808032,0.9090729932563628,0.13174444814609482,0.6597666643491266,0.902754193787828,0.0,0.0,0.0,0.0
0.01372008285225076,0.04297242641928201,0.7543364888693995,0.007464218217552232,-0.5520032675635392,0.006933171504228567,0.8337797126210671,0.06557579982518115,0.3804348748404018,-0.881512754025301,-0.10136198885265002,0.34744570409791775,-0.819586511033302,-0.04525094969589951,0.6279696993188068,0.9122025906951773,0.1263000127798957,0.6601651171135844,0.9005174092906489,0.0,0.0,0.0,0.0
0.013838567131426182,0.043749646804320745,0.7543032402935238,0.007552068439874743,-0.5520731346333138,0.006849010947839146,0.8337333574515672,0.06383674418467959,0.3829285763081676,-0.8855809775583909,-0.10310402354133057,0.34612994412427517,-0.8169751739504499,-0.03606828833523256,0.6244351393677612,0.9149278462200586,0.12097277006382,0.6602392908705278,0.8986226152032475,0.0,0.0,0.0,0.0
0.013917677182991693,0.04453671505222715,0.7541959456175665,0.00763234329344398,-0.5521331930609741,0.006770979819566238,0.8336934918112454,0.06206375183342718,0.38515864780850034,-0.8895964880109436,-0.10487628851010493,0.344495729615423,-0.8141621517501285,-0.027334563938293588,0.621359135340794,0.9167422409935778,0.11565112873457306,0.6598036653528287,0.8973930574336201,0.0,0.0,0.0,0.0
0.013959142807591793,0.04534914114987192,0.753972136360719,0.007702001477018255,-0.5521871048678765,0.006699477514182182,0.8336577219650266,0.06022399085936705,0.3871397193891391,-0.8937517732188446,-0.10671678219290857,0.3424839773951171,-0.8111869889532681,-0.019270416126199584,0.619194531624236,0.9168518306529811,0.11028344277751218,0.6586363229509469,0.8972292444683206,0.0,0.0,0.0,0.0
0.013966533632907849,0.046196581568067406,0.7536011316157464,0.007759375416973168,-0.5522389730661299,0.006632517925304156,0.8336233672504479,0.05830206307529709,0.3888876598093048,-0.8981820626119893,-0.10864478398589465,0.3400674450688204,-0.8081011107225858,-0.012162413929742173,0.6186927460842906,0.9140135395910816,0.10482800668788943,0.6565814337748189,0.898425241215624,0.0,0.0,0.0,0.0
0.013937845299283718,0.047096426029178406,0.7530911690576636,0.007808306424127731,-0.5522861585066935,0.006568754066187113,0.833592155039096,0.05625429639477278,0.3904317746290954,-0.9029190006396178,-0.11070119109793065,0.33719325268185063,-0.804791093054956,-0.005725965780933676,0.6191804614558375,0.9093985925284344,0.09914604743786588,0.6536711181438849,0.9008203837253353,0.0,0.0,0.0,0.0
0.013874233571522024,0.048055672749447165,0.7524625168361642,0.00785679568144607,-0.5523265943536825,0.006501833966333045,0.8335654323964957,0.05406960694318216,0.3918013927657038,-0.9079221527483364,-0.11289386437288743,0.333860845571964,-0.8011989006752588,0.00037002852618236125,0.6202809561849669,0.9036657993443132,0.09311251721477924,0.6500026239921228,0.9041565634554173,0.0,0.0,0.0,0.0
0.013777554207653694,0.04906416651312233,0.7517311543025417,0.007916047523752755,-0.5523573676058291,0.006421965306179605,0.8335450995625653,0.05178433309180712,0.39298726036323617,-0.9130890629882823,-0.11518561318060812,0.33011907036653176,-0.7973905817757765,0.006443021241013111,0.6218534709390141,0.8970608002872749,0.08667013973994907,0.6456377036084018,0.9082680968700223,0.0,0.0,0.0,0.0
0.013649889485153057,0.05008969273025125,0.7509053323360427,0.008003535046756292,-0.5523743112469136,0.0063114532510435,0.8335338800907334,0.049502566379632476,0.39392740170051943,-0.9182342849293775,-0.11747557167229579,0.3260787848785445,-0.7936093171899851,0.012860623795990908,0.6239113785114644,0.8895020156825656,0.07981703485011164,0.6405682565597456,0.9131291212722599,0.0,0.0,0.0,0.0
0.013494506829610625,0.05107520054914387,0.7499866568284846,0.008147821050319439,-0.552369545699474,0.006135900949017939,0.8335369510198287,0.04742042973028867,0.3945124989858733,-0.923083074344053,-0.11957737868567647,0.32193497566104406,-0.7903448759736594,0.020112471605389284,0.6265649138443785,0.8805811598758367,0.07254874384786238,0.6346970398438055,0.9188363144755856,0.0,0.0,0.0,0.0
0.013312151667153974,0.05194433448882477,0.7489834430443257,0.00839219931849886,-0.5523312451122327,0.005842184906018796,0.8335620166123773,0.04581401530542834,0.3945899841392718,-0.9272214200508587,-0.1212284652043055,0.3179399636394946,-0.7882448829772899,0.028872101400209696,0.6300114396114809,0.8694520125875372,0.0647934753733909,0.6278968433479278,0.9254496275866583,0.0,0.0,0.0,0.0
0.013094238876403937,0.05261035888180235,0.747956725932594,0.008789349510365056,-0.552259734852521,0.005385163840580317,0.833608380839719,0.044955214427047696,0.3939679271499951,-0.9298969479820871,-0.122157631290683,0.31433984577797097,-0.7876906629585209,0.039666929657683744,0.6346905940609266,0.8546591951981684,0.05653063448735661,0.6203454105286599,0.9325733365944215,0.0,0.0,0.0,0.0
0.012922951840096033,0.05298758511734682,0.7471282370451746,0.009362844878853463,-0.5521729471244677,0.004741088649649895,0.8336635386521775,0.04509084368132252,0.39312102720983233,-0.9307553138212554,-0.12211863472960442,0.3120230763610936,-0.7893065245517921,0.049641289616831445,0.642013001501118,0.835008726010829,0.04803252003230514,0.6134167230377698,0.9383717286557102,0.0,0.0,0.0,0.0
0.01292576071997889,0.05299477727230088,0.7471176583536616,0.009365842410822276,-0.552176478293697,0.004738391636265276,0.8336611814519178,0.0450787068449899,0.3931252609029148,-0.9307851677343206,-0.12212898214508855,0.311987437408161,-0.789274297275068,0.049646425581684056,0.6420122349163542,0.8350026003350016,0.04801243431928363,0.6133908337256527,0.9383729259653816,0.0,0.0,0.0,0.0
0.01292576071997889,0.05299477727230088,0.7471176583536616,0.009365842410822276,-0.552176478293697,0.004738391636265276,0.8336611814519178,0.0450787068449899,0.3931252609029148,-0.9307851677343206,-0.12212898214508855,0.311987437408161,-0.789274297275068,0.049646425581684056,0.6420122349163542,0.8350026003350016,0.04801243431928363,0.6133908337256527,0.9383729259653816,0.0,0.0,0.0,0.0
0.012455023367318808,0.05330262088939538,0.7474270976523845,0.008814661326904234,-0.5526721649607198,0.005265547385906753,0.8333354989642825,0.043422279723006774,0.39105619253689927,-0.9257308487186012,-0.1118982726757618,0.3269596842934232,-0.8175354403386442,0.0533655333469574,0.6422027815741095,0.8333865380811223,0.05199728339058042,0.6169047507096537,0.9359374271742076,0.0,0.0,0.0,0.0
0.011510832588493749,0.05417444052034788,0.747677181411222,0.008364139926141186,-0.5529849174403579,0.005757331432919473,0.8331293869391164,0.04035156540640029,0.38753728036687113,-0.9196506221245703,-0.10032352639569081,0.3343127144499986,-0.8356439359456141,0.05320614213371286,0.6406366695828603,0.8340910232616568,0.05179975002138097,0.6184731499359081,0.9313756457465361,0.0,0.0,0.0,0.0
0.010324528915653329,0.055496352671622985,0.7478364637631304,0.007967280416553023,-0.5531499043507134,0.006202140330541298,0.8330205514961085,0.03625100948715661,0.3835883441207327,-0.9140665183557279,-0.09023021635093517,0.3371438893277331,-0.8470219187079238,0.05007157848080728,0.6376893858604349,0.8371594303301697,0.04836264583638457,0.6185824195682836,0.9255535510131707,0.0,0.0,0.0,0.0
0.009025788728899715,0.05712374002493203,0.7478603402781141,0.007599632634913168,-0.5532536118863841,0.006593848260149418,0.8329521040753823,0.03152314984145624,0.3795295398462773,-0.9091732540487488,-0.08259238877051632,0.3375372041651853,-0.8547006534893682,0.04494121017986852,0.6335839978913577,0.8427014227478531,0.04279811393030502,0.6175485792320158,0.9196424347394836,0.0,0.0,0.0,0.0
0.007721674702634196,0.058778611787296015,0.7478780427627875,0.007274893944913314,-0.5533226295080896,0.006922147634204125,0.8329064938301741,0.026861418546060306,0.3754447447430612,-0.9042384091795651,-0.07674704680432035,0.336595878594885,-0.8601246933011403,0.03918000894649173,0.629562991071947,0.848261382921648,0.03663919906299347,0.6163433085903905,0.9133976195561991,0.0,0.0,0.0,0.0
0.006468280270829441,0.06029271250491716,0.7479152558540636,0.007000289035975476,-0.5533698653629208,0.00719114350007832,0.832875186037378,0.022661699620582523,0.37130866316484,-0.8989544182573168,-0.07182942371807698,0.3349154162585816,-0.864273315612413,0.033661827021687185,0.6259888190253118,0.8529514944341368,0.030827728881110378,0.6152275042326587,0.9072180125994296,0.0,0.0,0.0,0.0
0.005376676616698758,0.06163356360920709,0.7479587879629225,0.006774204314225173,-0.5533976921836747,0.007409918764104594,0.8328566488571736,0.018990787571529968,0.3677132585794973,-0.8943214954158302,-0.06735025424143716,0.332941979392975,-0.8676066135396256,0.028632591099293024,0.6229791657915372,0.8568900930676787,0.025597175363236038,0.6143473375017968,0.9014799445195983,0.0,0.0,0.0,0.0
0.004461290313228963,0.06279060421152982,0.7479980909722771,0.006591288507326372,-0.5534152298444688,0.007589336552687344,0.8328448476533292,0.015847629659582977,0.36473225241969753,-0.8904904769618558,-0.06289113123772144,0.3310633150581428,-0.8704101105854072,0.02421664250256214,0.6204811298680124,0.8602133031478464,0.02105096456927654,0.6136768431570846,0.8964201307142472,0.0,0.0,0.0,0.0
0.0037042393742400944,0.06377706176384601,0.7480286356697388,0.006444610246611133,-0.5534260831166545,0.007738915588495902,0.8328374071272503,0.013176580232708594,0.3623025401174545,-0.8874046121010618,-0.05820917504873121,0.3296870949629488,-0.8727191953754998,0.02040820301962707,0.6184000719403315,0.8630417751714534,0.017161058910992993,0.6131560985236989,0.8920832946261702,0.0,0.0,0.0,0.0
0.0030811318710001583,0.06462086626526137,0.7480504469592041,0.0063272494698442885,-0.5534321901933483,0.007866143308136947,0.8328330568375608,0.010892603852032808,0.3603510990803143,-0.8849819194234204,-0.053198871902076686,0.3292460095095511,-0.8743404001347392,0.01711871520251016,0.6166541101887703,0.8654871205424542,0.013821046454481005,0.612746651353565,0.8883909070654266,0.0,0.0,0.0,0.0
0.002569135779444744,0.0653547951069847,0.7480674074078376,0.006233136942692261,-0.5534366885955181,0.00797653829576293,0.8328297272294604,0.008904463714249054,0.3588204719588577,-0.8831395925679795,-0.04784802858243788,0.3300051955145607,-0.8749605102084818,0.014225602880842257,0.6151949770382199,0.8676369869228067,0.010896326666684669,0.6124456899695147,0.8851985795913866,0.0,0.0,0.0,0.0
0.0021360277492025355,0.06599816529522205,0.7480777828013558,0.006156375256010192,-0.553437242686412,0.008075270607787472,0.8328289785159854,0.00715483799300376,0.3575635070598527,-0.8816878997796961,-0.04217383538332665,0.33174964234902055,-0.8749563676720036,0.01167326028333709,0.6139202876657435,0.8695547768346926,0.008325692746680003,0.6121888708339324,0.8824346810898811,0.0,0.0,0.0,0.0
0.0017559364343769715,0.06656631287657273,0.7480827510773308,0.006092527083527456,-0.5534336305483668,0.008166071148689075,0.8328309630253817,0.005599237628929345,0.35646048178776035,-0.8804516063169042,-0.03619824293595439,0.334122169432673,-0.874639629551563,0.009416460618307294,0.6127680799568015,0.8712671825155829,0.006060153103318285,0.6119445501099979,0.8800178040883324,0.0,0.0,0.0,0.0
0.0014112370372185835,0.06706963316795268,0.7480853781357474,0.006038759214759178,-0.5534265407643433,0.008251300194778903,0.8328352258459379,0.00420791756554096,0.35543010739942105,-0.879297746482182,-0.029918474576800316,0.33684520413403957,-0.8741978622189084,0.0074236512618165995,0.6117118063001712,0.872771084847685,0.004065541630893182,0.6117065113139976,0.8778709577092759,0.0,0.0,0.0,0.0
0.0010904133957878484,0.06751072910827302,0.7480896636743702,0.00599389349820808,-0.5534166780476604,0.008331709523667769,0.832841303199978,0.002972951324303733,0.3544114929214802,-0.8781130426259034,-0.02331872843419471,0.3397595491979601,-0.8737212288535395,0.005689155619316046,0.6107500051024649,0.8740297662081111,0.0023343232190744852,0.6114793554501987,0.8759384789349517,0.0,0.0,0.0,0.0
0.000785625381164384,0.06788179931988274,0.748100745700624,0.005958272142209293,-0.5534051498304677,0.00840592637963027,0.832848473334674,0.0019155848386928397,0.3533443625778073,-0.8767674257303093,-0.016432918312632695,0.3427779225853143,-0.873256915500945,0.004244476907705269,0.6099050904057385,0.8749615453530835,0.0008964340561323429,0.6112731002923476,0.8741931309197605,0.0,0.0,0.0,0.0
0.0004992271595374861,0.06816700638576541,0.7481254402941196,0.005933327494938532,-0.5533933838176077,0.008469575357305149,0.8328558246569466,0.0010832040457840687,0.352214979315651,-0.8751872850361334,-0.009491558283126651,0.3458004379211786,-0.8728575661587358,0.0031450641193052813,0.6092387575284258,0.8754496311347839,-0.0001944984193783055,0.6111180418493616,0.8726274185867565,0.0,0.0,0.0,0.0
0.0002422256427032438,0.06834462715501546,0.7481713645374444,0.005920399923272523,-0.5533852187188826,0.008514886960365464,0.8328608799002719,0.0005457843021286326,0.3510496003338544,-0.8733406698043471,-0.003125163443432742,0.34860996329234517,-0.8726657358774396,0.0024633199963927806,0.6088466671222262,0.8753647855762898,-0.0008680939235603716,0.6110621741757057,0.871259711755191,0.0,0.0,0.0,0.0
4.4616732132362095e-05,0.06840003478243589,0.7482354947517773,0.005918095391905007,-0.5533907720510063,0.008531993391569808,0.8328570313352044,0.0003641121105138349,0.3499934831386084,-0.8714052266801114,0.001358637930556546,0.35076286169969306,-0.8729754946990079,0.0022426264517937814,0.6088087072024995,0.8747499449095069,-0.0010830984333052944,0.6111418422810007,0.8702275761954934,0.0,0.0,0.0,0.0
4.4642870597197866e-05,0.0684004688136507,0.7482350589077051,0.005918611804101276,-0.5533902100403716,0.008532685561345479,0.8328573940014562,0.00036146183044179615,0.34999132944435907,-0.8714057892501743,0.0013647540563674829,0.3507670397830242,-0.8729729299289484,0.002241851210871386,0.6088052331431827,0.8747509594564997,-0.0010828261933912519,0.6111419147672428,0.8702256742738197,0.0,0.0,0.0,0.0
4.4642870597197866e-05,0.0684004688136507,0.7482350589077051,0.005918611804101276,-0.5533902100403716,0.008532685561345479,0.8328573940014562,0.00036146183044179615,0.34999132944435907,-0.8714057892501743,0.0013647540563674829,0.3507670397830242,-0.8729729299289484,0.002241851210871386,0.6088052331431827,0.8747509594564997,-0.0010828261933912519,0.6111419147672428,0.8702256742738197,0.0,0.0,0.0,0.0
4.4642870597197866e-05,0.0684004688136507,0.7482350589077051,0.005918611804101276,-0.5533902100403716,0.008532685561345479,0.8328573940014562,0.00036146183044179615,0.34999132944435907,-0.8714057892501743,0.0013647540563674829,0.3507670397830242,-0.8729729299289484,0.002241851210871386,0.6088052331431827,0.8747509594564997,-0.0010828261933912519,0.6111419147672428,0.8702256742738197,0.0,0.0,0.0,0.0
0.00011327667874445852,0.06852160011589335,0.7482406140305808,0.0059251920521645966,-0.5534215270254483,0.008521826709913916,0.832836649045593,9.241944128388069e-05,0.35064298723529763,-0.8723328585808265,0.0010954596538295443,0.3509441427306396,-0.8730395498448498,0.0015478609121658419,0.6090108680912689,0.8753191997724591,-0.0017772647668119089,0.6114030485043257,0.8698575169714615,0.0,0.0,0.0,0.0
0.00019551942416786607,0.06871037137730167,0.7482434781899218,0.005924194780961095,-0.5534528133163507,0.008516800481933236,0.8328159169095922,-0.0003468812150759993,0.3515203300939746,-0.8736931067521004,0.0006561165983093062,0.35107691176551503,-0.8729899320894119,0.000569809314321748,0.6091833345858884,0.8761744365373124,-0.0027544046519035383,0.6117229452770595,0.8692823851373073,0.0,0.0,0.0,0.0
0.0002824997619725896,0.06898181592828184,0.7482414235051998,0.0059211004570521525,-0.5534784726235902,0.00851373700500201,0.8327989176228826,-0.0009888138247260113,0.3526011726675655,-0.8754825002397586,1.4473386137939096e-05,0.3510863178599064,-0.8727351509055155,-0.0008185435136307596,0.6092893026631642,0.8773765792264707,-0.004138197350716003,0.6120557422498838,0.8684333241587355,0.0,0.0,0.0,0.0
0.00040521209022529084,0.06938494763468189,0.7482333123036874,0.005909091448383813,-0.5534939284032594,0.008517061126602866,0.8327886968065477,-0.0019552889099223748,0.35418052453576543,-0.87824734550783,-0.000950933307496991,0.3510746072239581,-0.87242571629023,-0.002814867484294006,0.6093406822636249,0.8791243111817606,-0.006122399188025125,0.6124827709649875,0.8671554800750235,0.0,0.0,0.0,0.0
0.0005779716631938948,0.06998622766630311,0.7482239358340954,0.0058797571729744015,-0.5534986797074967,0.008538142699213824,0.8327855306961647,-0.0034270608960267532,0.35648233654989997,-0.882395997371906,-0.00241980038109482,0.35100862014527795,-0.8719261099333595,-0.005673841288960962,0.6093446016678723,0.8816071383309365,-0.008953014325286654,0.6131205600537842,0.8651666215145007,0.0,0.0,0.0,0.0
0.0008545902375720751,0.07087068726072913,0.748256998295099,0.00575626266640438,-0.5535945986019035,0.00878438458022603,0.832720073269799,-0.0060331325861167195,0.359906622270812,-0.8883440973533896,-0.005018123011091944,0.3510318981288809,-0.8703550865980897,-0.008522262871403077,0.6094268803082921,0.8847748215930805,-0.011760140756390598,0.615005466001438,0.8622976968011743,0.0,0.0,0.0,0.0
0.0014465826117264315,0.07160471168432768,0.7482114838194429,0.005676598990059542,-0.5535158230885633,0.008812403395959751,0.8327726888898814,0.006227492142072855,0.35301888143256704,-0.8793038742874241,-0.006765388834998996,0.35332890165388825,-0.8740870018864859,-0.011785167963356397,0.6097792399414708,0.8881332104478921,-0.014957922510792377,0.6161909308762321,0.8602914443365673,0.0,0.0,0.0,0.0
0.0022021288423543102,0.0724640750910863,0.7481667399089169,0.0055612626124743065,-0.5534878810068351,0.008948935758130135,0.8327905826109678,0.022372619033965428,0.3471630593884937,-0.8732449517262897,-0.009040287289122016,0.3563535965205619,-0.8784639667907573,-0.015056467874046945,0.6103336468057883,0.8920584298852887,-0.018146863068470014,0.6180758835744024,0.8582118424533544,0.0,0.0,0.0,0.0
0.002994718660857929,0.07348860210517437,0.7481215056721457,0.005427502610458307,-0.5534781272761389,0.009142525213756627,0.8327958447753131,0.038528117882345336,0.3422158104413665,-0.8692625415120752,-0.011839473543934607,0.3592564068367166,-0.8823378601092737,-0.018883999568443128,0.6108756480815486,0.8965595003998429,-0.021858371892724493,0.6202735991628615,0.8556151316986633,0.0,0.0,0.0,0.0
0.003797393506207923,0.07464017383590363,0.7480739311601993,0.005287324273698119,-0.5534697960952683,0.009349056716529502,0.8327999904843887,0.053278798373308574,0.3378514841929073,-0.8664322785449803,-0.014979090802221132,0.36194465980940366,-0.8857464902098351,-0.023343629408443006,0.611416615838733,0.9014811826229042,-0.02615265994301658,0.6225892694236564,0.8525217387363447,0.0,0.0,0.0,0.0
0.004608042870319515,0.07589219956012254,0.748019002445984,0.005144833428989904,-0.5534586606451822,0.009554328283015315,0.8328059536632103,0.06646523500931617,0.3338630814268316,-0.8642941275589626,-0.01836544907139411,0.36445023741889754,-0.8888227883667175,-0.028395212438492426,0.6119599149422127,0.906767362753462,-0.030976104532615796,0.6249426954458859,0.8490432505014847,0.0,0.0,0.0,0.0
0.005452366472624628,0.07723399954971447,0.7479526742332724,0.004996629523392634,-0.5534451030376196,0.009758456055638548,0.8328134990215365,0.07841555346256224,0.33014215006955744,-0.8625786518719634,-0.021970279398724153,0.36694210216221484,-0.8918551386410889,-0.03397791243700579,0.6125436128131293,0.9124259968912259,-0.03625593483607001,0.6273606340232917,0.8452777857711309,0.0,0.0,0.0,0.0
0.006365063250128302,0.07867524970396957,0.7478708703588222,0.004835520211857257,-0.5534293236907122,0.009968577224251379,0.8328224473989914,0.08949707110645178,0.32668636384893174,-0.8611091570344479,-0.025828950174351554,0.36960223878693604,-0.8951244028299833,-0.04009124414271509,0.6132072315962476,0.9185312785066598,-0.04197714517149119,0.6299134160734554,0.8412567871102448,0.0,0.0,0.0,0.0
0.00738928739426316,0.080240247690617,0.7477685641398145,0.004649627371864348,-0.5534116625548379,0.010196923550144538,0.832832477430909,0.09995358902915337,0.3236284100387632,-0.8596997971306335,-0.03002192198161046,0.3726289616958682,-0.8989151937656122,-0.046773102585730884,0.6139941346201093,0.9252096943127541,-0.048158336756184285,0.6327053171281388,0.836971158693673,0.0,0.0,0.0,0.0
0.008604250572318546,0.08194841120439114,0.7476398301783721,0.004417449901220734,-0.5533881000179648,0.010461432331884048,0.832846117436134,0.1099673216997797,0.32122938435052034,-0.857985651345406,-0.03462595780425286,0.37644035824949085,-0.9038678599521788,-0.05396789382847022,0.6149999743475629,0.9325695736242624,-0.05472638988898625,0.635915046854373,0.8324572635597556,0.0,0.0,0.0,0.0
0.010021915723529111,0.08385391745913386,0.7474826195092491,0.004127045743578137,-0.5533506949219744,0.010777092667268319,0.8328684351063135,0.11953488343221508,0.3197714202190811,-0.8556656109310524,-0.03980653761071091,0.380977081818692,-0.909843378930906,-0.061884678618440575,0.6162193697684211,0.9407368107725291,-0.06184969117037613,0.6396206407407383,0.8274783804613662,0.0,0.0,0.0,0.0
0.011643707144516553,0.08601769200692883,0.7472995050831565,0.00376430786272475,-0.5532876064568945,0.011162408066184808,0.8329069907100548,0.12867195063470857,0.31933809535869156,-0.8523644763043727,-0.04575389863741183,0.386101304396248,-0.9165572341934655,-0.07075404755343664,0.6176453519035077,0.9497771001738464,-0.06970059968854773,0.6439229393636119,0.8216845730718274,0.0,0.0,0.0,0.0
0.013483037303139274,0.08849824288296074,0.747091531806708,0.003311564751234673,-0.5531767607880514,0.011639066943265912,0.8329760122498291,0.13755564738149836,0.3194768216832459,-0.8481482191936203,-0.05266060317733571,0.3917480701459305,-0.9238794221354016,-0.08077173291559021,0.6192676728021709,0.959721242065025,-0.07840154991114572,0.6489374446969309,0.8147103425072338,0.0,0.0,0.0,0.0
0.015558978515231163,0.09132912140101176,0.7468710277556823,0.0027456964616266576,-0.5530028715071846,0.012235182140588633,0.8330849810035801,0.14655439931386277,0.3194845723668654,-0.8428396026679609,-0.06067174171670012,0.3979263449739447,-0.9317067221629284,-0.09194127067030884,0.6211594772840755,0.9704087161115844,-0.08788749016405685,0.6548910715154017,0.8061812533458692,0.0,0.0,0.0,0.0
0.017892827799102604,0.09447862840697331,0.7466631931515042,0.002041624426595325,-0.5527631791494864,0.012981584465183308,0.8332347676441658,0.15628176834930807,0.3185716695258462,-0.8358146765465743,-0.06977859558320808,0.4047812769899236,-0.9400654434863315,-0.10385667088060373,0.6234855833536963,0.9813789656729939,-0.09773600125628978,0.662099501974948,0.7958876933275166,0.0,0.0,0.0,0.0
0.020500900605366728,0.09777027983576121,0.7464782378363811,0.0011803950542780739,-0.5524833976634224,0.013899109951831478,0.8334071734250572,0.1676515056537247,0.3159019947613209,-0.8258696693304296,-0.07959740954032733,0.41269470748084447,-0.9494041535235438,-0.11530319351288787,0.6263672024962631,0.9919823613165428,-0.1068753744118333,0.6707018428426383,0.7845137747355373,0.0,0.0,0.0,0.0
0.023277638492150116,0.10075098875283427,0.7460594691719558,0.00017586474718048602,-0.5522613643143094,0.014955679395852284,0.8335368511416258,0.1818321336454831,0.3104203265532084,-0.8117774863184176,-0.0889709048579223,0.4216731961216498,-0.96067120153072,-0.12381788634906137,0.6284488542208375,1.003537671722415,-0.1133060733663477,0.6786188385749983,0.7772043933781682,0.0,0.0,0.0,0.0
0.025946997055827373,0.10320778062130885,0.7454461836221841,-0.000928081276973301,-0.5519719055315894,0.016037739716536614,0.8337079495085519,0.19801637041231784,0.2998480708813475,-0.7896897421370277,-0.09713413821322324,0.4307331482967792,-0.973168399272981,-0.1284588935424864,0.6290378944205448,1.0148112346188192,-0.1164389761396782,0.6848341874110142,0.7740830535507301,0.0,0.0,0.0,0.0
0.02819234471171131,0.10494225182332176,0.7446955533320405,-0.0021465134390509376,-0.5515903049080905,0.01709579558389898,0.8339372049410011,0.21537676021919763,0.28081049422577087,-0.7546694102905084,-0.10340733585540654,0.43865680119422046,-0.9851590337255893,-0.12757386855495012,0.6273308966176379,1.024774656407203,-0.11510494780834667,0.6887454730799374,0.7754406532357787,0.0,0.0,0.0,0.0
0.02943815928198005,0.10573530859010864,0.7439007780748738,-0.0034657491961592925,-0.5510570784512896,0.01800672875160689,0.8342660502447073,0.230654897703352,0.24894683855465796,-0.7005739503868895,-0.1068417932628096,0.4429594786497064,-0.9932002190543168,-0.11979358461779213,0.6220120277811086,1.0320428985543517,-0.10831791948864299,0.6892128288372256,0.7809460922532845,0.0,0.0,0.0,0.0
0.029506239156539753,0.10580558027833763,0.7438724449418078,-0.0035368725608526707,-0.5510291872386486,0.01801684967771542,0.8342839555398949,0.23070213325549832,0.2489433983395532,-0.7005425791322293,-0.10704164900998983,0.44301306089733483,-0.9932555432771298,-0.11983467509354148,0.6219830457167972,1.0322868487153172,-0.10824077475199756,0.6893429744958228,0.780787991400393,0.0,0.0,0.0,0.0
0.029506239156539753,0.10580558027833763,0.7438724449418078,-0.0035368725608526707,-0.5510291872386486,0.01801684967771542,0.8342839555398949,0.23070213325549832,0.2489433983395532,-0.7005425791322293,-0.10704164900998983,0.44301306089733483,-0.9932555432771298,-0.11983467509354148,0.6219830457167972,1.0322868487153172,-0.10824077475199756,0.6893429744958228,0.780787991400393,0.0,0.0,0.0,0.0
0.029526715519035806,0.10680199148259424,0.7459362746054996,-0.0018855707657977616,-0.5507458200195089,0.01656280301902777,0.8345065367689332,0.230082656526651,0.25323131240580576,-0.6956341272957651,-0.10730480378015153,0.4431861404554539,-0.9905529096955435,-0.14415948771836953,0.6372747674226683,1.0168567381857008,-0.07755335351833706,0.6733466277822497,0.8223259011668589,0.0,0.0,0.0,0.0
0.029494058415693688,0.10836464788240262,0.7483021412119907,-0.0007410433514924886,-0.5505103637309444,0.01551688347986959,0.8346837824030406,0.22755873610813562,0.25975797980128856,-0.6952815032175707,-0.10942559148175725,0.4419949440063398,-0.9824125978523824,-0.16666998425533414,0.6528071474829408,0.9993142136908924,-0.046918863121814494,0.6640997356670104,0.851036685018657,0.0,0.0,0.0,0.0
0.029414890387623998,0.11025834434480083,0.7504525958690978,-3.457963652786823e-05,-0.5503195575875077,0.014844967189450676,0.8348221429083458,0.22380845036488123,0.2673572042023843,-0.6991933716367211,-0.11286639825713284,0.4393965513402561,-0.971219746002319,-0.18648761832790106,0.6661416286452861,0.9838444297361923,-0.02360001220669312,0.6581881397636162,0.8705125913065838,0.0,0.0,0.0,0.0
0.029330409890838533,0.11230437416019412,0.7523065159196397,0.00038549572369254233,-0.5501492288260826,0.01443641923100634,0.8349414753232111,0.21941280661247572,0.2754836625519999,-0.7062068892147215,-0.11706056551577523,0.4359311796295736,-0.9587914237282666,-0.20402606663818917,0.6772333595285903,0.9710124309750304,-0.005417927798504328,0.6543935181575976,0.8845295083177515,0.0,0.0,0.0,0.0
0.029250887830399842,0.11436482444164554,0.7538933945564826,0.0006379415853824867,-0.549986577320886,0.01417618641862159,0.8350529285835809,0.21484322011805188,0.2835815016695587,-0.7147581059378504,-0.12149625788403225,0.43201873973025473,-0.9461891510898827,-0.21979129542375195,0.6865167053680717,0.9604233998620639,0.009916053011903162,0.6520421707348665,0.8953483846811745,0.0,0.0,0.0,0.0
0.029146834671190818,0.11633496032733652,0.7552456405244244,0.0008061085823433697,-0.5498219321377843,0.013987663995773312,0.8351643780628868,0.21041452433961214,0.2910097530404228,-0.7233171175028488,-0.12580617721612847,0.42781333496979274,-0.9338974643825312,-0.234020557687475,0.6942382213701391,0.9516400004793879,0.023989755410061,0.6505843590010432,0.904185837845742,0.0,0.0,0.0,0.0
0.028944063921769233,0.11813402095793328,0.7563852129820591,0.0009498687960918904,-0.5496564239007907,0.013822492634405392,0.8352759137621748,0.20632275206543504,0.29696634889625206,-0.7302298215857754,-0.1297221028720142,0.4231562836465505,-0.9218116233468063,-0.24674160673616854,0.7004269386396086,0.9443470263201494,0.03783417787273477,0.6495392282166292,0.9115767315355318,0.0,0.0,0.0,0.0
0.028653420378398364,0.1197836353151779,0.7573440927658256,0.001087890616255045,-0.5494787011463942,0.013665093411991177,0.8353952589657905,0.20254476476599315,0.3016720336086007,-0.7357572412887851,-0.13328295513057373,0.41812875148942386,-0.9100146169430885,-0.25826369163547835,0.7052911375347537,0.9383233311233565,0.05186716992460004,0.6487682130849871,0.9177260931825993,0.0,0.0,0.0,0.0
0.028281623145148187,0.12132784732105356,0.7581476767974806,0.0012289688767995173,-0.5492786114823109,0.013508210896779187,0.8355291885038681,0.19899335512795585,0.3053833223236825,-0.7402830250566768,-0.13659039114767516,0.4127137586059273,-0.8984096063846354,-0.2689394157955848,0.7089838159693899,0.9334403848846625,0.06635323670922541,0.6483347874962968,0.922454053751135,0.0,0.0,0.0,0.0
0.027825003324656757,0.1228195803012844,0.7588130811136755,0.0013804905609463662,-0.549044265967276,0.013345423137237482,0.8356855795905266,0.19555580920992688,0.30830431913865813,-0.7441519049778824,-0.13976529345248867,0.40679387436078424,-0.8867715797150594,-0.27915212534096434,0.7115824538171582,0.929648446524796,0.0815620528386,0.648550561832684,0.9251055764661305,0.0,0.0,0.0,0.0
0.02728757349019085,0.12432298095891085,0.7593653718620694,0.0015454371122036968,-0.5487604399109758,0.013175301424128988,0.8358743940600333,0.1920892095764303,0.31072753760844113,-0.7478582573159088,-0.14296202055318644,0.4002611413681477,-0.87484637084754,-0.2892883253373281,0.7132058199021039,0.926817782400764,0.09777230086911565,0.6500611506425592,0.9245253835907997,0.0,0.0,0.0,0.0
0.0266727161552145,0.1258910143491423,0.7598636271216027,0.0017271794452086507,-0.5484019778041919,0.01298971052574426,0.8361121665255637,0.18848767360682417,0.31291478585004084,-0.7517296230052634,-0.14628811567372385,0.3930474960372537,-0.8623737545828839,-0.299629067907284,0.7141231387110522,0.9244048427808889,0.1148105577098225,0.6521289257884649,0.9220473322546904,0.0,0.0,0.0,0.0
0.02596511643667139,0.12754899553357213,0.7603721934638409,0.0019399212559597773,-0.5479399678276246,0.012770792674610204,0.8364179189956684,0.18471153919438438,0.31490035967296387,-0.7556610015359695,-0.14976732074152607,0.3850440600377899,-0.8490830774862976,-0.31032294720102427,0.7145837340284086,0.9217148572172649,0.13288414904776275,0.6543058213699435,0.9185851084010911,0.0,0.0,0.0,0.0
0.025156174331551918,0.12930719728096862,0.7609461458344776,0.002209983348395911,-0.5473323659631432,0.01249014543174071,0.8368192119029544,0.18077677330616646,0.31671221454530846,-0.7595808300573296,-0.15338141956176685,0.3762254643102737,-0.8349815406525964,-0.3215018903731752,0.7147883668046996,0.9180602115574987,0.15302998608377055,0.656441752390459,0.9148783537673295,0.0,0.0,0.0,0.0
0.024252610832332166,0.131138198691864,0.7616158206406233,0.0025823105869800787,-0.5465219275045726,0.01210272637844786,0.8373533533956423,0.17682087593353357,0.31834238790325015,-0.7634331599859169,-0.1570164621180148,0.36677705504919855,-0.8206705005836352,-0.3332234575220533,0.7148352245311458,0.9128604991765388,0.17769161891131757,0.6587415425861869,0.9117504177008654,0.0,0.0,0.0,0.0
0.023255336882032823,0.13290484880083014,0.7623402334765581,0.003132871419480535,-0.5454407081623319,0.011539158320904096,0.8380641185621109,0.1732705495020998,0.3193408876937308,-0.766593956454026,-0.16029183634543015,0.3571839357322151,-0.8077559592455194,-0.3451395511854514,0.7144334270435411,0.9059691926745717,0.21143447205110047,0.6619065304245311,0.9102561990736618,0.0,0.0,0.0,0.0
0.02223323571432864,0.1343214429413398,0.7629093083529364,0.003948786789321915,-0.5439802599893682,0.010656947850754606,0.8390210446033509,0.17111861092162114,0.3191948969768229,-0.7688980177291985,-0.1623898176357591,0.3488424964010098,-0.8004537541200086,-0.3565954057261695,0.7125450527849915,0.8986040705137126,0.2599951250565494,0.6674126903775768,0.9110661391874774,0.0,0.0,0.0,0.0
0.021174928123609528,0.13536572793577473,0.7626499154919535,0.004821707637321422,-0.5421472608121376,0.009694908989328782,0.8402137272557768,0.17017662462576838,0.3176702773644656,-0.7733837289252585,-0.1637092404764372,0.3415090227735585,-0.8002884949346282,-0.3653453604385817,0.7049119955891083,0.8977153488467139,0.3211918892687372,0.67320833571366,0.9150986588541129,0.0,0.0,0.0,0.0
0.020323746028249167,0.13595284697706303,0.7616634239883388,0.005380585669051395,-0.540113693478741,0.008956824642146255,0.8415271966531684,0.17036398439227693,0.3160475401377118,-0.7820096771098232,-0.16438722335129416,0.3365933099537697,-0.8072790156372373,-0.3681378000096956,0.6924849748891916,0.9027504470523091,0.38132883192517053,0.6748255663481263,0.9237249880802263,0.0,0.0,0.0,0.0
0.02032450382347689,0.13596942595116293,0.7616439842656623,0.005404091693895514,-0.5400994896231128,0.008933667082528596,0.8415364084187181,0.1703758893703315,0.3160289647399067,-0.7820536178585089,-0.16439354650182958,0.3364747345350198,-0.8072874737987568,-0.36819722751314965,0.6924351376023515,0.9026579951491097,0.3813785413163029,0.6748406110133673,0.9237363058640884,0.0,0.0,0.0,0.0
0.02032450382347689,0.13596942595116293,0.7616439842656623,0.005404091693895514,-0.5400994896231128,0.008933667082528596,0.8415364084187181,0.1703758893703315,0.3160289647399067,-0.7820536178585089,-0.16439354650182958,0.3364747345350198,-0.8072874737987568,-0.36819722751314965,0.6924351376023515,0.9026579951491097,0.3813785413163029,0.6748406110133673,0.9237363058640884,0.0,0.0,0.0,0.0
0.02031853561115709,0.1362358222329041,0.7620277914460285,0.005577651231878413,-0.541534211470305,0.008812403740932862,0.8406140191278499,0.16938761339412334,0.3151868325601676,-0.7724879425896917,-0.16444516723283734,0.3342779238608536,-0.7960292485354735,-0.3759378670664673,0.6994462564528525,0.9034076719101244,0.38314820807205874,0.681158619335201,0.9236267369132627,0.0,0.0,0.0,0.0
0.020342050429065207,0.13664050184868962,0.7623193725234441,0.0056188563360383735,-0.542476098282221,0.008801803828997281,0.8400063330090607,0.16812875820800055,0.31554091560253544,-0.767957099128714,-0.16511268411072486,0.3321975130780526,-0.7870018921860201,-0.3819385447759118,0.7043097259037487,0.9039401248758295,0.38383400169315834,0.6858039987456499,0.9226554421837009,0.0,0.0,0.0,0.0
0.0204526796232234,0.13719918751621982,0.7624841794793377,0.005571810721395832,-0.5430662274432793,0.008868219842994773,0.8396245483623176,0.16658348320713498,0.3174103574425219,-0.7683614055806788,-0.16637131298375127,0.3304804309458264,-0.7802253690199394,-0.38710418914362565,0.7074458934382386,0.9051159253606833,0.3835176270423598,0.6890550375450865,0.9216584154132748,0.0,0.0,0.0,0.0
0.020697309891215453,0.1380041254214242,0.7624620165610057,0.005455943978558533,-0.5434430496495286,0.008992759838916953,0.8393801372044745,0.16454660611352198,0.32121121413218023,-0.7739967071026362,-0.1683954817988804,0.329011078459946,-0.7751108020310998,-0.39280998459544103,0.7091534855978822,0.9081836961079541,0.38209755869601536,0.6911047185273,0.9215237053282425,0.0,0.0,0.0,0.0
0.021120942146800502,0.13912298196937933,0.7621171476508516,0.005279395900347741,-0.5437169294172194,0.009149515909362313,0.839202189584049,0.16191221521247665,0.32719838424291264,-0.7852920154991813,-0.17129861051248182,0.3276967572807744,-0.7715433221382261,-0.4003579993162089,0.7092822003427677,0.9150187827980777,0.379620395323742,0.6916675161276047,0.9238492342493105,0.0,0.0,0.0,0.0
0.021699623513192816,0.14059768174962303,0.761066218233443,0.00537907520263234,-0.5443027990772495,0.00901435974443339,0.8388231457137039,0.15892098644567568,0.3343600006298928,-0.799132475590863,-0.17471354705255668,0.32576720965288836,-0.7690189235914822,-0.4160813283093332,0.708082344237538,0.9308151359081398,0.37393086494234823,0.6892276853173386,0.9336432911578986,0.0,0.0,0.0,0.0
0.022563036747560352,0.14220773430599953,0.761631153352841,0.006386591391605738,-0.5452204093382726,0.00795653399605208,0.838230642638512,0.15661675436386738,0.34344729982666844,-0.8050596686564226,-0.1769578845621138,0.3259018755695495,-0.7649987808962017,-0.33355078703691166,0.6957958045976607,0.9186806171538829,0.35687499794367294,0.6948954723865263,0.9275078806268552,0.0,0.0,0.0,0.0
0.023538439082993357,0.14411836201677788,0.7613860855337461,0.0075826498136731734,-0.5463857537663153,0.006702368308388769,0.8374725008990309,0.1539581818590733,0.35337416997550614,-0.8139943760625578,-0.17974736840325997,0.3252678588190054,-0.7622612166549061,-0.25554999317596344,0.6838542244102505,0.9119733783182247,0.33700995911158593,0.6966926744224204,0.9294384298898478,0.0,0.0,0.0,0.0
0.02463675987740198,0.14616417082179048,0.7609612215830953,0.008393226720801462,-0.5473381519747575,0.0058226930975289444,0.8368492082706193,0.15060939186097064,0.3647436355597559,-0.828309057119425,-0.18345793480486597,0.3249264866390824,-0.760263662418949,-0.20130715720461778,0.6756560395602813,0.9100922031385923,0.3195895605855105,0.6979001189706985,0.9320238085092989,0.0,0.0,0.0,0.0
0.025686356632768057,0.14815378816531624,0.7605442516313204,0.00889215433042382,-0.5480509430608644,0.005274257364049533,0.8363810588545861,0.14695824444299319,0.3758721628753768,-0.8442971291710847,-0.18753991830601233,0.32449983419890066,-0.7581239184979436,-0.16493020105216513,0.6701741679222187,0.911158591526637,0.304894253248995,0.6989815574468605,0.9337517415558924,0.0,0.0,0.0,0.0
0.026604185119819393,0.14998552861461137,0.7601824596780185,0.009214390791886351,-0.5485827215035955,0.004922137427377994,0.8360310193008325,0.1433682673033506,0.38582952855853603,-0.8594746084214963,-0.1915291441564732,0.32380478363363047,-0.7556368180416216,-0.13880394020679113,0.6660931188272944,0.9137373108396851,0.29228152528190937,0.6998905545321447,0.9346207766245862,0.0,0.0,0.0,0.0
0.027375745946282545,0.1516378831618889,0.7598775320735925,0.009452905126635582,-0.5489908813459374,0.004666686280067833,0.8357618541324083,0.14001323176672245,0.3944254789502972,-0.8729448492291211,-0.19521619308960586,0.32281981813008337,-0.7528513077710953,-0.11780799640884504,0.6625396893590297,0.9169042285623761,0.28107161256652335,0.7005571230182648,0.9348829573049561,0.0,0.0,0.0,0.0
0.028018919565788888,0.15313677283455934,0.7596091212961549,0.00965712197983645,-0.5493165853644283,0.004454066774157649,0.8355466416231967,0.1369130626367189,0.4018339191856827,-0.8847437167880199,-0.19858301619326152,0.3215647058218933,-0.7498521327853689,-0.09912499779227976,0.6591092458042976,0.9200407342159184,0.2707397830324399,0.7009200492871317,0.9348331885385425,0.0,0.0,0.0,0.0
0.028560824965093275,0.15452941650568686,0.7593402659450418,0.009848543193364081,-0.5495878646372958,0.004261488874811963,0.8353670001579878,0.1340003297785347,0.4083346170563174,-0.8953111697851553,-0.20171456258766327,0.32003529095854094,-0.7466893998835507,-0.08141858698548793,0.655732033296101,0.9226438025234548,0.26091337306624696,0.7008827023950286,0.9348299033483983,0.0,0.0,0.0,0.0
0.029029554556232618,0.1558619169893673,0.7590179494372961,0.010033496979018933,-0.549822195490292,0.004077058964745261,0.8352115060718484,0.13120252439276947,0.41418994778256374,-0.9052059280717071,-0.20470976576260896,0.31822860987571033,-0.7434819856175531,-0.06429146039942335,0.6525884962229579,0.924173813133929,0.25133804936892695,0.7002640976968062,0.9353524541595478,0.0,0.0,0.0,0.0
0.029440194542973547,0.15718323238803225,0.7585769419896813,0.010209425715079696,-0.5500287701409948,0.003900082545131283,0.835074193709693,0.12842034633826843,0.4195770199048915,-0.9149713531566144,-0.20769060125030794,0.3160424619471147,-0.7402345271139258,-0.047823922000156574,0.6501212745497013,0.9237852659553234,0.24180872561549566,0.6987836917854018,0.9369622561360138,0.0,0.0,0.0,0.0
0.02976592587477846,0.1585629005947113,0.757953956978179,0.010371620114178012,-0.5502154329139828,0.0037326996878452316,0.8349499828328197,0.1254848029234858,0.42447722233967056,-0.9248689701232312,-0.2108139724494094,0.3130227786090527,-0.7363536555149182,-0.03237181526835132,0.6490255684915409,0.9201280520062559,0.23192840951394533,0.696052899420195,0.9401200902498438,0.0,0.0,0.0,0.0
0.030001466655491603,0.16004887798350664,0.7571290041386793,0.010524390829952428,-0.5503789445261378,0.003572745695519331,0.834840996901894,0.12228162011536324,0.42895891489499005,-0.9351334074650341,-0.21419010665256488,0.3089542836086184,-0.7315471767868466,-0.017643411440345022,0.6487010962230179,0.9143330181521061,0.22133615667726217,0.6919251986414171,0.9448623102396503,0.0,0.0,0.0,0.0
0.03013244024528232,0.16167753315564712,0.75609432582376,0.010678730258351542,-0.5505154637348038,0.003411098813203012,0.8347496950067188,0.11872825577298717,0.4330065456220631,-0.9457898784985315,-0.21788724817705227,0.30360141481431807,-0.7254759190670779,-0.0033049429338860934,0.648858727803572,0.9069516931417008,0.2096461237226017,0.6862775634248581,0.9511077130335286,0.0,0.0,0.0,0.0
0.030134274003519996,0.16346200449421755,0.7548412923022343,0.01085395608733193,-0.5506215095348657,0.0032308406745040572,0.8346782053841684,0.11480524151761883,0.43647943355381297,-0.9566256238346785,-0.22190544327959802,0.2967368502704262,-0.7178615081882461,0.011000131807509148,0.6494576907359374,0.8980299340144975,0.1965294492255411,0.6789421809108531,0.9588228752123299,0.0,0.0,0.0,0.0
0.030058671718775368,0.16531940847097035,0.7533738934011702,0.011088092967052345,-0.5506883037426609,0.002994630015699812,0.834631941939951,0.11078062361220477,0.43942548354245636,-0.9675479704151686,-0.2260282706683337,0.28900647362858223,-0.7099712135925915,0.02608550306800893,0.6508080297145852,0.8872475420432981,0.18216234861378344,0.6699816644064543,0.9680852509531029,0.0,0.0,0.0,0.0
0.029932353433368895,0.16713079189942984,0.7516929576522657,0.011442481119098515,-0.5507019729475999,0.002629220036994784,0.8346193706231944,0.10707130378892286,0.4416785473396904,-0.9780414453821177,-0.22989244694741715,0.2810852330605599,-0.7033188737019718,0.0430067014569525,0.6532723029029059,0.8736967258096854,0.1665519384349047,0.6592691218056241,0.9790563000517104,0.0,0.0,0.0,0.0
0.02973029513672131,0.16877262709546514,0.7498112014083765,0.012008472354587579,-0.550633703805117,0.0020190206160669226,0.8346581601957292,0.10417359164321319,0.44282642761381613,-0.9871094449441524,-0.23303700535967797,0.2734110557204307,-0.6992178218467415,0.06313597439147356,0.6572351551015498,0.8555543234636483,0.14922052846154707,0.6464327384645647,0.9917113883994414,0.0,0.0,0.0,0.0
0.029421139094710634,0.17009817693585466,0.7478443932334312,0.012904735048390951,-0.5504573645198212,0.0010428535841049298,0.834762882569431,0.10262622690054993,0.44248619970479547,-0.9933056403997044,-0.23493219094502807,0.2665344137173711,-0.6988394293521965,0.08761361914694843,0.6635765191420083,0.8298031712498473,0.12967788768913724,0.6315837698261175,1.0051088935597035,0.0,0.0,0.0,0.0
0.02910874595334662,0.1709314926789652,0.7462348938359272,0.014184028542342799,-0.5501964782692506,-0.00034654478196389826,0.8349146833905475,0.10290927538787256,0.4412639996163568,-0.9953709185842342,-0.23506453391503185,0.2620155464476131,-0.7032605981501299,0.11040059862840577,0.6752905253573201,0.793758858517685,0.10862545515746261,0.617213016907483,1.0156131011129381,0.0,0.0,0.0,0.0
0.029125687251857595,0.17094800145239264,0.746200402124216,0.014207716566251458,-0.5502148381072081,-0.0003591120714424889,0.8349021761590707,0.10288655525767522,0.44128980295280906,-0.9954257032250805,-0.2350853893436259,0.2619295684644052,-0.7032125441909959,0.11041160973162273,0.6752883501355306,0.7937480279150035,0.10860227063992844,0.6171472502410383,1.0156079914866933,0.0,0.0,0.0,0.0
0.029125687251857595,0.17094800145239264,0.746200402124216,0.014207716566251458,-0.5502148381072081,-0.0003591120714424889,0.8349021761590707,0.10288655525767522,0.44128980295280906,-0.9954257032250805,-0.2350853893436259,0.2619295684644052,-0.7032125441909959,0.11041160973162273,0.6752883501355306,0.7937480279150035,0.10860227063992844,0.6171472502410383,1.0156079914866933,0.0,0.0,0.0,0.0
0.02789738588705962,0.17151751822428263,0.7470050613541229,0.012908875906030359,-0.551349584979156,0.0008777804874358365,0.8341739779971388,0.09902102651419918,0.43624749755170494,-0.9839327823123941,-0.21557899768286726,0.2962400145674653,-0.7609587199341712,0.12012196454456087,0.6755907895939824,0.7883613631412618,0.12006664329076054,0.6253335894137599,1.0099313979230011,0.0,0.0,0.0,0.0
0.025580853796212926,0.17312598860845463,0.7477640076554422,0.011866157464722447,-0.552113495769947,0.001977897947306809,0.8336821756613375,0.09255076811529073,0.42776471111084996,-0.9690967347246116,-0.19346825371626225,0.31527077669898207,-0.7968389873693694,0.1212804552602256,0.6725829786438575,0.7875364676217277,0.12134105973080088,0.6284549360608339,1.0003665898709204,0.0,0.0,0.0,0.0
0.022790515578999342,0.1755925161624204,0.7484052816792357,0.010964813096109626,-0.5525678731290892,0.002960480336909768,0.8333905171139979,0.0841747055161795,0.4185203974407074,-0.9550297286536691,-0.17378485662894666,0.32496077807175855,-0.8185117087837609,0.11611549163769476,0.667204454827457,0.7912851148397984,0.11481234117807018,0.628324828193493,0.9882395455550534,0.0,0.0,0.0,0.0
0.019860676236390453,0.1787008148027256,0.7488705490453865,0.010141697528765705,-0.5528019670610322,0.0038694821978208917,0.8332419566321713,0.0744597949110072,0.40968124762437214,-0.9433422510804655,-0.15758610371741877,0.32936657940089714,-0.8316148096071458,0.10677644055323696,0.6599672602176279,0.799161551683447,0.10338051152214851,0.6263082697648568,0.9748241362291807,0.0,0.0,0.0,0.0
0.016983802946122967,0.18216600772414804,0.7490928002572652,0.009389512809183868,-0.5529842285615464,0.00466174119135595,0.8331257697253533,0.06422043779671856,0.4014784420807104,-0.933609363418565,-0.14515528530696908,0.33084828026084234,-0.8404442633803015,0.0949585268341082,0.6514484199368461,0.8108888393095662,0.08938956142619779,0.6231898710776469,0.9618938600308596,0.0,0.0,0.0,0.0
0.014387089083069605,0.18559557326104137,0.749247136956325,0.008733584246990129,-0.5531208077624682,0.005321662176819576,0.8330382802957325,0.0544373354680964,0.39444477639170816,-0.9256164088459724,-0.13532597490272774,0.33063635179431755,-0.8466264598384614,0.08252528119043875,0.6435821264357007,0.8227125989398663,0.07518761398664121,0.6204215630563525,0.9490732072538296,0.0,0.0,0.0,0.0
0.012079781114107789,0.1886907148188671,0.7493979073734048,0.008188822232303623,-0.5532189294784831,0.005857783375673071,0.8329750570281517,0.0457743540056749,0.3880735936299347,-0.9181174425919725,-0.12654291519305116,0.3294811251372695,-0.8513330403263241,0.07090760846901423,0.6369343590691094,0.832741952067077,0.06235829931252787,0.6182802941104614,0.9368031372052766,0.0,0.0,0.0,0.0
0.010052523102111804,0.19139057456734176,0.7495516809083219,0.0077420297572635115,-0.5532848951808861,0.00629653132071277,0.8329323138366291,0.03830507069467498,0.3822693395100187,-0.9109897047384169,-0.11796908153802216,0.3280450854241185,-0.8552266827988895,0.06056830734262862,0.6314194789125787,0.8408443515410448,0.05124915582256423,0.6167071556764776,0.925406006791546,0.0,0.0,0.0,0.0
0.008285304017840674,0.19370460902697667,0.749687305023013,0.007378794379089489,-0.5533273944859217,0.0066595037782854385,0.8329045557051297,0.031947966531400696,0.37699174367978744,-0.9043233858202945,-0.10909593697015194,0.32691601032195367,-0.8585858351685398,0.05160158499490562,0.6267577629829001,0.8474507946871539,0.04181673720637098,0.6154870418392802,0.9152351172187432,0.0,0.0,0.0,0.0
0.006755662674378814,0.19567539430284728,0.7497888681241289,0.007085190319876095,-0.5533550650831877,0.0069641048827098935,0.8328862306870578,0.026553583129819175,0.3722438013626725,-0.8982555608386129,-0.09964745872568975,0.32663301788534393,-0.8613610182906236,0.043909637609168314,0.6227167500896701,0.8530177859787467,0.03385302605044344,0.6144494567827099,0.9064536186898358,0.0,0.0,0.0,0.0
0.005446436987505859,0.19737561935450393,0.749867454618598,0.006846082122867114,-0.5533765648249604,0.007226198825848295,0.832871713238373,0.021907530977899933,0.3681303619296661,-0.8929839351360472,-0.08955415560496809,0.3275479869090754,-0.8632674026328665,0.037240963744589975,0.6192434254340373,0.8577998248468672,0.027026928421353985,0.613622121335578,0.8988229555818245,0.0,0.0,0.0,0.0
0.004350165430347166,0.1988700635013593,0.7499225750873268,0.006648722711790576,-0.5533922818988,0.007458206272856028,0.8328608238957649,0.01782624254726592,0.3647790829617295,-0.8888063642927011,-0.07884136061816596,0.32950183331707567,-0.8646328644768747,0.03136244544971783,0.6162411212969207,0.862094338892681,0.021059502488702503,0.6129889086236027,0.8921916604240531,0.0,0.0,0.0,0.0
0.0034622358223536515,0.20021602976576577,0.7499558668845314,0.006483226659516752,-0.553399401114761,0.007668940429281067,0.8328554844452891,0.01415244248530861,0.36231411137384273,-0.8860028691913997,-0.06756011844170778,0.33215847076448585,-0.8656858021904021,0.02605204431102474,0.6136451296402996,0.866122073708968,0.015702229706406647,0.612552231907526,0.8863793798750724,0.0,0.0,0.0,0.0
0.002706727311965448,0.20142838461313742,0.7499767354023325,0.006341975258640405,-0.553405433917336,0.0078661020927315,0.8328507246190344,0.010827219109637257,0.36032702851953874,-0.88388078014512,-0.05560787356688995,0.33522476949036845,-0.8666869815012047,0.021278686369670827,0.611349010920629,0.8698211213412661,0.010916853343386648,0.6122367480450635,0.8812283239065223,0.0,0.0,0.0,0.0
0.0020270267815805433,0.20251123454072997,0.7499943775197786,0.006220709266196025,-0.5534110835773962,0.008053197454254195,0.8328460970435537,0.00782998662599354,0.3584983535776279,-0.8819015643127603,-0.04292845418653071,0.3385228425185998,-0.8677558890046825,0.017042142037231197,0.6092844717864199,0.8730815006994023,0.0066965105815549875,0.6119861067652405,0.8766012602723229,0.0,0.0,0.0,0.0
0.00139633150873506,0.203451104457052,0.750017208193903,0.006119264188060358,-0.5534141727346755,0.00822796962794444,0.8328430875849262,0.005196588578701233,0.3566498710663447,-0.8797451887009806,-0.02963136323513656,0.341973558310023,-0.868921303935858,0.013396683066713284,0.6074505073423087,0.8757516201312285,0.003088240301813534,0.6117757372514712,0.8724393361496301,0.0,0.0,0.0,0.0
0.0007949143366756498,0.2041999447345646,0.7500538311331671,0.006041811605571634,-0.5534142304730391,0.008378621366989487,0.8328421127239216,0.003065959287107076,0.3545722514249145,-0.8769924467638404,-0.01620114812486392,0.34551019295989654,-0.8702717646337975,0.010513615313915025,0.6058976369439233,0.8775678593695042,0.0002553642592486756,0.6115646932308312,0.8688103251854407,0.0,0.0,0.0,0.0
0.0002370038794043002,0.2046899451891417,0.7501093121531461,0.005995002803457217,-0.5534169973953551,0.008483744714077335,0.8328395481789529,0.0016469972764472916,0.35221460175606767,-0.8734360788645622,-0.0038719706821960416,0.3489750431877907,-0.872008206542524,0.008617531872549095,0.604758444201133,0.8782863044266593,-0.001589715757488477,0.6113383093032094,0.865936422374377,0.0,0.0,0.0,0.0
-0.00013763104553273712,0.20489280367798826,0.7501596576339603,0.005981209404363553,-0.5534266082709846,0.008521988335965331,0.8328328704527319,0.0010622457031075159,0.3503582170742306,-0.8703684272487143,0.004767055683872689,0.3519402699749019,-0.8742821264765062,0.007767447670359878,0.6042107733374784,0.8782070323365304,-0.0024052754893356156,0.611159573868667,0.8643170663111728,0.0,0.0,0.0,0.0
-0.0001366807434849385,0.20489454871993226,0.7501580130675451,0.005982714986909125,-0.5534256972327913,0.008523681223551507,0.832833447708594,0.001055233001075534,0.3503539496679787,-0.8703692058117407,0.00478051767182836,0.35194377586171693,-0.8742795894966277,0.0077637575794714175,0.6042027416762487,0.8782138188770181,-0.002401897578042031,0.6111659092085492,0.8643097246298,0.0,0.0,0.0,0.0
-0.0001366807434849385,0.20489454871993226,0.7501580130675451,0.005982714986909125,-0.5534256972327913,0.008523681223551507,0.832833447708594,0.001055233001075534,0.3503539496679787,-0.8703692058117407,0.00478051767182836,0.35194377586171693,-0.8742795894966277,0.0077637575794714175,0.6042027416762487,0.8782138188770181,-0.002401897578042031,0.6111659092085492,0.8643097246298,0.0,0.0,0.0,0.0
-0.0001366807434849385,0.20489454871993226,0.7501580130675451,0.005982714986909125,-0.5534256972327913,0.008523681223551507,0.832833447708594,0.001055233001075534,0.3503539496679787,-0.8703692058117407,0.00478051767182836,0.35194377586171693,-0.8742795894966277,0.0077637575794714175,0.6042027416762487,0.8782138188770181,-0.002401897578042031,0.6111659092085492,0.8643097246298,0.0,0.0,0.0,0.0
-7.153635543131692e-05,0.20502412430472966,0.7501644951013438,0.005987697947562595,-0.5534556897706144,0.008513785593526864,0.8328135820150206,0.0007658375044438477,0.35100064885872034,-0.8712971511005949,0.004489964272733828,0.3520877846044958,-0.8742877504371069,0.007046793173027533,0.6043971036434651,0.8787940218111929,-0.0031176064731733176,0.6114377159825295,0.8638868765772235,0.0,0.0,0.0,0.0
6.937642213398717e-06,0.2052244803762557,0.7501681701960262,0.00598527416464965,-0.5534853975221393,0.008509722236234862,0.8327938975823463,0.0002980605245336372,0.3518809210485606,-0.8726753741982216,0.004021718495115308,0.35218155618410363,-0.8741707907310811,0.006029133067333518,0.6045544202885098,0.8796769434825092,-0.004133489935909512,0.611766385528021,0.8632477098386916,0.0,0.0,0.0,0.0
9.077865186411678e-05,0.2055079387848004,0.7501664346201847,0.005980616634569535,-0.5535101496373346,0.008507775369013622,0.8327774998349776,-0.0003737652886387692,0.35297016208051024,-0.874491458898739,0.0033499895156140196,0.3521556609251912,-0.8738533496722681,0.004601615392012731,0.6046436948888144,0.8809180528600078,-0.005554859492050512,0.6121089280494241,0.8623408495629531,0.0,0.0,0.0,0.0
0.0002101222995205128,0.20592515701607983,0.7501575439883297,0.0059670173448019195,-0.553525117196299,0.008512230532807181,0.8327676033973623,-0.0013751036338091765,0.354561174398079,-0.8772921046908077,0.0023497931141245034,0.35210467838555715,-0.8734769449892569,0.0025584740365875,0.6046705674129896,0.8827273033501278,-0.007583055988681226,0.6125426991281493,0.8610085194808554,0.0,0.0,0.0,0.0
0.0003778393783643668,0.20654229365363888,0.7501460516730144,0.00593626393371143,-0.55353042930986,0.008534392039078277,0.8327640654777767,-0.0028859318993736897,0.3568675904489633,-0.8814662380592921,0.0008421489793901168,0.3519875521412315,-0.8728921835622114,-0.00035360016072174616,0.6046394613357972,0.8852968549788506,-0.010461726542763816,0.613182851658007,0.858970429909774,0.0,0.0,0.0,0.0
0.000652229353076397,0.20744276366187903,0.7501772730296565,0.005811279664246395,-0.5536281165073388,0.008781480533985073,0.8326974379934357,-0.005530049094931419,0.36031473295371136,-0.8874626256144178,-0.0017943438848360385,0.3519817795583891,-0.8712693858572533,-0.0032532221419338007,0.6046927417297988,0.8885576594377073,-0.013320974977833038,0.6150786356287985,0.8560541251550848,0.0,0.0,0.0,0.0
0.0012414202845491779,0.20819127463672396,0.7501290371916343,0.005731622320826879,-0.5535499322408008,0.008809173638947567,0.8327496739606537,0.0066794551174291835,0.35348914792724623,-0.8785981974086293,-0.0035711727006777186,0.3542458706239526,-0.8749531965931424,-0.006567367794729725,0.6050132501743337,0.8920087755921683,-0.016571775769585483,0.6162558601209295,0.8540206632082986,0.0,0.0,0.0,0.0
0.0019963527759610895,0.20906289747259144,0.7500814957733722,0.005616602480944966,-0.5535221434040088,0.008944969148193987,0.8327674813925798,0.02279437230583973,0.34766479415901486,-0.8726500926927696,-0.005868607270999486,0.3572586789128253,-0.8793226739010049,-0.00987728833104588,0.6055383433564699,0.8960202624824325,-0.019808231491253152,0.6181285694718689,0.8519287988619196,0.0,0.0,0.0,0.0
0.002787307138683179,0.21009836338993787,0.7500333280487046,0.005483424876203137,-0.5535133063288168,0.009137253321918986,0.832772155136265,0.038921767249594605,0.3427331201975054,-0.8687359975572401,-0.008686026610361323,0.3601479472671478,-0.883186778905381,-0.013737864986675528,0.606050926057666,0.9006070684407602,-0.02356139762348232,0.6203132261642416,0.8493245434318397,0.0,0.0,0.0,0.0
0.0035874795610936084,0.21125999550221744,0.7499824294947426,0.005343968085797698,-0.5535062159267246,0.009342354298423821,0.83277549877007,0.05364727672629083,0.33837712616146687,-0.8659499636970515,-0.011841652559981732,0.3628205739550478,-0.8865840683218528,-0.01822519868787866,0.6065599526126391,0.9056162477357603,-0.027889868009623273,0.6226151329209073,0.8462274578521919,0.0,0.0,0.0,0.0
0.0043945260679957,0.21252191457476888,0.7499237978419513,0.005202434036700262,-0.5534965337975614,0.009546057870535427,0.832780520025121,0.06680960583028508,0.33439347154480076,-0.8638447719225859,-0.01524353480993437,0.36530531971023816,-0.8896423402554882,-0.02330367777059881,0.6070683801161673,0.9109932271954861,-0.03274432514802887,0.6249533602906483,0.8427461612350948,0.0,0.0,0.0,0.0
0.005237817946477422,0.21387269280916185,0.7498535179005539,0.005054825537082096,-0.5534847288507285,0.009748739373345782,0.8327869269797982,0.07874117666363964,0.33067660640633456,-0.8621504121961486,-0.018861405461816298,0.3677947107239152,-0.8926863973520949,-0.028903594285094168,0.6076215783545806,0.9167440393610664,-0.03804472780300966,0.6273619207963397,0.8389859539208882,0.0,0.0,0.0,0.0
0.0061509809305509335,0.21532320364120985,0.7497673962613499,0.00489429346383878,-0.5534710243183051,0.009957308658281077,0.832794526360386,0.08980385390100888,0.3272248146988717,-0.8606996163032612,-0.022733137076682185,0.37046191323395034,-0.8959833101265875,-0.03503318936937406,0.6082568012314639,0.9229477506062297,-0.0437855779075044,0.6299074282864296,0.8349745997018739,0.0,0.0,0.0,0.0
0.0071786302322597965,0.21689779347972607,0.7496602440056673,0.004708712182671786,-0.5534561786221444,0.010184086570492662,0.8328027201896487,0.10024075868848213,0.3241732228124591,-0.8593071549479693,-0.026939049055017365,0.3735137929572589,-0.8998299133773862,-0.04172823408246739,0.6090200191888412,0.9297343328119742,-0.049984705238224805,0.6326962239823982,0.8307083456712838,0.0,0.0,0.0,0.0
0.00840522131747547,0.21861396675933698,0.7495258646264898,0.004475895632685074,-0.5534358049138163,0.010447108381484509,0.8328142854947597,0.11024489065282103,0.32178452424544934,-0.8575954159154842,-0.03155050457038395,0.37740373662201415,-0.9049266679196201,-0.048917792237250665,0.6100148307698933,0.9372096535957486,-0.05655738440117139,0.6359119812511337,0.8262404890657294,0.0,0.0,0.0,0.0
0.009833388834665158,0.22052976316501496,0.7493620880319666,0.004185517388495199,-0.5534022432389618,0.01076066629599573,0.8328341051392779,0.1197978764220258,0.3203363809334796,-0.8552877969460128,-0.03674222166335117,0.38200886260459177,-0.9110323169874615,-0.05684402323643975,0.6112197897373188,0.9455097491234687,-0.06370166290368402,0.6396159971395493,0.82130907981429,0.0,0.0,0.0,0.0
0.011464693530435936,0.22270555778527049,0.7491711157236596,0.0038233493855605372,-0.5533436506639956,0.011143364042113812,0.8328697447423233,0.12891984270998938,0.31990999420924604,-0.8520053308646934,-0.0427032916757573,0.3871938338269166,-0.9178686784990226,-0.06573442422721794,0.6126266743737293,0.9547018552368989,-0.07158470014480593,0.6439092562447558,0.8155675305876218,0.0,0.0,0.0,0.0
0.013312627245005383,0.22519936363073048,0.7489536883918839,0.0033715511431576194,-0.553238679407239,0.011617138701891992,0.8329349544466268,0.1377895877031046,0.320054340640685,-0.8478132560546116,-0.04962545411332967,0.39289518308018156,-0.9253064742615023,-0.0757817264002366,0.6142258900635712,0.9648196432587814,-0.08032393845449819,0.6489091039023346,0.8086554597304314,0.0,0.0,0.0,0.0
0.015396221209645532,0.2280442925546646,0.7487223078972961,0.0028069095532281436,-0.5530725016510409,0.012210436199967409,0.8330389153118993,0.1467753263667256,0.32006825483174733,-0.8425336839167983,-0.057653405579902964,0.39912283682533584,-0.9332415544175252,-0.08698735013319588,0.6160928078308793,0.975700319880836,-0.0898512958692349,0.6548457828858214,0.8001978961872644,0.0,0.0,0.0,0.0
0.01773677630576366,0.23120835361374478,0.7485032168078123,0.0021046028755995344,-0.5528426077091056,0.01295405884476296,0.8331823414520847,0.15648881235442513,0.3191664889252001,-0.8355405812181524,-0.06677782745330604,0.40602280404833546,-0.9416971388974553,-0.09894857918675755,0.6183993558415655,0.9868732395839385,-0.09974830956429918,0.6620405335324554,0.7899752588630867,0.0,0.0,0.0,0.0
0.020350717064103643,0.23451473118333108,0.7483086431064933,0.0012461770900627982,-0.5525735979038692,0.013868711552657382,0.83334778141068,0.16784074399637605,0.3165175450099458,-0.8256261996446733,-0.07661419465137073,0.41397813956504037,-0.9511211340994892,-0.11045484960212434,0.6212754616115661,0.9976642118668732,-0.10895301511667103,0.6706357122194483,0.7786536623504967,0.0,0.0,0.0,0.0
0.023133186471497685,0.23750872638064965,0.7478820127950923,0.0002463562011235206,-0.5523613739268688,0.014921285496957587,0.8334711795505363,0.18200352531234829,0.31107086029626263,-0.811567487327002,-0.08599973417385148,0.4229972341336912,-0.9624744085094128,-0.11904335255596891,0.6233691180614119,1.0093637755278173,-0.1154823016927989,0.6785200295521882,0.7714121091586329,0.0,0.0,0.0,0.0
0.025807415272354937,0.23997605873339775,0.7472650374431932,-0.0008516455342858683,-0.5520808484542001,0.01600009320093742,0.8336366165707548,0.19816411253543859,0.30055516491032175,-0.7895157599097691,-0.09417043365940625,0.4320939158498298,-0.975039872176352,-0.123760067700665,0.6239937060385019,1.0207139058547516,-0.11872685694703763,0.6847008643118686,0.768348039826358,0.0,0.0,0.0,0.0
0.02805615039309912,0.24171743434824025,0.7465159641130887,-0.0020631424590308485,-0.551706806029395,0.017057489806165102,0.8338611309238185,0.21548649001550418,0.2815995453821577,-0.7545337275828601,-0.1004495476941831,0.44004856452807006,-0.9870719104431955,-0.12294225541016908,0.6223408698630555,1.030674758962946,-0.11750607938995687,0.6885873128782091,0.7697397035133698,0.0,0.0,0.0,0.0
0.029302618153352777,0.24251439641371736,0.7457231308380141,-0.003375283793760392,-0.5511787564371429,0.01797279549911665,0.8341867683760413,0.2307099481349389,0.2498267368235036,-0.700494861802727,-0.10389843907247293,0.44436239393121757,-0.995121658698134,-0.11522261806710785,0.6170582696238321,1.0379078445614618,-0.11081915998751837,0.6890234877712561,0.7752897107914499,0.0,0.0,0.0,0.0
0.02937074450594898,0.24258466915249877,0.7456946330146677,-0.0034464359313048365,-0.5511513079523667,0.01798325472494028,0.8342043876480539,0.23075700792662052,0.24982346315191598,-0.700463632497878,-0.10409878990935613,0.44441664429899386,-0.9951769611508574,-0.11526272519509762,0.6170305982438075,1.0381529172618673,-0.11074231633450389,0.6891543712524153,0.7751339416446568,0.0,0.0,0.0,0.0
0.02937074450594898,0.24258466915249877,0.7456946330146677,-0.0034464359313048365,-0.5511513079523667,0.01798325472494028,0.8342043876480539,0.23075700792662052,0.24982346315191598,-0.700463632497878,-0.10409878990935613,0.44441664429899386,-0.9951769611508574,-0.11526272519509762,0.6170305982438075,1.0381529172618673,-0.11074231633450389,0.6891543712524153,0.7751339416446568,0.0,0.0,0.0,0.0
0.029392968137610012,0.24358853925892587,0.7478361161435048,-0.0017995606827945758,-0.5508519591218848,0.01651748294097281,0.8344375671494093,0.23014289258350293,0.2542111031113722,-0.6954717010479967,-0.10434551191077705,0.44467023837223607,-0.9923506729936709,-0.13960097438096689,0.6326600884018755,1.022148161196707,-0.07956174710321129,0.6725950233044428,0.8179965562887674,0.0,0.0,0.0,0.0
0.029366323687920286,0.2451706678992531,0.7502943028261774,-0.0006582423856731953,-0.5506063925055854,0.015466307315530795,0.8346214474760211,0.22757837972976383,0.2609024531426204,-0.6950800456350829,-0.10649772575461255,0.4435749650601976,-0.9840149657054329,-0.16217880479021776,0.6486231270155288,1.0039242706235134,-0.048518420963937756,0.663076158097195,0.8474955229946632,0.0,0.0,0.0,0.0
0.029291711777433824,0.24709304769132864,0.7525253301813691,4.473980683554168e-05,-0.5504092710201751,0.014792173681056411,0.8347639330799926,0.22376039788680557,0.2686759533782453,-0.6990116351176551,-0.110001203851268,0.4410287123397758,-0.9725850670198666,-0.18211675074665226,0.6623464069711603,0.9878686618926258,-0.025004993241071166,0.657021270022698,0.8673873827887804,0.0,0.0,0.0,0.0
0.02921145493375615,0.24917186597879393,0.7544425389346417,0.0004605401423376526,-0.5502347506566865,0.014384345048577055,0.8348859788558404,0.21928472513197889,0.27697766621380554,-0.7061139981208194,-0.1142748265272358,0.4375825506680114,-0.9599251027895295,-0.19979309816275187,0.6737496450515612,0.9745917106072927,-0.006771493090482288,0.6531550354321594,0.8816048564183516,0.0,0.0,0.0,0.0
0.029137113019772707,0.251265011791664,0.7560769480027723,0.0007082862777958194,-0.5500694477001011,0.014126824328631183,0.834999122078486,0.21463432854587927,0.2852460138948974,-0.714803810394794,-0.11879406187671525,0.43367504777097915,-0.9471241054249849,-0.21569428120171869,0.6832729772980134,0.9636873024574603,0.008545316823709941,0.6507774449687438,0.8925109811631439,0.0,0.0,0.0,0.0
0.02903799687249937,0.2532628031138284,0.7574636708554241,0.0008718817692208631,-0.5499032046818797,0.01394180443716533,0.8351115682301468,0.21013610827738213,0.2928146499988356,-0.7234941403762143,-0.12317708563268821,0.4294689500822264,-0.9346760573901252,-0.23003377944522946,0.6911705766129158,0.954688353047705,0.02257920141402908,0.649318534385181,0.9013776043818509,0.0,0.0,0.0,0.0
0.028838870848797767,0.25508163428188035,0.758626985480475,0.0010116064825289356,-0.5497369245512058,0.01378033617806127,0.8352235585590997,0.20599251996062354,0.2988666221257169,-0.7304959459894413,-0.1271481878140684,0.42481012038481847,-0.9224777658338514,-0.24282546007938982,0.6974794188099771,0.947255082484361,0.03638859343946993,0.6482836685237424,0.9087718344987219,0.0,0.0,0.0,0.0
0.0285520055908521,0.2567435565315322,0.7596008774420643,0.00114631648654362,-0.5495596472475257,0.013626310966594373,0.8353425666905341,0.20218081205990418,0.3036359192158505,-0.7360820550859376,-0.13074662133618536,0.41979072614064655,-0.9106204029494592,-0.25438754203549924,0.7024238961210757,0.9411543430141405,0.0503952634650931,0.6475321246268856,0.9149197860307674,0.0,0.0,0.0,0.0
0.028185420575910045,0.2582935855871343,0.7604121441554307,0.0012849325796782608,-0.5493619593666454,0.013471996087522073,0.83547489002993,0.1986127127830778,0.30739165835620613,-0.7406477098993881,-0.134075696954508,0.4144016604377266,-0.8990110934860999,-0.26508678889746895,0.706171404700916,0.9362521435319208,0.0648611743504627,0.647129408761613,0.9196546376780937,0.0,0.0,0.0,0.0
0.027735240861245004,0.2597844292594975,0.7610787325794454,0.0014344955697365173,-0.5491316973506537,0.013311476032755898,0.8356285812447297,0.19517501878904997,0.3103373728998091,-0.7445361371744107,-0.13725680778655022,0.40852769396321154,-0.8874255094892877,-0.2752996714324192,0.7088006733229735,0.9324914791603038,0.08005821266962983,0.6473855693853031,0.9223265995169554,0.0,0.0,0.0,0.0
0.02720308191147109,0.2612783180855596,0.7616260579115,0.0015980653652184185,-0.5488539055426482,0.01314343835397923,0.8358134280961903,0.19172758534845125,0.3127432573824838,-0.7482014187519662,-0.1404395818201995,0.4020538227913546,-0.8755981249695857,-0.2853977541317539,0.7104254072038687,0.929737372100691,0.09626498535657967,0.6489410933799911,0.9217792497865729,0.0,0.0,0.0,0.0
0.02659558894455464,0.2628314323139227,0.7621139346810089,0.0017779003254031664,-0.548503156722671,0.012960964388635438,0.8360461348142304,0.18815702818826635,0.31490539869855,-0.7520315706188039,-0.14374197809707362,0.3949247967088003,-0.8632809178199826,-0.29567587566917736,0.7113246598556581,0.9274497914280724,0.11329650797515867,0.6510677697293977,0.9193414164828604,0.0,0.0,0.0,0.0
0.0258964341773172,0.2644688388934433,0.7626065485427385,0.0019879623009733034,-0.5480513213046314,0.012746509685138841,0.8363452180248203,0.18442299681022656,0.31684951533009176,-0.7559055997653953,-0.14718754362768993,0.3870267395794513,-0.8501921111772531,-0.3062831156349987,0.7117457992673296,0.9249409817436797,0.13134536113345502,0.6533204430167303,0.9159109560839795,0.0,0.0,0.0,0.0
0.025096246421557063,0.2662014251618821,0.7631584404090035,0.0022539634643217923,-0.5474569297303677,0.01247256396787794,0.8367378710725168,0.18053805743473467,0.31860038793477796,-0.7597495993738443,-0.15076090310442952,0.37832818309266314,-0.8363257145904331,-0.3173530716730764,0.711884478203596,0.9215363270534049,0.15142304819912705,0.6555539590948779,0.9122025254431817,0.0,0.0,0.0,0.0
0.024200702649495545,0.2680041766999378,0.7637996326362984,0.002619964627078616,-0.546663640977344,0.012095339436951997,0.8372608328249036,0.1766313132149201,0.32015147748455836,-0.7635130479561396,-0.15435521443825898,0.36900058322825535,-0.8222517734338237,-0.3289544317394638,0.711834870295582,0.9166717502590384,0.175927006094275,0.657974948713518,0.9089999160959071,0.0,0.0,0.0,0.0
0.023212825984459885,0.26974890378810723,0.7644914411842322,0.0031593566192118384,-0.5456041383079427,0.011548865658708144,0.8379574967914525,0.1731036359076242,0.3210993334620305,-0.7666536688883393,-0.15761559547227685,0.359513405380222,-0.8095189396186446,-0.3407725153615563,0.711320640624574,0.9102023478446988,0.2093409744923805,0.6612783527529608,0.9073056293935313,0.0,0.0,0.0,0.0
0.022198794023039627,0.271154917089268,0.7650310492229021,0.003959778800674229,-0.5441715102600427,0.01069327668565989,0.838896502202076,0.17092630974341272,0.32093136704751135,-0.7689802694538503,-0.15973806697991055,0.3512245320624861,-0.8022324087976739,-0.35216806239077664,0.7093393212698541,0.9032794929114994,0.2573726522514752,0.6669454790124705,0.9077185658111125,0.0,0.0,0.0,0.0
0.021154095951157817,0.2721920986916283,0.764782681232756,0.004825874975923121,-0.5423704377835732,0.009754022366438611,0.8400689722855182,0.16994511172397425,0.3194429103395453,-0.7733860825635686,-0.16107967160043574,0.34397816984494495,-0.8019732968873575,-0.36096198690349257,0.7018902592535036,0.9024053740710752,0.31813021024527927,0.6730773869363348,0.9110616617950416,0.0,0.0,0.0,0.0
0.02031498809729658,0.27278123685205763,0.7638081347660335,0.005381427259609275,-0.5403727944483957,0.009044455970582595,0.841359899850758,0.170052978237554,0.3178787060707233,-0.7819612322295549,-0.16181137280701283,0.3391085513651336,-0.8087689124288867,-0.363842885281539,0.6896635148230639,0.9074315580616724,0.37771350929787717,0.675291415499532,0.9185014972755583,0.0,0.0,0.0,0.0
0.020315727910871193,0.2727975380107089,0.7637894527221836,0.005404360969584637,-0.5403589584236032,0.009021677994510712,0.8413688835820068,0.1700642215819674,0.3178608540492194,-0.7820034693415138,-0.16181749711747279,0.33899390470151874,-0.8087774153439427,-0.36390086522047166,0.6896142901784567,0.9073419218493597,0.3777622604916729,0.6753063769669495,0.9185123946999268,0.0,0.0,0.0,0.0
0.020315727910871193,0.2727975380107089,0.7637894527221836,0.005404360969584637,-0.5403589584236032,0.009021677994510712,0.8413688835820068,0.1700642215819674,0.3178608540492194,-0.7820034693415138,-0.16181749711747279,0.33899390470151874,-0.8087774153439427,-0.36390086522047166,0.6896142901784567,0.9073419218493597,0.3777622604916729,0.6753063769669495,0.9185123946999268,0.0,0.0,0.0,0.0
0.020311505780486804,0.27305176889659205,0.7641588208016824,0.00556647398674566,-0.5417770885975387,0.008898153436205487,0.8404566755660611,0.16912982035974147,0.3170021767458496,-0.7725468434841928,-0.16184044790668892,0.33685318129820746,-0.7977357199049624,-0.37142957162296913,0.6964879334019838,0.9081780071920479,0.37955276830905876,0.6814787018268135,0.9185317996066813,0.0,0.0,0.0,0.0
0.020337949657241602,0.2734471925277183,0.7644360504276486,0.005605477094677348,-0.5427091922876065,0.008881406285302516,0.8398550064478214,0.16791609459315274,0.31734893407222026,-0.7680876003704808,-0.16248162006722722,0.33483272787149204,-0.788922863369942,-0.3773444800158641,0.7012525734230014,0.9088243541978825,0.3802194882561647,0.6860017226198342,0.9176995096893565,0.0,0.0,0.0,0.0
0.020450891546680908,0.2740026995152198,0.7645883015848691,0.005561034378874934,-0.543294537089182,0.008940307547886325,0.839476141273019,0.16639804608613373,0.3192217789800952,-0.7685447883371896,-0.16372554448744206,0.3331568450534309,-0.7823086664702349,-0.38252460028142815,0.70432462371615,0.9101204162609287,0.37984387200099046,0.6891536742107109,0.9168250511423335,0.0,0.0,0.0,0.0
0.020695595457910207,0.27481008930666906,0.7645558770264104,0.005449810106218052,-0.5436699577570978,0.009057180381672227,0.8392325327856014,0.16437140322655502,0.3230277686996481,-0.7742110909759361,-0.16574603406065047,0.3317010065771764,-0.777289185909251,-0.388306942218135,0.7059949818950146,0.9132987614733152,0.37833253857077176,0.6911186320595966,0.916790751494376,0.0,0.0,0.0,0.0
0.021114867425742194,0.27593452325249024,0.7642038881509,0.005278087912688655,-0.54394418278808,0.009207866740153803,0.839054278929015,0.1617333743122118,0.3290033997100118,-0.7854940051639984,-0.16865250989010608,0.33036765787041017,-0.773741841059454,-0.39593932861496517,0.7061063976571581,0.9202056548931946,0.3757480800249893,0.6916003001083167,0.919192405192841,0.0,0.0,0.0,0.0
0.021669252919431004,0.2774161257501787,0.763128454010023,0.005370663504178756,-0.5445165235183012,0.00908068263494241,0.8386837620891152,0.15871231740430466,0.3360530827690155,-0.7993401778737838,-0.17209454155518975,0.32829903859629816,-0.7711282696380442,-0.4115055875681821,0.7046895935592757,0.936167232563145,0.3700009356827519,0.688887403901064,0.9292209853262258,0.0,0.0,0.0,0.0
0.022505223669724878,0.279015694380275,0.7636463146113636,0.0063656910554652285,-0.5454171361031588,0.008031554931791474,0.8381020938691135,0.1564232610648239,0.3449329191904811,-0.8052211839413814,-0.17433071285846877,0.328309715025943,-0.7671349792575562,-0.329488430252298,0.693237162328056,0.9224908546787908,0.3531063432744239,0.694208272139556,0.9235088577855762,0.0,0.0,0.0,0.0
0.02344989237420704,0.280914904671825,0.763354929508975,0.007542864504710888,-0.5465535799854817,0.006793030537709569,0.8373626120959969,0.15377448541901598,0.35465481648790403,-0.8141879403255149,-0.17711973708805284,0.3275560927758168,-0.7644584825902383,-0.25175879930692724,0.6817273029561994,0.9148004977198468,0.3334519494802481,0.6956048811185321,0.9258687548351392,0.0,0.0,0.0,0.0
0.024515865021653874,0.2829526522363203,0.7629000632417975,0.00834099398872498,-0.547483037637139,0.005923754005117901,0.8367542413739998,0.15043041882700797,0.3658202185015514,-0.828426747383274,-0.18082424782213147,0.32708087799736085,-0.762430817272068,-0.1976769519269282,0.6737327165314407,0.9123283207738367,0.31617470720581575,0.696503996637237,0.9287358722123404,0.0,0.0,0.0,0.0
0.0255378691497311,0.2849386772830243,0.7624649042474895,0.008834415050790878,-0.5481803931703918,0.0053805796273447585,0.8362961550892953,0.1467774246879488,0.3767835316700678,-0.8443047463153129,-0.18490187547125686,0.32653633299359924,-0.7602272418170648,-0.16137451955167564,0.6683378980081895,0.9130396176703732,0.30155530099553884,0.697369030931298,0.9306369962464806,0.0,0.0,0.0,0.0
