zhuoxili-jackie/tripod-support-walk/examples/trajectory_trot_sideways_v0.10.csv
root_pos_x,root_pos_y,root_pos_z,root_rot_x,root_rot_y,root_rot_z,root_rot_w,FL_hip_joint,FL_thigh_joint,FL_calf_joint,FR_hip_joint,FR_thigh_joint,FR_calf_joint,RL_hip_joint,RL_thigh_joint,RL_calf_joint,RR_hip_joint,RR_thigh_joint,RR_calf_joint,FL_foot_joint,FR_foot_joint,RL_foot_joint,RR_foot_joint
0.0,0.0,0.745913,-0.00590261038931276,-0.5534150365010598,-0.008528410562500118,0.8328410549308913,-9.86e-07,0.349071,-0.872662,2.4067e-06,0.349062,-0.872669,2.38753e-06,0.610854,0.872668,-3.27e-06,0.610866,0.872669,0.0,0.0,0.0,0.0
0.0009064652660830473,-0.00016256484892127006,0.7459058106174205,-0.0059142569138972275,-0.5537259134780554,-0.008385490475828046,0.8326357654205885,2.2593186768723837e-05,0.35406405971605376,-0.8794109555549597,2.5988368753794463e-05,0.35470924603505605,-0.8802125888637793,0.0013994463289478194,0.6130022849888438,0.8737889936091183,0.0013937905252124805,0.6133637214505004,0.8752119454204151,0.0,0.0,0.0,0.0
0.0025869999666242776,-0.0004433719259581377,0.7458553102170469,-0.005911489576634648,-0.5540119412437707,-0.008314967479359387,0.8324462052085476,0.0004532383703973092,0.36358129250304083,-0.893585636208883,0.0004567957914564987,0.36523877022767326,-0.8961171023992144,0.0029706849640141813,0.6165215534479986,0.8755966745588176,0.00297134271222229,0.6169181736880079,0.8790298813732424,0.0,0.0,0.0,0.0
0.0049726055294270705,-0.0009666282626558953,0.7457623393560342,-0.005867942099032356,-0.5542968972646433,-0.008335633974905709,0.8322565915296485,0.0016235488973017878,0.37677229275301244,-0.9134963053753735,0.0016279435454057572,0.38026488112059487,-0.9196942091544555,0.005168974197945884,0.6215091500624863,0.8775341979231286,0.005184934982088146,0.6214306813567145,0.8844517190886944,0.0,0.0,0.0,0.0
0.008048836604090538,-0.001897959787476406,0.7458733370236206,-0.005742867544816832,-0.5546548133993436,-0.008492822125693661,0.8320173852856941,0.004025993478319593,0.39319978834540914,-0.9367924400412595,0.0040347340420331945,0.39990734183680327,-0.949887521261481,0.008490295521816668,0.6297995139633268,0.8765581083269163,0.008543068340186265,0.6284185190640039,0.8895545590459422,0.0,0.0,0.0,0.0
0.011979352217971882,-0.003623799297843987,0.7471375814673769,-0.005394403243687205,-0.5554845605355494,-0.008996261328377208,0.831460685001031,0.008997742363369372,0.41356682875445216,-0.9580422426970785,0.009026696446278189,0.4261550518871044,-0.9846648103705274,0.013320950628087719,0.648882033348492,0.8627815455926086,0.013461541724759697,0.6440942398892708,0.8868868990268209,0.0,0.0,0.0,0.0
0.015316943282152117,-0.005137871677968043,0.7479886551042514,-0.005114453721849601,-0.5551632446388185,-0.009094325832909944,0.8316759629825016,0.012640724904609643,0.43075978626798905,-0.9819033593660308,0.005739877494837608,0.40117259009559525,-0.9546016675138623,0.01245342440058361,0.6384958050345213,0.8844697934409009,0.01988772740241402,0.6549013799616136,0.8838223696782894,0.0,0.0,0.0,0.0
0.01874094678967887,-0.006784789137523561,0.7489419076315046,-0.0048297094847159095,-0.5549391428153875,-0.009256405942358397,0.8318254267733384,0.016809862037607474,0.44790980625090865,-1.0044012098026667,0.0037755091752055747,0.3816933527876703,-0.9409965232773829,0.012260507066278677,0.6304735484581223,0.9025973000732048,0.026950246969869238,0.6667388466659505,0.8801734464227821,0.0,0.0,0.0,0.0
0.021985153619503893,-0.008506588387742237,0.7499738978395065,-0.004527425358382637,-0.5548684457748844,-0.009470253477164799,0.8318718799202596,0.021325860976272103,0.4636220360442084,-1.023221714780436,0.0025977905440425796,0.3675827089653336,-0.9379806512537864,0.013382790707282701,0.6242902576467744,0.9187103830603767,0.03436521052427967,0.6790939403312181,0.8759474812765885,0.0,0.0,0.0,0.0
0.02487277325505041,-0.010257235089657049,0.7510354158774495,-0.004225579414748213,-0.5548788290423322,-0.0096985475409884,0.8318639117877485,0.025992131980630325,0.4771048166526526,-1.037846545706939,0.0018625393015753887,0.3571143655087483,-0.9406734817434713,0.01555857930710328,0.6191348372298764,0.9335294356041396,0.04215549229765311,0.6912098482337324,0.8712917607939743,0.0,0.0,0.0,0.0
0.027326506847769622,-0.011999425111477629,0.7520920939522827,-0.003937052650208586,-0.5549210043436473,-0.009919759146274408,0.8318345850787565,0.030660609011375246,0.48809014132262707,-1.0483850878579601,0.0014258354036506733,0.34890858883075143,-0.9463095360700956,0.018385232416627748,0.6144760752505344,0.9474451984500323,0.05024743569525996,0.702599099285172,0.8663861208488539,0.0,0.0,0.0,0.0
0.029338007253029076,-0.013699992591655167,0.7531263289851785,-0.003668402062852964,-0.5549694419286024,-0.010123805405176024,0.8318010398622251,0.035214350225228244,0.4966540289216452,-1.0552604146536149,0.001201640473817181,0.3419529803832742,-0.9533616200827717,0.021541227252886524,0.6099638149996054,0.9607238566604598,0.05847281178938242,0.713038374206602,0.8613344568110797,0.0,0.0,0.0,0.0
0.0309412374982401,-0.015330599916423488,0.754130852082714,-0.003422235613942676,-0.5550131674757249,-0.010307201346382765,0.8317706618006977,0.03956296838871318,0.5030692712726191,-1.0590497091867364,0.0011105784674591145,0.335548539165781,-0.9609950295535922,0.024806511389349504,0.6053747360084833,0.9735674676791684,0.06662450995657539,0.7224854851110227,0.8561723155683173,0.0,0.0,0.0,0.0
0.03219200880397105,-0.016869181526547938,0.7551030341974005,-0.003199017233691486,-0.5550488251190872,-0.010469954835588751,0.8317457232041534,0.043642094918569636,0.5076971083781227,-1.0603794146845695,0.0010724956427553584,0.3292425825059702,-0.9687614830555491,0.028035372741263435,0.6005803345461849,0.9861358485094542,0.07450508321390262,0.7310007190626258,0.8509027145130524,0.0,0.0,0.0,0.0
0.03315363269526097,-0.018300540945273835,0.7560416028390624,-0.002998068469035591,-0.5550767340081855,-0.010613716021701185,0.831726024590112,0.047411704185718696,0.5109151169188976,-1.0598548326639632,0.0010127814171465113,0.3227587586826078,-0.9764305020435214,0.031131842905333888,0.5955246647643097,0.9985544994451067,0.08195583989392104,0.7386910871569414,0.8455252459584628,0.0,0.0,0.0,0.0
0.03388777523932084,-0.01961580118185368,0.7569450902040908,-0.0028181362399073563,-0.5550985640420941,-0.01074074378289083,0.8317104536613261,0.05085222198663465,0.5130744318229961,-1.0580197727730818,0.000869100256834609,0.3159344475323711,-0.9838963647790416,0.03403424972962192,0.5902075249722999,1.0109158127376987,0.08886664339388911,0.7456741280856949,0.8400514148394629,0.0,0.0,0.0,0.0
0.03444936827952037,-0.020811028868861575,0.7578109016523978,-0.0026577637825219583,-0.5551162780895865,-0.010853229702000691,0.8316976983836596,0.05395882665128155,0.5144781481881958,-1.0553389019266497,0.0005945229446567942,0.3086784369729304,-0.991122714834794,0.03670641600582118,0.5846756913480701,1.023275009071013,0.09517301356363303,0.7520554573165835,0.8345138444111149,0.0,0.0,0.0,0.0
0.03488429906538071,-0.02188534932028485,0.758634185436527,-0.002515614494320751,-0.5551314114702922,-0.010952896175080912,0.8316867329398101,0.0567351236425397,0.515373637575803,-1.0521989974058215,0.0001569174241171958,0.3009590741294989,-0.9981005319033636,0.03912885427490739,0.5790212105458057,1.0356376387318256,0.10084542847026584,0.7579118344582203,0.8289754145141781,0.0,0.0,0.0,0.0
0.0352286794661878,-0.02283893542988458,0.7594059343731634,-0.0023908683835117965,-0.5551444806349258,-0.011040678984966803,0.8316772166991844,0.05918706938613647,0.515951959782737,-1.0489223702938941,-0.00046443364674230564,0.2928351421244586,-1.0048016072778247,0.041284336813263094,0.5733862728865758,1.0479308855485474,0.10587688744485746,0.7632741264336708,0.8235457232083013,0.0,0.0,0.0,0.0
0.03550854429492284,-0.02367122947092459,0.7601101032379716,-0.0022837539701134842,-0.5551544263453865,-0.011116447188325282,0.8316698695869882,0.061318039505727756,0.516348011635666,-1.0457843731195455,-0.0012840500262884336,0.284538588448788,-1.0111145193820477,0.04312868718494922,0.5679745434775291,1.0599446647791673,0.11027286921136376,0.7681060392803315,0.8184091058273094,0.0,0.0,0.0,0.0
0.03573902958370757,-0.02437986786304979,0.7607200709919131,-0.002196272971228353,-0.5551582658130284,-0.011178744945255328,0.8316667072487365,0.06312609150642225,0.5166358936084937,-1.043024593239499,-0.002316596832855387,0.2766024801746787,-1.016759692331487,0.04453492276313623,0.5630749811392964,1.0712213000987816,0.1140477449590844,0.7722786737650424,0.8138633294838906,0.0,0.0,0.0,0.0
0.035922828734282944,-0.024961002850674475,0.7611960631875105,-0.002133010227148614,-0.5551515066289934,-0.011224644660003865,0.8316707655720418,0.06460494602436308,0.5168178980364136,-1.040839800221853,-0.0035825645427303627,0.2699818109641366,-1.0212007516306627,0.04520479877560844,0.5591210218776326,1.080866873715051,0.11723133977926888,0.7755515242619906,0.8103542692772718,0.0,0.0,0.0,0.0
0.03604980425390437,-0.025411747261824782,0.7614883552245111,-0.0021012030901514838,-0.5551305593163299,-0.011250273253133972,0.8316844824874648,0.06575051109323903,0.5168182530100934,-1.0393483094749763,-0.0051083921047856955,0.2660177321909435,-1.0236030086253973,0.04458387422172502,0.5568362010803777,1.0872629345436693,0.11988243506056044,0.7775961755614245,0.8084546299729073,0.0,0.0,0.0,0.0
0.036103680763233774,-0.025733968272942106,0.7615578106455763,-0.0021065670732075244,-0.5551003541853214,-0.011254960200270014,0.831704565954394,0.06657362638610956,0.5165214517439249,-1.0385167272387268,-0.006911716870540835,0.2659525662901159,-1.0229556167974234,0.041960020781227216,0.5574835115203527,1.0878019368023606,0.12206503960333662,0.7781478213900188,0.8086529335646591,0.0,0.0,0.0,0.0
0.03607223832748976,-0.025931916883902964,0.7614045562521469,-0.0021487517704412234,-0.5550616740241148,-0.011238386170166578,0.8317304969590008,0.06708311129507764,0.5158557834413355,-1.0382295637551018,-0.008968945350751836,0.2697673206378853,-1.0192291823807378,0.03736503364031367,0.561030409299544,1.0824518141449189,0.12380018834353908,0.7771767030628977,0.8109717800312213,0.0,0.0,0.0,0.0
0.035949016107846114,-0.026012984656567137,0.7610691364817536,-0.002221338245937683,-0.5550104659472245,-0.011200568996791392,0.8317649882025511,0.06728780074277911,0.5148017286873378,-1.038299651408766,-0.011210440617969785,0.2761999552732056,-1.013412055273959,0.03156149713034229,0.5661632187812924,1.073756735194902,0.12506903024865243,0.7748996264032629,0.8149499713696564,0.0,0.0,0.0,0.0
0.03572354826194279,-0.025990481410956806,0.7606049459524848,-0.00231675563437422,-0.5549500905605247,-0.011144448778998135,0.831805765122849,0.06721408980006918,0.5133101745347601,-1.0383989492335806,-0.013559968761446035,0.2839006205303847,-1.0063306471024545,0.025143235989911188,0.5721229145026862,1.063283271873751,0.125867576836199,0.7716166889385965,0.8200110231519069,0.0,0.0,0.0,0.0
0.03537402105771654,-0.02587996227456102,0.7600575209168162,-0.002430288237856116,-0.5548842067786575,-0.01107207978531931,0.8318503590285506,0.06689405403182189,0.5112606749314923,-1.038123814011558,-0.01595540716049854,0.2919099577807106,-0.9985099951248124,0.0184429773478343,0.5784510606243274,1.0518852764277073,0.12622881719920095,0.7675546840417099,0.8256836060608704,0.0,0.0,0.0,0.0
0.03486789752752788,-0.025697350638923717,0.759460787249994,-0.0025596497476783543,-0.5548147130416253,-0.010984577127119354,0.8318974825367885,0.06636125309033716,0.5084674870545667,-1.037028591076882,-0.01834757648693805,0.2996957331843559,-0.9902223495929505,0.01161997121065714,0.5848399526330301,1.03999049155306,0.1262073643649628,0.7628390160784796,0.8316339818625942,0.0,0.0,0.0,0.0
0.03416481793685591,-0.025459259340245927,0.7588392396064615,-0.002703931657191674,-0.5547414880390803,-0.010882600341455403,0.8319471973698741,0.06565206378810812,0.5046951554929896,-1.0346382085181434,-0.020694464542420285,0.3070327897355209,-0.9815855883362575,0.004746828248603635,0.591068944913851,1.0277909460974377,0.12587263683112737,0.7575136243057401,0.8376369780292017,0.0,0.0,0.0,0.0
0.033219965122560945,-0.025184269530769583,0.7582112850944394,-0.002862816847240902,-0.5546628172943726,-0.0107667865477305,0.8320006248183976,0.06480928777457286,0.49967392726816967,-1.0304520675047764,-0.022960606474967976,0.3138751472996459,-0.9726548748061469,-0.0021405042501106792,0.5969756885684789,1.0153594989119974,0.12531105735434545,0.7515722466296774,0.8435377376245977,0.0,0.0,0.0,0.0
0.03198832638053238,-0.024894032948581796,0.7575919695617268,-0.00303614840049541,-0.554576040176136,-0.010638033915052319,0.8320595109124522,0.06388526831488604,0.4931187183408037,-1.0239552347418373,-0.025123583532264692,0.3202743762663684,-0.9634901566597123,-0.00902449677565572,0.6024402757912365,1.0027213785795936,0.12463066097410623,0.7449892880085263,0.8492210382940103,0.0,0.0,0.0,0.0
0.03043119767373127,-0.024613257927691284,0.7569944708261053,-0.0032238075983214297,-0.5544782819168382,-0.010497558554833461,0.8321257376211291,0.06294205740909643,0.484760492938297,-1.0146545723749185,-0.027185393234047017,0.3263529964038768,-0.9542011375542473,-0.01591143453374654,0.6073799867921869,0.9899065350811348,0.1239622529150591,0.7377492543988584,0.8545919971869215,0.0,0.0,0.0,0.0
0.02852664395164526,-0.02436760903770308,0.7564300270334774,-0.0034259342065406278,-0.5543672937457609,-0.010346557113460787,0.8322007662551817,0.06204595171187535,0.4744018458434687,-1.00216102348628,-0.029183875318046167,0.33232581790276755,-0.9449779028004056,-0.022862478457732358,0.6117641490179122,0.9770056965578277,0.12345280275603959,0.7298769163201971,0.859569623044906,0.0,0.0,0.0,0.0
0.026285873300823395,-0.02417844827403026,0.7559055495494831,-0.0036437580937184236,-0.5542424257666688,-0.010185097577314003,0.832284999441041,0.06125336835648507,0.46201204344252916,-0.98634824467766,-0.03119625104377869,0.3385574937380169,-0.9361181038648773,-0.030072144622105883,0.6156694206918165,0.9642527270598732,0.1232501056848535,0.7214686631251725,0.8641006967908994,0.0,0.0,0.0,0.0
0.023777586616252976,-0.02405351790864094,0.7554165705968928,-0.0038817835231859995,-0.5541052232684425,-0.010009436592619044,0.8323774050768118,0.060585375109560934,0.44788079404514614,-0.9676359631021225,-0.033323217030617545,0.3456339109742283,-0.9280658066317079,-0.0380518181868607,0.6194106735549691,0.9521533248615325,0.12348569505201083,0.7127157038864258,0.8682203920249585,0.0,0.0,0.0,0.0
0.021161053565685158,-0.0239731787263497,0.7549284227312815,-0.004152613586369446,-0.5539509216299451,-0.009806008613919065,0.8324812156564257,0.05998913074900292,0.4328510105096988,-0.9475092137129125,-0.03565159452282884,0.3543442218368701,-0.9214441522033855,-0.04803519859957221,0.6237879371138142,0.9416207875904213,0.12426737660868446,0.7038588693202914,0.87221777482824,0.0,0.0,0.0,0.0
0.018860059119651884,-0.02381154108077181,0.7543798696625973,-0.0044861477011789875,-0.5536964115184462,-0.009546494209628713,0.8326518016546318,0.059164257291835956,0.41960803058751456,-0.930965891583289,-0.038662135072048215,0.36529308339803057,-0.9168837662016,-0.06293301429893275,0.6305699495636556,0.9338569585472327,0.1252949828147696,0.6954348714591622,0.8762293611671551,0.0,0.0,0.0,0.0
0.01707078583945932,-0.023618476840886554,0.7539043772044058,-0.004877799671579949,-0.5534187353098894,-0.009228123017932988,0.8328377706516031,0.05822093206761637,0.4093592424493422,-0.9190513374060029,-0.04181425052442722,0.37872382814808436,-0.9170073048017062,-0.08427280671026657,0.6392434581746869,0.9305942311769702,0.1270157951602186,0.688846389575533,0.8793641442187571,0.0,0.0,0.0,0.0
0.016069264147093577,-0.023448077029085287,0.7536688672598034,-0.00524498097022624,-0.5531811249400601,-0.008895361374123653,0.8329970022339189,0.05732308420949353,0.4037822204711093,-0.9133175549846022,-0.0439257708522319,0.39344551397990146,-0.92561084902031,-0.10910270897228244,0.6472760646337392,0.9330439689597313,0.12918857459399022,0.6856235027179858,0.8804013138561896,0.0,0.0,0.0,0.0
0.01603342177680379,-0.023374836583813934,0.7536435046661932,-0.005331366719023972,-0.5531901588835765,-0.0089015052965849,0.8329903888081336,0.05723532804351892,0.40366417098013324,-0.9132831119492351,-0.0439511376785948,0.39346409480250766,-0.9256171001885646,-0.10909996124876813,0.6473022689961557,0.9330540113886258,0.12918927931777152,0.685547369321577,0.8803477155652184,0.0,0.0,0.0,0.0
0.01603342177680379,-0.023374836583813934,0.7536435046661932,-0.005331366719023972,-0.5531901588835765,-0.0089015052965849,0.8329903888081336,0.05723532804351892,0.40366417098013324,-0.9132831119492351,-0.0439511376785948,0.39346409480250766,-0.9256171001885646,-0.10909996124876813,0.6473022689961557,0.9330540113886258,0.12918927931777152,0.685547369321577,0.8803477155652184,0.0,0.0,0.0,0.0
0.01617297941621165,-0.023394828951347767,0.7535219221715111,-0.005498122087828036,-0.5531503039302526,-0.008770944403763435,0.8330171561556476,0.05715360194022266,0.40438431464922187,-0.915476927497455,-0.04409409250125317,0.39421753369940205,-0.9270761220149437,-0.10739114276793779,0.6464186928531466,0.9340382441855952,0.13108815354068068,0.6855405521240175,0.8817200414567561,0.0,0.0,0.0,0.0
0.01674793909520736,-0.0233874974047231,0.7534001249933109,-0.005593141345661975,-0.553171886262864,-0.008696276908577038,0.8330029746562745,0.05709761049682017,0.40768453755312895,-0.921322319614682,-0.04429467071492114,0.3973866027910043,-0.932249112499859,-0.10694753129784616,0.6469153768997438,0.9355666632758952,0.1324327903208873,0.6865299584806706,0.883317477008456,0.0,0.0,0.0,0.0
0.01786335561347714,-0.023279407969401825,0.7533018195578308,-0.005624737698590322,-0.553279787364963,-0.008674534207588113,0.8329313247053954,0.05689475685550568,0.41429460267761953,-0.9318080406432807,-0.04474531857501626,0.4033809300100196,-0.9414984509950627,-0.10824287920988265,0.6492351429824021,0.9377402408640854,0.13293719774988125,0.6889993771626414,0.8847459923137796,0.0,0.0,0.0,0.0
0.019596834376782914,-0.022973691349073577,0.7533491226272485,-0.0055922458722610716,-0.5535434403300887,-0.008718574906112365,0.8327558903455683,0.056329429288953146,0.4248318254739097,-0.9470995340491872,-0.045657538830647375,0.4124169765465593,-0.9542805858184786,-0.11210014928899736,0.6544926651201144,0.9398460214342028,0.1320087479218391,0.6940098281118356,0.8845790729954547,0.0,0.0,0.0,0.0
0.022129753208102808,-0.022349903443176326,0.7542154762453503,-0.005499889793056548,-0.5543376841383418,-0.008915107198834815,0.8322259332777592,0.05524674778134955,0.4407640964579526,-0.9649341054777449,-0.04709590542635945,0.42548558889945287,-0.9677136343249572,-0.1203016908254244,0.6680675158026983,0.9367013093267559,0.12870473350963882,0.706677030456504,0.8763328190327594,0.0,0.0,0.0,0.0
0.024232959944850186,-0.022161938361533247,0.7549068559229618,-0.00629920966092313,-0.5540877584142531,-0.008166963557441337,0.8323943636518495,0.05068620958437636,0.41600281800691874,-0.9395527979232554,-0.048954122552190324,0.4374551619397166,-0.9824509317669768,-0.11377833959707413,0.6739806151285548,0.9297597008612563,0.09794596592219293,0.6848953533852362,0.8941978048586224,0.0,0.0,0.0,0.0
0.026533480494973824,-0.021984182629116385,0.7557719724065142,-0.006928453750114973,-0.5539972992344127,-0.007637072973579331,0.8324546018168231,0.04360239043349345,0.3965437524714468,-0.9292504426108253,-0.05043368727419064,0.4504553995371961,-0.9978156909626655,-0.10952949149913946,0.6823736382991018,0.9216256561212143,0.07067260035148018,0.6675443007084279,0.908035579834143,0.0,0.0,0.0,0.0
0.02879836604041226,-0.021799988172915757,0.7566556719552205,-0.00734468020058,-0.5540683694857693,-0.007347172588927344,0.8324063410757278,0.03674564636740041,0.3822334361284424,-0.9284672192827383,-0.05153197195183181,0.4630314495576075,-1.0122375595027533,-0.1080243233413765,0.6920212919711175,0.9137607894088206,0.05037407701182146,0.6550704108513701,0.9205640297468785,0.0,0.0,0.0,0.0
0.030847845668694307,-0.021619578700406546,0.7574930553540338,-0.007637611491918039,-0.5542084811664095,-0.007177524442949816,0.8323119063408806,0.030867450187909436,0.371455205737117,-0.9328035119011643,-0.05240927818255031,0.47426677322579675,-1.0247135748646787,-0.10784856559236218,0.7015449963910073,0.906389535168082,0.03503309371325433,0.6457926271577134,0.9326109225588486,0.0,0.0,0.0,0.0
0.03258823989749686,-0.02145828991567125,0.7582780765454895,-0.007873069400152904,-0.5543651173807145,-0.00705114084697202,0.8322064724708906,0.025870117356588538,0.36290710092378836,-0.9397346746521967,-0.05313876529236641,0.48376566197067866,-1.0347423324134406,-0.10796531749279613,0.7102729000235886,0.8993526255416711,0.022519463846879265,0.6382400992864745,0.9443797338305028,0.0,0.0,0.0,0.0
0.0339903770348858,-0.021331036663294764,0.7590232711895295,-0.008083748258776703,-0.5545149215387529,-0.006934998515305828,0.832105618657002,0.02142130624032417,0.3556150069336677,-0.9478746293989664,-0.05372616068105827,0.49147110202643274,-1.0422463418508705,-0.10781886693621821,0.7179892125691293,0.8924415408761093,0.01148375042936225,0.631426191595204,0.9559126306886926,0.0,0.0,0.0,0.0
0.03506712870041856,-0.021250322673691622,0.7597412540550693,-0.008281500225332703,-0.5546502200382187,-0.0068207369398184,0.8320144396061712,0.01722046955394406,0.34888874246777396,-0.9564843620102539,-0.05414936343043917,0.4975216822695659,-1.0474311844347863,-0.10718037066774647,0.7247121546786793,0.8855088689223547,0.0012044315687071393,0.6247689711502342,0.9672262115525437,0.0,0.0,0.0,0.0
0.03585507741931836,-0.02122565865487532,0.7604392008650598,-0.008468050808487225,-0.5547709077825871,-0.006710567376020638,0.8319329902576776,0.01307921766014508,0.34227180630384346,-0.965181833660975,-0.05438239851300878,0.5021523607980339,-1.0506541897428592,-0.10600455497975242,0.7305613137445577,0.8784842924088703,-0.008677314181981336,0.6179601314222574,0.9783455336594884,0.0,0.0,0.0,0.0
0.036400697128553816,-0.02126400354551403,0.7611186436441078,-0.008642627147365594,-0.5548784544010534,-0.006607598315797907,0.8318602920454773,0.008911239553099684,0.3354737694861906,-0.973778840217841,-0.054408672133781324,0.5056295562094258,-1.052329940894077,-0.10430637345249234,0.7356722599841856,0.8713535384188664,-0.018323805668852847,0.6108570853434301,0.9893044816581684,0.0,0.0,0.0,0.0
0.03675179123495553,-0.02136952463580707,0.7617772664443214,-0.008802301541453181,-0.5549771082235065,-0.006517198195209772,0.8317935170239859,0.00470384958037003,0.32833004003257615,-0.9821923688514849,-0.05421628159790749,0.5082103398482128,-1.0528600430483777,-0.10216054950220914,0.740185712365239,0.8641508970954848,-0.0278275485401307,0.6034228307018883,1.000135676523272,0.0,0.0,0.0,0.0
0.036951495831751585,-0.02154554612043891,0.7624096624002753,-0.008945283261589266,-0.5550699398515426,-0.006442363511886892,0.8317306293103287,0.00047885024009695475,0.3207461558315,-0.9903914809749825,-0.05379999835789555,0.5101214479263293,-1.0526080395741708,-0.09962390019819595,0.7442054123256528,0.856935934497713,-0.03723193761809456,0.5956834577253383,1.0108572290634399,0.0,0.0,0.0,0.0
0.0370354991000754,-0.021795998966145824,0.7630073612579982,-0.00907020307985246,-0.5551590958952621,-0.0063851450947805125,0.8316702108305696,-0.0037278188167693483,0.3126911500112366,-0.998356879647585,-0.053154137063103984,0.5115493984696537,-1.0518892233859587,-0.09673422879683066,0.7477923454351362,0.849794498245025,-0.046557699487794514,0.5877149845045073,1.0214539218569243,0.0,0.0,0.0,0.0
0.0370306224459083,-0.022127215573195146,0.7635573300126716,-0.009175711494641792,-0.5552452406159185,-0.006347073251694716,0.8316118347841591,-0.00787653729005105,0.3042274586317061,-1.0060351043349076,-0.05226713336901812,0.5126367617421089,-1.050977090893914,-0.0935011767149652,0.7509502637779831,0.842850534473636,-0.05580036950945112,0.5796434153392416,1.03184558541636,0.0,0.0,0.0,0.0
0.03695386794887652,-0.022549506309926703,0.764039142624428,-0.009260014411160854,-0.5553269052249197,-0.006329303859702878,0.8315565046219467,-0.011925429509238448,0.2955886007147278,-1.013276432287732,-0.05111763721969867,0.5134787836782557,-1.0501150363597436,-0.08989934619159365,0.7536047321688157,0.8362920052187104,-0.0649050294648381,0.5716564476728607,1.0418290228325677,0.0,0.0,0.0,0.0
0.03681112209528083,-0.023077768637746316,0.7644213266150145,-0.009320217129877472,-0.5554003218176405,-0.0063327356131171585,0.8315067723940482,-0.015826205824048218,0.28729664929061227,-1.0197576602997176,-0.049673249812351924,0.5141148104866771,-1.0495204772445532,-0.08587059292273863,0.7555783405422392,0.8304104240432403,-0.07370741346769956,0.5640344512527078,1.0509737865535012,0.0,0.0,0.0,0.0
0.03659547973304533,-0.023730005370319003,0.7646586806780036,-0.009350847517159368,-0.5554612682878698,-0.006359289856982782,0.8314655137257689,-0.019517673639130935,0.2802724694630631,-1.0249121061338717,-0.047892214129657815,0.5145123887560852,-1.0493662269752564,-0.08135498379872373,0.756580009033757,0.8256433557015094,-0.08183955039433981,0.5572263139238546,1.058446382468168,0.0,0.0,0.0,0.0
0.03628685968888601,-0.024523331099618247,0.7646957231596506,-0.009342236398323931,-0.5555095979177768,-0.0064139449545130445,0.8314329020134025,-0.022923964083582785,0.27580027771782134,-1.027917050475694,-0.04572932000754129,0.514555555722054,-1.049730955772588,-0.07634491760502825,0.7562438385166698,0.8225638325870963,-0.08863844576084812,0.5520139754533694,1.0627389959401978,0.0,0.0,0.0,0.0
0.03585809429115002,-0.025470212054228242,0.7644884101360853,-0.009282603473126153,-0.555556049826165,-0.00650347827409296,0.8314018363851783,-0.02596574981354505,0.2750762867234122,-1.0278380116244927,-0.04314515967717713,0.514080994040326,-1.0505281695383135,-0.07089180385504079,0.7542901708366566,0.8216623176328479,-0.0932625661781891,0.5497480340865631,1.061405408169143,0.0,0.0,0.0,0.0
0.03528261295981078,-0.026588655443971092,0.7640334792871073,-0.009169948323637859,-0.5556011216016183,-0.006628312360028869,0.8313719812442704,-0.02859650856984367,0.27806388900655565,-1.024624424890388,-0.04009028130076625,0.5129720854204627,-1.0516038969253116,-0.06488850676025391,0.7506384781851639,0.822902985801059,-0.09562597864040706,0.5504357800167291,1.054485731604207,0.0,0.0,0.0,0.0
0.034535892882031745,-0.027902484426457857,0.7633684641730989,-0.009012729617851899,-0.5556337820997872,-0.0067818915059482295,0.8313506341141043,-0.03081855990473808,0.2835056590117789,-1.0191401374387612,-0.03650627095970843,0.5111676668727044,-1.0527536666700266,-0.05807265620969427,0.7454145813146066,0.8257090649661117,-0.0964160930143713,0.552729064485521,1.0444757754166067,0.0,0.0,0.0,0.0
0.03358799804135122,-0.029429913159896286,0.7625429697691316,-0.0088188288136071,-0.5556515035197902,-0.006957783797059924,0.8313394157257228,-0.032652543133421405,0.29005906668716097,-1.0121486184163362,-0.03234794526736755,0.5085675961488612,-1.0536213882804817,-0.05024776086642796,0.7388406190652995,0.8293958215713171,-0.09617157712238972,0.5558226759501378,1.0328998072220394,0.0,0.0,0.0,0.0
0.03239758531163041,-0.031184401282253457,0.7615974051404497,-0.008593575747446559,-0.5556543736076682,-0.007150829945872493,0.8313382182828044,-0.03411669378942647,0.2967456334226283,-1.0041588488675441,-0.02758276209824747,0.5049899700732364,-1.0537498339250788,-0.04129673618721446,0.7310774280394606,0.8334005668828733,-0.09516268203119507,0.5592293237476778,1.0205824180630072,0.0,0.0,0.0,0.0
0.030913809397318935,-0.03317515364153829,0.7605596563688447,-0.00834176156436404,-0.5556414562446917,-0.0073547347450872635,0.8313476378706509,-0.035224653312791614,0.3029898539163293,-0.9954520145640596,-0.022195419637845503,0.5001806103072886,-1.0526167187139785,-0.031154778351739305,0.7221945283828206,0.8373042575724804,-0.09347851120447381,0.5626261089651019,1.007925196813623,0.0,0.0,0.0,0.0
0.02908101993182257,-0.035404596745654986,0.7594479188425339,-0.008068725593718564,-0.55561075645026,-0.007561961071005384,0.8313689913202342,-0.03599080246075558,0.30851596568960815,-0.9861685621045935,-0.01619519991377972,0.4938323088566659,-1.0496470897124857,-0.01982412916807913,0.712202787939328,0.8408016063709768,-0.09113700748456627,0.5657841628192378,0.9950860482945093,0.0,0.0,0.0,0.0
0.026844170571673497,-0.0378642353425727,0.7582749104557858,-0.0077816360661000375,-0.5555596458483413,-0.007763257909726127,0.8314040280583367,-0.03644099148929341,0.3132277569008572,-0.9763968752743534,-0.009627817472589178,0.4856050298055485,-1.0442174918727727,-0.007391105793911539,0.7010960633655758,0.8436632624422506,-0.08815307026650611,0.5685351298862951,0.982085812183274,0.0,0.0,0.0,0.0
0.024155638631304724,-0.04052982395979385,0.7570517329684355,-0.007489813309433803,-0.5554863850499652,-0.007948527621359976,0.8314539070985019,-0.03662352517446758,0.31713174907502245,-0.966240102645467,-0.0025862094157605778,0.47515144318072094,-1.0356677445258322,0.005947271985418775,0.6888966031505497,0.8457133642782448,-0.08458713204200803,0.5707538545925362,0.9688702967622335,0.0,0.0,0.0,0.0
0.020984854736989498,-0.043357537812571637,0.7557907575024604,-0.007204916809667235,-0.5553911724522006,-0.008107624396945007,0.8315184911729707,-0.03662416472953632,0.3203121917529121,-0.9558530496522213,0.004781967089376528,0.4621595473773181,-1.0233468007950208,0.019876062807637984,0.6756926900271085,0.8468209056253055,-0.08058050024679116,0.572353329351963,0.9553516377399237,0.0,0.0,0.0,0.0
0.017333023792086684,-0.04628249964073341,0.7545063264881827,-0.006940350941532274,-0.5552768919465694,-0.008231846068628717,0.8315958402428842,-0.03658400138601291,0.3229603201946446,-0.945448244235349,0.012275716557167516,0.4464273029949694,-1.006724824497919,0.03397544281911195,0.6616664191188194,0.8469184804395818,-0.07639832191376313,0.5733037672986568,0.9414491088395756,0.0,0.0,0.0,0.0
0.013255780707499899,-0.04922078527784953,0.7532094717675155,-0.006708927457753377,-0.5551494500494198,-0.008316748390480229,0.8316819765381493,-0.03671342598595806,0.32545253965422444,-0.9352758727124908,0.019655579637007606,0.4279879952179278,-0.9856233042068102,0.047750722536464535,0.6470932690568656,0.846091874016928,-0.07249602397489387,0.5737009959700098,0.9271453073995827,0.0,0.0,0.0,0.0
0.00889599971186629,-0.05207494037396175,0.7518845188826746,-0.006520377013109144,-0.5550114408236305,-0.008355820334047045,0.8317751892819536,-0.037314053039656035,0.32842599148862256,-0.9256191661870062,0.02664990454257547,0.4073070368863776,-0.960664887107155,0.06073179367658852,0.6322052156749167,0.8448472985948807,-0.06954830909561875,0.5739133979746974,0.9125851034949468,0.0,0.0,0.0,0.0
0.004617372842806293,-0.054810836951402236,0.750446891288281,-0.006363504337442723,-0.5547752068072412,-0.008386072732642582,0.8319336809557917,-0.03874983491056545,0.33225215254300344,-0.9161137621171143,0.03325568334105919,0.3862574410737799,-0.9355800476031615,0.07260641149080439,0.6170989762281495,0.8442152820238213,-0.06856722622741092,0.5751323263411834,0.8976213842969606,0.0,0.0,0.0,0.0
0.0008011458966710834,-0.05725253817471808,0.7489710622955024,-0.006225007919583053,-0.5544867502211356,-0.00841571274627689,0.8321267144399207,-0.040917411883887124,0.33731968146148317,-0.9074787021071968,0.039079578517768665,0.3668365061886737,-0.9130185518175841,0.08262166781735568,0.6028526217123563,0.844697734917483,-0.07118517339519966,0.5772604012197522,0.8823943891876609,0.0,0.0,0.0,0.0
-0.0022347418531077578,-0.05914368490452345,0.7476028288831312,-0.006084478290454026,-0.554198790088915,-0.008477304756058224,0.8323189385638107,-0.04367000515011531,0.3430386831757085,-0.9008362791160476,0.04360367014664161,0.350760399369207,-0.8949563838979061,0.08964620355774497,0.5906843187327164,0.8466456352358908,-0.07902244469548124,0.5797490736214003,0.8666178646133018,0.0,0.0,0.0,0.0
-0.004053465038417303,-0.060228092861545325,0.7465897530671002,-0.005933670368291084,-0.5539686573857553,-0.008577075496662267,0.8324721929086332,-0.04599265374978096,0.3474653686261793,-0.897322748363756,0.0462693024537527,0.3406613463766368,-0.8844239995233857,0.0928369436407597,0.5824863125754689,0.8496026247527061,-0.09034720098953182,0.582468602698473,0.8509819592953711,0.0,0.0,0.0,0.0
-0.004084802163465347,-0.06037294036323629,0.7465075954429125,-0.005820056355019555,-0.553987889533931,-0.008549320121950778,0.8324604821366705,-0.04598796244724361,0.3474783062025137,-0.8973429600417292,0.046429598014117356,0.34046231716716796,-0.8843630832925394,0.09286926739045354,0.5823864870413747,0.8495119522088866,-0.0903680697270994,0.5825087762756249,0.8509935800370406,0.0,0.0,0.0,0.0
-0.004084802163465347,-0.06037294036323629,0.7465075954429125,-0.005820056355019555,-0.553987889533931,-0.008549320121950778,0.8324604821366705,-0.04598796244724361,0.3474783062025137,-0.8973429600417292,0.046429598014117356,0.34046231716716796,-0.8843630832925394,0.09286926739045354,0.5823864870413747,0.8495119522088866,-0.0903680697270994,0.5825087762756249,0.8509935800370406,0.0,0.0,0.0,0.0
-0.004084802163465347,-0.06037294036323629,0.7465075954429125,-0.005820056355019555,-0.553987889533931,-0.008549320121950778,0.8324604821366705,-0.04598796244724361,0.3474783062025137,-0.8973429600417292,0.046429598014117356,0.34046231716716796,-0.8843630832925394,0.09286926739045354,0.5823864870413747,0.8495119522088866,-0.0903680697270994,0.5825087762756249,0.8509935800370406,0.0,0.0,0.0,0.0
-0.0032160718925972366,-0.0607217540868571,0.7464265122237096,-0.005811321121670107,-0.5542667166796921,-0.008400976725374135,0.8322764317929436,-0.0456110420670058,0.35190029040546816,-0.9035151960465313,0.0469236031553286,0.34604010489293624,-0.8923299489117931,0.0953943184061989,0.5839663044335935,0.8503035540389822,-0.08883539847783245,0.5839398793042022,0.8552230414441986,0.0,0.0,0.0,0.0
-0.0015628335317566752,-0.06129788785766796,0.7462795286339088,-0.005783467501218516,-0.5545289295938581,-0.008333748883701886,0.8321026176960962,-0.044624335824402554,0.3606947407280956,-0.9169099687686154,0.04821031099827245,0.35675866755732083,-0.9092795005204709,0.09893914671285349,0.5866934575323053,0.8517410747510273,-0.08697530595574318,0.5860524158274919,0.8615646770191867,0.0,0.0,0.0,0.0
0.0008263023843232391,-0.06219843378927755,0.7461202651284633,-0.0057140265724422105,-0.5548013784446104,-0.008355521279051283,0.8319212496627579,-0.042767004195055476,0.37327683801045664,-0.9360830934354947,0.05053065132389302,0.37225977750333145,-0.934264542567914,0.10385099491270385,0.5910421270633565,0.852730998071746,-0.08441925779971304,0.5891467143502943,0.8697468633685038,0.0,0.0,0.0,0.0
0.003953922756936308,-0.06364418680598873,0.7462551044051864,-0.0055520526616789564,-0.5551839062101963,-0.008524974435364383,0.8316653953407622,-0.03935679529021736,0.38935488857061284,-0.9584949541931664,0.05453024602944299,0.3928331786166528,-0.9661355729211379,0.11079495649412566,0.599429666160619,0.8493537377183263,-0.08054215166320132,0.5951145346841389,0.8775684720216702,0.0,0.0,0.0,0.0
0.008057040339075117,-0.06618676656650412,0.7479792466338558,-0.00515510250197811,-0.5561646918500966,-0.009112827710057957,0.8310061472868946,-0.032418118963668446,0.4103641083458079,-0.977870738974538,0.062057402666381586,0.4214016845953359,-1.0025154102330727,0.1209754196634448,0.6220785286788243,0.82754156338308,-0.07457265371362592,0.6122547579210682,0.8751264274386087,0.0,0.0,0.0,0.0
0.011408754946730205,-0.06852438975895755,0.7493164221065987,-0.005059350243156921,-0.5557313275385856,-0.008976713831619852,0.8312980892412202,-0.027403470461699744,0.4271638733371917,-1.0000174892646674,0.056452098850172154,0.39485140297140536,-0.9669363297595158,0.1039618617675396,0.612661839303642,0.8579243302976122,-0.06329145448662404,0.6252898579253323,0.8713802521036895,0.0,0.0,0.0,0.0
0.015011117749666621,-0.07098122933736402,0.7506407204225852,-0.004945140443534281,-0.5554256891906791,-0.008968010082582512,0.8315031113400668,-0.021744722074703626,0.4448083078836385,-1.0224401669030823,0.05139392096471371,0.3749291311974068,-0.9498654722273703,0.08970065308766584,0.606800735594433,0.8822285111862604,-0.051774828011816376,0.6389579233846433,0.8681761612982741,0.0,0.0,0.0,0.0
0.018484846821899718,-0.0735176246737122,0.7519770849778801,-0.004741644347675416,-0.5553189940891169,-0.00909284850915553,0.831574200969896,-0.015533670906940748,0.4611949071739307,-1.0412771909636283,0.04747514256480987,0.3609385641259766,-0.9448755034956671,0.08180791047104574,0.6022228103458204,0.9021443276950207,-0.04049439816504788,0.6528056151752262,0.8649840718780429,0.0,0.0,0.0,0.0
0.021626566724709334,-0.07606630034905575,0.7533134506370912,-0.0044809054299013535,-0.5553173818518624,-0.00928141978247534,0.8315746401535719,-0.009083003793281126,0.4754332829280387,-1.0558666951618152,0.04467296429394774,0.35078905866516447,-0.9463957271977993,0.0787608615629826,0.5980771860302118,0.9191564909240173,-0.02923811157643901,0.6663335948255629,0.861439725778097,0.0,0.0,0.0,0.0
0.024341319429926823,-0.0785781257840737,0.75462359448027,-0.004197946017251645,-0.5553575728067655,-0.009490407863527747,0.8315469173378002,-0.0026114992003578507,0.48717954261813046,-1.0662961459592295,0.04276277999252623,0.34295650136011124,-0.9513023615100229,0.07850927966946547,0.5940983810213127,0.9342991184119963,-0.01789188560367639,0.6791200185636278,0.8575811080089065,0.0,0.0,0.0,0.0
0.026609676762984702,-0.08101273402157466,0.7558886538110046,-0.003916070335684321,-0.5554061736221051,-0.009696400751596846,0.8315134553980725,0.0037175695431008694,0.49645969572851345,-1.0730034333150344,0.04143930644625265,0.3363747367325893,-0.9578734371018413,0.07960739547219142,0.5901457991079038,0.9482624507564352,-0.006506349562495677,0.6909319147857518,0.8535066714637081,0.0,0.0,0.0,0.0
0.02845889795591353,-0.08333785236410242,0.7570999642092389,-0.0036479900950625887,-0.5554485214621422,-0.00988900728233081,0.8314841187351424,0.009785299196791199,0.5035185988682951,-1.0765795648333165,0.04041456787391933,0.3303272489707534,-0.9651637408150601,0.08121673502027346,0.586104326426145,0.961507115753304,0.004760928327887071,0.7017024430152031,0.8492708398812209,0.0,0.0,0.0,0.0
0.029941040623227607,-0.08553022113501495,0.7582556919179012,-0.003399682452818893,-0.5554800896743839,-0.01006490109016088,0.8314619714097594,0.015511361949001972,0.5087051220059802,-1.0776556922760276,0.039463470143491886,0.3243565872456938,-0.9726602036076215,0.0828915782941105,0.5818851485786651,0.9743439931512984,0.015721213176018257,0.711474398643808,0.8448872421344465,0.0,0.0,0.0,0.0
0.03111773000668399,-0.08757558295222168,0.7593570993886131,-0.0031733805219598893,-0.5555011335030178,-0.01022407279625515,0.8314468646091475,0.02084848711538415,0.5123944781904648,-1.0768367031046475,0.03843160084165241,0.3181845950714751,-0.9800939331109377,0.08440340931304921,0.5774376951901208,0.9869841607531621,0.02620698051098258,0.720347585554441,0.8403554859127087,0.0,0.0,0.0,0.0
0.03205047366300564,-0.08946743929193168,0.760405994248803,-0.0029693219050513763,-0.5555137448637134,-0.01036785220885972,0.8314374119772892,0.02577573982694133,0.5149417042018246,-1.074664982479028,0.03722430923597337,0.31164765698459107,-0.9873364699439516,0.08563766427675007,0.5727552707010297,0.9995673424187117,0.03609515028867267,0.7284404082812247,0.8356822020667006,0.0,0.0,0.0,0.0
0.03279516765727685,-0.09120502350942075,0.7614030220452933,-0.002786765229202173,-0.5555203581221805,-0.010497869243044088,0.8314319938471922,0.030290785356136996,0.5166577635789233,-1.0716062448555954,0.03579006911472749,0.3046543518188782,-0.9943384226781291,0.08654097544991378,0.567876743986996,1.0121744628255354,0.04531005575280912,0.7358638587312787,0.830894735012922,0.0,0.0,0.0,0.0
0.03339947188555869,-0.09279096032812466,0.7623461017258562,-0.0026246472312021034,-0.5555228983644734,-0.010615509631021557,0.8314293304754892,0.03440211304426053,0.517800311704708,-1.0680519519854386,0.034104738701821784,0.2971742760359171,-1.0010839445128759,0.08709267294891516,0.5628892079518599,1.0248251326138773,0.05381501279543712,0.742702076770264,0.8260530758118823,0.0,0.0,0.0,0.0
0.03390183394518137,-0.0942290150599976,0.7632283713590557,-0.002482141179356433,-0.5555221538110479,-0.010721571309259352,0.8314289046629066,0.038122112882426465,0.51857198244237,-1.0643324805550816,0.03215859211903374,0.289269045691825,-1.007542228297175,0.08728149010055566,0.557934481489515,1.0374551919187283,0.06160029297283212,0.7489937569311703,0.8212673685232345,0.0,0.0,0.0,0.0
0.03433100619395121,-0.09552228808973375,0.764035324276556,-0.0023592674329322664,-0.5555172328879664,-0.010816004700242954,0.8314313272086884,0.04146188447325782,0.5191196128433633,-1.060733390747907,0.029945750723022177,0.2811744385316288,-1.0136024984801568,0.0870711040232949,0.5532216208576857,1.0498622675031553,0.06867307201968587,0.754710163565984,0.8167260353931305,0.0,0.0,0.0,0.0
0.03470507208919561,-0.0966723090751241,0.7647413903320067,-0.002257695192945397,-0.555505287663685,-0.010897635785882182,0.8314385243205781,0.04442872398111792,0.5195286308172522,-1.0575045043169866,0.027455296463825857,0.27342737752584484,-1.018988776957718,0.08633893295919962,0.5490523656804931,1.061599310313349,0.07505479097548208,0.7597298235087103,0.8127343979342296,0.0,0.0,0.0,0.0
0.03502969355566633,-0.09767963069301956,0.7653076103220642,-0.0021816296514897394,-0.5554820221203625,-0.010963974056771597,0.8314533990946331,0.047027645820520284,0.519810866476063,-1.0548497288895473,0.02466562943601241,0.26698585326433505,-1.0231709377451328,0.08478011106661502,0.5458818191222525,1.0717893332869244,0.08078910062269151,0.7638204612366599,0.8097483010905886,0.0,0.0,0.0,0.0
0.03529735117519614,-0.0985464432903642,0.7656852511234663,-0.002137955952152544,-0.5554441991897485,-0.011011617804142441,0.8314781506474725,0.049268151137865326,0.5198969771386792,-1.0528876161251863,0.021547790305071004,0.2631934766567458,-1.0253218893662202,0.08181617306620864,0.5444621683621623,1.0788382225197621,0.08595595335393233,0.766664252319941,0.8083498753814385,0.0,0.0,0.0,0.0
0.03549348218746705,-0.09927998052884172,0.7658366738305477,-0.0021320438786586785,-0.5553970762001076,-0.011040159637111524,0.8315092645379596,0.05117568122610252,0.5196743312386423,-1.0515777132177957,0.018087465719575795,0.2632962364201509,-1.0244364548954066,0.07670574591007093,0.5460784145090828,1.0801606321858,0.09064423925554924,0.7680088640670737,0.8090321298200431,0.0,0.0,0.0,0.0
0.035606601070010166,-0.09988802989680687,0.765762834057042,-0.002162990240610164,-0.5553410422237275,-0.011049295928887032,0.8315464877892029,0.052768694167855394,0.5190734694944303,-1.0508039435643908,0.014324801961299882,0.2672747089324661,-1.0204831131893373,0.06950922382025854,0.5506794829043831,1.0756944128555135,0.09489355580307754,0.7678309273868814,0.8118223924248863,0.0,0.0,0.0,0.0
0.03563016307829036,-0.1003800666304523,0.7655047541195988,-0.0022236980867671786,-0.555271144992061,-0.0110388608600674,0.8315931422618494,0.05406163807684308,0.518076659972726,-1.050382772952628,0.010355998837706422,0.2738643683050565,-1.0144422124834596,0.061064166995980905,0.5569016110702181,1.0679148428392946,0.09869714218363347,0.7663485705527772,0.8162640253907962,0.0,0.0,0.0,0.0
0.03555311685872703,-0.1007721262960909,0.7651171993679898,-0.002306027196198914,-0.5551900804976259,-0.011011526734031385,0.8316474030709142,0.05508815735530169,0.5166339470015311,-1.0499809395760795,0.006283400871445953,0.2817156609440421,-1.007132469414692,0.052018371961572524,0.5639437319032985,1.0583356035114182,0.10206485450980163,0.7638660473081661,0.8217796565997509,0.0,0.0,0.0,0.0
0.03535311971432436,-0.10108310942764274,0.7646475338855101,-0.0024048360159028685,-0.5551011366169194,-0.010969181860844607,0.8317070529577373,0.05588914039122694,0.5146226616125649,-1.0491839379229948,0.0021890844856943966,0.2898694646816344,-0.9990732709787983,0.04273167116861023,0.5713218194059048,1.0477788038504003,0.10504664763570787,0.7606168731774631,0.8278951607236329,0.0,0.0,0.0,0.0
0.03499735010055705,-0.10133240651919743,0.7641315628177267,-0.002517536990051789,-0.5550060000298738,-0.010912852742668658,0.8317709489897805,0.056507062370944994,0.5118549922049914,-1.0475346538798997,-0.0018649345263066692,0.29779283802951995,-0.9905326359148847,0.03337468869864586,0.5787153754601875,1.0366561504831484,0.10771421395274182,0.7567335933150863,0.8342740329700977,0.0,0.0,0.0,0.0
0.034445344996728605,-0.10153968433009475,0.7635955165302014,-0.002643071439752299,-0.5549044344202531,-0.010843083819401206,0.8318392334864887,0.05698568434464478,0.5080943275730673,-1.0445488362086799,-0.005830026224594196,0.3052591307572452,-0.9816241284086678,0.02402360326113292,0.5858984632691869,1.0251539082481869,0.11015047982302371,0.7522661560996291,0.8406886301182294,0.0,0.0,0.0,0.0
0.03365220301723329,-0.10172564892156592,0.7630592972528886,-0.0027811843251035113,-0.5547946808328509,-0.010760274019793247,0.831913062547009,0.05737211063334231,0.5030708818409144,-1.0397204501160389,-0.009669897005602612,0.3122199338668531,-0.9723968760761871,0.014712525716705577,0.5927068506606606,1.0133459126938973,0.11244813314714702,0.7472119775579434,0.8469813655526608,0.0,0.0,0.0,0.0
0.03257268139204189,-0.10191259068370634,0.7625391008278128,-0.002932073783655644,-0.5546740873793913,-0.010664880910288598,0.8319941827010187,0.05771828892853792,0.4965007252332022,-1.0325340784137407,-0.013368122512728887,0.3187225238801115,-0.9629013384758985,0.005450694792458357,0.5990195949464258,1.0012633875940566,0.11471057978003846,0.7415456710349015,0.8530332681854272,0.0,0.0,0.0,0.0
0.03116757540906959,-0.10212368951077644,0.7620487515206483,-0.003096346103286395,-0.5545397991837396,-0.01055742381210106,0.8320844696090163,0.05807933508319214,0.48811742438169853,-1.0225028661937805,-0.01694191694299024,0.324881246382429,-0.9532320247948829,-0.0037858877938091104,0.6047526392665501,0.9889469751913037,0.11704915487804611,0.7352472996847601,0.8587437147960759,0.0,0.0,0.0,0.0
0.029414104318258173,-0.10238004897581345,0.7615994207572955,-0.003275296557306103,-0.5543895031853189,-0.010438099242459704,0.8321854344282898,0.05850590436291208,0.4777283534047323,-1.0092538052371338,-0.02045636257398434,0.3308952585830987,-0.9435545547246725,-0.013089884599996476,0.6098738833375308,0.9765036328373049,0.11957246079256653,0.7283315699641167,0.8640224644368163,0.0,0.0,0.0,0.0
0.027322243316347736,-0.10269434664456259,0.7611970529844104,-0.003471770804728751,-0.5542222117264387,-0.010305590401866299,0.8322977121457219,0.0590275454355041,0.4653112215783504,-0.9926909715574975,-0.02402909022201474,0.3371000112284124,-0.9341265829526688,-0.022707107216353814,0.6144599079455912,0.9641910601049775,0.1223674557091797,0.7208791107738829,0.8688005289314842,0.0,0.0,0.0,0.0
0.024959013077147846,-0.10306015683497839,0.7608353746088656,-0.0036923289601895953,-0.5540385583843248,-0.010154209535232654,0.8324208878680204,0.059624296451989175,0.4511704979568222,-0.9732850572478234,-0.02781016987836421,0.3440292365396699,-0.9253252512735194,-0.03322822999040338,0.6188286814772636,0.9525506342434802,0.12548001134023412,0.7130621206064296,0.8730838557160986,0.0,0.0,0.0,0.0
0.022481483561699794,-0.10343649752165084,0.7604780082255725,-0.003952037131964074,-0.5538327093346348,-0.009967460199227507,0.8325589235668202,0.0601843764721662,0.4361744562363786,-0.9525951264098506,-0.031928975860361045,0.35238849326668586,-0.9176609669042018,-0.046004559488681734,0.6237883047337192,0.942555473711484,0.1289083021230538,0.7051105287070225,0.8771037442744722,0.0,0.0,0.0,0.0
0.020302976192517676,-0.10366873664819959,0.7600591571904728,-0.004284486278682397,-0.553514649033249,-0.009710770538849854,0.8327718039285846,0.0603276964968795,0.4229997091661172,-0.9356865189452822,-0.03685210795570253,0.36263544913668183,-0.9115641330337679,-0.06413437274310187,0.6311293786277973,0.9354641600798665,0.13223183273294645,0.6975157021522033,0.88092617277524,0.0,0.0,0.0,0.0
0.018604638467028742,-0.10377068430258211,0.7597077683210135,-0.004685543971727934,-0.5531563140902339,-0.009376148870441518,0.8330115399513711,0.060071663078633285,0.4128458253594573,-0.9236650414111466,-0.04190995763612645,0.3747911134491961,-0.9093369522780648,-0.08925133635963343,0.6402744051814251,0.9330843240846369,0.1357338162787176,0.691629213683066,0.8835715691285241,0.0,0.0,0.0,0.0
0.01763909530845816,-0.10375616375037362,0.7595709447336737,-0.005061396386329448,-0.5528241360326431,-0.009011761412213222,0.8332338477538173,0.05948590444395236,0.4073137301423038,-0.9180265879765377,-0.04557474667132408,0.38743986664832303,-0.9144278413178392,-0.11785340252675285,0.6484261981901907,0.9366702694703372,0.13888197270264055,0.6888219910239356,0.8838799735665053,0.0,0.0,0.0,0.0
0.017610539587378925,-0.10370222537297683,0.759550328644269,-0.005132819932248887,-0.5528274478976838,-0.009014679034031338,0.8332311819491576,0.059421419809925546,0.4072035563465403,-0.9179907529504385,-0.04560260478610018,0.3874580473986172,-0.9144326095314135,-0.11785192048226543,0.6484519359395498,0.936680734480884,0.13888790623558356,0.6887490577881367,0.8838271033446573,0.0,0.0,0.0,0.0
0.017610539587378925,-0.10370222537297683,0.759550328644269,-0.005132819932248887,-0.5528274478976838,-0.009014679034031338,0.8332311819491576,0.059421419809925546,0.4072035563465403,-0.9179907529504385,-0.04560260478610018,0.3874580473986172,-0.9144326095314135,-0.11785192048226543,0.6484519359395498,0.936680734480884,0.13888790623558356,0.6887490577881367,0.8838271033446573,0.0,0.0,0.0,0.0
0.017792016287365927,-0.10378579604821662,0.7594654069308964,-0.0053089032395088375,-0.5528429152366083,-0.008892139190620737,0.8332211330011358,0.059516065325990505,0.40802294709595477,-0.9198920127596376,-0.045564080106151233,0.3885905360631948,-0.9161316212666352,-0.11583112392757297,0.6480251123044695,0.9372836613439173,0.14128285447281236,0.6892066741205866,0.8851685567250106,0.0,0.0,0.0,0.0
0.018403550851911494,-0.10385631632395499,0.7593591040416672,-0.0054055018325488945,-0.5529034604088329,-0.008826346497813872,0.8331810365253022,0.05967219203977488,0.41134491358739617,-0.9254543663495745,-0.04555565138986438,0.3921584945187662,-0.9217647280495683,-0.11505247142747521,0.6488317309805788,0.9385369466513395,0.14318501106604092,0.6904978011281164,0.8869385460281018,0.0,0.0,0.0,0.0
0.0195480381719146,-0.10382755099138198,0.7592492404589571,-0.005436289507718766,-0.5530383209694286,-0.008812564894225168,0.8330914721659852,0.059686619470780945,0.4179081084796889,-0.9357016507104603,-0.04579913608615027,0.3985171647722794,-0.9315918963173649,-0.11604106591057278,0.6512860844758717,0.9406423060203466,0.14428066875940185,0.6930932319572718,0.888773497402373,0.0,0.0,0.0,0.0
0.021302028315314487,-0.10360504086345193,0.7592526304408578,-0.005403934340431518,-0.5533184148370277,-0.008861764975220216,0.8329051557154675,0.05934816450126524,0.42831559397515706,-0.9507977012340036,-0.04650062800177959,0.407865930935193,-0.9450505589050445,-0.1195894089916107,0.6564733023322266,0.9429284748690956,0.14402962886901718,0.6980353516253917,0.889318078614909,0.0,0.0,0.0,0.0
0.023843881524860742,-0.10307995431303553,0.760025329923555,-0.005316946287418844,-0.5541099574935642,-0.009057993569599318,0.8323772208807436,0.05852635235089825,0.443988737048551,-0.9685219990097769,-0.04769925995766605,0.4211672874061533,-0.9593242529201843,-0.1273957320479934,0.669643106778557,0.9403216583496867,0.14162448526126645,0.7103203455670781,0.8823036933887624,0.0,0.0,0.0,0.0
0.025951012635101117,-0.10298361549737793,0.7605984243441533,-0.006160333126690653,-0.5538836490680422,-0.008257819398771234,0.8325303369905599,0.054159299826699266,0.41849519384536815,-0.9421377889741321,-0.049415876543510824,0.4332911750792903,-0.9746143659300556,-0.11978200525795445,0.6748478363807897,0.9342707298999515,0.10827839640972041,0.6885778946984232,0.8988795539629993,0.0,0.0,0.0,0.0
0.028260517250148984,-0.10289399270149882,0.7613646664736422,-0.006821282027809917,-0.5538187490481855,-0.0076926960073268125,0.8325737719519747,0.04721053495307565,0.39858870656518175,-0.9312377834442633,-0.050734226024668025,0.4464769446824761,-0.9905378270343131,-0.11465629727580108,0.6826971691750693,0.9268717766487516,0.07915867835085315,0.6712214578026147,0.9119718170485768,0.0,0.0,0.0,0.0
0.030534948190430813,-0.10279079687307055,0.7621735711890957,-0.00725537036962237,-0.5539101008993731,-0.007382109559517902,0.832512140560663,0.04047340656636811,0.3839997192011278,-0.9301209455495549,-0.05166605212745828,0.45924238752971647,-1.0054870904729165,-0.11248740343341565,0.691962632309381,0.9195284589284282,0.05791292054979763,0.6587799407472212,0.9241697999285852,0.0,0.0,0.0,0.0
0.032592741902418246,-0.10268105375638825,0.7629566240247413,-0.007556447259464582,-0.5540661074926623,-0.007201864166102988,0.8324072211275425,0.03471476577290371,0.3730454838429499,-0.9342807827102793,-0.052385817865244495,0.47064912103447154,-1.0184183392527582,-0.1118160851694954,0.7012288156699713,0.9125102970903933,0.04217060398096431,0.6495703042984562,0.9361269489252219,0.0,0.0,0.0,0.0
0.03434041914736502,-0.10257968918619031,0.76370296514366,-0.007794522278239546,-0.5542346974721852,-0.007070248606836036,0.8322939127045247,0.02983809610353277,0.36438580658521713,-0.9411301620211182,-0.05297564679610453,0.48029798150260616,-1.0288282082254747,-0.11155140720753078,0.7097825939509768,0.9057052623319368,0.029542028411380435,0.6421065953924223,0.947937168377476,0.0,0.0,0.0,0.0
0.03574993408132113,-0.1025023236940498,0.7644211861142318,-0.008004118426178927,-0.554394033516454,-0.006952683567795471,0.8321867878552162,0.02550945225484901,0.35702989685404074,-0.9492455096559047,-0.053442333089244086,0.4881365342916258,-1.0366510850590946,-0.11111630692351145,0.7173872188297297,0.8989453782650094,0.018521226294526218,0.6353949881982008,0.9595804722979464,0.0,0.0,0.0,0.0
0.036834971689071246,-0.10246299251084758,0.7651207049767361,-0.008198938817283079,-0.5545366738449161,-0.006838697481892318,0.8320907925100713,0.021423454179763612,0.35027206485631857,-0.9578650295562806,-0.0537639865293113,0.4943095667290105,-1.0421096145770867,-0.1102511203247551,0.7240393046020708,0.8921090634081013,0.008314287076300598,0.6288481083548595,0.9710400655368834,0.0,0.0,0.0,0.0
0.037632612389895174,-0.10247268708844157,0.7658063800339557,-0.00838154724408731,-0.5546631868601878,-0.00672976144355751,0.8320055343078003,0.01738886373559249,0.3436469085292374,-0.9665928895601601,-0.053912327448452424,0.499056695750957,-1.045573818881462,-0.10889505834459938,0.7298470777358247,0.885144893544702,-0.0014748467005612042,0.6221555074600063,0.9823236255940917,0.0,0.0,0.0,0.0
0.03818929760841322,-0.10253985282350427,0.7664779683736112,-0.00855214770728392,-0.5547750251874771,-0.00662783164456376,0.8319300475674132,0.01331696480091946,0.3368542716356114,-0.9752322624350986,-0.05386904604314067,0.502646959561054,-1.0474679367754882,-0.10704189755036235,0.7349334682822908,0.8780495018489641,-0.011019940295760061,0.6151720567404391,0.9934564865720429,0.0,0.0,0.0,0.0
0.038552596192495125,-0.10266971109246084,0.7671318913759788,-0.008707974939809522,-0.5548770145038887,-0.006538317133123016,0.8318611184306943,0.009195390948205687,0.3297251432362895,-0.9836951346442935,-0.05361931897741761,0.5053379185284629,-1.0481978958525466,-0.10476133611279238,0.7394345939535267,0.8708666591276861,-0.020421393436973766,0.607860293760031,1.0044672792409168,0.0,0.0,0.0,0.0
0.038765148735660344,-0.10286642107010442,0.7677617553344446,-0.008847482581977543,-0.5549724303221651,-0.006464032545945042,0.8317965736389613,0.005046598746998044,0.32216036882667326,-0.9919473588511272,-0.05315590670506995,0.5073552765936822,-1.0481291434863718,-0.10210337787996303,0.7434486135102061,0.8636622323123857,-0.029723629658922487,0.6002454652361444,1.0153723601765379,0.0,0.0,0.0,0.0
0.038862069523752846,-0.10313438207740905,0.7683583736326646,-0.0089692314707535,-0.5550638194415285,-0.006407300609137836,0.8317347267805465,0.0009080581204035281,0.31412672329326624,-0.9999675107759329,-0.05247119540369391,0.5088832644263678,-1.047575816219938,-0.0991061307164684,0.7470340971491829,0.856527805551557,-0.03894987928299271,0.5924029399356611,1.0261553613255985,0.0,0.0,0.0,0.0
0.03886944129019569,-0.10348021461659093,0.768908179120566,-0.009072183941120386,-0.555151671264359,-0.006369257225707312,0.8316752671165112,-0.003180635373292778,0.30568246873746097,-1.0077001201773397,-0.05155336721329092,0.5100613126375618,-1.0468090068697313,-0.09577262101491948,0.75018918534983,0.8495896856994322,-0.04809358494027796,0.584456153463785,1.0367343316994995,0.0,0.0,0.0,0.0
0.03880352906750348,-0.10391408335498542,0.7693904590904733,-0.009154568776998788,-0.5552347277442098,-0.0063511586139643975,0.8316190556748808,-0.0071781787725183534,0.29705972224003035,-1.0149934880302909,-0.05038098253355376,0.5109804543855119,-1.0460661326625003,-0.09207880388085236,0.752837861871294,0.8430382994828827,-0.05710209317825219,0.5765892297787144,1.0469022604230065,0.0,0.0,0.0,0.0
0.03866945786883537,-0.10445040451386657,0.769773721016304,-0.009213461083787058,-0.5553096055776924,-0.0063541520398157966,0.8315683849448945,-0.011038480329883076,0.28878100491134395,-1.0215219139553093,-0.048922092227245195,0.5116750009300678,-1.0455555031187904,-0.08797105103496501,0.7548036367035118,0.8371660587914384,-0.0658170697632125,0.5690763976527627,1.0562211734832145,0.0,0.0,0.0,0.0
0.038459544333903195,-0.10510657585085584,0.7700130665787096,-0.009243561633411059,-0.5553722957899259,-0.006380147572919163,0.8315259847739601,-0.014704762496395851,0.2817684647799265,-1.0267151700407977,-0.047136153163501573,0.5121074233781246,-1.045439332155139,-0.0833912776542513,0.7557972768676253,0.832406864633764,-0.07388001265081416,0.5623564136221787,1.0638444206515445,0.0,0.0,0.0,0.0
0.0381530774183432,-0.10589914874433866,0.770053637398751,-0.009235485653711597,-0.5554226332522398,-0.006433992622635219,0.8314920372528048,-0.018106528761190482,0.27730883504517817,-1.0297463109636191,-0.04497933487137527,0.5121578901561042,-1.0457868074114791,-0.07833217959478507,0.7554565905768348,0.8293248752213859,-0.08064259337351055,0.5571983078588221,1.0682440781949223,0.0,0.0,0.0,0.0
0.03772268779573373,-0.10684024548046303,0.769852106638297,-0.009177807334332473,-0.5554708249432451,-0.006522145745236961,0.8314597958436009,-0.02116871089636669,0.2765998624938089,-1.0296775882262437,-0.04241364566358452,0.5116622186003584,-1.0465080798798365,-0.0728428840388683,0.7535052442374985,0.8283989719895137,-0.08527560364549404,0.5549423848947843,1.0669501567200663,0.0,0.0,0.0,0.0
0.03714237874419122,-0.107947489603386,0.7694055137922478,-0.009068502680501035,-0.5555172909467357,-0.0066450008816372405,0.8314289781344023,-0.023845347650878597,0.279605906032783,-1.0264589475214259,-0.039391030025807655,0.5105063784163913,-1.0474517328204547,-0.06681809025196385,0.7498647569544544,0.8295924172959132,-0.08769395442692493,0.5555966564225927,1.0600005186836698,0.0,0.0,0.0,0.0
0.03638893393265718,-0.10924422751363576,0.7687511999179881,-0.008915560650778198,-0.5555515370075517,-0.00679639409868651,0.8314065260352992,-0.02613574344742011,0.285070283807688,-1.0209586463481797,-0.0358542929583726,0.5086347379178809,-1.048420845131565,-0.06000266511425524,0.7446616332354988,0.8323401967863328,-0.08857576034021189,0.5578247009605355,1.0499112169343243,0.0,0.0,0.0,0.0
0.03543410388617063,-0.11074834615958974,0.767938542096426,-0.00872606452849207,-0.5555716347172666,-0.006970741618379119,0.8313936632286287,-0.02805559929699845,0.29165245591872035,-1.0139457581502187,-0.03175839716936914,0.5059547498104826,-1.0490710074000837,-0.052211374344607896,0.7381204366264278,0.8359710079067327,-0.0884529590268708,0.5608360036402646,1.0382245459092299,0.0,0.0,0.0,0.0
0.034238095767590064,-0.11247354122820513,0.7670079783499206,-0.008505398342617201,-0.5555770747233489,-0.0071623375707169324,0.8313906862368635,-0.029621151612710523,0.298372018871107,-1.0059333961779904,-0.027071961753553066,0.5022933963211226,-1.0489600178220126,-0.04331934697259673,0.7303986997635835,0.8399255686633703,-0.08758390383754419,0.5641538530507754,1.0257772098420956,0.0,0.0,0.0,0.0
0.03275158492009192,-0.11442936260395419,0.7659876550441779,-0.008257953040643626,-0.5555668646082705,-0.007365066203643322,0.831398232473903,-0.03084360090235842,0.30465615471372803,-0.9972065292733295,-0.021779090321056988,0.49740512180495433,-1.047578680120259,-0.03326086402839336,0.7215679787207253,0.8437868268814752,-0.08605503002623971,0.5674632437919035,1.0129781587711228,0.0,0.0,0.0,0.0
0.030920289127369754,-0.11661884894542772,0.7648962287096259,-0.007988507960022734,-0.5555390569806683,-0.007571758171891133,0.8314175896550353,-0.03173476011028253,0.31023384752774913,-0.9879093233988916,-0.01588724144156424,0.49099103110044356,-1.0443641206682142,-0.022037188259620054,0.7116430455426607,0.847248561429147,-0.0838845189921266,0.5705411239903908,0.9999897053750373,0.0,0.0,0.0,0.0
0.02869024070781545,-0.11903465563573486,0.763747140786147,-0.007703963304200293,-0.5554904803639701,-0.007772933395730628,0.8314508744843792,-0.0323176997647225,0.31501231109346084,-0.9781340997417832,-0.009439784093391346,0.4827193998819028,-1.0387058689429154,-0.009724590608868086,0.7006195305116044,0.8500734962223514,-0.08108339493228196,0.573223126316916,0.9868356468088515,0.0,0.0,0.0,0.0
0.026014630457575176,-0.12165407895412486,0.7625524705192173,-0.0074131047920330964,-0.555418897658546,-0.007958556790986915,0.8314995823059159,-0.03263500062051812,0.3190032967834068,-0.9679900422215769,-0.0025255203860263227,0.47225055536575605,-1.0299559079278209,0.003487702339567583,0.6885240269836592,0.852073963725068,-0.07771002832970363,0.575387771082369,0.9734646340366622,0.0,0.0,0.0,0.0
0.022863258103581124,-0.1244352492312715,0.761325965147697,-0.0071269761698225815,-0.555323852292873,-0.008118581392523054,0.8315640167307933,-0.03276343636858451,0.32229685130322583,-0.9576415696322251,0.004713428016489997,0.45927884791950174,-1.017473397616814,0.01729240723312478,0.6754514263842049,0.8531003560858559,-0.07390202725864789,0.5769509412780486,0.9597926430456432,0.0,0.0,0.0,0.0
0.01923704450186014,-0.12731556183716286,0.7600840743457019,-0.006858339759556794,-0.5552075699632771,-0.008244492074939169,0.8316426791487084,-0.03283189842311795,0.32509092092055586,-0.9473157554462851,0.012082811196626813,0.44360632443395887,-1.000733287401475,0.03127569024185651,0.6615956157238824,0.8530559935988097,-0.06991672203230345,0.5778834932514433,0.9457456950036232,0.0,0.0,0.0,0.0
0.015190500148649005,-0.13021364473870303,0.7588413222422541,-0.00661953406922554,-0.5550755919646243,-0.008332092493688546,0.8317318349134564,-0.03303712455392997,0.32777065364156016,-0.9372818946398218,0.01935083459862214,0.42526784888651314,-0.9795517315081679,0.04494746158998182,0.6472545423401909,0.8519785572043284,-0.06618943067616359,0.578278105926507,0.9313203201277532,0.0,0.0,0.0,0.0
0.010864533317977739,-0.13303540062448552,0.7575880963000273,-0.006420800750955175,-0.5549294950876803,-0.008373810962465934,0.8318304563367547,-0.03367140776469083,0.330984065459453,-0.9278472095352333,0.026252754263971504,0.4047318506198885,-0.9545391470426859,0.05785419474964706,0.6326976057255149,0.8502848383593443,-0.06332982980729723,0.5784982682247897,0.916687730505295,0.0,0.0,0.0,0.0
0.006595998095255141,-0.13574222416223405,0.7562526650201548,-0.006252409558709491,-0.5546944176063131,-0.008411019582538507,0.8319881400601126,-0.03518482264418046,0.33514028136699225,-0.9186887594895259,0.032784422765071985,0.38372022794127597,-0.9290776213951887,0.069635542515075,0.6180928419587027,0.8488948959282061,-0.06230233975952069,0.5796895704401269,0.9017381599934421,0.0,0.0,0.0,0.0
0.0027928384474933754,-0.13817176031374118,0.7549059626378638,-0.006101822843173163,-0.5544082528333895,-0.008449779344256687,0.8321795828889653,-0.037390048631936956,0.34068720527209995,-0.9105074899698795,0.03857984399496778,0.3644083945065272,-0.9061545649093129,0.0796101657104039,0.6045538233887824,0.8482652488614586,-0.06453660552371678,0.5818328710211714,0.8867374977870088,0.0,0.0,0.0,0.0
-0.00022630784178039477,-0.14007052604759745,0.7536920764979357,-0.005949544264105913,-0.5541264774776503,-0.008525731620385148,0.8323675641095091,-0.04015248403154219,0.3471448221300016,-0.9045387873270379,0.04313564010472611,0.3485256676830616,-0.887769193400277,0.0866352843423877,0.5933139757063105,0.8487528165829396,-0.07156851215543227,0.5843538338713894,0.8715488316790321,0.0,0.0,0.0,0.0
-0.0020243983138554878,-0.1411775873560759,0.7528277160221125,-0.005790882303127123,-0.5539033037303213,-0.008643743474505649,0.832515994739761,-0.04248253083375798,0.3526378477902388,-0.9021480037188369,0.04588281981210215,0.3386846687767507,-0.8770554162895606,0.08985813907900345,0.586071570409618,0.8502182345966203,-0.08185717183642459,0.5870148587959187,0.8569408048478804,0.0,0.0,0.0,0.0
-0.002056448236735248,-0.1413227667020056,0.7527468806918881,-0.005677067625981156,-0.5539216708660674,-0.008616238369141316,0.8325048431597742,-0.0424770366894176,0.3526506519048744,-0.9021689310027925,0.04604269651886804,0.33848449059505964,-0.8769943275666696,0.08988974136312841,0.5859739981363492,0.8501277451567247,-0.08187745913857898,0.5870553139000996,0.856952831117606,0.0,0.0,0.0,0.0
-0.002056448236735248,-0.1413227667020056,0.7527468806918881,-0.005677067625981156,-0.5539216708660674,-0.008616238369141316,0.8325048431597742,-0.0424770366894176,0.3526506519048744,-0.9021689310027925,0.04604269651886804,0.33848449059505964,-0.8769943275666696,0.08988974136312841,0.5859739981363492,0.8501277451567247,-0.08187745913857898,0.5870553139000996,0.856952831117606,0.0,0.0,0.0,0.0
-0.002056448236735248,-0.1413227667020056,0.7527468806918881,-0.005677067625981156,-0.5539216708660674,-0.008616238369141316,0.8325048431597742,-0.0424770366894176,0.3526506519048744,-0.9021689310027925,0.04604269651886804,0.33848449059505964,-0.8769943275666696,0.08988974136312841,0.5859739981363492,0.8501277451567247,-0.08187745913857898,0.5870553139000996,0.856952831117606,0.0,0.0,0.0,0.0
-0.0011986250403516656,-0.14164077398823818,0.752675039916863,-0.0056796821518034024,-0.5542004574676441,-0.008460183260421661,0.8323208632808073,-0.04217584124401442,0.357039031100611,-0.9082742766537406,0.0464502406159808,0.34397729887111766,-0.8847505631096808,0.09235219888459471,0.5875617816808901,0.8509120584510877,-0.08031806333299747,0.5886501934184807,0.860865901854102,0.0,0.0,0.0,0.0
0.00043197873913237224,-0.1421742960489911,0.7525286914325358,-0.005659637041669809,-0.554464901844401,-0.008388169392445558,0.8321455880706685,-0.041281603953552105,0.36571435147464576,-0.9214677507903165,0.04762261909697761,0.3545507942386023,-0.9014188737071167,0.09574280291584872,0.590244108412904,0.8524585939567463,-0.0784815142553301,0.5909010354233358,0.8668690794773187,0.0,0.0,0.0,0.0
0.002788503970044226,-0.14302054329658662,0.7523658458611102,-0.005595537215146074,-0.5547400852584827,-0.008407700204343005,0.831962402003816,-0.03953499195328159,0.37811485540581424,-0.94033845803517,0.04979895417225872,0.3698628381378615,-0.9260697364091955,0.10041424586729289,0.5945172401578239,0.8536310180673877,-0.0759880389895714,0.5941330286994154,0.8746472643155407,0.0,0.0,0.0,0.0
0.005873993814566318,-0.14439775545819333,0.7524889513958782,-0.005436030797975381,-0.5551235858729762,-0.008578707448446821,0.8317058733441803,-0.03626047198143485,0.39395849422917234,-0.962391417544518,0.05361800899964039,0.3901936137495477,-0.9575699479484299,0.10701014532298268,0.6027671142669048,0.8505657182312502,-0.07222475986887414,0.6002053690904969,0.8820237205824781,0.0,0.0,0.0,0.0
0.009922570195241655,-0.14684594252623515,0.7541651722190663,-0.005031782277197167,-0.5560997270158234,-0.00918096973812594,0.831049628226082,-0.029503294774983663,0.4146489534007879,-0.9814200938659527,0.060909529310048,0.4183730472305815,-0.9935521179439607,0.11659678629557854,0.6250381103545278,0.8295510181072373,-0.06653534433493719,0.6172179872497311,0.8792938630940351,0.0,0.0,0.0,0.0
0.013259224313940027,-0.14909285517606574,0.7554822041506326,-0.004945913677540446,-0.5556633194036319,-0.00904990866764449,0.8313434383937477,-0.024669488761255735,0.4314097894073337,-1.0035915033443705,0.055384081334682186,0.39309368706838926,-0.9602542539905704,0.09983785492290953,0.6155417396436071,0.8597974223785433,-0.05543968101760887,0.6303095874369327,0.8751349469035687,0.0,0.0,0.0,0.0
0.016791174642277463,-0.15146604552961315,0.7567975313310088,-0.0048341606072549335,-0.5553684777233004,-0.009044189439037504,0.831541152006272,-0.019179873186424657,0.44869338742434256,-1.0254046614539287,0.050419442421566145,0.373886219682362,-0.9445488214507458,0.08580759236509176,0.6094684830458696,0.883967836468326,-0.044082308147165954,0.644020571170037,0.8714368834086258,0.0,0.0,0.0,0.0
0.020191316501212864,-0.153920347778303,0.7581200336353402,-0.004631744647958554,-0.5552650870967087,-0.00917468749009584,0.8316099176311328,-0.013136470645653143,0.46472359133030317,-1.043705497605245,0.04648494713391526,0.36025506247623323,-0.9403025895295344,0.07795827302310213,0.6047179789744433,0.9037997449980587,-0.032985309615550774,0.6578406544536278,0.8678024895507105,0.0,0.0,0.0,0.0
0.023263048144027878,-0.1563913628731796,0.7594385928983767,-0.004372741965477136,-0.555263026771483,-0.00936828674077538,0.8316105371096602,-0.006850597331936099,0.4786356881214491,-1.0578554496330688,0.04360694088778841,0.3502738047596514,-0.9421981492036423,0.07482370214710646,0.6004583174811255,0.9207779425311592,-0.021909390468658023,0.6712918306935659,0.8639018586601248,0.0,0.0,0.0,0.0
0.025914418346091497,-0.15883157699225864,0.7607296134982869,-0.004092497174748785,-0.5553004464126378,-0.009581150218331943,0.8315845520698985,-0.0005365598661425924,0.49009601701869926,-1.0679378635370915,0.0415956701951985,0.3425070580464264,-0.9472688466519715,0.07441374617875395,0.5964092257441933,0.9359242947003824,-0.010730198742216989,0.6839757667160835,0.8597597647485395,0.0,0.0,0.0,0.0
0.028127072198538012,-0.16120164327986278,0.7619763650301562,-0.0038139994660511232,-0.5553450865183225,-0.00978994304591933,0.8315536334495733,0.005646395656487225,0.49913217357644646,-1.0743745805349072,0.04016670342550846,0.3359371027586796,-0.9538856131417736,0.07532795428687238,0.59241259876972,0.9499156165407575,0.000505991883548277,0.6956783526405321,0.855455913712366,0.0,0.0,0.0,0.0
0.02992834933597013,-0.16346979452421148,0.7631714352442077,-0.0035495532671186063,-0.5553830988814599,-0.009984529740877024,0.8315271031748058,0.011582232975060027,0.5059864609712436,-1.0777394653475592,0.03904292931884387,0.32987474383073057,-0.9611581601376443,0.07675364063916038,0.5883413751387383,0.9632018804789092,0.011643258404820537,0.7063449738137434,0.8510295418756392,0.0,0.0,0.0,0.0
0.031369885028137846,-0.16561281761210536,0.7643134938870938,-0.0033048055850285587,-0.5554104580816066,-0.010161858262158437,0.8315076896519268,0.017192143302735545,0.5110034175744597,-1.0786492591144479,0.03800382219200331,0.3238783819076326,-0.9686055769493422,0.0782568866920513,0.5841004754879183,0.9760867364172023,0.022493086548780017,0.7160249676874881,0.8464838635401725,0.0,0.0,0.0,0.0
0.03251264320271495,-0.1676161417619032,0.7654038062221489,-0.0030817681778148947,-0.5554276762374527,-0.010322149945471691,0.8314950705776101,0.022429175445975225,0.5145534089817493,-1.0776978704173152,0.03689607106616944,0.31767916599238094,-0.9759774669139176,0.07961332833333194,0.5796367936060384,0.9887768215636179,0.03288734955424863,0.7248206760570414,0.8418119197971657,0.0,0.0,0.0,0.0
0.0334173793902148,-0.16947271220519985,0.7664439137684216,-0.0028805437782040678,-0.5554369324712494,-0.010466916292381825,0.8314877991755495,0.02727183170940692,0.5169867935273924,-1.0754197040054958,0.03562452911978091,0.3111187675395155,-0.9831557166027595,0.08070892101337969,0.5749430083874076,1.001409309189593,0.042701719245469866,0.7328505684680671,0.8370162451036993,0.0,0.0,0.0,0.0
0.03413923552894562,-0.17118108230769175,0.7674340897442017,-0.0027003228034035557,-0.5554406522721396,-0.010597916190857065,0.8314842597624257,0.03171666623138243,0.5186103526693855,-1.072274772710455,0.03413662339397021,0.3041084416961783,-0.9900965348865326,0.08148933460679275,0.570058066793887,1.014063698554877,0.051858948509071634,0.7402244331100759,0.8321215638960542,0.0,0.0,0.0,0.0
0.034725166645476285,-0.17274317333623046,0.7683718723914496,-0.0025400212224394596,-0.5554407081011298,-0.0107166149289824,0.8314832062289467,0.03577080658011687,0.5196781722698302,-1.068650452696087,0.03240714366081876,0.29661864527999976,-0.9967870348541225,0.0819324185130236,0.5650691391426397,1.0267587099675612,0.060320740304380435,0.7470247334287111,0.8271861159884002,0.0,0.0,0.0,0.0
0.035212988291209085,-0.17416209786708495,0.7692500607193192,-0.0023988249583457,-0.5554378235868466,-0.010823843305265996,0.8314841635196843,0.039445255663779405,0.5203899115614689,-1.064874122915626,0.030425541149808884,0.2887104971130079,-1.0031980269605445,0.08202539019811808,0.5601176733133242,1.039429324085532,0.06807601192160204,0.7532884858144006,0.82231885744798,0.0,0.0,0.0,0.0
0.03563089269820764,-0.17544039786022878,0.7700538714432528,-0.0022767845958343554,-0.5554310353593702,-0.010919547062268975,0.8314877898703487,0.04274985198168135,0.5208899296548668,-1.0612290598013372,0.028185552194835258,0.28061813171832833,-1.0092197492521984,0.08173077625443807,0.5554114862562698,1.051871783423154,0.0751309653528281,0.7589854527541856,0.8177074079293933,0.0,0.0,0.0,0.0
0.03599645842345856,-0.17657915832394944,0.7707575149246195,-0.0021756090761438974,-0.5554174108060851,-0.011002503429956166,0.8314960681908761,0.045690807969738574,0.5212615232300504,-1.0579632928445444,0.025676444314117912,0.27287577938423085,-1.0145769352402616,0.08092611208377382,0.5512496851159463,1.06363642155826,0.08150663389518563,0.7639928402812023,0.8136567110332151,0.0,0.0,0.0,0.0
0.03631488044982869,-0.17757859236685827,0.7713218469948727,-0.002099539016458284,-0.555392515446944,-0.011070142413433029,0.8315119949034895,0.04827224429253032,0.5215146430730776,-1.0552795245752604,0.022877413626287146,0.2664375862183293,-1.0187397068157844,0.07930934796206583,0.5480827532437242,1.0738415169823357,0.08724674680406447,0.7680769920975866,0.8106226895900712,0.0,0.0,0.0,0.0
0.03657823084360728,-0.1784406334769074,0.771697948652062,-0.0020554551415793254,-0.5553528692002736,-0.011118999348943042,0.831537932765946,0.05050298014247036,0.5215784092441823,-1.053296097954547,0.01976066400969582,0.2626419301487588,-1.020880072927016,0.07630878466798699,0.5466563079298172,1.0808854223901563,0.09243140128409301,0.7709183048977316,0.8091880010407988,0.0,0.0,0.0,0.0
0.036771718841222024,-0.17917235790812405,0.7718479900217667,-0.002048620123349854,-0.5553034439517844,-0.011148722135914814,0.8315705588136305,0.0524081567641179,0.5213393928634963,-1.0519734014560045,0.01631283190562928,0.2627284397105169,-1.019989683903661,0.07119129343316324,0.5482495327000059,1.0821737768845257,0.09714891460688135,0.7722624968203167,0.8098464294243052,0.0,0.0,0.0,0.0
0.03688405329663253,-0.1797817426071742,0.7717729899849314,-0.0020780885427744483,-0.5552446190287689,-0.011159078117130187,0.8316096257037802,0.05400682667948884,0.5207287870210241,-1.0511958832663788,0.012574199331344314,0.26667796471727945,-1.0160378802159058,0.06401722753808035,0.5528117044455426,1.0776457110773505,0.10143978940954866,0.7720868038895017,0.8126252307183375,0.0,0.0,0.0,0.0
0.03690928315902774,-0.18027880368824553,0.7715142738023054,-0.0021367825349741503,-0.5551716942222199,-0.011149967332513732,0.8316582845876737,0.05531488805507719,0.5197307671441961,-1.050780067227318,0.008640291497283474,0.27323264597915753,-1.010009537156794,0.05561552823382929,0.5589856981818033,1.069787411959178,0.10529998478926872,0.7706125187666647,0.8170667901610662,0.0,0.0,0.0,0.0
0.03683707547228925,-0.18068022192597774,0.7711268844151975,-0.0022165077201241716,-0.5550875284910621,-0.01112421092531172,0.8317145993299024,0.05636777775313285,0.5182976570039256,-1.050393619159078,0.004612649688501841,0.2810482192740925,-1.0027251973087266,0.046626990533844274,0.5659775103087742,1.0601211823677723,0.1087420712425195,0.7681468240351716,0.8225928689458827,0.0,0.0,0.0,0.0
0.036645781855812395,-0.1810056207599876,0.770658448960247,-0.002312041332464048,-0.5549954367423912,-0.01108383329909264,0.8317763330964626,0.05720831409353075,0.5163089353125629,-1.0496235003277163,0.0005730264163476676,0.2891693504906024,-0.994704468513951,0.03740872403253591,0.5733079463865194,1.0494744321084983,0.11181911318046302,0.7649255742006429,0.8287288143345447,0.0,0.0,0.0,0.0
0.03630319382299611,-0.18127519745043433,0.7701450473252118,-0.00242071234309002,-0.5548970453082261,-0.011029948477680532,0.8318423826041398,0.05788098125345551,0.5135785493247158,-1.048013975509182,-0.003416180984169207,0.2970656205842668,-0.9862145335164059,0.02813140145331052,0.5806593326968426,1.0382618210894023,0.11460636409880093,0.7610831525111769,0.8351379905787794,0.0,0.0,0.0,0.0
0.03576934922154976,-0.18150949495533458,0.7696131897445404,-0.002541390334300105,-0.5547919933229227,-0.010963130178829874,0.8319129733671838,0.05843155554336082,0.5098711163010462,-1.045081843087855,-0.00730536316753017,0.30451170608726164,-0.9773670313439089,0.0188722404373211,0.5878074016837498,1.026671313881949,0.11719064150345623,0.756670745773206,0.8415931114475803,0.0,0.0,0.0,0.0
0.034999691334593235,-0.18173011138989523,0.7690830252718912,-0.0026737657901440316,-0.5546783200025824,-0.010883752563358329,0.8319893967027174,0.05890901344877681,0.5049173961311538,-1.0403218240306502,-0.01105693654884251,0.31145921095735024,-0.9682075115487313,0.009666083336268267,0.5945892044200493,1.0147780303244125,0.11966841885067706,0.7516859939876909,0.8479375638173555,0.0,0.0,0.0,0.0
0.033949087315445846,-0.18196015153600004,0.7685708919950476,-0.0028180049521502053,-0.5545530572287563,-0.010792197598672656,0.8320736109487674,0.05936678384143706,0.4984330477168008,-1.033219076950664,-0.014653337570983747,0.317953722304465,-0.958780169451628,0.0005215094584777088,0.6008852648174307,1.0026146296465581,0.12214612449846221,0.7461020059195814,0.8540542014514841,0.0,0.0,0.0,0.0
0.032578077474563504,-0.1822233995632611,0.7680905460831523,-0.002974708662268958,-0.5544128585170277,-0.010688862166793323,0.8321678206016693,0.059860744230128486,0.49014977609688876,-1.0232871556928642,-0.018111521004273153,0.32410520050788577,-0.9491690522255409,-0.008589024545225865,0.606613478147848,0.9902236339770675,0.12473648012647101,0.7398945990329995,0.8598453753397717,0.0,0.0,0.0,0.0
0.03086305734570159,-0.18254118397100694,0.7676527534969171,-0.003145191583150975,-0.5542546513422684,-0.010573782363236018,0.832274044027507,0.06044121644738607,0.47987081001896875,-1.0101529425656515,-0.0214983093805156,0.3301035086038417,-0.939522992307092,-0.01776720549926978,0.6117439357500851,0.9777142309191045,0.12754680275647481,0.7330702688554476,0.8652250821266058,0.0,0.0,0.0,0.0
0.028812297684538777,-0.18292581933133184,0.7672626262061032,-0.0033323259396287786,-0.5540762852097192,-0.010445463026567027,0.832393691755404,0.06113593173390771,0.46756608967899516,-0.9937186417935702,-0.024936601847887784,0.3362655347068514,-0.9300733997227721,-0.027277739093154552,0.6163541511828714,0.965346006050982,0.13065894356785293,0.7256963846125,0.8701289771931134,0.0,0.0,0.0,0.0
0.026489775307195956,-0.1833696542587452,0.7669127596533414,-0.003542633328216601,-0.5538767286923394,-0.010298077101958044,0.832527458268,0.0619212223817991,0.45352667448929274,-0.9744476553462141,-0.028586807464740047,0.3430901221134655,-0.9211570814486015,-0.037746722524361245,0.6207576316566357,0.9536613642329069,0.13410839245978082,0.717927179406496,0.8745642823042689,0.0,0.0,0.0,0.0
0.02404772304119974,-0.18382929641940188,0.7665662029340665,-0.0037908862914565545,-0.5536500414810444,-0.010115144065296726,0.8326793768370281,0.06267920636550557,0.438598619282285,-0.9538674024649092,-0.032592173210419254,0.351231086405312,-0.9132260020139837,-0.050584113334274025,0.6257469019915186,0.9436477111100046,0.1378780261916653,0.7099807427556761,0.8787539554406378,0.0,0.0,0.0,0.0
0.02189645560687924,-0.18414086223062753,0.7661509625760209,-0.004112023889326783,-0.553298277834346,-0.009859942968007265,0.8329146946294969,0.06300725551263021,0.4254595416077725,-0.9371122291701166,-0.03745244720186075,0.3610475104128744,-0.9065776743849017,-0.069074101209475,0.6331581372758979,0.9365531963148805,0.14150718261691916,0.7022980441671924,0.882768854255561,0.0,0.0,0.0,0.0
0.02021030944491368,-0.18430857376855928,0.7657937860424711,-0.004500365182372492,-0.5528893744948569,-0.009524727515134652,0.8331880735162221,0.06289969607725779,0.4152878808114949,-0.9252844307268013,-0.042529536930878485,0.372413383086173,-0.9033176217255301,-0.09499412969959192,0.6423903106884942,0.9341904275029145,0.14521682685487342,0.6961973798579414,0.8855973848447549,0.0,0.0,0.0,0.0
0.019234724322747792,-0.18433122945350966,0.7656436022062242,-0.0048561451883055206,-0.5524909938941246,-0.009160976607644988,0.833454375492376,0.06239211804118331,0.4096673558034554,-0.9198327748062962,-0.04633130756972801,0.38376425129925057,-0.9066464851104179,-0.12480587880850101,0.6505537355628038,0.9378264367589009,0.14833482552856167,0.6930418954672488,0.8860001482067775,0.0,0.0,0.0,0.0
0.019208234518031567,-0.18428301054386992,0.7656240836854308,-0.004922456681196771,-0.5524926546023112,-0.009162805399180166,0.8334528655106596,0.06233402347152245,0.4095600347290525,-0.91979801937087,-0.04635898381552749,0.3837823334593853,-0.906650272841335,-0.12480492201797147,0.6505792607086611,0.9378369135546325,0.14834198047862732,0.6929698628240953,0.8859479666869365,0.0,0.0,0.0,0.0
0.019208234518031567,-0.18428301054386992,0.7656240836854308,-0.004922456681196771,-0.5524926546023112,-0.009162805399180166,0.8334528655106596,0.06233402347152245,0.4095600347290525,-0.91979801937087,-0.04635898381552749,0.3837823334593853,-0.906650272841335,-0.12480492201797147,0.6505792607086611,0.9378369135546325,0.14834198047862732,0.6929698628240953,0.8859479666869365,0.0,0.0,0.0,0.0
0.01940584694933808,-0.18437244229601676,0.7655474687678023,-0.005114211237101048,-0.5525547730716734,-0.009036316714987402,0.8334119105096592,0.06244542957631582,0.4104349715184784,-0.9215578817197433,-0.04629969110998538,0.38499416983249934,-0.9082013629593116,-0.122703012194923,0.6503424139985987,0.9384723782898549,0.1510004946453119,0.6936855520800471,0.8873429680539272,0.0,0.0,0.0,0.0
0.020031159906477428,-0.18444881024330134,0.7654485032792692,-0.005220550031783711,-0.5526488689108819,-0.008967996855635367,0.8333495956567601,0.06262014430016972,0.4138010024215254,-0.9270096985569991,-0.04627399778238409,0.3886563118532666,-0.9137888550595328,-0.12189239626512043,0.6513135186348276,0.9397223294856513,0.15313390363944393,0.6951986091394736,0.8891236464625766,0.0,0.0,0.0,0.0
0.02118568813153715,-0.18443085399643272,0.7653447386764951,-0.005259243529507152,-0.5528059096947289,-0.008951204697696304,0.8332453675230006,0.06266635938698752,0.4203786900260933,-0.9371461280804694,-0.04649188882684167,0.3951249181783531,-0.923662187894911,-0.12284695017436455,0.6539042471754478,0.9417732454570147,0.15449916040914613,0.6979919590957915,0.890948798703822,0.0,0.0,0.0,0.0
0.022945518870762384,-0.18423197910891517,0.7653504878973328,-0.005236154802936522,-0.5530973459596228,-0.008993863100740195,0.833051630453855,0.062387693924986436,0.43075093701672845,-0.952110676774926,-0.04714419287526833,0.4046056983091983,-0.9372723465336051,-0.12628884110044378,0.6591805375956555,0.9439489187147315,0.15464725979686436,0.7031061452353983,0.8915183943976075,0.0,0.0,0.0,0.0
0.02548904793981316,-0.18375289955983717,0.766111421286218,-0.005164452690103664,-0.5538898583730594,-0.009175500087844563,0.8325233710941825,0.06166832603261337,0.44630870444329923,-0.9696838520863305,-0.04825332611102316,0.41804904717822616,-0.9518173958513065,-0.13383654578685072,0.6723281238764319,0.9412390343530282,0.15291985039070352,0.7155023238879207,0.8847063602069148,0.0,0.0,0.0,0.0
0.02759547527846662,-0.18370171461690624,0.7666684250844898,-0.006048678825928166,-0.5536899859680013,-0.008332971032061532,0.8326592187185549,0.05733352551873527,0.4204848495768496,-0.9427648126076922,-0.049916128154707314,0.4302809236296383,-0.9671437053789786,-0.1254694261993163,0.6774017924463317,0.9352174554984047,0.11728151758657634,0.6932805443552009,0.9009829756098279,0.0,0.0,0.0,0.0
0.029906997200205537,-0.18365627857034378,0.767422548418148,-0.006740915472947798,-0.5536533672742185,-0.007735921023792444,0.8326840123903061,0.05039729523747075,0.4003602578889226,-0.9315585018046542,-0.05116725152056131,0.4435902313862066,-0.9831337688907579,-0.11973921626373323,0.6851890752466354,0.9278124412304414,0.08656735899068271,0.6755690874848707,0.9138869387023869,0.0,0.0,0.0,0.0
0.03218408794074025,-0.18359495686221786,0.76821969759919,-0.007194645648923771,-0.5537644435663801,-0.007403737033381443,0.8326093698689346,0.04369023171591608,0.38561506438713533,-0.9302734873406499,-0.05202494408592208,0.45647946120349026,-0.9982175208909888,-0.11711641100880554,0.6944101445618959,0.920445617146509,0.06450664135520524,0.6629332756596479,0.9260138569595698,0.0,0.0,0.0,0.0
0.03424466823684679,-0.18352303530102734,0.7689909177804893,-0.0075066746833872865,-0.5539336927087154,-0.007209970250329047,0.8324957238606535,0.037983934826331826,0.37455745454451406,-0.9343467145652116,-0.05267011133352548,0.4679977499104658,-1.0113135241759947,-0.11610934567211895,0.7036390532678616,0.9134086376046598,0.04841202560319556,0.6536509145852162,0.9379814477316708,0.0,0.0,0.0,0.0
0.03599570156029733,-0.1834548155311784,0.7697257572105071,-0.0077496951552453236,-0.5541116644472297,-0.007070857923765365,0.8323762421626073,0.033176586030209086,0.36584004678444515,-0.941160382961281,-0.05318858229784226,0.47774430725979417,-1.0218946629952221,-0.11559947869365145,0.7121629303911042,0.9065974821710134,0.03566456061800657,0.6461944283096512,0.949854155919306,0.0,0.0,0.0,0.0
0.03740968962448879,-0.18340604692821658,0.7704331396541558,-0.00796045562195616,-0.5542778939825832,-0.006949691013824544,0.832264590850371,0.028925863082304555,0.3584601989328626,-0.9492734133841164,-0.0535899401773756,0.4856698405276571,-1.029886513830232,-0.11498298577262217,0.7197437531210551,0.8998439880086199,0.024634009437846646,0.6395381882402306,0.9615921535641447,0.0,0.0,0.0,0.0
0.03850071638872316,-0.18339115838422657,0.7711226761349128,-0.008154142929164707,-0.5544258597288738,-0.006834540098500366,0.8321651068619927,0.024919398563135263,0.3517013759183096,-0.957913404107783,-0.05385359816425738,0.49192304046933577,-1.0355090552755153,-0.11398144258086282,0.7263778082798638,0.8930246218722717,0.01446398984420212,0.6330740063591673,0.9731663201254921,0.0,0.0,0.0,0.0
0.03930596007036861,-0.18342168543582316,0.7717992722008351,-0.008334480264925042,-0.5545565308154831,-0.00672559718410979,0.8320771339912705,0.020960889543048214,0.3450885910132885,-0.9666776697583881,-0.053952041545897826,0.4967466233218648,-1.0391321491352123,-0.11251719742845245,0.7321712821909033,0.8860849566965928,0.004731570623488152,0.6264783936338942,0.9845771223332304,0.0,0.0,0.0,0.0
0.03987178697597408,-0.18350650622880596,0.7724627069872648,-0.008502111295482567,-0.5546720563283419,-0.006624542348446709,0.8319992424700166,0.016959817547760766,0.33831717138452744,-0.9753646102572118,-0.053866155397157396,0.5004113159525093,-1.0411789655928456,-0.11057888214355178,0.7372486397430531,0.879020633125589,-0.0047518408272907075,0.6195996387471686,0.9958458589728832,0.0,0.0,0.0,0.0
0.04024539934966247,-0.1836513892771695,0.7731093323746538,-0.008654960953391282,-0.5547771711434807,-0.00653591870761702,0.8319282804398344,0.012902486891004407,0.33121251397197593,-0.9838825277712154,-0.05358114239483922,0.503175330562284,-1.0420554551204888,-0.10822384265586667,0.7417424690423159,0.8718723310891854,-0.014088478836143725,0.6123958804815713,1.0069989698937833,0.0,0.0,0.0,0.0
0.04046900617011993,-0.1838608535053234,0.7737327098876222,-0.008791753001222107,-0.5548752841606398,-0.006462291268645263,0.8318619854870001,0.008811620748916879,0.3236729486462385,-0.9921944132399149,-0.05308910301386835,0.5052639213639373,-1.0421256940001562,-0.10549745039449865,0.745749855881598,0.8647044087538597,-0.02332446226773819,0.6048905499691932,1.0180515021812215,0.0,0.0,0.0,0.0
0.04057722459055408,-0.18413949760807202,0.774323624056243,-0.008911226535840516,-0.5549689963510089,-0.006405823494313917,0.8317986346202669,0.004725075347992467,0.3156634325253773,-1.0002765712481814,-0.05238201316331318,0.5068600342994376,-1.041701583066364,-0.10243504052776173,0.7493282446867957,0.8576072954002141,-0.03248305682966108,0.5971580746945726,1.0289859273251534,0.0,0.0,0.0,0.0
0.04059563209157946,-0.18449391983592103,0.7748685536359528,-0.00901236419197666,-0.5550589609295183,-0.00636773102392879,0.8317378067547017,0.0006826955545000566,0.30724154840739926,-1.0080715630137178,-0.05144777171997254,0.508101139293579,-1.0410505494423803,-0.09904060669140838,0.7524759789730768,0.850706755560166,-0.04155865312686942,0.589320956304666,1.0397185222468195,0.0,0.0,0.0,0.0
0.04053996928950237,-0.18493408910526066,0.7753469606318175,-0.009093424197315195,-0.5551440612974265,-0.00634933638333955,0.8316802671520215,-0.0032749625951005593,0.29863905776210864,-1.0154255720109258,-0.05026512695060693,0.5090758865902008,-1.0404050657838553,-0.09529160315908408,0.7551177026007311,0.8441919644547609,-0.05049993064933336,0.5815610030398602,1.0500389621953397,0.0,0.0,0.0,0.0
0.040414838376565926,-0.18547408488326184,0.7757277194948573,-0.009151505164550983,-0.5552211083244099,-0.006351895479740314,0.8316281766799701,-0.007103806224834654,0.29037903614382343,-1.0220101553486325,-0.048802593770511465,0.5098160348512396,-1.0399671315709231,-0.09113670742107462,0.7570788396672986,0.8383527994652653,-0.05915230548850206,0.574147653981174,1.0595032063637926,0.0,0.0,0.0,0.0
0.040212061983744225,-0.18613093526953547,0.7759664979937184,-0.009181387223946291,-0.5552862503729487,-0.006377392044169983,0.8315841575848532,-0.010750426862775248,0.2833851035465514,-1.0272513461599737,-0.0470202476087416,0.5102817908594399,-1.0398922070666385,-0.08651944648931016,0.7580730329499134,0.8336185236021828,-0.06716496278839555,0.5675113856936519,1.0672543548188453,0.0,0.0,0.0,0.0
0.03991053975777369,-0.18692093953375058,0.7760090712170484,-0.009173910688909754,-0.5553392010752031,-0.006430558937672277,0.8315484706399118,-0.01414857852347672,0.2789453203888638,-1.0303175582298867,-0.04487498587033007,0.5103520261723435,-1.0402446604022886,-0.08143130280517295,0.7577404124022767,0.8305466078866165,-0.0739009019908254,0.5624098260244434,1.071749085911827,0.0,0.0,0.0,0.0
0.03948281105027776,-0.1878561400171131,0.7758124755870787,-0.009117934605670789,-0.5553896679072743,-0.00651758265888653,0.8315147029167066,-0.017226574425107808,0.27825680713104484,-1.0302667124893201,-0.04232957985792793,0.5098628373391767,-1.0409347553396457,-0.07591829371436319,0.7558047716975548,0.829610600115054,-0.07854053267942142,0.5601732592469586,1.0704996350886709,0.0,0.0,0.0,0.0
0.03890337102694578,-0.1889539620116081,0.7753736933170121,-0.009011300374201966,-0.5554381404729899,-0.006639022254960378,0.8314825265493986,-0.01993829924984276,0.2812847271336938,-1.027049539389449,-0.03933649597590543,0.508702250841929,-1.041814312264318,-0.06987778767017888,0.7521885386804303,0.8307765513810261,-0.08100044661566444,0.5608099661445783,1.0635426568515602,0.0,0.0,0.0,0.0
0.03815003573594694,-0.1902374786228486,0.7747296146540409,-0.008861504282280705,-0.555474719057539,-0.006789214338429486,0.8314584877181002,-0.022279678220567672,0.286774300114574,-1.0215401000190178,-0.03583885226068039,0.5068183993563157,-1.042692530139446,-0.06306114548143893,0.7470192995868713,0.8334898573738552,-0.08195237885143891,0.5629938416172249,1.0534103924670248,0.0,0.0,0.0,0.0
0.037195796602187275,-0.19172460365761157,0.7739289367206378,-0.008675258976681194,-0.5554976339661271,-0.006962803533577784,0.8314437069980595,-0.024262597373864082,0.2933844579962942,-1.0145134440512495,-0.031791730091198366,0.5041238851375938,-1.0432357142128217,-0.05528490483617181,0.7405197343378147,0.83708997325206,-0.08191904228623474,0.5659460182182984,1.041659984312237,0.0,0.0,0.0,0.0
0.03600213038347462,-0.1934293553135339,0.7730114724895133,-0.008457557884912915,-0.555506424848567,-0.0071543365756281275,0.8314384505991705,-0.02589996729233402,0.3001348653816601,-1.0064878040214964,-0.027162993768814828,0.5004515256417396,-1.0430139471607713,-0.04642389800359496,0.732845606312724,0.8410265385875673,-0.08115369532686742,0.5691986692787039,1.029138650228501,0.0,0.0,0.0,0.0
0.03452088288694862,-0.19536195329031425,0.7720049005273149,-0.008212478664806629,-0.5554999599742851,-0.007357788571670676,0.8314434512401203,-0.02720077338641507,0.3064532089441023,-0.9977522447369983,-0.021935256925891756,0.49556191763674745,-1.0415309403613808,-0.036407837460575264,0.72406635509218,0.844887882861106,-0.07973965098932072,0.5724422741334196,1.0162623201252512,0.0,0.0,0.0,0.0
0.03269879556098748,-0.19752645078835704,0.7709275403127006,-0.007944513684362022,-0.5554759894829059,-0.00756596406069013,0.8314602010909109,-0.028175144701535235,0.3120694860112614,-0.9884544439345647,-0.016113641139088968,0.48916232658704256,-1.038237095286232,-0.025230251034385726,0.7141942817446966,0.8483700883947715,-0.07769262719892077,0.5754569549424238,1.0031981042648546,0.0,0.0,0.0,0.0
0.030482753871078246,-0.19991681256508329,0.7697925446571248,-0.007660172640960743,-0.5554309822945382,-0.007769429170371747,0.8314910592620955,-0.028843791581586307,0.3168930224361669,-0.9786903948087241,-0.009738076002958573,0.48092679459847965,-1.0325353344111352,-0.012959434979901019,0.7032226091135487,0.8512366327952888,-0.07502226328926334,0.5780805834833853,0.9899736085377517,0.0,0.0,0.0,0.0
0.027826540380081796,-0.20251192118336042,0.7686117149004256,-0.007367839606782566,-0.5553621035168304,-0.00795809477731162,0.8315379231546841,-0.029245460662846966,0.3209382917604678,-0.9685738989589325,-0.002893177742151856,0.47052059067728164,-1.0237911696094646,0.0002241302963553963,0.6911745901348124,0.8532985753153018,-0.07178477389967959,0.5801937520708543,0.9765411134021519,0.0,0.0,0.0,0.0
0.024700160409859583,-0.20527160738943978,0.7673985188038321,-0.0070781175966103055,-0.5552681154026562,-0.008121834806500543,0.8316016210108341,-0.02945031676463039,0.3242992853359645,-0.9582759446833697,0.004283577809171103,0.45764129001751774,-1.0113759992913167,0.014020026338233686,0.6781413497848174,0.8544034192388787,-0.06811453662671561,0.5817145341572107,0.9628207331008286,0.0,0.0,0.0,0.0
0.0211041583343336,-0.20813480690360803,0.7661691991522549,-0.006803310930546751,-0.5551504225997347,-0.008252095289528482,0.831681204651789,-0.029576831281444428,0.32717979151485577,-0.9480330593499255,0.011602409916562757,0.4420912494970419,-0.9947728208566688,0.028016838258934758,0.6643136864477398,0.8544498007906698,-0.06426220928233048,0.5826157745681341,0.948744108213606,0.0,0.0,0.0,0.0
0.017091860635627905,-0.2110212225300521,0.7649384312124988,-0.006555414792687556,-0.5550139707103198,-0.008344681527348423,0.8317733376007357,-0.02980722259434595,0.3299732330655722,-0.9381267548906772,0.01883491885906454,0.42390183798758185,-0.9737973476864241,0.041721389545287195,0.6499895852541812,0.8534664751935315,-0.06064559240195699,0.5829915465170138,0.9343171231330548,0.0,0.0,0.0,0.0
0.012801954782895177,-0.21383746514671437,0.7636978561266103,-0.006345221499492968,-0.5548588134933378,-0.008390504007341494,0.831878016716027,-0.03041914905451906,0.3333353710993211,-0.9288826065038327,0.025715636407992508,0.4035362739550178,-0.949053381495955,0.05468464389870034,0.6354404033118093,0.8518418239587394,-0.05781430398561204,0.583207639073931,0.9197253473462591,0.0,0.0,0.0,0.0
0.008542842881484016,-0.21653633917465828,0.7623830789412195,-0.006164269768571911,-0.5546217417805521,-0.008434976964861556,0.8320370042769306,-0.03195052076127995,0.33770372660818854,-0.9200306520716718,0.0322284116248377,0.3825451015872721,-0.9235648731589172,0.06647691479526857,0.6208588245608235,0.8504603931589567,-0.056706189203759895,0.5843633480438544,0.9048705322183017,0.0,0.0,0.0,0.0
0.004746739116930019,-0.21896385162725046,0.7610574945224615,-0.006001295648448249,-0.5543340565527656,-0.008481657047133455,0.8322294152996695,-0.034144608657740216,0.343560773655371,-0.9122420389491118,0.03802185104242979,0.3632539160259692,-0.9006142657775981,0.07647077269851876,0.6073617037646776,0.849795772551708,-0.058569000383319574,0.5865295204403869,0.8900997986314884,0.0,0.0,0.0,0.0
0.0017325747810104904,-0.22086490179741008,0.7598658271493007,-0.005838877739105272,-0.5540553446455175,-0.008568057754494965,0.832415263533052,-0.036896049185052335,0.350494878732043,-0.9068357673031326,0.04259451735811365,0.34739065724115925,-0.8821762379256083,0.08350592003728036,0.5962070372745719,0.8502020888277169,-0.06487907386103854,0.5891198792372541,0.8753662560943116,0.0,0.0,0.0,0.0
-5.996153159378535e-05,-0.22197617770851857,0.7590223825109561,-0.005677494433965322,-0.5538394740818157,-0.008697206758240634,0.8325586835775209,-0.03924857987465157,0.35667145946290596,-0.9053215632555153,0.04537182336476006,0.3375826505880371,-0.871411386431876,0.08674218039762881,0.5890842669281305,0.8515538671243588,-0.07427903099303194,0.5918019843592233,0.8614902407325431,0.0,0.0,0.0,0.0
-9.254781338718346e-05,-0.22212221829365164,0.7589418721200104,-0.005562757391970225,-0.5538577889149124,-0.008670005918999444,0.8325475580324807,-0.0392428025406487,0.3566845542583133,-0.9053428214612084,0.045533038214291284,0.33738234316334315,-0.8713509341151505,0.08677342355561332,0.5889864509468229,0.8514635039150689,-0.07429863774609696,0.5918428234003291,0.861502521305954,0.0,0.0,0.0,0.0
-9.254781338718346e-05,-0.22212221829365164,0.7589418721200104,-0.005562757391970225,-0.5538577889149124,-0.008670005918999444,0.8325475580324807,-0.0392428025406487,0.3566845542583133,-0.9053428214612084,0.045533038214291284,0.33738234316334315,-0.8713509341151505,0.08677342355561332,0.5889864509468229,0.8514635039150689,-0.07429863774609696,0.5918428234003291,0.861502521305954,0.0,0.0,0.0,0.0
-9.254781338718346e-05,-0.22212221829365164,0.7589418721200104,-0.005562757391970225,-0.5538577889149124,-0.008670005918999444,0.8325475580324807,-0.0392428025406487,0.3566845542583133,-0.9053428214612084,0.045533038214291284,0.33738234316334315,-0.8713509341151505,0.08677342355561332,0.5889864509468229,0.8514635039150689,-0.07429863774609696,0.5918428234003291,0.861502521305954,0.0,0.0,0.0,0.0
0.0007555518917079257,-0.2224131142359891,0.7588755964062021,-0.005575455239730377,-0.5541362599307141,-0.008507279677135547,0.8323638302577574,-0.03900810349592323,0.36104515948585525,-0.911405714393369,0.04586560106204377,0.3427925150509748,-0.8789183264625137,0.08918006079696532,0.5905671070843922,0.8522612280124263,-0.07271454596614176,0.5935631400983502,0.8651665458640895,0.0,0.0,0.0,0.0
