zhuoxili-jackie/tripod-support-walk/examples/trajectory_tripod_lowstep_left_v0.20.csv
root_pos_x,root_pos_y,root_pos_z,root_rot_x,root_rot_y,root_rot_z,root_rot_w,FL_hip_joint,FL_thigh_joint,FL_calf_joint,FR_hip_joint,FR_thigh_joint,FR_calf_joint,RL_hip_joint,RL_thigh_joint,RL_calf_joint,RR_hip_joint,RR_thigh_joint,RR_calf_joint,FL_foot_joint,FR_foot_joint,RL_foot_joint,RR_foot_joint
0.0,0.0,0.72963,0.0,-0.5231245161092812,0.0,0.852256264656019,0.0,-0.81,0.872,0.0,-0.81,0.872,0.0,0.65,1.0,0.0,0.65,1.0,0.0,0.0,0.0,0.0
5.8832988215105567e-05,-0.00012966990591687405,0.7295788103374661,5.475414465557164e-06,-0.5231052540049326,-0.00020648406362367447,0.8522680626227797,0.0008919483932033736,-0.8099818166445274,0.8721139562194001,0.0008919483932033732,-0.8112061086015641,0.8734683438478076,-0.00046701432613590016,0.6503353104202324,1.0001347231950843,-0.0004670143261359032,0.6494171834634127,1.000613990830844,0.0,0.0,0.0,0.0
0.00012376142734510351,-0.00028251012277917087,0.7295061629815837,4.5708824265007957e-05,-0.5230921509841518,-0.00040325393742658786,0.8522760332637183,0.0017932927820672234,-0.8099264092950782,0.8721435007038219,0.0017939717243374963,-0.8125688740843224,0.8751250679340555,-0.0009338106234438091,0.6506183138293798,1.0003896943153892,-0.0009317462664311391,0.6487493106658749,1.001511697538176,0.0,0.0,0.0,0.0
0.00018700714640958448,-0.0004198276625810582,0.7294173823550045,5.913356206307856e-05,-0.5230606185671175,-0.0006106748732332797,0.8522952615635062,0.0027026680795760715,-0.8100874233213108,0.8723790144201226,0.002704650829972871,-0.8140171987081369,0.8767953747069337,-0.0014073244421656302,0.6507652322170862,1.000812696190075,-0.0014014936288820898,0.647956791801177,1.0024601792635146,0.0,0.0,0.0,0.0
0.0002357610916135542,-0.00047735613203554544,0.7293123960078189,-5.6065032529798e-05,-0.5229832619246427,-0.0008617752733500128,0.852342514454577,0.0036156290085490243,-0.8108338460087705,0.8732375132046819,0.003618761179892714,-0.815381104655949,0.8781263002964415,-0.0018972574037994434,0.6506280530576467,1.0015916981993616,-0.0018846958279687034,0.6469672585770115,1.0031836522004631,0.0,0.0,0.0,0.0
0.0003490028371620773,-0.00020605868613006966,0.7291547952392349,-0.0006867030884514293,-0.5228116808654154,-0.0012707046993039562,0.8524469837468571,0.004471290618871656,-0.8140512749085205,0.877360124576948,0.004472207257375353,-0.8164428717936939,0.8787783269961171,-0.002407215136976954,0.6499706892889789,1.0037754716756153,-0.002377366258981418,0.6458803134803817,1.0029588523452653,0.0,0.0,0.0,0.0
0.0007649059348930194,0.00032240193263159553,0.7292244823134731,-0.0002699492988454031,-0.5229791365619797,-0.000364523323747479,0.8523453624975081,0.010899475942103387,-0.8121143451856563,0.8711243373855242,0.0003619699847306956,-0.81556739465114,0.8799106218898585,-0.0028447572916271025,0.6505933509126696,1.0041216319251143,-0.002829863772387214,0.6492593220502252,1.0013001070833178,0.0,0.0,0.0,0.0
0.001232192166355272,0.001175233234823314,0.7292170125480021,-0.00030812871128623213,-0.5230610098003583,0.00043735266785590823,0.8522950743762224,0.017467095824120274,-0.8140216097903051,0.8685474330840462,-0.003985045214155835,-0.8143305654529658,0.8802302540028221,-0.0033027639967972582,0.6505260569370487,1.0060547131297226,-0.0032864420856964748,0.6524737736314464,0.9989726369268147,0.0,0.0,0.0,0.0
0.0017444646183098725,0.0021308019663199237,0.7291785983026721,-0.0005052969934177733,-0.5230910231240707,0.001190992038359481,0.8522758401714353,0.024036071680950493,-0.8165908642809954,0.8659681582022756,-0.008356092138091992,-0.8132549885517615,0.8806702262212943,-0.003772569045901023,0.6502588956910498,1.0084664868550508,-0.0037464918893094835,0.655619690980971,0.9963854297432215,0.0,0.0,0.0,0.0
0.0023088345697499625,0.0031195690205375057,0.7291102559286955,-0.0007515535800031263,-0.5230999489321128,0.0019321083866097749,0.8522688223510348,0.030603876023882266,-0.8192859373754863,0.8633615960059138,-0.012747258988899154,-0.8124782865419122,0.8815350669662972,-0.004242954029839092,0.6499417693172069,1.0111499458974527,-0.004199978878469323,0.6587631732440373,0.9938367500275052,0.0,0.0,0.0,0.0
0.002930144736201607,0.004124231484528421,0.729013203303141,-0.001014498875509145,-0.5231024079961427,0.0026751233034785875,0.8522650322851335,0.03717637666284879,-0.8219374297976705,0.8607988845314453,-0.01717762986138181,-0.8120055493135999,0.8828930327460094,-0.004707215313147104,0.6496394625839376,1.0140495707205122,-0.004640290647764527,0.6619600922670897,0.9914067879582472,0.0,0.0,0.0,0.0
0.003613493610249176,0.005145971545811276,0.7288906106887447,-0.0012897252449995287,-0.5231037767837556,0.0034263188473732426,0.8522611311461524,0.04376044941379713,-0.8243968705669321,0.8582904341696126,-0.021672149612116408,-0.8118128666682481,0.8847527030564494,-0.005160740436798342,0.6493909933223871,1.0171374620741778,-0.005062423646843092,0.6652655656247569,0.9890712498041081,0.0,0.0,0.0,0.0
0.004364588238456699,0.006192495556187202,0.7287462965250325,-0.001582704713642189,-0.5231058137701119,0.004189109118613826,0.8522559791579585,0.050363292854371994,-0.8264171687960328,0.8558612728806362,-0.026257810755001106,-0.8118687002336701,0.8871056758473017,-0.0055997444216099685,0.6492273116518357,1.0203937075293634,-0.005461756331836834,0.6687355745748005,0.9867666798634152,0.0,0.0,0.0,0.0
0.005188782263920901,0.007273814113466333,0.7285850262956894,-0.0019023518422488363,-0.5231095381210434,0.004965946327425992,0.8522488671516847,0.0569924396714808,-0.8276004402926156,0.8535981042743758,-0.03096241243015195,-0.8121283150151355,0.8899249856211233,-0.00602075571572651,0.6491801969296824,1.0237954486921441,-0.005833553012517634,0.6724303295358706,0.984409531446119,0.0,0.0,0.0,0.0
0.00609039954097491,0.008401115099012578,0.7284145435409644,-0.0022591834976292764,-0.5231176687420039,0.0057589550776309065,0.8522380155662318,0.06365592480395538,-0.827432730181969,0.8516444844388769,-0.03581430159164202,-0.8125142744220725,0.8931486870459341,-0.006420337021387412,0.6492968643409768,1.0273001518855354,-0.00617266222921021,0.676427944840791,0.981887122871554,0.0,0.0,0.0,0.0
0.007073488505322032,0.009588409740048152,0.7282486371862233,-0.002667605622460654,-0.5231371630330629,0.006569457139718827,0.8522190063398323,0.0703624195410896,-0.8254785663459863,0.8500732880442201,-0.040842948658565546,-0.8128887885930239,0.8966593340217334,-0.006794960774431562,0.6496621832029505,1.0308278827805675,-0.006473200748993543,0.6808499976957179,0.9790272901298579,0.0,0.0,0.0,0.0
0.008141901378539526,0.010860339477167356,0.7281048528365164,-0.0031582481988368808,-0.5231694088282101,0.00739409945546993,0.8521907781875477,0.07712183004159681,-0.8218844069287204,0.8484564169472294,-0.046080281451527025,-0.8130850097198723,0.9002955535360704,-0.007142784317591678,0.6503581822750428,1.0342884184118972,-0.006729590171762445,0.6858303793955791,0.9755685922657428,0.0,0.0,0.0,0.0
0.009291658324558708,0.012245031212711074,0.7280099760267023,-0.003766637742084497,-0.5232212968189863,0.008228494820011097,0.8521488008958149,0.08394491387944798,-0.8168711979991633,0.8462039860276042,-0.05155764262490066,-0.8128152937362823,0.9037488928702557,-0.007462374061453743,0.651499782991723,1.0375372047485614,-0.006935267204687583,0.6915440241153015,0.9711651514774471,0.0,0.0,0.0,0.0
0.0105005278616976,0.013765290981144176,0.7279931569583037,-0.004519636995187685,-0.5233078127531964,0.009071126862240424,0.8520834587353203,0.09084316498548306,-0.8105362811594292,0.8426180876704743,-0.05730075239947798,-0.8116658114743112,0.9065138440189461,-0.007752053326765,0.6531818271994789,1.0404239348361701,-0.0070823306997482805,0.6981430021451782,0.965497542504029,0.0,0.0,0.0,0.0
0.01171266910238871,0.015408638729620925,0.7280493067468828,-0.005390256026083122,-0.5234663769447035,0.009936154926429774,0.8519713435166918,0.09782755600727348,-0.8027934159578131,0.8368562402836303,-0.06331740701412295,-0.8091893578519445,0.9079008024712664,-0.008005567576180176,0.6553152140273549,1.043065443781109,-0.007160043553555748,0.7055459489957113,0.9587737808925185,0.0,0.0,0.0,0.0
0.01278832123990889,0.017027695775034258,0.7279602892279743,-0.006155912639017362,-0.5237763173266617,0.010888978394276048,0.851763995656561,0.10490054221012812,-0.7933230705860529,0.8275019098842377,-0.06955229900459393,-0.8055620387107683,0.9073207172543443,-0.008200243790194869,0.6567549088295271,1.0472079711066136,-0.007156305658077191,0.7123627451113338,0.9538987186089259,0.0,0.0,0.0,0.0
0.013667509803250242,0.018369829755770294,0.72755866274667,-0.006444842212463288,-0.5243264145619796,0.012024513640388649,0.851408060845766,0.11203779250100135,-0.7804371750608143,0.8113720211495166,-0.07587430411340984,-0.80167786789402,0.9055655263481984,-0.008302805183221117,0.6569269876128078,1.0537655306550031,-0.007069592907839812,0.7175882954234596,0.9537035954112629,0.0,0.0,0.0,0.0
0.014167281259729103,0.019086668125903795,0.7269368302941962,-0.005788102585330337,-0.5249381996992288,0.01340844022648671,0.8510150398763155,0.11906984474670178,-0.7593404738724666,0.7793021045922868,-0.08191032302722381,-0.7990796224449945,0.9040474391521387,-0.008334950070879555,0.6554254204610619,1.0607790581710976,-0.006974175821888758,0.7202394787789986,0.9585233597672494,0.0,0.0,0.0,0.0
0.014206675072473014,0.019156671727069755,0.7269147867093488,-0.005801606996388014,-0.5249133335171718,0.013465740005697483,0.8510293811016448,0.11952892460444639,-0.7592695771340688,0.7793132738278943,-0.08224167451538054,-0.7990877039331964,0.9040882314573782,-0.008354917108177142,0.6553041196233269,1.0609823722883842,-0.006957402178450328,0.7203913484081773,0.9583533336361935,0.0,0.0,0.0,0.0
0.014206675072473014,0.019156671727069755,0.7269147867093488,-0.005801606996388014,-0.5249133335171718,0.013465740005697483,0.8510293811016448,0.11952892460444639,-0.7592695771340688,0.7793132738278943,-0.08224167451538054,-0.7990877039331964,0.9040882314573782,-0.008354917108177142,0.6553041196233269,1.0609823722883842,-0.006957402178450328,0.7203913484081773,0.9583533336361935,0.0,0.0,0.0,0.0
0.014017664906448157,0.0195712360895586,0.7278232385148449,-0.005216540592790112,-0.5238407809940886,0.012951427051328186,0.8517017578994898,0.1196365924477219,-0.7611466906242818,0.782931077026858,-0.08237652009541518,-0.802293791345629,0.9068830367196986,-0.019080628456636793,0.6586159065286631,1.0532755035398063,0.0036898813274609853,0.7045508644725222,0.981292010233615,0.0,0.0,0.0,0.0
0.01390273028985692,0.02020710546486497,0.7290574801316689,-0.004906055725364811,-0.523027782727574,0.012384473918486866,0.8522115312045828,0.11946432963226283,-0.7620298179027978,0.7869874349037862,-0.08264246317572393,-0.8023502981126833,0.9071066839573926,-0.029646470664349618,0.6641847691812982,1.0435973431457066,0.01434139091090621,0.6935506014175253,0.9978338043467598,0.0,0.0,0.0,0.0
0.01382174851281253,0.020965114876759425,0.7303254085967287,-0.00474609647946859,-0.5224203253540236,0.011806596967089343,0.8525931517982421,0.11907613487205324,-0.7624048930491684,0.7910064311264707,-0.08304130756754673,-0.8006884764424219,0.9056568323311515,-0.04006528576685536,0.6704779254868695,1.0341325371155636,0.024998125992506,0.6864449009342677,1.0103709701314687,0.0,0.0,0.0,0.0
0.013715454044229716,0.02178574100438293,0.7315303653815768,-0.004657048581800993,-0.5219438910803949,0.011239896905393836,0.8528930479139337,0.11851197519742011,-0.7623768704870779,0.794480378942496,-0.08355849510345739,-0.7980062001076123,0.9028672848027735,-0.050370923933086245,0.6766896592801046,1.0255217849629965,0.03567108787133556,0.6818939880499288,1.0204982296699916,0.0,0.0,0.0,0.0
0.013463946603883626,0.022608759759524928,0.7326470715536847,-0.0045458054492327335,-0.5215294278117802,0.010702140671022034,0.8531540633227932,0.11779125989602972,-0.7614405404367314,0.7961055379427803,-0.08415463087634126,-0.7944860563154305,0.8983988507182578,-0.06060356012457062,0.6821680459592115,1.0178579169993365,0.04637196383440894,0.6786540882162834,1.028819358889894,0.0,0.0,0.0,0.0
0.013022624749406115,0.023439860990694342,0.7336998333360738,-0.004411747011737527,-0.5211145510729268,0.010183912739932056,0.8534145821754346,0.11692815060971935,-0.7596683711018117,0.7957944932014215,-0.08481967247162273,-0.7901889544413262,0.8921074234595586,-0.07079583106911949,0.6867150367325693,1.0109024105778652,0.05711224274198999,0.6760642131194385,1.0356309218681161,0.0,0.0,0.0,0.0
0.012338500037560264,0.024294432225180157,0.7347312108701946,-0.004262529047359935,-0.5206383184668523,0.009670059742679704,0.8537119315874071,0.11592998762525344,-0.7570449101867712,0.7933721464206165,-0.0855421685758871,-0.7850267797724167,0.8836638150516235,-0.08098180727856907,0.6901986335381304,1.0042697334594888,0.06790359167627935,0.6737909583508666,1.0408377406498068,0.0,0.0,0.0,0.0
0.011343765395337624,0.025195389852137966,0.7357904962012334,-0.004109383614546958,-0.5200293442457945,0.009139745946910317,0.8540896083746853,0.11480157809218554,-0.7535213410955689,0.7885711382926921,-0.08631006808974989,-0.7788433515393263,0.8725788327764807,-0.09119916964000169,0.6924515350508879,0.9975029329232796,0.07875783292323722,0.6717624900072168,1.043880203536584,0.0,0.0,0.0,0.0
0.0099559753551276,0.02617411703233425,0.7369340301719881,-0.003965761994098808,-0.5191971281784818,0.008565085556528277,0.8546023953467675,0.11354834954962452,-0.7490613363634315,0.7810770988040929,-0.08711160908299474,-0.7714568473596506,0.8582337783584467,-0.1014904779177551,0.6932566038551309,0.9900433280362445,0.08968704330640753,0.6701363713629269,1.0436062883689228,0.0,0.0,0.0,0.0
0.00808918533458855,0.027271090086025865,0.7382356688357914,-0.0038447640700083694,-0.5180260306419746,0.00791009821896747,0.8553196359915586,0.1121800527400467,-0.7436937891846108,0.7706504989616695,-0.08793686493723783,-0.7627077507199579,0.8399840421701443,-0.11190264469209033,0.6924302218699442,0.9810827754204283,0.10070361855789013,0.6692862865374398,1.038198872590491,0.0,0.0,0.0,0.0
0.005663263735376215,0.02852211810954472,0.7397953905023272,-0.0037354870945446052,-0.5163776895060747,0.007135521733461241,0.8563230770253278,0.11071567762500031,-0.7374337601939819,0.7570663700115283,-0.08877322535246895,-0.7525221797733712,0.8172953217144212,-0.12248272301460522,0.6899375340407202,0.969382366999798,0.11181775828076408,0.6678477139636062,1.02892525355785,0.0,0.0,0.0,0.0
0.002629552463516645,0.029956756198228414,0.7417015247964202,-0.003601777141901935,-0.5140874055744776,0.006200047812388559,0.8577078325620249,0.10919364202927702,-0.7305640366777381,0.7404640097020203,-0.0896166868553484,-0.7411872449873639,0.7900840758292362,-0.13327417211785167,0.6858326107590803,0.9535039406115084,0.12304012624327783,0.6642958080435424,1.0164522293691098,0.0,0.0,0.0,0.0
-0.0009830763028580484,0.03157834463436713,0.7439422379876095,-0.0033660584557646334,-0.5109852162092603,0.005073165678162655,0.8595679388251111,0.10768732582647265,-0.7240121451429978,0.7218082124978307,-0.09048622254770364,-0.7298605228838273,0.7594083174748169,-0.14430037959666325,0.6800833750331214,0.9325076904103112,0.13438189854629912,0.6569241214576069,1.0010884711683365,0.0,0.0,0.0,0.0
-0.0049639444174374055,0.03337698243984851,0.7461139655415052,-0.002967044104673232,-0.5068845015914466,0.0037424024610042458,0.8620007500689842,0.10635255280518874,-0.7212749519325534,0.7051226482968717,-0.09149351727468945,-0.7221804228160351,0.7293419551612894,-0.15554105091026904,0.6713232357912688,0.9087892273980778,0.14586132092387905,0.6449502150858092,0.9823421617416396,0.0,0.0,0.0,0.0
-0.00883821167611774,0.03528980970510996,0.7472572648495683,-0.002367512908264639,-0.5016972051055141,0.0022552479359632953,0.8650371223992022,0.10543495641968091,-0.7289598939532158,0.6984152226574277,-0.09286313293845228,-0.7250121440471027,0.708426334748019,-0.16686937326833953,0.6560827788629684,0.8905274344176897,0.15749782427545309,0.6290343817079305,0.9587996439633494,0.0,0.0,0.0,0.0
-0.012404777910465962,0.03712780831858638,0.7473885423109304,-0.0012469000840219834,-0.4951625872189598,0.0006782359193341105,0.868799169805568,0.10511339063795312,-0.7489802433964722,0.7045892015547166,-0.0946500157107107,-0.742803640285716,0.7033901004209867,-0.1781879787812518,0.6344225001199119,0.8762680985388216,0.16930741777833766,0.6086803618733535,0.928642718842578,0.0,0.0,0.0,0.0
-0.0151821478212818,0.03844958785914609,0.7465488293237147,0.0008160879701207585,-0.48786734280312327,-0.0007043771100288698,0.8729171173023998,0.10541784315500508,-0.7783920864148577,0.721921649145619,-0.09682890958256396,-0.7765968494948566,0.7191536039351294,-0.1889498819755296,0.6095336118134443,0.8654042218864976,0.18110353969099724,0.5852603333968455,0.9011084013667126,0.0,0.0,0.0,0.0
-0.01517715730313852,0.0385458305329154,0.7463415528027025,0.0009849935859431087,-0.4878502060023953,-0.0007975907754148184,0.8729264402800565,0.10545112720528672,-0.7786759033984448,0.7218043428269753,-0.09693285234778883,-0.777062108826553,0.7186483097527046,-0.1894648658293229,0.6096893934080077,0.8652194504980154,0.18187496803499356,0.5852984430117925,0.9011323125653763,0.0,0.0,0.0,0.0
-0.01517715730313852,0.0385458305329154,0.7463415528027025,0.0009849935859431087,-0.4878502060023953,-0.0007975907754148184,0.8729264402800565,0.10545112720528672,-0.7786759033984448,0.7218043428269753,-0.09693285234778883,-0.777062108826553,0.7186483097527046,-0.1894648658293229,0.6096893934080077,0.8652194504980154,0.18187496803499356,0.5852984430117925,0.9011323125653763,0.0,0.0,0.0,0.0
-0.01569311223430098,0.038748754095418864,0.7478169000345222,0.0009403288145072148,-0.4903534568160758,-0.0005220312819239994,0.8715229949081011,0.10328198347252324,-0.7564057627305866,0.6983447029013138,-0.09730743737331793,-0.7518337501674219,0.6914644746501046,-0.19071311912671293,0.6222090107236402,0.8568130156847862,0.18452809735385156,0.5980449854155803,0.8936158581756002,0.0,0.0,0.0,0.0
-0.01600812710857869,0.03906762059271899,0.7490603687355694,0.0007240914701793699,-0.491566478018061,-0.0002955472434646266,0.8708397016858435,0.10153213394522954,-0.7443214632195824,0.6860382149788372,-0.09806204674373133,-0.7354951344622901,0.6733986096492429,-0.1907749806143415,0.6308384963446207,0.8474474716908833,0.18584045230966578,0.6073974167038536,0.8837547713729675,0.0,0.0,0.0,0.0
-0.016057083364978957,0.03959532992180183,0.7496070670739411,0.0002028126512477948,-0.49153440291852507,-0.0001614358606776496,0.8708581190716548,0.10021708558157996,-0.7453258203576653,0.6885028017071371,-0.09924908106010005,-0.7299725532438937,0.6666530120814357,-0.18979321332022153,0.6331534822273844,0.8424477366830292,0.18596980181005696,0.6110561593930628,0.8763264400649464,0.0,0.0,0.0,0.0
-0.015739810546802423,0.04029544121559411,0.7490285324162091,-0.0005790366078922684,-0.49009785647629844,-0.00011608698499216886,0.8716672199399013,0.0994594409227391,-0.7624673840385534,0.7089428923784598,-0.10095040037020886,-0.738989396296832,0.6755973884476397,-0.18778774883213223,0.6266511119061577,0.8458488274871692,0.18495362826912123,0.6064542707128997,0.8755742339643179,0.0,0.0,0.0,0.0
-0.01475571363075239,0.041251981763074666,0.7474282545689147,-0.0017674917808059372,-0.4871051197510851,-0.00022608770032137758,0.8733415295114721,0.09939491810913516,-0.7979058829305633,0.7509377824549331,-0.10322978357774391,-0.7643297419820843,0.7035467066950024,-0.18482896079350916,0.6124784209519031,0.856099312653737,0.182804715052791,0.5947620264334811,0.8795247373801334,0.0,0.0,0.0,0.0
-0.010758307541433662,0.04262917909114711,0.7476105109818676,0.0007487294925195001,-0.49670681425128604,-0.001654719386527116,0.8679164948220752,0.09662930566870306,-0.7583783994038807,0.7350255485269737,-0.10307908655644096,-0.7304551581740044,0.6868395696852335,-0.17279102036537006,0.6379527160294731,0.90327517111951,0.1733521370638651,0.6235262581950205,0.9051415800597404,0.0,0.0,0.0,0.0
-0.006333007266811347,0.04412975054981281,0.7467320254976239,0.00235744064269756,-0.5040582025959247,-0.003020149599151901,0.863661189104721,0.0947458577593039,-0.7403622167547592,0.7414639509895635,-0.10375114381879665,-0.7141899235811111,0.6885006742450234,-0.1607760449028491,0.6548648776730879,0.9439914957234221,0.16361173872008958,0.646832365443092,0.9277411613954867,0.0,0.0,0.0,0.0
-0.0017986500603289404,0.04559131368883172,0.7447539184629851,0.0033990259856576622,-0.5093534633061783,-0.0042227158256495645,0.8605403329951515,0.09354186102309445,-0.7405701423052194,0.7656009797163259,-0.10501825137856459,-0.7142324371661282,0.7064960603317855,-0.14895544717578893,0.6664816343229528,0.9734425100385312,0.15379693609663048,0.6620609299735836,0.9519557004654386,0.0,0.0,0.0,0.0
0.002457923472088377,0.047007574220016106,0.7425997159716884,0.0039748399575185445,-0.5131017349855906,-0.0052660511694079416,0.8583024402313965,0.09266573602171058,-0.7498562006380596,0.796922341595309,-0.10655521566162543,-0.7216627171723474,0.7303870950150212,-0.1373141915280042,0.674252479551875,0.9952251460070486,0.14389796743705205,0.6731319563112429,0.9719095195547238,0.0,0.0,0.0,0.0
0.006081027849104371,0.04834105084549518,0.7407980072186849,0.004235083722228938,-0.515778347997065,-0.006160310477947521,0.8566894480370932,0.09188185436334098,-0.7608680025838167,0.8264479860624934,-0.10811317609265075,-0.7297356493955377,0.7518423090460816,-0.12582674750925094,0.6781418035813167,1.0121672868158926,0.13389899834214358,0.6818695574363239,0.985564302926175,0.0,0.0,0.0,0.0
0.008987712197213404,0.04955540973664892,0.7393849981399256,0.00433925968297559,-0.51766190401134,-0.006922540042009851,0.8555462596494269,0.0911270950134167,-0.7711806617056177,0.8514776152909072,-0.10959150821118223,-0.7367866875311434,0.7690344309151099,-0.11448111951790707,0.6795305332087603,1.0253913143439692,0.12381408274976966,0.6882315204369496,0.9944798311452907,0.0,0.0,0.0,0.0
0.011212007238279753,0.05065073654850368,0.7382828778003934,0.004384920545990647,-0.5189737053862821,-0.007582543425666509,0.8547453250089383,0.09038234386272821,-0.7799886921202519,0.8715336916447503,-0.11094359707904088,-0.7423797058679217,0.7817840047833869,-0.10326595290539306,0.6796492313729089,1.035539043367986,0.11366141671196138,0.6922353040830808,1.0003605126678674,0.0,0.0,0.0,0.0
0.012828948789026658,0.05164684672244304,0.7373887512903711,0.004417572077159232,-0.51987693306046,-0.008172129651120933,0.8541906554309514,0.08964806312441792,-0.7871853504145042,0.8869711946563928,-0.11215134149595965,-0.7465128124213254,0.790409588366322,-0.09217042068654656,0.679302752101198,1.0426729482591706,0.10345486763251942,0.6939837838928747,1.004563759842257,0.0,0.0,0.0,0.0
0.013919937230704862,0.0525685988027889,0.7366002463210901,0.0044536223270743875,-0.5204861570073109,-0.008719430230376503,0.8538139710430992,0.08893473636031722,-0.7929570356352843,0.8983896460887854,-0.11321097535718912,-0.7493604093397269,0.7953607889788888,-0.08118428187529667,0.6790976013923646,1.0461460488850858,0.09320266485480347,0.6935701465698791,1.0081479921145515,0.0,0.0,0.0,0.0
0.014565168760166456,0.05343890732106043,0.735835867115844,0.004495659294460131,-0.5208796530595784,-0.009247523795952377,0.8535681925773034,0.08825800574841947,-0.7975891730226716,0.9064447831483549,-0.11412495638838303,-0.7511596765804398,0.7971343219635314,-0.07029777997626346,0.6797984955140037,1.0445626251896598,0.08290799611681149,0.6911146184673774,1.0118399333004444,0.0,0.0,0.0,0.0
0.014838012022720103,0.05428738135093136,0.7350538580670196,0.004523609488638963,-0.521116082864112,-0.009779353206482296,0.8534177929879485,0.08762912594627295,-0.8013372554695453,0.9117675142890479,-0.1148964042445601,-0.7519999380416336,0.7960594961432902,-0.059499009978117266,0.6807497169446194,1.039636646828776,0.0725670740662869,0.6868566253217493,1.0159216867812257,0.0,0.0,0.0,0.0
0.014808009559097316,0.05513729801344812,0.7342325526810572,0.004518950313550461,-0.5212372716785199,-0.01033358049554446,0.8533372737759313,0.0870616949233832,-0.8044340400455539,0.9149450374346164,-0.11552758794331106,-0.7519818308542362,0.7924889843503945,-0.048776305822446284,0.6817162449625455,1.0323833604373696,0.062174169793854345,0.6810633542588147,1.0204751721794667,0.0,0.0,0.0,0.0
0.014541759975773524,0.05600127404033188,0.7333547290215211,0.004474834003780928,-0.5212796311791605,-0.010923397808967228,0.8533042841558127,0.0865723231561868,-0.8070626785018971,0.9164763610983879,-0.11601849953675199,-0.751244763116655,0.7868237172836005,-0.038118194569924754,0.6828414154968593,1.023219103475576,0.05172512691414374,0.6739883281813949,1.0255676498557262,0.0,0.0,0.0,0.0
0.014118383052336345,0.05686836757695117,0.7324031716735976,0.004417852668155461,-0.5212922921828427,-0.011551306668492476,0.8532885772133662,0.08618300918862469,-0.8092857755473032,0.9167528147798213,-0.11636540916748603,-0.7500415372326749,0.779698975542174,-0.02751339931862263,0.6847141552095105,1.0121440061058355,0.041222874981114065,0.6659450266238328,1.0313520134391596,0.0,0.0,0.0,0.0
0.013708067313271377,0.05766001958119789,0.7313795013665652,0.004475157534928383,-0.5213676563061973,-0.012190449427074384,0.8532333402215284,0.0859371595907023,-0.8109944063515043,0.9163376450960233,-0.11656611429190544,-0.7491918674286748,0.7730022281120675,-0.016950184355666843,0.6886762974608462,0.9988287480473752,0.030687610709074564,0.6577031491923753,1.038009758755509,0.0,0.0,0.0,0.0
0.013402032882267153,0.058304214977141285,0.7303323438117343,0.004752306983710804,-0.5216644329998037,-0.012811424011460782,0.8530413251045488,0.08583553496884445,-0.8112388044615159,0.9146986655970237,-0.1165837353580524,-0.7484982448089931,0.7672675330719154,-0.006417789533812907,0.6962236637781515,0.9821660156059345,0.020128167852742195,0.6501775029478929,1.0455192434646767,0.0,0.0,0.0,0.0
0.013291670484136587,0.05870729143696724,0.7295225706457494,0.005376495355187678,-0.5224750444915143,-0.013370270846723542,0.8525327894214808,0.08581445090453652,-0.8075756527495955,0.9101812486861749,-0.11633539155941866,-0.7463811007447898,0.7620360879214464,0.004089237655008312,0.7094508234405146,0.9602086892879736,0.009531881984672079,0.6456094455306824,1.0523230661252494,0.0,0.0,0.0,0.0
0.013314319826023125,0.05873704329558516,0.7295021448071521,0.005403294120923211,-0.5225078010260179,-0.013401906720935271,0.8525120475253364,0.08580469057539447,-0.8075317395584508,0.9102693180754237,-0.11633966041683273,-0.7463505085690041,0.7619886893241612,0.004748518267775042,0.7094449087346764,0.9601990601046394,0.008900325189388358,0.6455163403715646,1.05231569739562,0.0,0.0,0.0,0.0
0.013314319826023125,0.05873704329558516,0.7295021448071521,0.005403294120923211,-0.5225078010260179,-0.013401906720935271,0.8525120475253364,0.08580469057539447,-0.8075317395584508,0.9102693180754237,-0.11633966041683273,-0.7463505085690041,0.7619886893241612,0.004748518267775042,0.7094449087346764,0.9601990601046394,0.008900325189388358,0.6455163403715646,1.05231569739562,0.0,0.0,0.0,0.0
0.013015108809861956,0.059391106901113815,0.7300677124900544,0.006230658455076945,-0.5227579196324817,-0.011923325278541461,0.8523750176248938,0.07937107017240586,-0.806016950922118,0.9085257267712286,-0.10871988202034205,-0.7696339466104687,0.8031246255574808,0.004838393166575064,0.709480791485898,0.9569443497923561,0.008725295153069442,0.64988474218865,1.047197849839577,0.0,0.0,0.0,0.0
0.012322786914671958,0.06073132479044295,0.7304279974204776,0.006011820036998963,-0.5228195710366806,-0.010740806490975169,0.8523544973992848,0.07278025541406175,-0.8073722781838837,0.9086500727996599,-0.10105484008075133,-0.7846955133302355,0.8254558438240623,0.0048183502779953705,0.7062909083501239,0.9583564473795814,0.008476631703975288,0.6518935190004812,1.0418162261247508,0.0,0.0,0.0,0.0
0.01138867755902014,0.06241659795493904,0.7304648091929221,0.005222039893284835,-0.5228676465446344,-0.00976011136185194,0.8523420057244817,0.06628417756156839,-0.8100531149662591,0.9090222022591308,-0.09348314860811419,-0.7954803246440307,0.8379454936695795,0.004707740008751906,0.7005667208527138,0.9643820273554009,0.008157257784117466,0.6517698764959009,1.0383554066633787,0.0,0.0,0.0,0.0
0.010236168802047984,0.06413342445927597,0.730368747910783,0.0043106446320337844,-0.5229288507609905,-0.008874751837823755,0.852319232544041,0.06003257836053911,-0.8119574713336528,0.9074192552742251,-0.0860337691699403,-0.8039361877582509,0.8452380940807847,0.0045169710043343955,0.6936890792631457,0.9720083054539096,0.007793019159022322,0.6503661525205349,1.0361168578338973,0.0,0.0,0.0,0.0
0.009029629306839803,0.06571679981523396,0.7303777011490434,0.003520922012495506,-0.5229867545097215,-0.008017485716652393,0.852295827537806,0.054094219293400914,-0.8125148901055758,0.9041654136026658,-0.07870595256935531,-0.8106754367192509,0.8495655299778726,0.004259714917835603,0.6874183286871423,0.9781497044123361,0.007400435720955431,0.649159596093329,1.0333059370181075,0.0,0.0,0.0,0.0
0.007848284084399916,0.06715482949571125,0.7304840390664239,0.0028791173159669007,-0.5230319379437506,-0.007174800685260135,0.852278020841446,0.0484665812946651,-0.812174567504161,0.9000500274835025,-0.07148835119560644,-0.8161076166461508,0.8521052551012813,0.003949178973430207,0.6819125135027432,0.9827626766767349,0.006983237490325113,0.6483344578117392,1.0299342468915398,0.0,0.0,0.0,0.0
0.006731676933948823,0.06847080539994489,0.7306467121416086,0.0023577548209237713,-0.5230650066089984,-0.006348389030048559,0.8522658844574597,0.04312548469194664,-0.811393620400936,0.8956886503208368,-0.06436806476102558,-0.8204021040105294,0.853650444151677,0.003595013244512318,0.6770534304685326,0.9862969176828451,0.0065434126029940065,0.6478391318009583,1.0262636545696928,0.0,0.0,0.0,0.0
0.005694351316871777,0.06969157689136589,0.7308339888812825,0.0019228186364768727,-0.5230877594051264,-0.005542414353831383,0.85225863467151,0.0380403871570525,-0.8104796711265952,0.8914528375612298,-0.05733268225560964,-0.823478673139569,0.8547933340907217,0.003204335545069479,0.6726993079682514,0.9891458223117368,0.006083170703397105,0.6475906642067187,1.0224921077170348,0.0,0.0,0.0,0.0
0.004735301292168129,0.0708414082143872,0.7310278894684753,0.0015436368226060897,-0.5231023432157121,-0.004760516090850191,0.8522551807963035,0.0331792607617113,-0.8095995268297816,0.887519159805794,-0.05037073211028743,-0.8250756771744642,0.856036457928733,0.0027827817191162932,0.6687339223816516,0.9915765289925099,0.005604992716744363,0.6475219903896181,1.0187192723038765,0.0,0.0,0.0,0.0
0.0038478083182401563,0.07194107682476963,0.7312217346601558,0.001194549861294228,-0.5231137488446652,-0.004005186988398249,0.8522526252804958,0.02851078358787953,-0.8088172367422423,0.8839473936586099,-0.04347177884878404,-0.8249882442268494,0.8577708676182506,0.0023351326003486494,0.6650905450775975,0.9937468080311732,0.005111670625090371,0.6476086271190272,1.0149642958515273,0.0,0.0,0.0,0.0
0.003027846902789738,0.07300295493888043,0.7314107735723461,0.0008627083381949496,-0.5231203572118356,-0.003275390858371328,0.8522520867792637,0.024007688944078717,-0.8082023409959785,0.8808015074137787,-0.03662669591448193,-0.8236091601003768,0.8598466405483257,0.0018660426506812964,0.6617095434851612,0.99574755868961,0.004606481062005702,0.6478219405759941,1.0112394322430165,0.0,0.0,0.0,0.0
0.002275017285004515,0.07403867086880442,0.7315959943159396,0.0005359771369091527,-0.5231241878622138,-0.002570159016127952,0.8522524221641378,0.019644046140945195,-0.807797772012106,0.8781454339441648,-0.02982714058619594,-0.821414120542886,0.8620824844419619,0.0013798337799887045,0.6585813239467919,0.9976167812572495,0.0040928930129082676,0.6481814435351144,1.0075098279919734,0.0,0.0,0.0,0.0
0.0015926116039551622,0.07505979780416372,0.7317817527955258,0.00020190344641282418,-0.5231283106615149,-0.0018889111954429774,0.8522518183224507,0.015395577434955787,-0.8076465421253816,0.8760668281383379,-0.023065506573958006,-0.8187456810646221,0.8643703219944854,0.0008805773067112484,0.6557273003916536,0.9993596689894919,0.0035745420043908427,0.6487371331881965,1.0037073271442956,0.0,0.0,0.0,0.0
0.0009889641363572278,0.07607301826017417,0.7319727897524093,-0.00014511180711604922,-0.5231342915281116,-0.0012295645743492251,0.8522493649988258,0.011242067211746417,-0.8078033649528349,0.8746812632923614,-0.01633498909702397,-0.8157726427512728,0.8666486381461831,0.00037246549237504557,0.6531860854627392,1.0009528281752988,0.003055470972559625,0.6495489664075881,0.9997678095550594,0.0,0.0,0.0,0.0
0.00047545039389993273,0.07706262106197836,0.732165990424134,-0.00047787402724839135,-0.5231394038710732,-0.0005815715819898059,0.8522467937917557,0.007175108232856573,-0.8082935698267835,0.8740360053559812,-0.009630691823361322,-0.8125708423301551,0.8688067347434364,-0.0001390121019378053,0.650972778117505,1.0023544641577742,0.0025405959901984103,0.6506204634873474,0.9957644088255899,0.0,0.0,0.0,0.0
4.929839392881863e-05,0.0779328779445917,0.7323103445957792,-0.0006524178873415415,-0.5231370875214821,9.569513533850119e-05,0.8522482929597938,0.0032285057902876266,-0.8089052168426293,0.873649074249205,-0.002958895427121396,-0.8095078671538328,0.8707163499535682,-0.0006438237659203324,0.6488783650491551,1.0036852905855493,0.002036205526892953,0.6516077881954806,0.9924963010651581,0.0,0.0,0.0,0.0
-0.00034816371503763454,0.07836138717642141,0.7321784167104415,-0.00022448860382754844,-0.5231346402066069,0.000897280020334617,0.852249548377314,-0.00033893703433758755,-0.8086611048505176,0.8713247658981473,0.0035521949952176616,-0.8094287713543543,0.8748041794332797,-0.001128949990654236,0.6459135678024819,1.0059853327779924,0.001542992709578747,0.6509612567845328,0.9932497312982215,0.0,0.0,0.0,0.0
-0.0003443227756452761,0.07836188508357153,0.7321764145026118,-0.00022529044285621812,-0.5231322825001293,0.0008961594943985295,0.8522509965664937,-0.0003333249601136512,-0.8086669914832187,0.8713332135255848,0.0039626238320721935,-0.8094191791731232,0.8747927430352149,-0.001137724741338,0.6459170087497081,1.005986112816938,0.001539775257904166,0.6509612021870157,0.9932489139920205,0.0,0.0,0.0,0.0
-0.0003443227756452761,0.07836188508357153,0.7321764145026118,-0.00022529044285621812,-0.5231322825001293,0.0008961594943985295,0.8522509965664937,-0.0003333249601136512,-0.8086669914832187,0.8713332135255848,0.0039626238320721935,-0.8094191791731232,0.8747927430352149,-0.001137724741338,0.6459170087497081,1.005986112816938,0.001539775257904166,0.6509612021870157,0.9932489139920205,0.0,0.0,0.0,0.0
-0.0003443227756452761,0.07836188508357153,0.7321764145026118,-0.00022529044285621812,-0.5231322825001293,0.0008961594943985295,0.8522509965664937,-0.0003333249601136512,-0.8086669914832187,0.8713332135255848,0.0039626238320721935,-0.8094191791731232,0.8747927430352149,-0.001137724741338,0.6459170087497081,1.005986112816938,0.001539775257904166,0.6509612021870157,0.9932489139920205,0.0,0.0,0.0,0.0
-0.00020502234837148586,0.07811330760402038,0.7320034140173924,-0.00017237663717585943,-0.5230699139767798,0.0005050124042487418,0.852289610602576,0.0013355159059591677,-0.8090868972254982,0.8719875326157638,0.005631997546297117,-0.8123110746798352,0.8781834133311174,-0.0022743192676201677,0.6462624524965834,1.0068532733985573,0.0004166062339938943,0.6494407054483429,0.995034822504704,0.0,0.0,0.0,0.0
-2.5508170394594255e-05,0.07780214105545658,0.7317493225795748,-2.039937442936552e-05,-0.5230267727884934,0.00014697718627217863,0.8523162399767037,0.0030079455587122845,-0.8095979901415749,0.8726810793785392,0.007309367333844306,-0.815799764336409,0.8823296842204379,-0.003397982552038511,0.6464242720846914,1.008231611635574,-0.0006871874078427016,0.6476599411033905,0.9977955744597962,0.0,0.0,0.0,0.0
0.00012894292074668853,0.07756093399512641,0.7314302368155616,2.1591501321854984e-05,-0.522914125418985,-0.00024768148433214213,0.8523853328307494,0.004678961194248645,-0.8108893991947899,0.874032713138477,0.008988804180754466,-0.8194790517413633,0.8862770947946561,-0.004545390653623385,0.6459851775669272,1.0103237137096965,-0.0018075907576694601,0.6453541176918106,1.000762119907165,0.0,0.0,0.0,0.0
0.0002867042905152507,0.07769159479537228,0.7309412013238925,-0.0005220995123480502,-0.5225656815753538,-0.0008322420422872995,0.8525984654132145,0.006323048334586391,-0.8157235685340622,0.8792736235048649,0.01063987983312629,-0.8236033123230807,0.8896743138074046,-0.005772317457869583,0.6439195787013177,1.014788720546124,-0.0029801266863929976,0.6418506940399938,1.0034268553411552,0.0,0.0,0.0,0.0
0.00045805597362082883,0.07848114598703221,0.730449195288336,-0.002100826026364073,-0.5219115403117146,-0.001746231228173127,0.8529952410746253,0.00789039459119306,-0.8252227042823528,0.8903209510761242,0.01220390972006422,-0.8269339141684076,0.8911177363788106,-0.007121438412203385,0.6407178620168233,1.0209613839854768,-0.0041967997766208225,0.638002149745237,1.0030769333332563,0.0,0.0,0.0,0.0
0.0016114866634341165,0.07941596010182751,0.7307327095897238,-0.0010218132252001737,-0.5225488737637869,0.00018995846966411017,0.8526086994288238,0.02048752835131913,-0.8163161418323934,0.8758018629323489,0.0037753082708651027,-0.8251483503239164,0.8955029193909526,-0.007986931187348112,0.6444497746849135,1.0201751905431922,-0.005112323103812108,0.6471365516085209,0.9993537021570885,0.0,0.0,0.0,0.0
0.002761511339872678,0.08099790106507827,0.7308755207808147,-0.0008670296773007794,-0.5228999970409132,0.0018845995339951736,0.8523915119466805,0.033319679635531334,-0.8151566100328063,0.8696694749797699,-0.005019810885075188,-0.8226853440641337,0.8977629173933404,-0.008969365190727399,0.6463585486110844,1.0222301521581811,-0.006052399222320955,0.6554421485236162,0.9938613477685201,0.0,0.0,0.0,0.0
0.003903394757275032,0.0829318634366983,0.730815141101046,-0.0012474718739457751,-0.5230025935686837,0.0034172268067219503,0.8523233268515565,0.046172432317244605,-0.815974934116023,0.8642829623966624,-0.013914078547639942,-0.8206350211656687,0.8993175337902903,-0.01003192142828468,0.6464857267747982,1.0267557744630311,-0.007022811031031386,0.6624052043513636,0.9883087191776888,0.0,0.0,0.0,0.0
0.005119667215763326,0.08498184034097471,0.730661308793655,-0.0017998532354132765,-0.5230086838606086,0.004904213372236779,0.8523113432460726,0.059023103418655104,-0.8172457087520023,0.8591389004649023,-0.022878290139005986,-0.8191139850741663,0.9013156741559358,-0.011117657935223239,0.64614370076758,1.0321491061196986,-0.007980146433210517,0.6690410199966484,0.9828177941081206,0.0,0.0,0.0,0.0
0.006444385466209264,0.08707269427503594,0.7304320353361415,-0.0023971283707264015,-0.5229865192757367,0.006394593052401897,0.8523135946417363,0.0718824672390701,-0.8186586770924404,0.8542502228542119,-0.031947777429554534,-0.8181343476405929,0.9041171178562564,-0.0121985859461198,0.6457386859243915,1.0380652180570327,-0.008897621711199349,0.6756895784908211,0.9776113875301133,0.0,0.0,0.0,0.0
0.007894838673672813,0.08919494568410452,0.730140926056494,-0.00301278760678192,-0.522964326626255,0.00790615938134898,0.8523125769522709,0.08476443502441545,-0.8200071215604544,0.8495224564679,-0.041170933961316256,-0.817599336356405,0.9077585476831723,-0.013261198279758465,0.6454649466150648,1.044360753154491,-0.009759283513170668,0.6825618799518965,0.972637074868682,0.0,0.0,0.0,0.0
0.009482869351192599,0.09136609531036083,0.7298050520986088,-0.003661267769300043,-0.5229546667927499,0.009444378937393713,0.8523003081687183,0.09768379300046104,-0.8209603071528795,0.8448674399745204,-0.05060195740045646,-0.8173432835074843,0.9121331412950762,-0.014298847305746765,0.6454631340870061,1.0509238765051707,-0.010552645628330193,0.6898513323657623,0.9676750751515452,0.0,0.0,0.0,0.0
0.01121830299033683,0.09361631361366028,0.7294452594007369,-0.004375743789724693,-0.5229662724986687,0.011009612097391744,0.8522710361948245,0.1106560465058592,-0.8209919933390124,0.8402524467616198,-0.060298268468821754,-0.8171354256612688,0.9170397238385052,-0.015308489483779096,0.6458715216924903,1.0576407865376,-0.011265089236780396,0.697768377646428,0.9624071159410518,0.0,0.0,0.0,0.0
0.013109962827092961,0.09598521039204999,0.7290885606709964,-0.005202972747295078,-0.5230100759459277,0.012599057371794661,0.8522174917748215,0.12369756511475272,-0.8194113408344914,0.8356634596436314,-0.07031932703560548,-0.8166546722053718,0.9221746978562887,-0.016289706645104884,0.6468584835568136,1.064372423131086,-0.011881954622150314,0.7065705561578856,0.9564144109351667,0.0,0.0,0.0,0.0
0.015166761131157705,0.09852459781033024,0.7287715796176958,-0.006207283074369361,-0.5231029374212994,0.014206060639084988,0.8521284963778417,0.13682573535610723,-0.8155580465487606,0.8309210986146455,-0.08072599570226534,-0.8154485207429772,0.9270987109539441,-0.017245155183218123,0.6486515403364082,1.070936003607969,-0.012384767925278347,0.7165979629683003,0.9491349673517819,0.0,0.0,0.0,0.0
0.017397612201980526,0.10130690565736422,0.728536389244327,-0.007484206876473343,-0.5232594063615927,0.01581613486170321,0.8519937970311638,0.1500608343568189,-0.809322545504706,0.8251930478140009,-0.09158031007956208,-0.8129499492899759,0.9312265367952938,-0.018184086346911113,0.6514954891141894,1.0771472224396068,-0.012750369030146242,0.7282424324844051,0.9398405034899814,0.0,0.0,0.0,0.0
0.019800964874095536,0.10440188150516141,0.7284262661203095,-0.009125111590034594,-0.5235092051346968,0.017417246352988858,0.8517930992953551,0.16342163726588516,-0.8006249196547387,0.8172068236867917,-0.10293045053908208,-0.8084384546688571,0.9337732262011155,-0.019118777102465068,0.655661558718713,1.0828233491940826,-0.01294664124932345,0.74192967331917,0.9277991795383641,0.0,0.0,0.0,0.0
0.022356348101114816,0.10783850198558655,0.7284462272362585,-0.011155604555952974,-0.5239222989417737,0.01902050938481658,0.8514805913121567,0.17693138887331095,-0.7892586094375988,0.8054613267480992,-0.11480654190921649,-0.8011606472970819,0.9338370335421,-0.020054468518185098,0.6613268487705273,1.0880577893058347,-0.012925674647033085,0.7579455025062687,0.9128547250089515,0.0,0.0,0.0,0.0
0.02497243820671155,0.11145786515707802,0.7283617718202258,-0.013323901627524922,-0.5246776889245802,0.020716064185734403,0.8509445581674719,0.19060702138401908,-0.7746738535012345,0.7880372983113391,-0.12716545768186227,-0.7910490019811384,0.9308039198947609,-0.020953360928056847,0.6677749943852341,1.0947088154418767,-0.01262472617156038,0.7752880687220003,0.8982203627827525,0.0,0.0,0.0,0.0
0.02747703652706953,0.11484065169954723,0.7276950419902085,-0.015032120290616027,-0.5259403436054839,0.022655501919740962,0.8500867711948461,0.20441572694849974,-0.7540425228006079,0.7595287922295197,-0.1397839366294198,-0.7798763460201916,0.9255770615588521,-0.021730647823261846,0.6730693547920648,1.1060829229220768,-0.01202905367008989,0.7910162146787604,0.8908736033464797,0.0,0.0,0.0,0.0
0.029683160977220978,0.1176182840262942,0.7264911157811818,-0.015732901873490746,-0.5277497461594864,0.02494771636614973,0.8488876796581223,0.218295413028992,-0.7230007278846903,0.7119388971830605,-0.15236913302274022,-0.7684699742227721,0.9189307907735543,-0.0223336347687352,0.6771366208689811,1.121027900802259,-0.011226827459193057,0.8043841373672894,0.8924933734455748,0.0,0.0,0.0,0.0
0.03125475736346634,0.11915129627556013,0.725484198426378,-0.014526048594559391,-0.5297000319751244,0.02764732384905113,0.8476098722418034,0.23187818459587417,-0.6739030550484796,0.630655749900878,-0.16402417421771978,-0.7590686807386617,0.9140209982395066,-0.022759294085096107,0.680973750992371,1.1317538791620714,-0.010617679710103132,0.8160060232279381,0.8983211702517069,0.0,0.0,0.0,0.0
0.03136619375467606,0.11931510114210525,0.725381410960807,-0.014575725428040427,-0.5296240669266911,0.027756752368913087,0.8476529116673929,0.23281531502450287,-0.673780951064979,0.6306520034925853,-0.16472109517257494,-0.759161747342895,0.9140337954840209,-0.022897254270332332,0.6807715241602857,1.1323075167403298,-0.010475404036858416,0.8163726240052204,0.89791823298515,0.0,0.0,0.0,0.0
0.03136619375467606,0.11931510114210525,0.725381410960807,-0.014575725428040427,-0.5296240669266911,0.027756752368913087,0.8476529116673929,0.23281531502450287,-0.673780951064979,0.6306520034925853,-0.16472109517257494,-0.759161747342895,0.9140337954840209,-0.022897254270332332,0.6807715241602857,1.1323075167403298,-0.010475404036858416,0.8163726240052204,0.89791823298515,0.0,0.0,0.0,0.0
0.030742771723283033,0.11978687011060636,0.7274934616789139,-0.013451652471716808,-0.5263483863064474,0.027053459787719742,0.8497320398760383,0.23361071353558147,-0.6816834985752992,0.6418080548161428,-0.1654319454552369,-0.769894590653771,0.9239528656862742,-0.04133737464010771,0.6825857476765392,1.113319926777361,0.0072184862699404585,0.7770624318844168,0.9433791861637226,0.0,0.0,0.0,0.0
0.030125888159241335,0.12066637316693898,0.7301746548391923,-0.01267796392626078,-0.5237265802761827,0.026220439455127267,0.8513884113010228,0.23369066579285527,-0.6860056243726443,0.6512175505510948,-0.16611367982161881,-0.7735649935064277,0.9270329612782726,-0.059391044504281426,0.6888206966328414,1.0906597112662513,0.02490835387571067,0.7498051660051092,0.9719141805172163,0.0,0.0,0.0,0.0
0.029478176529331712,0.12179081323140299,0.7327396386157286,-0.012148324662028694,-0.521693405762394,0.02533414096928681,0.8526702703233462,0.23322339958446298,-0.6882634304690756,0.6585846944802379,-0.16687020932547814,-0.7730738461651049,0.9251984988803604,-0.07706109079158625,0.6963128612259956,1.0696719965899097,0.04259822562589054,0.7323208145511857,0.9901704639527186,0.0,0.0,0.0,0.0
0.028700175017842326,0.12302831791934071,0.7350510268051567,-0.011716516292067899,-0.5200663344378178,0.02444787696161364,0.8536955150066441,0.23231412801514034,-0.6886401718687033,0.6629666984002277,-0.16770932373046268,-0.7699761306193229,0.9195333644947902,-0.09443113396110704,0.7034892166056743,1.0513735679502643,0.06030338253920714,0.7209567048445862,1.0022848509104676,0.0,0.0,0.0,0.0
0.027733523211696157,0.12435098393679966,0.7371655195969896,-0.011342748059765312,-0.5186722502925516,0.02356793399181268,0.8545729877139054,0.23102949010243645,-0.6875351238767908,0.6645532178003009,-0.1686392830200451,-0.7649132717674944,0.9105048484064568,-0.11158266086214622,0.709812982857781,1.0352305630874379,0.07803878251427367,0.7129477893054348,1.0105298422416913,0.0,0.0,0.0,0.0
0.026514863983851493,0.12577201595952842,0.7391937802564905,-0.011018384285467434,-0.5173502414170175,0.02267580091975114,0.855402321113369,0.2294122699641678,-0.6852265367980507,0.6635700423791568,-0.16965863115163157,-0.7581093838206371,0.8981285854812144,-0.12859438607412768,0.7150715232389951,1.0202099802031006,0.09581938368431897,0.7065233022401124,1.0159893888309306,0.0,0.0,0.0,0.0
0.024968270111834518,0.12732792908089607,0.7412561118825775,-0.010745479297835477,-0.5159414960795938,0.02173510272490124,0.856280615573743,0.22749497370610477,-0.6819204841523259,0.6601589744910794,-0.17076056716863444,-0.749603777139318,0.8821137320438193,-0.14554377272957073,0.7191201681062536,1.005126637976032,0.11366017319330496,0.7007318922389962,1.0189730106600257,0.0,0.0,0.0,0.0
0.022998316823753355,0.12907247132056515,0.7434715386301651,-0.010525745609910877,-0.5142724579503706,0.020692381403726427,0.8573125876976743,0.22530960480518,-0.6778015993677287,0.6543588672831161,-0.17193547611327373,-0.7393716202100805,0.8619271159305913,-0.16251148904756596,0.7217647789560869,0.9887019422253147,0.1315763134727983,0.6951633349625866,1.0191667796392732,0.0,0.0,0.0,0.0
0.02048517295419315,0.1310743051630375,0.7459524348080772,-0.010349957365789475,-0.5121373508682381,0.019474923373415515,0.858620369888689,0.22289744908045472,-0.6730870989941754,0.6461165691099056,-0.17317385608183916,-0.7274250951048309,0.8368428527551242,-0.17958535807265155,0.722700982421821,0.9695320733865986,0.1495833411363083,0.6896883342835824,1.0155571847083038,0.0,0.0,0.0,0.0
0.017282641924870577,0.13341305371698833,0.7487813309410005,-0.010184839292809065,-0.5092886162984238,0.017989158656015875,0.8603474673225145,0.22032024850100146,-0.6680925312255027,0.6352856399759439,-0.17447167844306063,-0.7139414313285354,0.8060042714302434,-0.19685974507077392,0.7214388326688521,0.9461679136283359,0.16769741681837125,0.6842277613156955,1.0062421073900119,0.0,0.0,0.0,0.0
0.013192289903059132,0.1361793475854205,0.7518761916977519,-0.009982172467149867,-0.5054509068061495,0.016121150906007964,0.8626469993775803,0.21767350661069548,-0.6634564172334154,0.621501406713125,-0.1758465351538199,-0.6994337026995501,0.7682336470068226,-0.21442124707092033,0.716697266198973,0.9183218688759991,0.18593241347473163,0.6767053171793819,0.9916893048234078,0.0,0.0,0.0,0.0
0.008122220614862181,0.13949338324610216,0.7550770965855782,-0.009712568227567135,-0.5003487021685387,0.013745304889246336,0.8656603888651632,0.2151136756585116,-0.6608766007197101,0.6060584789381008,-0.17738437565727377,-0.6848807387384486,0.723026655630052,-0.23233468933570814,0.7074207013224122,0.8858804491900311,0.2043228007040493,0.6643755268458891,0.9710203035967138,0.0,0.0,0.0,0.0
0.0021934348771144533,0.14322534607808787,0.758137355685465,-0.009041625056640475,-0.493883579105938,0.010859167687096431,0.8694132146355882,0.21286626949643414,-0.6610506766718405,0.5894062787589609,-0.17916422169831925,-0.6727476139818779,0.6729578776857201,-0.2505171397370103,0.6936409124156503,0.848554902922184,0.22287118305133788,0.645229782108951,0.9450072662555333,0.0,0.0,0.0,0.0
-0.003966735756659207,0.14695560240075276,0.7602503464277675,-0.007495539283200531,-0.4862144309824326,0.00767272637874055,0.8737736968261292,0.21141053112187183,-0.667360003173767,0.5762275842301349,-0.1814897816114134,-0.6701765312626402,0.628736892875092,-0.26869086159488315,0.6746063849465355,0.8115095736234337,0.24158895307391734,0.6221041348526851,0.9132161534524968,0.0,0.0,0.0,0.0
-0.010099252159419083,0.1504970933125031,0.7610337111957896,-0.004913132253576746,-0.4773699488363151,0.004313628853584603,0.8786780899086913,0.2110122505829212,-0.6819946355837003,0.5694794747474532,-0.18455680436932023,-0.6815743168119432,0.5973134712723788,-0.28658924953752235,0.6493323095759473,0.7778390705699386,0.26042647790434587,0.5945381152349043,0.876411635187747,0.0,0.0,0.0,0.0
-0.015866353523268498,0.1536512989139914,0.7603307739142154,-0.0010892116927678193,-0.4672131032169161,0.0009262137061732367,0.8841435810593651,0.21203086885260855,-0.7076928130747653,0.5734748124843885,-0.188645781454514,-0.7127150207518886,0.58820015361789,-0.3040058827942948,0.6176789792070063,0.7482220740526844,0.27943615051757376,0.5665552077013772,0.8287407270246481,0.0,0.0,0.0,0.0
-0.020200462388525377,0.15584662439643462,0.7584570487626043,0.0038468015187273744,-0.4574070258411175,-0.0018563147157579863,0.8892471922502397,0.2140640372550735,-0.7386422778484486,0.5863623862361468,-0.19355935537594302,-0.7600525863532867,0.6058443617000715,-0.31998349259115055,0.5870098891039569,0.7243734611740689,0.29830296800114925,0.5443369102563074,0.7817013646580969,0.0,0.0,0.0,0.0
-0.020145582008405875,0.15596683001776251,0.7578885197620041,0.0042570717366702,-0.45744022555768776,-0.001986211988187816,0.8892279642160938,0.2143505514051708,-0.7391619105462317,0.5861882081193089,-0.19387339095374329,-0.7610871835835805,0.6048020085671818,-0.3207596462715723,0.5873983780864789,0.7240549781769192,0.2996220532696861,0.5444268724893695,0.7817633581422432,0.0,0.0,0.0,0.0
-0.020145582008405875,0.15596683001776251,0.7578885197620041,0.0042570717366702,-0.45744022555768776,-0.001986211988187816,0.8892279642160938,0.2143505514051708,-0.7391619105462317,0.5861882081193089,-0.19387339095374329,-0.7610871835835805,0.6048020085671818,-0.3207596462715723,0.5873983780864789,0.7240549781769192,0.2996220532696861,0.5444268724893695,0.7817633581422432,0.0,0.0,0.0,0.0
-0.02030390777118644,0.15651327596129624,0.7602884123220278,0.0038477504992215305,-0.46069444466963594,-0.001534461055149522,0.8875491360459441,0.2097036550492656,-0.7137629321530629,0.5616223198663308,-0.19393077910547418,-0.725727991183522,0.5670917610453478,-0.3226702944236731,0.6088057378102276,0.7055795192542605,0.3042364774865397,0.5651720711147143,0.7659311355914555,0.0,0.0,0.0,0.0
-0.020364041068769146,0.1573854347787801,0.7620059135199504,0.0030225007877036636,-0.4623196678922267,-0.0012136070937997527,0.8867073453664582,0.20618151538851712,-0.7033150462772915,0.5537295508218023,-0.19503135565029514,-0.7002226110928447,0.5374653328636869,-0.32294032012258594,0.622702299508421,0.6905053423724427,0.30674841075195447,0.5800080818136244,0.7496459343560092,0.0,0.0,0.0,0.0
-0.020238429257790475,0.15855402679750596,0.7623995516147452,0.0018187093809218916,-0.46232093377195876,-0.0010213849710454376,0.8867102138044609,0.20391700725211884,-0.7118037601688008,0.5675551315931353,-0.19727499280284186,-0.6891974924610947,0.5221460214723497,-0.32173513243022456,0.6248141749217414,0.6871926806374998,0.30741475784235966,0.584602421063662,0.7414212940457532,0.0,0.0,0.0,0.0
-0.019617230854423406,0.16018498604511255,0.7614668159515057,-1.3310297616828405e-05,-0.46055384327629884,-0.0010501485813637732,0.8876311477490092,0.20307814638864322,-0.743264423470689,0.6097412739351318,-0.20082082431880913,-0.6960528576351258,0.5275076850401383,-0.31900368755251235,0.6154335815200598,0.6957354632868685,0.3062182507352242,0.5793685379584603,0.7407551210994597,0.0,0.0,0.0,0.0
-0.01803508021066257,0.16246057348663231,0.7591861774878659,-0.0027766706440772292,-0.4567736338430881,-0.0014575642020927947,0.8895774350962998,0.20415817577265521,-0.8004725880836315,0.6840175339290087,-0.20587678026489895,-0.7245181783896201,0.560011652312996,-0.3149849185649154,0.5954346041861229,0.7153618618623694,0.30320756965816553,0.5652024489965678,0.7462406743884415,0.0,0.0,0.0,0.0
-0.011932454709643174,0.1647947895507525,0.759933794520815,0.0030330728630977347,-0.47135401936793137,-0.004343561717273599,0.8819281843587442,0.19674086039549707,-0.7363041950788077,0.6564113299575021,-0.20351217199959915,-0.6792844533365131,0.5388043790427414,-0.29757434526197013,0.6267506960883255,0.7951835988405452,0.29178062266004723,0.5984761669145354,0.8059697329023872,0.0,0.0,0.0,0.0
-0.004957837887173003,0.16764195902454046,0.7592790344998407,0.0071961420787244,-0.4836072332057759,-0.007382498324306642,0.8752244045093399,0.19175171922333037,-0.6994219894093258,0.6598633560564926,-0.20343500586573035,-0.6529140710261365,0.5391108626367026,-0.27995924756061324,0.6548822587680125,0.8640631271654637,0.27957330504194694,0.6342931911801755,0.8511147415022483,0.0,0.0,0.0,0.0
0.0022456164595002232,0.17076327781320136,0.7573669426022498,0.009740974735889727,-0.49310651219299945,-0.010233568809686438,0.8698542148621615,0.1886121280655198,-0.6900158834421656,0.6930409493951124,-0.20511919712240956,-0.6454768661945064,0.559488424005546,-0.26259259943969426,0.6759257723103256,0.9148756561938431,0.26689133697955364,0.6656122278065574,0.887397536513679,0.0,0.0,0.0,0.0
0.009209065656971263,0.17402114719984413,0.7544728192536658,0.01097355101752502,-0.5003031722587374,-0.012807684468898293,0.8656860171127029,0.18668287489469573,-0.6994553943896662,0.7434308897603973,-0.20790365966277882,-0.6501996398684048,0.5898562766844594,-0.24548984698099696,0.6919653723340246,0.9522361583542213,0.25371626361939487,0.6898447923211166,0.9195795139320556,0.0,0.0,0.0,0.0
0.015247376801485045,0.17706890367220932,0.7514724176898291,0.011392562104931156,-0.5056294594914679,-0.014957222838406276,0.8625458484672067,0.18528153328792243,-0.7149787079214582,0.7930276518706036,-0.2110343637678295,-0.6580522948048833,0.6179430887689252,-0.22864038646456006,0.7019216485727432,0.9795052658347637,0.24003637604102937,0.7083334208544709,0.944633797185857,0.0,0.0,0.0,0.0
0.02018738587558729,0.1797845845407692,0.7487338491034856,0.011363399960568728,-0.5095171144984406,-0.01670479382223908,0.8602233041704204,0.18410781513102142,-0.7312835264674196,0.8359991987464019,-0.21411978046029984,-0.6656614308875242,0.6403126023728387,-0.21200744034033414,0.7079288220691956,1.0004703843837386,0.2258661527559655,0.721552399287589,0.9635639752178298,0.0,0.0,0.0,0.0
0.02408651827264989,0.1821397205402102,0.746249319627271,0.01117154961152303,-0.5123493141329337,-0.018123590374497504,0.8585131986514402,0.18305818972612775,-0.7465407281496157,0.871378374288761,-0.21698878035297547,-0.6724935083504618,0.6572412712630022,-0.1955805160208769,0.7122272915406921,1.0167840564136463,0.21130140024710556,0.7296034185060525,0.9792007811676624,0.0,0.0,0.0,0.0
0.02713994407067631,0.18418858169677807,0.7440451746330281,0.010938364114693382,-0.5144437800025383,-0.019307606441297847,0.8572369367571034,0.18208631765885688,-0.7601671227398207,0.9002399969031071,-0.2195675444509282,-0.6782785905641494,0.6696601829880694,-0.17934915639934162,0.7160815543982456,1.0291821500797598,0.19643616343886083,0.733754193224076,0.992404978789125,0.0,0.0,0.0,0.0
0.02953761235599122,0.18600204175156343,0.7420522547393263,0.0107136652243578,-0.5160493584309074,-0.020341039119704536,0.856250266667427,0.18119027884618066,-0.7721579771013211,0.9238701930380613,-0.2218355777091665,-0.6830358312654161,0.6784317482249944,-0.16330285504931133,0.7201223499928742,1.0373749180993668,0.1813485170796261,0.7349257447603379,1.0042083945532982,0.0,0.0,0.0,0.0
0.0314485708370126,0.18764799083331296,0.7401581638723064,0.010508117931966399,-0.5173636120463547,-0.021291964098480335,0.8554362189273412,0.18038857502411337,-0.7827586510527864,0.9434681421680671,-0.2237966567647608,-0.6869036040739106,0.6842796537057235,-0.14743150731172308,0.7249769016035139,1.0401366578741311,0.1661024989366139,0.7337693272578204,1.0156896083512594,0.0,0.0,0.0,0.0
0.03302446575101171,0.1891913226014231,0.7382513116276576,0.010302233131256425,-0.5185633827908555,-0.022215804307806324,0.8546884461954375,0.17969667742448653,-0.7922288240328241,0.9600600562937468,-0.22545781486717983,-0.689894153405324,0.6876509367974445,-0.1317229032645341,0.7300086102395444,1.0392691106790528,0.15075149945646377,0.730883704814277,1.0277635295159102,0.0,0.0,0.0,0.0
0.034401173004033184,0.19068124063028172,0.7362045708337923,0.010077007113640511,-0.5198301912096752,-0.023153757637465175,0.8538963225953193,0.1791247121678321,-0.8007145344433203,0.9743706213833289,-0.2268196424470636,-0.691951627935766,0.6888241055909834,-0.11616479478189333,0.7353307055292367,1.035913736382255,0.13534833191486653,0.7267839547374074,1.0414732170196792,0.0,0.0,0.0,0.0
0.035766009410160525,0.1920985911947553,0.733869420659772,0.00991153555884008,-0.5214096518196155,-0.024118221165960334,0.8529079949560815,0.17869375797500683,-0.8079480117444395,0.9867487110669899,-0.22787867868069028,-0.6934456014350815,0.6889475236815069,-0.10074512803395919,0.7423619177471338,1.0308038440541512,0.11997377966414298,0.7222813290568365,1.0581765318751888,0.0,0.0,0.0,0.0
0.03727596409734587,0.19341545155111275,0.7310920263616867,0.009876298658709403,-0.5236197679481835,-0.025107924730595733,0.8515247438885244,0.17837868679807561,-0.8131727168179806,0.9968925406050267,-0.228589283004971,-0.6941127920444239,0.6883204720858392,-0.08545088195709942,0.7538172470732974,1.0241500595204402,0.10470121665771183,0.7183732548270507,1.0793008568046851,0.0,0.0,0.0,0.0
0.039032113639378786,0.19461425275519878,0.7278127540233409,0.009992831678001373,-0.5268697501243871,-0.0261156663543818,0.8494859514375666,0.1780623524739196,-0.8147506076809659,1.0035788079603258,-0.2288158073844206,-0.6923071475616145,0.685570777953995,-0.07026851511794201,0.7740498831917575,1.0153952899890748,0.08955110503802627,0.7167139972356931,1.1053924039948244,0.0,0.0,0.0,0.0
0.04109991858734877,0.19565221915465084,0.7243367778816117,0.010268199785632655,-0.5316889371687681,-0.027124294353170524,0.8464429755283877,0.1774942333701232,-0.8091022367159773,1.004157394346723,-0.22825248500266707,-0.6843110026037866,0.6776135728138323,-0.055182089360264926,0.8090881719516053,1.0024758765878037,0.07439687816330713,0.7209184828814905,1.1338821530230894,0.0,0.0,0.0,0.0
0.04325972856047674,0.19640243333747615,0.7218373005698313,0.01072942474030407,-0.538581482912894,-0.028090615401979328,0.8420366874634551,0.17620560655460724,-0.7886936268734599,0.9922996905637943,-0.22625150453739815,-0.6624637591597125,0.6574683761208462,-0.04017758253123914,0.8639708829425924,0.9778101538678354,0.05873527539841865,0.7370303995694547,1.1555670634886257,0.0,0.0,0.0,0.0
0.04328047368475457,0.1963278797762058,0.721638272832129,0.010655072189188066,-0.5386721178118707,-0.0280193650328297,0.8419820271905298,0.17630439035708598,-0.7889871627484488,0.99215765538203,-0.22625208582665876,-0.6624894674714377,0.65737854723111,-0.03932344799745942,0.8640265862132805,0.9778464841653074,0.05769992354526664,0.7372433340034652,1.1556137734084955,0.0,0.0,0.0,0.0
0.04328047368475457,0.1963278797762058,0.721638272832129,0.010655072189188066,-0.5386721178118707,-0.0280193650328297,0.8419820271905298,0.17630439035708598,-0.7889871627484488,0.99215765538203,-0.22625208582665876,-0.6624894674714377,0.65737854723111,-0.03932344799745942,0.8640265862132805,0.9778464841653074,0.05769992354526664,0.7372433340034652,1.1556137734084955,0.0,0.0,0.0,0.0
0.04151046420107397,0.1975223736316101,0.7227792091710163,0.012918115276455606,-0.5358044017948721,-0.02499337268815688,0.8438732704835569,0.16408290430619218,-0.7995098729515956,0.9965643086242391,-0.2115086215361807,-0.7195522956377732,0.7452216264010219,-0.03344862951820285,0.8454044324950966,0.9712719752592147,0.05157386346844276,0.7281369097600632,1.1441205728352009,0.0,0.0,0.0,0.0
0.03878105305277311,0.20009620966775316,0.7243925587920914,0.012806372665541925,-0.5327436851396322,-0.022479954322388515,0.84588108763387,0.15105837299420916,-0.8128648607560793,1.0028671565005325,-0.19647546377047218,-0.7537560170036266,0.7923011773074593,-0.02903464500881666,0.8254107194089478,0.9663255693830226,0.04677980719531816,0.7175744346622144,1.1267197547587877,0.0,0.0,0.0,0.0
0.035388272843567214,0.2033810794542925,0.7256914009139958,0.011397523277404429,-0.52999577801821,-0.02037141463742559,0.8476789352176232,0.13791825170804464,-0.8259135307805198,1.0066055360229333,-0.18154364901785483,-0.7754611464455347,0.81776243522409,-0.02595674350353914,0.8036440165979424,0.9675131444759612,0.043173287346407636,0.7056256605866126,1.110554634607579,0.0,0.0,0.0,0.0
0.03145657750185561,0.20671661666070698,0.726663282464782,0.009705869446828703,-0.5278981343831302,-0.01850612381870096,0.849050575168699,0.12510817831271487,-0.8337775383175924,1.0024102435936588,-0.16683186146299792,-0.7905909852203552,0.8321691139299164,-0.023874114231892576,0.7816714047310543,0.9728770941629682,0.04041556788310357,0.6934828082595244,1.0975269039795374,0.0,0.0,0.0,0.0
0.02725324548815486,0.20989841222567288,0.7275076092878608,0.008079258526776266,-0.5264002581366739,-0.01677454515254088,0.8500330043299648,0.11276532249357257,-0.8361591157888676,0.9911636418431125,-0.15233767637918602,-0.8015594975229752,0.8402990054868835,-0.022437416357871408,0.7609901328630755,0.9794004180402073,0.03816280190908438,0.6823551886813863,1.0862759381521059,0.0,0.0,0.0,0.0
0.02310863665489453,0.21283885078219014,0.7284171739767895,0.006682416953192517,-0.5253611295019786,-0.015099872392560172,0.8507191209593196,0.10096366171037768,-0.8342039028878748,0.9755538871076939,-0.1380523465628375,-0.8096407712566659,0.8449528196629644,-0.021456669327382095,0.7430267951653393,0.984373180763858,0.03623577695235189,0.6734987885148572,1.0749611938205348,0.0,0.0,0.0,0.0
0.019182064844896516,0.21555313590532812,0.7293587168183289,0.005522641493807031,-0.5246518631546371,-0.013451087625802285,0.8511926874456699,0.08969859716688275,-0.829537690936168,0.9577769646923161,-0.1239534439878524,-0.8156139939524256,0.8476789349475717,-0.02081727296231705,0.727595133096723,0.987902716370714,0.03453131080896948,0.6667714490054196,1.0636181409800962,0.0,0.0,0.0,0.0
0.01566428618949327,0.21812158355345862,0.7302599089751407,0.00449964387506693,-0.5241473670498946,-0.011831089820835666,0.8515335085205467,0.07892640741580896,-0.8244191848676866,0.9408895346533597,-0.11002228105700736,-0.8196910362542058,0.8494774199187163,-0.020462796706708725,0.7144258980232318,0.990633854279691,0.03300176347542765,0.6620144194824052,1.0523811378326517,0.0,0.0,0.0,0.0
0.012532062530872138,0.22056440997095084,0.7310944757759154,0.0035876875585397075,-0.523799495025991,-0.010241470088514233,0.8517724636303554,0.06860262405370719,-0.8193364444931784,0.9253192759644511,-0.09623579797844775,-0.8219746561214587,0.8512038711073608,-0.020334318066143733,0.7030513937687738,0.9930078293572849,0.03160208099312499,0.658781325137458,1.04153382550276,0.0,0.0,0.0,0.0
0.00976567467759206,0.22291671720229048,0.73185968279381,0.0027381568509483485,-0.5235664564355107,-0.008689997392773187,0.851936119751907,0.05867593341050629,-0.8147276564252592,0.9115231352775994,-0.08257484287193916,-0.8224620815918614,0.8534250641489017,-0.020389308942938646,0.693166200187594,0.9952493752621293,0.030302478081059816,0.6568048290677455,1.0310659789847343,0.0,0.0,0.0,0.0
0.007363137494443979,0.22521544509771554,0.7325621236825163,0.001901170214155089,-0.5234070153395484,-0.007184695537072889,0.8520503870049013,0.049094480687519974,-0.8110760022346776,0.900101297583159,-0.06902230830743267,-0.8216124558525107,0.8560253811050118,-0.02059625775641041,0.6845869547737033,0.9974435684192331,0.029084714484231746,0.6559520078908755,1.0208186338586283,0.0,0.0,0.0,0.0
0.005260535585008758,0.22747425058936602,0.7332295375851059,0.0010601411183756234,-0.5233091650571724,-0.0057272720026553935,0.8521229912538341,0.0398136237505698,-0.8081984630212693,0.8906959951359146,-0.05556073892290946,-0.8200400587075977,0.8589311756677542,-0.020922940801550525,0.6771532338804498,0.999500373826966,0.027933021739232494,0.6560896652817194,1.010601366474235,0.0,0.0,0.0,0.0
0.003442717271746048,0.2297101267701737,0.7338819101370032,0.00019557092889428696,-0.5232575366149167,-0.004318471304627061,0.8521636362420612,0.030793160032639114,-0.8061825538145974,0.883417875911677,-0.04217483153006501,-0.8180290947809424,0.8620572286362832,-0.021347842013281736,0.6708229361917903,1.0013235748150462,0.026843258861108343,0.657215162359049,1.0001989679436243,0.0,0.0,0.0,0.0
0.0019516738073803934,0.23191311406212517,0.7344874508262255,-0.0006714203862825357,-0.5232268592922205,-0.0029482620117206523,0.8521880723531479,0.0220117131003275,-0.805505173853903,0.8788962360008049,-0.028853442816282264,-0.8154275357994559,0.8651795071105739,-0.02185849929236799,0.6654809280909258,1.0031069887683794,0.025823344064430997,0.6592154226081346,0.9898729267015779,0.0,0.0,0.0,0.0
0.0007357420698295128,0.23391074059963649,0.7347836030744297,-0.0012819132543077777,-0.5232054096609728,-0.0015471322677861434,0.8522042374816309,0.013529078781219695,-0.8061106652535649,0.876091859439521,-0.015597832590525239,-0.8123697622230521,0.8678722286635407,-0.02243609805322587,0.6597791148601324,1.0067056017218814,0.024883247765763887,0.6604757876946217,0.9827004055494136,0.0,0.0,0.0,0.0
-0.00033419632526895515,0.23548981956843718,0.7346565516476844,-0.001330831092313617,-0.5231186604993567,-3.8266675463135175e-05,0.8522588189403638,0.005445996272493002,-0.8072956314435533,0.8731125807662921,-0.0024427908886864667,-0.8092372510831533,0.8699587965961608,-0.023021155732862467,0.652708577577573,1.0124219329839597,0.023986772688273088,0.6595988437456396,0.9805572770163321,0.0,0.0,0.0,0.0
-0.0013121641726514597,0.23629443758044272,0.7341921034133719,-0.00033871861114974366,-0.5230224508052773,0.0016744349682627961,0.852317193004389,-0.001937872942434929,-0.8067366298344361,0.8669467551698852,0.010419073547483476,-0.8106608057552286,0.8763772293218934,-0.02358468290769394,0.6449456248384812,1.0184570836184474,0.0231193434447056,0.6566138022041393,0.9841206396696947,0.0,0.0,0.0,0.0
-0.0013010424342288086,0.2363050831141177,0.7341832190018448,-0.0003546184541492094,-0.5230138545979561,0.0016705143809335036,0.8523224692134093,-0.0019292217303608404,-0.8067532083490766,0.8669515659147659,0.011233503286784855,-0.8106559402552237,0.8763471430016183,-0.023613112945201478,0.6449478332697939,1.0184667681873774,0.023126205446390317,0.6566197414762631,0.9840936196768562,0.0,0.0,0.0,0.0
-0.0013010424342288086,0.2363050831141177,0.7341832190018448,-0.0003546184541492094,-0.5230138545979561,0.0016705143809335036,0.8523224692134093,-0.0019292217303608404,-0.8067532083490766,0.8669515659147659,0.011233503286784855,-0.8106559402552237,0.8763471430016183,-0.023613112945201478,0.6449478332697939,1.0184667681873774,0.023126205446390317,0.6566197414762631,0.9840936196768562,0.0,0.0,0.0,0.0
-0.0013010424342288086,0.2363050831141177,0.7341832190018448,-0.0003546184541492094,-0.5230138545979561,0.0016705143809335036,0.8523224692134093,-0.0019292217303608404,-0.8067532083490766,0.8669515659147659,0.011233503286784855,-0.8106559402552237,0.8763471430016183,-0.023613112945201478,0.6449478332697939,1.0184667681873774,0.023126205446390317,0.6566197414762631,0.9840936196768562,0.0,0.0,0.0,0.0
-0.00116492860469387,0.23605793479936513,0.7340280486544644,-0.00034372782494726273,-0.5229588564131441,0.0012547035079537132,0.8523569334905102,-0.0001645707241687412,-0.807031478027334,0.8674735497047745,0.012999323959389877,-0.8133718953399468,0.8795501610491346,-0.024719740851755406,0.6454116501223173,1.0191838485450169,0.022103811334893045,0.6552118838546307,0.9857122839343743,0.0,0.0,0.0,0.0
-0.0009737165583341257,0.23573792051974876,0.7337897220021211,-0.0002144599902059606,-0.5229369481841403,0.0008797714598497941,0.8523708865470176,0.0015921945409899715,-0.8073930757859339,0.8680934418639462,0.014766146836600278,-0.8167260660458828,0.8836412340697157,-0.025820086647237037,0.6457643328594465,1.020424813817844,0.021122062033251,0.653601016609862,0.9884054094264935,0.0,0.0,0.0,0.0
-0.0007745525561387453,0.23550426482496536,0.7334781732386713,-0.00021975783315777989,-0.5228596209151822,0.0004632276046475378,0.8524186494575966,0.0033340592290911535,-0.8087431236649547,0.8697676578827793,0.01652453067780997,-0.8203237929754355,0.8877129397276463,-0.02693339071094297,0.6455984470572604,1.0225044771748861,0.020126028118454767,0.6515679884942943,0.9913358178203386,0.0,0.0,0.0,0.0
-0.0005244233616383638,0.23567469362995985,0.732965686628662,-0.000863285302167358,-0.5225580448008911,-0.00015514978147718964,0.8526032608903759,0.005033399558082982,-0.8140799658827054,0.8760268395879579,0.018244660818416872,-0.8245374969576539,0.8915447864362532,-0.028105872401932158,0.6438224725107106,1.0272826416994734,0.019069832338193163,0.6483753782457228,0.9941355188633105,0.0,0.0,0.0,0.0
-0.0001954576232611544,0.2364936409039617,0.7324316848810142,-0.0025321958461515808,-0.5219693260012881,-0.0010948475547973722,0.852959795070547,0.006652035650780243,-0.8243488830165004,0.8886329085490917,0.019879026900239474,-0.8283224770234244,0.8941131443511179,-0.029361441800286485,0.6410851413762738,1.0338119677114221,0.017953517015706646,0.6449869000610182,0.9941098251924476,0.0,0.0,0.0,0.0
0.0011323325251506337,0.23744847265316624,0.732609089935644,-0.0014673615141269074,-0.5226616306430496,0.0008604041805066767,0.8525385190173999,0.019407960668885244,-0.8164985038429674,0.8755475983552354,0.011374951913259301,-0.8274397779712886,0.9000862435418975,-0.03041188606498041,0.6450841539124996,1.0339425389802621,0.017464273799740998,0.6543502482350105,0.9913780081406159,0.0,0.0,0.0,0.0
0.0025637824231084143,0.23903499362512715,0.7326451033124907,-0.0013080395371096519,-0.5230689474304216,0.0025811733892617083,0.8522854585234543,0.03239943547395012,-0.815905874728661,0.870410895965474,0.0025107829469252427,-0.8265161405108759,0.9051205955033432,-0.03156158576872464,0.6476267787463521,1.036686756482995,0.016959947038541485,0.6632113191220321,0.9868341022780368,0.0,0.0,0.0,0.0
0.004052799132759922,0.241023694758914,0.7324256445884821,-0.0017691191451605444,-0.5232512102475774,0.004115986766733629,0.852166708951266,0.045407892191431945,-0.8173376228094437,0.8659949981889041,-0.006468972918299563,-0.8261498144574236,0.9097353604984072,-0.032784216940960335,0.64842033009638,1.0424419307829558,0.016438278548480827,0.670780231181795,0.9825061932024106,0.0,0.0,0.0,0.0
0.0057388311847063524,0.24316133919955238,0.7320651068479199,-0.0024593463416920595,-0.5233799677038657,0.005591540062521409,0.852077517425264,0.05841634282876784,-0.8192091612210418,0.8619399501963176,-0.01554113127701833,-0.8266558918219943,0.915575829035035,-0.03405345317755621,0.6490486005933649,1.0494947876247802,0.01599644437781803,0.6783204776276083,0.9785191100685577,0.0,0.0,0.0,0.0
0.007699553924249458,0.2453517823437539,0.7315718547256217,-0.003222693286992592,-0.5235510532503487,0.007064288018374869,0.8519589219693764,0.07143327300179572,-0.821160842118458,0.85830834139554,-0.024732312262068165,-0.8281871930505703,0.9233512342865181,-0.035366754348977944,0.6501282409897544,1.057500932146291,0.01570838725620656,0.6863370572763872,0.975251070366727,0.0,0.0,0.0,0.0
0.009983008779079101,0.24757412142916196,0.73094160606714,-0.0040192526222245055,-0.5238208911838812,0.008554599443804125,0.8517759907370243,0.08447169263505479,-0.8230014149586885,0.8550715636944977,-0.03408506186429432,-0.830701273559786,0.9332626576375241,-0.03673360254778705,0.6519986202340207,1.0664111257375366,0.015631306874724162,0.6951480509212009,0.9728383528581231,0.0,0.0,0.0,0.0
0.012639053528890377,0.24982755210996832,0.7301707583160795,-0.004839838691580331,-0.5242369064722269,0.010073422268575325,0.8514991297809223,0.09754595707342634,-0.8243512246212708,0.8521293872469656,-0.043646397261498444,-0.8341171271836438,0.9454324222894351,-0.03817394732460207,0.6549969291868909,1.0761890360190733,0.015826752719694807,0.7050922449083993,0.9712849132870113,0.0,0.0,0.0,0.0
0.015680276576369303,0.2521281981059679,0.7292654065976196,-0.005699452040445541,-0.5248517095669432,0.011625261273596412,0.8510952076656385,0.1106701354856365,-0.8247488498882851,0.8495312013680404,-0.053468303800974275,-0.838023099845432,0.9594594115821385,-0.03972046094689712,0.6594237906791255,1.0867813244636866,0.016359964269270427,0.7164961024155007,0.970452348489738,0.0,0.0,0.0,0.0
0.019112782555525922,0.25448644487299166,0.7282420265484693,-0.0066002699660186,-0.5257289494362902,0.013220070153916765,0.8505238020808799,0.12385918079279591,-0.8234970445815357,0.8473017973974352,-0.06360265499686507,-0.8419094235546261,0.9748500730837926,-0.04142264852121014,0.6656669539483987,1.0980193961120746,0.01731570848760172,0.7297749057197087,0.9701200034845798,0.0,0.0,0.0,0.0
0.02291222974316586,0.2569132004306483,0.7271390342612097,-0.007538716396064434,-0.5269338177122485,0.01487134657804284,0.8497427625800942,0.1371297293740034,-0.8198865054357202,0.8452815900835412,-0.07410152016966637,-0.8450610559391982,0.9908202954357116,-0.04335233961000522,0.6741440402689421,1.1095538253323525,0.018795247725929987,0.7453954843382237,0.9698613969997432,0.0,0.0,0.0,0.0
0.02692181574022426,0.2594737978080137,0.726028530712875,-0.008587566912336479,-0.5285131665619544,0.01657546983797183,0.8487198243618634,0.15049735197228511,-0.8140570710393835,0.8429396281972685,-0.08502693537640463,-0.845943068880144,1.0051797097276955,-0.04560615893589863,0.6849281242002184,1.1210326209480694,0.020886747653047884,0.763570766825149,0.9688525258032026,0.0,0.0,0.0,0.0
0.031025768748403536,0.2621950298300597,0.724995242059641,-0.009751897254558084,-0.5305002941026592,0.018351009655192582,0.8474299846604223,0.1639810640428369,-0.8057387605987503,0.8391283759019339,-0.0964239687059105,-0.8434935670260044,1.016528465988894,-0.04831199043425886,0.6982226126795091,1.1318561842433406,0.02372015108938091,0.7846222040603797,0.9662712556080496,0.0,0.0,0.0,0.0
0.03500582177205701,0.265096072719086,0.7241028339897786,-0.011020392984416868,-0.5328827178945138,0.02022123446712639,0.8458756773808137,0.17759765179291925,-0.7944404386276149,0.8323192415920461,-0.10831399701881253,-0.8365881725081231,1.0229320873017371,-0.051617947164422855,0.7136193033201501,1.1417226536713259,0.02741507813996879,0.808265010424722,0.9616454147179296,0.0,0.0,0.0,0.0
0.038558456245282986,0.26812269595543925,0.7232853353525401,-0.012275914551004454,-0.5355873287305372,0.022229725084543402,0.8440979531712476,0.19135809864583925,-0.77920987904958,0.8199867807486501,-0.12065632644088295,-0.8248454208429928,1.0226723056132798,-0.05566340896977936,0.7296312101952857,1.1513863584493789,0.032053865360945816,0.8330013611416208,0.9561511849894732,0.0,0.0,0.0,0.0
0.04140929143220753,0.271143211418838,0.7224117327398156,-0.013300057371144102,-0.5384553855955724,0.024425656569296256,0.8421949260700913,0.20526202666955548,-0.7581192610720889,0.7978024565864706,-0.13333648125458544,-0.8090824927871736,1.0152794958564657,-0.060525100142847045,0.744240904331791,1.1619690968683076,0.037621400912105196,0.856670208289648,0.9518921721235788,0.0,0.0,0.0,0.0
0.04353165290472134,0.2735174890553057,0.7212067745721195,-0.013169794974323166,-0.5412189394961884,0.026927081035004286,0.8403472784140434,0.2192019562731364,-0.7262017658452292,0.756100159278629,-0.14580320117009044,-0.7947795694069202,1.0064535195193047,-0.0661040215586107,0.7553180347525169,1.1741916504303778,0.04384647027867871,0.876318267477302,0.9537937615210941,0.0,0.0,0.0,0.0
0.044700876101261396,0.27479093559377277,0.7201150780960544,-0.01131043817638736,-0.5435857090425382,0.02967747761572614,0.8387525846370592,0.23281563040003228,-0.6766887402519282,0.6805030952718762,-0.15717210930215764,-0.7838503079126038,0.998679452509467,-0.07185223050354461,0.7624708779527216,1.1840522846321648,0.04966016547706369,0.8912675799771861,0.9598050264015466,0.0,0.0,0.0,0.0
0.044698664281096166,0.27491995455298857,0.7200247305561355,-0.011307067153235375,-0.5434273480586924,0.029776018030507757,0.8388517487402264,0.2337595154001899,-0.6765683610514666,0.680501147038455,-0.15778004143128838,-0.784165225550356,0.9984541531742681,-0.07298624407673021,0.7621671875513921,1.1843909112206583,0.050749994022017984,0.8914668695130671,0.9593342627978625,0.0,0.0,0.0,0.0
0.044698664281096166,0.27491995455298857,0.7200247305561355,-0.011307067153235375,-0.5434273480586924,0.029776018030507757,0.8388517487402264,0.2337595154001899,-0.6765683610514666,0.680501147038455,-0.15778004143128838,-0.784165225550356,0.9984541531742681,-0.07298624407673021,0.7621671875513921,1.1843909112206583,0.050749994022017984,0.8914668695130671,0.9593342627978625,0.0,0.0,0.0,0.0
0.041570441980516515,0.27589721948585944,0.7231201811813066,-0.011239274758830181,-0.5361089616627063,0.02876721696126229,0.8435836100566049,0.23519450207417536,-0.6953899421442507,0.6945259968913556,-0.15877738858836218,-0.7998096413323428,1.0020143609269425,-0.08983138026629585,0.7416520071696666,1.1628416649879372,0.06525891900168157,0.8256802620577942,0.9907066575730282,0.0,0.0,0.0,0.0
0.03821145211045159,0.2774095360755671,0.7272855576898816,-0.011361816485438261,-0.5301488234472972,0.027494270611951796,0.8473825577666291,0.2353958311096605,-0.7032002518089993,0.6987929507208077,-0.1594022664566237,-0.8024630726236655,0.9928455509179899,-0.1063157518418906,0.7307933252749522,1.1322842815529175,0.07983396278423244,0.7790698037954856,1.0040469758958135,0.0,0.0,0.0,0.0
0.03513368672521653,0.27908101088009646,0.7312456181753167,-0.011418328165436078,-0.525630736354331,0.02619589899193108,0.8502327479328908,0.23475062680176054,-0.7048830855114168,0.6977189543787462,-0.15995557013156195,-0.7988169759860857,0.9781924095691877,-0.1222410449298021,0.7263724492338229,1.1019597280950988,0.09448462164080919,0.7496014272841697,1.0109942077250138,0.0,0.0,0.0,0.0
0.03242807542358745,0.28074985937318,0.7346665024145195,-0.011359719956827094,-0.5222702272263333,0.024980384169877197,0.8523383993005255,0.23353382684530175,-0.7031616900365398,0.6935893866998595,-0.16058329045782352,-0.7920863150633757,0.9612194215850541,-0.13766743612501262,0.7255261555220324,1.0752048471435551,0.10922453891581742,0.7315817311496643,1.0155875225120352,0.0,0.0,0.0,0.0
0.03006952881259401,0.28237190115380323,0.737580377132917,-0.011203185033698352,-0.5197456634002423,0.023877527003679046,0.8539138116495898,0.2319215994000609,-0.6996691968746224,0.6879926316168109,-0.16135718869579066,-0.7838130896696567,0.9434240228774665,-0.15270657343378352,0.726617054165785,1.0523495359149933,0.12406654547537276,0.7202452149514171,1.0190516859256702,0.0,0.0,0.0,0.0
0.02785461872505051,0.28401376426654024,0.7401603067502178,-0.011044553990310358,-0.517710035948371,0.02284029035649845,0.8551798978237984,0.22998530199742245,-0.6952097388230122,0.6813199928329532,-0.16227952260267928,-0.774160706971282,0.9241611376867981,-0.16750318897757316,0.7282847690771401,1.0324596762065676,0.1390217144303213,0.7119057911640183,1.02137474603995,0.0,0.0,0.0,0.0
0.02560039089223495,0.28570694211882536,0.7425672678769547,-0.010874135948569381,-0.515878584192663,0.02182222397397145,0.8563146793554198,0.22777908011644452,-0.6899297297649541,0.6731946989107838,-0.16332771266763632,-0.7633409228768685,0.9029244939640029,-0.1821761198863849,0.7296741330794132,1.0141870279239054,0.15410133039544507,0.7047746517075792,1.0220747223997693,0.0,0.0,0.0,0.0
0.023136936908443897,0.2875198166351823,0.7449586896681676,-0.010705856980673376,-0.5139954865274762,0.02075458493358306,0.8574749393771967,0.22534149389214508,-0.6840207584273511,0.6634192629853138,-0.16448367590214033,-0.7513198978386634,0.8788908978992769,-0.19682979269786333,0.730204571233264,0.9960242749560414,0.16931633221963782,0.6980920829560804,1.0204765402314004,0.0,0.0,0.0,0.0
0.02031262262367036,0.289547313169228,0.7474891323331421,-0.010562171756926916,-0.5118082635860645,0.019550059722368555,0.8588122827589545,0.22271333064435514,-0.6778311262857903,0.6520944261286952,-0.16573924269736973,-0.7380080025001184,0.8511299728515868,-0.21156086802256,0.7294746870372406,0.9762748312756193,0.1846779279131835,0.6916720650418448,1.015498788155636,0.0,0.0,0.0,0.0
0.01695881030128739,0.29188505428416417,0.7502882840040797,-0.010427530828863744,-0.5090422191869916,0.018106458530613653,0.8604879091802947,0.21994756353792747,-0.671667395275151,0.639102688087118,-0.1670846671274663,-0.7234460374368562,0.8186170812319326,-0.22646608628123863,0.7270101021437233,0.9531417707569836,0.20019779366697155,0.685471297458074,1.005274974873445,0.0,0.0,0.0,0.0
0.012885078120122462,0.2946199724999976,0.7533924486446516,-0.010239462715475278,-0.5054037220518615,0.01631011908083108,0.8626680770464341,0.21712493523072085,-0.6659094734359967,0.6240507659762234,-0.1685183209597887,-0.707990687686944,0.7802880833006598,-0.24163389701270896,0.7220204907057901,0.9252315657121833,0.21588582706626122,0.6774753164148895,0.9905332510095417,0.0,0.0,0.0,0.0
0.007900296517255219,0.2978584489816402,0.7565213917764649,-0.009968606578327021,-0.5006067841832988,0.014040386759733299,0.865503519375964,0.21438929403058749,-0.662077019863961,0.6072883291157819,-0.17011444026988787,-0.69269877658126,0.735132454280893,-0.25712592153880764,0.7124765945576373,0.8937689360300639,0.23176641765842024,0.6653138450190188,0.9702079081963778,0.0,0.0,0.0,0.0
0.0021003745091932946,0.30148322859390464,0.7594654405641911,-0.009308907058790698,-0.4945246125449992,0.011293636591336706,0.8690403935428618,0.21195220946050017,-0.6608901389237763,0.5892652969674484,-0.17194324859601715,-0.6798761881540052,0.6854880799848607,-0.27288356221832394,0.6983067498643325,0.8583604115210003,0.24784291138512898,0.6470274802878496,0.9447697531031972,0.0,0.0,0.0,0.0
-0.00392474696142303,0.30511603745390736,0.7614830824976567,-0.00784128708063394,-0.48723687274941546,0.008263707328251156,0.8731955423566259,0.2102798000654632,-0.6660595312073985,0.575062100409278,-0.17430390428921486,-0.6764164989629415,0.6415382099595853,-0.2886850429057238,0.678711233992229,0.8236473180800217,0.2641310462116209,0.6249720093054115,0.9133736566474555,0.0,0.0,0.0,0.0
-0.009903661142092967,0.3085588624437608,0.7621999768492216,-0.00539190441562981,-0.4787628938551322,0.0050808530146477715,0.8779129818876559,0.209640008167392,-0.6798617881289728,0.5678101812781589,-0.17738521362577783,-0.6868063223491228,0.6103568026901982,-0.3042900631288924,0.6527981993347276,0.7925642198207563,0.28058335390004685,0.5989952101431004,0.8764586266355342,0.0,0.0,0.0,0.0
-0.015516589848415448,0.311615748338123,0.7614632641039679,-0.0017343957758021507,-0.46891714649612104,0.0018758911641058131,0.883238463058289,0.21039939937477256,-0.7052003513093241,0.57194821097233,-0.18146569368822005,-0.7169812860491617,0.6014619572132494,-0.3195238615128703,0.6203375974301372,0.7655556511063273,0.29724671137195485,0.572921359008997,0.8280918376621619,0.0,0.0,0.0,0.0
-0.01970739853518235,0.31371777658187977,0.7596324096884574,0.002995534668813404,-0.459335657620304,-0.0007248072488904043,0.8882574261243318,0.21216974339758557,-0.7362101009169235,0.5855522900113582,-0.1863390577617087,-0.7632406020166096,0.6190696538885825,-0.3335044808222668,0.5891403398802436,0.743451000922425,0.31381577581630204,0.5525094303842073,0.7794383363467303,0.0,0.0,0.0,0.0
-0.01966216848449182,0.31381461331889804,0.7590979243745654,0.003356372256519126,-0.45935268690327513,-0.0008230498552619872,0.8882472439523542,0.21242821157554062,-0.7367643703762538,0.5853370916234799,-0.18664571735092253,-0.7642071212231798,0.6180867940950713,-0.3342143152068138,0.5895076113969069,0.743128232102966,0.31498600892290524,0.5525906560376829,0.7794948089715781,0.0,0.0,0.0,0.0
-0.01966216848449182,0.31381461331889804,0.7590979243745654,0.003356372256519126,-0.45935268690327513,-0.0008230498552619872,0.8882472439523542,0.21242821157554062,-0.7367643703762538,0.5853370916234799,-0.18664571735092253,-0.7642071212231798,0.6180867940950713,-0.3342143152068138,0.5895076113969069,0.743128232102966,0.31498600892290524,0.5525906560376829,0.7794948089715781,0.0,0.0,0.0,0.0
-0.020052493953050813,0.3143367212381413,0.7614445460128576,0.0030180401834448566,-0.4622250222883816,-0.00037609082859649023,0.8867574520462993,0.20795440839772958,-0.7119803255556194,0.5599146671737362,-0.1868570586899985,-0.7304921112883259,0.5811150839505226,-0.33576406897843497,0.6093815457262148,0.7239211867243917,0.31879295185791034,0.5719536023955758,0.7624779920607778,0.0,0.0,0.0,0.0
-0.020322323778495542,0.31513055369822046,0.7630621621404546,0.0023331579326142395,-0.46364542845549594,-3.159113972183879e-05,0.8860177605716383,0.20449322761865701,-0.7009922760166407,0.5497596059603317,-0.188029195820073,-0.7062322815618474,0.5520502974540812,-0.33578421682112314,0.6217671477440221,0.7092418867567646,0.3207090659607138,0.5852900531780056,0.7465983117213948,0.0,0.0,0.0,0.0
-0.020368900017394692,0.31621683935151207,0.7633971932399455,0.0012733971639554667,-0.46357254602803044,0.00019334909091705461,0.8860580317591401,0.20218435265815873,-0.7082648141240845,0.560841614784969,-0.19028638514948715,-0.6956488929167446,0.5365942614475203,-0.33442945433385524,0.6230320230084087,0.7061143946022868,0.32094683555999165,0.5888590620093072,0.7389981706402629,0.0,0.0,0.0,0.0
-0.01988150726845982,0.31777573950429094,0.7624569347502922,-0.0004266261850713356,-0.4618517381634221,0.0002045808421855049,0.8869570159214047,0.2011925035885601,-0.7382015312202179,0.6004514274080125,-0.1937983120490995,-0.701928827274503,0.5407249689953955,-0.3316655483921939,0.613548301819627,0.7144314851147147,0.31949522103596223,0.5831620200396525,0.738931140593056,0.0,0.0,0.0,0.0
-0.018382429406251337,0.32000487650569875,0.7602650369102677,-0.0030867537282969473,-0.4582565992551488,-0.0001563464162046513,0.8888145682572518,0.20197230305959,-0.7937496853964363,0.6728913181035701,-0.19875618879873255,-0.7285293208298577,0.5706912882413929,-0.32775841907826175,0.5945257004419248,0.7329810676418216,0.3164230878756621,0.5694630908296588,0.7444703518424054,0.0,0.0,0.0,0.0
-0.012516193759846061,0.3224846783076538,0.7610487792082333,0.0025193480833982872,-0.4722771690752562,-0.0031292333821036906,0.8814409432026271,0.19492941308223516,-0.7320261954064476,0.6468980554153749,-0.19658072082367253,-0.6841351380802076,0.5490119919913599,-0.31168220626691884,0.625003210872825,0.8074168973276299,0.3052224062560505,0.602092282166741,0.8012254888453009,0.0,0.0,0.0,0.0
-0.005778789321175875,0.32551069843134994,0.7604594754015039,0.006468657601491925,-0.4841118929833842,-0.0062636342767918565,0.8749597696045948,0.19012616185371728,-0.6972174059736684,0.6520610431104834,-0.19656038809673781,-0.6573945801299031,0.5472920895537808,-0.2954146856884824,0.6522758967747808,0.8733190512035576,0.29330034730714344,0.6367423471091566,0.8449640104345935,0.0,0.0,0.0,0.0
0.0012041983441827215,0.32878322756140504,0.7586246191140702,0.008839007095817938,-0.4932865396598395,-0.009187070925811643,0.8697734529587493,0.1870615510789072,-0.6893918215610687,0.6865630958754644,-0.19824750530493176,-0.6491879127982629,0.565281305720221,-0.27941423998265286,0.6729258074473424,0.9222671360981959,0.28103358631575676,0.6667793138267541,0.8806544329867695,0.0,0.0,0.0,0.0
0.008015754822419082,0.33213301737433093,0.7558012562953358,0.009989289454699598,-0.5002310391269493,-0.011806780159629656,0.8657538458086252,0.18516167093813984,-0.6999888922410633,0.7379738754820808,-0.2010277519472172,-0.653767533706723,0.5946007959854237,-0.26370639333776436,0.6892793308667781,0.9582062850812083,0.2684382099538153,0.689875152532525,0.9128602918745743,0.0,0.0,0.0,0.0
0.0139345871818886,0.3352163264452948,0.7528346278002664,0.01042020125272471,-0.5054053802529285,-0.01398185518628735,0.8627058181922708,0.1837508097031621,-0.7158894429636703,0.7876247983576847,-0.20413669962886202,-0.6617000083145931,0.622218086615447,-0.24827223530659684,0.6996964609157981,0.9849021708339097,0.2554949003607275,0.7074166046319369,0.9386060619707736,0.0,0.0,0.0,0.0
0.01879749868044194,0.3379380283851895,0.7500764364479836,0.010454051799830178,-0.5092169836807251,-0.01574238335270806,0.8604306791941155,0.1825529907078651,-0.7323189789715859,0.8304216171642255,-0.20721150595658613,-0.6696202366242555,0.6446115405910865,-0.23308123783774304,0.7063192451691708,1.0057156413735602,0.2422117574009673,0.7199144759041995,0.9587297064466267,0.0,0.0,0.0,0.0
0.022702187391445305,0.3402975334684724,0.74759589096102,0.010323004146892623,-0.5120322155061263,-0.017170546251899847,0.8587325650111811,0.18146986694959102,-0.7476882869941702,0.866039227778238,-0.2100933455187636,-0.6768133097915783,0.6620793837373797,-0.21812527305575777,0.7113121837681479,1.0222490343191926,0.2286641441377787,0.7279747741771431,0.9751023258812713,0.0,0.0,0.0,0.0
0.02584201911680805,0.3423565446637256,0.7453848281410603,0.010137744113501717,-0.514162669427369,-0.018363884776211387,0.8574361452886957,0.180468437139282,-0.7615521907946783,0.8956215825933227,-0.21271634075418458,-0.6830750031360193,0.6755213807672649,-0.2033957688415803,0.715919293747828,1.0351695562644545,0.21492686029915078,0.7326416053870283,0.9889307566365514,0.0,0.0,0.0,0.0
0.028403623148402814,0.344190301633328,0.743335192393208,0.009944704857922865,-0.5158595086801628,-0.019409362911447205,0.8563955550917587,0.17955494693526677,-0.7740009812561296,0.9204655830730603,-0.21506394228405248,-0.6884887520795786,0.6857692532622571,-0.1888843083506801,0.7208135406930848,1.0441367118069111,0.20106442494176668,0.7346284720238844,1.0016423456969945,0.0,0.0,0.0,0.0
0.030561773854887682,0.34587094539426294,0.741312946353997,0.009751253734966783,-0.5173297410853309,-0.02037817951004119,0.8554879203349615,0.17875126774192243,-0.7853306103156461,0.9418103766374855,-0.21714120262706355,-0.6932178382185352,0.6935509906208497,-0.17458290049755573,0.7267019518484651,1.047916177476136,0.18713215374020262,0.7345281079576772,1.0145259239022932,0.0,0.0,0.0,0.0
0.03247553231568685,0.3474686917127061,0.7391926000178627,0.009532769542527766,-0.5187664090575896,-0.02132956961715053,0.8545967403391437,0.17807165875958603,-0.7958040804316322,0.9606981517399461,-0.21895274469355216,-0.6972372044250958,0.6992688518156797,-0.16048161246884882,0.7330620242665962,1.0483440341147887,0.17317764684766215,0.7329575077449253,1.0286190698335649,0.0,0.0,0.0,0.0
0.03430699626665383,0.3490268908013205,0.7368467595726109,0.009283736558837435,-0.5203753584948961,-0.022305988457085,0.8535957716541048,0.177529533538216,-0.8054997436430177,0.9778840327084539,-0.22049641881502524,-0.7005556946997124,0.7034176627927338,-0.1465705188493279,0.7402315009870838,1.0466666017289135,0.1592525653767036,0.7306153635749211,1.0449505685712606,0.0,0.0,0.0,0.0
0.036270227203837796,0.3505209299393538,0.7341520853656816,0.009095223736585875,-0.5224232426959063,-0.023322241976220986,0.8523187815749915,0.1771474212650127,-0.8140224317864689,0.9937325192101912,-0.2217593465388206,-0.7035322739585983,0.7073110937086317,-0.13283947142463737,0.7498377417961287,1.0437738677320023,0.14542881715901362,0.7286333176927625,1.0645848457838596,0.0,0.0,0.0,0.0
0.03852550186763364,0.3519935567328667,0.7309939945693563,0.008921655173905432,-0.5252188463344521,-0.024407546485105916,0.8505703023258233,0.17688392986208915,-0.8209170427051982,1.0084422522187595,-0.22269190218611243,-0.7053242599656473,0.7104724247247528,-0.11927827472044543,0.7648872251452464,1.0398956083375892,0.13175233741628062,0.7282772291801116,1.088263471655769,0.0,0.0,0.0,0.0
0.04109929950781466,0.35341539298329855,0.7274105357814171,0.008793115075425998,-0.5291421910192362,-0.025552961375405442,0.8481027467091351,0.17659516319247592,-0.824034190601909,1.0200931686459715,-0.22310428209182134,-0.7038084371840286,0.7108553537170756,-0.10587499626124972,0.789658021578925,1.0346634860862398,0.11821998802787681,0.7313987574725198,1.1156258887592807,0.0,0.0,0.0,0.0
0.04398923618309176,0.3547330916102761,0.7238004164588459,0.008728046498584727,-0.534651546597499,-0.026741307166245377,0.8446043141117984,0.1760331127099365,-0.8195891343230874,1.0257270295204832,-0.2226633086801579,-0.6951622988651754,0.705187955153673,-0.0926165276522125,0.8299828495573918,1.0260757372128357,0.10471322240313552,0.7416283635574265,1.1432583376139112,0.0,0.0,0.0,0.0
0.046731124421407075,0.35579038680533365,0.7213468766732036,0.00878875315859411,-0.5420859946526122,-0.02790212997288099,0.8398136718120168,0.1747208344444419,-0.7998722804697062,1.017874609941188,-0.22069633231204297,-0.6716065997207116,0.6854287773846023,-0.07949297735642445,0.8892301959344142,1.0057296402789329,0.09082506533106495,0.7635996451552863,1.162233442670458,0.0,0.0,0.0,0.0
0.04673523951207525,0.3557047008859457,0.7211036386916874,0.008702196005742258,-0.5421728151742506,-0.027817478280079022,0.8397613340544103,0.17483465236607276,-0.8002726584185471,1.0176638644172966,-0.22070118278035247,-0.671708267788439,0.6852968608063974,-0.07878530076320991,0.8893084189572031,1.0057801837559992,0.08993936221330398,0.7638924204997573,1.1622634467795228,0.0,0.0,0.0,0.0
0.04673523951207525,0.3557047008859457,0.7211036386916874,0.008702196005742258,-0.5421728151742506,-0.027817478280079022,0.8397613340544103,0.17483465236607276,-0.8002726584185471,1.0176638644172966,-0.22070118278035247,-0.671708267788439,0.6852968608063974,-0.07878530076320991,0.8893084189572031,1.0057801837559992,0.08993936221330398,0.7638924204997573,1.1622634467795228,0.0,0.0,0.0,0.0
0.0456803298989307,0.35679940936910587,0.721986370003597,0.011152385333493406,-0.5401489642267482,-0.02489378021636269,0.8411272320241949,0.16292621546945096,-0.8091434589406415,1.023137244810437,-0.20597098407394288,-0.7261608105690579,0.7689845094780262,-0.07029327148309256,0.8734912089183091,1.0012748432610608,0.08096218629118268,0.7579359263083857,1.152704113738027,0.0,0.0,0.0,0.0
0.04379417521611354,0.35921359673342534,0.7232303893205911,0.011320624828419109,-0.537719894364282,-0.022420783559859735,0.8427493501171754,0.15026836635828672,-0.8226109121779408,1.0324438345071567,-0.19094696268393352,-0.7594343402703109,0.8138520062596071,-0.06300815620596603,0.8551889031205213,0.9991678343116517,0.07314642886783321,0.7492805918777213,1.1384665531862759,0.0,0.0,0.0,0.0
0.04114530842880709,0.36237442704288086,0.7242247951158093,0.010136035676453378,-0.5351093929435664,-0.02031125920123385,0.8444777386728402,0.1374442037906994,-0.8381484147442659,1.0411563285556775,-0.17601252615887808,-0.7812760598900774,0.8380180504179671,-0.057039072545723504,0.833252083136918,1.0026613627294425,0.06661530306324463,0.7371501864375603,1.1250850279652425,0.0,0.0,0.0,0.0
0.03764577787102241,0.3655349834156994,0.7251820705663332,0.008731278506675225,-0.5327027884886152,-0.01840939752971737,0.8460570890871876,0.12489476974932243,-0.848685787704217,1.041175758464728,-0.1612581528878314,-0.7961092591728577,0.8506181829878946,-0.05223302966194667,0.8099507103760581,1.0077110103899667,0.06120104546254018,0.7234099808816585,1.1128440008870812,0.0,0.0,0.0,0.0
0.033530505848086804,0.3684950906339809,0.7262635780349433,0.007438645378320118,-0.5306463799997266,-0.016628538227034504,0.8473975322506865,0.1127741370431285,-0.8529026196964298,1.0322950485613431,-0.14670145750047742,-0.8064448015490971,0.856803970213196,-0.04841037960930241,0.7873610256276643,1.0117129646844865,0.056712736268012334,0.7099935701128288,1.1005433093333945,0.0,0.0,0.0,0.0
0.029118930469819858,0.37125273279622617,0.727482347274249,0.006302880195263696,-0.5289551973322805,-0.014921567386822928,0.8484951500999477,0.10112119762063201,-0.851930641390248,1.0169639968313702,-0.13233259948698228,-0.8138197712973463,0.8594490515555716,-0.045404295057421426,0.7666121653309751,1.013910758847671,0.05297359134287033,0.6980728728428527,1.0875645233811584,0.0,0.0,0.0,0.0
0.024670145934860745,0.37384458134351367,0.7287667328903212,0.005303088163948116,-0.527598085003132,-0.013263594836623826,0.8493740136176542,0.08993413266982267,-0.8473621814402714,0.9976729458892059,-0.11813506325109349,-0.8191493734629208,0.8602562799707363,-0.04306928666880787,0.7480289535602567,1.0146441320280217,0.0498321048457129,0.6880483688450016,1.0740650094175133,0.0,0.0,0.0,0.0
0.020367218086996194,0.37630686641266853,0.7300415194270001,0.004407852595632086,-0.5265314485400713,-0.011642497846794005,0.8500645015395459,0.07919041050217884,-0.8406082176908568,0.9764375292640001,-0.10409047422529423,-0.8228437898652533,0.8603594450094626,-0.04128390824926029,0.7315838266573814,1.0144978337492085,0.047165373293319934,0.6799462320309182,1.060424099350126,0.0,0.0,0.0,0.0
0.016360264622739786,0.3786870141198431,0.7312392006807596,0.0035622885531057555,-0.5256932756374814,-0.010057680744650853,0.8506072731336349,0.06885022448349246,-0.8331448100645938,0.9552931758528489,-0.09018049629972635,-0.8248631949048041,0.8605047598582088,-0.03995384971333479,0.7170918802928365,1.0141000668662152,0.04488093850898828,0.673635430101873,1.0469885278741162,0.0,0.0,0.0,0.0
0.012734956873861947,0.3810188073856017,0.7323324620488325,0.0027245901835197183,-0.5250383500295274,-0.008512678579432676,0.8510316339067583,0.058870148972042007,-0.8259530368853306,0.9356396294152665,-0.07638727850347639,-0.8251492308050924,0.8612485798114599,-0.039001994014805114,0.7043963792650251,1.0138136018636332,0.04290761764692763,0.668992219710349,1.0339149349130172,0.0,0.0,0.0,0.0
0.009498262876306573,0.38331288486435217,0.7333235790724603,0.0018841788737349776,-0.5245358007743891,-0.00700754197838407,0.8513574677721241,0.04921208275848854,-0.8194028548679043,0.9179757986903643,-0.06269319477930459,-0.8242055611058585,0.8625654830096668,-0.038354848198316804,0.6932963055107267,1.0137687050140591,0.04118133799910063,0.6658254852006389,1.0212619538701313,0.0,0.0,0.0,0.0
