zhuoxili-jackie/tripod-support-walk/examples/trajectory_trot_sideways_left_v0.20.csv
root_pos_x,root_pos_y,root_pos_z,root_rot_x,root_rot_y,root_rot_z,root_rot_w,FL_hip_joint,FL_thigh_joint,FL_calf_joint,FR_hip_joint,FR_thigh_joint,FR_calf_joint,RL_hip_joint,RL_thigh_joint,RL_calf_joint,RR_hip_joint,RR_thigh_joint,RR_calf_joint,FL_foot_joint,FR_foot_joint,RL_foot_joint,RR_foot_joint
0.0,0.0,0.745913,0.00590261038931276,-0.5534150365010598,0.008528410562500121,0.8328410549308913,-2.4067e-06,0.349062,-0.872669,9.86e-07,0.349071,-0.872662,3.27e-06,0.610866,0.872669,-2.38753e-06,0.610854,0.872668,0.0,0.0,0.0,0.0
0.0009238076891205911,0.00022508209394484364,0.7459006741176272,0.00597474276911511,-0.5537233723111097,0.008316398281997837,0.8326377164919148,-6.432512553997233e-05,0.35494131388468153,-0.8804833871438875,-6.0932038781962544e-05,0.35405702964010505,-0.8795652365291199,-0.0023339042554730437,0.6135177816870017,0.8756044578576708,-0.0023395361954422467,0.612849756064576,0.8735251137062886,0.0,0.0,0.0,0.0
0.0026310496560915672,0.0006482819311477183,0.7458104931004745,0.005982368990804782,-0.5540248787241862,0.008228006742658086,0.8324379525952378,-0.0008057781985593647,0.36588447641452126,-0.8971844209097761,-0.0008020700600751877,0.3634266908866921,-0.893542569515982,-0.00480278360058128,0.6169201570224195,0.8804571052332099,-0.004792994417071178,0.6162351931822203,0.8752529231385471,0.0,0.0,0.0,0.0
0.005057681673874169,0.0013387998625717906,0.7456948718628545,0.005916184480417794,-0.5543368809380083,0.008261063026086882,0.8322303623581593,-0.002395458289530028,0.3814464542839486,-0.9217229893850027,-0.002390077129364429,0.3765117943560807,-0.9131054844565676,-0.007763970709571839,0.6213649469214934,0.8868110165238857,-0.007721303227528608,0.6213328387933252,0.8769185184716207,0.0,0.0,0.0,0.0
0.008189534042620765,0.0024708308707776495,0.7458107578505009,0.005729542151978009,-0.5547326735755561,0.008470871142856199,0.8319657910975218,-0.005372624783903086,0.40175794760133415,-0.953040043330652,-0.005359629652690326,0.3928739475692171,-0.935833365989075,-0.011698407236737492,0.6284105750160943,0.8926442348527859,-0.011590345715285388,0.6300703782710455,0.8753368484833389,0.0,0.0,0.0,0.0
0.012211545544075896,0.0044614046545027744,0.7472030015950964,0.005243369870178157,-0.5556122897800031,0.00912587872507357,0.8313748906812868,-0.011272743279849357,0.42905413022747285,-0.9892308587926987,-0.011227935622517473,0.413374016990712,-0.956000076008836,-0.01670747343260866,0.6447119135576617,0.8895923990038656,-0.016473442783044474,0.6507191769184683,0.8595787780509704,0.0,0.0,0.0,0.0
0.015602089221328755,0.006257838037887561,0.7481506775694063,0.00500560459492097,-0.5552293379910429,0.009183031393389364,0.8316315278361539,-0.00608750472433615,0.4028191808917736,-0.9567706340509851,-0.015519894605456018,0.43047659527673604,-0.9795441160092441,-0.02525110528972456,0.6562057782636228,0.8864061070280488,-0.012189365268416123,0.640354580380781,0.8827081039195311,0.0,0.0,0.0,0.0
0.019081329985973478,0.008206435968503014,0.749192061741792,0.004749665537368245,-0.5549508265381659,0.009324293949710327,0.8318173347221306,-0.0017418052321852588,0.3826387214553003,-0.9413235485898107,-0.020432666893072576,0.4474862012258717,-1.0015797924734746,-0.034480676414892004,0.6686827044756494,0.8827543311642392,-0.008112328742786307,0.6328059328480111,0.9018882214047895,0.0,0.0,0.0,0.0
0.022394980934870624,0.010255827518716402,0.7503028580073926,0.004448665397077013,-0.5548334390044848,0.0095612500414412,0.8318946128184065,0.001926127008387748,0.3681879370654127,-0.9370439506505978,-0.025843936511541696,0.4630636659731567,-1.0198244647618502,-0.04393765636275401,0.6815919966049462,0.8786527669532753,-0.00561747032826001,0.6272154362859745,0.9187988696080746,0.0,0.0,0.0,0.0
0.025358932451587653,0.012353353008058789,0.7514432793366775,0.00413640459435939,-0.5548005288970951,0.009826615742104266,0.8319150803511091,0.004984007195453296,0.3575188170471773,-0.9387986383951507,-0.03148089467971224,0.476389431316228,-1.0337641049389534,-0.05382624970431722,0.6942769195048138,0.8741489249088562,-0.0046155895294083425,0.6226456646323955,0.9342385823240436,0.0,0.0,0.0,0.0
0.02789212656649927,0.014456880878122422,0.7525793627827463,0.0038364024650530235,-0.5547971450000118,0.010085389824730229,0.8319156777150226,0.007514083702686604,0.34916157518549423,-0.943685048685227,-0.03715763604082593,0.4871839084550501,-1.0435525265327328,-0.0641618861626996,0.7062646970968345,0.8694003819527947,-0.004576521843611094,0.6185515121496464,0.9486779022265093,0.0,0.0,0.0,0.0
0.02998492495348141,0.01652902568203747,0.7536919881459982,0.0035595767392682014,-0.5547965905704639,0.010322114186176474,0.8319143744782596,0.009642727161875354,0.3420802565091959,-0.9500928822903193,-0.04273517659737326,0.4955224218222361,-1.0496417513822416,-0.07479349339881047,0.7173271968082642,0.8645161102135545,-0.005045424169584102,0.6146027320220513,0.9624395749250448,0.0,0.0,0.0,0.0
0.03167122840130914,0.01853771398331614,0.7547727134297596,0.003309239891869944,-0.5547890900367515,0.010532360563899525,0.8319177747160372,0.011517235386501061,0.3355751952031258,-0.9571401655804017,-0.048110309252046485,0.501684037935596,-1.052624737697114,-0.08548821467045338,0.7274142789869367,0.8595377843236517,-0.005713970648192957,0.6105962141913669,0.9757613321913063,0.0,0.0,0.0,0.0
0.033007220309865866,0.020457798133549466,0.7558184408844916,0.0030849796016159986,-0.5547731390369495,0.010717109616644365,0.8319269142571432,0.013278123741318374,0.32919555109799653,-0.9643538504865633,-0.053211343334943956,0.506039008294635,-1.0531363080630933,-0.0960062617917075,0.7365796249870867,0.8544701357016226,-0.006385185552091694,0.6064163701847114,0.988822982204614,0.0,0.0,0.0,0.0
0.03405660482599705,0.022271742227041764,0.7568279579564334,0.002884843487762834,-0.5547504736505463,0.010879567997877388,0.8319406377036316,0.015041787010903479,0.32266292111864214,-0.9714915881077145,-0.057994492434388485,0.5089739318361964,-1.0517876607693224,-0.10614629380542383,0.7449251309172101,0.8493103907333057,-0.006933713212837528,0.6020129209308527,1.0017593509345961,0.0,0.0,0.0,0.0
0.034881336137325886,0.02396911852077851,0.7578001455636365,0.002706408118738632,-0.5547235708169845,0.011023492969302216,0.8319572813179198,0.016894523586608153,0.3158101432966813,-0.9784417397180525,-0.06243891168871499,0.5108476108339512,-1.0491273540398571,-0.11576358207637336,0.7525648450378563,0.8440660925387016,-0.007281008982757428,0.5973870246298508,1.0146655351780633,0.0,0.0,0.0,0.0
0.035536507262463816,0.025545212796325677,0.758732901418992,0.002547303146286659,-0.5546945466980023,0.011152328358570456,0.8319754183161671,0.018894244657221032,0.30854207322454025,-0.9851631578662757,-0.06654050545465504,0.5119690263874646,-1.0456243818520872,-0.12476959123965509,0.7596020963077749,0.838765424423912,-0.007381211822647858,0.5925839127264095,1.0275952993718631,0.0,0.0,0.0,0.0
0.036068035526740656,0.02699912940947827,0.7596219373054974,0.002405546681194406,-0.5546646544339194,0.011268730088345863,0.8319942008145617,0.021075900201235807,0.3008270657211682,-0.9916395402473457,-0.07030527754840382,0.512589418525585,-1.0416685840515085,-0.13312166487517826,0.7661126569679578,0.8334674169554286,-0.007209957137422074,0.5876913833666265,1.0405493798129617,0.0,0.0,0.0,0.0
0.03651185800131876,0.028331749266991123,0.7604588920822619,0.0022798969828543704,-0.5546339293404003,0.011374241830110444,0.8320136015216131,0.023457856947472457,0.2927292511404129,-0.9978304494707734,-0.07374301203400964,0.5129013353375949,-1.0375824499795003,-0.1408096535801525,0.7721278716949826,0.8282786649048045,-0.006748618855251299,0.5828432283984722,1.0534457986267025,0.0,0.0,0.0,0.0
0.03689347126849204,0.029543885159824302,0.7612285107299035,0.0021703464255628338,-0.5546008169576175,0.011468991863220859,0.8320346661359594,0.026047835703747853,0.28448873888882686,-1.003607455773329,-0.07686201733823471,0.5130382092358703,-1.0336367777176352,-0.1478445545362972,0.777613527855614,0.8233809692253877,-0.005955357329314308,0.5782280605764116,1.0660583970926412,0.0,0.0,0.0,0.0
0.037226950253519436,0.030635086357646477,0.7619051425318079,0.0020788075984629144,-0.5545618948852099,0.011551400757724414,0.8320597024497871,0.02884779800622398,0.2766409564498184,-1.0086750900661212,-0.07966593916780024,0.5130693508054542,-1.0300610020130103,-0.15425315502742326,0.7824441360708723,0.8190695183595992,-0.004713042308465416,0.57411095721067,1.0779032940882585,0.0,0.0,0.0,0.0
0.037513472145360875,0.03160378006752526,0.7624500317847095,0.0020097853784068684,-0.5545121534894003,0.011618133711484891,0.8320920930788506,0.03185666138877748,0.2701229795952225,-1.0124975458393868,-0.08215438406057718,0.5129898297831038,-1.027038466557091,-0.16008107063089547,0.7863823554148396,0.8157879625095931,-0.00275045744677818,0.5708927714083676,1.0880485556461845,0.0,0.0,0.0,0.0
0.037741572509894905,0.032449531519223626,0.762814066423356,0.001969965058112684,-0.5544470812269906,0.011665210403956162,0.8321348906413983,0.03506781492088887,0.26622692064661474,-1.0142827121112565,-0.08432984887300199,0.5127177210440655,-1.0246779372932733,-0.16539834193665084,0.7890988685013601,0.8141100010794738,0.0004299908946268924,0.569260910719473,1.094830104866593,0.0,0.0,0.0,0.0
0.037895263644829036,0.03317690630283905,0.762957867501625,0.0019629761996443483,-0.5543703437988259,0.011693591303039453,0.8321856334756379,0.03845599098740143,0.26613847868251556,-1.0131268943915803,-0.08621258758061194,0.5121382741468692,-1.0229467591515005,-0.1702629200579249,0.7903211571755153,0.8145325795079082,0.005466274584488097,0.5704543154297171,1.0956055894582968,0.0,0.0,0.0,0.0
0.037964926324000545,0.03379468412224624,0.762882509933244,0.001987664635529684,-0.554282278656029,0.011703582235897821,0.8322440933524398,0.04197838600152333,0.26983814608256396,-1.0090086389537392,-0.08782377551476649,0.5111880953442267,-1.0217350356299304,-0.17471455593822288,0.7900286844725641,0.8170827077747593,0.012304286262950596,0.5744317706322442,1.090333283088762,0.0,0.0,0.0,0.0
0.03794890619078372,0.034317274116987345,0.7626308918458328,0.002038298453269673,-0.5541791747091444,0.011694588704746758,0.8323127562720241,0.045573873028994724,0.2761220849256365,-1.0028255043107337,-0.08918875170195845,0.5098610236055401,-1.0208617397602786,-0.17878396489319937,0.7884654793462053,0.8212988475732266,0.020220626345231522,0.5798926049954192,1.0815754972657403,0.0,0.0,0.0,0.0
0.03784294820345331,0.034766206915439406,0.7622582163000278,0.0021068213642891935,-0.5540641977182537,0.011670330640323863,0.8323894698356727,0.049170947970229854,0.28369327044317705,-0.9953775897760311,-0.090354683910142,0.508123612965708,-1.020008317619291,-0.18250836731091566,0.7859530205980751,0.8266104005912053,0.02865256203941376,0.5861093042130622,1.0709330033368392,0.0,0.0,0.0,0.0
0.03763126826292513,0.035166053889588704,0.761811726441618,0.002187840416012162,-0.5539401759546095,0.011633658339686404,0.8324723135404118,0.0527045842832921,0.29161445307473044,-0.9872026050718585,-0.09137546478520185,0.5058674146948836,-1.0187776244935114,-0.18596155154918445,0.7827351135433486,0.8325530515091408,0.037271024457057454,0.5926542068376417,1.0592911185516625,0.0,0.0,0.0,0.0
0.03728622237709236,0.03554232646306661,0.761327392434635,0.0022787021515754432,-0.5538077432439587,0.011585867830540511,0.8325608438463529,0.056116319734964906,0.29935430450928197,-0.9785960257673958,-0.09230578174687704,0.5029111546335449,-1.0167209837960478,-0.18924123405848017,0.7789515693879252,0.838797210713824,0.04590366034795361,0.5992424844574211,1.0471015232055043,0.0,0.0,0.0,0.0
0.036770743992988776,0.035921524028888506,0.7608321412671595,0.0023787203386357683,-0.5536649640290452,0.01152694894907925,0.8326563389203206,0.05935265455496963,0.306680642764601,-0.9696913799279684,-0.09320128170674402,0.4990145504349392,-1.0133494305167248,-0.1924614477079715,0.7746568904273896,0.8451177790054016,0.054460605917027866,0.6056675469970951,1.0345747532333271,0.0,0.0,0.0,0.0
0.0360414348256659,0.036331867081752116,0.7603469430030244,0.0024886454295211277,-0.5535073717250147,0.011455863275923945,0.8327617662252487,0.06237084240208997,0.31353989304232344,-0.9605418187658691,-0.09412052118100597,0.49389305000930417,-1.0081403479182094,-0.19575181058790775,0.7698480842464204,0.851356046409777,0.06289506978669487,0.6117747610631957,1.0218018906787074,0.0,0.0,0.0,0.0
0.0350525372784219,0.03680337182207932,0.7598890247636814,0.0026105785126116802,-0.5533280445608108,0.011370600149850967,0.8328817259578764,0.06515458853459005,0.3199761815947468,-0.9511805784304216,-0.0951252679364086,0.4872367073062421,-1.0005546608699925,-0.19925744700742576,0.7644905652633365,0.8573895015109954,0.07119765138271196,0.6174497258654116,1.008832719632109,0.0,0.0,0.0,0.0
0.03376207304833774,0.03736612061828579,0.7594725994542056,0.002748370283754017,-0.5531175670565263,0.011267850660867705,0.8330224720952831,0.06773814658077043,0.3260990784669586,-0.9416577200313743,-0.09627631191711263,0.478742509587978,-0.9900833639140773,-0.20313409066038657,0.7585415972394238,0.8631126079708298,0.07942472876944262,0.6226177743517113,0.9957360227655516,0.0,0.0,0.0,0.0
0.03214190488523944,0.03804552594852242,0.7591078148687439,0.0029086786839528297,-0.5528637639801175,0.0111419903929237,0.8331920871660594,0.07023377058365918,0.33209031196730765,-0.9320582945019603,-0.09762176933094109,0.46817356995476006,-0.9763482129781131,-0.20753562557357585,0.7519744874249924,0.868428618389394,0.08777775668996046,0.6272638185708882,0.9826656955644945,0.0,0.0,0.0,0.0
0.030193813484742395,0.03885315386076872,0.7587974296787295,0.0031032164986236057,-0.5525509143717301,0.010982690316867705,0.8334010064715133,0.07285213886022178,0.33823060962594875,-0.9225096496837915,-0.09917420763642983,0.4554641113093235,-0.9592942758503238,-0.21259619613221942,0.7448066775119637,0.873255680564131,0.09678215539053991,0.6314929543484779,0.969956774262121,0.0,0.0,0.0,0.0
0.027974011223509076,0.03977144325578804,0.758529767359181,0.003353371868071412,-0.5521575375512374,0.010769796217544722,0.8336634933304329,0.0758985516824404,0.344914328063597,-0.9131871950946867,-0.10087217026364342,0.4408976947261225,-0.9395365713945335,-0.21841764493635923,0.7371297264888765,0.8775618585305206,0.10766858299071579,0.6356676991787855,0.9582755345079357,0.0,0.0,0.0,0.0
0.025628318244769712,0.040730402682738344,0.7582635817873947,0.003699676171368517,-0.5516475177685968,0.010462242153496122,0.8340035191922719,0.0797321266095357,0.3525635146890004,-0.9042990935256342,-0.10251938397215118,0.42539672842514475,-0.9189792868464831,-0.2250842579420827,0.7291129768082909,0.8814662164563083,0.1231230206358698,0.6406714936450998,0.9488114283086457,0.0,0.0,0.0,0.0
0.023534151055127524,0.04151872323207604,0.7579141422408995,0.004227888191558389,-0.5508637029505254,0.00997127354138252,0.8345249423696322,0.08508843613447553,0.36102909605907585,-0.8957405740638797,-0.10358306180877132,0.4117256463543382,-0.9034255969964881,-0.23236527024995346,0.7210268102153826,0.8849261930115091,0.14878146126700634,0.6484866600945217,0.9429452952784927,0.0,0.0,0.0,0.0
0.02185081218591209,0.04207451652060029,0.7576114955937836,0.00495456081147515,-0.5498315780305288,0.009261297556733484,0.8352095045527137,0.09155520583637981,0.3696074448353387,-0.8891159614582677,-0.10386635976986215,0.40120367235198373,-0.8945295477863544,-0.24030008950559295,0.7141309244058283,0.8865613558381874,0.18789539861121762,0.6581897957422301,0.9427394844741078,0.0,0.0,0.0,0.0
0.020811017754391068,0.04231352847201523,0.75747298134844,0.00570836104977105,-0.5486744702241212,0.008442293106850882,0.8359739637246506,0.09751828253904139,0.3764072742447626,-0.8873075092940733,-0.10327109852828296,0.3954473086624888,-0.8935252309148582,-0.2471203924568368,0.7095948277810346,0.8853305007010669,0.23353304055556667,0.6654003997018489,0.9497686434555187,0.0,0.0,0.0,0.0
0.02079697328503759,0.04230342688555398,0.7574550927269498,0.005755463577491631,-0.5486676758957039,0.008430914590682681,0.8359782148748731,0.09755245601598721,0.3764273403135741,-0.8873069197175788,-0.10325301110192486,0.39533921739153416,-0.8935055969572033,-0.24714049432127294,0.7095168084567901,0.8852712016945743,0.23354284075263831,0.6654261935184451,0.9497806530973877,0.0,0.0,0.0,0.0
0.02079697328503759,0.04230342688555398,0.7574550927269498,0.005755463577491631,-0.5486676758957039,0.008430914590682681,0.8359782148748731,0.09755245601598721,0.3764273403135741,-0.8873069197175788,-0.10325301110192486,0.39533921739153416,-0.8935055969572033,-0.24714049432127294,0.7095168084567901,0.8852712016945743,0.23354284075263831,0.6654261935184451,0.9497806530973877,0.0,0.0,0.0,0.0
0.021251896574075668,0.042206708442050496,0.7573762412000984,0.005907681351861506,-0.5493361580651407,0.008357428469647703,0.8355387711726191,0.09782895296219216,0.3781599671825066,-0.8868777084045805,-0.10295955351872586,0.3976655585194153,-0.8948035281028861,-0.25002311644105624,0.7125612296814204,0.8878764749584009,0.2351613077599629,0.6679814906202993,0.9528451217991571,0.0,0.0,0.0,0.0
0.022220125502120065,0.041994232389116835,0.7572363198984309,0.0059254951197642595,-0.5500874725185331,0.00845690430827799,0.8350431975983508,0.09823012007454128,0.3824983754215374,-0.8908498748996255,-0.10274944007313179,0.4031847280079134,-0.9006092871870008,-0.25140050387629387,0.7164341938165203,0.8911209467574037,0.24042227862074325,0.6723740608564361,0.9573383417592202,0.0,0.0,0.0,0.0
0.023831215133993812,0.04171052955664545,0.7571149500569647,0.005541620951610378,-0.5514568549225326,0.009227270854247136,0.8341339730935072,0.0976722470830562,0.38989190645889005,-0.8984531909058738,-0.10354859224335268,0.4121019445987004,-0.9071800021911886,-0.24825580852303175,0.722360975529413,0.895455095897738,0.2554621008922543,0.6824436808145667,0.9640799139050842,0.0,0.0,0.0,0.0
0.026127131122389156,0.04156827482745237,0.7571243790000834,0.0044823516820662775,-0.5539690610397106,0.011182176886178091,0.8324500867044617,0.09462403681227749,0.4007223483233384,-0.9088749024859771,-0.10668284279449936,0.4237555501786038,-0.9091693205072217,-0.23790613656103143,0.7314559601854246,0.9011536026289889,0.28691922008271,0.7025557535074092,0.9728246292583297,0.0,0.0,0.0,0.0
0.02885363007871956,0.04197881523055008,0.7573401797485192,0.0032772769907937977,-0.5568507833939724,0.013602701878556115,0.8304946905252603,0.0893759451947717,0.41516316153426475,-0.9238079253608721,-0.11199308408071003,0.436365176653198,-0.9086745375186887,-0.22749005624714452,0.7431068257008508,0.9062030779268428,0.3258153792146904,0.7292374305804862,0.9786769549548558,0.0,0.0,0.0,0.0
0.029606194685307497,0.044804518696203256,0.7588226214931608,0.007127887646355653,-0.5500123908285592,0.0064767201549888265,0.8351009611111623,0.09666236976340398,0.4330813993203219,-0.9614577147047432,-0.09669974197345545,0.3963978417427322,-0.902469046778649,-0.2053065534039642,0.692659530152553,0.9080706320341398,0.19987389678016415,0.6905829848340793,0.9371921400351451,0.0,0.0,0.0,0.0
0.03140307384718265,0.046293368018028684,0.7600700300651329,0.007850178995936099,-0.550992792565648,0.0061582259523133955,0.8344503541155464,0.09338125890250847,0.4465312553904805,-0.9721528539871885,-0.08531739387081161,0.38706118123781225,-0.9023852239046357,-0.15526769950373004,0.6781249135072489,0.9175317663282456,0.20254621951633128,0.707747201790249,0.919574060019042,0.0,0.0,0.0,0.0
0.03328112499738064,0.04772175242245295,0.7607748431304494,0.007952754615841575,-0.552318102415177,0.0065892167880440885,0.8335694630087155,0.08901919366063368,0.4596682060575563,-0.9851891668001269,-0.07551391489624054,0.38042707223219335,-0.9092079275484779,-0.11678433689302412,0.6690712878889433,0.9292073717415529,0.20792236463730202,0.7236059505019119,0.9104095959721458,0.0,0.0,0.0,0.0
0.03483539573851809,0.0491571175381495,0.7609686186628687,0.008080528416497219,-0.5530601886884945,0.006731851679663548,0.8330749155516087,0.08531144107439516,0.4710411214076628,-0.9996133185114425,-0.06700362790546271,0.3724319023111971,-0.9187346764620126,-0.09214566077677475,0.6613112018410626,0.9406371807123117,0.20618468326034511,0.7323956646166813,0.9054007409117427,0.0,0.0,0.0,0.0
0.036032571846126765,0.05063441691995259,0.7611045497263099,0.008289130695821448,-0.5533905395615907,0.0066163504221696855,0.8328543839970647,0.08196873584423713,0.48075492959101684,-1.0130231309161066,-0.05968233327271184,0.3642572498087424,-0.9287798792617895,-0.0748353719641433,0.6535859872546047,0.952058360728352,0.19827755970043595,0.7372617150642957,0.9000054883890333,0.0,0.0,0.0,0.0
0.036887420294286835,0.052107529928952796,0.7613066506903686,0.00854647468834266,-0.5535100611268342,0.0063609184916869335,0.8327743444161281,0.07883090820698459,0.4887557502424947,-1.0241666632507815,-0.053052124310687454,0.35630050655123335,-0.9387320174761699,-0.06097189984194529,0.6455769439775726,0.9634817251171812,0.18688201422408046,0.7401104099575749,0.8934463333985317,0.0,0.0,0.0,0.0
0.03746249988412863,0.053499314798311916,0.7615840017453147,0.008741066751907708,-0.553670364002948,0.006193061856857772,0.8326670209403749,0.07565301494374768,0.4950725859557465,-1.0324245969276753,-0.046786963398125214,0.3490538692494934,-0.9485452557424267,-0.0479002499991734,0.6376647507185348,0.9748758475706366,0.17614649380361153,0.7428416100835045,0.8865231686023711,0.0,0.0,0.0,0.0
0.03782859440379723,0.05476902638181642,0.7619263505362468,0.008779989585639842,-0.5540411154977841,0.006289389188865486,0.8324192439537171,0.07221781451078345,0.4998986717284132,-1.0377771601280221,-0.040775703095425005,0.34288243626754233,-0.9582307331461732,-0.03375727172129724,0.6301247213537435,0.9861646772121963,0.16891830863144344,0.746760172280135,0.8799890400848615,0.0,0.0,0.0,0.0
0.03796611320409914,0.05604046751335932,0.7623038744119193,0.00894702889831581,-0.5541900116374076,0.006159366410184946,0.8323193160564326,0.0691613641902676,0.5036794395375455,-1.041830213073376,-0.03426793045173222,0.33551552201884777,-0.967557471858981,-0.02109452212099694,0.6216371575247495,0.9971996725200216,0.1583973172265515,0.7488575534245117,0.8722867504826444,0.0,0.0,0.0,0.0
0.03795466100325514,0.05727649014097595,0.7627054053299873,0.009109010458370845,-0.5543233750438618,0.006037198687393248,0.8322296402078337,0.06614719786742715,0.5066083451982313,-1.044557670778868,-0.027514095067059263,0.32779705538941545,-0.9766092103241358,-0.00829460229836623,0.612764305112352,1.0079943204541277,0.14801433527835098,0.7507028685702182,0.8643133763359836,0.0,0.0,0.0,0.0
0.037851131710840244,0.058458655472775393,0.7631063188578987,0.009188813912580873,-0.5545563001118713,0.006054776712797504,0.8320734435036791,0.06298959231216196,0.5088495477457844,-1.0461018769478352,-0.020687771210709624,0.3201545450220433,-0.9854961761673733,0.005396750600092334,0.6038512616653895,1.018571466442997,0.13960383198299162,0.7530768954953708,0.856793110777942,0.0,0.0,0.0,0.0
0.03766667796740983,0.05963524174919071,0.7634877745646426,0.009258583112415213,-0.5547771328511292,0.006085320174469667,0.8319252252351801,0.05981623543372346,0.5106237698503248,-1.0470949370978557,-0.01367569166001499,0.3120199000592714,-0.9941617357793001,0.019181269032030837,0.5946624020046162,1.02886975346286,0.13130705958613442,0.7551695018065078,0.8494005865034892,0.0,0.0,0.0,0.0
0.03741439580793202,0.06083951064865519,0.7638345038611316,0.009335113508694075,-0.554956862899518,0.006097921197030079,0.8318043948751295,0.056607507629315205,0.51207734970624,-1.047900518407593,-0.006514695690832446,0.30332420589477854,-1.002524852249256,0.03289248220949795,0.5852152178131464,1.0387839216570778,0.12258677962118038,0.7567557817302473,0.8420883961502772,0.0,0.0,0.0,0.0
0.0371064892244089,0.06208935386673721,0.7641215864035843,0.009391242118057157,-0.5551283262438765,0.00613545828859731,0.8316890657720234,0.05324468158381624,0.5132693933264814,-1.048680587444221,0.0006638494897089325,0.2944491001052735,-1.0104619859503277,0.0467130109306737,0.5757594060451733,1.0481088844342301,0.11388220228701296,0.7579557374912085,0.8351887117966125,0.0,0.0,0.0,0.0
0.036739540263794376,0.0634142391971088,0.7643127638269798,0.009420823263675743,-0.555289711655019,0.006202378872731649,0.8315804920243377,0.04965164842177238,0.514213577132856,-1.049643766007881,0.007781572345564376,0.2859013692461737,-1.0176591442231153,0.060442653720196936,0.5665702617157431,1.0564162093239993,0.10507750932194765,0.7585550143832432,0.8290060148658253,0.0,0.0,0.0,0.0
0.0362952567482923,0.06485275489323164,0.7643600745567866,0.009430870215668088,-0.5554165559292201,0.006277330760847967,0.8314951011312199,0.0457767515414687,0.5148676386036213,-1.0510096943352074,0.01478507060600837,0.2784989592731216,-1.0235225171018585,0.07350603656872086,0.558050060727967,1.0628798607016274,0.09571532869345215,0.7580925960273664,0.823860228519226,0.0,0.0,0.0,0.0
0.035747655793984874,0.06643481587729795,0.7642047450771606,0.009404847171805541,-0.5555160507573583,0.006374377613874617,0.8314281890281678,0.041525182816870794,0.5150967872789074,-1.0528411368988788,0.021552180896297974,0.27358312727384176,-1.0271821551130056,0.08522232108442572,0.5510031871748124,1.0660080172140523,0.0858326854957873,0.7562241461500753,0.8203342477204804,0.0,0.0,0.0,0.0
0.03506784381713888,0.06817966553295057,0.7637986711355258,0.009306021475406743,-0.5556299933685938,0.006538558631965623,0.8313518843934451,0.03677106927272985,0.5147093234649894,-1.05498067757472,0.027890422808337527,0.27253013643041224,-1.0276138872905318,0.09491792741183776,0.5468447592826645,1.0633757625351041,0.07588146780317215,0.7528452978612327,0.8190501656824704,0.0,0.0,0.0,0.0
0.03422127528358704,0.07012364237735544,0.7631366965526724,0.009138432001263007,-0.5557482136738031,0.00675735853585718,0.8312729697064334,0.031442583943126004,0.5135783302337396,-1.0572926378731728,0.03372033636390451,0.2752486585890945,-1.0247533341771269,0.10234151287131317,0.5455950979628474,1.0550807322277276,0.06549124732130818,0.74778106585045,0.8198757284694708,0.0,0.0,0.0,0.0
0.03317344896173926,0.07231378350655085,0.7622554280920991,0.008929898049664585,-0.5558334617851229,0.006990847417492068,0.8312163062243029,0.02548341908827976,0.5116400001425988,-1.0596236523339009,0.03905253347955062,0.28031556085192744,-1.0195399549533486,0.10791616558427393,0.5459059165184644,1.043691163879511,0.05391622289963484,0.7409771202285043,0.8220317548369142,0.0,0.0,0.0,0.0
0.03188925416726798,0.0747847872381899,0.7612013002019247,0.008691144747038929,-0.5558801856968931,0.007227054908190582,0.8311855706338552,0.018818610883455232,0.5087830290311706,-1.0616212304769996,0.04387060362617927,0.28633622354067517,-1.0127693880212347,0.11212350833216692,0.5469890775019189,1.0307784274111853,0.040865632963997596,0.7326321235414086,0.8247568332117186,0.0,0.0,0.0,0.0
0.030325816908950393,0.07756173773053032,0.760009510053177,0.00842647661432123,-0.5558920407349982,0.007462393729177323,0.8311782878655927,0.011387307581009799,0.5048145291686711,-1.062821093934794,0.048156451125735335,0.29233300311635835,-1.0049557038100683,0.11521823383556244,0.5483792178182557,1.017196335112666,0.02625564713168587,0.7229275561573659,0.8274669192819264,0.0,0.0,0.0,0.0
0.028433899828207577,0.0806615389107297,0.7587023666024793,0.008141773181062096,-0.5558703553455261,0.007689552074533534,0.8311935577026568,0.003162718435679222,0.49947535612032185,-1.062698941824668,0.051904163200872384,0.29774270273036607,-0.9963755016027521,0.11726500171618699,0.5497730500099197,1.003365932901341,0.010067311171074393,0.711957765309899,0.8297220527888194,0.0,0.0,0.0,0.0
0.026162642632331173,0.08408882349772465,0.7572925999863364,0.007844789328045148,-0.5558154845541033,0.007899009308398552,0.8312311423799229,-0.005839527144805167,0.4924570407238504,-1.0606743298297805,0.055123528019020394,0.30230832078076575,-0.9871701397493666,0.11827151596769456,0.5509643294722284,0.9894570394842122,-0.007616589549507082,0.6997731972914173,0.8312015428619449,0.0,0.0,0.0,0.0
0.023464529744514684,0.08782983511421073,0.7557876086845782,0.007544825392956227,-0.5557294300208796,0.008081463287758288,0.8312897005073422,-0.01554991781646532,0.4834170707074986,-1.0561028940361987,0.05785103989688897,0.3059587467353163,-0.9774423432209229,0.11828081418314049,0.5518145010657202,0.975492573586546,-0.02656826210082877,0.6864299429950201,0.8316856659114423,0.0,0.0,0.0,0.0
0.020300915653100625,0.09184647817559882,0.7541940893641087,0.007253383761582048,-0.5556167373489304,0.008228351040645286,0.8313661791538605,-0.025831241024672602,0.4720008525475107,-1.048281226087292,0.0601693879573255,0.30872320912963314,-0.9673233474927061,0.1174214750765492,0.5522320116612519,0.9614052425424043,-0.04640934350898011,0.6720244080419125,0.8310357718716739,0.0,0.0,0.0,0.0
0.01664984913643622,0.09607153061441494,0.752522554461147,0.006985009185203311,-0.5554843289273588,0.008331784013322406,0.8314559226669564,-0.03646822267772448,0.4578806380320973,-1.0364843562431378,0.062234655188725854,0.31069968886284177,-0.9570076198542404,0.11594801507231695,0.5521576661072602,0.9470707693049207,-0.06663178506974689,0.6567186046300147,0.8291807969600896,0.0,0.0,0.0,0.0
0.012518537923578406,0.10040580333300494,0.7507901903716626,0.0067570941668089095,-0.5553411192346922,0.008385508572388378,0.8315529244801937,-0.0471668529481042,0.44082349492408296,-1.0200635611597513,0.06430906929475493,0.31208404956814867,-0.9467578844682147,0.1143033079475294,0.5515655165630906,0.9323355741844035,-0.08662977954928403,0.6407571930416978,0.8261319422402923,0.0,0.0,0.0,0.0
0.007963403088538622,0.1047176228034161,0.7490173124426438,0.006586871982009878,-0.5551979790864217,0.008388387229053147,0.8316498374289154,-0.05756843286282068,0.42080231385455064,-0.9986509591112501,0.06678789921955774,0.31326368492511003,-0.936889504243601,0.11323895931642487,0.5504977710304482,0.9170505332480514,-0.10572731570318203,0.6244554109853816,0.8220855373404807,0.0,0.0,0.0,0.0
0.0031205982392708328,0.10884239685452474,0.7472009605548483,0.006485490014985019,-0.5550690254697601,0.008341585447961281,0.8317371780409547,-0.0672540809960999,0.39815769623335495,-0.9725384060047012,0.07022493825672767,0.3149445463928772,-0.9277691251816151,0.11400037611520228,0.5491513834509907,0.9011736307047813,-0.12323167654445953,0.608037630847088,0.81780313495327,0.0,0.0,0.0,0.0
-0.001457183016198571,0.11272619136465996,0.7452463521226865,0.006431135088612424,-0.5548185969459372,0.008276493653974183,0.8319053219190327,-0.07621969574442326,0.37583187483976677,-0.9474592026203794,0.07485795617332112,0.3175631267125637,-0.9188202193478582,0.11840284332725497,0.548841050445071,0.8843818145691436,-0.13896437509660234,0.5916242351279959,0.81468860401298,0.0,0.0,0.0,0.0
-0.005519019727069717,0.11607520884395292,0.7432765209160908,0.0063894634402490436,-0.5545502943968125,0.00824702917829434,0.8320848107321072,-0.08390788042233333,0.35502189899827524,-0.9243983642042363,0.0810547602895244,0.3215178154346373,-0.9110741110059523,0.12945574796850742,0.5487298335993774,0.8663357594811404,-0.15165373327635623,0.5762042483001719,0.813716869511241,0.0,0.0,0.0,0.0
-0.008725082864472595,0.11857007252115902,0.74143445616193,0.006307511437466058,-0.554309789561428,0.008304899969664171,0.8322450967907985,-0.08971335880102232,0.3375974427769458,-0.9056888950140615,0.08815992066378654,0.32619696903492834,-0.9056800061160635,0.14918577383236756,0.5481372945396159,0.8463665816494849,-0.160061595418813,0.562708168748187,0.8160025601601134,0.0,0.0,0.0,0.0
-0.010614821761511805,0.11991859644765798,0.740008906754772,0.006137553500307825,-0.5541606192485864,0.008467423098127737,0.8323440642289289,-0.09303607575089352,0.3264796162885595,-0.8947329854977083,0.0938540590391747,0.3298350507239951,-0.9035189078529775,0.17315078142498253,0.547933489654945,0.8254166596314251,-0.16332511211138265,0.5530682259428482,0.8212963522947914,0.0,0.0,0.0,0.0
-0.010633667985613812,0.12008603886271269,0.7399007404840282,0.006015500802365602,-0.554185541261059,0.008432796065771192,0.8323287136449138,-0.09322155451342522,0.3262581705966738,-0.8946719764943801,0.09386510405477756,0.32984845868312634,-0.9035393749844629,0.1731794873923989,0.5479702961191345,0.8254237765042657,-0.16337378226472643,0.5529610672293168,0.8211978082636023,0.0,0.0,0.0,0.0
-0.010633667985613812,0.12008603886271269,0.7399007404840282,0.006015500802365602,-0.554185541261059,0.008432796065771192,0.8323287136449138,-0.09322155451342522,0.3262581705966738,-0.8946719764943801,0.09386510405477756,0.32984845868312634,-0.9035393749844629,0.1731794873923989,0.5479702961191345,0.8254237765042657,-0.16337378226472643,0.5529610672293168,0.8211978082636023,0.0,0.0,0.0,0.0
-0.010633667985613812,0.12008603886271269,0.7399007404840282,0.006015500802365602,-0.554185541261059,0.008432796065771192,0.8323287136449138,-0.09322155451342522,0.3262581705966738,-0.8946719764943801,0.09386510405477756,0.32984845868312634,-0.9035393749844629,0.1731794873923989,0.5479702961191345,0.8254237765042657,-0.16337378226472643,0.5529610672293168,0.8211978082636023,0.0,0.0,0.0,0.0
-0.009707342025603869,0.12062388968436667,0.739739044853132,0.006051232824694128,-0.5544527779821977,0.008204114396332805,0.8321527456399438,-0.09409707827580191,0.33231493950239005,-0.9037893883712647,0.09328746719396876,0.3343897329720112,-0.9104019874970433,0.17104064370619426,0.5484652324803116,0.8320673638485907,-0.16735362982641483,0.5539955783212595,0.8217703126803341,0.0,0.0,0.0,0.0
-0.007950029723341101,0.12154689430881041,0.7394917633680992,0.006030691396234828,-0.5547195235219602,0.008090968121472312,0.8319762119313929,-0.09631063515495088,0.3439195811244939,-0.9227582949591833,0.09175634326272102,0.34340386105626886,-0.9246176330932293,0.1685051893477898,0.5491438691863711,0.8420233924420837,-0.17298274001231517,0.556230702561084,0.8227324285060529,0.0,0.0,0.0,0.0
-0.00541559527547795,0.1229559049128438,0.7392334325294853,0.005931472631609884,-0.5550217271245573,0.008100229367229568,0.8317752619165181,-0.10011059059076279,0.36062224210070953,-0.9503181193398109,0.08897938691128321,0.35629531011187765,-0.944586802753529,0.16519558423826217,0.5504835724311256,0.8547986454441918,-0.18061130836197967,0.5603374638313976,0.8226578266298329,0.0,0.0,0.0,0.0
-0.0020873082299724963,0.12512401186322222,0.739392042200016,0.005686232493585346,-0.5554953035112752,0.008308000744404156,0.8314587251695518,-0.10628980820843256,0.38289868525744725,-0.984939421868017,0.08406319149942625,0.3729805860226813,-0.9673676398609994,0.1604529480349015,0.5551322825873105,0.8672960338919895,-0.19099760868694163,0.5697804082058989,0.8160680643355592,0.0,0.0,0.0,0.0
0.002366752652592033,0.12884430230880667,0.7418394554936537,0.005119294055408021,-0.5567072293927868,0.00910080298734086,0.8306431417613503,-0.1174553671926306,0.4151112779235453,-1.0238641705194371,0.0740431675857447,0.3960898022034526,-0.9855732661448243,0.153157234448385,0.5746278328211122,0.8653215615057198,-0.2059508559064218,0.5994531500938173,0.7816425946572585,0.0,0.0,0.0,0.0
0.005845305079401945,0.13235168143870937,0.7439391087924915,0.005176980017600812,-0.5561373428010982,0.008737785988511099,0.8310283424264483,-0.10818042327193876,0.3869738835360649,-0.9817047924703761,0.06682984217168403,0.4134519186734156,-1.0064138481846974,0.1361442700579502,0.5910795400098943,0.8606692671434525,-0.17679637204094423,0.5886724565864838,0.8230495005858671,0.0,0.0,0.0,0.0
0.00990470571327385,0.13597929910825288,0.7458559983831431,0.0051947352802743894,-0.5557288565144929,0.008616173037701617,0.8313027212301464,-0.09746101439390413,0.36705221712239683,-0.9602519712492408,0.0587541934701914,0.43333618165502613,-1.0305806964584483,0.11954312454234754,0.6076216532792336,0.8581495693433591,-0.1491360496733694,0.5845964823111371,0.855589078408819,0.0,0.0,0.0,0.0
0.01385514489904824,0.1397322316871074,0.7476937658754292,0.005057099102835097,-0.5555921792635454,0.008705041164777235,0.83139399706046,-0.0881953781939359,0.3537080286348577,-0.9527044342701915,0.049787628675171273,0.45175524155855185,-1.0505483412770602,0.10336913096548,0.6239165366871443,0.8565090895288571,-0.13081672929935825,0.5821273122573208,0.8809278601842241,0.0,0.0,0.0,0.0
0.01746814515419224,0.14351001497161953,0.7494855034600789,0.004812470141583046,-0.5555826999977789,0.00889838760805236,0.8313997367646271,-0.08095288703567469,0.34431753305638935,-0.9526905373501896,0.04040593167434405,0.4677837351832897,-1.0657412967399935,0.08720763145006277,0.6397757271155725,0.8546636559741295,-0.12044695469308514,0.5797749104251065,0.9013808119777422,0.0,0.0,0.0,0.0
0.020633712454725436,0.14724297211209175,0.7512165498433275,0.004516931354877458,-0.5556167694669554,0.00913126721269725,0.8313761018800876,-0.07548714059897932,0.3372042394655864,-0.9566204325457689,0.03093011147559089,0.48104372984170835,-1.0763182171254602,0.07080686181015906,0.654861042143425,0.8524388477222582,-0.11490369586490397,0.5773162957790352,0.9187421242565079,0.0,0.0,0.0,0.0
0.023325969188052992,0.1508749179623074,0.7528673565166345,0.00420980534245103,-0.5556529053698208,0.009367948019285956,0.831350929417273,-0.07122391201293252,0.3312788168748334,-0.9625116934258743,0.02159754899231644,0.49155708083808536,-1.082813535049696,0.05416387874136323,0.6689311009665108,0.8499089053097645,-0.11173414539678025,0.574769982901323,0.9342363826708554,0.0,0.0,0.0,0.0
0.025571234184455442,0.15436172084134384,0.7544274269744001,0.003912913325930356,-0.5556747942501422,0.009592483005035355,0.8313351889666188,-0.06758063432292333,0.32583523509472734,-0.9692756357191631,0.012579083349558758,0.4995906669099232,-1.0859117870856694,0.03745557070441134,0.6818911640760726,0.8471482275443915,-0.10946659067909167,0.5721333088348846,0.9486649459587313,0.0,0.0,0.0,0.0
0.027423481628505685,0.1576724028944093,0.7558956304682379,0.003636362022538714,-0.5556792428677642,0.009799859664443198,0.8313310523899048,-0.06410647503327803,0.3204272388535869,-0.9763210356434243,0.00398847426507486,0.5055297895407942,-1.0863196922480574,0.0209306961314313,0.6937643457446884,0.8441847447746721,-0.10732791371410062,0.5693697175052759,0.9625417461494508,0.0,0.0,0.0,0.0
0.028947400444283428,0.16078892666525796,0.757276456272595,0.0033837934359580756,-0.5556686153336532,0.009990117118366029,0.8313369578186239,-0.06050848249768791,0.3147806368240297,-0.9833361900475672,-0.004108525911186923,0.5097899485423005,-1.0846982843258746,0.004827368750590956,0.7046436700465262,0.8410188302491411,-0.10494068219071857,0.5664424442640604,0.9761914295922142,0.0,0.0,0.0,0.0
0.030207820371293798,0.16370433866511055,0.7585763090569766,0.0031556470175049087,-0.5556467651771079,0.010165162749169432,0.831350337527086,-0.056624607402466935,0.30873068980445195,-0.9901681041649726,-0.011684048572952792,0.5127637681620225,-1.0816305193100468,-0.010669491567708423,0.7146502967753983,0.8376500897519776,-0.10213017035924848,0.5633406039413582,0.9898123475998208,0.0,0.0,0.0,0.0
0.03126382090267263,0.16641995960195027,0.7598007381234784,0.002950920070482465,-0.5556171520160511,0.010327250407516345,0.8313688834418392,-0.05238236100217427,0.30218474185333294,-0.9967509715721533,-0.018737417578141555,0.51479407318255,-1.0776112356090999,-0.025439343503492563,0.7239030496976111,0.8340974152839931,-0.09882367665585749,0.5600929446370195,1.003511400928199,0.0,0.0,0.0,0.0
0.03216592470724881,0.16894234944791628,0.760952214017562,0.0027681339452213095,-0.55558204588407,0.010478281458678237,0.8313910832715282,-0.0477617619483628,0.29511563983266403,-1.003054152940686,-0.025284976990892143,0.5161635557911083,-1.0730519360254476,-0.03941938301566305,0.7324958566036264,0.8304150718110499,-0.09500038530191504,0.5567754300347417,1.0173146641002275,0.0,0.0,0.0,0.0
0.03295498040134395,0.1712805607904384,0.7620278033814061,0.002605993452072813,-0.5555421254747698,0.0106194372272239,0.8314164920027025,-0.04276817775434841,0.2875947945228667,-1.0090296204651086,-0.031351427574241864,0.5170926369806604,-1.0682943297638419,-0.052591329014617744,0.7404775226947797,0.8267119305355222,-0.09065895181048132,0.5535181926400987,1.0311516435191825,0.0,0.0,0.0,0.0
0.03366150828322558,0.17344405114390626,0.7630162946882284,0.0024640371750533213,-0.5554961660574619,0.010750903796194191,0.8314459429715354,-0.0374144194623335,0.27987183194834897,-1.0145463340502434,-0.0369634960917785,0.5177382788465774,-1.0636255890399238,-0.06496961128131826,0.7478291983693041,0.8231796667128999,-0.08577953125788025,0.55051636824847,1.044803376759721,0.0,0.0,0.0,0.0
0.0343045555350373,0.17544164476223892,0.7638949060879348,0.0023434233446606068,-0.5554408603366138,0.010871614289648614,0.8314816696947005,-0.03171014447813942,0.2724924454657454,-1.0193106391992803,-0.04214681933943158,0.518188091436043,-1.0592863659336502,-0.07659648353564064,0.7544388568939348,0.820130185088762,-0.08026229989228036,0.5480538101114804,1.057796419245865,0.0,0.0,0.0,0.0
0.03488994059237885,0.17728205620716794,0.7646270610806647,0.0022477153107675913,-0.5553712314847697,0.010979166024768562,0.8315270295837488,-0.025658915309663757,0.2664033934075446,-1.0227928126521926,-0.04692727737563872,0.5184488961866895,-1.0554617482278652,-0.08754661923666165,0.7600825810585605,0.8180278890319473,-0.07383573133486131,0.5465635378315953,1.0692185203181912,0.0,0.0,0.0,0.0
0.035409940763592176,0.1789763418964058,0.7651659795756122,0.002182626298934719,-0.5552828724046067,0.0110706874980815,0.8315849972401187,-0.01926723606750519,0.26290663763301975,-1.0242100448703,-0.051337965718875854,0.5184425870337719,-1.0522473796741811,-0.09793337150928165,0.7644479001800715,0.817464535998653,-0.0659735613815765,0.5467736762461376,1.0774361712382208,0.0,0.0,0.0,0.0
0.03585052066087788,0.18054091570411812,0.765475627194336,0.0021508966244605434,-0.5551794436953752,0.011147753856493539,0.8316531046811283,-0.012571538397472163,0.263201294274174,-1.022667702535505,-0.05543096867152638,0.5180510305486865,-1.0495833812123043,-0.10786656531297237,0.7672835607572346,0.8189428255159823,-0.05600269211794488,0.5499496949855751,1.0798313725497684,0.0,0.0,0.0,0.0
0.03620192645799578,0.18199267064992092,0.7655596814046945,0.0021502990330262086,-0.5550600481680126,0.011210677285239608,0.8317319519271809,-0.005652005693463717,0.2672677818463527,-1.0181357982341646,-0.05924895737348279,0.5172059590085666,-1.0473419092925167,-0.11742487371305396,0.768581282208186,0.8224914791364273,-0.04403906461956371,0.5560097093439887,1.0762978092049584,0.0,0.0,0.0,0.0
0.036460614287020236,0.18335117359011355,0.765463436483534,0.002173923781589773,-0.5549188912081776,0.011258432226574482,0.8318254299668159,0.001372741760091705,0.2738920903827217,-1.0114901772500424,-0.06283053584085574,0.5158954140618829,-1.04532959110449,-0.1266639744207309,0.7685890126035071,0.8276474729696325,-0.03094283252256632,0.5635625575983296,1.0692704291925736,0.0,0.0,0.0,0.0
0.03661955435427846,0.18464413899094614,0.765246130166378,0.002212749803096545,-0.554757474440083,0.011294204425580366,0.831932502813517,0.008375691468116309,0.28177249894045,-1.003514802586523,-0.06623886112420016,0.5140756102048758,-1.043199716476504,-0.13564883126261795,0.7676366909746501,0.8338279292268095,-0.017372902812035428,0.5718051810146535,1.060253247177378,0.0,0.0,0.0,0.0
0.03666032019699132,0.18590323018633803,0.7649596814741041,0.0022606253039034905,-0.554577433222583,0.011320694713341857,0.8320520428462959,0.015251725017671547,0.28996734660371565,-0.9947378401508159,-0.06954639522545591,0.5116246824150782,-1.0405162231912823,-0.14448475660618984,0.7659800288360409,0.8405520161357384,-0.0037029821220228494,0.5802614767288353,1.050074563656049,0.0,0.0,0.0,0.0
0.03655310994239115,0.18716090171356145,0.764644630355736,0.0023143877454467883,-0.5543785203210712,0.011339322175960526,0.832184186096187,0.021922540097299756,0.29793952963081616,-0.9854497927014199,-0.07282582682903017,0.5083475239716785,-1.0367894834238975,-0.15329904774660072,0.7637710455061394,0.8474721614504981,0.009881089897968433,0.5886178106490771,1.0391584296009633,0.0,0.0,0.0,0.0
0.03625914968812646,0.1884492166253932,0.764332061486036,0.00237325600818309,-0.5541582331934486,0.011350176037708307,0.8323305796038905,0.028336686440256696,0.30544929625050593,-0.9757814548250648,-0.07614642906568278,0.503991546741033,-1.0314932934461447,-0.16222578231824186,0.7610750023504631,0.8543430951449507,0.02329341411657089,0.596648083436769,1.0277067376880589,0.0,0.0,0.0,0.0
0.0357336937049642,0.1897992310937673,0.7640465500981075,0.002438548137981811,-0.5539119451409467,0.011351966001843308,0.8324942902993658,0.0344774754609785,0.31243227969960385,-0.9657837577352983,-0.07957189312462011,0.4982632695492237,-1.0240762559119168,-0.17139656815372709,0.7578972791583426,0.8609814796787939,0.03650509338897544,0.6041792850311565,1.015814118410099,0.0,0.0,0.0,0.0
0.03493008740168448,0.19123938762133852,0.7638081946971994,0.0025138692399981287,-0.5536330913025079,0.011341750226338522,0.8326796775339701,0.04038069960382447,0.3189158451665333,-0.9554863361118232,-0.08315573833840981,0.4908503118307201,-1.0139860079757739,-0.18093008244391381,0.7542085809614388,0.8672328687735783,0.04954117512322413,0.6110758633464446,1.0035433800572657,0.0,0.0,0.0,0.0
0.03380635204222903,0.19279147706665892,0.7636329853488038,0.002605766477923738,-0.553313178239307,0.011314245029019628,0.8328923847816131,0.046155996461861776,0.3249835188613057,-0.9449300781643212,-0.0869308148165472,0.4814598592814803,-1.0007290169544998,-0.1909139701111685,0.7499676657545477,0.8729496185131581,0.06251555203123979,0.617242449817493,0.9909878338383707,0.0,0.0,0.0,0.0
0.03233621466216352,0.1944626553629675,0.7635310391009651,0.0027250268615131635,-0.552941357440571,0.01126030650987171,0.8331396251275571,0.05199858734936573,0.33077902230606454,-0.9341751852285162,-0.09088930934389641,0.4698895191285523,-0.9839967061213992,-0.2013766723780575,0.7451444487930791,0.8779811594814385,0.07572421475835123,0.622659398426146,0.978346152094682,0.0,0.0,0.0,0.0
0.030526887834188398,0.1962317556262067,0.7635018459312766,0.002889317347721945,-0.5525029221135924,0.011163641928817972,0.8334311885213385,0.058170778852881855,0.3365317241201318,-0.9232863534537631,-0.09494903059156483,0.45615362161358297,-0.963906608473933,-0.21225452122287441,0.7397454324439702,0.8821833610839125,0.08986100338011566,0.6274807956483401,0.9660367279052209,0.0,0.0,0.0,0.0
0.028446319413847176,0.19802780386044466,0.7635243244085049,0.0031292682504366286,-0.5519741411339372,0.010993191424947386,0.8337828883720052,0.06493161226290509,0.3425626916366835,-0.9122870474457214,-0.09889967201525479,0.44070019018455303,-0.9414483099216063,-0.22337614365589786,0.7338349148790391,0.8854663683430348,0.1064948477647079,0.6322472209134826,0.9548638882466363,0.0,0.0,0.0,0.0
0.026261897375949025,0.19969761609609932,0.763536534535731,0.003505869916458236,-0.5512881947303555,0.01067115711000641,0.834239271212407,0.07248090611071427,0.34906454672712717,-0.9009285943358112,-0.10228980102796838,0.4247775682974529,-0.9194191572120433,-0.23457335584467476,0.7274953680703871,0.8878814768251994,0.1289443977414627,0.6382680971440038,0.9460001997215783,0.0,0.0,0.0,0.0
0.024294903973605814,0.20102432645033347,0.7634617563451039,0.004106225526341539,-0.550301295498299,0.010108717143161777,0.8348948657900228,0.08147847966103738,0.3557364203725119,-0.8889396162440824,-0.10457316447583612,0.41088907098667893,-0.903150473794417,-0.24554856233803257,0.7209297705328597,0.8893315790407584,0.16306768838469665,0.6472367164272891,0.940970795292637,0.0,0.0,0.0,0.0
0.02268065619980111,0.20192483857498708,0.7633374816135565,0.004933181807482109,-0.5490274291568112,0.009272321526231609,0.8357383381203899,0.0914592481374055,0.3615372138904474,-0.8774153975256447,-0.10551481689713359,0.40025131614086373,-0.8945586831774899,-0.2561328251603325,0.7147714262793233,0.8893247986258487,0.21136572607746845,0.6579685400073044,0.9416067286194771,0.0,0.0,0.0,0.0
0.02156820712599586,0.20237903649544298,0.7628613686386757,0.005656442515012829,-0.5476486769427311,0.008437499558796122,0.836646723475414,0.10026498991364008,0.36397825424329616,-0.8693030849346537,-0.10542649748928863,0.39350190274127145,-0.8941798815962324,-0.2633922556934183,0.7073973752643012,0.8914580453517441,0.2609584371970756,0.6645268993632424,0.9492362361693601,0.0,0.0,0.0,0.0
0.021575267742408682,0.2024132489137482,0.7628479203306687,0.005671562765886578,-0.547627445255856,0.008419476684347647,0.8366607000395672,0.10031303865901067,0.3639954004221979,-0.8693011411842512,-0.10547145468337257,0.39339714560891054,-0.8941491648471341,-0.2634290423198518,0.7073195932240585,0.8913875035049129,0.26097466555048526,0.6645485311831075,0.9492473220622141,0.0,0.0,0.0,0.0
0.021575267742408682,0.2024132489137482,0.7628479203306687,0.005671562765886578,-0.547627445255856,0.008419476684347647,0.8366607000395672,0.10031303865901067,0.3639954004221979,-0.8693011411842512,-0.10547145468337257,0.39339714560891054,-0.8941491648471341,-0.2634290423198518,0.7073195932240585,0.8913875035049129,0.26097466555048526,0.6645485311831075,0.9492473220622141,0.0,0.0,0.0,0.0
0.021914780455210232,0.20272666370357,0.7630232832102557,0.005688260757304628,-0.5484743494641758,0.008549878389207583,0.8361043184010808,0.09916649762608151,0.3661593375031036,-0.8686022590154063,-0.10642857001378712,0.39405047687612144,-0.8901175698218362,-0.26711846024661795,0.711599866942951,0.8927336529239511,0.2623766830079996,0.6691844276614626,0.9493593775447547,0.0,0.0,0.0,0.0
0.022622995684902517,0.20321355914379047,0.7630762420741657,0.005697500672960112,-0.5490160836782984,0.008600255546207539,0.8357481163324063,0.09796610870976143,0.3711883853031971,-0.8743471422817383,-0.10774996514691042,0.39662500480274604,-0.8910163186634401,-0.2723951410485774,0.7154850394161857,0.8951416977749264,0.2622007528920415,0.6730764441927654,0.9495047423427139,0.0,0.0,0.0,0.0
0.023819713667569256,0.2038213342825434,0.7630200051576311,0.005596014517461071,-0.5495151177956765,0.008755570298403076,0.8354191522369319,0.09647767119789462,0.37939706925932426,-0.8861911346697654,-0.109616831917846,0.4017406534679671,-0.8961239147462506,-0.278051757526198,0.7197428896582179,0.8989690605857503,0.26332079744188913,0.6778796798350067,0.9505584992839935,0.0,0.0,0.0,0.0
0.025583711893042413,0.20457436547131727,0.7628998783901061,0.0052232420035666265,-0.5503563259407964,0.00930399397376861,0.8348617058747252,0.09406179223560959,0.390898798194568,-0.9030782179392244,-0.11254706320465252,0.40944422637362127,-0.9027937432742045,-0.28269080828974824,0.7254179440451692,0.9046694002560218,0.26954372691890527,0.6860524076703448,0.953195706293496,0.0,0.0,0.0,0.0
0.027931543469656782,0.205606003879612,0.7628570946068829,0.004627400842701968,-0.5519247731838823,0.010387822418191089,0.8338163617084814,0.08994323993487123,0.4057225114597107,-0.9229444834980469,-0.11714524601600039,0.41927531014506647,-0.9076542750330787,-0.287705920503611,0.7345598916010013,0.911911477927215,0.28221567323241414,0.7001143235504234,0.9566576731124605,0.0,0.0,0.0,0.0
0.02966391314351382,0.2073076174527356,0.7635491844904102,0.006257345967786913,-0.5510260466664593,0.008133445622059433,0.8344249448445831,0.09010436529686758,0.4208443248764358,-0.9430393365879925,-0.10679094007930243,0.400856561119551,-0.9007739089472366,-0.23085715057647238,0.705864344747527,0.9187255256357777,0.2461081588430467,0.6988637965108657,0.9424307498695427,0.0,0.0,0.0,0.0
0.031573745328198045,0.20891681139906107,0.7640591746824013,0.007335143242394669,-0.5511287192532592,0.006918065734529328,0.834359317593067,0.08843425341127711,0.43559714961986434,-0.9610711610210674,-0.09394067203248328,0.3868254591336026,-0.9026693704094134,-0.17662296385535303,0.6844124413600352,0.9260038563026795,0.22453118073618533,0.7032318795910665,0.9329040052731914,0.0,0.0,0.0,0.0
0.03352688452965755,0.21043185206272466,0.7644741294990529,0.00780170124450798,-0.5517270703527978,0.006582702699668729,0.8339622541355084,0.08540881278641596,0.44979469684989204,-0.9785872067496797,-0.08283248184274455,0.37684147951063957,-0.909627925317225,-0.13766519977231623,0.6708698578987252,0.9353537917488196,0.21366158993845177,0.7111327493730524,0.926159754101033,0.0,0.0,0.0,0.0
0.0352963604030813,0.21186722632844177,0.7648287696049876,0.008007039711309751,-0.5523609301757698,0.00655583741939939,0.8335408275100568,0.08202977947231217,0.4625960515542618,-0.9947682792473355,-0.07388103727517914,0.3688677030275466,-0.918869628640122,-0.11068879760297731,0.6616475553420679,0.9461440794554055,0.20626598683363934,0.7192261517228383,0.9203079512787121,0.0,0.0,0.0,0.0
0.03675914335778467,0.21323252994678762,0.7651670332630761,0.008150273782930435,-0.552872440391438,0.0065542274512001165,0.8332002639194235,0.07874819920949762,0.47353615172524105,-1.0087009218543066,-0.06648134882178941,0.3618336156563803,-0.9289334201873719,-0.09088354375005962,0.6542184228135656,0.957639446217499,0.19889370297406733,0.7261317914271307,0.9143239704755084,0.0,0.0,0.0,0.0
0.037881364259588164,0.2145344132078533,0.765521819000433,0.008300663671364913,-0.5532514580097438,0.006499153248950328,0.8329475879067987,0.0756646480229867,0.4825309090463349,-1.0199814340347473,-0.059909644826595415,0.35520022861207373,-0.9391457006510735,-0.07486611452108873,0.647245496628759,0.9693510621195787,0.1905641560878644,0.7316338470245617,0.9078288294534566,0.0,0.0,0.0,0.0
0.03868393051421509,0.2157764899130748,0.7659057837315494,0.00846013034780685,-0.5535456243365533,0.0064092679595169014,0.8327512169048908,0.07272881701023533,0.4897207981118132,-1.0286237367337392,-0.053621810817643153,0.3486957811312603,-0.9492439710474619,-0.06065103567189697,0.6401814621057033,0.9810232346463471,0.1815890279863573,0.7360484668800398,0.9008542939685447,0.0,0.0,0.0,0.0
0.03922356972342555,0.21695231752224736,0.7663237457171777,0.008569292952583995,-0.5538708566771329,0.006399288297776041,0.8325338974788437,0.06974750450200701,0.49534753554748434,-1.0347481869469257,-0.04741128398411953,0.34249497192107936,-0.9591473097462009,-0.04661619929745575,0.6330210854414208,0.9925418253161049,0.17359241331297917,0.7402800802312081,0.8937694040176242,0.0,0.0,0.0,0.0
0.03951809494441762,0.21812929096192582,0.7667603468082838,0.008750108607548445,-0.5540454466445516,0.006258461890905297,0.8324169089504102,0.06696556111216066,0.49977642373825626,-1.0393274736989435,-0.040849724433899434,0.3354730998985305,-0.9687140912025615,-0.03360826033033851,0.6250811254686869,1.0038144705896912,0.16357519128301867,0.7430888137819334,0.8859223560517251,0.0,0.0,0.0,0.0
0.039641731507588256,0.2192820230062544,0.7672057287502333,0.00889663248252336,-0.5542376484817679,0.006172987857993329,0.8322880349715333,0.06410751507579973,0.5032275804087291,-1.042426306442934,-0.03411765339570263,0.32824986322861593,-0.9780258239450073,-0.020348869291477417,0.6168113281672749,1.014867210498627,0.1542082503401644,0.7457493382368863,0.8780492683502776,0.0,0.0,0.0,0.0
0.0396362901323312,0.22042272548394365,0.7676407007561044,0.009004944868302592,-0.5544542238014414,0.006148138248119592,0.8321427912760777,0.061147094651086094,0.5059288106089097,-1.0444599255348153,-0.02723176755064643,0.3207270790103083,-0.9871155748749116,-0.006806059869673361,0.608257582388066,1.0257015656390558,0.14553998737895107,0.7483101961950945,0.8703442357853958,0.0,0.0,0.0,0.0
0.03952715170702771,0.22157880247136322,0.7680504649738744,0.009098353417927673,-0.5546589981726523,0.006142062721572926,0.8320053429976976,0.05810434865278088,0.5080838995882526,-1.0458768671050298,-0.020193807153710358,0.31268751758248664,-0.9959538659853701,0.006801830616859185,0.5993759393276327,1.03627176937781,0.13691477752930614,0.7505173418338236,0.8627589773199382,0.0,0.0,0.0,0.0
0.03933433011408201,0.222771728340671,0.7684189076540604,0.009177217433694254,-0.5548487723728762,0.006152233404386332,0.8318778567197379,0.05493747490672611,0.5098317019610922,-1.0469766809874659,-0.013069690453628928,0.3041708086476423,-1.0044847604005427,0.020468591435968343,0.5902607141796319,1.0464800292000394,0.1282047277737671,0.7523189916325723,0.8553870340024744,0.0,0.0,0.0,0.0
0.03906816714928984,0.22402341128979267,0.7687222474204581,0.009236462629902775,-0.5550255260381862,0.006184182715149936,0.831759045089542,0.051587455569992245,0.5112503859463767,-1.0479945231253405,-0.005932716211295801,0.2954102779835417,-1.0125665387237424,0.034153019957943356,0.581092896887957,1.0561124407111782,0.11936780055156945,0.7536314061471483,0.8484239123618593,0.0,0.0,0.0,0.0
0.03872744530636715,0.2253600972680338,0.7689262694427307,0.009271977294577682,-0.5551859445363413,0.0062397143761173165,0.8316511668908088,0.047990918476160646,0.5123599915030578,-1.0491380394468168,0.0011469811463878255,0.2869153499865654,-1.0198793653733282,0.04767588728765039,0.5721394881362257,1.0647279467796373,0.1102845196720712,0.7542503652823149,0.8421500957582422,0.0,0.0,0.0,0.0
0.03829755078002538,0.22681307946415077,0.7689840382613669,0.009283618582614936,-0.5553170668808146,0.006310485730730992,0.8315629545781508,0.04409052007694881,0.5131142685974381,-1.050590389724641,0.00810578410103742,0.27956840694097895,-1.0258362161860572,0.06057845151330979,0.5638172561613648,1.0714795442656755,0.10069573005468019,0.7538050593285873,0.836935224622825,0.0,0.0,0.0,0.0
0.03775392609252757,0.2284090989718505,0.7688385367876575,0.009257714788576501,-0.5554232617635021,0.006406718620669614,0.8314915808145029,0.03980634591590969,0.5133815613852788,-1.0524116774567602,0.01483740811354898,0.2747082331279217,-1.0295647251949345,0.07219451296414524,0.5569101028374897,1.0748415412759789,0.09061128285478129,0.7519491347869354,0.8333358828769273,0.0,0.0,0.0,0.0
0.03706824633744841,0.23016693431556964,0.7684443166448301,0.009166399750242242,-0.5555349705900252,0.00655954223417104,0.8314167703221031,0.03503898285636723,0.5129813678483113,-1.0544671535574799,0.021180803586654043,0.2736689503508849,-1.0300336593285284,0.08179707035182017,0.552803673526931,1.0723473505005863,0.08033567269509712,0.7485297985751885,0.8318939839332535,0.0,0.0,0.0,0.0
0.03620955547320973,0.23211734884727825,0.7677971915205901,0.009009749981171097,-0.5556480803436866,0.006763533048923881,0.83134125955371,0.029718311442447642,0.5117910492787429,-1.0566093521345505,0.027052813796462356,0.2763938355446196,-1.0271876109905436,0.08919376892307064,0.5515336320999047,1.0640838697016168,0.06961798989802725,0.743423670441456,0.8325107148133026,0.0,0.0,0.0,0.0
0.03514742159271347,0.2343011427344392,0.7669335265979417,0.008810262558584274,-0.5557326719658915,0.006987377939906611,0.8312850011475154,0.02378934177554224,0.509751414675381,-1.0586759390613396,0.03245661467735521,0.281492127990265,-1.0219794346597746,0.09484679176486695,0.5517813214625312,1.0526425923503044,0.05784098526041362,0.7366197023978149,0.834474547219447,0.0,0.0,0.0,0.0
0.033849678093782885,0.23674984660862383,0.7659004649534863,0.008579108125817128,-0.5557822857481445,0.00721795767898595,0.8312522786971942,0.017188494500282682,0.5067632980165311,-1.0603288966291378,0.037381088896151805,0.2875645841033579,-1.0152114014268718,0.09921418554099737,0.5527783786364565,1.0396153316728816,0.044715140836677235,0.7283122028263501,0.8370398160766032,0.0,0.0,0.0,0.0
0.03227581988744644,0.23948674373819662,0.7647347669429518,0.008321771925330772,-0.5557985604730897,0.007449326728577234,0.8312419718826491,0.009864859698846113,0.5026477247634967,-1.0611211220883958,0.04181239279229666,0.2936287802489917,-1.007400317887439,0.10253197848783599,0.5540721759567545,1.025868554997796,0.030137161770217902,0.7186774219809753,0.8396175457662688,0.0,0.0,0.0,0.0
0.030378554872431688,0.2425272835421887,0.763460497936787,0.00804407458868244,-0.555782393618291,0.0076738379029242035,0.831253472786595,0.001796791028834132,0.49715753517006095,-1.0605399290647766,0.04574497386805817,0.299126704454128,-0.998825248228415,0.1048641635702741,0.555369482203342,1.011829627510588,0.014086665203934371,0.7078151616158095,0.8417650168739678,0.0,0.0,0.0,0.0
0.028108364153610475,0.2458753385118375,0.7620922784263203,0.0077533048223131385,-0.5557340219403931,0.007882151359639733,0.8312866261478231,-0.006997922020654461,0.4899948017878251,-1.0580143463006177,0.04918748835853426,0.3038088884639486,-0.9896301213523021,0.10621926988864971,0.5564716150979541,0.99767131919331,-0.003356008412342272,0.695782784198538,0.8431566018668379,0.0,0.0,0.0,0.0
0.025418465880141808,0.24951751456442545,0.7606396893603867,0.007458284244100885,-0.5556549984760737,0.008064936350394382,0.8313403956661513,-0.016450435900867602,0.4808272503289277,-1.0529100810047052,0.052172880082616405,0.30761096033779367,-0.9799209965620244,0.10663656161774573,0.5572455118311185,0.9834188917998866,-0.021974926342848675,0.6826422962476927,0.8435598740578147,0.0,0.0,0.0,0.0
0.022270411418153262,0.25341747026004774,0.75911202125904,0.007169982749736915,-0.5555491134141736,0.008213449489237423,0.8314122402151546,-0.02642791951258983,0.46931067304287566,-1.0445349456649122,0.054775797894631335,0.31056798703358424,-0.9698350470961138,0.1062365689888201,0.5576034351976852,0.9690090039058865,-0.04141122421854003,0.668497143595333,0.8428128782714007,0.0,0.0,0.0,0.0
0.018641922750595574,0.25751134211556787,0.7575229462427792,0.006902390187193448,-0.5554222717007296,0.008319483545940273,0.8314981920016625,-0.036723824297493025,0.4551276210425043,-1.0321754334771431,0.05713913347776084,0.3127821764854047,-0.959577861408249,0.10526029251484213,0.5574874873255458,0.9543252428573844,-0.06118198593028491,0.6535202707044723,0.8408066399846507,0.0,0.0,0.0,0.0
0.014539392797733041,0.26170493719896537,0.755893596094627,0.00667210144087185,-0.5552826987496293,0.00837691820800277,0.8315927096680367,-0.0470583512063686,0.4380544432189857,-1.0151906042318204,0.059507521332131615,0.31445353045210606,-0.9494316821274774,0.10413209958823905,0.5568691376869872,0.9392291739817702,-0.08070505609185388,0.6379777209260056,0.8374967908121491,0.0,0.0,0.0,0.0
0.010017956714628237,0.26587364964716265,0.7542498477687798,0.006495764402687687,-0.5551409193650195,0.008384879405874516,0.8316886788268399,-0.0570927378758018,0.4180730537261799,-0.9932135509920428,0.06225918749519768,0.31597387712925423,-0.9397400147777051,0.1035687930654561,0.5557817217907426,0.9236015593723602,-0.09933067378910136,0.6222240556119517,0.832990749203813,0.0,0.0,0.0,0.0
0.005212422474633136,0.269863146102828,0.7525976624506603,0.0063849628804570945,-0.5550106405044151,0.008344274151340888,0.8317768897154942,-0.06643480608160339,0.3955388537083588,-0.9665334022179588,0.06593901211171092,0.3180593964867096,-0.9309021170026346,0.10473612344474086,0.5544104973428511,0.9074574199388543,-0.11640406483582535,0.6065564760726151,0.8278938121397228,0.0,0.0,0.0,0.0
0.0006519038869781616,0.27362637000380796,0.750858474652984,0.0063211064244192965,-0.5547695967382155,0.008289730447267133,0.8319387107940107,-0.07510195530320789,0.37328412847735426,-0.9405855222637316,0.07084074874811912,0.3211819362568932,-0.9223431259790779,0.10932159117031494,0.5540416707101607,0.8905669480452513,-0.13175665303895806,0.5912166659536144,0.8233964888865738,0.0,0.0,0.0,0.0
-0.003387425092389912,0.27689318438298455,0.7491577242445236,0.006272475095631127,-0.5545092723800035,0.008269833793627076,0.832112812513904,-0.08258380924602596,0.3526912831882123,-0.916700930756126,0.07723532683140283,0.3258313931394253,-0.9151135405918989,0.1201272160026074,0.5538795455129999,0.8727861511593035,-0.144221521489377,0.5772749216662354,0.8202811216813414,0.0,0.0,0.0,0.0
-0.006564880491540644,0.2793603124440991,0.7476377813650972,0.006187744866618062,-0.554274222424641,0.008337623883028798,0.8322693567571801,-0.08831672567272675,0.33566670568923385,-0.8972933886411464,0.08444228789559796,0.3315597619495479,-0.9104926519920831,0.13906449559541326,0.5532018251881596,0.8536909501920039,-0.15258707537719252,0.5657062072926673,0.8195550917223107,0.0,0.0,0.0,0.0
-0.008421356129416949,0.2807349813070245,0.746526708135081,0.006017764344143136,-0.5541211306730214,0.008511910537547606,0.8323707746148656,-0.09170532855413416,0.32508198733916294,-0.8859719621141918,0.09014751875422176,0.336713963773903,-0.9096888277863193,0.16191377816876965,0.552741599204119,0.8343538383304463,-0.15594533578580322,0.558064598222187,0.82157733793577,0.0,0.0,0.0,0.0
-0.00844189895984668,0.28090099171790184,0.7464228779832431,0.005897341279930691,-0.5541437245301037,0.00847765927420794,0.8323569445994687,-0.09188644048055074,0.32486030886194533,-0.8859090924085199,0.0901567081785187,0.3367267133152579,-0.9097103337221956,0.1619419057540126,0.5527785636031631,0.8343617148327843,-0.15599171886931967,0.5579631210601665,0.8214801064754459,0.0,0.0,0.0,0.0
-0.00844189895984668,0.28090099171790184,0.7464228779832431,0.005897341279930691,-0.5541437245301037,0.00847765927420794,0.8323569445994687,-0.09188644048055074,0.32486030886194533,-0.8859090924085199,0.0901567081785187,0.3367267133152579,-0.9097103337221956,0.1619419057540126,0.5527785636031631,0.8343617148327843,-0.15599171886931967,0.5579631210601665,0.8214801064754459,0.0,0.0,0.0,0.0
-0.00844189895984668,0.28090099171790184,0.7464228779832431,0.005897341279930688,-0.5541437245301034,0.008477659274207936,0.8323569445994689,-0.09188644048055074,0.32486030886194533,-0.8859090924085199,0.0901567081785187,0.3367267133152579,-0.9097103337221956,0.1619419057540126,0.5527785636031631,0.8343617148327843,-0.15599171886931967,0.5579631210601665,0.8214801064754459,0.0,0.0,0.0,0.0
-0.0075265661796635065,0.2814257674690773,0.7462671455919031,0.005946795049265539,-0.5544130080630424,0.00823860209522766,0.8321796546147037,-0.09270934413785276,0.33088292150291054,-0.8949058577673167,0.08961263858240305,0.3411894087080953,-0.916423234112045,0.15963695794927654,0.5534707905507109,0.8407386571570171,-0.16000747164827883,0.5589881965361543,0.8220509726826274,0.0,0.0,0.0,0.0
-0.005789445996996185,0.2823182898299136,0.7460224999084271,0.005934375802117713,-0.5546863283999645,0.008119366148883287,0.831998759712625,-0.09482514641050506,0.342417448033933,-0.9136854953465751,0.08814123253758382,0.3500555113633642,-0.9303398953301676,0.15700200777078074,0.5543952471190837,0.8502870472865497,-0.16554266807832752,0.5611937424303101,0.8231275056064575,0.0,0.0,0.0,0.0
-0.0032839148551027718,0.2836783177708179,0.7457633598359824,0.005839004886159784,-0.5549979465109576,0.0081262455922815,0.8317915300861951,-0.09847712218878936,0.35901341159066313,-0.9409953383949055,0.08545539878990248,0.3627444549655138,-0.9499007520085043,0.1536499836533851,0.5560237048888381,0.862516318482507,-0.17295181294202486,0.5652401012752655,0.823296689089876,0.0,0.0,0.0,0.0
6.774197319794374e-06,0.28577595271288825,0.745913753879398,0.005592208014128864,-0.5554811014154449,0.00833781819777669,0.83146855260287,-0.10445188238468323,0.3811270971061908,-0.9753120373122192,0.08066863052773787,0.37917841550518205,-0.9722025771236029,0.1489366917847453,0.5609651289235698,0.8743508468529464,-0.18296555526305594,0.5745577547998479,0.8171444820907728,0.0,0.0,0.0,0.0
0.004410936493298178,0.2893862026902765,0.7483133540610443,0.00500452044971897,-0.5566975769273708,0.009155345447860955,0.8306497109299399,-0.1153298118840771,0.4129862790058276,-1.0138620453692633,0.07084957678774531,0.40193485283703184,-0.989902499522301,0.1419213334761727,0.5805128039499587,0.8717802546782717,-0.19718698208528004,0.6038222770396615,0.7838112922258071,0.0,0.0,0.0,0.0
0.007875734396944462,0.29279888623855316,0.7503617466701402,0.005075674876643173,-0.556111166772364,0.0087999123294814,0.8310458286151372,-0.1061965755518123,0.38606591722013156,-0.9741827027129955,0.06381641158884474,0.41918628191666113,-1.0108214924574321,0.1248815118934695,0.5969468986816038,0.8667612216493608,-0.168391472654601,0.5928034041970188,0.8250986449192382,0.0,0.0,0.0,0.0
0.011855336617565092,0.29632778090443773,0.7522621104535556,0.005093185396096172,-0.5557056175775934,0.008685378618233536,0.8313181642749571,-0.09559440078433354,0.3668161649414688,-0.9541974925012265,0.055924162146182024,0.43861471545441233,-1.034255430216067,0.10829309364188787,0.6136107706571948,0.8634980466753396,-0.1411266763751347,0.5883666580029601,0.8574902415795048,0.0,0.0,0.0,0.0
0.015722535855676158,0.29998136742770426,0.7540812660688966,0.004950833945686334,-0.55556693871683,0.008786110471466116,0.8314106507080814,-0.08631960764743096,0.35379130689217375,-0.947436277411692,0.04714577522746949,0.4565944880550011,-1.0535609188048203,0.0921914783056015,0.629971823017286,0.8611393851655924,-0.12299567554042098,0.5856224617512503,0.8827269635054824,0.0,0.0,0.0,0.0
0.01925491866648344,0.30366394838917093,0.7558488628015847,0.0047022696754353424,-0.5555525669519896,0.008991054358541119,0.8314195059983115,-0.07899550723008977,0.34453254531599514,-0.9478107974396583,0.03795285495231208,0.4722147552458125,-1.0681985221380885,0.07611343476881868,0.6458245523738465,0.8586997784324589,-0.1125951979628307,0.5830969115405077,0.9031313087476439,0.0,0.0,0.0,0.0
0.022345523582957716,0.3073075560338228,0.757552521214718,0.004405117399868201,-0.5555792790222894,0.009233721104020905,0.831400624281904,-0.07341274637715972,0.3374489675600322,-0.9519027802647239,0.02866256496459235,0.48510716146630395,-1.0783304995102276,0.059788829112108616,0.6608501924252228,0.8559970785610259,-0.10686994375009518,0.5805344293114613,0.9204872784470967,0.0,0.0,0.0,0.0
0.024969705607433362,0.31085700841457475,0.7591755201078272,0.004098441672130634,-0.5556064574097976,0.009478180758914751,0.8313812791673241,-0.06902112825184631,0.33149726481832276,-0.9578294257636952,0.01950804093472689,0.49529643166975373,-1.0844754838370594,0.043210775372479596,0.6748303844265003,0.8530785390052424,-0.10344511446041092,0.5779199912209277,0.9360038377598621,0.0,0.0,0.0,0.0
0.027154004060885882,0.31426885058718845,0.7607094483849383,0.003803352012998942,-0.5556187141153968,0.009708764006081328,0.8313718295321849,-0.06525246460676784,0.3259982344315593,-0.9645599950768065,0.010656269016838806,0.5030477768250383,-1.0872968942945553,0.02655697107587372,0.6876883521482763,0.8499938502455151,-0.10090270940668881,0.5752295486256717,0.950468214588758,0.0,0.0,0.0,0.0
0.02895207455838065,0.3175124588748831,0.7621543344949101,0.003529302158953658,-0.5556135677601091,0.009920836230099674,0.8313739738262492,-0.061663510203137414,0.3205221478998253,-0.9715367319087438,0.002218202443496204,0.5087422354376695,-1.0874818045087071,0.01007746056454541,0.6994589348199245,0.8467529846132344,-0.09849783135982466,0.5724161928026954,0.9643840334875049,0.0,0.0,0.0,0.0
0.030428025464896917,0.3205698168050431,0.7635150816656954,0.003279454779397791,-0.5555938007688552,0.01011479508379033,0.8313858698847246,-0.05796456724764747,0.31480509370356197,-0.9784670311625352,-0.0057419977282726145,0.5127899443161674,-1.0856754976676481,-0.005988978468504734,0.7102416688146457,0.8433444560204687,-0.0958647999800854,0.569439447295912,0.9780692462506881,0.0,0.0,0.0,0.0
0.03164600403173,0.3234337025540225,0.7647980276953671,0.003053928029752127,-0.5555634305552885,0.010292854768948503,0.8314048383873728,-0.05399436672605542,0.3086884634091503,-0.9852086355937204,-0.013196971784591827,0.5155780710527871,-1.082449298383961,-0.02145727533021418,0.7201605705371541,0.8397602988268839,-0.09283229967180777,0.5662877350636768,0.9917181242429147,0.0,0.0,0.0,0.0
0.032664396209884566,0.3261049670476235,0.7660084041444918,0.002851515952340329,-0.5555259098618901,0.010457516997961278,0.8314285734007041,-0.04967999556307906,0.3020828316378157,-0.9917017066344662,-0.020145750416751245,0.5174444528586335,-1.0782898436419244,-0.03620696375756768,0.7293350989561959,0.836014517097781,-0.08932752769953028,0.5629899989449045,1.0054351235078678,0.0,0.0,0.0,0.0
0.033533068380714175,0.3285896020122179,0.767148273398505,0.002670617834205879,-0.555483410279937,0.010610872345554266,0.8314556260512169,-0.04500065745793178,0.2949621652612532,-0.9979189639636118,-0.026603899529044905,0.5186674890408836,-1.0736029499080284,-0.0501754112133294,0.7378586703115827,0.8321580944453072,-0.08532832206044226,0.5596222336579807,1.0192447344171374,0.0,0.0,0.0,0.0
0.03429227022969087,0.3308960866754591,0.7682142988478556,0.002509869889043669,-0.5554364760555378,0.010754235984117934,0.8314856390994038,-0.03996105832749591,0.28739737438476626,-1.0038144204687243,-0.03259514104579565,0.5194640112243925,-1.0687263229376793,-0.06334465100281247,0.745779127341206,0.8282976166772462,-0.08083168835203244,0.5563139318228606,1.0330751067473776,0.0,0.0,0.0,0.0
0.034971981540163295,0.33303336666023586,0.7691949167920573,0.0023687773584281347,-0.555383732876284,0.010887873007153409,0.8315195441910015,-0.034573899529026696,0.2796362120467756,-1.0092584689362178,-0.03814522234139582,0.5199879995211032,-1.0639442452624641,-0.07572970987728013,0.7530765686279836,0.8246231548830854,-0.07581644883607103,0.553258527537492,1.046705517563701,0.0,0.0,0.0,0.0
0.035590763323889614,0.33500984314648097,0.7700670558955645,0.002248489485252121,-0.555321695184226,0.01101074078802465,0.831559692830317,-0.02884954706273452,0.2722211659899242,-1.0139585153391186,-0.043278894440960634,0.5203246161369192,-1.0594954206077123,-0.08737379298082586,0.7596379164545636,0.8214455159450823,-0.07018286215753927,0.5507366150721033,1.0596596488916887,0.0,0.0,0.0,0.0
0.03615401777530743,0.33683387851145175,0.7707938971256403,0.002152565417722071,-0.5552451385093985,0.011120419494466708,0.8316096072641708,-0.02279305906092579,0.26609429000448526,-1.0173852818640527,-0.04802123989882683,0.5204788644165594,-1.0555642680718555,-0.09835262716586274,0.7652380697478022,0.8192283795436853,-0.06366296819571908,0.5491758559720098,1.0710205484206363,0.0,0.0,0.0,0.0
0.036653746383966054,0.33851620551169637,0.7713284272710761,0.0020866622657312902,-0.5551493139538608,0.011214055206034223,0.8316724896393908,-0.016412699699642402,0.262551085789008,-1.01875506339386,-0.052404672914112785,0.5203718068750429,-1.0522476612317577,-0.10877980580934957,0.7695629890804402,0.8185630767131256,-0.05573984542562763,0.5492970585097243,1.0791479876461736,0.0,0.0,0.0,0.0
0.037075921865412045,0.34007298575497463,0.7716343771672888,0.002053271314254918,-0.5550376134924203,0.011293470437672147,0.8317460485094126,-0.009746127157618488,0.262782974816265,-1.0171698446747703,-0.056481081260394056,0.5198857737218211,-1.0494880141596608,-0.11876301109357412,0.7723597594522711,0.8199523258737106,-0.045752697822709514,0.5523597238720699,1.0814173896570376,0.0,0.0,0.0,0.0
0.037411176539658815,0.3415214865338744,0.7717155461429183,0.0020500210417555113,-0.5549091249086738,0.011359203752788885,0.831830889662629,-0.00287393634809677,0.26677086009205836,-1.0126017815442403,-0.06029449293707967,0.5189535960935691,-1.047157782894777,-0.1283821715848539,0.7736213779937864,0.8234238308456436,-0.03381622584729508,0.5582845553914721,1.0777267922902565,0.0,0.0,0.0,0.0
0.037656676220114954,0.3428823083221562,0.771617658839338,0.0020700016385900816,-0.5547582139743731,0.01141037875496131,0.8319307918197572,0.004085646989301314,0.2733089512137269,-1.005933753766315,-0.06388641069041291,0.5175645454842835,-1.0450618141470724,-0.13769893633757943,0.7735999417296996,0.828512423147989,-0.020775375447543383,0.5656909432423263,1.070524437749932,0.0,0.0,0.0,0.0
0.037806259830853194,0.34418433938874904,0.7714002998532775,0.0021040562597592965,-0.5545864759198668,0.011450482475398718,0.832044650319392,0.011006541290387863,0.2811020736745294,-0.9979533678318047,-0.06732342645721429,0.5156762958961425,-1.0428521532736468,-0.14678389690978158,0.7726291582518425,0.8346334870383184,-0.007277728638692721,0.5737857280599765,1.061325144888055,0.0,0.0,0.0,0.0
0.0378423640644725,0.3454605166443242,0.7711156872842967,0.0021458740453617698,-0.554395455776013,0.011482498723444723,0.8321713922399365,0.01778457390493145,0.2892131889288683,-0.9891901877929463,-0.07068163908628076,0.5131682213715619,-1.040092186057971,-0.1557484484898041,0.7709677751741277,0.8413047031201569,0.006307062931178615,0.5820989576537672,1.05096408759234,0.0,0.0,0.0,0.0
0.03773595489972669,0.3467446828121217,0.7708046545755193,0.0021921626965977505,-0.5541846856720368,0.011508045988907072,0.832311296010582,0.024342431027572654,0.2971081148995176,-0.9799345720904619,-0.07403748429335974,0.5098457702648053,-1.0362914541727808,-0.1647266500009136,0.7687702105886582,0.84817727128441,0.019792991842591607,0.5903198845300893,1.0398692280685575,0.0,0.0,0.0,0.0
0.03744888010874924,0.3480703538731004,0.7704985590675361,0.0022420721863112285,-0.5539513470489527,0.011527307327010615,0.8324662151707725,0.03063038518923003,0.30454827769127546,-0.9703157423864873,-0.07746389729040472,0.5054559803037755,-1.030922278569382,-0.17385962586930306,0.766103260714614,0.8550050719813268,0.03309282576624214,0.5982229723387715,1.0282446135422714,0.0,0.0,0.0,0.0
0.03693682136530182,0.34946994978897894,0.7702221589520019,0.002296941236364227,-0.5536904004849094,0.011538960140715529,0.8326394879362186,0.03663512252030121,0.3114684524597538,-0.9603810684272995,-0.08102769008340001,0.4997040106032213,-1.023431523368312,-0.183285211588108,0.7629723425380701,0.861604488082188,0.04617711724916493,0.6056342591710898,1.0161862123223735,0.0,0.0,0.0,0.0
0.036153289325049104,0.3509729108595248,0.7699955257996834,0.0023605156740752163,-0.5533947403501054,0.011539868645309209,0.8328358306114362,0.04239798103175198,0.3178925115258517,-0.950153329100365,-0.08478418026795294,0.49227523483682945,-1.0132659056691935,-0.1931255679235621,0.7593456385847581,0.8678216612567178,0.059072543475616565,0.6124166557332053,1.00375806921312,0.0,0.0,0.0,0.0
0.03505610687650083,0.3526012392674608,0.7698342369096217,0.002439631775099056,-0.5530551337448087,0.011524340331354209,0.8330613763794603,0.04803557630421534,0.32389663644552946,-0.9396610054469211,-0.08876556143974285,0.4828740111991901,-0.9999337151137545,-0.20346622445418094,0.7551752769678407,0.8735108298700293,0.0718986975519428,0.6184741657444222,0.9910552756689968,0.0,0.0,0.0,0.0
0.03361829348865853,0.35436092274395325,0.7697473764493031,0.002545539694863129,-0.5526596454533027,0.01148253303437821,0.8333240593851866,0.0537483863113349,0.329610839501397,-0.928942641253778,-0.09295941559141278,0.4712952285135654,-0.983134197930126,-0.21432415493803866,0.7504183528267413,0.8785250752053687,0.08496550221405658,0.6237899285006067,0.9782795508733035,0.0,0.0,0.0,0.0
0.031845653796531447,0.3562274309341579,0.7697325073171746,0.0026965912799842323,-0.5521918191481727,0.01139704399298786,0.8336348305160494,0.05979551420798602,0.3352393157061677,-0.9180258317662797,-0.09727310255869852,0.4575521562933144,-0.9630045028356288,-0.2256105962373029,0.7450598308092107,0.8827257598648434,0.09899918632121092,0.6285282137356698,0.9658544120776985,0.0,0.0,0.0,0.0
0.02980383640107837,0.35812307459976744,0.7697655248830306,0.002924553970933655,-0.5516247747545241,0.011234900933788967,0.8340115897648543,0.06641445960221906,0.34105589145941106,-0.9068694650830107,-0.10147727679390084,0.44209710519957074,-0.9405774200376051,-0.23711247486588732,0.7391315437269339,0.8860281207394332,0.11564266211795271,0.6332536792506089,0.9545899237775266,0.0,0.0,0.0,0.0
0.027657075521927428,0.35988293282207406,0.7697808931492214,0.003293318570395441,-0.5508846536558144,0.010910231832155564,0.8345035765415724,0.07377176191247765,0.3471500893439107,-0.8950801104099825,-0.10507950621967692,0.426197020320881,-0.9187531098350553,-0.2486314144534778,0.7326799345596213,0.8884756426115723,0.13834770042281025,0.6393260248367169,0.9456257579217263,0.0,0.0,0.0,0.0
0.025717457770245672,0.36129192851924163,0.7696992847488092,0.0038901997789699324,-0.5498214321144196,0.010338529145645703,0.8352091797558459,0.0826452235006733,0.35310326337315684,-0.8822768699296466,-0.10755257808619295,0.412315965186452,-0.9028310574569662,-0.25982765039352157,0.7258419352109574,0.889981705548232,0.17321986528989122,0.6483838237444847,0.940493857829397,0.0,0.0,0.0,0.0
0.024112067473783624,0.36225741062632955,0.7695472965017318,0.004714238746909187,-0.5484419808500236,0.009486184236019272,0.8361215114461412,0.09265187057851619,0.35766272774463864,-0.8692778345184183,-0.10863734672450658,0.4016443329493222,-0.8947651899263147,-0.27042791488066475,0.7191453529215672,0.8901165915558165,0.2227658046259688,0.6591779782632228,0.940961150934977,0.0,0.0,0.0,0.0
0.02297491016505609,0.36275035470713796,0.7689883065176417,0.005411324132391989,-0.5469392189679816,0.00865048953492898,0.8371101345442155,0.10168903550602498,0.358138353236533,-0.8587463669926244,-0.10864986538736393,0.39471151758439355,-0.8949402089343658,-0.2772234584998766,0.7107344350130819,0.8928349386008956,0.27342044867966536,0.6655498402610218,0.9483273104722783,0.0,0.0,0.0,0.0
0.022987457416013733,0.36279551658707954,0.7689748123392228,0.005416790636311998,-0.5469141009529505,0.008630885601462182,0.8371267122555359,0.10173833832196838,0.35815532198681993,-0.8587430640943441,-0.10871018285325489,0.39460792939558437,-0.8949112727739892,-0.2772627678553513,0.710657569146004,0.8927636182178043,0.2734382869151504,0.665570511846245,0.9483381204374008,0.0,0.0,0.0,0.0
0.022987457416013733,0.36279551658707954,0.7689748123392228,0.005416790636311998,-0.5469141009529505,0.008630885601462182,0.8371267122555359,0.10173833832196838,0.35815532198681993,-0.8587430640943441,-0.10871018285325489,0.39460792939558437,-0.8949112727739892,-0.2772627678553513,0.710657569146004,0.8927636182178043,0.2734382869151504,0.665570511846245,0.9483381204374008,0.0,0.0,0.0,0.0
0.02331857853688259,0.3631496165291347,0.7691731952197267,0.005443285701029469,-0.5478400615520028,0.008766801802965601,0.8365194443559708,0.10045638163399294,0.36030648819615335,-0.8575989418739474,-0.10976374162942096,0.3950586056149574,-0.8900807932808146,-0.2815843025483253,0.7153592085477432,0.8941513439796739,0.2748781249950335,0.6705701375447669,0.9483692149229132,0.0,0.0,0.0,0.0
0.024013396876886046,0.36368666190280463,0.7692500277886866,0.005452950816103602,-0.5484360230393167,0.008832447997353587,0.8361280893634594,0.09908981672384579,0.3653839545936302,-0.8631509966010127,-0.11122631229137442,0.3973857194441651,-0.8901748444791806,-0.28740514104133763,0.7195720087703785,0.8965196855096447,0.27471444320654725,0.6747706126176984,0.9483372416816296,0.0,0.0,0.0,0.0
0.025184486512332998,0.3643646916307752,0.769211294965598,0.005367399071841048,-0.5489327705924787,0.00897129635572136,0.8358011248129344,0.09745646294928396,0.3737111799640884,-0.8751428348089022,-0.11323599284721178,0.4021750686646207,-0.894692161082242,-0.29392437371919716,0.7240239021480487,0.900263090858193,0.2752953941236735,0.6795632869543262,0.9490501143921708,0.0,0.0,0.0,0.0
0.026903392485185626,0.3652148960707405,0.7690884982539987,0.005060841040862738,-0.5496673542816995,0.009408197896197781,0.8353153137212688,0.0950236674195883,0.38539439442755774,-0.89262296157584,-0.11622077946189267,0.40944780875664216,-0.9013745728534899,-0.30032834903695027,0.7296955250367823,0.9059010253219456,0.27966700639630154,0.6869898996024915,0.9511404525656753,0.0,0.0,0.0,0.0
0.029204540993498722,0.36634213022813095,0.7690147622592498,0.004568614279221898,-0.5511225791494199,0.010312547413721295,0.8343480579956417,0.09102085073259347,0.4003706379562169,-0.9130087224120769,-0.12075392413362938,0.41881743757629714,-0.9065120229002648,-0.30808307845290134,0.7389318849220156,0.9133905812366016,0.289786032813727,0.6999005079399235,0.9543236341196318,0.0,0.0,0.0,0.0
0.031015037439011243,0.3679952951089898,0.7696864441491815,0.006055433699901826,-0.5506590313190348,0.008355603924051526,0.8346664883847635,0.0906885450403876,0.41552666688834305,-0.9319606578843769,-0.11063256652943858,0.40204359823665664,-0.8997462932939149,-0.24589606258328595,0.7109966310884422,0.9202068897254446,0.2585273482066008,0.7011196503332153,0.9418425782014257,0.0,0.0,0.0,0.0
0.03296308779124082,0.3696456712950754,0.7701731511116104,0.007165755931249705,-0.5508567068092468,0.007106558221601704,0.8345388171531917,0.0889639125279726,0.4305979143611601,-0.9501191873869941,-0.0977457152411524,0.38815944934178154,-0.9017599497423954,-0.1886841952571372,0.6889995036824769,0.9273750903571022,0.23638586295009778,0.7056449115510585,0.932843687195479,0.0,0.0,0.0,0.0
0.03494733539636554,0.37123810038697796,0.7705774152613806,0.007700298484957489,-0.551451427252893,0.006666711907032294,0.8341448218003504,0.08594593323532379,0.4452381633083197,-0.9681974787010975,-0.0866086151007848,0.37795890993537357,-0.9087371286297946,-0.1483993657038573,0.674914753475614,0.9366771517200284,0.2239151672665989,0.7132501071830918,0.9260219000865146,0.0,0.0,0.0,0.0
0.036748885946188116,0.3727505250850767,0.770925960080255,0.007954732484665591,-0.5520778657030463,0.006561082700420391,0.8337287956078192,0.08253316668016389,0.458472368412905,-0.9849836042917246,-0.07769359243280925,0.36982720977208106,-0.917981428281689,-0.1208634974983559,0.6654316521332624,0.9475285359938649,0.21523363160958614,0.7211380415875233,0.9200057583103409,0.0,0.0,0.0,0.0
0.03824675581509709,0.3741764755309048,0.7712574660390961,0.008116020792398442,-0.5526065166525528,0.006529805505528908,0.8333771832727899,0.07916794664926301,0.4697823095939031,-0.9994218124825991,-0.0703916626768695,0.36279679864969044,-0.928077711242646,-0.10079068837080815,0.6580196328912971,0.9591674928633395,0.20725497700922474,0.728063509050832,0.913983103872689,0.0,0.0,0.0,0.0
0.03940508893499504,0.3755226815076469,0.7716030077338457,0.008264747945291105,-0.5530174752713026,0.006476483366749845,0.8331034876587393,0.07598292702443557,0.47908276797394067,-1.0111143542187178,-0.06394873744398581,0.3562667581987775,-0.9383530076501817,-0.08462967476240876,0.6512234269014368,0.9710718007882816,0.19878783215268825,0.7337187888138971,0.9075686368610305,0.0,0.0,0.0,0.0
0.04024290887773251,0.3767984111321309,0.7719771409772259,0.00841561933492634,-0.5533441847860899,0.006399137147221635,0.8328856113287095,0.0729522172952722,0.4865328403250054,-1.0201134700326902,-0.05779831959183677,0.3498982973369393,-0.948526253084803,-0.07031962880332235,0.644388722597413,0.9829579746057543,0.1898473928436607,0.7383155327024787,0.9007159047014213,0.0,0.0,0.0,0.0
0.04080777210055051,0.37801288765604113,0.7723816883302955,0.008550038111324614,-0.5536429957354905,0.0063415284465114736,0.8326860843909237,0.06997799020007707,0.49240138885239904,-1.0266979894844084,-0.05163701060744901,0.34356839419702684,-0.9584952235048613,-0.05662163959630951,0.6373142760942121,0.9946964340255203,0.1810660565972539,0.7423101131008022,0.8935777577264817,0.0,0.0,0.0,0.0
0.04114024763236549,0.379199675429708,0.7728061764011083,0.008701605464139384,-0.5538719403268565,0.006248061917937473,0.8325329528031784,0.06709523421948896,0.49701470685055144,-1.0314933021153403,-0.045226917063585836,0.3368060885646411,-0.9681850060675238,-0.04341770776287804,0.6297078778813441,1.006221118689077,0.17163753179883925,0.7454656473169264,0.8860261024055954,0.0,0.0,0.0,0.0
0.04129670748437447,0.3803640805783295,0.7732388301692398,0.008836010811979728,-0.55409026359451,0.0061798294554483634,0.8323867577097791,0.06418905447729101,0.5006400553810881,-1.0348466553006215,-0.03859617525595649,0.32971192270341076,-0.9776182774579724,-0.030172293491518162,0.6217004607266895,1.017532532292747,0.16243447005667483,0.7482642857077894,0.8783619487261365,0.0,0.0,0.0,0.0
0.041318821719564844,0.38152152514902604,0.7736640094954915,0.008948207354527674,-0.5543077090243866,0.006144709284464573,0.8322410323031938,0.06121885627797659,0.5035144130363087,-1.0371695873557898,-0.03177553902406081,0.32221340491289613,-0.9868100777426146,-0.016786869006840295,0.6133364082212855,1.0286261986516774,0.1535375899704824,0.7507967362158751,0.8707359060269615,0.0,0.0,0.0,0.0
0.04123557266751156,0.38269313955201656,0.7740665001273273,0.00904469767387236,-0.5545141821330225,0.0061300201992318636,0.832102540622062,0.05816537095748828,0.505831074248796,-1.0388469131471438,-0.024803841224274877,0.31421144499812226,-0.9957470454756272,-0.003313071195254964,0.6046442375210558,1.039464007556488,0.14470490965031235,0.7529901159425183,0.8632100787384018,0.0,0.0,0.0,0.0
0.04106724462154394,0.38389865341290536,0.7744287837757908,0.009123971870750322,-0.5547097539899435,0.006136486981959041,0.8319712648242356,0.054985369387866107,0.5077244231581476,-1.0401688772365718,-0.01774615592294177,0.3057503900711857,-1.004380249841605,0.010240347217961536,0.5957308673636946,1.049949231616676,0.13585896685362178,0.7548051444653482,0.8559107020205072,0.0,0.0,0.0,0.0
0.040823736337528255,0.38515980644553927,0.7747269806167266,0.009182444717877011,-0.5548945510894648,0.006167245481947638,0.8318471524044485,0.05162484552007532,0.5092721326056405,-1.0413723701911854,-0.010669582946086147,0.29705014410411934,-1.0125662602340895,0.023815532493653875,0.5867699555157471,1.0598635584451062,0.12692688320838103,0.7561425630389494,0.8490298305979597,0.0,0.0,0.0,0.0
0.040503199726240474,0.3865030100129473,0.7749275938143744,0.009217921092739445,-0.5550627434066643,0.006221020858816193,0.8317341400423994,0.04802567889817306,0.5104946250854367,-1.0426665196310159,-0.003637152191303083,0.28860809222965145,-1.0199798683629646,0.03722172974791303,0.578014794771945,1.068757125418139,0.11774850325674668,0.7567832448947711,0.8428317596359842,0.0,0.0,0.0,0.0
0.04009106090269454,0.387958566792307,0.774984787156547,0.009228876887715544,-0.5552035607062531,0.006292106087171455,0.831639491252957,0.04412807995275228,0.5113444015266589,-1.0442236169157826,0.003286538324106539,0.28132065720416716,-1.0260297480202558,0.0500339395347134,0.5698735003643821,1.0757683743478772,0.10809791379117298,0.7563764779274079,0.8376866835207646,0.0,0.0,0.0,0.0
0.03956234143401358,0.38955349093243397,0.7748429400297975,0.009203204226371308,-0.555319390605803,0.0063884828351949375,0.8315617010999434,0.03985558136071476,0.5116917037230361,-1.0461041841226726,0.01000194917065792,0.2765224736261634,-1.0298353149516257,0.06159515820213335,0.5631092567415156,1.079348990622388,0.09795414565091964,0.7545702323665299,0.8341287037839895,0.0,0.0,0.0,0.0
0.03888835493723421,0.3913074934410249,0.7744576841909222,0.009116509505441586,-0.5554360727120038,0.006535905765747368,0.8314835779018874,0.035116469444708406,0.5113605727640982,-1.0481842128437577,0.016359721371165103,0.27552951425576394,-1.030356227625417,0.07116576210520711,0.559086669722058,1.0770050883399098,0.08755847534993007,0.7511898393297287,0.8326670875942911,0.0,0.0,0.0,0.0
0.03803913765783391,0.393249869318123,0.7738246379354686,0.008967510008390949,-0.5555513496428648,0.0067312729956511465,0.8314066223203294,0.029840542116045952,0.5102294194961833,-1.05031508911201,0.02227482457892493,0.2782944613992031,-1.0275393560637365,0.07857203448168514,0.5578444608258655,1.0688182898800362,0.0766977862261839,0.7461255373814247,0.8332183809527905,0.0,0.0,0.0,0.0
0.036985973916383176,0.3954186602227685,0.772978859792158,0.008775104033097118,-0.5556399251983254,0.006948875852811941,0.831347691522139,0.023970223711732803,0.5082383245711407,-1.0523296276873801,0.02774193092098657,0.28344560330921825,-1.022348695351349,0.08429715537851064,0.558083187578589,1.0573988783430257,0.06482950934672052,0.7393888422557559,0.8351169993735089,0.0,0.0,0.0,0.0
0.03569812529943133,0.39784402417988896,0.7719661377756231,0.008549501585459966,-0.5556961504460495,0.007176716320267338,0.8313105251017456,0.017444080802975485,0.5052909037906756,-1.0538978525854712,0.03274769450741384,0.2895837923411961,-1.0155951242354453,0.0887906551584785,0.5590500675483122,1.044355757029286,0.05167903067052711,0.7311712488163818,0.8376452377491,0.0,0.0,0.0,0.0
0.0341362696017539,0.400549100929701,0.7708224127905944,0.00829626224699999,-0.5557208853780737,0.007408213683214223,0.831294525398407,0.010213269557228394,0.5012136677237364,-1.0545867040348098,0.03727761909870298,0.2957222061835206,-1.0078007202287553,0.09227694745686744,0.5603012848645884,1.0305671546595365,0.037130861627148945,0.7216393104525118,0.8402257939806943,0.0,0.0,0.0,0.0
0.0322541012283657,0.40354998064038944,0.769571335487347,0.008021165125556192,-0.555714248380354,0.007635212227817067,0.8312996081987065,0.002255713597367641,0.4957658230595142,-1.053898358858893,0.041324740672271,0.30130111541129145,-0.9992480865738295,0.09481401631517367,0.5615480297948741,1.0164680819423821,0.02114900933313465,0.7108853379823573,0.8424206460705446,0.0,0.0,0.0,0.0
0.030002859872999083,0.4068518680514565,0.7682273265653279,0.007731279264552707,-0.5556757601437333,0.00784804782635578,0.831326100308978,-0.006413642387326378,0.48865596598796973,-1.0512770102686833,0.044895585677208534,0.30607133041492657,-0.9900841388600612,0.0964061532042169,0.5625937682412296,1.002236770091344,0.0037970472332226023,0.6989606663920932,0.8439046275688858,0.0,0.0,0.0,0.0
0.027336286704175244,0.4104434118753188,0.7667998621342517,0.007435186445090564,-0.5556060685987667,0.008036951808494591,0.8313735754426991,-0.01573075117731807,0.47955830075585637,-1.0461045704640657,0.048019966798667255,0.30996931049477944,-0.9804183008939219,0.09708664200753417,0.5633066779430708,0.9879034830928642,-0.014728269127720559,0.6859210649507943,0.8444413903284212,0.0,0.0,0.0,0.0
0.02421624129489703,0.41429090389168544,0.7652980810741273,0.007143555795128508,-0.5555079089845956,0.008192693135205048,0.8314402037701548,-0.025569362201240474,0.4681345037086894,-1.0377058093149005,0.05076722558961586,0.3130318909874589,-0.9703928237115219,0.0969684058758516,0.5636004745223114,0.9734107185705685,-0.03408629234662804,0.6718638773142023,0.8438619497154496,0.0,0.0,0.0,0.0
0.020620526369332218,0.4183334238337481,0.7637353275839338,0.006869832972417858,-0.5553862625331111,0.008306875463748555,0.831522639862838,-0.03573119353755481,0.45407136858885716,-1.0253830975662084,0.05327104187798772,0.3153657156980172,-0.9602217955453645,0.09628510544429118,0.563419488286956,0.9586497855636491,-0.05380557770428317,0.656957688367818,0.8420497038426841,0.0,0.0,0.0,0.0
0.01655521133134266,0.4224798571372835,0.7621323877168249,0.00663013088104497,-0.555248329221697,0.008373093909916057,0.8316160325290692,-0.045945083305693725,0.43714708681842096,-1.00850842827516,0.0557623373870501,0.3171772845056739,-0.9502002117501283,0.09544857062313658,0.5627370840964535,0.9434937607331831,-0.07331112235212928,0.6414656215323773,0.8389486203922917,0.0,0.0,0.0,0.0
0.012074547599130691,0.426608442783165,0.7605151271329353,0.006440742587715667,-0.5551039262902231,0.00839029156628165,0.8317137433393356,-0.055880408026589494,0.4173424075057032,-0.9867202466571348,0.05860043379121839,0.318869104703421,-0.9406889072212636,0.09515096717788626,0.5615881647401257,0.9278425013351366,-0.09195300014675373,0.6257448974990475,0.8346477842175276,0.0,0.0,0.0,0.0
0.007311625209743802,0.4305676795433252,0.7588909698216989,0.006314306958745052,-0.5549649227753062,0.00835726328069122,0.8318078024201783,-0.06514887845757641,0.39501155041086916,-0.9603080644363451,0.06231134598161597,0.321169414595234,-0.9321120007350725,0.09648249341619634,0.5601618399522433,0.9117426572162457,-0.10908480658055746,0.6101016102918965,0.8297049784421184,0.0,0.0,0.0,0.0
0.0027617458334997487,0.4343036017114591,0.7571898546055276,0.0062353395908336055,-0.5547240676808083,0.008312522773923093,0.8319694893690381,-0.073754783419905,0.3727963656170979,-0.9342911579835402,0.06727620258837932,0.32458301649614424,-0.9239365789285446,0.10104872076134698,0.559706350515228,0.8950002992518797,-0.12447681754850752,0.5948139007476613,0.8252509693962518,0.0,0.0,0.0,0.0
-0.0012708029974766773,0.43755600625996427,0.7555303672434127,0.006174978012738483,-0.554462543050196,0.00829923091350127,0.8321443869708526,-0.08120267144012619,0.3522447559656118,-0.9103310592144935,0.07369151509416509,0.3296553484358397,-0.9172085493097779,0.11147477440787865,0.559504594075297,0.8775939635655917,-0.1370233298989221,0.5809619474294501,0.8220470651431842,0.0,0.0,0.0,0.0
-0.004444482387087004,0.44002089264165584,0.7540562354792942,0.006086086852682951,-0.5542289425092558,0.008371003962967827,0.8322999249817012,-0.0869301751352358,0.3352664969063937,-0.890817941476523,0.08091208490537928,0.33602888904232814,-0.9133126949083034,0.12962440331110067,0.5588031714472792,0.8592482238519858,-0.1455026267362807,0.5695566921110088,0.8210678745258074,0.0,0.0,0.0,0.0
-0.00629619962319646,0.4414015432536603,0.7529881479353007,0.005924300722294511,-0.5540804591882346,0.008547344047840461,0.8323981561226783,-0.09033770591578066,0.32474785808538276,-0.8794061355943555,0.08666741999156595,0.34210370111710803,-0.913655767454699,0.1515366907565458,0.5581871107575505,0.8411469985341126,-0.148991953594778,0.5621251127686077,0.8227434849136334,0.0,0.0,0.0,0.0
-0.006317869789677973,0.4415692179984166,0.7528848474727787,0.005802613814905233,-0.5541030966327958,0.008513125339769051,0.832384295065573,-0.09052066554087966,0.32452612197572567,-0.8793438664699872,0.08667613850945577,0.34211683772491,-0.9136777239436171,0.15156389348718327,0.5582245649729491,0.8411552815176886,-0.14903783949699878,0.5620233332857191,0.8226465594352447,0.0,0.0,0.0,0.0
-0.006317869789677973,0.4415692179984166,0.7528848474727787,0.005802613814905233,-0.5541030966327958,0.008513125339769051,0.832384295065573,-0.09052066554087966,0.32452612197572567,-0.8793438664699872,0.08667613850945577,0.34211683772491,-0.9136777239436171,0.15156389348718327,0.5582245649729491,0.8411552815176886,-0.14903783949699878,0.5620233332857191,0.8226465594352447,0.0,0.0,0.0,0.0
-0.006317869789677973,0.4415692179984166,0.7528848474727787,0.005802613814905233,-0.5541030966327958,0.008513125339769051,0.832384295065573,-0.09052066554087966,0.32452612197572567,-0.8793438664699872,0.08667613850945577,0.34211683772491,-0.9136777239436171,0.15156389348718327,0.5582245649729491,0.8411552815176886,-0.14903783949699878,0.5620233332857191,0.8226465594352447,0.0,0.0,0.0,0.0
-0.005412141379849739,0.4420863088253187,0.7527295196184761,0.0058640597540177645,-0.5543735619915279,0.008265347513103354,0.8322062548422203,-0.09130908592212204,0.33051284670804526,-0.8882450406591775,0.08615185420505263,0.34650748856769115,-0.9202769249027853,0.1490886640939715,0.559054254538557,0.8473685382361674,-0.15310023094983113,0.5630176210737948,0.8232326776184553,0.0,0.0,0.0,0.0
-0.003691976723747425,0.4429572367575881,0.752485032289697,0.005857630815688772,-0.5546524549307811,0.008142197172384508,0.8320216625940042,-0.09335542834577697,0.3419837097029912,-0.9068642810571571,0.08471821030107603,0.35525154832885747,-0.9339524000145645,0.14634476948596203,0.560172570966844,0.8566104893700901,-0.15856319944243136,0.5651973713748403,0.824402072984395,0.0,0.0,0.0,0.0
-0.0012105011208940713,0.4442802730360701,0.7522250561213873,0.005763544945683456,-0.5549723502651631,0.00814950005910631,0.8318089069249059,-0.09689797049944637,0.35848580485721115,-0.9339555411608943,0.08209383700562543,0.367778549460367,-0.9531781537959652,0.14293795131388823,0.562043031589038,0.8683949702148135,-0.16578325428314067,0.5692083507279698,0.8247592156086294,0.0,0.0,0.0,0.0
0.0020479294497785434,0.44632108474300763,0.7523646338958946,0.005512723307846813,-0.555462773747858,0.008367511176738309,0.8314810290191678,-0.10271361578446069,0.3804457802754523,-0.9680072528253871,0.07740434297494352,0.3840026574392864,-0.9750944851506494,0.1382409498172868,0.5672075988847509,0.8797040052757759,-0.17546122297090203,0.5784079104701334,0.8190092296642143,0.0,0.0,0.0,0.0
