zhuoxili-jackie/tripod-support-walk/examples/trajectory_tripod_com_tilt_v0.10.csv
root_pos_x,root_pos_y,root_pos_z,root_rot_x,root_rot_y,root_rot_z,root_rot_w,FL_hip_joint,FL_thigh_joint,FL_calf_joint,FR_hip_joint,FR_thigh_joint,FR_calf_joint,RL_hip_joint,RL_thigh_joint,RL_calf_joint,RR_hip_joint,RR_thigh_joint,RR_calf_joint,FL_foot_joint,FR_foot_joint,RL_foot_joint,RR_foot_joint
0.0,0.0,0.72963,0.0,-0.5231245161092812,0.0,0.852256264656019,0.0,-0.81,0.872,0.0,-0.81,0.872,0.0,0.65,1.0,0.0,0.65,1.0,0.0,0.0,0.0,0.0
-0.00011379801195272242,0.00028340442582585896,0.7296171938196108,-9.502125416188224e-05,-0.5230629156668025,0.0001106315386011248,0.8522940601610265,-0.0009594910389908478,-0.8107932665762135,0.8725394578206004,-0.000959491038990847,-0.8088163866866489,0.8698826784642143,-0.0006258210180635793,0.6491587436664983,1.0009353859421746,-0.0006258210180635843,0.649722679240879,0.9992432527873093,0.0,0.0,0.0,0.0
-0.00025172684293964004,0.0006234668778545374,0.7296085887670205,-0.00021302840551972583,-0.5230023586085247,0.0002449725440520632,0.8523311724308053,-0.002113106064055243,-0.8116392933320846,0.8730856980317281,-0.0021115860860506696,-0.8072698181013586,0.8672189059629876,-0.0013403908673303802,0.6482043741423352,1.0020188618301344,-0.0013383867010502131,0.6494666636207168,0.9983016757256024,0.0,0.0,0.0,0.0
-0.00037978055424039644,0.0009330519728413449,0.7296056564018043,-0.00032317370198335025,-0.5229465788135222,0.00036458059469112906,0.852365319770215,-0.003154618055931801,-0.8123803550596369,0.8735496263870696,-0.0031500634230276167,-0.8058278869428585,0.8647486875411079,-0.001989758552285451,0.6473540414495369,1.0029599171409151,-0.0019838540443068487,0.649248983003146,0.9973952079754151,0.0,0.0,0.0,0.0
-0.0004763787558603364,0.0011843847034506206,0.7296063440902868,-0.0004107934371578415,-0.5229019412652254,0.0004539323756498115,0.85239262374519,-0.003980382511175635,-0.8129908103463391,0.8739795628295768,-0.003972273482883728,-0.8046913547656017,0.8628111006236913,-0.0025763978465603923,0.6467244650147882,1.0036965940813252,-0.0025656269332129627,0.6490912456672334,0.9966156108588882,0.0,0.0,0.0,0.0
-0.0005352249207489198,0.0013776523543384352,0.7296080789072668,-0.0004725714007030571,-0.5228733912553282,0.0005111004920760291,0.8524100727758388,-0.004587565500398711,-0.8134773178800037,0.8744116476324577,-0.004576231082194362,-0.8038842922851618,0.8614596865158556,-0.0031352896631812645,0.646343916387868,1.0042620926359418,-0.003119218461071961,0.6490011945044567,0.99598939526016,0.0,0.0,0.0,0.0
-0.0005615519901588723,0.001523008095895011,0.729608955786973,-0.0005126426813687267,-0.5228611104845974,0.0005418241469227168,0.8524175636194321,-0.005014835444527159,-0.81385680471373,0.8748454177914088,-0.005000963026831107,-0.8033464043464404,0.8605951666643772,-0.0036736392529703866,0.646172546842643,1.004707823520258,-0.0036520520612809983,0.6489692983823898,0.9955113746847001,0.0,0.0,0.0,0.0
-0.0005640369380292984,0.0016309612085134875,0.7296079822756436,-0.0005367329984532892,-0.5228629890484988,0.0005530623856518091,0.8524163892857499,-0.005304130772660446,-0.8141429739313282,0.8752609856231025,-0.0052884341212122935,-0.8030029214684382,0.8600867424695581,-0.004183164902836252,0.6461538224278643,1.0050741287241374,-0.004155986547174944,0.6489800464028728,0.9951660109676911,0.0,0.0,0.0,0.0
-0.0005501363891926048,0.0017082017141670037,0.7296050506749258,-0.0005486772611448574,-0.5228770898948302,0.0005493361889081052,0.8524077346235944,-0.00548227101349949,-0.8143363648357229,0.8756287018993545,-0.005465398734989933,-0.8027968241826283,0.859832615043377,-0.004656746344641955,0.6462465895626046,1.0053820606321717,-0.004624033996042003,0.6490195062298527,0.9949390480222169,0.0,0.0,0.0,0.0
-0.0005278880228245196,0.0017562068108540054,0.7296009729965937,-0.0005521035473542989,-0.5228994016067435,0.000534082964751774,0.8523940554323272,-0.005560022270874296,-0.8144298258090746,0.8759029813401704,-0.005542562080293018,-0.8026920454879278,0.8597569713562105,-0.005059738410174775,0.646407404664633,1.0056237424150671,-0.005021964600845538,0.6490705719101365,0.9948208906180442,0.0,0.0,0.0,0.0
-0.0005116476443132147,0.0017721215749197344,0.7295975834143897,-0.0005551336585264854,-0.5229193854407597,0.0005138868673510394,0.8523818065146433,-0.00554286768497436,-0.8144200538528898,0.8760041956685363,-0.005525303472692646,-0.8026536190187852,0.859761953031832,-0.005279147325064119,0.6465452534478155,1.005755133556303,-0.005238107735152368,0.6491018643495977,0.9948037945138256,0.0,0.0,0.0,0.0
-0.0005231462294947358,0.0017509463161880026,0.7295972866432473,-0.0005738643264881876,-0.5229167534720973,0.000501730101641687,0.852383416007633,-0.005443248705592839,-0.8143381403273173,0.8758440055197534,-0.0054258449814207545,-0.8026474328500732,0.8597193323173306,-0.005095539863123442,0.6464954766733643,1.0056979937152855,-0.00505568072439828,0.6490662115332739,0.9948767739523999,0.0,0.0,0.0,0.0
-0.0005905085120184956,0.001693271592604691,0.7296020314146074,-0.0006353733827577466,-0.5228618115892004,0.0005198948112094103,0.8524170645826544,-0.005306229570098942,-0.814282914448001,0.8753708554029002,-0.0052887854945924025,-0.8026186882831723,0.8594423792866746,-0.004199730919506572,0.6460113377059867,1.005371667112203,-0.004168471257322783,0.6489074264671129,0.9950112640317492,0.0,0.0,0.0,0.0
-0.0007437910706797121,0.0016242882467023953,0.7296170807083194,-0.000766684925572345,-0.522744351728811,0.000586993450486008,0.8524889502911689,-0.005229014651624344,-0.8142665020000974,0.8744821370041111,-0.005210598140000473,-0.8023175534322594,0.8585107336645131,-0.0024800688392821193,0.6449312850040524,1.0047936615977675,-0.002462351811075759,0.6486098978970598,0.9950999158502322,0.0,0.0,0.0,0.0
-0.001000379612666302,0.0016507203903755674,0.7297423060261897,-0.000816687409755288,-0.5229367397645978,0.000515348373586145,0.8523709483799303,-0.005059000617879042,-0.8113667655021916,0.8706583794425017,-0.005040530789915189,-0.799311782582962,0.8543849115838034,-0.0028044723254984846,0.6454013685438644,1.0044243446691838,-0.0027806841536966533,0.6488505551533239,0.9944234612448637,0.0,0.0,0.0,0.0
-0.0010606264707659415,0.0015727033374760822,0.7297620081759822,-0.0009626002277002091,-0.5229715253461116,0.0005250868150563147,0.852349447915466,-0.004790439020412295,-0.8108242565992319,0.8697532038561124,-0.011426136174496731,-0.8117450523981213,0.8545263727803388,-0.0013106947339918827,0.6451385366663478,1.004060533222002,-0.001294049835204226,0.649127068598988,0.9946816101217331,0.0,0.0,0.0,0.0
-0.0010271949723626142,0.001474454540341136,0.7298107963896078,-0.0010399836234815866,-0.5231502727599927,0.0004256463916484384,0.8522397135608956,-0.004214294195539797,-0.8095102237308135,0.8686452955287854,-0.020411034624508065,-0.8279058286266366,0.8504689419519305,-0.0007986981234552328,0.6460278930895511,1.003705557514806,-0.0007815646421174206,0.6498366276115369,0.9948393189690479,0.0,0.0,0.0,0.0
-0.0009411493687104258,0.0013498528968890052,0.7298764459094893,-0.0010836448913518649,-0.5233918894655417,0.0002707546488329002,0.8520913580405329,-0.0034414595801867892,-0.8078499129568741,0.8674829744748928,-0.029861878120810946,-0.8450778437298585,0.8442829700472279,-0.000666864211408694,0.6474917957196413,1.003253821975849,-0.0006489270156000348,0.6507741273174729,0.9949567624503458,0.0,0.0,0.0,0.0
-0.000824437499918037,0.001189349184009712,0.7299450719111634,-0.0011154520954739253,-0.5236382937339475,9.856743444309259e-05,0.8519399529230236,-0.002539484540703082,-0.8061869473700928,0.8664329355409929,-0.03890521727999696,-0.8619771090369964,0.8370736313071045,-0.0004761102042848356,0.649118254409045,1.0026522679807421,-0.0004582446812565018,0.6517857774771072,0.9951333948449845,0.0,0.0,0.0,0.0
-0.0006796550793678269,0.0009859330774354956,0.7300081729259632,-0.0011374330346678096,-0.5238662947905203,-7.865829459319721e-05,0.8517997448000417,-0.0015233312974384692,-0.8046788220909027,0.8656046641841605,-0.047337052208888494,-0.8782036289994333,0.8292931506142298,-8.746275201991412e-05,0.6507610665451633,1.0018949945684303,-7.105401844723021e-05,0.6527990966933083,0.9954373711754759,0.0,0.0,0.0,0.0
-0.0004961910291047214,0.0007345380397441978,0.7300613747188237,-0.0011392711975120409,-0.5240753358300854,-0.0002652198564619015,0.8516711067625515,-0.0003752080772479803,-0.8033650209797132,0.8650772997805763,-0.05523397465359094,-0.8938137065479255,0.8210827594704556,0.0004434158922704713,0.6524518519663445,1.0010000156574532,0.0004573684682736677,0.6538003407811801,0.9959086571315748,0.0,0.0,0.0,0.0
-0.0002590644803088444,0.0004285578522403726,0.7301024645076745,-0.0011062670196572222,-0.5242725572291501,-0.0004722707809069124,0.8515496690563611,0.0009424859803669778,-0.8022337471750458,0.8649063739844945,-0.06272546706403608,-0.9089972632295039,0.8124669852822807,0.000998657449582601,0.6542895371566099,0.9999794363018728,0.0010101091072138172,0.6547967389860914,0.996576268946234,0.0,0.0,0.0,0.0
4.237323464108413e-05,5.573288379256058e-05,0.7301299823477518,-0.0010260266168442753,-0.5244596083475583,-0.0007101721052992137,0.8514344144658988,0.002480958580359043,-0.8012707762535239,0.8651151905044819,-0.06987981653028034,-0.9238423514879243,0.803466686545984,0.0015172817356655854,0.656342390054628,0.9988091593897269,0.0015268730142879634,0.6557803055216268,0.9974745758960377,0.0,0.0,0.0,0.0
0.0004070672435247912,-0.0004037746207329918,0.7301421588856463,-0.0008941307331084258,-0.5246229992701263,-0.000982667854605397,0.8513336264537755,0.00429790571239809,-0.8004940020307466,0.8656839015186133,-0.07666762651641613,-0.9381344724997591,0.7942019520005061,0.0020828882013809117,0.6585710714006264,0.9974117495659539,0.0020914911549517277,0.656699766114415,0.9986535322403504,0.0,0.0,0.0,0.0
0.0008173895712677447,-0.0009739082225267079,0.730135792932075,-0.0007183783401447118,-0.5247308436465429,-0.0012830868700772187,0.8512669260265147,0.006441625549844715,-0.7999708800022484,0.8665435725440331,-0.08298921123579119,-0.9511624972967092,0.7850436825491593,0.002953820730257812,0.6607845875638145,0.9956723972035906,0.002962615646836643,0.6574468060848753,1.0001801439229725,0.0,0.0,0.0,0.0
0.0012395384858192675,-0.0016718195417800372,0.7301051811832365,-0.0005183554440113144,-0.5247423997452718,-0.001595339609409221,0.8512594199823798,0.008926425643996892,-0.7997905681878386,0.8675660596896401,-0.08875665626662689,-0.9615802517698421,0.7768428364206637,0.004480461587768693,0.6626690041238626,0.9935077717673124,0.004492800110933712,0.6578687695886801,1.0021299402567858,0.0,0.0,0.0,0.0
0.0016345612234025546,-0.002493394449017059,0.7300430918585281,-0.00030997285073299376,-0.5246454084244696,-0.0019089158270954461,0.8513186567768372,0.011726262914293455,-0.7998832597115614,0.8684731987069472,-0.09394636022238144,-0.9675120659577596,0.7712055434942563,0.0068042125743983505,0.6639940337676258,0.990992095782646,0.006831014642864071,0.6578350615620806,1.0045760425617967,0.0,0.0,0.0,0.0
0.0020311948101562906,-0.0033884432108335634,0.7299430895441416,-6.61801710168322e-05,-0.524504124355605,-0.0022474036345577013,0.8514049379296835,0.014761862093121934,-0.8000693736886328,0.8693061150290473,-0.09862114819697945,-0.9671079018943752,0.7702202206488402,0.00924570733773786,0.6651141260959543,0.9884891721439659,0.009307081137232538,0.6574466804037323,1.0074745883052365,0.0,0.0,0.0,0.0
0.002483447624241307,-0.004347291564865392,0.7297980860856976,0.0002396517275662788,-0.524346464333259,-0.0026337402972266633,0.8515009050613549,0.018055179970184757,-0.800429707729559,0.8704269579250264,-0.10275208339601646,-0.9603146733640173,0.7738761379325867,0.011420095639405407,0.6663346228429362,0.9861303001107802,0.011534532251345141,0.656805570575371,1.0108288180261915,0.0,0.0,0.0,0.0
0.003050983537897213,-0.005413204595065817,0.7296012821086344,0.0006206072073760811,-0.5241368417013238,-0.0030792854729422992,0.8516282663339867,0.021743354986517145,-0.8013606941100884,0.8724489369696503,-0.10622742511930335,-0.9488683269571009,0.7800335073830547,0.013472444570238797,0.6677365973219618,0.9837059509511386,0.013657913370866455,0.6559454705378917,1.0146965417304263,0.0,0.0,0.0,0.0
0.0037641826619433582,-0.0066394163182568865,0.7293603412525771,0.001089752995411498,-0.5238609930607466,-0.0036020046664603004,0.8517954554646322,0.026008565250587336,-0.802878042680002,0.8754719871633059,-0.10894680946374359,-0.9347586106933362,0.7871046131893292,0.015571506301735507,0.669457280984436,0.9809085535056574,0.015852077815879356,0.6549328399245328,1.0190956830136424,0.0,0.0,0.0,0.0
0.004664535277243265,-0.008041759787034423,0.7290844413707241,0.001667112878695321,-0.5235302726601909,-0.004224821490853372,0.851994967840988,0.030948714403356753,-0.8049554096963586,0.8796656940340348,-0.11102057038323282,-0.9192640832515265,0.7940862489121794,0.017553608117820023,0.6717861122789451,0.9775893414102486,0.017956742993585934,0.6539029922363767,1.0239340137659811,0.0,0.0,0.0,0.0
0.005769168854825614,-0.009614359332417506,0.7287852226821304,0.0023599024019258117,-0.5231544796981009,-0.004959765743027346,0.8522201722302969,0.03658629878595284,-0.8075175120289226,0.8850566313575882,-0.11271234074711908,-0.9029394883058173,0.8003712667313623,0.019256704426455284,0.6749136769524209,0.9736549091063895,0.01980977386605373,0.6529611059522408,1.0290554154688216,0.0,0.0,0.0,0.0
0.007033836843317796,-0.011343770092860807,0.7284790875754363,0.003148119440550737,-0.5227294641866653,-0.005797395768840884,0.8524731003482804,0.04288202965058433,-0.8103279129026695,0.8912164714535874,-0.11438257502895119,-0.8858764307389833,0.8055552783538614,0.02076986472233537,0.6787446242773211,0.9689967157618188,0.021504065528810443,0.6521001410927533,1.0342954158646427,0.0,0.0,0.0,0.0
0.008426247106081624,-0.013144436713696033,0.7281710567408575,0.00401024448792537,-0.5222716416185229,-0.00671554544287086,0.8527433094135919,0.049577044581994426,-0.8133473004594706,0.8980602255549208,-0.11669198249085264,-0.8676458692112426,0.8090486867250327,0.021778091221909324,0.6832098890600115,0.9638961536575616,0.022712016664530217,0.6513294777000878,1.0394068999237125,0.0,0.0,0.0,0.0
0.00984684743072105,-0.01484697188557009,0.7277882667091404,0.0048961335700307505,-0.5218026645063712,-0.007649037530954123,0.8530178775471039,0.056098141352022395,-0.816776885980107,0.9053944251345376,-0.12061641783999456,-0.8477431730350895,0.809742470231688,0.02185581218421674,0.6875338873235164,0.9597229385938223,0.022976185110729925,0.6501867344499886,1.0447076249015397,0.0,0.0,0.0,0.0
0.011169234287905686,-0.01627711367629255,0.7272881850022538,0.005737044017456812,-0.5213249721503489,-0.008507704850786696,0.8532965362033011,0.06179599114029037,-0.8208557822826669,0.9129970663534308,-0.12712797039755377,-0.825861863134262,0.8054930799371649,0.020817517672786202,0.6908451010927209,0.9575932518294371,0.022078106355495696,0.6482861043603827,1.0502687405290507,0.0,0.0,0.0,0.0
0.01224082670775628,-0.017306217336257385,0.7267293538893442,0.006428854708896733,-0.520779350615384,-0.009162785170454917,0.853617936296837,0.06604401042241714,-0.825805192081952,0.9205969217204024,-0.13656154817333707,-0.8022299434467822,0.7924219446500289,0.01925289953482637,0.6923494602622638,0.957391916720241,0.02060503360683909,0.6456256132092891,1.0553905453040233,0.0,0.0,0.0,0.0
0.012808718647081722,-0.017791085493044267,0.7262444832041915,0.006816761072259498,-0.5201023110531524,-0.009421785999861926,0.8540247934072093,0.0680075111835065,-0.831425117234582,0.9271599843765781,-0.14723762632769546,-0.7781929234473351,0.7654281823674645,0.01841157320169835,0.6910504191170781,0.9583991148502037,0.019818621064582896,0.6424403039462442,1.0588796076641496,0.0,0.0,0.0,0.0
0.012837846598178734,-0.017821725548458456,0.7262334501965736,0.006857889981915653,-0.5200883014291443,-0.009416510139314748,0.8540330540431907,0.0680723401227372,-0.8314504646518812,0.9271991302339413,-0.1472246080411442,-0.7781360069031605,0.7654417987658126,0.018394946265856478,0.6910898181908364,0.9583203035017942,0.019817597022346947,0.6424316090897758,1.0589896433461414,0.0,0.0,0.0,0.0
0.012837846598178734,-0.017821725548458456,0.7262334501965736,0.006857889981915653,-0.5200883014291443,-0.009416510139314748,0.8540330540431907,0.0680723401227372,-0.8314504646518812,0.9271991302339413,-0.1472246080411442,-0.7781360069031605,0.7654417987658126,0.018394946265856478,0.6910898181908364,0.9583203035017942,0.019817597022346947,0.6424316090897758,1.0589896433461414,0.0,0.0,0.0,0.0
0.0130466492062267,-0.01773146728808737,0.7261881279873313,0.006602300555320162,-0.5200790400271239,-0.009019204623312491,0.8540449962969195,0.06697390507091942,-0.8340118331370762,0.930523514020935,-0.14845772187449663,-0.7778406674045586,0.7661207656957115,0.02209965288333727,0.6900860348886455,0.9583296309960864,0.02363420290264182,0.6442647260343434,1.0592695840850364,0.0,0.0,0.0,0.0
0.01332842380534957,-0.017646709393985684,0.7261187334288832,0.006475987954944323,-0.5202337249321198,-0.008751122172474014,0.8539545367781479,0.06612966509353851,-0.8356084927084444,0.93329315175799,-0.1493821325729725,-0.7775926152743973,0.7671333422672505,0.024182498511165895,0.6901345652128739,0.9589543208693918,0.02582286355524226,0.6461436804362091,1.05985977880778,0.0,0.0,0.0,0.0
0.013647762712441518,-0.01764627188930541,0.7260268517312024,0.0064419067384088955,-0.5204786951323294,-0.008593419394667304,0.8538071110584806,0.06572934473875788,-0.8363640307301584,0.9353248102563623,-0.14984102369153737,-0.7778015658451636,0.7688946196460377,0.025569461541011317,0.6908118671963194,0.9597384846842685,0.027307868440221192,0.6479412319388247,1.0609087389796934,0.0,0.0,0.0,0.0
0.0139801793166815,-0.017784862418765954,0.7259199660733526,0.00646730579464651,-0.5207530563502202,-0.008517650830213074,0.8536403680016529,0.0658667191677929,-0.8364423344925472,0.9365692439461211,-0.14976622723162517,-0.7787425794200692,0.7717018323926746,0.027027888973418818,0.6917834183169037,0.9602678655927633,0.028887663629438565,0.6496220824113791,1.0624596827900978,0.0,0.0,0.0,0.0
0.014311697160439093,-0.01810874708686109,0.7258047233539598,0.006537246591398972,-0.5210217054579281,-0.008512696111396635,0.8534759404070101,0.06664427457576781,-0.8358745923530418,0.9369205230657375,-0.14906931344191082,-0.7806337623744276,0.7758173236034633,0.02904530253582624,0.6928787886303525,0.9602332781485773,0.03108374881022594,0.6511744780140608,1.0645563149280528,0.0,0.0,0.0,0.0
0.014656452480919716,-0.018665481277923255,0.7256839691267586,0.006663479601172348,-0.5212829252857657,-0.008596569417745267,0.8533146013278838,0.06822646041132069,-0.8345454302504198,0.9362720353870546,-0.1475942956037203,-0.7837740706057975,0.7817057953863394,0.03176559628651007,0.6941958814229581,0.9594248072871416,0.03406740789644474,0.652637814219743,1.067276570386825,0.0,0.0,0.0,0.0
0.015088733429831106,-0.019532027038736417,0.7255547408149916,0.006896828981508539,-0.5215635759793263,-0.008833691801320775,0.8531388139399219,0.07095549040774167,-0.8322485768132699,0.9346807417894872,-0.14502022483264043,-0.7889078314106484,0.7906076488150946,0.034991280333836985,0.6962377438293914,0.9576079446638485,0.03765991000591826,0.6541433271272017,1.070765893924089,0.0,0.0,0.0,0.0
0.015676980270785974,-0.020783827944073675,0.7254221268498252,0.007282750147045736,-0.5218812338020042,-0.009282146438409286,0.8529365633580785,0.07515335634653214,-0.8287835239715621,0.9321851945588255,-0.14103713963039013,-0.7966977970370133,0.8036267566529182,0.038592669882188374,0.6994888539559977,0.9544433551325935,0.04175509935906119,0.6558508170088432,1.0750775846234388,0.0,0.0,0.0,0.0
0.016450523016826705,-0.02248065870950257,0.7253091382555696,0.00784621272922163,-0.5222360419907468,-0.009984545074743861,0.8527064338043294,0.08106501731949464,-0.8238812733632274,0.9286065386390044,-0.1353821712326093,-0.8074379436143544,0.8212470271378084,0.04255447126948442,0.7043028980098529,0.9494546367918724,0.046370341843620294,0.6578985416137154,1.0800781875910894,0.0,0.0,0.0,0.0
0.017435038754985747,-0.02464229261273663,0.7252529489888124,0.00859604709005547,-0.5226190252826528,-0.010953885228359725,0.8524526231911304,0.08875669338669827,-0.817419307125762,0.9239459507851441,-0.12795141566811427,-0.8211099050675955,0.8435235501707395,0.04687150050251348,0.7109973492996364,0.9421099829608836,0.05153952186618473,0.6605258767332277,1.0853979282054453,0.0,0.0,0.0,0.0
0.018634016504205656,-0.027173741221197686,0.725268797529708,0.009502724464719423,-0.5230092254669867,-0.012168676464582338,0.8521871693573371,0.09793326772758944,-0.8097296350469613,0.918656661721551,-0.1189885578656808,-0.837140756259918,0.8695594108062632,0.05119282551652386,0.7195910460469856,0.932462937418442,0.056901572070978984,0.6637996818305308,1.0905575308164601,0.0,0.0,0.0,0.0
0.019672409326654854,-0.029382698410759207,0.7251878679771614,0.010273833357031149,-0.523314211923993,-0.013169899118147862,0.8519760781288052,0.10578108909691436,-0.803350821694778,0.9139973089548812,-0.11123314235655914,-0.850827245995372,0.8913364510279591,0.055569959587385545,0.7263994285500404,0.9245761514238244,0.06241256982295404,0.666506214134599,1.095729819636256,0.0,0.0,0.0,0.0
0.02051187095880599,-0.031118421054836923,0.7250420210426601,0.01087086546463972,-0.523568139022493,-0.01391301828060813,0.8518008311846711,0.11183237795642959,-0.7985568018819504,0.9104171103230607,-0.10519927393949077,-0.8614242948037063,0.9080116776926529,0.05946813075891959,0.73135458530103,0.9189598775983736,0.06740431775018833,0.6687003429405958,1.1004276821438277,0.0,0.0,0.0,0.0
0.021178240350697645,-0.03241101604743123,0.7248711354784507,0.011314419005619124,-0.5237978222896538,-0.01443610458918269,0.8516451280735842,0.11625904375765503,-0.7951242313860251,0.907921662653681,-0.1007618208910502,-0.86925440301716,0.9203406056359013,0.06269299608299352,0.7348879308494058,0.9152807363517621,0.07159982632444663,0.6705377531619553,1.104433193673505,0.0,0.0,0.0,0.0
0.02171069708983313,-0.033342409515665666,0.7247003126788804,0.011636220269781849,-0.5240137759061885,-0.014790829298713103,0.8515018452164553,0.11939123866437051,-0.7927671516538967,0.9063791618677255,-0.09761818638211626,-0.8749026902079379,0.9293488404129812,0.0652586615464089,0.7374215787059825,0.9130440310206092,0.07498180625834946,0.6721365941255008,1.107719896054268,0.0,0.0,0.0,0.0
0.022147843727394485,-0.03399507630631481,0.7245416451447779,0.011866953383284173,-0.524220948403409,-0.015024455181224625,0.8513670409517488,0.12154767955509758,-0.7912337996606346,0.9056415085958079,-0.09546142273803106,-0.8789272614777346,0.9359440188205734,0.06722682893511316,0.7392976861871153,0.9118263357133659,0.07760857874161674,0.6735795942067221,1.1103495765435158,0.0,0.0,0.0,0.0
0.022525032681318,-0.03443460759126191,0.7243980660883786,0.012035171445982009,-0.5244286478278908,-0.01517768123530441,0.8512340371354963,0.1229859171469589,-0.7903064260478708,0.905578266544228,-0.09403532273667997,-0.8817673412569899,0.9408284157989488,0.06860586388304729,0.7408032696089375,0.9113501715776746,0.0794888178129838,0.6749295489005951,1.112419651171717,0.0,0.0,0.0,0.0
0.022885488538406565,-0.03469888490795194,0.7242662505456914,0.012169481671738397,-0.5246574255617226,-0.015286179454019388,0.8510891975794818,0.12387927065966484,-0.7898463042342728,0.9062048876864341,-0.0931660517830105,-0.8837506319876892,0.9445636077069491,0.0692512158773898,0.7422440195495025,0.9115107062325035,0.08045610078967029,0.6762689071006344,1.1140089545269918,0.0,0.0,0.0,0.0
0.023267981451926285,-0.03481092552616037,0.7241418394319061,0.012295818736904099,-0.5249301438027629,-0.01537899383102186,0.8509175303856098,0.12434625783782724,-0.7897438835274588,0.9075634615567695,-0.09273269989325682,-0.8851087403407659,0.9475692877672792,0.06897220116824215,0.7438978280502108,0.9122737253490782,0.08028990004556695,0.6776746022396851,1.1151745283335137,0.0,0.0,0.0,0.0
0.02367419561102695,-0.03480941799346812,0.7240264215732624,0.012430278800040077,-0.5252498501559698,-0.01547339558220143,0.8507165550929647,0.12451636060825672,-0.7897973801238964,0.9094046881762452,-0.09259483478494492,-0.8859930091800492,0.9500584326981925,0.06780638920452259,0.7458586473620571,0.9134807185622044,0.07904337151436715,0.6791376873235988,1.1159904279741548,0.0,0.0,0.0,0.0
0.024073867978477628,-0.034753501073309684,0.7239318748127171,0.012582663324058956,-0.5255995702834401,-0.015578124604258205,0.8504963787902631,0.12454841034813448,-0.7896998710801799,0.9112019050192417,-0.09257454819492186,-0.8865153895573521,0.9521169944325714,0.06601296906387068,0.7480822567669085,0.9147886116448805,0.07703964223891466,0.6805888112507211,1.1165180624489643,0.0,0.0,0.0,0.0
0.024424416869856587,-0.03472397121480143,0.723887882923416,0.012760790057629017,-0.5259424887011211,-0.015697769006366588,0.8502795074939763,0.12464526092202276,-0.7890909892394548,0.9123095715464375,-0.0924483355996676,-0.886838832808583,0.9538948812216881,0.06404205174990456,0.7504953383628489,0.915576278136626,0.07483146741454025,0.6819793535790047,1.1167215775398878,0.0,0.0,0.0,0.0
0.024652814782873442,-0.034873110063622065,0.7239725969252786,0.012965921106223357,-0.5261928915035524,-0.015832497567841473,0.8501189668756733,0.1251787228180799,-0.7873951603519461,0.9116826983913742,-0.0918156305933534,-0.8872928458903765,0.9557735527709397,0.06292772395333449,0.7529820309616949,0.9144194800459821,0.07365964987187353,0.6833460699641404,1.116331203291849,0.0,0.0,0.0,0.0
0.024704206924229404,-0.035492234279353815,0.7244349776523688,0.01319458318311169,-0.5261814772903485,-0.01598821701299057,0.8501195991435063,0.12687683048226092,-0.7836335831819501,0.9080105793186759,-0.08991235020912446,-0.888642714040808,0.9591776779512959,0.06466526480226424,0.7560801053899975,0.9074984673764689,0.07589903468139103,0.6854356119606113,1.1138763478905942,0.0,0.0,0.0,0.0
0.024801974266790615,-0.03716787606882849,0.7263205324566202,0.013520361003944208,-0.5257123295123266,-0.01635879864277193,0.8503976341359443,0.13152290613086715,-0.7743727423167776,0.8997875929930411,-0.08478689208899948,-0.8920077838495104,0.9690150292782137,0.07113201323110911,0.7659468214454068,0.8816585728318996,0.08386312870728352,0.6927470902875946,1.1013823040007589,0.0,0.0,0.0,0.0
0.024163266743569705,-0.03906964674605297,0.7293553071120829,0.012707881121568957,-0.5239632919513427,-0.015526226473046172,0.85150450071413,0.13434315077851355,-0.7689637718712703,0.8926094335664301,-0.08180541366096078,-0.8919712401263516,0.975030885551622,0.04250699063971376,0.7292481270030795,0.9449827347612811,0.11112450422270932,0.7045452707981581,1.0797110614438405,0.0,0.0,0.0,0.0
0.02376848933455087,-0.04101891798218394,0.7324715749033635,0.01215617885185276,-0.5226042404655844,-0.014957035196888986,0.8523575084794117,0.13769389033297572,-0.7609688088674584,0.8840805607550295,-0.07808352636890274,-0.8915412766939729,0.9818181976714395,0.019976946856054487,0.7026919182318087,0.991147640472247,0.1330671454616433,0.7171242433743177,1.0563581651858835,0.0,0.0,0.0,0.0
0.023652838566967087,-0.04285180688733188,0.7352508077911285,0.011927157452282578,-0.5216365139784536,-0.01466092006701272,0.852958467700687,0.14123918099639418,-0.7522049506381829,0.8757331022323254,-0.0740876978243295,-0.8917851661938435,0.9895064175028918,0.0066017918085595675,0.6842188006116317,1.0257216446793125,0.14911297010191063,0.7289333975325106,1.0347724458428855,0.0,0.0,0.0,0.0
0.02377331703946261,-0.04450895796658638,0.7376463261202348,0.01192615368322217,-0.520942168507008,-0.014570899449000942,0.8533842703136655,0.14475857274574686,-0.7438100628873381,0.8685319545300016,-0.07012301079909772,-0.8928847294736679,0.9979382277563589,-0.0011917909663812587,0.6713699549690063,1.0541473203328717,0.16069676471561742,0.7397081699021508,1.0155802634521467,0.0,0.0,0.0,0.0
0.023994731818800505,-0.04594485867289136,0.7397096164546795,0.012026995857633534,-0.5204205037200131,-0.014575246152389299,0.8537010090646757,0.14793102918530063,-0.7362033952650618,0.8624208701072689,-0.06653247411035934,-0.8941323171940793,1.0059209091625962,-0.006275674389884325,0.6617603423686236,1.0794068946558149,0.16937389915425108,0.7493726630073532,0.9985991372750578,0.0,0.0,0.0,0.0
0.024258050229751953,-0.04718244167017519,0.7415018402400964,0.01216095065888158,-0.5199995989772391,-0.014614319531373925,0.8539548875714791,0.15071115864733528,-0.729538624004595,0.8573472682400611,-0.06337888265707124,-0.8953614050180655,1.013224630963792,-0.010187221139263606,0.6538954165198565,1.103101512487277,0.17625145563214106,0.758036539837921,0.9834938383736421,0.0,0.0,0.0,0.0
0.024533369639386255,-0.04825444156849453,0.7430729109568098,0.012294492120676685,-0.5196395246841122,-0.014659369552138214,0.8541713602866221,0.1531306138804483,-0.7237884322668274,0.8531794242123201,-0.0606350422016554,-0.8965212482891973,1.0198367002372288,-0.013670731346783755,0.6469496033763105,1.1260847925260546,0.18198932616205074,0.7658267218152938,0.9699690770819839,0.0,0.0,0.0,0.0
0.02479770596495236,-0.04918407990253653,0.7444537478355053,0.012409488228330611,-0.5193167540650302,-0.014693851073376426,0.8543653810226075,0.15521684999932786,-0.718892168634069,0.8497658130201919,-0.058273050470482854,-0.8975717442138516,1.0257263430856332,-0.01705960982391314,0.6405327897162963,1.1486771510293292,0.18696953057864119,0.7727980085495091,0.9578536852019011,0.0,0.0,0.0,0.0
0.025020012776799834,-0.04998050496336772,0.7456555950285232,0.012490843129406166,-0.5190154714028813,-0.014701838700687144,0.8545471170281838,0.1569610454362384,-0.7148041661011593,0.8469196021254067,-0.056299594669169686,-0.8984219820404982,1.0307200246231154,-0.020532041259193685,0.6344917126968312,1.1707056089637127,0.19143929110044874,0.7788938049896282,0.9471363180796591,0.0,0.0,0.0,0.0
0.025171473803383124,-0.05065412774986242,0.7466710998858532,0.0125264412824011,-0.518718792459624,-0.0146703926873704,0.8547272560275742,0.15836801208688053,-0.711537554219229,0.8444905240857228,-0.05471175617722135,-0.8990678409310126,1.0347031224157173,-0.024270721964137855,0.6288585543371551,1.1913979586374177,0.19562295462880427,0.7839650493945083,0.9379779662210718,0.0,0.0,0.0,0.0
0.025206347987344065,-0.051216781429025464,0.7474741029376254,0.012497179811487008,-0.5184017410858393,-0.014578953068633934,0.8549215808852602,0.15943460798885878,-0.7091557167375799,0.8422601855328856,-0.053516746130472324,-0.899514287226566,1.0374655681681442,-0.0286315327871331,0.6238208869707051,1.2090641542154081,0.19984865816160038,0.7877175493703279,0.9307443113758839,0.0,0.0,0.0,0.0
0.025065485518835664,-0.05168995902485738,0.7480224335131751,0.01237523615497772,-0.5180250505710559,-0.014398179795270838,0.8551547187085777,0.16017083153402553,-0.7077937405949926,0.8399692926184275,-0.052713553570695515,-0.8998320472435603,1.0387877632441112,-0.034260845579772166,0.6199920790047544,1.2206031294100663,0.20462030923948263,0.7897272184719818,0.925984139752403,0.0,0.0,0.0,0.0
0.024703058129323007,-0.05210358676477904,0.7482785112243849,0.012133984243023874,-0.517544943743124,-0.01410146452869214,0.8554537663313329,0.1606163351812816,-0.7076201497143508,0.83744590157853,-0.052275315490233586,-0.9001820618804579,1.038609565264309,-0.042006346269800446,0.6190019149319745,1.221166900981729,0.21045602298284566,0.789616987240139,0.9241818578286926,0.0,0.0,0.0,0.0
0.024112477774824236,-0.05245652004569675,0.7482461924847157,0.011776067321349091,-0.5169628059337172,-0.013688669067670968,0.8558173881493275,0.16076012336987297,-0.708579137470494,0.8346082797408604,-0.05220855429574842,-0.9005186239480165,1.0368645343157823,-0.051859551845228696,0.6208531715553176,1.210733635691406,0.21724874463861485,0.7873509793094502,0.9253093965963064,0.0,0.0,0.0,0.0
0.023321617583639608,-0.05271969980196959,0.747972790364667,0.01132743224588624,-0.5163154126858569,-0.01318068500025778,0.8562221402443831,0.16054142414445108,-0.7104286680794089,0.831474653125463,-0.05255586714755483,-0.9006028087648493,1.0334799210263492,-0.06299995243997128,0.6239095098755593,1.1941003072626504,0.22438932321008287,0.7832390117823065,0.9288038018567119,0.0,0.0,0.0,0.0
0.022363616660428187,-0.05287902867134769,0.7475154626760074,0.010807193279138348,-0.5156210704909138,-0.012593031845267964,0.8566560171901996,0.15993323642577054,-0.7129946666782303,0.8281387192103604,-0.05333300870134568,-0.9002959674139893,1.0285349029039121,-0.07482749685933665,0.6275092192635745,1.1743363603035992,0.23147149526992986,0.7776529793031906,0.9339900421948275,0.0,0.0,0.0,0.0
0.021252395490544168,-0.05293784424417405,0.7469221822440799,0.010220967487530324,-0.5148751643920982,-0.011926369352542467,0.8571212625001758,0.15892912945151588,-0.7161704599266808,0.8246142488941423,-0.05453988039509847,-0.8995238880057754,1.022095464865899,-0.08705423736042654,0.6313961701181344,1.1531421742167751,0.23839879094662514,0.77085619605376,0.9403237970732251,0.0,0.0,0.0,0.0
0.019982859382197387,-0.05291056553950705,0.7462297066939823,0.009563330531384842,-0.5140578608643356,-0.011168146587915775,0.8576294834568841,0.15752706638074837,-0.719892888942811,0.8208212780414244,-0.05617435416315242,-0.8982342669211716,1.0141630326556876,-0.09967474312748403,0.63546412859398,1.131377976377419,0.24529269845257765,0.7629948683480092,0.9474079618077929,0.0,0.0,0.0,0.0
0.018541658843381034,-0.05281719620147536,0.7454658791458595,0.00882067014253458,-0.5131406384153178,-0.010296068899806665,0.8581974551058557,0.1557219669287641,-0.7241534623252883,0.8166649997987852,-0.05824101890964488,-0.8963961355795854,1.0047161875657613,-0.1130100355936546,0.6397225105881092,1.1094478893445132,0.25240692482447424,0.7541463082893458,0.9549454593948419,0.0,0.0,0.0,0.0
0.016924710535488302,-0.05268161887437009,0.7446534629743926,0.007973486200866759,-0.5120908087515719,-0.009282506761548955,0.8588441431238775,0.15351278668682514,-0.7290376813756968,0.8121731629963839,-0.06074804631258006,-0.8940463397841408,0.9938356464818717,-0.12789706195747236,0.6443735083406417,1.0875704051984305,0.2600821216762858,0.7443966597662454,0.9626756176908403,0.0,0.0,0.0,0.0
0.015164995758661398,-0.052535354386366015,0.7438145157524099,0.007001479766950092,-0.5108785387585193,-0.008105979399317398,0.8595861742809797,0.15094132646406969,-0.7347659171027027,0.8076820766418757,-0.06367291349225096,-0.8914026427595287,0.9819494242709028,-0.1460711418694458,0.6499773990258363,1.0660290999923203,0.2687015125811129,0.7339498378821017,0.9703154891787302,0.0,0.0,0.0,0.0
0.013438129842893025,-0.052459384374285316,0.7429695174748832,0.005903140175905776,-0.5094619858946767,-0.006787854469198232,0.8604461417753123,0.14831286672509705,-0.7420764306020743,0.8046954481079541,-0.06678236241753384,-0.8896532937630214,0.9711204970425353,-0.1703757450989872,0.6578565461829929,1.0452951801497654,0.2787459575187097,0.7233629718885406,0.9775117780498735,0.0,0.0,0.0,0.0
0.011908765861603532,-0.052412401779057816,0.7421819615371018,0.004695751214721679,-0.5078715844359989,-0.005341308017877236,0.8614034328185927,0.14555852171892159,-0.7515377492551255,0.8048081911629138,-0.0701919092567964,-0.8891546692630242,0.962514348607877,-0.2033125491874047,0.6690391420671802,1.0257807081123747,0.28984199521052734,0.7134795385406686,0.9834202261169647,0.0,0.0,0.0,0.0
0.010976418562196522,-0.05232989589130645,0.7416004635912715,0.0036155128563557007,-0.5063245071659784,-0.004064459993669715,0.8623258674508578,0.14313174347517965,-0.7626292439397897,0.8099967029590759,-0.07342084692872806,-0.890876326056754,0.9589889509758103,-0.2407910901395994,0.6824501963322912,1.008834722805122,0.2989786393271198,0.7061030782687991,0.9864607653524315,0.0,0.0,0.0,0.0
0.010988666075662906,-0.052343586029439296,0.7415832307319287,0.003588508475377564,-0.5063278581431946,-0.004050491667519874,0.862324078402255,0.14311673402750405,-0.762673456143227,0.8099649350976238,-0.07342892835203484,-0.8908479720995742,0.9589933089092927,-0.24080261504204115,0.6824428560319391,1.008831500546354,0.29897392129238637,0.7060730485092236,0.9864444680511406,0.0,0.0,0.0,0.0
0.010988666075662906,-0.052343586029439296,0.7415832307319287,0.003588508475377564,-0.5063278581431946,-0.004050491667519874,0.862324078402255,0.14311673402750405,-0.762673456143227,0.8099649350976238,-0.07342892835203484,-0.8908479720995742,0.9589933089092927,-0.24080261504204115,0.6824428560319391,1.008831500546354,0.29897392129238637,0.7060730485092236,0.9864444680511406,0.0,0.0,0.0,0.0
0.011339982330752788,-0.05261788214754664,0.7414974751199275,0.003397165271111664,-0.5068751521886702,-0.0039909696652490195,0.8620035449596273,0.14370251632355172,-0.7611183990996974,0.8094493348299526,-0.07273747603594344,-0.889986423583042,0.9602409214469338,-0.2392521371354003,0.6846094193193999,1.0097808733946758,0.30511092499800435,0.7093916699807048,0.9887850927665535,0.0,0.0,0.0,0.0
0.011685675107772343,-0.05282743085737529,0.7413873433897,0.003250868968293837,-0.5073309358864051,-0.003945919920759454,0.8617361446867331,0.14417600804007139,-0.7602689929667077,0.8097277158226894,-0.07221638673423211,-0.8896276134885905,0.9617714562823598,-0.2382997331627493,0.6864673432480908,1.0109070253149488,0.3103671267221116,0.7122186561389622,0.9910153801290389,0.0,0.0,0.0,0.0
0.011953138806517485,-0.05286850849509879,0.7412964097409716,0.003120647522465423,-0.5077032679221491,-0.0038784976371301692,0.8615176205721446,0.14416767604876382,-0.760038092020613,0.810597165796839,-0.07220643408608256,-0.8888469601702411,0.962293558698205,-0.23815804643740968,0.6879245841747501,1.0121672718491472,0.31409757451857423,0.7145173582602871,0.9925688707234661,0.0,0.0,0.0,0.0
0.01213179300167885,-0.052686054375258126,0.741229709114192,0.0029742974563808735,-0.508011719053186,-0.003757392552466601,0.8613368266018089,0.14347017743020385,-0.7605520864154588,0.8122345452901231,-0.07291363130071227,-0.8872094395123796,0.9612848154442436,-0.23885547035666144,0.6889520501886564,1.013712993998288,0.31625204699132065,0.7163726267723897,0.9933402056178946,0.0,0.0,0.0,0.0
0.012230994476283898,-0.05223140061649866,0.7411832541752914,0.0027831730316173887,-0.508271457783446,-0.003555524150248184,0.861185077319959,0.14191033705159414,-0.7620550941145411,0.8150101947026446,-0.07452036532013952,-0.8844526954563441,0.9584673722485884,-0.24044478814510578,0.6895473753269441,1.0157259172272413,0.3168658451242301,0.7178957938363794,0.9932909133632667,0.0,0.0,0.0,0.0
0.012282344480120087,-0.05142857050503727,0.7411484768803727,0.002513557220721042,-0.5084867634759241,-0.0032384572959002524,0.8610600477285079,0.13924203788897843,-0.7650924722549001,0.8197488328933226,-0.07730058135442941,-0.8803868695444095,0.9536774755734054,-0.24310323675934262,0.6897249101838909,1.0184440771649643,0.31590499786656806,0.7192382283944629,0.9923120278262347,0.0,0.0,0.0,0.0
0.012318472858367962,-0.05018508783446335,0.7411177439197979,0.002132967365298845,-0.5086517805511939,-0.002768680659113455,0.8609652437814934,0.1351682886428689,-0.7703039355960962,0.8273900402172528,-0.08157816062308684,-0.8748119263276415,0.9467086825821784,-0.2470944397793578,0.6894846018462069,1.0221028739746318,0.31320845523817686,0.7205281073134885,0.9902131525541963,0.0,0.0,0.0,0.0
0.012345415719131376,-0.048423727186818935,0.7410919822114138,0.001625378176600571,-0.5087528045130738,-0.0021270343520385904,0.8609084839695392,0.1294505051216972,-0.7780411191090588,0.838406353456854,-0.08758664933095274,-0.8674889961047659,0.937202750610279,-0.2527450756664229,0.6888105568775483,1.0268196617562184,0.30839882430157195,0.7217665455239255,0.9867410067580594,0.0,0.0,0.0,0.0
0.012356627470717045,-0.046083638494346595,0.7410770154590793,0.0009890722910749776,-0.5087677309021562,-0.001307085743616091,0.8609022646360811,0.12190080576377162,-0.7884613731641319,0.8529526866807737,-0.09548276252934451,-0.8581995717095963,0.9247625136380963,-0.26039985407994654,0.6876832185656898,1.032602830760667,0.30099182071967545,0.7228830458877785,0.9815976814263166,0.0,0.0,0.0,0.0
0.01236426871181469,-0.04315470758920947,0.7410786178660975,0.00023566104642024465,-0.508675765385887,-0.00031842833221407384,0.8609580760852125,0.1124832201604563,-0.8015365763752889,0.8709628405441789,-0.10525308176922551,-0.8469523926802804,0.9093425373383012,-0.27025366207539925,0.6861805737845635,1.0392990630554357,0.2907744106395118,0.7238910700157082,0.9745538522492315,0.0,0.0,0.0,0.0
0.012428467537280214,-0.03977699176771411,0.7410701141186865,-0.0006063127527660314,-0.5084773732385434,0.0008267328881907524,0.8610747411241422,0.1015337162056987,-0.8169291551651433,0.8919466793179145,-0.11651219828432163,-0.8344127947463523,0.8919502386333917,-0.2816451329469432,0.684404429767499,1.046654965856614,0.2788100394637187,0.7250077678869947,0.9660423276991087,0.0,0.0,0.0,0.0
0.012530711091839845,-0.0368331603792385,0.7410365148969785,-0.0013681288885172126,-0.5082907525282399,0.0018020091014341539,0.8611825543291146,0.09197600106220424,-0.8302040466826246,0.9098975595816975,-0.12617868590949308,-0.8233703073598336,0.8765357699272615,-0.29170246460966215,0.6829944519185419,1.0530369791905878,0.26865117556829693,0.7261350462357974,0.9585414017566563,0.0,0.0,0.0,0.0
0.01261364655371498,-0.03446956419716014,0.7409959708416877,-0.002003922767408421,-0.5081634381463621,0.00259856758845838,0.8612544060098032,0.0842045722665261,-0.8405180445056702,0.923710826235683,-0.1339021400403606,-0.8140248813721972,0.8634726463485538,-0.2996594287431832,0.6819060946545036,1.0581896422707426,0.26094889317483244,0.7272326239292106,0.9525500753520746,0.0,0.0,0.0,0.0
0.012676334788854113,-0.03266814035759386,0.7409521781003082,-0.002511251703629302,-0.5080947244764716,0.003221182338624447,0.8612915119507452,0.0782108023274839,-0.8481493347242909,0.9338673702606098,-0.13977511501368162,-0.8065111279870415,0.8529902481020416,-0.30560173430241033,0.6811080535421731,1.062211263701493,0.25548711600562746,0.7282284329287024,0.9480969032274794,0.0,0.0,0.0,0.0
0.012734936022897384,-0.031351748436621855,0.7409071669569963,-0.0029062107156013193,-0.5080755803389199,0.0036925866925186907,0.8612996710820598,0.07378170719945018,-0.853639184102424,0.9411876464426203,-0.14407186839654615,-0.8007651842146913,0.84505896905778,-0.30983457639992745,0.6805927806922897,1.0652757756021096,0.25191481987098907,0.7291410619912779,0.944996383130634,0.0,0.0,0.0,0.0
0.012796395380304124,-0.030420733129722467,0.740864687626032,-0.0032095041984369277,-0.508094787037284,0.004044828163483079,0.8612856818927533,0.0706048574216306,-0.8575025594587088,0.946398213770937,-0.1471325893654883,-0.7965148382155924,0.8393225952690454,-0.3127159841302774,0.6803232618524377,1.0675637727088572,0.24982027641511897,0.7300006368209311,0.9429573609361267,0.0,0.0,0.0,0.0
0.012851624257061559,-0.029766513648725117,0.7408303614084731,-0.003440412917752812,-0.5081375803946486,0.004308182925321395,0.8612582670195446,0.0683361772498891,-0.8601673058937573,0.9500519817151278,-0.14930390140791466,-0.793349113767988,0.835161447231213,-0.31465097242054213,0.6802205528062274,1.0692487047645236,0.24868356543533773,0.7307857748844385,0.9416283335291591,0.0,0.0,0.0,0.0
0.012895817458413226,-0.02930139233234255,0.7408075332154567,-0.0036166435659142223,-0.5081927230396402,0.004507651269422319,0.8612239878329597,0.06669441945966355,-0.8619787445217925,0.9525938341821534,-0.15086287344421923,-0.7909219852123778,0.8320569830846569,-0.3159586633452366,0.6802272887634631,1.0704726938561362,0.24811726020916353,0.7314957397628425,0.9407267822150795,0.0,0.0,0.0,0.0
0.01293535549115549,-0.028967654972658248,0.7407959843990889,-0.0037543677436911063,-0.5082560076256237,0.00466267505226617,0.8611852268221186,0.06548921739321024,-0.8632054273528434,0.954392130356653,-0.1519977248170227,-0.7890208877531766,0.8297224233287429,-0.31683288926753295,0.6803318750350589,1.071345017051568,0.24794634639341748,0.7321771958898173,0.9400869655729419,0.0,0.0,0.0,0.0
0.012979008345536475,-0.02872617143717956,0.740794284018696,-0.0038678502182397413,-0.5083288313559843,0.0047898316845210835,0.8611410433020729,0.06458396258339846,-0.8640393754392253,0.9557223933184247,-0.15284252531808146,-0.78748765799687,0.827969251094994,-0.3173853130879472,0.6805427437175552,1.071953540268534,0.24811921549079427,0.732898088760682,0.9396156113110972,0.0,0.0,0.0,0.0
0.013038299173681434,-0.028551862495915167,0.7408002436532474,-0.0039704763326232784,-0.5084177755810287,0.004904457706314681,0.8610874212793599,0.06388097656731402,-0.8646175657517856,0.956798297656537,-0.15349271235417647,-0.7862030847019433,0.8266877673622519,-0.31765927424961166,0.680887821047626,1.0723698511530104,0.24869293412080715,0.7337523995981436,0.9392752578169932,0.0,0.0,0.0,0.0
0.013133760904238831,-0.028434180312675028,0.7408111608721195,-0.004077174006714992,-0.5085376624806841,0.0050236542664620475,0.8610154385309312,0.06331685058807206,-0.8650417894291853,0.9578190635875442,-0.15401124384966175,-0.7850921213385741,0.8258868574709796,-0.3176104645265919,0.6814392302429801,1.0726455417182508,0.24989611811061313,0.7349043033151101,0.9390859858391979,0.0,0.0,0.0,0.0
0.013321051643613921,-0.028390308609707704,0.7408311523772444,-0.004209483484186878,-0.5087201595187838,0.005171941500055456,0.8609061101938466,0.06288712659035069,-0.8654118371072148,0.9591129992702787,-0.15441115739009134,-0.7842100516143735,0.8259521494846275,-0.317002559368004,0.6824402442210616,1.0727084183917064,0.2523715387342584,0.7367716001142547,0.9390866918020185,0.0,0.0,0.0,0.0
0.013744913890496655,-0.028482421983130935,0.7409329759311689,-0.004401509885784871,-0.5090238692097371,0.005390585992430754,0.8607242699425479,0.06267370881807054,-0.8658005388331945,0.9614348463300437,-0.1546339156596231,-0.7837982975993236,0.8281130499617148,-0.31522204515750785,0.6847450132787325,1.0717385913220863,0.2575115284399183,0.7405912334286185,0.9387434769420566,0.0,0.0,0.0,0.0
0.014830015032444596,-0.02864729430510359,0.7416088720635511,-0.004798702838251867,-0.5096157658761574,0.005837565131672457,0.8603689129988723,0.06220044042610515,-0.8663272426646325,0.9677309143999497,-0.15512139386567764,-0.7827008120173513,0.8340910570054442,-0.3114190046553455,0.6920411146172233,1.0653625980683075,0.26797316854544906,0.7513596950863796,0.9330287114368605,0.0,0.0,0.0,0.0
0.015984532839854737,-0.029171671444679578,0.743122242539972,-0.006018878712444589,-0.5107795121796804,0.007123271189551803,0.8596611669978427,0.06083011015025424,-0.8630487594395937,0.9711506755490579,-0.1559685385506478,-0.7738213816888498,0.8350802304723436,-0.29315794153663205,0.7015636903813065,1.0513281030314123,0.21574375985370747,0.7202987594885308,0.9720364122168974,0.0,0.0,0.0,0.0
0.017459530141150308,-0.02984136865531655,0.7447187232003327,-0.007240916638462264,-0.5121108766990513,0.008411434570846692,0.8588476389099665,0.059911024475095234,-0.859574159763681,0.9757610838659527,-0.15641855671465027,-0.7657181023577093,0.83875459486869,-0.27409519766108886,0.7129440273647089,1.0358070548765022,0.17222723768194803,0.6978913789357066,1.0027429665521703,0.0,0.0,0.0,0.0
0.019001783604070992,-0.03043862216174832,0.7461185180924065,-0.008263911178677148,-0.5133193438963144,0.00947954922755974,0.858105527951155,0.0593461634510981,-0.8571300339570427,0.9815031264113974,-0.1566757514969515,-0.7597510865997174,0.8442353848158081,-0.25795135092006866,0.7240586684914323,1.0215543682669288,0.14231562511918225,0.6830496654066135,1.0286004670787443,0.0,0.0,0.0,0.0
0.02044101500638107,-0.030918242135116132,0.7473239618391475,-0.009096839606319315,-0.5143595040593519,0.010341552524390561,0.8574640519487565,0.05894222214307924,-0.855364537059237,0.9873247526344587,-0.15687150750725223,-0.7551529952617564,0.8498758879527445,-0.24475801540940262,0.7342004859946366,1.0089141458093658,0.12134332545560408,0.6728016968709856,1.0519967949189732,0.0,0.0,0.0,0.0
0.02173575888889675,-0.03128579265497892,0.7483921464068669,-0.009790183954260036,-0.5152412863554169,0.011051037538743454,0.8569179912350273,0.05857897890318962,-0.8540317452531961,0.9928722883943436,-0.15708064737252295,-0.7513303506032248,0.8550358551937439,-0.23385177768977422,0.7433391163060831,0.9975420949253871,0.10514079937950432,0.6651062594796554,1.0741684850719007,0.0,0.0,0.0,0.0
0.02288811002457945,-0.031575161184056795,0.7493715842502491,-0.0103848236713795,-0.5159925064530259,0.01165251394126985,0.8564508787084563,0.058240345236067324,-0.8528999010593581,0.9979507625675035,-0.1572915844752721,-0.7479516328528001,0.8595763817546379,-0.22450020264879011,0.7516115988310617,0.9870275034030601,0.09121106856338146,0.6587401923197527,1.0957506747475958,0.0,0.0,0.0,0.0
0.023915450312727623,-0.03182690315000241,0.7502860773056931,-0.01090761253618064,-0.5166429739176882,0.012176609365239347,0.8560448537749724,0.0579621810276247,-0.8518080594448835,1.0024564708717256,-0.1574564583827535,-0.7448939009140256,0.8636008143514431,-0.2160966868882402,0.7591418783676774,0.9771166195556242,0.0782870282734344,0.6530385319631854,1.1170168189635872,0.0,0.0,0.0,0.0
0.02483549682495103,-0.03208112156479388,0.7511345243686535,-0.011373814283475695,-0.5172200874816083,0.01264239350762932,0.8556834621170147,0.057804769713749815,-0.8506538041532561,1.0063076025855928,-0.15751283508586544,-0.7421669019583896,0.8672969913631222,-0.2081838191832604,0.7659739839038671,0.9677667410773189,0.06581660010131792,0.6476755831628348,1.137966052525922,0.0,0.0,0.0,0.0
0.025657937361973235,-0.032374906295903005,0.7518927335186604,-0.01178977785613191,-0.5177471467281679,0.013059835874277224,0.8553527540610839,0.05783863919340479,-0.8493774672537623,1.0093981831057226,-0.1573934488076404,-0.7398626707326075,0.8708485330246273,-0.20044285032280346,0.7720380938163541,0.9591625370112455,0.05364004540047893,0.6425303992169973,1.1582840859704036,0.0,0.0,0.0,0.0
0.026378454710787952,-0.03273954708240201,0.7525130117138633,-0.012154686584455357,-0.518241861388207,0.013431246976015436,0.8550422435784032,0.05813280044064966,-0.8479597943425167,1.0115729464317997,-0.1570350026913586,-0.738125006930339,0.8743722440347745,-0.1926981021348415,0.777118078358472,0.9517471559531563,0.04185006964143591,0.6376404332943496,1.1771765073346547,0.0,0.0,0.0,0.0
0.026974655589065186,-0.03319556429560757,0.7529227500705132,-0.012461584499632195,-0.5187140575611149,0.013751771924911971,0.8547463507785032,0.058740068354273964,-0.8464370632169304,1.0126293400890052,-0.1563911126122691,-0.7371310157622368,0.8778696916299292,-0.1849507607991341,0.7808247581880251,0.9462609883050305,0.03078598172864152,0.6332800687300946,1.1930498839395312,0.0,0.0,0.0,0.0
0.027408823405387757,-0.03374662511032837,0.7530300605641115,-0.012698557159942008,-0.5191627704862524,0.014009748124757183,0.8544662025759564,0.05968164673023704,-0.8449256724704569,1.012371087442114,-0.1554476260283466,-0.7370799608720203,0.88122639249361,-0.17742093414764695,0.7826291158729234,0.9436956654988501,0.02109977135476532,0.6302570980501491,1.2030201163246896,0.0,0.0,0.0,0.0
0.027650531742611516,-0.03438088943799356,0.7527566512606976,-0.012853541919667468,-0.5195781983042611,0.014192068710921551,0.8542083279228326,0.06094430859812417,-0.8436055923707225,1.0107384614345944,-0.1542263097973424,-0.7381615570493574,0.8843416147176901,-0.17045837397843916,0.7820889751071469,0.9449192545443186,0.013708984328288923,0.6304386014490646,1.2025297482091406,0.0,0.0,0.0,0.0
0.027699367540087234,-0.03511118363779906,0.7520870704242191,-0.012927071746162313,-0.519969680945553,0.014298237707490977,0.8539672020118275,0.06255952159613774,-0.8424357303731279,1.0076439587157437,-0.15269459548852587,-0.7404142361798413,0.8872492501618854,-0.16400316887264,0.7791599056420153,0.9500594448466227,0.008605107532330252,0.6338602046527008,1.1916322668974446,0.0,0.0,0.0,0.0
0.02758523321779085,-0.03597698879558195,0.7510662998556442,-0.012932739049236005,-0.5203646258417755,0.0143422772058431,0.8537257753621968,0.06460418200363434,-0.8411658600578653,1.0029740715843924,-0.1507657460540248,-0.7437361437704813,0.8901280535405629,-0.15752851911211108,0.7741705040457687,0.9585002188132178,0.004854304716907314,0.6387174423351313,1.1749507658997251,0.0,0.0,0.0,0.0
0.027344340896928276,-0.03700534101038769,0.7497513840177961,-0.012885164263469227,-0.5207794025560772,0.014339751093603647,0.8534735836297525,0.06712214550911752,-0.8396167073509632,0.9967407776364517,-0.14838788276910064,-0.7480207184649688,0.8931704287403409,-0.15054600945826854,0.7675010705259033,0.969479971739561,0.0017911198065609269,0.6442349484470995,1.1553778881149595,0.0,0.0,0.0,0.0
0.026996714170234557,-0.038208652722163915,0.7481800245888475,-0.012797778693772294,-0.521218886789067,0.014304280185601021,0.8532071709047239,0.07012127617285367,-0.8376925970609425,0.9889521117255927,-0.1455445164025854,-0.7531682525470949,0.896436608253552,-0.1426890304452037,0.7593628068026048,0.9824693480119353,-0.000975356354043774,0.6501639218461331,1.1344330613696831,0.0,0.0,0.0,0.0
0.026546391747625773,-0.039586978973750415,0.7463658132954555,-0.01268601645831803,-0.5216811848919901,0.014250598936613361,0.8529271520745815,0.0735726760862511,-0.8353775808390461,0.9795981530548921,-0.1422546278503051,-0.7590730186494687,0.899842715169914,-0.13366660027836588,0.7497775182965494,0.9972201845901563,-0.0037282194278986337,0.6565256972735751,1.1127243287255537,0.0,0.0,0.0,0.0
0.025992149126862454,-0.04112269619777552,0.7443028912742374,-0.012572763378262124,-0.5221615880140955,0.01419878853292253,0.8526356760233702,0.07739129255287976,-0.8327739846836539,0.9687513464621841,-0.13859392778488816,-0.7655999340365908,0.9031882260854579,-0.12325437116571232,0.738643031892212,1.013711950305774,-0.006828990518451525,0.663576347116442,1.0902341091358825,0.0,0.0,0.0,0.0
0.025345242582962838,-0.042760649915481425,0.7419747991871217,-0.012496204111698848,-0.5226579705306242,0.014179226060843972,0.8523329398022368,0.08138072962283859,-0.8301994614825701,0.9567900902611918,-0.1347533443772212,-0.7725224055713168,0.9061598100418718,-0.11139147736196886,0.7258601607841273,1.0320901824720317,-0.010917580187039986,0.671882713032508,1.0664719008065653,0.0,0.0,0.0,0.0
0.024719378403699824,-0.0443288831120283,0.7393669984328676,-0.01253823869748077,-0.5231593776090062,0.01425681848918108,0.8520233572600512,0.08500656885457059,-0.8289428988917485,0.9457003612094035,-0.1313065275408574,-0.779622777296819,0.9087485241733434,-0.09849439928983908,0.7116546129615854,1.052595480562056,-0.01733284565257749,0.6826033789800109,1.0404283053491317,0.0,0.0,0.0,0.0
0.024131968554754364,-0.045718700928939135,0.7365383444992218,-0.01277035481690841,-0.5236421019795892,0.014526235754246757,0.8517187655247828,0.08779182614745992,-0.8296163194800678,0.9363973141679057,-0.12872691073350082,-0.7862571466060165,0.9103359068536592,-0.08405794512771322,0.6960113245758164,1.0747306332905546,-0.02749467933674188,0.6967257606420806,1.0100471149182189,0.0,0.0,0.0,0.0
0.023607632140890164,-0.04682207311922913,0.7337110732429913,-0.013270820389197106,-0.5240585769169607,0.01505621680666069,0.8514457138428959,0.08933212747388643,-0.8324774422556706,0.9297794156062147,-0.12739621885961652,-0.7915044916257759,0.9103500011319324,-0.0676814093656705,0.6795893074996731,1.0965974183700167,-0.04418976398527993,0.7152361681533044,0.9716012947861937,0.0,0.0,0.0,0.0
0.023264956382126476,-0.0474957959502885,0.7315257090608521,-0.014067468333357156,-0.5243558032139365,0.0158847123137674,0.8512348523675862,0.0891940957167032,-0.8369311457007471,0.9271582048988856,-0.12766917502780917,-0.7937160215645869,0.9086323058318245,-0.04983818577510381,0.6652600052433382,1.1129252459837895,-0.06555517932862681,0.738960678806401,0.9218996050398772,0.0,0.0,0.0,0.0
0.023286331495046223,-0.047496994938993,0.7314757570740893,-0.014074081286541267,-0.5243803078174054,0.015884300480276628,0.8512196555575507,0.08919310964406056,-0.8369382977852823,0.9271060911455583,-0.12767229746619696,-0.7937584624257871,0.9086393770874571,-0.0498068432797792,0.6652675735379994,1.1129461749165765,-0.06556105193559641,0.7389452145677236,0.9218800975928784,0.0,0.0,0.0,0.0
0.023286331495046223,-0.047496994938993,0.7314757570740893,-0.014074081286541267,-0.5243803078174054,0.015884300480276628,0.8512196555575507,0.08919310964406056,-0.8369382977852823,0.9271060911455583,-0.12767229746619696,-0.7937584624257871,0.9086393770874571,-0.0498068432797792,0.6652675735379994,1.1129461749165765,-0.06556105193559641,0.7389452145677236,0.9218800975928784,0.0,0.0,0.0,0.0
0.02348161825344713,-0.04702141135721704,0.7312682971807432,-0.013817481493690666,-0.5242905875748796,0.015558513672929382,0.8512851400311463,0.08875816534765199,-0.8392833752334767,0.9309078771745296,-0.12831412558756058,-0.7954553342350874,0.9098569584465676,-0.05875491596124906,0.6671487182794877,1.1157113737639033,-0.0733875976034933,0.7366857068708769,0.9209204501728474,0.0,0.0,0.0,0.0
0.023650448679892636,-0.046571377756898936,0.7310402973989114,-0.013669950746107716,-0.524234675611936,0.015315468967333068,0.8513263614754085,0.08822379923668623,-0.841661804045273,0.9345124719138852,-0.12901910666175012,-0.7966186675106173,0.9104789287576507,-0.06615112153262012,0.6684795165322589,1.1186560413338198,-0.07961261037545542,0.7347789246908479,0.9204691794542255,0.0,0.0,0.0,0.0
0.023723950083533535,-0.04628767832453442,0.7308512275281241,-0.013557054124357915,-0.5241787514880851,0.015119782630393713,0.8513660992458363,0.08798580018486557,-0.8431537241230258,0.9365597335091924,-0.12937435859315322,-0.7975731374843348,0.9108293488560794,-0.07142602865891548,0.6691661508136835,1.120938471794749,-0.08393098402273282,0.7330431852478071,0.9205604477531864,0.0,0.0,0.0,0.0
0.023656692131808172,-0.04620593956686199,0.7307297400434695,-0.013432336460819648,-0.5240864432437968,0.01492609336457637,0.8514283199906743,0.08822543806448767,-0.843400269506394,0.9364979486760694,-0.12919625457885073,-0.7985095741082778,0.9109699416573594,-0.07483394461893866,0.6691944786232735,1.1222595559190092,-0.08667709244257317,0.7311957590695338,0.921025687543139,0.0,0.0,0.0,0.0
0.023410314683633252,-0.04633669117578084,0.7306899384974331,-0.013266667371985069,-0.5239271598497389,0.014701672128007088,0.8515328458405276,0.08903650323825726,-0.8422076753610244,0.9339789534491774,-0.12838841767411321,-0.7995267963250948,0.9108414640281416,-0.0766739917636525,0.6685142520254592,1.1225008471994185,-0.08815302401004833,0.7289792999230558,0.9217366847603401,0.0,0.0,0.0,0.0
0.022944942753092324,-0.04669852017258354,0.7307400856337407,-0.013038440285741292,-0.5236740932453404,0.014424167271857968,0.8516967691244924,0.09050682201333457,-0.8393697893417851,0.9285956124066297,-0.12685641614670634,-0.8006984564687436,0.9103595793549779,-0.07707291688539376,0.6670159458064854,1.121564139263306,-0.08848088052783588,0.7261594649683382,0.9226683539119677,0.0,0.0,0.0,0.0
0.022215600605146026,-0.047330785420326815,0.7308844988837057,-0.012729006012579275,-0.5233024906553642,0.014079458770866731,0.8519355870724873,0.09275208691232686,-0.8346001298627885,0.9197742819342051,-0.12447272348964562,-0.8021094925897616,0.9094566723632144,-0.07591865328773022,0.6645201703182497,1.11931922454337,-0.08756683700157161,0.7225083093124228,0.923930578020067,0.0,0.0,0.0,0.0
0.021174101331792552,-0.048294791217337325,0.7311179723793396,-0.012322256935514054,-0.522790882568136,0.013660971116209772,0.8522624202414458,0.095919116789029,-0.8275327386146789,0.9067620943278055,-0.12107364027585965,-0.8038764652559158,0.9081001845447954,-0.07288599810343448,0.6607810093424014,1.1156389977036385,-0.08512115794356231,0.7177802959582635,0.925817138136406,0.0,0.0,0.0,0.0
0.01977979094113015,-0.04966035693023202,0.7314123378143481,-0.011808412374409634,-0.5221274540671381,0.013169518558441123,0.8526840252329718,0.10015411991339838,-0.8178026318408314,0.8887405656970855,-0.11649341337297602,-0.806149401820022,0.9062950199156453,-0.06759077130228958,0.6555261013392283,1.1105344805798685,-0.08076727240634153,0.7116898034657377,0.928861166700252,0.0,0.0,0.0,0.0
0.018028234206582852,-0.051459939487106005,0.7317013824159424,-0.011193683243296181,-0.5213230529675575,0.012611283129048368,0.8531927867943288,0.10550261872006295,-0.8052809524382158,0.865235907768706,-0.11067259710002782,-0.8090626572109432,0.9040626391081498,-0.059993247541526386,0.6486013498166447,1.1043898858843668,-0.07435780103882286,0.7039469648357768,0.9337566500826258,0.0,0.0,0.0,0.0
0.016023655319062528,-0.053565544986498105,0.731903106042279,-0.010521408144483936,-0.5204289475483264,0.011993897296604598,0.8537559118108858,0.11164454534185858,-0.7906725238938868,0.8373459194696772,-0.10394715720761999,-0.8125211936495345,0.9014084956211184,-0.05124070014976723,0.6404461682862524,1.098088337978,-0.06671871530271552,0.6946298574210003,0.9405798034261442,0.0,0.0,0.0,0.0
0.014284892037543644,-0.055341754221122655,0.7321706353906401,-0.009960790731213826,-0.51956217596042,0.011468816977949443,0.8542976028272634,0.11678589065718459,-0.7778534109329519,0.8127608293531868,-0.09825610352605883,-0.8153674288880975,0.8989271168437333,-0.04435553620933209,0.6338828300540889,1.0915348207526998,-0.060420762090411306,0.6868809773307658,0.9449495097918175,0.0,0.0,0.0,0.0
0.012942306307094283,-0.056742561692252176,0.7324271209682939,-0.009528278281576078,-0.5188275636657205,0.011039277050560577,0.854754529356752,0.12086933966772256,-0.7676355620350652,0.793158726111518,-0.09372772828707827,-0.8178129948496483,0.897308781237374,-0.03930457715930628,0.6291345551105065,1.0856738026689792,-0.05565370203693665,0.6809559323905942,0.9476222877284297,0.0,0.0,0.0,0.0
0.011963091619248691,-0.057790744652146724,0.7326201197683164,-0.009210709725106772,-0.5182506623133168,0.010695109052831463,0.8551122899833192,0.12398609795507605,-0.7600270861317985,0.7784874234774728,-0.09028208737979891,-0.819900406336409,0.8964270196262103,-0.03581315060803486,0.6257801342959491,1.081112198100811,-0.05229106416298271,0.6764997830842737,0.9494015636506029,0.0,0.0,0.0,0.0
0.01127780185287484,-0.05853753695664925,0.732740253239738,-0.008985992389982633,-0.5178210339289065,0.010420036947680605,0.8553783090490279,0.1262903946842714,-0.7546749769580999,0.7680662259271835,-0.08775196494062931,-0.8216379158805324,0.8960401071604174,-0.03359247986418828,0.6234393964553722,1.077938511744012,-0.050119461435471656,0.6731628548231543,0.9506992836882884,0.0,0.0,0.0,0.0
0.010820834237394798,-0.059032627685389485,0.7327963734076908,-0.008834008529190321,-0.5175167182530941,0.010198585363620985,0.855566710127524,0.1279250359365567,-0.7511703924510629,0.7611299888522673,-0.08597590506966009,-0.823027819253624,0.8959327254988547,-0.0324295921765644,0.6218520463041136,1.0760160519635722,-0.04895686124039969,0.6706795919850641,0.9516767165380692,0.0,0.0,0.0,0.0
0.010548416042621217,-0.05934100819442767,0.7328023466048402,-0.008735211821291606,-0.5173156738377631,0.010017365870138371,0.8556914409161996,0.12906611589155403,-0.7491050210767671,0.756953064141725,-0.08476204331678779,-0.8241926910382325,0.8961396427203817,-0.03203404232187938,0.6208668029737098,1.0750662672965863,-0.04853650621334481,0.6688848996622742,0.9524607575241782,0.0,0.0,0.0,0.0
0.010388470409848489,-0.05953244140905326,0.7327850094974878,-0.008667676830983576,-0.517187701655386,0.009861661000960299,0.8557712897013285,0.1298931276244441,-0.7478598543288483,0.7544310994413674,-0.08389892437434003,-0.825134462049743,0.8964653168777992,-0.03212051344958562,0.6203018563322629,1.0746828794889662,-0.048584896707912835,0.6675700176636522,0.9530756687631007,0.0,0.0,0.0,0.0
0.010284965620311061,-0.05965471775963345,0.7327664385022324,-0.00861437500171225,-0.5171041109042882,0.00971710834281468,0.8558239940751073,0.1305378642404647,-0.7469831860544421,0.7527413350921999,-0.08323147342047853,-0.8258647623573194,0.8967555790435637,-0.03253938746301738,0.6200274164377052,1.0745445871356842,-0.04895284347838803,0.6665588674335514,0.9534834934682378,0.0,0.0,0.0,0.0
0.010208840009820003,-0.059736198967923274,0.7327617764652816,-0.008563374823090615,-0.5170452916899578,0.009570470886143491,0.8558616950418468,0.1310914370773297,-0.7462226341912688,0.7514356901883962,-0.08265687887499637,-0.8264312333037231,0.8969794543056221,-0.03324649709164331,0.6199983041014312,1.0744364967938775,-0.0495923130504904,0.6657497362002788,0.9536250098177655,0.0,0.0,0.0,0.0
0.010117436880201504,-0.05982421432017115,0.7327906138304927,-0.008497875034141237,-0.5169900105805998,0.0094076777719537,0.8558975468353175,0.13168628227010573,-0.7451672198206815,0.7497996903953486,-0.08202238553674604,-0.8268745561893918,0.8970717801790837,-0.03409148999689922,0.6201336322531275,1.0740616879496598,-0.050358564477202376,0.6650137025436527,0.9534849400711327,0.0,0.0,0.0,0.0
0.009933417835744597,-0.06001966801340057,0.7328703407244213,-0.008389783100109386,-0.5169114360072534,0.009214978139815934,0.8559481660955498,0.13256803113644167,-0.7430361159363675,0.74643449138267,-0.08104345966405149,-0.8272742241049273,0.896920673806608,-0.034600863636060616,0.6201892044080218,1.0730073557990767,-0.050812412386710484,0.6640886941243822,0.9533047773910927,0.0,0.0,0.0,0.0
0.009500330844375359,-0.06054482613574783,0.7329529323339112,-0.008187457774687816,-0.5167787582321776,0.008976985112609947,0.8560327647429649,0.13424845017829717,-0.7383299290012469,0.7383980812373414,-0.07913682214224389,-0.8279257602278086,0.896323427134756,-0.03360101078241238,0.6193173331405233,1.0711347150595165,-0.04988041549152873,0.6621209093213594,0.9544848220809967,0.0,0.0,0.0,0.0
0.008614019632670685,-0.061716160707826685,0.7330739587104164,-0.0078092679968687065,-0.516543525390286,0.008648063144622997,0.8561816470320854,0.13750502151056546,-0.7285667769950682,0.7213563569864181,-0.07540024882037713,-0.8290924554429734,0.8950874623261925,-0.029642902716563092,0.6169164761763156,1.0673236395437036,-0.046218563867550105,0.6583957977156397,0.9579672241122072,0.0,0.0,0.0,0.0
0.0070031262940466014,-0.0638976487891167,0.7335904816510929,-0.007118734628231577,-0.5165172514891682,0.008092861108641294,0.8562089453693207,0.14325205564433735,-0.706785559317168,0.6861282521501387,-0.06847082591746373,-0.82796242269971,0.890294296555198,-0.022062750199278718,0.6150088667334142,1.058299941271601,-0.03916367302358641,0.6542044967539989,0.9625046440615735,0.0,0.0,0.0,0.0
0.005553676531562924,-0.06560679194742214,0.734176849239922,-0.006060153305301654,-0.5174783726966844,0.007458917461751055,0.855642315972864,0.13148963795678556,-0.7479650973073321,0.7479333978160956,-0.06264366653943428,-0.8208667795440788,0.8798172593226146,-0.02107730072412236,0.6179750945854303,1.0518463498584956,-0.038339554283822484,0.6524809620044707,0.9660973444879725,0.0,0.0,0.0,0.0
0.003885449415953216,-0.06768225111677127,0.7348014865444674,-0.004948737572551439,-0.5183479594962658,0.006687573668049564,0.8551293348031805,0.12095727031432428,-0.7826131119041229,0.7820568012487499,-0.0556037280240309,-0.8141237832784561,0.8690454984021009,-0.018712154827654252,0.6204150420154728,1.043994407370645,-0.03618850071981116,0.6498022826694612,0.9705359822331373,0.0,0.0,0.0,0.0
0.0021421134863356863,-0.0700038481363713,0.7353023074368731,-0.0038480469447993546,-0.5190547241878449,0.005903925227504663,0.85471195703576,0.11370788795111766,-0.8111598850086125,0.798026924103172,-0.04800912594501874,-0.8086601014692409,0.8591631806960309,-0.014705889495006137,0.6215852476569098,1.0360607897529432,-0.03240517520558962,0.6459998740557849,0.9766511708442763,0.0,0.0,0.0,0.0
0.0004892880020992206,-0.07229296444607566,0.7358004974385012,-0.002815128483276468,-0.5196220570025771,0.00515679864659571,0.8543760298344937,0.10923196086359209,-0.8350071883469333,0.8040465539632203,-0.04064519964179802,-0.8039098354737266,0.8502496706920785,-0.010353168409067064,0.6226140646408788,1.0276736589887985,-0.028179020175283388,0.6423683694494485,0.9821806178782111,0.0,0.0,0.0,0.0
-0.0009832045978116896,-0.07441946354831401,0.7362721244295496,-0.0018797943579304983,-0.5200918340930111,0.00445784967832215,0.8540966444490841,0.10646153230479678,-0.8554986824221144,0.804560387587329,-0.03383761577480002,-0.7998393952801374,0.8425208924751708,-0.006293661304222844,0.6237677045735699,1.0194668342305708,-0.02414634216946558,0.6391694628326311,0.9869159826434087,0.0,0.0,0.0,0.0
-0.002226142165038653,-0.0763227353215547,0.7366841762298227,-0.0010599038946302354,-0.5204982986003645,0.003823328621086046,0.8538534885541635,0.10453272869378516,-0.8737795359411878,0.8018960432223265,-0.027753964271547995,-0.7964935290111077,0.8361722471586418,-0.002694471379490377,0.6250506011183798,1.0119908984514314,-0.020510572403707898,0.6364916165709993,0.9910383420510318,0.0,0.0,0.0,0.0
-0.0032431348639778597,-0.07798078175530236,0.7370276440714082,-0.00035659041121008443,-0.5208619684762251,0.0032493366946266477,0.8536346551361393,0.10276707762564358,-0.8907890985361281,0.7973298397640288,-0.022418637526444067,-0.7937958103261187,0.8310999161947713,0.00032356204242980045,0.6264278916992678,1.0055065495127138,-0.017423495018111905,0.6342982192017926,0.9946405164634238,0.0,0.0,0.0,0.0
-0.0040625438784145235,-0.07939382999295073,0.7373087595683468,0.0002362881499453058,-0.5211879409135574,0.0027298407044416763,0.8534375327954148,0.10075119664505466,-0.9070912559401082,0.7915828799641754,-0.01780330968989965,-0.7916302864193173,0.8270818444822908,0.00272373903908346,0.6278381787531656,1.000046579679563,-0.014944451318062766,0.6325129410138888,0.997730669424559,0.0,0.0,0.0,0.0
-0.004719637064324681,-0.0805760231588439,0.7375378567634571,0.0007277702722596305,-0.5214722835532214,0.0022583593206282585,0.8532649223127587,0.09824648996888453,-0.9227290453348626,0.7851770491942315,-0.01385008474368267,-0.7899039081605223,0.8238998792716873,0.0045265169090332675,0.6292111185024586,0.99553188337119,-0.013066665344903593,0.6310391284586071,1.0003032850160822,0.0,0.0,0.0,0.0
-0.005250051449507249,-0.08155168183849375,0.7377224631381858,0.001127754531885039,-0.5217067012175544,0.0018297294394272246,0.8531222058794342,0.09509806256089878,-0.9370945811977264,0.7787292987993815,-0.010483251682879297,-0.7885649441411171,0.8213780621169992,0.005808671334288627,0.6304583712541117,0.9918500589197699,-0.011719136549015421,0.6297621663109607,1.0023968001385062,0.0,0.0,0.0,0.0
-0.005685430808648138,-0.08235831485656946,0.737863960960203,0.0014469198581441107,-0.5218845616534885,0.0014416487544299183,0.8530136765489397,0.09121219769588,-0.948843767531187,0.7732162061610446,-0.007604672067524167,-0.7876105434391424,0.819415257298825,0.006735894284157521,0.6314768841070628,0.9888867529542367,-0.010735707683042734,0.6285660535368208,1.0041469854387637,0.0,0.0,0.0,0.0
-0.006045353571960756,-0.08305227136354087,0.7379581858414789,0.0016972282316402465,-0.5220077622251372,0.0010961138349782158,0.8529383413398034,0.08661192071053916,-0.9560254692565905,0.7701104497260756,-0.005083055904584177,-0.7871041688798863,0.8180568580615842,0.007608279561969978,0.632184687666262,0.9865109652894902,-0.009811642308499645,0.6273819627344338,1.0058122056312628,0.0,0.0,0.0,0.0
-0.006353461735715962,-0.08368496903480878,0.7380083363866448,0.0018924654251717447,-0.5220941548750517,0.0007966184357790685,0.8528853835182004,0.08140073122659032,-0.9569456803353125,0.771304168522654,-0.0028057354461671594,-0.7869440378343429,0.8171657461252733,0.00869026851762909,0.6325693005321881,0.9845726061184346,-0.008676830855809668,0.6262077515073196,1.007600000554995,0.0,0.0,0.0,0.0
-0.006613726019389714,-0.08426458808385293,0.7380168116978063,0.0020359627596949824,-0.5221436338319391,0.000542219152880158,0.8528549621728242,0.0756520303627623,-0.9515418582775178,0.7767739677062254,-0.0007508805536885562,-0.7871315648389321,0.8167388130636852,0.010005924989798503,0.6326349364467985,0.9830268365324724,-0.007303956084281084,0.6250386844834064,1.009517974249494,0.0,0.0,0.0,0.0
-0.006823896167500496,-0.08474931461627144,0.7379892220774104,0.002121932799913624,-0.5221377357166851,0.0003256759696321051,0.8528584737674877,0.06932780805445979,-0.9414870350513933,0.7847324485269813,0.0010011207384074518,-0.7876787289794319,0.8167428317574061,0.01127890762751705,0.6323881095469688,0.9819357511032178,-0.005971543029680166,0.623836377302764,1.0113251210798047,0.0,0.0,0.0,0.0
-0.006979713899586242,-0.08509683519037414,0.737937257457625,0.002146293829592999,-0.5220764743081594,0.00014113690878313415,0.852895965799541,0.062396240964083804,-0.9287132491383422,0.793829879841859,0.0023636111080659805,-0.7884755031505669,0.8170449488529659,0.012232333162540252,0.6319148458208298,0.9813470819461425,-0.004965657212290876,0.6226438735655705,1.0127657881099368,0.0,0.0,0.0,0.0
-0.007049185542162801,-0.08529462306431002,0.737864308480723,0.0021058549480932414,-0.5219726748986551,-1.2282033783465942e-05,0.8529596074159855,0.05491309990285698,-0.9144992786011982,0.803163799320599,0.003310118575515143,-0.7895843626200975,0.8178627035175309,0.012807650411615967,0.6313516780679139,0.9812835137313587,-0.004355117813380074,0.6215978058403399,1.0137748719651813,0.0,0.0,0.0,0.0
-0.007017883780644313,-0.0853398706090929,0.7377745000435064,0.0020015692476727394,-0.5218380541984042,-0.0001353633459293063,0.8530422150091604,0.04690946819314764,-0.8995282382471402,0.8123189952464134,0.0038348783521944697,-0.790999474840237,0.8192685967075082,0.012982041235739379,0.6307902490467319,0.9817358915235331,-0.004167971031492359,0.6207842920334369,1.01432253431614,0.0,0.0,0.0,0.0
-0.006885912764750426,-0.0852378846858357,0.7376757216144403,0.0018378319071874838,-0.5216773083072387,-0.00022961204529670752,0.8531408767897034,0.03838769942834452,-0.8840123351838732,0.8211204730250938,0.003951466685573557,-0.7926867698069142,0.8212476499206485,0.012755054121120211,0.6302891495931914,0.98262524041597,-0.004404138958587334,0.6202453755832923,1.0143646196623404,0.0,0.0,0.0,0.0
-0.006665173005831438,-0.08500212229618714,0.7375819702915258,0.001622576384489521,-0.5214890194041492,-0.00029717101781235255,0.853256398497053,0.029355473976364108,-0.8679351555129998,0.8294431914980818,0.003692783149816285,-0.7945872467849773,0.8237194549890832,0.012148716503995778,0.629895462827117,0.9837811799631689,-0.005035909643355824,0.6200004674700971,1.0138214050645291,0.0,0.0,0.0,0.0
-0.006378571518833456,-0.0846590526770091,0.7375150263853176,0.0013687596163531515,-0.5212684404957885,-0.000340152960369748,0.8533916004602838,0.019934872788787736,-0.85134615491974,0.8370199203529936,0.0031207900834734296,-0.796613813005469,0.8265506922669804,0.011234889778376101,0.6296601289359967,0.9849158983559498,-0.00598099285605248,0.6200651889092156,1.012585234479289,0.0,0.0,0.0,0.0
-0.006062200688840269,-0.08426006165328526,0.7374999514811073,0.001097288522899726,-0.521012205460057,-0.00035929187535327036,0.8535484453907073,0.010570064637345652,-0.834716771137233,0.8432052129394857,0.0023514078693032915,-0.7986582335628807,0.82956310693813,0.010203968271094044,0.6296168676422826,0.9856369167601818,-0.007034682133632665,0.6204388611285069,1.0106150439251789,0.0,0.0,0.0,0.0
-0.005775737845830077,-0.08390387039617955,0.7375302886109828,0.0008425891642678076,-0.5207278778960113,-0.0003543779440355636,0.8537222274497073,0.0023563329792279843,-0.8193913380788379,0.8466914694934715,0.0016095085623128616,-0.8006503884497175,0.8325145545530602,0.009475433389043834,0.6296051125866933,0.9857208170126331,-0.007763084907763875,0.6209287546818556,1.008355835990876,0.0,0.0,0.0,0.0
-0.005605394363076139,-0.083742342425115,0.7375153174532858,0.0006590743905596397,-0.5204662466804113,-0.0003356244589868073,0.8538819233615239,-0.002603137401062409,-0.8081694676661422,0.8456840886952253,0.0012715114931506196,-0.8025524306898619,0.8349942750935582,0.009633591249466772,0.629114546463169,0.9856668533583199,-0.0075800972593239955,0.6209285497896294,1.0073016452100714,0.0,0.0,0.0,0.0
-0.005598318960818914,-0.08373026122076568,0.737513464213057,0.0006437066392113388,-0.5204620583194564,-0.00033751536364490947,0.8538844872551654,-0.0026106789008987176,-0.8081416293849358,0.8456839134719549,0.0012550980463461709,-0.8025655364109148,0.8350149814399854,0.009636888585923913,0.6291016241472398,0.9857104882425486,-0.0075754390208094755,0.6209438575198734,1.0072619352779553,0.0,0.0,0.0,0.0
-0.005598318960818914,-0.08373026122076568,0.737513464213057,0.0006437066392113388,-0.5204620583194564,-0.00033751536364490947,0.8538844872551654,-0.0026106789008987176,-0.8081416293849358,0.8456839134719549,0.0012550980463461709,-0.8025655364109148,0.8350149814399854,0.009636888585923913,0.6291016241472398,0.9857104882425486,-0.0075754390208094755,0.6209438575198734,1.0072619352779553,0.0,0.0,0.0,0.0
-0.005762886008848702,-0.08341097301287147,0.7373795501125001,0.0005073614452596596,-0.5204448658428328,-0.0002789239178766333,0.8538950792712461,-0.003490841373092025,-0.8088347787224299,0.8457408958958218,0.00037640326651350493,-0.801078219457043,0.8320110698056482,0.0087648060653422,0.6276872063812998,0.9880601704789198,-0.008454247928651744,0.6200015733088692,1.0075420117751366,0.0,0.0,0.0,0.0
-0.005958936446795965,-0.08302223625008447,0.7372867425358263,0.0003774230399786566,-0.5203847589458036,-0.00022866979342952458,0.8539317934817114,-0.004528520314983901,-0.8096316843941668,0.8459082787372644,-0.000657915349015201,-0.7993908058402011,0.8286008753041539,0.007361644005232499,0.6263293124576075,0.9902043478929905,-0.00985436884910474,0.6190119257214285,1.007128255427564,0.0,0.0,0.0,0.0
-0.006144367053841326,-0.08266183812508422,0.7372383606983609,0.0002636700760746762,-0.5203106148107549,-0.0001838235017859018,0.8539770259218132,-0.005490561935013364,-0.8103279058638605,0.8460633545530211,-0.0016153443749850156,-0.797803529867613,0.8254522900815121,0.0060102303323653575,0.6252158924401605,0.9918029347705902,-0.011190847014343516,0.6182122474049808,1.0063589706182285,0.0,0.0,0.0,0.0
-0.00629492689412445,-0.08236619208611261,0.7372128889236459,0.00016771921697391348,-0.5202431332496413,-0.00014174149722177728,0.8540181696464122,-0.006292963589900038,-0.8109125614542665,0.8462313679540695,-0.0024127954590484604,-0.7964867359441178,0.8228831690821097,0.004949591042462904,0.6243458891883482,0.9929569115565483,-0.012232182749834298,0.6176336273549184,1.0055856877701161,0.0,0.0,0.0,0.0
-0.006408743686646907,-0.08213633817386451,0.7371965921637993,8.790131397711262e-05,-0.5201894303203095,-0.00010186975594571391,0.8540508992319741,-0.006933410979390828,-0.8113981075654316,0.8464107462731981,-0.0030486111021516514,-0.7954543951687252,0.8208996633936265,0.00419875707204957,0.6236700334290701,0.993805860165192,-0.01296518673381831,0.6172333680626478,1.0049538281807917,0.0,0.0,0.0,0.0
-0.0064951319920329405,-0.0819591401274898,0.7371837899083418,2.1332139331499573e-05,-0.5201480919984509,-6.4201149537392e-05,0.8540760843235942,-0.007443190900321147,-0.8117969126207619,0.8465759985938958,-0.003554337870701251,-0.7946459090148176,0.819365969973272,0.003690513379361119,0.6231295848434519,0.9944523520934706,-0.013458822380425822,0.6169517074616735,1.0044751620232593,0.0,0.0,0.0,0.0
-0.006564821792799769,-0.08182026964254058,0.7371719030079873,-3.520548701080858e-05,-0.5201158999841605,-2.789554062860955e-05,0.854095690520728,-0.007858713815529016,-0.8121187334873508,0.8466978579753158,-0.003966390001369506,-0.7939872993730658,0.8181278746239019,0.0033574680857499433,0.6226707161981431,0.9949694130544227,-0.013780151133284199,0.6167387803348527,1.004126179237908,0.0,0.0,0.0,0.0
-0.006624516632169401,-0.08171179723395257,0.7371584603309038,-8.478374565983237e-05,-0.5200919453961611,9.368705244934445e-06,0.8541102745301571,-0.0082044110993258,-0.8123670998817238,0.8467516955438953,-0.004309143357695968,-0.7934258690179095,0.8170830854052812,0.003180830536339441,0.6222526158544769,0.9954070548868469,-0.013947639562432616,0.616568118709604,1.0039078063646647,0.0,0.0,0.0,0.0
-0.006675107045914892,-0.08163770188894423,0.7371434661917788,-0.00012935173883238767,-0.520080123934999,4.888301435762701e-05,0.854117465906379,-0.008472388783402241,-0.812508456180879,0.8466939993455456,-0.004574835219439353,-0.792937421971409,0.816209467637344,0.0032045054007291624,0.6218759612234472,0.995759067809613,-0.013918027981233047,0.6164533409692846,1.0038450031621506,0.0,0.0,0.0,0.0
-0.0066753606735153485,-0.081635035018149,0.7371399593723711,-0.00013006299553810062,-0.5200804621327036,4.952430303590779e-05,0.8541172598295822,-0.008480535322744216,-0.8125238529046229,0.8467051790270083,-0.004582741397562213,-0.7929348388638061,0.816195023351046,0.003195788302475192,0.6218572685882519,0.995800067962495,-0.013926672159860204,0.6164383854360553,1.0038689018761326,0.0,0.0,0.0,0.0
-0.0066753606735153485,-0.081635035018149,0.7371399593723711,-0.00013006299553810062,-0.5200804621327036,4.952430303590779e-05,0.8541172598295822,-0.008480535322744216,-0.8125238529046229,0.8467051790270083,-0.004582741397562213,-0.7929348388638061,0.816195023351046,0.003195788302475192,0.6218572685882519,0.995800067962495,-0.013926672159860204,0.6164383854360553,1.0038689018761326,0.0,0.0,0.0,0.0
-0.006064824675843412,-0.08163497562784336,0.7374556655500227,-0.00021144549968622409,-0.5203904816841274,7.615604233605507e-05,0.8539283904775737,-0.008503597914973763,-0.8131883622637449,0.851043191841932,-0.0046034231826117804,-0.7933322428030914,0.8203280401524872,0.003845029278797037,0.6257455011379165,0.9931412439383059,-0.013370237208568015,0.6206489126061093,1.0013036739182997,0.0,0.0,0.0,0.0
-0.005036827291612829,-0.08151568266741682,0.7376467233323898,-6.504684828785562e-05,-0.5209314372054162,-7.878961081459862e-05,0.8535985164538444,-0.008479060099558537,-0.8147782236873269,0.8584533396563384,-0.004576894713267653,-0.7953674434818209,0.8277954257484824,0.001366096834265201,0.6315461120341032,0.9924661628892764,-0.016026986571738865,0.6252646782020808,0.9993897820087484,0.0,0.0,0.0,0.0
-0.00409431341146007,-0.08136351428483186,0.7377332943530651,8.358784759538853e-05,-0.5214877069992349,-0.00022918748747998276,0.8532587602450077,-0.00855338532237993,-0.8161549417253594,0.8650452879341309,-0.004648683610122425,-0.7970097342968006,0.8341632888535311,-0.0014007950258030887,0.6366963607353766,0.9928876484760155,-0.018957145225614938,0.6291662346865458,0.998343112519833,0.0,0.0,0.0,0.0
-0.0033410567096904898,-0.08125265692338009,0.7377560970378575,0.00016393124771864594,-0.5219266847068084,-0.0003139752568651716,0.8529902756403756,-0.008660382300857198,-0.8174849617279746,0.8704055717981568,-0.004752593533406277,-0.7983844835342381,0.8392422791480421,-0.003175966311508056,0.6404868095140691,0.9935065677574163,-0.020854805389913526,0.6321847497010592,0.9979508757516966,0.0,0.0,0.0,0.0
-0.0027990816613793056,-0.08121195037592564,0.7377499915997721,0.0001747548297954915,-0.5222265310486868,-0.0003344746761276953,0.8528067236228238,-0.008720371852405444,-0.8186301023173994,0.8743224242379999,-0.004809915447474324,-0.7994890201290414,0.8430338113995306,-0.003695496657385163,0.6429143793835126,0.9939114021284084,-0.021467614472197274,0.6343861268823195,0.9980045913853932,0.0,0.0,0.0,0.0
-0.002441025171849459,-0.08123734701554323,0.7377352033639323,0.00013871667259661834,-0.5224118526997976,-0.0003119388467403835,0.8526932271401043,-0.008698797223767445,-0.8194852385336736,0.8768932477620872,-0.004786619903292651,-0.8003308871232913,0.8457167203943625,-0.0032090184650964116,0.6442735551937265,0.9940131245599989,-0.02105475401524459,0.6359275000616134,0.9983326340824514,0.0,0.0,0.0,0.0
-0.0022184708478219304,-0.08130873296486646,0.7377202823848737,8.236486749048462e-05,-0.5225229259294164,-0.00027023628271235275,0.8526251885011031,-0.008598197373012586,-0.8200183436425901,0.8783914206446984,-0.004685332626932352,-0.800936728205098,0.8475466607872157,-0.0021523831308933533,0.6449436284455197,0.9938892028152534,-0.020054470921545903,0.6369874016626947,0.9988091691573648,0.0,0.0,0.0,0.0
-0.0020831967297059288,-0.08140404354991276,0.7377072424989327,2.6444960185510375e-05,-0.5225968087029381,-0.00022818388927142288,0.8525799216298032,-0.008436645596281106,-0.8202511438532831,0.8791268827496165,-0.00452400044929337,-0.8013462065414066,0.8487754167496897,-0.0009240371342357149,0.6452551881387737,0.9936616119033855,-0.018866968930962267,0.6377225338556299,0.9993522551054349,0.0,0.0,0.0,0.0
-0.002000612744480055,-0.08150827752451359,0.7376959579629351,-1.8599400144215894e-05,-0.5226568564186296,-0.00019613698941023017,0.8525431200959513,-0.008230930909121425,-0.8202312065234446,0.879346487614419,-0.004319232400522875,-0.8016013215048026,0.8495954373740587,0.0002405959136404822,0.6454177054834479,0.99341610808713,-0.017731304240893822,0.6382438778811957,0.999915671201836,0.0,0.0,0.0,0.0
-0.0019562717649799677,-0.08161693149004637,0.7376867168117465,-5.494569964468657e-05,-0.5227078102875518,-0.00017403959294341075,0.8525118836447871,-0.007991551044043373,-0.8200192105237167,0.8791887258331562,-0.004081322672748047,-0.8017362311655426,0.8501077357260503,0.0013217401365517543,0.6454876489054909,0.9931621138763551,-0.016670037495419107,0.6386073135943174,1.0004781400890006,0.0,0.0,0.0,0.0
-0.00195666635583437,-0.08173336078567275,0.737680867145233,-9.927066249691273e-05,-0.522734406091026,-0.0001494365148576151,0.8524955768229686,-0.007733692353330103,-0.8197036552565374,0.8786984378571671,-0.003825125187793006,-0.8017676757357578,0.8503068370552896,0.002519061686198777,0.6453593834682609,0.9928316539321053,-0.015481872295664181,0.6388168138810738,1.0010288887815313,0.0,0.0,0.0,0.0
-0.0020251014056584847,-0.08185838506123826,0.7376801844884057,-0.00018401594895864695,-0.5227045841606363,-9.587694999163744e-05,0.8525138559831138,-0.007507288319657225,-0.8194340124295092,0.8778929271760393,-0.003599890170702701,-0.8016701812981538,0.8500618477394729,0.004196828219822669,0.6447819419392624,0.9923223635753853,-0.013794645460000745,0.6388423711268102,1.0015418066073418,0.0,0.0,0.0,0.0
-0.002192627109317059,-0.08196682266174306,0.7376916826031749,-0.00034332984291247324,-0.5226040697173105,1.1182128977165068e-05,0.852575432624283,-0.007421583386193606,-0.8192547698751805,0.8766958976906758,-0.0035139512433424846,-0.8011859522853153,0.848942901307284,0.0065390471754142275,0.6435679297187311,0.9916187362072261,-0.011413477328883601,0.6386884114624001,1.0018933071361134,0.0,0.0,0.0,0.0
-0.0024781754105322427,-0.08194385133817371,0.7378257329930696,-0.00041811214095526954,-0.5228286469004888,-2.3880036289192085e-05,0.8524376989505951,-0.007323990097010667,-0.8160585864028114,0.8724407022120808,-0.003420726870237039,-0.7976853889967285,0.8442024693736255,0.006623162552134481,0.6439596652574237,0.9911951547080193,-0.011325412560472889,0.6390967833682781,1.0012821644485719,0.0,0.0,0.0,0.0
-0.00255530552215339,-0.08200017014790925,0.7378430103454077,-0.0005779066861140295,-0.5229482945258062,3.7773377573656547e-06,0.852364210453574,-0.0071490374132948155,-0.815011425379761,0.8709816953461644,-0.009740343433859785,-0.8111253653963181,0.8469720771042052,0.00814042169612508,0.6438137285426777,0.9910921170471727,-0.00981214079294053,0.6395821179948378,1.0017000836414578,0.0,0.0,0.0,0.0
-0.002548213139574985,-0.08206208539423264,0.7378929690295754,-0.0006762828264498777,-0.5231966380200238,-7.17605141311996e-05,0.8522117198539993,-0.006714281214621206,-0.8132795968119985,0.8693826124831123,-0.018789349205016945,-0.8278562627630567,0.84454194352653,0.008702893563622019,0.644731093564552,0.990993613669527,-0.009286373500033829,0.6404662327124914,1.0019202754321557,0.0,0.0,0.0,0.0
-0.0024914777478626964,-0.08215131292090781,0.7379628460190366,-0.0007452863201940642,-0.5234858848400968,-0.000198669239735911,0.8520339978263866,-0.00608844265949277,-0.8113216355310282,0.8678332393829699,-0.028319560745415282,-0.8453326757932197,0.8392703637251341,0.00895937368856333,0.6461493216309093,0.9907205870097072,-0.009081618686750835,0.6415423182606279,1.0020388243378573,0.0,0.0,0.0,0.0
-0.002401564865432273,-0.0822824295083747,0.7380373316003168,-0.000801338682010352,-0.523764860699587,-0.0003433804418829256,0.851862436454696,-0.005317665546655072,-0.8094462727288697,0.8664862292649017,-0.03741001063720921,-0.8623782108189522,0.8325590039721797,0.009305045311370741,0.6477073835997282,0.9902278426041129,-0.008789441192875455,0.6426678915256578,1.0021891722594531,0.0,0.0,0.0,0.0
-0.002277711468454956,-0.08246255555419431,0.7381065931165064,-0.0008434376555114483,-0.5240167714102318,-0.0004963514956625583,0.8517073825727418,-0.004411345648422294,-0.8077857974828099,0.8654425636811189,-0.04585450816519069,-0.8786518105572204,0.8250467705270066,0.009839545929557759,0.6492917016076639,0.9895345603395995,-0.00830659091319786,0.643779854008811,1.0024588464382587,0.0,0.0,0.0,0.0
-0.002107771599651124,-0.08269533148980522,0.738165447975133,-0.0008602970143203772,-0.5242453313308194,-0.0006628945749810806,0.8515665875535917,-0.0033531932632384605,-0.8063654190912048,0.8647767729821491,-0.053741672244197444,-0.8942467993561332,0.8169837224164325,0.010487240371375255,0.6509488586868661,0.9886807550048233,-0.00771074961734902,0.6448713209807653,1.0028964268427287,0.0,0.0,0.0,0.0
-0.001876742543494822,-0.08298595968287312,0.7382112852177821,-0.0008375083667525254,-0.5244600480811151,-0.000854100697974184,0.8514342176929981,-0.0021090870931603726,-0.8051647463276981,0.8645378441821255,-0.06121253698588917,-0.9093790923863441,0.80845496986131,0.01112706011899307,0.6527801646316859,0.9876928530281084,-0.00712656378936188,0.6459532940097852,1.0035346301542647,0.0,0.0,0.0,0.0
-0.0015751889991093785,-0.08334594854028202,0.7382423524482279,-0.0007636435693296751,-0.5246635119449101,-0.00107966193342216,0.851308669292309,-0.0006308425278284805,-0.8041629687083391,0.8647371478784015,-0.06834227164103471,-0.9241559145577732,0.7995132745892456,0.011704985595550652,0.6548481116907169,0.9865541169552505,-0.006609491116151728,0.6470177709154973,1.0044116497934077,0.0,0.0,0.0,0.0
-0.001206305358521002,-0.08379519501799129,0.7382564289232308,-0.0006355110699898725,-0.5248422323186358,-0.001342387675754856,0.8511982291427767,0.0011376620410704888,-0.8033713030668396,0.8653364621345373,-0.0751041360020573,-0.9383771462818097,0.7902938233076077,0.012314721383099763,0.6571032781714116,0.9851896747669412,-0.006061671068337291,0.6480095488357056,1.0055845550198197,0.0,0.0,0.0,0.0
-0.0007903726908851912,-0.08435837851675923,0.7382496622191465,-0.0004620267876018633,-0.5249639001873349,-0.0016347177646371344,0.8511227982666071,0.0032448250945149907,-0.8028487432845492,0.8662426648243288,-0.08139874968898324,-0.9513423362467648,0.7811729738340301,0.013221566750070496,0.6593443493825031,0.9834844464015735,-0.005206027291002447,0.6488137091279423,1.0071309232868277,0.0,0.0,0.0,0.0
-0.00036383005782491125,-0.08505376085251089,0.7382158636246476,-0.0002633740444570807,-0.5249875110276936,-0.0019400544126848165,0.8511076783156969,0.00570664071945671,-0.8026717358014616,0.8672989760181578,-0.08713780090733214,-0.9617121289734369,0.7730018794271013,0.014776155092629719,0.6612513114502924,0.9813523175752042,-0.0036736666808922253,0.6492714729923218,1.009136148501146,0.0,0.0,0.0,0.0
3.2208569058864254e-05,-0.0858784149896735,0.7381482720034391,-5.562517129722104e-05,-0.5249002365557525,-0.0022474937975627235,0.8511607881835166,0.008499188499227369,-0.8027574901466574,0.8682020525455708,-0.09230084360673431,-0.9676106651497637,0.7673770196352278,0.017124906774426057,0.6625895802965355,0.9788577761753596,-0.0013016415978529998,0.6492501624545286,1.0116730498196649,0.0,0.0,0.0,0.0
0.0004176768199174801,-0.08678738660006538,0.7380428819020195,0.00018596282703491196,-0.5247635608842167,-0.002579175791887468,0.8512441003837726,0.01155433144872402,-0.8028806825521927,0.8688990337816229,-0.09694046188632925,-0.967213433476187,0.766400036142102,0.019670487313800052,0.6636702658382951,0.9763324508708555,0.0013012394634672165,0.6488376595815198,1.0146971942226037,0.0,0.0,0.0,0.0
0.0008540863743361101,-0.08776784761027154,0.7378921529806565,0.000487558554568954,-0.5246035332754534,-0.002957636636241015,0.8513413813195586,0.014885330499429998,-0.8031849560027049,0.8698550958591402,-0.10104716267910528,-0.9604491853726327,0.7700435087216859,0.022026140247199323,0.6648056757264347,0.9739168810998093,0.0037311335330001915,0.6481494326166053,1.01819498475628,0.0,0.0,0.0,0.0
0.0013981987871074396,-0.08886566439130666,0.7376884573232847,0.0008594922369890107,-0.5243830640487619,-0.003393249035582717,0.8514752781337278,0.01863480283017066,-0.8040645242261335,0.8716616540870948,-0.10449494595041661,-0.9490818701572145,0.7761875856922434,0.02437309781436644,0.6660553670126558,0.9713959098884801,0.006173543760213978,0.6472104756085841,1.0222425730792248,0.0,0.0,0.0,0.0
0.002093532989334077,-0.09012731605975385,0.73743678679397,0.001318665476820989,-0.5240948043823291,-0.003907608537152726,0.8516499443646601,0.02297562698720231,-0.8055785708764129,0.8745356719301762,-0.10718897018356728,-0.9350831550731773,0.783251547217765,0.026786003669870797,0.6676205572408916,0.9685140393292705,0.008707730389737166,0.6461132944049824,1.026857103822973,0.0,0.0,0.0,0.0
0.0030005208140455077,-0.09155802155937655,0.7371440978503445,0.0018928469360142718,-0.5237625866585357,-0.00453031906344755,0.8518501312768696,0.027992606232780572,-0.8077371803127413,0.8787927546777294,-0.10924879417717613,-0.9197013681151679,0.7902543099015562,0.028953297410511825,0.6698955654207344,0.9651992913713692,0.011006951034123245,0.645037679981185,1.0319305124339322,0.0,0.0,0.0,0.0
0.004152342171538664,-0.0931421627338338,0.7368213953437899,0.00259572479924993,-0.5234048993726563,-0.0052782026297796365,0.8520637969673779,0.03369327238491179,-0.8105035013406305,0.884591310317004,-0.11095615174966436,-0.9034512650487613,0.7965851264013253,0.03059039835802077,0.6731586239982886,0.9614097612207908,0.012768630002356254,0.6441301429794428,1.0372762534425275,0.0,0.0,0.0,0.0
0.0054885520279034814,-0.0948738789735866,0.7364879675231145,0.0034021730135187765,-0.5230120230471768,-0.006138436830789246,0.8522964088626444,0.040052126617640266,-0.8135680497429041,0.8913391512777787,-0.11264635478738856,-0.8864586911793241,0.8018405184267442,0.03188191986232635,0.677253271499308,0.9569767298826918,0.014191740478634318,0.6433565668845509,1.0427356245667132,0.0,0.0,0.0,0.0
0.006959032378956806,-0.09667516049138271,0.7361532310809783,0.004284051324246748,-0.5225911553566821,-0.007083805009333504,0.8525432252700207,0.046819698724944,-0.8168335262940978,0.8987964545801089,-0.11495934012416766,-0.8683257948063772,0.8054205092592823,0.032637178487162695,0.6820283572533025,0.95210707358115,0.015076385888586664,0.6426964771008242,1.0480503673624997,0.0,0.0,0.0,0.0
0.008462274452884203,-0.09837290267686721,0.7357459189743762,0.005192313845269266,-0.5221627595755952,-0.008047386160272025,0.8527920801492699,0.05340699366281021,-0.8204961383864026,0.9067578667690925,-0.11887368356357762,-0.8485281849374112,0.8061864733953076,0.03241463086181079,0.6866947346803799,0.9481814654207641,0.014943791261656991,0.6416871423931043,1.0535060667277376,0.0,0.0,0.0,0.0
0.009865172056506447,-0.09979242593188148,0.7352265179823527,0.006058133361801213,-0.5217262884796693,-0.00893630422395177,0.8530446186432551,0.05915443670012553,-0.8247695722065267,0.9149444958167178,-0.1253456688329793,-0.8267425463084777,0.801965483638787,0.031034577539009768,0.6903578649218769,0.946297115854986,0.01359137561069804,0.6399348228356431,1.0591454781106022,0.0,0.0,0.0,0.0
0.011006675954177522,-0.10080672647101263,0.734659130198928,0.006778725532330753,-0.521222321103079,-0.009621304198516012,0.8533397748667267,0.06343368862036197,-0.8298104200642437,0.9229880643038689,-0.1346928956351052,-0.8031634716305422,0.7888471124731061,0.029056238995305513,0.6922413618703258,0.9462828027036277,0.011618225475771432,0.637436462051475,1.0642398855272013,0.0,0.0,0.0,0.0
0.011619871033671977,-0.10127699195519424,0.7341785315522588,0.007200906154849218,-0.5205862258188273,-0.009907680397846137,0.8537212462551181,0.06540974208892085,-0.8353404435934705,0.9297108368576438,-0.14524820087858245,-0.7790705767153254,0.7616692708050514,0.027713772742186785,0.6913332250107305,0.9473806036097385,0.010339246595334091,0.6343999003678957,1.0676189287319482,0.0,0.0,0.0,0.0
0.01164907837993899,-0.10130675232453315,0.7341672145243149,0.007240911016100706,-0.5205727078387926,-0.009902108494969091,0.8537292154473793,0.06547282340075943,-0.8353659278243425,0.9297492797160348,-0.1452339545934243,-0.7790141879736572,0.7616840230534379,0.027696375325396778,0.6913727862310137,0.9473057115249915,0.010338163516457503,0.6343935653792322,1.067728098937592,0.0,0.0,0.0,0.0
0.01164907837993899,-0.10130675232453315,0.7341672145243149,0.007240911016100706,-0.5205727078387926,-0.009902108494969091,0.8537292154473793,0.06547282340075943,-0.8353659278243425,0.9297492797160348,-0.1452339545934243,-0.7790141879736572,0.7616840230534379,0.027696375325396778,0.6913727862310137,0.9473057115249915,0.010338163516457503,0.6343935653792322,1.067728098937592,0.0,0.0,0.0,0.0
0.011798663249371287,-0.1012797701228308,0.734124667066796,0.006952142484473804,-0.5204842677150534,-0.009467284326303487,0.8537904692039406,0.06445697078906078,-0.8380257645514583,0.9327571635821768,-0.14639988700331302,-0.7789430368933447,0.7624481363971402,0.0322110425686343,0.6898475185336527,0.9469039526924076,0.015041155434260954,0.6360421497873645,1.0681429752926919,0.0,0.0,0.0,0.0
0.012030849299351686,-0.10125772303125836,0.7340615891080198,0.0068028277811711295,-0.5205704309344712,-0.009169982149628384,0.8537423846795087,0.06370981463943025,-0.8396700941466747,0.9352224779153554,-0.14724103566533292,-0.7789340941434849,0.7636136237197296,0.03501372554222418,0.6894661266200326,0.9471215179150135,0.017979112915953655,0.637763464874657,1.0688295980796552,0.0,0.0,0.0,0.0
0.012320539476675808,-0.10131366243613486,0.733974834056466,0.0067613040204663405,-0.5207709645988607,-0.0089981955712341,0.8536222347591332,0.06342139688271534,-0.8404043144424895,0.9369995485511067,-0.1475989593870217,-0.7793935698531742,0.7656200638209222,0.03691563007777022,0.6898789270234914,0.9475869840447039,0.019965335987486614,0.6394545802958553,1.0699699929168405,0.0,0.0,0.0,0.0
0.012638345062573164,-0.10149447000101698,0.7338705452971535,0.006786857029848522,-0.5210198060748361,-0.008915602612147099,0.8534710377508183,0.06364962854923582,-0.8404495718345097,0.9380760493609109,-0.14744133383552174,-0.7805422871729443,0.768667014397808,0.038712606114021074,0.6906989612945917,0.9479039440734623,0.0218482841257957,0.6410749236624347,1.0716002192701175,0.0,0.0,0.0,0.0
0.012969191013352753,-0.10184638639830158,0.733754708043609,0.006860621628468132,-0.5212774648995828,-0.008907249347778945,0.8533131883240711,0.0644897277196055,-0.8398715868733082,0.9383705531621254,-0.146688696900466,-0.7826036590429418,0.7730160330693583,0.04092268338331839,0.6917335902042434,0.9477480803619893,0.024198636949246097,0.6426117548450868,1.0737662349790584,0.0,0.0,0.0,0.0
0.013327930810660077,-0.1024184015667764,0.733629617092007,0.006993100540784285,-0.5215400097406667,-0.008989350997740994,0.8531508110253258,0.0661065928323741,-0.8385745095886458,0.937794851843609,-0.14518620568691898,-0.7858938499790478,0.7791552512792609,0.04371422014765854,0.6930721862364388,0.946896626053172,0.02721598152445096,0.6441063511519051,1.0765511145342965,0.0,0.0,0.0,0.0
