zhuoxili-jackie/tripod-support-walk/examples/trajectory_trot_sideways_p3_v0.15.csv
root_pos_x,root_pos_y,root_pos_z,root_rot_x,root_rot_y,root_rot_z,root_rot_w,FL_hip_joint,FL_thigh_joint,FL_calf_joint,FR_hip_joint,FR_thigh_joint,FR_calf_joint,RL_hip_joint,RL_thigh_joint,RL_calf_joint,RR_hip_joint,RR_thigh_joint,RR_calf_joint,FL_foot_joint,FR_foot_joint,RL_foot_joint,RR_foot_joint
0.0,0.0,0.664888,-0.0038739181747107386,-0.3883128170371229,-0.008248016113749812,0.9214825658214358,-1.78e-06,-0.523593,-0.523596,-4.59e-06,-0.523609,-0.523606,8.76624e-06,-1.88e-06,1.04721,-2.47e-06,-1.36e-05,1.04719,0.0,0.0,0.0,0.0
0.0004246784895095941,-0.00022678850424046276,0.6643333498035509,-0.0037715608564,-0.38858741640385125,-0.008189125456853071,0.9213677514247708,0.0004257520266892209,-0.5218065460848669,-0.5273467468914513,0.0004229539156854759,-0.5206596596065782,-0.530130654635683,0.00045946465272180226,-0.0019162564428966194,1.0531091086107953,0.0004481811813796301,-0.00252255725632555,1.0547633956312834,0.0,0.0,0.0,0.0
0.0013098647795670262,-0.0007112611601887615,0.66347554266251,-0.003737488834643356,-0.38872738236347837,-0.008092313008879592,0.9213097024606955,0.0015317453460582636,-0.5171398018709069,-0.5382632829177175,0.0015301869204341909,-0.5137021657087044,-0.546241766771566,0.0019393061293869539,-0.004600955268791281,1.0609919000104626,0.0019293644030154943,-0.006281499952879195,1.0660485627927017,0.0,0.0,0.0,0.0
0.002740328006994884,-0.001535042003778667,0.6625650058507165,-0.0037439492556332566,-0.38884022450488503,-0.00797006576347461,0.921263122404608,0.0036357773038063895,-0.5086584506513978,-0.5562421785935788,0.0036399117926291403,-0.5016760265615613,-0.5724706104120468,0.00459727727973845,-0.006383580059335586,1.0690198162780362,0.00459491451875025,-0.009819301607469615,1.0796712183543262,0.0,0.0,0.0,0.0
0.004868678872556623,-0.0029699589989713067,0.6622168818775285,-0.0037382602918643285,-0.38922113321122065,-0.00789075745441262,0.9211029642871416,0.007915377809035526,-0.49443925027538554,-0.5799540005333145,0.007942014381413818,-0.481985796900004,-0.6100573586734584,0.008977242551457827,-0.0031883855317952022,1.0726613209187466,0.009000885983895444,-0.009799723971255022,1.0926638921027836,0.0,0.0,0.0,0.0
0.008074550606379667,-0.005673185897699653,0.6640602250682245,-0.0037004060209854246,-0.39058127302670087,-0.007997985615862135,0.9205262670788977,0.01709474473811598,-0.46874150932782316,-0.6077396090627387,0.017215426821714362,-0.4472598033330524,-0.6630579007066665,0.016734311318717485,0.015455603204347542,1.0598384935911025,0.016840105329230214,0.0025348274469747974,1.0969003792043066,0.0,0.0,0.0,0.0
0.011176621879868306,-0.008529253465686046,0.6651214027190906,-0.0034022240058312198,-0.3901214552785382,-0.008021681663725631,0.9207221772209332,0.02631873677596327,-0.44742068067271484,-0.6403119433408575,0.01764364291090644,-0.47989531673377256,-0.6187839194763631,0.0195835334775142,0.007967713286862152,1.070558792937999,0.02472065953235554,0.009504468659101137,1.100048470962891,0.0,0.0,0.0,0.0
0.014838668893418793,-0.011521028590813404,0.6662857429817601,-0.0032388086204533646,-0.38958207006231443,-0.007962235155515024,0.920951640215712,0.035822260699467944,-0.42311303378915743,-0.6782965570171994,0.016648033068834736,-0.5043687618991713,-0.5957409380931512,0.022323967610077676,0.0012434048582641022,1.0820447306214342,0.033664961031487174,0.018018551849673322,1.1030516697504458,0.0,0.0,0.0,0.0
0.018297448873568486,-0.014694042129466076,0.6675404590873095,-0.003051418571958209,-0.38932848470859543,-0.007941749190489563,0.9210596877830465,0.04616984962436754,-0.40171440155193056,-0.7082232929941052,0.016901009881388762,-0.5223713376355175,-0.5851624343626531,0.025918887360813464,-0.004425128379986291,1.0937367623914327,0.04315613474899263,0.0269565934167275,1.1061125358123103,0.0,0.0,0.0,0.0
0.02134078017955585,-0.017968066038302043,0.668906708667607,-0.0028402381117767664,-0.3892735960854016,-0.00794357377346507,0.9210835467393355,0.05692604300749912,-0.38370864943208005,-0.7298404086118225,0.018375239511197617,-0.5359465901462872,-0.581596945026623,0.03054204761350366,-0.009568491049607396,1.105202936066452,0.05297417522261086,0.03608268868559751,1.1081880500463892,0.0,0.0,0.0,0.0
0.02388765441072162,-0.021273048205170956,0.6703552592931025,-0.0026199520092961798,-0.3893239260660046,-0.007946811593294046,0.9210628993882676,0.06770103192234328,-0.3691582859209925,-0.7439624398396532,0.02075256452117702,-0.5466512972026634,-0.5819401720525587,0.03595906343428498,-0.014572670741707039,1.1162316689075236,0.06295036078645186,0.045050437358977465,1.108938809428577,0.0,0.0,0.0,0.0
0.025941580333114923,-0.024544746779596845,0.6718495475918738,-0.0024027961396322494,-0.3894189890092239,-0.007940618952399866,0.9210233570004608,0.07819827752512257,-0.3578290965771528,-0.7517548389750957,0.02366082113066185,-0.5555850901593227,-0.5844041173567559,0.04180917875002384,-0.019629983900802603,1.1267809417071109,0.07289582008818687,0.05362203344421441,1.1083609810801067,0.0,0.0,0.0,0.0
0.027554543013197326,-0.027725916926173585,0.6733599931990853,-0.0021971001086927844,-0.38952425110977235,-0.007920998080475727,0.9209795265573999,0.08820071120894867,-0.3492979174859546,-0.7545000504131189,0.026759172479835697,-0.5635017097244132,-0.5879557791040587,0.04776584460376223,-0.024832447929393455,1.1369118829245985,0.08262026363861871,0.06170237942337075,1.1065630647143094,0.0,0.0,0.0,0.0
0.02880127019691066,-0.030768803949090765,0.6748654731733028,-0.0020077495583354053,-0.3896221462083395,-0.00788789488700117,0.9209388325181918,0.09755985241482618,-0.3430487122221587,-0.7534631078631763,0.029772936246234567,-0.5709053751183553,-0.592003809753894,0.05359113277335256,-0.03022589119275529,1.1467354465004558,0.09195431153592402,0.06930097708379633,1.103685248432263,0.0,0.0,0.0,0.0
0.02976187479945734,-0.0336365772361559,0.6763505619230029,-0.0018370085781922577,-0.38970528754497796,-0.00784335154049001,0.9209043903118184,0.10618564315591122,-0.3385490124770642,-0.7498068023746741,0.032498997819665414,-0.5781274343506457,-0.596219212152957,0.05913665088723288,-0.03583266478612274,1.1563772056786983,0.1007632328331966,0.07647936949540395,1.0998810327551247,0.0,0.0,0.0,0.0
0.030511042756217202,-0.03630316090496245,0.6778020064713691,-0.001685331737171871,-0.3897718283185196,-0.007790347393243639,0.9208769689777602,0.1140349008129682,-0.3353049430689032,-0.7445419323996519,0.03479760825573992,-0.58538244418797,-0.6004306026393552,0.06432598352933296,-0.041657309645979836,1.1659559834891062,0.10895108722971103,0.08330616403121936,1.0953201294018018,0.0,0.0,0.0,0.0
0.03111208946555643,-0.03875169703959915,0.6792053254734868,-0.0015520874152208347,-0.38982230892590625,-0.007732042373525064,0.9208563264750179,0.12109873889968635,-0.3328973627811535,-0.7385049636012916,0.03658013725470143,-0.5928015423586949,-0.6045603489989115,0.06913387992646661,-0.0476826474568639,1.1755697123724098,0.11645760448281041,0.08982357452400556,1.0901981693405995,0.0,0.0,0.0,0.0
0.03161432913804947,-0.040972105904205296,0.6805414758230584,-0.0014362128887475069,-0.3898574289979319,-0.007671284266416112,0.9208421546309468,0.12739024620146852,-0.3310035943273221,-0.7323562033881599,0.03779706766511665,-0.6004388122929347,-0.6085803810726287,0.07356304840184182,-0.05385873560470156,1.185280687888332,0.1232508118437375,0.09602251148186715,1.0847504407334736,0.0,0.0,0.0,0.0
0.03205231582867965,-0.04295819072316003,0.6817835546511429,-0.0013368459382655557,-0.3898765271837257,-0.007610355342170086,0.9208347239790976,0.13293353065821725,-0.3294096854529049,-0.7265897338114504,0.03842686925864657,-0.6082445439695966,-0.6124722733072604,0.07761037321074497,-0.060084581984389124,1.1950895085659585,0.1293178489104796,0.10182290071922133,1.0792689692182422,0.0,0.0,0.0,0.0
0.03244571105975583,-0.04470465273333384,0.6828941284076954,-0.0012539443481460793,-0.38987703900831544,-0.007551080091346542,0.9208351118778727,0.13775478500387833,-0.3280172097318986,-0.7215433767807152,0.038463776057646004,-0.6160006417180826,-0.6161795811619951,0.08121039787104754,-0.06618010328702499,1.2048816770129873,0.13465523725417924,0.1070596657015464,1.0741185393592632,0.0,0.0,0.0,0.0
0.03279901712797215,-0.04620445574559883,0.6838246954678838,-0.0011887731890597093,-0.38985649492310603,-0.007495598106085357,0.9208443496018245,0.14187577364611662,-0.32684544856873593,-0.7173918791565935,0.037901695237754274,-0.6232235170660706,-0.6195417952169706,0.08415030938776176,-0.07183928378717562,1.2143265859227066,0.13925926267998065,0.11148175543965669,1.0697441667389578,0.0,0.0,0.0,0.0
0.03313334825978359,-0.04743270003952005,0.6845240000682378,-0.001145766129913591,-0.3898073380647163,-0.007447265882027259,0.9208656061780991,0.14527693887624593,-0.3257687098982169,-0.714636214210455,0.036595786231407613,-0.6290569328427255,-0.6222291625522609,0.08592917247879713,-0.07648706485959367,1.2227392944897084,0.14307941808576347,0.1148621225809906,1.0665741403747138,0.0,0.0,0.0,0.0
0.03339581983900102,-0.04838655092099766,0.6849500415203429,-0.001126892198745153,-0.38974706717699004,-0.007416496096670616,0.920891388452816,0.14799479415165162,-0.325184011731304,-0.712624009819257,0.034498524906447794,-0.6322933147631309,-0.6236863715216124,0.08582979773180914,-0.07926788027964979,1.2286562103927703,0.14610192445795023,0.11688258626140166,1.0650180504598845,0.0,0.0,0.0,0.0
0.033563568844843586,-0.049053559255042005,0.6850967340576112,-0.001132509689202265,-0.3897048776412342,-0.0074209423942281855,0.9209092003983976,0.15004732345416508,-0.3251965436382716,-0.7110157953796258,0.031466967389552396,-0.6316990596453584,-0.6232568376598785,0.08311351423293714,-0.07868218545802652,1.2296535036022953,0.14826007823839427,0.1174842953629796,1.0652109219382933,0.0,0.0,0.0,0.0
0.033622276142219375,-0.04943693024597312,0.6849696387620688,-0.001162672632509511,-0.3896819474145717,-0.007459940182889628,0.9209185508740739,0.15143890077329872,-0.3258905725198624,-0.7096327836499698,0.027543641430774382,-0.6272798683961656,-0.6208964689625289,0.0777953684497827,-0.07473893655485622,1.2256683407476439,0.14956288420678931,0.11666338306874866,1.0671164231231696,0.0,0.0,0.0,0.0
0.03356765853306082,-0.049556042074448796,0.684586720550645,-0.0012163953409392487,-0.38965150881819105,-0.007515255356221572,0.920930911086718,0.1521668004674233,-0.32731456769142797,-0.7084731900882215,0.022940005492969696,-0.6202615017166465,-0.6172029213338078,0.07063613460737778,-0.0689528626509228,1.2190142488306157,0.15009183817962818,0.11447645336546908,1.0705201897114094,0.0,0.0,0.0,0.0
0.03339621631733383,-0.049435907300804445,0.6839992289165314,-0.00128890872319092,-0.38960706196004813,-0.007577287623138641,0.9209491086359978,0.15225193333354806,-0.329451426328773,-0.707374996735799,0.01785075953211672,-0.6118457068249398,-0.6126817403412149,0.06240800212919521,-0.06225061337055136,1.2110292192740728,0.1499119570641051,0.11116627106595375,1.0749875204988515,0.0,0.0,0.0,0.0
0.03309538219504128,-0.04909880036396956,0.6832675635563062,-0.00137609138628521,-0.3895523601277886,-0.007641671622831401,0.9209715901949284,0.1517136650536377,-0.3323204339864676,-0.7060138146495738,0.01238880289011894,-0.6028817231487857,-0.6076282498659111,0.05360744844351109,-0.055179982437079916,1.202380997318207,0.14906812257663898,0.10701447138598671,1.080019520268528,0.0,0.0,0.0,0.0
0.03264229281674283,-0.04856287307324815,0.6824466474716931,-0.0014756477114451834,-0.389493262468732,-0.00770624872441331,0.9209958928713486,0.15056516004259934,-0.3360138794669795,-0.7039490530725573,0.006618211366640679,-0.5938634700120705,-0.6021734485190943,0.044478348363432424,-0.048072504838939316,1.193355856680253,0.14759312946330785,0.10225685255190804,1.0851545279763655,0.0,0.0,0.0,0.0
0.03200613051984981,-0.04784363867648969,0.681580974920294,-0.0015868242783874617,-0.38943405946495996,-0.007769458208615463,0.9210202119587257,0.1488174069878147,-0.34069647814578297,-0.7006630241689021,0.0005895359647075504,-0.5850258382713828,-0.5963589004903662,0.03511452514327834,-0.04112872431699142,1.1840404063895944,0.14551707408874467,0.09705908304603209,1.0900053833014516,0.0,0.0,0.0,0.0
0.031151390075164487,-0.046956468653665796,0.6807052309371023,-0.0017097842903352428,-0.38937644847843644,-0.00782972469730144,0.9210438390321953,0.1464865736034744,-0.3465915750953553,-0.695582900528469,-0.005645095741211932,-0.5764418635343206,-0.5901998509569776,0.02554776852929147,-0.034464604175555046,1.17442857968053,0.14287620202837245,0.09152575947563275,1.0942570840668595,0.0,0.0,0.0,0.0
0.030041664289454015,-0.045919259978458325,0.6798470932499903,-0.0018450778044687213,-0.3893196826344583,-0.007885383044087552,0.9210670991494312,0.14360252402064613,-0.35396233418593037,-0.6880955618621725,-0.012037221541402392,-0.568085425202457,-0.5837282479474326,0.015798274965465063,-0.028138008221698894,1.16448473465302,0.13972111369946527,0.08572299702449813,1.097649553850188,0.0,0.0,0.0,0.0
0.028644723650950867,-0.044754694767307125,0.6790301717763791,-0.0019933242322196297,-0.3892610986343843,-0.007934868612060992,0.9210911255725823,0.14021712416931514,-0.36308549596116557,-0.6775739661394536,-0.01856784478050864,-0.5598508126430526,-0.5770184334838904,0.005888087972180505,-0.02216001961956312,1.1541886852016212,0.13612375856428022,0.07970462292180669,1.0999617035712308,0.0,0.0,0.0,0.0
0.02694022708341173,-0.04349145310215276,0.6782760222376071,-0.002155115408758726,-0.38919673458136916,-0.007977038697679878,0.9211175951649115,0.1364105399401065,-0.3742082091005256,-0.66343970791482,-0.025297536999980864,-0.5515299387403818,-0.5702011406721282,-0.0041805586374051105,-0.016488308422072537,1.143583983274057,0.13218169405092742,0.07353870489476581,1.1010060529111718,0.0,0.0,0.0,0.0
0.024931700557108777,-0.04216369894344065,0.6776043895654613,-0.002331153008041592,-0.38912196682442635,-0.008011395400782018,0.9211484561155576,0.1322928079787026,-0.3874722645652163,-0.645296322992112,-0.0324403041466082,-0.5427538532272475,-0.563475157667781,-0.014483730639976775,-0.010996842430339401,1.1328471087499004,0.12801814163560069,0.06733272924294414,1.1006426940084268,0.0,0.0,0.0,0.0
0.02266436419916771,-0.04080886883349496,0.6770292888580871,-0.0025225348271537924,-0.38903186632084813,-0.008037673360833858,0.9211857790977389,0.1279991471850975,-0.40278675491366034,-0.6231811236190773,-0.04043225953856422,-0.5329219445130551,-0.5571420791353017,-0.025265784272266893,-0.005421739210296037,1.1223887155608676,0.12377932156584605,0.061246182664114725,1.0988368403337763,0.0,0.0,0.0,0.0
0.020249033725445353,-0.039466879583682286,0.6765418390154648,-0.0027305603728788133,-0.38891893932220895,-0.00805759155883338,0.9212326947600205,0.12370202878080655,-0.41964323734709275,-0.5979811394544133,-0.04986567376091944,-0.5211971439974376,-0.5517490701633142,-0.037024421649908046,0.0006785800737333222,1.1129952796646831,0.11963199065170604,0.05543431427396354,1.0958379746022215,0.0,0.0,0.0,0.0
0.0179923253981617,-0.038128657128679,0.6760836661003152,-0.002959958724741308,-0.3886940824868628,-0.008048186990901905,0.9213269645300756,0.11941499463227202,-0.4358786343555182,-0.5743625505557381,-0.061019705883192825,-0.5070419940783684,-0.5482412377312623,-0.05062547843847266,0.00787168861582921,1.1061380071132765,0.11566596307039914,0.050105540495221805,1.092196982271446,0.0,0.0,0.0,0.0
0.016238665989543252,-0.0368780468427652,0.6757644290112406,-0.0031739157001989373,-0.38841041905072105,-0.008038134164356666,0.9214459620786924,0.11549481146697015,-0.44839622167826837,-0.556944498159858,-0.07400446411666847,-0.4903377432280342,-0.5484236365867269,-0.06563981254685837,0.01532292370172585,1.1035487470186975,0.11202950253570546,0.04635348411359333,1.0879094233252975,0.0,0.0,0.0,0.0
0.015244368914698209,-0.035945320685208317,0.675680590063677,-0.0032966473165748863,-0.3881465421046028,-0.008006173429974721,0.9215569950663491,0.11250450611180138,-0.4549590065576849,-0.5485973023799329,-0.08555352845349648,-0.4733247996720109,-0.5558168374279254,-0.07880747948582197,0.019821977061917122,1.106832468239324,0.10929983653992631,0.044914036410902664,1.0835679123407178,0.0,0.0,0.0,0.0
0.015238102854496786,-0.03585127999434422,0.6756441887437934,-0.0033856826588570432,-0.3881617677915729,-0.008047728175678547,0.92154989731922,0.11243283623208376,-0.4550736154445088,-0.5485805031150013,-0.08557869534217075,-0.4733202538485923,-0.5558241103395511,-0.07880781179771901,0.019850729386524518,1.106844040598299,0.10922862022585715,0.04489660773097665,1.0835239584956229,0.0,0.0,0.0,0.0
0.015238102854496786,-0.03585127999434422,0.6756441887437934,-0.0033856826588570432,-0.3881617677915729,-0.008047728175678547,0.92154989731922,0.11243283623208376,-0.4550736154445088,-0.5485805031150013,-0.08557869534217075,-0.4733202538485923,-0.5558241103395511,-0.07880781179771901,0.019850729386524518,1.106844040598299,0.10922862022585715,0.04489660773097665,1.0835239584956229,0.0,0.0,0.0,0.0
0.014923581306483852,-0.03535287812596845,0.6752691780703978,-0.0035788613314758667,-0.388218259443802,-0.008017882943373331,0.9215256308638958,0.11089553817832284,-0.4574897815853798,-0.5465963808777208,-0.08715086173669774,-0.4783441091321026,-0.5466899727364479,-0.07973442913177652,0.016882667286155575,1.1110639431767113,0.10838065054046891,0.04303671937103094,1.085172504962108,0.0,0.0,0.0,0.0
0.014987417875288197,-0.03471736833463454,0.6747208021622336,-0.0036977163096018617,-0.388224054451311,-0.00799107394658406,0.9215229531469411,0.10903481057274207,-0.45654738877654344,-0.5517636426011061,-0.08932124051549958,-0.4809877346511763,-0.54272525985494,-0.08142931422132191,0.013535781639020963,1.1174671786837758,0.1069551205209336,0.04093756731927891,1.0883580252504066,0.0,0.0,0.0,0.0
0.015598814742291899,-0.03408527161932892,0.6742115039099285,-0.0037442965104841582,-0.38828473242741485,-0.008002332077583963,0.9214971022682233,0.10735589521712277,-0.4508090644275498,-0.5649592169519907,-0.09147840829190902,-0.4788020870100621,-0.5472988085175775,-0.08356201313600203,0.011437253951708585,1.1246182847613073,0.10534086867652895,0.039952288012687,1.0922418759489987,0.0,0.0,0.0,0.0
0.016898559589770837,-0.03340158149247308,0.6740456085028985,-0.0037276100159637443,-0.3885531418810343,-0.008072108190788515,0.9213834174366836,0.10566915980101632,-0.43858881049481446,-0.5872642734169533,-0.0936339386024109,-0.4701251118693248,-0.5613573210361258,-0.08636165272274274,0.012485700499493213,1.1309741349960771,0.10334761041417218,0.042078321040191075,1.0948616021343798,0.0,0.0,0.0,0.0
0.019163979098352928,-0.032409214779626536,0.675207673762444,-0.0037156606270704784,-0.38953228602010215,-0.008286888730467012,0.9209680339128099,0.10318497530019101,-0.41533097952590176,-0.620584821030326,-0.09589449845600818,-0.45155179116631833,-0.5841696552162446,-0.09069533401945987,0.022409387083442464,1.131562676515237,0.10015632655748594,0.0535176505577164,1.0894298047749011,0.0,0.0,0.0,0.0
0.02121700463058355,-0.03105570107226939,0.67547748250299,-0.0040789376259955335,-0.3892775503024009,-0.008166035848501643,0.9210752775734055,0.08611129048544508,-0.44906582715618476,-0.5881883015442684,-0.10106093539900438,-0.43806874100372706,-0.6055556824452469,-0.09409693775553207,0.025730566419516383,1.1347550944342848,0.08099586584276355,0.043183717874010916,1.0921072821499245,0.0,0.0,0.0,0.0
0.023769752445889646,-0.029830738939138422,0.675864908002443,-0.004368738113631361,-0.38897232258347003,-0.008174783084407534,0.9212028111728917,0.06762007909883097,-0.47627896274830056,-0.5740398440916338,-0.10551442090502317,-0.42063364367592215,-0.6344712378326889,-0.09770726153397967,0.03077478436233296,1.1372066218563839,0.05937348180537991,0.032331549682704123,1.09706763363261,0.0,0.0,0.0,0.0
0.026259377207932214,-0.028745561256460335,0.6763823490777459,-0.0046260675655843565,-0.3888342974063354,-0.008226764615673034,0.9212593603341886,0.051303192622596146,-0.4969791447295453,-0.569837459635907,-0.109299788845597,-0.40396039498398556,-0.6609022437924413,-0.10111452751317575,0.03679190557649966,1.1386576269657471,0.039838868773921336,0.02300961254253295,1.1041483817269782,0.0,0.0,0.0,0.0
0.028480851059649266,-0.02781750062188637,0.6770098852803863,-0.004856398612662335,-0.38882773915885477,-0.008289332837203303,0.9212603820930555,0.03778821735682555,-0.5128912190685937,-0.570765518021059,-0.11241936471386584,-0.389195139623538,-0.6830241503889758,-0.10410129742174445,0.04324441215596132,1.1387879997574442,0.022974320987778057,0.015037409305669327,1.1124843406757718,0.0,0.0,0.0,0.0
0.03032067203337578,-0.027040217012323366,0.6776989884762485,-0.005064473390935558,-0.3888970827227057,-0.008353482937038458,0.9212294119717749,0.02634175011044449,-0.5257163509896357,-0.5743216063162951,-0.11490568055674653,-0.3769277512809008,-0.700266060509091,-0.10659328275007142,0.04956728924553011,1.1376948588818865,0.008172568769626803,0.0077599136766371354,1.1213249071191371,0.0,0.0,0.0,0.0
0.031746673825160866,-0.026415954905324595,0.6784179243954255,-0.005253904225518202,-0.38900341821846995,-0.008419902770335622,0.9211828495700912,0.016106741408029455,-0.5367226174967407,-0.5791658456202139,-0.11674952575978823,-0.3672088427974361,-0.7129113347926175,-0.10853882385640566,0.05545936567035758,1.1355081872550186,-0.005279036753068598,0.0006618327604513852,1.1302037712106512,0.0,0.0,0.0,0.0
0.03278142485218651,-0.025956474186943693,0.6791516817410357,-0.005426247849578812,-0.38912323358049417,-0.008491889621977396,0.9211305839742719,0.0065089319236255536,-0.5467537689789603,-0.5845550429205488,-0.11791602147300535,-0.3597604687268066,-0.7217001403470562,-0.1098900109848005,0.06084415165991487,1.1323148677383703,-0.017891237600097407,-0.006555317059747804,1.1388961456974334,0.0,0.0,0.0,0.0
0.03347690391315273,-0.025676380705670455,0.679892644510121,-0.005581716385971952,-0.389243896515693,-0.008571998449988955,0.9210779306389011,-0.0027286300815687445,-0.5563376243384865,-0.590069455723676,-0.11837304908168723,-0.3541620601425038,-0.7275324288124989,-0.11060922314238093,0.06576700116129523,1.1281904882708602,-0.029957994013398957,-0.014029982094376371,1.1473317777812089,0.0,0.0,0.0,0.0
0.033895771242475406,-0.025587903473962857,0.680633420535559,-0.0057200905894715425,-0.38935959048700947,-0.008661218188694262,0.9210273465858244,-0.011687655266656211,-0.5657955297592369,-0.5954772622015727,-0.11810629396318033,-0.34997135228907145,-0.7312905429248995,-0.11067581048339523,0.07031205120012918,1.1232341251680962,-0.04162620561494383,-0.021809350176537685,1.155523203125373,0.0,0.0,0.0,0.0
0.034099475411046916,-0.025698946085704555,0.6813631113394654,-0.005841306111123954,-0.38946827411638746,-0.008759293178089659,0.9209797051959066,-0.020354001349013544,-0.5753219985576706,-0.600661908434824,-0.11712044351893879,-0.3467916072131621,-0.7337500817692618,-0.11008628836267599,0.0745514905135838,1.117584452151067,-0.05296703302274198,-0.029894305480061653,1.163518941610726,0.0,0.0,0.0,0.0
0.03414165450356246,-0.026013676536598345,0.6820654370322133,-0.005945631322183392,-0.3895693880187543,-0.008865207770740768,0.9209352580274335,-0.028682198777086318,-0.5850292481549084,-0.6055773124976271,-0.11543308882458417,-0.34430446202927056,-0.7355463765830913,-0.10884885738584121,0.07851732661779541,1.1114239185322012,-0.06402235582930896,-0.0382580888604507,1.171374260379173,0.0,0.0,0.0,0.0
0.03406497909668739,-0.0265344678690082,0.6827172404789829,-0.0060335143903168225,-0.3896621780517812,-0.008977506080411543,0.9208943414337065,-0.036627743773240316,-0.594956203046403,-0.6102130077520093,-0.11306631119713095,-0.34228420631580697,-0.7371710793158496,-0.10697539702692796,0.08218447024475976,1.1049815217278058,-0.07482125752604997,-0.046844540388295886,1.1791279591526571,0.0,0.0,0.0,0.0
0.03389980802429571,-0.02726427758432482,0.6832867954524088,-0.0061052087310771875,-0.38974456923720013,-0.009094263341187877,0.9208578563224296,-0.044158138383995835,-0.60504130572237,-0.6145583466630689,-0.1100390686756496,-0.3406040399632839,-0.7389803229807772,-0.10447307314163992,0.08545833729751301,1.09853856163931,-0.0853642455881456,-0.05555089199004942,1.186771890459911,0.0,0.0,0.0,0.0
0.03366344051812357,-0.02820891540539248,0.6837324893960994,-0.0061602719873198285,-0.3898128639471361,-0.00921264847386386,0.9208274047064796,-0.05124941561403667,-0.615058279723671,-0.6185583156810033,-0.10636144376356411,-0.3392395926217959,-0.7412002548512987,-0.10133660001152649,0.08816711812894902,1.0924334239691773,-0.09557090579735512,-0.06419521132578733,1.1941970142695917,0.0,0.0,0.0,0.0
0.033359357396720885,-0.02937883820193505,0.6840036711441504,-0.006197070395101253,-0.38986287770479783,-0.009328018813978068,0.9208048224087763,-0.05786748839863541,-0.6245221624129352,-0.6220591289400201,-0.10203102970376406,-0.3382688155309536,-0.7439203062145155,-0.09754136744559555,0.09006680865776333,1.0870521598887866,-0.10519089687787653,-0.07246133184328632,1.2010949269511855,0.0,0.0,0.0,0.0
0.032976931306269726,-0.030789940951364045,0.6840466286370448,-0.006212586231568298,-0.38989350209548035,-0.00943259453560052,0.9207906857458779,-0.0639302913207495,-0.6325987636950701,-0.6247546266017603,-0.0970320214575604,-0.3378585057813764,-0.7470730251400233,-0.09303813749750824,0.09087572023693495,1.0827841241340603,-0.11370466255435398,-0.07980325528285039,1.206787725666056,0.0,0.0,0.0,0.0
0.032493985058753304,-0.032461946890231574,0.6838189992490905,-0.0062032635246295,-0.38991365703536707,-0.009514077384614199,0.9207813757404467,-0.06926406500365376,-0.6381102293104699,-0.626171857601268,-0.09134001668802139,-0.33821639098254824,-0.7504162992341118,-0.08775274399595985,0.09035976685533496,1.0799239076227174,-0.12031148943087856,-0.08528012416759265,1.2099551692620638,0.0,0.0,0.0,0.0
0.03188663010630635,-0.03441115435961063,0.6833118814532038,-0.006168322385418579,-0.38994959979492677,-0.009555316945998692,0.9207659623035527,-0.07364108003570195,-0.6398472887812391,-0.6258072941809258,-0.08494198388041087,-0.33948816914313495,-0.7535674654959539,-0.08159965326038982,0.08846646364488632,1.0785310787670692,-0.12423011293226438,-0.08737171373631848,1.2083430347054995,0.0,0.0,0.0,0.0
0.031137228544251567,-0.03664436833016084,0.6825270922077512,-0.006108191554257435,-0.3900021967044511,-0.009553723701969915,0.9207441028456633,-0.07701410595198947,-0.6378144282223156,-0.6236489778149182,-0.0778059393648509,-0.34179879856310064,-0.7562895011276899,-0.0745433455185213,0.08519205180881764,1.078499712946862,-0.12541401933541876,-0.08607001474918295,1.2019995118444953,0.0,0.0,0.0,0.0
0.030235174998833186,-0.03915997618334008,0.6814759428049467,-0.006024705518217683,-0.3900483801432357,-0.00952179958512859,0.9207254202006792,-0.07954993802807171,-0.6332255475154932,-0.6201889609924736,-0.0698719402369139,-0.34525012531928373,-0.75849685604979,-0.06659933486721867,0.08058034212015291,1.0795773467005296,-0.12456293587286474,-0.08288573309388876,1.1932325326320596,0.0,0.0,0.0,0.0
0.02916924901522997,-0.04195374079497475,0.6802006942846535,-0.005922374258904313,-0.3900831522708325,-0.009468487048271102,0.9207119025789797,-0.08139743793130001,-0.6272674604142605,-0.615888415900471,-0.06108612141667311,-0.34987710340660966,-0.759979705090738,-0.057779884694462214,0.07485053087516061,1.0813073555096044,-0.12241222811256507,-0.07877452699935016,1.1833716380122346,0.0,0.0,0.0,0.0
0.027918712612545145,-0.04502396557560799,0.6787528416726352,-0.005804837625892724,-0.39011105765790705,-0.009399319158803833,0.92070153652121,-0.08262716677304856,-0.6207920865442735,-0.6110369714922648,-0.05139639312837063,-0.35574250771152577,-0.7603780988686252,-0.04808946387253583,0.06826612377817279,1.083163530041353,-0.1194302794429533,-0.07431439972291212,1.17307680814941,0.0,0.0,0.0,0.0
0.02645302844572139,-0.048370653015990965,0.6771800658115524,-0.0056741183556087505,-0.39013913476418044,-0.009317453284357746,0.9206912864639466,-0.08326795485661337,-0.6143097748279902,-0.6057768854568472,-0.04075994217252134,-0.3629727055707489,-0.7592070218054284,-0.03753413927807851,0.06106169347360827,1.0846392902258502,-0.11583212315701207,-0.06985536466462132,1.1626216273281396,0.0,0.0,0.0,0.0
0.02473533472064606,-0.051992239194356756,0.6755220634634841,-0.005531030556212588,-0.3901736105263873,-0.009224892559690535,0.9206784795502996,-0.08334823604709996,-0.6080789750315893,-0.6001667302441144,-0.029153718084527894,-0.3717568938989879,-0.7558868171684897,-0.026135666335117234,0.0534247837438688,1.0852831549065076,-0.11168573328824621,-0.06560278600227307,1.1520681931884935,0.0,0.0,0.0,0.0
0.022727052252383664,-0.05588125752901017,0.6738117358626841,-0.005375880628516454,-0.39021873335436214,-0.009123598249162465,0.9206612840788805,-0.08292291726299021,-0.602200390564613,-0.5942410411798925,-0.016586890918468013,-0.38233122119209756,-0.7497663767248197,-0.013946963576482275,0.04550846998069483,1.0847007067551742,-0.10701647910533718,-0.0616643271491838,1.1413675495848135,0.0,0.0,0.0,0.0
0.02039312184429738,-0.06001928227059063,0.6720786329620109,-0.005209154623251955,-0.3902764058691689,-0.009016430177940016,0.9206388519483637,-0.08208855828797977,-0.5966799957003621,-0.5880527780171358,-0.0031158430449378573,-0.3949569656448343,-0.7401438677969366,-0.0010681591968060827,0.0374552750606011,1.0825462749342414,-0.10188757674504721,-0.058075835125556224,1.1304161184691464,0.0,0.0,0.0,0.0
0.017708501362551386,-0.06437119309008935,0.6703523282587787,-0.005032115607747248,-0.3903458203321622,-0.008907853066296463,0.9206114644710172,-0.08098886611210157,-0.5914498166290507,-0.5816969523177906,0.011137923689776503,-0.40989379580718793,-0.7262983822504282,0.01233745963193379,0.029419223236781897,1.0785245256142986,-0.09645979961041125,-0.0548097662526483,1.1190919853386259,0.0,0.0,0.0,0.0
0.014667118048535353,-0.06887860285605865,0.6686633747834788,-0.004847236179704788,-0.39042261552567137,-0.008804161038139482,0.9205808885350197,-0.07980500855885551,-0.5863447333864257,-0.5753185162201061,0.02596647674941538,-0.4273651113569088,-0.7075518922493264,0.026028495962379487,0.021573001834977158,1.0724244264444185,-0.09103352728035068,-0.05176214199511034,1.107287616837045,0.0,0.0,0.0,0.0
0.01129486253714375,-0.07345152146839065,0.6670375985425911,-0.004658395843737334,-0.3904966241493284,-0.008712234007512804,0.920551347212495,-0.07872351479515129,-0.5810417788092063,-0.5691216011922512,0.041046250004250086,-0.4475121723113841,-0.6833900053683157,0.0396721249555598,0.014074687114339266,1.064225107865244,-0.08606352490265613,-0.0487103783187905,1.0949459211252461,0.0,0.0,0.0,0.0
0.007668150669406108,-0.0779547842633071,0.665474002447501,-0.004471829553882893,-0.3905397129675355,-0.0086199087317217,0.9205348621910703,-0.07798628194029732,-0.5750044045513248,-0.5635072377672572,0.05582276941895225,-0.4703324781154136,-0.6536963358683292,0.052859364108646605,0.006917001379004311,1.0543158040207226,-0.08208311500286425,-0.04524134262515937,1.082093823663356,0.0,0.0,0.0,0.0
0.003913492330711312,-0.08222135852247509,0.6639299156017091,-0.0042818888718618815,-0.39047744073856483,-0.008580212705881335,0.9205625528185857,-0.07932580387431551,-0.5679809177753443,-0.559007292908044,0.06995326283012458,-0.4957371966840483,-0.6191541883759428,0.06495708357329305,-0.00012971621947646672,1.043638957788929,-0.07969388339154379,-0.04073412514975723,1.0688827461216162,0.0,0.0,0.0,0.0
0.0005449105646509961,-0.08601442020597654,0.6624117692785249,-0.004107990825217931,-0.39025611619672507,-0.008510542295765833,0.9206578402708903,-0.08233134274058693,-0.5597784738831815,-0.5562359717992645,0.0823559806547061,-0.520444473922233,-0.5856828867071371,0.07553088531461108,-0.006785063417260861,1.0337300287115838,-0.07936370571070869,-0.034838287731770744,1.0557210408700193,0.0,0.0,0.0,0.0
-0.0021751379519032764,-0.0889857327411336,0.661085552092487,-0.003957321074450438,-0.3898940452095356,-0.008425808180839673,0.9208126730646999,-0.087425826409426,-0.5511497692681686,-0.556270963978592,0.09198628588213295,-0.542128819772525,-0.5565407850086128,0.08363614456799415,-0.012525616173010106,1.0254698896124783,-0.08134840552337116,-0.028122306908176416,1.0423239356476743,0.0,0.0,0.0,0.0
-0.0038317613607344756,-0.0907194075518857,0.6601847584375627,-0.003860340254284939,-0.38945240862369657,-0.008319573647858916,0.9210009250183413,-0.09333765242300146,-0.5441006791783897,-0.560009680307834,0.09745327636880526,-0.5566273451347299,-0.5377496557632023,0.0882942140305786,-0.016497674585053412,1.0200755167726927,-0.08439445570427614,-0.021781034949734917,1.029193816074638,0.0,0.0,0.0,0.0
-0.0037685136575480315,-0.09085566871571624,0.6600893304732466,-0.00376698414083657,-0.38947629775180653,-0.008249482152569312,0.9209918400095862,-0.0933501413666683,-0.54411281030879,-0.5600381194815073,0.09759885839054423,-0.5568056630468365,-0.5376991268874878,0.08847005342741857,-0.016440314262199527,1.0200328381735244,-0.084430024428038,-0.021748544388374574,1.0291922676659704,0.0,0.0,0.0,0.0
-0.0037685136575480315,-0.09085566871571624,0.6600893304732466,-0.00376698414083657,-0.38947629775180653,-0.008249482152569312,0.9209918400095862,-0.0933501413666683,-0.54411281030879,-0.5600381194815073,0.09759885839054423,-0.5568056630468365,-0.5376991268874878,0.08847005342741857,-0.016440314262199527,1.0200328381735244,-0.084430024428038,-0.021748544388374574,1.0291922676659704,0.0,0.0,0.0,0.0
-0.0037685136575480315,-0.09085566871571624,0.6600893304732466,-0.00376698414083657,-0.38947629775180653,-0.008249482152569312,0.9209918400095862,-0.0933501413666683,-0.54411281030879,-0.5600381194815073,0.09759885839054423,-0.5568056630468365,-0.5376991268874878,0.08847005342741857,-0.016440314262199527,1.0200328381735244,-0.084430024428038,-0.021748544388374574,1.0291922676659704,0.0,0.0,0.0,0.0
-0.0033320060613861086,-0.09117539915769651,0.6593449350079352,-0.0036787595793361873,-0.38965724085106695,-0.008135588726916814,0.9209166702673796,-0.09300889844211936,-0.5430609530322721,-0.5639362613875106,0.09832432313792729,-0.5547328265387581,-0.5439260325053765,0.08951429418972826,-0.01922476159729887,1.026319905821685,-0.0838442655629906,-0.025582783040093288,1.038566622136366,0.0,0.0,0.0,0.0
-0.0024478573997113538,-0.09177965708483146,0.6582606250686339,-0.0036446991898881143,-0.38971210947734525,-0.008008501675167697,0.9208947017957329,-0.09199846158622987,-0.5396155695272875,-0.5743209769339684,0.10019587146863258,-0.5489748997977376,-0.5595845730787655,0.09169243453260033,-0.022954227757044192,1.034744464696003,-0.08236658427406802,-0.031039535295189095,1.0521819981585112,0.0,0.0,0.0,0.0
-0.0010165175068445912,-0.09280816268823908,0.6571309818480009,-0.0036376059744436143,-0.3897611483368283,-0.007876091408946271,0.9208751176213035,-0.08970802603837665,-0.5325456188037174,-0.5912950301555304,0.10365003369684664,-0.5381701223720066,-0.585500695490843,0.09531284138527002,-0.025561585148436643,1.0428643836932738,-0.0796672831172148,-0.03649793953880924,1.0686746356907755,0.0,0.0,0.0,0.0
0.0011352247487887135,-0.09463416966302103,0.6566835972831164,-0.003605433500286581,-0.39012069380252784,-0.00780192987255539,0.9207236148848215,-0.08430412763143127,-0.5191736693739246,-0.6141342516444517,0.11001979471943993,-0.5190473976463812,-0.6234863091466039,0.10119182239288864,-0.022123164768363332,1.044831318730029,-0.07487620337787207,-0.03824672405213455,1.0849188475469003,0.0,0.0,0.0,0.0
0.0044276567454733995,-0.09818025364325463,0.6589058601778872,-0.003555556091214133,-0.39145108267996687,-0.00805802522264245,0.9201567671430098,-0.07080693040345454,-0.4918076563286366,-0.6427303127484568,0.12304786008781529,-0.4825168923293226,-0.6796171958243006,0.11145593357178508,0.000363417969217978,1.0244148527445176,-0.06558722705410593,-0.026367591863773285,1.0912364620504171,0.0,0.0,0.0,0.0
0.00769637645672591,-0.10144219901335522,0.6607418472854111,-0.003348664851981428,-0.3908833860205604,-0.007896833879652544,0.9204002417380647,-0.061089586322993945,-0.46765708692189567,-0.6790818754117397,0.11309522701285599,-0.5113212824444726,-0.6325642150700559,0.10596448751737206,-0.008946862871543303,1.0442896784187465,-0.0562202369956481,-0.01658136020535496,1.0918383442186763,0.0,0.0,0.0,0.0
0.011547110927969385,-0.10498111004751425,0.6625492785384713,-0.003263770700236215,-0.39027980494277326,-0.007821203545676133,0.920657292606616,-0.04998372679922012,-0.44113823227433685,-0.7194918608149693,0.10123600596375058,-0.5322901186487821,-0.6070206753949305,0.09989955522163468,-0.01584564933678535,1.061670213462905,-0.04582422051983434,-0.006201086845414663,1.0938403799239074,0.0,0.0,0.0,0.0
0.015189874461034616,-0.10883028642818685,0.6642484260710663,-0.0031423116328316253,-0.3899495978437314,-0.007802952706530341,0.9207977796173131,-0.03729161930923867,-0.41804267011631363,-0.7513515252197197,0.09309936533402428,-0.5478953699506925,-0.5946254327954418,0.09670954346247604,-0.021351261923580774,1.0767252760002577,-0.03458951064761387,0.003405809407544244,1.0978077827662314,0.0,0.0,0.0,0.0
0.018407978062365472,-0.11284696266293637,0.6659657099849049,-0.0029788135006913333,-0.38982944945490783,-0.007794216128248186,0.9208492695347907,-0.023794011077484765,-0.3984989559366502,-0.7745782091266777,0.0887975898558232,-0.5599199629977869,-0.589733666116699,0.09657828578133137,-0.026286697626306393,1.090028646902227,-0.02278737858552237,0.012729163327162984,1.1016949901894013,0.0,0.0,0.0,0.0
0.02111847589600574,-0.11692206284427241,0.6677375962075718,-0.0027903534410029735,-0.3898271241711612,-0.007773259738371361,0.9208510214041988,-0.010083002779019346,-0.38239833928739647,-0.7900845725292462,0.08723819626708143,-0.5695551027716429,-0.5890400020702271,0.09865511465471681,-0.03106362229517735,1.1020286746846697,-0.01064819849890897,0.02184555571448591,1.1044494487558603,0.0,0.0,0.0,0.0
0.023322225883627323,-0.12097691186176497,0.6695538982415082,-0.002592382004226624,-0.38988205626896655,-0.007736948725211521,0.9208286493042286,0.003456953693340736,-0.36948915168476576,-0.7989983700293273,0.08727129185014898,-0.5776349402687517,-0.5906053266017981,0.10197618461205885,-0.03584623626869079,1.1130693957338766,0.0015984656362923455,0.03066859945396405,1.1057604556121001,0.0,0.0,0.0,0.0
0.025068696473266868,-0.12495251012333705,0.6713905313793781,-0.0023966258232897154,-0.38995755617780264,-0.007687701567567619,0.9207976215266344,0.01656838680908021,-0.35940551808878907,-0.8025224463407361,0.08801744696285001,-0.5847710513553067,-0.593315836840491,0.10579761013247878,-0.04071666894584297,1.1234279225807184,0.0137432425346999,0.03911860513064351,1.105649508972831,0.0,0.0,0.0,0.0
0.026431618863414198,-0.1288033217406773,0.6732243431083715,-0.002210742612669595,-0.390033286860784,-0.007628944887531217,0.920766499693368,0.02907789272706956,-0.3517039034614068,-0.8018503657094289,0.08889845558544511,-0.5914082540565392,-0.5965490395043532,0.10964434685266701,-0.045727354007427,1.133337231564831,0.025605238372202202,0.04717685999554315,1.1042559242327235,0.0,0.0,0.0,0.0
0.027492141894015016,-0.1324944229800233,0.6750366611993726,-0.002038901821875903,-0.39009950376709346,-0.007564097674115771,0.9207393792308465,0.040874652991206455,-0.3459105771287963,-0.798100792515045,0.08956786186042187,-0.5978604948553503,-0.5999710157191585,0.11325541869885321,-0.05091197140865624,1.1429950718118784,0.03703644872254024,0.05487490792743674,1.1017538190853122,0.0,0.0,0.0,0.0
0.028327751168920064,-0.13599991358985128,0.6768116677993723,-0.0018828903735727252,-0.39015239353055264,-0.007496188376726767,0.9207178567324751,0.05189539208438642,-0.34156877510207306,-0.7922726953127467,0.08982821181729427,-0.6043416031038878,-0.6034172203950328,0.11651266290968451,-0.0562855163935327,1.152565978206935,0.047924206207516,0.062261238031764546,1.0983322488806815,0.0,0.0,0.0,0.0
0.029005620303849636,-0.13930152645333546,0.6785329728832233,-0.001743056616354511,-0.39019086824240395,-0.007427815422265137,0.9207023816912412,0.06211284110914181,-0.3382769961942262,-0.7852174999416224,0.08957045892686116,-0.6109864638104925,-0.6068212144242336,0.11938219744069606,-0.06183880518108011,1.1621792051349622,0.05818948045083149,0.06936635420277244,1.094202658628957,0.0,0.0,0.0,0.0
0.029579177559905658,-0.14238702972102632,0.6801797346612697,-0.0016190309084784347,-0.3902144199456358,-0.0073612035637220805,0.9206931616382854,0.07152584358591567,-0.3357168396177934,-0.7776261680791919,0.0887383143742351,-0.617853183643429,-0.610167752699786,0.12186955913933971,-0.06752782328230054,1.1719203570765415,0.06778198669645077,0.07617280011306005,1.089617320077031,0.0,0.0,0.0,0.0
0.030086678363370378,-0.14524841450252365,0.681722794280962,-0.0015103741755150021,-0.3902216608399557,-0.007298209072560416,0.9206907788858807,0.08015053561496478,-0.333672577109385,-0.7700267843645098,0.08730965550108746,-0.6248965197798347,-0.6134535382100585,0.12397605391573467,-0.07325678163519463,1.1818090094939535,0.07667409670202098,0.08259044158932533,1.084892265321804,0.0,0.0,0.0,0.0
0.030550606901744066,-0.14788015174058855,0.6831213112913791,-0.001417150675998812,-0.39021024578711083,-0.0072404815601534445,0.920696220907581,0.0880136835203022,-0.33204544487646787,-0.7627802339885226,0.08528871080290706,-0.6319061812272467,-0.6166404608224236,0.12564064514607906,-0.07885129609790935,1.1917485898605078,0.08485477814500217,0.08843748586663158,1.0804327517595231,0.0,0.0,0.0,0.0
0.030992331713352216,-0.15027173390441015,0.6843230615816681,-0.0013414382167957787,-0.3901755071993691,-0.007189416046628639,0.920711456658455,0.09513056835529314,-0.33075254381661395,-0.756285433755176,0.08264895202942017,-0.6384082415305296,-0.6195929098647336,0.1266456225373932,-0.08398730340100394,1.2014491546273476,0.09231010418475452,0.09347365509656415,1.0767244705602068,0.0,0.0,0.0,0.0
0.03148217359388302,-0.15238522145529648,0.6852766397600247,-0.0012887351348941079,-0.3901022294517967,-0.007148766280686586,0.9207428983593379,0.10145503873603498,-0.3293342163287215,-0.7517086183787695,0.0791395752177486,-0.643547689375159,-0.6220049369734754,0.12645334005743925,-0.0880081404710986,1.2103227563970467,0.09895146052637308,0.09756589345692221,1.074191207370026,0.0,0.0,0.0,0.0
0.031954674794996286,-0.1542257558849621,0.6859402442103867,-0.0012593330013007966,-0.3900119893281659,-0.007130604621345802,0.9207813077698811,0.10707232428461375,-0.32823501273127315,-0.7482556808721276,0.07473544729046089,-0.6461144858182963,-0.6233176984341448,0.12431687052472885,-0.09005761284573403,1.216931397835848,0.10478463714691388,0.10036621830732595,1.0732706507267344,0.0,0.0,0.0,0.0
0.032339828283074114,-0.1558012408002624,0.6863121195838632,-0.0012513858558500014,-0.3899417126009156,-0.007153939354768165,0.9208109013033094,0.11207264412170359,-0.32786460596110817,-0.7449352935100296,0.06936303187883605,-0.6448558372044179,-0.6228734678140067,0.11948986634791094,-0.08869154709458638,1.218829922512227,0.10979304823639463,0.10173386880801488,1.074098997347884,0.0,0.0,0.0,0.0
0.03262475176223307,-0.15711299379066637,0.6864026129788078,-0.0012655988540458626,-0.3898903549668025,-0.007216925154692806,0.9208321374467298,0.11645724945252518,-0.32827008009960507,-0.7416348485737255,0.0630522501257488,-0.639768977253333,-0.6206079600712904,0.11198513067044887,-0.08391000924002176,1.215921645786324,0.11398616376317941,0.10168776392271618,1.076608155290587,0.0,0.0,0.0,0.0
0.03280547220817069,-0.1581769424557388,0.6862315160647969,-0.0013021283445758451,-0.3898309810188493,-0.007298758465005134,0.9208565788571668,0.12020708480718925,-0.32947557179024256,-0.73840754983532,0.056056176222699074,-0.6320874695087623,-0.6170779556248494,0.10260754184803099,-0.07724129545234225,1.2104216050447372,0.11744997043594643,0.10029282883175793,1.0805916856314264,0.0,0.0,0.0,0.0
0.03287810661246607,-0.15901564075223903,0.6858528882491801,-0.0013567879652666202,-0.38975719314332835,-0.0073878914062624045,0.9208870227014934,0.12333863763306083,-0.3314326968301979,-0.735144969015728,0.04859596235176663,-0.6230063120822984,-0.6127557623785613,0.09216770904891092,-0.06963332659897785,1.2035954630953145,0.12025252049040751,0.09779976159574846,1.0856181903114324,0.0,0.0,0.0,0.0
0.03282935649727976,-0.15965064959766015,0.6853310663622615,-0.0014256417591103575,-0.3896730139548899,-0.007478803924774125,0.9209218084249833,0.12587528014872226,-0.33413005583740313,-0.731562777565077,0.040797640740015954,-0.6133634755756668,-0.6079079102208573,0.0811856955034926,-0.06164757828042591,1.1960657298662354,0.12244254132258817,0.09450072042976831,1.0911835245697814,0.0,0.0,0.0,0.0
0.032635483873793635,-0.16010063953340659,0.6847253293446282,-0.001506383056637012,-0.38958461800584243,-0.007568708420570696,0.9209583437247164,0.12783721771089399,-0.3376343252496087,-0.7272467408847707,0.032732174758099294,-0.6036442034687544,-0.6026406034666644,0.06991576482671599,-0.0536212030930555,1.1880927736749358,0.12405687595010774,0.09064252631889434,1.0968165156347323,0.0,0.0,0.0,0.0
0.032264745358445965,-0.16038174817936565,0.6840843734396351,-0.001598197744361838,-0.38949660139586667,-0.0076557178980388415,0.9209946977309397,0.12924080293503287,-0.34208994285256356,-0.7216978391340305,0.02445281785653397,-0.5940799547710183,-0.5969732486404222,0.058451853692016886,-0.04575643231303637,1.1797498493727467,0.1251270608789497,0.08640046394927325,1.1021193600904187,0.0,0.0,0.0,0.0
0.03168068275418638,-0.1605087895230788,0.6834465661806085,-0.0017012317665838985,-0.389410955012616,-0.007738123929779314,0.9210300404246791,0.13010197802157134,-0.3477035552900477,-0.7143618776596109,0.01600883042887673,-0.5847462691783312,-0.5908991463675548,0.046816595625446475,-0.038171155320742736,1.1710256778704262,0.12568451181556375,0.0818862778006651,1.1067664306815075,0.0,0.0,0.0,0.0
0.03084590009020508,-0.16049663206855658,0.6828424529127571,-0.0018161202316389245,-0.38932723457199836,-0.007814299058972475,0.9210645704064625,0.1304412880369489,-0.3547230389639292,-0.7046517334159056,0.0074374900367694795,-0.57562612440107,-0.5844254922820099,0.0350102714600714,-0.030928189906206736,1.1618852429917317,0.12576484951463726,0.07717010127219132,1.1104871131251792,0.0,0.0,0.0,0.0
0.029727141042876958,-0.1603611397305427,0.6822973604661063,-0.0019437069061041315,-0.3892430874578292,-0.007882913802228051,0.9210992891864299,0.13028862352748125,-0.3634091310963053,-0.6919810541276412,-0.001264843163699847,-0.5666310990351924,-0.5775954677654449,0.023020891130638613,-0.024047439443821574,1.1523141784514104,0.12541088982569717,0.0723061120021342,1.1130492918090633,0.0,0.0,0.0,0.0
0.028303048863593937,-0.16011892639458117,0.6818330199597343,-0.0020849619437645897,-0.38915479652411195,-0.007943285810490005,0.9211357671301788,0.1296854639178159,-0.37398947334763516,-0.6758358717792354,-0.010195802570487427,-0.5575815132007792,-0.5704972839303653,0.010798870166785764,-0.01749739994688369,1.1423680634346993,0.12467268700891497,0.06735889816751196,1.114252322271588,0.0,0.0,0.0,0.0
0.02657630063151386,-0.15978510144028185,0.6814675028255661,-0.002241092342278365,-0.3890577192345124,-0.007995567766390169,0.9211759546933722,0.12868147704660865,-0.38657743789373067,-0.6559220570790509,-0.019622641886923475,-0.5481523655689938,-0.5632675422561375,-0.0018027488263215648,-0.011159201567716957,1.1322450803256183,0.12360302752204706,0.06242993057125244,1.113936625017624,0.0,0.0,0.0,0.0
0.024591745904785762,-0.15936885453673916,0.6812115222896017,-0.0024137643635054433,-0.3889462819740756,-0.008040042383305752,0.9212221888331907,0.1273229804471166,-0.40103315877663753,-0.6324419091044542,-0.030049876437377956,-0.5378084891458643,-0.5561091904969201,-0.015112932730428064,-0.004762071389371515,1.1223947793817948,0.1222499806035604,0.05767573570939452,1.1120299533909048,0.0,0.0,0.0,0.0
0.022460817769707618,-0.15886965651553148,0.6810533172868812,-0.0026049193695930404,-0.3888102149648951,-0.008074393889059181,0.9212788043243773,0.12564058357581884,-0.41675660324031977,-0.6065651609232481,-0.042169534813857934,-0.5258065163315937,-0.5493900667791402,-0.029701836609399394,0.002169736075200287,1.1136611376167553,0.12065709797516563,0.05327072542921445,1.1086958965135951,0.0,0.0,0.0,0.0
0.02041405792553281,-0.1582670258416317,0.680913844276387,-0.0028195867648147287,-0.3885510965810262,-0.008087731535981394,0.921387369066214,0.12365531658394179,-0.43219482032788975,-0.5819756349957191,-0.05654268995413668,-0.5116717482540868,-0.5439769230119342,-0.04634247828790725,0.01004704606210193,1.10743972811357,0.1188408840814384,0.049188148125533744,1.1044579158822145,0.0,0.0,0.0,0.0
0.018840145038355394,-0.15755461430745094,0.6808918727597264,-0.003016822385907876,-0.3882211954804049,-0.008087358975754388,0.9215257982212187,0.12138528283149518,-0.4437631008475796,-0.5644092017382828,-0.07283603244500403,-0.49559123106110736,-0.5411975742484161,-0.06441868254792464,0.018109970794819595,1.10559382102157,0.11672318081146613,0.04665860166742073,1.0992155623221547,0.0,0.0,0.0,0.0
0.01795687843428999,-0.15691181581289634,0.6810210600356201,-0.0031094050103406723,-0.3878920491376853,-0.008053767697884625,0.9216643785251319,0.1192548780441365,-0.4495388539826993,-0.5564927793013102,-0.08701928747155839,-0.48022104165426166,-0.5442335449909015,-0.07998209629926965,0.022933414123322518,1.1096011081476866,0.11471326366309828,0.04609456185588406,1.093832081060651,0.0,0.0,0.0,0.0
0.017956066453379566,-0.1568440946950555,0.6809940145866631,-0.0031762295718225438,-0.38789850013695704,-0.008083668938271312,0.9216611738885948,0.11920924478662594,-0.44964523872005435,-0.5564736050170773,-0.0870459659075836,-0.4802158940894103,-0.544239130021634,-0.07998557986353133,0.02296147220699471,1.1096132946068529,0.11466510059442116,0.04608845178771885,1.093790556506822,0.0,0.0,0.0,0.0
0.017956066453379566,-0.1568440946950555,0.6809940145866631,-0.0031762295718225438,-0.38789850013695704,-0.008083668938271312,0.9216611738885948,0.11920924478662594,-0.44964523872005435,-0.5564736050170773,-0.0870459659075836,-0.4802158940894103,-0.544239130021634,-0.07998557986353133,0.02296147220699471,1.1096132946068529,0.11466510059442116,0.04608845178771885,1.093790556506822,0.0,0.0,0.0,0.0
0.01773779107645076,-0.15655985501490902,0.6806895375141373,-0.0033767956332219594,-0.3879456964281317,-0.008071161634753394,0.9216407056027902,0.118410474885157,-0.4515806337992731,-0.5547453024914266,-0.08788113323786205,-0.4837278670263373,-0.5380082945543052,-0.0802637524278626,0.020714506644197737,1.1128146239419723,0.11446483240666162,0.044557018991708074,1.0954822826283506,0.0,0.0,0.0,0.0
0.017907168375665854,-0.15618786341954494,0.680241878980956,-0.0034979082985011063,-0.38796696342906933,-0.00806024359299562,0.9216313972507577,0.11742865706068499,-0.45020831647857357,-0.5597295415663318,-0.0891584838519449,-0.4844603574894605,-0.537511575460023,-0.08117312472080836,0.01833621987343832,1.1179215870678958,0.11384097529409082,0.04295871626674651,1.0986729183122321,0.0,0.0,0.0,0.0
0.018592435470283518,-0.1557430161139963,0.6797412496030372,-0.0035517744694856857,-0.38804433707172376,-0.008070751179661191,0.9215985244888798,0.1163593086832067,-0.4443887329400207,-0.5726400287506285,-0.09073659294488388,-0.4810192706005363,-0.5445484584980155,-0.08271762470084361,0.016613399283036036,1.1246745941818355,0.11286734322295108,0.04205192635494637,1.103100700703312,0.0,0.0,0.0,0.0
0.019917546940201522,-0.15512434520366597,0.679443945541292,-0.0035507698948610195,-0.388319139363763,-0.008125330180112434,0.9214822933981989,0.11488346114235701,-0.43256961848927694,-0.5946494764890743,-0.092771220826709,-0.4722120593983815,-0.5593839625947976,-0.0852693651596586,0.017135061306299992,1.1319501735030777,0.11121692935993577,0.04359166714704324,1.1070112410341606,0.0,0.0,0.0,0.0
0.022156307536378626,-0.15409469877727436,0.6803168428751646,-0.003552746165167253,-0.3892622401006631,-0.008334159139115047,0.9210824220545866,0.11234166709236375,-0.4102985753827752,-0.6276282560480395,-0.0952367526233388,-0.4546218320483716,-0.5816650270521443,-0.08971777057857679,0.02556273578155229,1.1347204814181944,0.10803123306416607,0.05359958059693084,1.1036844825448824,0.0,0.0,0.0,0.0
0.024163606800567505,-0.1526582616020378,0.6802921635195741,-0.0039402142672183066,-0.38903748072829575,-0.00818442822716535,0.9211771428095161,0.09483277578229737,-0.4456777726237252,-0.5934586689189588,-0.1008134347923078,-0.44237102541429163,-0.6015968430214634,-0.0933220284694327,0.027328029394717394,1.1405089282677963,0.08765914230177294,0.044708819136906,1.1032015290751285,0.0,0.0,0.0,0.0
0.02666174142916215,-0.15135063325743586,0.6803977004783838,-0.004261074427838326,-0.38876947924295957,-0.008163843246127038,0.9212890354917566,0.07573427057503385,-0.47409936117019796,-0.5781213964613651,-0.10567280431842752,-0.42612184983117296,-0.6290479067322372,-0.09712165018300153,0.030899298226283543,1.1454328382939762,0.06508540080693104,0.034558481133150507,1.1064515919743143,0.0,0.0,0.0,0.0
0.029087556127614836,-0.1501959843888752,0.6807092536427051,-0.004543594161418287,-0.3886693706778893,-0.00819798265388772,0.9213296202387918,0.05894702679828443,-0.4955767944005777,-0.5732353099192024,-0.10976251938881773,-0.4104272671604078,-0.6541542471734967,-0.1007075062558368,0.035835021814372085,1.1486979065162615,0.04485115473322836,0.025458534479933174,1.1126925050849499,0.0,0.0,0.0,0.0
0.03125404206030198,-0.14922235926857075,0.6811935231140306,-0.004789174490358346,-0.3886822929327495,-0.008251721502636313,0.9213224452169197,0.045184658382066686,-0.5120102280283244,-0.5738104700586595,-0.1130740905880153,-0.3963421848551533,-0.675424572906058,-0.10382892025697094,0.04153300415561137,1.150036137048879,0.027542923032881753,0.017515790718286423,1.1206810891920147,0.0,0.0,0.0,0.0
0.033056793698627275,-0.14842524404127747,0.681785482534644,-0.005004159310693682,-0.3887562176619687,-0.008312918180207147,0.9212895619782536,0.033681237020010135,-0.5251912765722507,-0.577216186436884,-0.11565014469624318,-0.38447215953451297,-0.69229321398494,-0.10639673980021425,0.047354760774108946,1.149707109830543,0.012489443198374642,0.010233609165429688,1.1294535247763544,0.0,0.0,0.0,0.0
0.03446608198212129,-0.1478040539271323,0.6824391325853212,-0.005194617586565703,-0.3888573180253403,-0.00837961043167936,0.9212452356974672,0.023519060274303907,-0.536444860557738,-0.5820305734200957,-0.1175020097335599,-0.37491415372552517,-0.7049697016148305,-0.10835850115474449,0.05293093035444957,1.1479844308729554,-0.0010887824487562595,0.0031510335499283816,1.1384201355650911,0.0,0.0,0.0,0.0
0.03550262512509632,-0.14736520171290785,0.6831283874974806,-0.005364373830495796,-0.38896640166613333,-0.008453161133813052,0.9211975390409772,0.014067612339388571,-0.5466521304482641,-0.5874589920353458,-0.11861901944840061,-0.3674452437235206,-0.7140962268322267,-0.10967517577347403,0.05812653135369975,1.1450675699529271,-0.01375436315021458,-0.004025440342295854,1.147284722259897,0.0,0.0,0.0,0.0
0.03621418984555083,-0.14711704207416249,0.6838376657601071,-0.00551541409277511,-0.38907400338930853,-0.008534889538690417,0.9211504522902673,0.005007981254509922,-0.5563664892734302,-0.5930494880194951,-0.11899236088687588,-0.3617004566742082,-0.7204704549054746,-0.1103231287161748,0.06293954389127901,1.1411142759372488,-0.02583671989040735,-0.011445950525919308,1.1559355559963012,0.0,0.0,0.0,0.0
0.03665829529385271,-0.1470657907708352,0.6845542721488979,-0.0056487851776422186,-0.38917634146193375,-0.008625076134480571,0.9211055718721908,-0.0037695858768557744,-0.5659273791265628,-0.5985498744492154,-0.11862762532598066,-0.35728950673258325,-0.7248781633929955,-0.11029672675027397,0.06741787625901144,1.1362787479213712,-0.03750503058841562,-0.019170826004483693,1.1643608970022257,0.0,0.0,0.0,0.0
0.03689130277984132,-0.14721423973546063,0.685264139609825,-0.005765239799113153,-0.3892726665073299,-0.008723296702279244,0.9210632210738717,-0.012267704568691437,-0.5755411835394068,-0.6038301487720146,-0.11754417324050306,-0.35386124364523563,-0.7280096826604573,-0.10960644148797385,0.07160839139069279,1.130733164348638,-0.04884412150787426,-0.02720994231272241,1.1725948224854925,0.0,0.0,0.0,0.0
0.036962391256741216,-0.14756262533448852,0.6859493445853222,-0.005865540152902196,-0.3893630544848292,-0.008828570156251854,0.9210233784166147,-0.02045056414596342,-0.5853280723271308,-0.6088351959059696,-0.11576991332774489,-0.35113482728122314,-0.7304302112083721,-0.10827144650737214,0.07552671326690627,1.1246767090791858,-0.05990366214416524,-0.035541220082669675,1.180683470440548,0.0,0.0,0.0,0.0
0.03691068176159543,-0.148110583078121,0.6865861759542164,-0.005950412133031042,-0.38944705188538314,-0.008939593272081279,0.920986248564744,-0.028278774860356258,-0.5953314673688623,-0.6135481549429758,-0.1133333378108802,-0.3489131318494202,-0.7325773727618256,-0.1063113132009153,0.07913908226393529,1.1183431301273539,-0.0707170119964828,-0.044109936543445694,1.1886591154558452,0.0,0.0,0.0,0.0
0.03676395800276171,-0.14885941148306409,0.6871431584015033,-0.006020270736846768,-0.3895227987740391,-0.009054615505257916,0.920952636954554,-0.03572241785443828,-0.6054911053616663,-0.6179535355107068,-0.11025669834564907,-0.34708885218207025,-0.7347686793533935,-0.103737675759621,0.08234890907050789,1.1120097974247198,-0.08128670717197065,-0.052812858864479374,1.1965078127458717,0.0,0.0,0.0,0.0
0.03653785349157137,-0.14981418525332826,0.6875795516044524,-0.006074787816063745,-0.38958685772677876,-0.009170916601083651,0.9209240313556056,-0.04275912862698731,-0.6155789377179058,-0.6219926458162955,-0.10655108390824497,-0.34564847336643395,-0.7372055565436539,-0.10054670154003544,0.08498805929216476,1.106004499373513,-0.09153259403102651,-0.061466697919668835,1.2041138159542024,0.0,0.0,0.0,0.0
0.03623496894618397,-0.15098539244970602,0.6878460220749314,-0.0061124000009182,-0.3896353579350025,-0.009283902612435016,0.9209021313719358,-0.04935644640771796,-0.6251052046591046,-0.6255096117172768,-0.10221335236041823,-0.3446731580261282,-0.7399650865721653,-0.09671276502621994,0.08682063154388954,1.1006977240472702,-0.10120293555317475,-0.06975351722573907,1.2111592960093165,0.0,0.0,0.0,0.0
0.03584444535903246,-0.1523895353136721,0.6878903051404504,-0.006130036306536916,-0.38966732666142717,-0.009385851791563257,0.9208874540211545,-0.05543472375416769,-0.6332287970460393,-0.6281992603904267,-0.09722575232580154,-0.34432696167411503,-0.7429791526351315,-0.0921841526224591,0.0875750154148188,1.096460849728091,-0.10977510657753316,-0.0771254257700992,1.2169520065651442,0.0,0.0,0.0,0.0
0.035344418587396155,-0.15404723064454037,0.6876711212726644,-0.006123807582249421,-0.38969118446684003,-0.0094647092387103,0.9208765927140039,-0.06082374224325729,-0.6387652957538527,-0.6295946770321381,-0.09156128976643854,-0.34481122994316904,-0.7460170808331491,-0.08688458540680113,0.08702535503045096,1.0935723447457038,-0.11644436630842635,-0.08263988532671283,1.220150523696231,0.0,0.0,0.0,0.0
0.03471188984546816,-0.15597560640127175,0.6871799859447348,-0.006092255797414106,-0.3897317129243535,-0.009503956897385904,0.9208592461194277,-0.06529866294064851,-0.6405026258514942,-0.6292031455282743,-0.0852041479234924,-0.346262860886112,-0.7487208152792837,-0.0807287611624426,0.08512289381554959,1.092081461114961,-0.12042683642971143,-0.08477503720158025,1.2184753193985476,0.0,0.0,0.0,0.0
0.03393094675644944,-0.15818208344114082,0.6864190362763234,-0.00603565526692611,-0.38978956469870807,-0.009501025111803257,0.9208351625776001,-0.0688086144481341,-0.63844380708282,-0.6270146952284422,-0.07812211532745668,-0.3487923437535522,-0.7508789424352725,-0.07368065283345526,0.0818678017877623,1.0918817928933748,-0.1216741386591029,-0.08351918183269878,1.2119768508071511,0.0,0.0,0.0,0.0
0.03299345193885324,-0.1606654533571285,0.6853998602213381,-0.0059562275225862596,-0.3898426999497075,-0.009467827499429409,0.9208135277525318,-0.07151054193498962,-0.6338021934853867,-0.6235148440526863,-0.07025765278863876,-0.3524817694357361,-0.7524318618335528,-0.06575417041235869,0.07730816674085887,1.0927292777925328,-0.12088512400194604,-0.08037768927213579,1.2029917757816928,0.0,0.0,0.0,0.0
0.031890932393105025,-0.16342177622505522,0.6841645187439247,-0.00585851202937828,-0.3898861507863191,-0.009413054711509246,0.9207963193143354,-0.07354411989463475,-0.6277673601423222,-0.6191626954104131,-0.0615592149457357,-0.3573461478434488,-0.7532046800163676,-0.05696183754397378,0.07166345062423246,1.094179145293877,-0.11879582978813123,-0.07630175740667068,1.1928724766270746,0.0,0.0,0.0,0.0
0.030605465260460468,-0.16644986214064594,0.6827642789834668,-0.005745918439884361,-0.38992390953738393,-0.009342113227145833,0.9207817624783928,-0.07497301263561194,-0.6211937606503979,-0.6142500477182059,-0.05197611463799243,-0.3634288593731877,-0.7528760950048916,-0.047308341483529644,0.06519659847089794,1.0957155418589248,-0.11587418232344274,-0.07186519455177036,1.182293405101488,0.0,0.0,0.0,0.0
0.02910932029842429,-0.16975070437437942,0.6812471588936806,-0.0056201001918419185,-0.3899622921829916,-0.009258026374197712,0.9207671334799453,-0.07582027785008451,-0.6145919658136749,-0.608923802811376,-0.04146515566254628,-0.37083650185631395,-0.7510006482446886,-0.036798474771108904,0.05814487051412474,1.0968352506719665,-0.11233307583792007,-0.06741293256789671,1.171536450917337,0.0,0.0,0.0,0.0
0.02736835402897299,-0.17332436887118188,0.6796541275461561,-0.0054814043148060515,-0.3900067920849925,-0.009162632432360481,0.9207500760256393,-0.07610841030140236,-0.6082183983467886,-0.6032488785841995,-0.03000045030469021,-0.3797374875260291,-0.7470382143097254,-0.025450733272007232,0.050704136129552865,1.0970796156067217,-0.10823722245778275,-0.0631433510014046,1.1606684391708957,0.0,0.0,0.0,0.0
0.025346465481130412,-0.1771657338154062,0.6780204952876668,-0.005329559378863216,-0.3900608855627086,-0.009057725214781688,0.9207290909734503,-0.07588546893753584,-0.6021708890372063,-0.5972685265368909,-0.01758540488781134,-0.3903461195802089,-0.740376880776979,-0.013312914074910696,0.04304250316072626,1.096034185402315,-0.1036085959553569,-0.05915433628602164,1.149643949539164,0.0,0.0,0.0,0.0
0.023010563363887276,-0.1812594613924447,0.6763795402204197,-0.005164337392453431,-0.39012557096024586,-0.008946070808076693,0.9207037179893085,-0.07524000888224776,-0.596453371860156,-0.5910485920965922,-0.004267270704437304,-0.4029012948029477,-0.7303527316892691,-0.00047869554687970245,0.03532506986825449,1.0933179090810132,-0.09850808930061002,-0.05546889132125379,1.1383641643397624,0.0,0.0,0.0,0.0
0.020336600282614258,-0.18557426994001608,0.6747661804228378,-0.00498590735001047,-0.3901985142674806,-0.008832632898531818,0.9206748854983651,-0.07430401597372091,-0.5909979479935993,-0.5847037954868497,0.009847000583847907,-0.4176415243017906,-0.7162812900634073,0.012894096671338636,0.027737592134832165,1.088579527313875,-0.09309722464069276,-0.05204741456290949,1.1267153996789114,0.0,0.0,0.0,0.0
0.017317852636505697,-0.19005619524796974,0.6732183993249583,-0.004795862148797873,-0.39027424425216917,-0.008724205329895129,0.9206448295738209,-0.07324827537524975,-0.585637022207948,-0.5784062518080245,0.024566411573711457,-0.43477114867875616,-0.6975067474152106,0.026570397991896123,0.020496486671388335,1.081528774989241,-0.08767746103335707,-0.04877706090590577,1.1146062652075333,0.0,0.0,0.0,0.0
0.01397699369353572,-0.19462019095783842,0.6717720757874985,-0.004597083698022112,-0.3903414798681222,-0.008629474827796038,0.9206182314510365,-0.07224107507630027,-0.5800334624921137,-0.5723936572441711,0.03959087680501807,-0.45441918773868684,-0.6735167385867784,0.04022012182794192,0.013820031120943217,1.072033295883489,-0.08270242405863332,-0.045447303107031274,1.102007912794281,0.0,0.0,0.0,0.0
0.01038385337145359,-0.19913619172609645,0.6704387168583175,-0.004395338721387571,-0.3903735637881049,-0.008541493042590007,0.9206064330589386,-0.07147877219416604,-0.5735991308330023,-0.5670918599713269,0.05440228442610455,-0.4765844429373516,-0.6441517466160133,0.05343047249125667,0.007781429092406672,1.0603488995115113,-0.07869431727496372,-0.04169596290440627,1.0889950756318956,0.0,0.0,0.0,0.0
0.006657849743815042,-0.20343559357572494,0.669180250196687,-0.004187533365089366,-0.3903027876383931,-0.008507828163175028,0.9206377221176425,-0.07246631404100214,-0.56591936318323,-0.5630866094837772,0.06862247601346241,-0.5012008661570203,-0.6099724174331839,0.06557326828414814,0.0021849093249642895,1.0473670568585893,-0.07620357499891643,-0.03700853101655841,1.075785177742231,0.0,0.0,0.0,0.0
0.0033113919574484464,-0.2072823513808928,0.6679709173534221,-0.0039995964486060145,-0.3900778576788055,-0.008451067115971406,0.920734406678475,-0.07494422016701421,-0.5566972335427631,-0.5609833231777765,0.08119312707511134,-0.5250411101528094,-0.5769235794272172,0.0762268784708314,-0.0028259243322468703,1.0348623200623022,-0.0755748235625456,-0.03114553099114376,1.0630410146353988,0.0,0.0,0.0,0.0
0.0006013319643311562,-0.2103164179808913,0.6669311673933036,-0.003843434720655521,-0.3897224874014813,-0.008385511851284387,0.9208861460648338,-0.07939997535397615,-0.5465821503091515,-0.5621178725640873,0.09103675035140207,-0.5459467089470795,-0.5480895137862608,0.08443372839345305,-0.006984553900906914,1.0241364637336168,-0.07698636370640133,-0.02487468114742608,1.0507098403746131,0.0,0.0,0.0,0.0
-0.0010574258248189417,-0.21206113509823643,0.6661458570996033,-0.0037490741506163387,-0.38932468126535325,-0.008314837700265525,0.9210554274714755,-0.08500370750417902,-0.5378192333559094,-0.5679664496312886,0.09663284806480857,-0.5602746861125816,-0.5289481303848592,0.08905665964216278,-0.010311343998506192,1.01802445044976,-0.07946068661459291,-0.019506191166777778,1.0392843649743946,0.0,0.0,0.0,0.0
-0.0009951218448265764,-0.21219790832939117,0.6660495783970457,-0.003656074400998635,-0.38934884194464775,-0.008245939253999739,0.9210462077888142,-0.08501428639726749,-0.5378337401055766,-0.567996354509567,0.09677536055612913,-0.5604552280311343,-0.5288974975856497,0.08922866507457337,-0.010245172907526131,1.0179787181380744,-0.07949645575212758,-0.019473786574417038,1.0392839849989606,0.0,0.0,0.0,0.0
-0.0009951218448265764,-0.21219790832939117,0.6660495783970457,-0.003656074400998635,-0.38934884194464775,-0.008245939253999739,0.9210462077888142,-0.08501428639726749,-0.5378337401055766,-0.567996354509567,0.09677536055612913,-0.5604552280311343,-0.5288974975856497,0.08922866507457337,-0.010245172907526131,1.0179787181380744,-0.07949645575212758,-0.019473786574417038,1.0392839849989606,0.0,0.0,0.0,0.0
-0.0009951218448265764,-0.21219790832939117,0.6660495783970457,-0.003656074400998635,-0.38934884194464775,-0.008245939253999739,0.9210462077888142,-0.08501428639726749,-0.5378337401055766,-0.567996354509567,0.09677536055612913,-0.5604552280311343,-0.5288974975856497,0.08922866507457337,-0.010245172907526131,1.0179787181380744,-0.07949645575212758,-0.019473786574417038,1.0392839849989606,0.0,0.0,0.0,0.0
-0.0005691271919689325,-0.2124901144191405,0.6653144671672965,-0.0035757510047704413,-0.38952659543206725,-0.008134048977307344,0.920972357187277,-0.08473462468197157,-0.5368385152454358,-0.5717975141894961,0.09740735929741463,-0.5584391995086379,-0.5349486343134835,0.09021279157125874,-0.013024218650658274,1.024257549057873,-0.07894362256423994,-0.02315178463808999,1.048337556196612,0.0,0.0,0.0,0.0
0.0002915761515530958,-0.2130426639340931,0.6642361547000978,-0.003549168511508815,-0.38958206800519574,-0.008004277905985253,0.920950132866528,-0.08386421140113783,-0.5335886852677835,-0.5818415395952996,0.09907607014857715,-0.5528131802040674,-0.550232335687645,0.0922719192795714,-0.016814764570731538,1.0327691518374258,-0.0775486367586535,-0.028407272712169224,1.06151277657409,0.0,0.0,0.0,0.0
0.0016846746923862626,-0.2140017581255486,0.6631049713269368,-0.003548889161340208,-0.3896345952007741,-0.00786756713391836,0.9209290901018615,-0.08176814949597966,-0.5268823836694179,-0.5981835222377361,0.10224919526758375,-0.5422094118470868,-0.5756225241389175,0.0957263314429763,-0.01955813138505456,1.041065045495155,-0.07496810147481427,-0.033658011643587234,1.0774950579508245,0.0,0.0,0.0,0.0
0.0037841702673499147,-0.21574543196887597,0.6626453344096335,-0.0035220456598709536,-0.3899998818212611,-0.007792791868603226,0.9207751950224684,-0.07659987426713369,-0.5140356104382285,-0.6201058124135383,0.1082952090651028,-0.5233225104332375,-0.6130336591961154,0.1013950181423186,-0.016330045306653964,1.0432863187664734,-0.07032725810512908,-0.035216289635462326,1.0931819545513008,0.0,0.0,0.0,0.0
0.0070161258858781935,-0.21919443417091214,0.6648341378842909,-0.0034735388488348023,-0.39134457491322355,-0.008060925475487726,0.920202358013895,-0.06340424004802157,-0.48734011108767017,-0.6475062648229607,0.12098849482980538,-0.4870104011259959,-0.6686878593279728,0.1113820106554968,0.0058391659072465525,1.0232929877278916,-0.06124956679385454,-0.0232065796918495,1.0989621528380975,0.0,0.0,0.0,0.0
0.010242418210431389,-0.2223555070283403,0.666689654053,-0.0032814519795081203,-0.3907805935542182,-0.007892042698420755,0.9204441729058669,-0.0540127112477513,-0.46351828372297676,-0.6831985943484689,0.11117374735265843,-0.513863049960183,-0.6250320768306237,0.10560526135385176,-0.004177534210083014,1.0441917329590285,-0.05204227370805685,-0.013062023911541955,1.0987116172995346,0.0,0.0,0.0,0.0
0.014040011235360344,-0.2257942534712993,0.6685152629892565,-0.0032067181241631723,-0.3901800791750925,-0.0078087302036206245,0.920699867767123,-0.043226477011876076,-0.43738481004924495,-0.7228393621218084,0.09942295047625394,-0.533610129292407,-0.6015319449624874,0.09929101274767273,-0.011555771075835901,1.0621660156850365,-0.04181233647265707,-0.0023319686254169147,1.099823891944953,0.0,0.0,0.0,0.0
0.017623426987274687,-0.22955725263723595,0.6702289692531557,-0.0030905893802973356,-0.3898600867766617,-0.007789379407241206,0.9208359715846391,-0.030798059181866802,-0.41466477655516504,-0.7538930882612903,0.09131641242540806,-0.5484950106878953,-0.5903101223711268,0.09590897259008654,-0.017380277919027496,1.0775351265204727,-0.030729355091596005,0.007568118363374461,1.1030039253723307,0.0,0.0,0.0,0.0
0.020784060261689923,-0.23350331646767494,0.6719516284115279,-0.0029305613422791654,-0.3897473146105594,-0.007783017245810107,0.9208842854597032,-0.017521007815220885,-0.39547992958726363,-0.7763886837174767,0.0869860524615857,-0.5601170664030436,-0.5860944557838383,0.09562326303838949,-0.02252368090963572,1.091005818800629,-0.019048885860212292,0.017090347384936165,1.1062584900842642,0.0,0.0,0.0,0.0
0.023443085028767005,-0.2375221644128735,0.6737213301319137,-0.0027443843914801967,-0.389749589200255,-0.007766556677797652,0.9208840354083216,-0.003991897331890643,-0.3797133547367437,-0.7912525199705827,0.08536865538999669,-0.5695320945320864,-0.5857830181185365,0.09756942256501125,-0.027425733930400188,1.1031024024403226,-0.0070022027158094125,0.026325292236891153,1.108530829721343,0.0,0.0,0.0,0.0
0.025603252015705333,-0.24153284527975422,0.6755312252530573,-0.0025480772575151313,-0.38980676535979986,-0.007735398601115477,0.920860660789949,0.009396593841007933,-0.36710543023038433,-0.7996147594688698,0.08533333555518402,-0.5774912804832952,-0.5875578429970433,0.10077886135208317,-0.03227754743511313,1.11420700891212,0.005178727695531614,0.03521404696514816,1.1094772330013853,0.0,0.0,0.0,0.0
0.02731464268087306,-0.24547412352592604,0.6773600625573686,-0.0023535744183687496,-0.3898829219753336,-0.0076912183276381975,0.9208293072008893,0.02238099304348612,-0.3572844129741663,-0.8026738046546251,0.08601317337745637,-0.5845585388085457,-0.5903779095491919,0.10450621703828744,-0.03718142897306247,1.12461510172294,0.017280253574274096,0.04370109429998967,1.1090860190042413,0.0,0.0,0.0,0.0
0.02865085554391433,-0.2492985536702422,0.6791864924784011,-0.002168528215704926,-0.38995855804904633,-0.007637278239588902,0.9207981822694794,0.03478421341197915,-0.34980378339362933,-0.8016155109553542,0.08683725392099234,-0.5911526240327762,-0.5936644287683227,0.10827509099952583,-0.042202843690063524,1.1345681356309536,0.029116470453663258,0.05178454905901025,1.1074711480256048,0.0,0.0,0.0,0.0
0.02969253513858825,-0.25296956463534714,0.6809927281511563,-0.00199716939387245,-0.39002436507645416,-0.007576889576161209,0.9207711967179857,0.046491913246021234,-0.3441895143587912,-0.7975523567905384,0.08746063935650918,-0.5975739561187802,-0.5971101902502928,0.11182274778152759,-0.047383499268207674,1.1442678011054137,0.040535289813730266,0.05950623031014846,1.1047885978074174,0.0,0.0,0.0,0.0
0.03051649353269704,-0.25645985516801467,0.6827631930814964,-0.00184136602573679,-0.39007673012872335,-0.007513034184534549,0.9207498619606654,0.05743779166971548,-0.3399860947259639,-0.7914785712491812,0.08768465295903984,-0.6040295632870895,-0.6005666403294537,0.11502860121832596,-0.05274245474006495,1.1538807168276275,0.0514206598563276,0.06692007759777771,1.1012154270866106,0.0,0.0,0.0,0.0
0.031189174944245925,-0.25974999125380116,0.6844813625319699,-0.0017015501083261831,-0.3901146302173242,-0.007448295822905883,0.9207345996034708,0.06759211359058147,-0.3367940106507948,-0.7842420045315385,0.08739818704058155,-0.6106510822617098,-0.6039765586234329,0.11785614862817333,-0.05827218272058786,1.1635374317257798,0.06169083895411483,0.07405893415126213,1.0969555844477372,0.0,0.0,0.0,0.0
0.03176328523065896,-0.2628267928087264,0.6861260937036459,-0.0015774362394207584,-0.3901375395717914,-0.0073848827981417104,0.920725624395149,0.07695175898169435,-0.33429707743673537,-0.7765309051355095,0.08654288653158038,-0.6174953125334531,-0.6073296421834703,0.12030862750087398,-0.0639292515146983,1.1733243607152908,0.07129351832255017,0.08090593422616654,1.09225678768236,0.0,0.0,0.0,0.0
0.03227638508263841,-0.26568149694579873,0.6876679162109691,-0.0014686605944913215,-0.39014401643272006,-0.007324627771304785,0.9207235411923687,0.08553137561353416,-0.3322817473738844,-0.768870993495906,0.08509470539521351,-0.6245167806548472,-0.610624648333152,0.1223856046383218,-0.0696182703525626,1.1832613443303701,0.08019962168797046,0.08737078789812888,1.0874321640284264,0.0,0.0,0.0,0.0
0.03275028494136157,-0.26830795187130974,0.6890658174629406,-0.001375338034756938,-0.3901315980864372,-0.007269187713466523,0.9207293866982845,0.09335668661915204,-0.3306511964074604,-0.7616209429198113,0.08305545296749267,-0.6315052990627025,-0.6138236567606019,0.12402447409702815,-0.0751655331242486,1.1932511349931023,0.08839686362707454,0.09327164923651741,1.0828839858244712,0.0,0.0,0.0,0.0
0.033202069804267174,-0.2706964786924067,0.6902672247864156,-0.0012993067019347112,-0.39009648982379314,-0.007220170301772821,0.9207447581007795,0.10044646645505817,-0.3293500080998557,-0.7551238132667485,0.08040699269271429,-0.6379881051644612,-0.6167882544850941,0.12500854071224335,-0.08025398002123404,1.2029973444074724,0.0958730959618193,0.09835982409313954,1.0791004636437194,0.0,0.0,0.0,0.0
0.03369934948543946,-0.2728091172497293,0.691220478933318,-0.001246160281214302,-0.39002341884020275,-0.007181077302733796,0.9207760922013155,0.10675470145792929,-0.3279353908436783,-0.7505167213473992,0.07689910599365055,-0.6431112765753049,-0.6192115030777887,0.12479957257925961,-0.08423313540942771,1.2119051148452633,0.10254033698764763,0.10249835877350608,1.07650204816549,0.0,0.0,0.0,0.0
0.03417540170225846,-0.2746513425762757,0.6918832853582934,-0.0012164012411276307,-0.3899336722179244,-0.007163656966067446,0.9208142775052618,0.11236520137434826,-0.32686331896157356,-0.7469904092624651,0.07250786266122368,-0.6456675934333485,-0.620534885104648,0.1226536417961661,-0.08625481979899433,1.2185276162305074,0.10840656247607316,0.10533340690773539,1.0755318773850562,0.0,0.0,0.0,0.0
0.03456562748765479,-0.2762293549963231,0.6922534222187076,-0.0012082416684330672,-0.38986336472477817,-0.007186990578936635,0.9208438761071083,0.11736278686728667,-0.3265074656572695,-0.743628018261161,0.06715310970582472,-0.6444080589339857,-0.6200971861679346,0.11782219115573805,-0.08487131132186015,1.220417585060743,0.11345012459190314,0.10673147788572868,1.0763312612149787,0.0,0.0,0.0,0.0
0.03485694548406193,-0.2775451593265407,0.6923411245977533,-0.00122231105834238,-0.3898117329382768,-0.007249264323361669,0.9208652273737478,0.12175083652998392,-0.3269173136919138,-0.7403102285623844,0.060869538403365314,-0.6393301502807,-0.6178355101122166,0.11032030703618023,-0.08008480262185609,1.2174775536020752,0.11768259405315824,0.1067098030282605,1.0788363691397813,0.0,0.0,0.0,0.0
0.03504583715177621,-0.27861547724476254,0.6921668232647505,-0.0012586802677088615,-0.3897519536144561,-0.007329803124745054,0.9208898437727777,0.12551355554114454,-0.3281138765132593,-0.7370904700657075,0.05390983184239683,-0.6316634218627404,-0.6143127006095945,0.10095439996021874,-0.07341981755980344,1.2119323703325626,0.12119228478773397,0.1053363642114012,1.0828379198250775,0.0,0.0,0.0,0.0
0.03512913541216639,-0.27946378540117445,0.6917852858777729,-0.0013130601626629064,-0.3896777023413273,-0.0074172468683703545,0.9209204898469177,0.12867034681852646,-0.3300448366297908,-0.7338619265522809,0.04649584781789209,-0.6226002912492871,-0.6100044742914215,0.09053603314898284,-0.06581816373990325,1.2050548830324295,0.12404955342834033,0.10286547313423357,1.0879010276418357,0.0,0.0,0.0,0.0
0.03509427289694738,-0.2801126286445249,0.6912614052647743,-0.0013814132705571149,-0.3895930331828011,-0.007506227326349753,0.9209554911851745,0.13124712978264502,-0.33269553947602826,-0.7303418715923508,0.03875526781447282,-0.6129769634422527,-0.605179196063429,0.07958618394253059,-0.05783657105031051,1.1974717569645599,0.12630548696248994,0.09959169801291433,1.093519888148944,0.0,0.0,0.0,0.0
0.03491818753854381,-0.28058164220759857,0.6906548281408005,-0.0014613402071086928,-0.3895041089983632,-0.007594051542866971,0.9209922605208768,0.13326633908385105,-0.3361300663228911,-0.7261179083081806,0.03076093412256914,-0.6032773749976884,-0.5999437760818729,0.06836033615247496,-0.04980951802960315,1.189445505471522,0.1279992223194784,0.09576282138448468,1.0992238182746639,0.0,0.0,0.0,0.0
0.03456975554822855,-0.28088784697599206,0.6900144252745563,-0.0015519369019114508,-0.38941546756756323,-0.007678875645261071,0.9210288920440081,0.13474621888075472,-0.3404905669721,-0.7206937596747749,0.02256799170509422,-0.5937320997268496,-0.594317194390497,0.05695389461330737,-0.041938090051947666,1.1810504966556246,0.12916433841756592,0.0915537175832894,1.1046174894473657,0.0,0.0,0.0,0.0
0.03401307969013707,-0.28104680842310625,0.6893785140260569,-0.0016532522357343726,-0.3893289905673056,-0.0077589973571554425,0.9210646024144558,0.13570418643267573,-0.34598150478657885,-0.7135194011924234,0.014227719858162471,-0.584416351681079,-0.5882907995510314,0.045390823613099714,-0.034339742770024766,1.1722761119051928,0.12983383566466675,0.08707425312766622,1.1093797278401416,0.0,0.0,0.0,0.0
0.03321123522001964,-0.2810739598870316,0.6887772891199503,-0.0017658062629127664,-0.3892440632529945,-0.007832777969787806,0.9210996627617539,0.13616172632329418,-0.35284875332427984,-0.7040135543361735,0.005779514899738004,-0.5753137203994322,-0.5818675546928799,0.033671977685217985,-0.02707674662268359,1.163087627338568,0.13004421604119196,0.082390824447234,1.113246617860633,0.0,0.0,0.0,0.0
0.03213128358805728,-0.28098547093478,0.6882353062362139,-0.0018902959668133563,-0.3891580821948897,-0.007898890237149384,0.9211351808375222,0.13614902260269973,-0.3613514998227275,-0.6915974646908148,-0.0027789107729354213,-0.5663382227163674,-0.5750829825046009,0.021784385903984592,-0.02016739003549283,1.153470142503364,0.12983814838364874,0.0775513687437405,1.1159954438219994,0.0,0.0,0.0,0.0
0.03075194781635057,-0.2807978981739706,0.6877729646842573,-0.0020274908998145305,-0.38906697051698186,-0.007956724235459435,0.9211728786025075,0.1357071620309538,-0.37171654726076553,-0.6757666274944151,-0.011547432104975497,-0.5573162431601418,-0.5680125272215927,0.009675031926803851,-0.01357612705280472,1.1434767571540922,0.12926403810053125,0.07261104309779776,1.1174379918116575,0.0,0.0,0.0,0.0
0.02907565916720498,-0.28052576825049524,0.6874063758131862,-0.0021783033627568757,-0.38896558334277037,-0.008006677278216167,0.921214916883265,0.1348847878688779,-0.3840570041364931,-0.6562386002852065,-0.02080555682953976,-0.547935526296168,-0.5607722483188333,-0.002809753610747758,-0.007175615669686088,1.1332992789164085,0.12837076061309194,0.06765856878754983,1.1174294120136796,0.0,0.0,0.0,0.0
0.027146609478406802,-0.2801768463880489,0.6871439633537443,-0.002343908816213668,-0.38884758624484617,-0.008049667832731151,0.9212639489368945,0.13372672574775787,-0.39823202425379417,-0.6332306292069728,-0.03109163388660379,-0.5376844871308437,-0.5535327031543854,-0.016010004882210868,-0.0006799249511658502,1.123374403026409,0.12719854346246628,0.06283640849032898,1.115909467301599,0.0,0.0,0.0,0.0
0.025074969493938004,-0.27974739980671276,0.6869730521044297,-0.002525320641181965,-0.38869958972276264,-0.00808699966239786,0.9213255950756365,0.13227012986619813,-0.41363358401273337,-0.6079388366314795,-0.04315986263594641,-0.5258592388209047,-0.5466261115898927,-0.030522011527757194,0.006407424336733514,1.1145229062702446,0.1257687847201743,0.05830985184125594,1.1130218510167453,0.0,0.0,0.0,0.0
0.023053930238073436,-0.27921754540618593,0.6868251257972882,-0.002727909410005202,-0.38843326346994866,-0.008094951853598814,0.9214372632441257,0.13047712791546384,-0.4289836506250949,-0.5834913003500436,-0.05736429929796963,-0.512087150265336,-0.5408221419045676,-0.047070174296558014,0.014499023530936427,1.1080278312109044,0.12412421918518557,0.05406086817628947,1.10919672626392,0.0,0.0,0.0,0.0
0.021501858629622242,-0.27856858304433363,0.6867814087866085,-0.0029076658827475567,-0.3880851056348701,-0.008093779552423797,0.9215834129345226,0.128400776558348,-0.44050391675832473,-0.5660919480113975,-0.07365012648154201,-0.4966021796889589,-0.5373389111962352,-0.06512978788524715,0.022922588344933263,1.1057110132638808,0.12211830192140757,0.051287521297892505,1.104391394450696,0.0,0.0,0.0,0.0
0.02063015716092363,-0.2779701130742918,0.6868837335635154,-0.002973120184074911,-0.3877299637153529,-0.008061594183536441,0.9217329583414505,0.12641783244477411,-0.44629783800662204,-0.5582837306531098,-0.08793459810512327,-0.48214274274105173,-0.5391279525237457,-0.0807227422347114,0.0282635568085361,1.1089027459148555,0.12012847359556761,0.05045962529269977,1.0993602889345548,0.0,0.0,0.0,0.0
0.02062955453767319,-0.2779065849142878,0.6868583421226867,-0.00303614976032977,-0.3877350256170128,-0.008089439291209905,0.9217303795993496,0.12637530438583258,-0.4464015172369283,-0.5582654576047181,-0.08796072156299448,-0.4821369127579705,-0.539132687401068,-0.08072653084934912,0.02829159947133841,1.1089148573837113,0.12008353511224934,0.05045283873533446,1.0993194916629434,0.0,0.0,0.0,0.0
0.02062955453767319,-0.2779065849142878,0.6868583421226867,-0.00303614976032977,-0.3877350256170128,-0.008089439291209905,0.9217303795993496,0.12637530438583258,-0.4464015172369283,-0.5582654576047181,-0.08796072156299448,-0.4821369127579705,-0.539132687401068,-0.08072653084934912,0.02829159947133841,1.1089148573837113,0.12008353511224934,0.05045283873533446,1.0993194916629434,0.0,0.0,0.0,0.0
0.020440535577259215,-0.2776789032343605,0.6865821927082885,-0.0032453330321457453,-0.38778163582492786,-0.008085943637018684,0.9217100890442463,0.1257932782524099,-0.4481444034551467,-0.5566740299334503,-0.08857709559334234,-0.4851964493562983,-0.5337206002049976,-0.08082219886770016,0.026290065248033637,1.1117957879978135,0.12006706410523144,0.049065357191907535,1.1009534383697825,0.0,0.0,0.0,0.0
0.020638113560180093,-0.27735546466756156,0.6861698952614201,-0.003372446222449491,-0.3878124397487101,-0.008079108784339576,0.9216967322193784,0.12498594088419591,-0.4465708558550545,-0.561746012133421,-0.08967765358496511,-0.4854531317452897,-0.5339796077119293,-0.08157540961346157,0.02420084569269041,1.1165662029401353,0.11961084982728057,0.04768097532665581,1.104031134602745,0.0,0.0,0.0,0.0
0.02133841189663315,-0.27692193741032206,0.6856902979913736,-0.0034344854331360307,-0.38790354829956075,-0.008087073895049923,0.921658093200638,0.12395922005697033,-0.44061852866152007,-0.5747320597764578,-0.09121958341662803,-0.48176923779439446,-0.5412987291636726,-0.08306369930564068,0.022649592585800567,1.123172636726276,0.1187172347241518,0.04695416270551674,1.1083519650304665,0.0,0.0,0.0,0.0
0.022660341454998064,-0.27627104031317273,0.6853880050281,-0.00344475125755883,-0.38819094934033316,-0.008135039734097689,0.9215366198190656,0.12238316883558922,-0.4287891472207177,-0.596790384557244,-0.09337029605406595,-0.473050091511542,-0.5558342957971814,-0.08568392476503892,0.023154492352967466,1.1305651406831938,0.1170342343227383,0.04857036626721765,1.1122095103376621,0.0,0.0,0.0,0.0
0.02487986636249239,-0.2751783078195038,0.6862241986697737,-0.003457558468997248,-0.3891341151166452,-0.008343167088740154,0.9211368396197974,0.11965758686658805,-0.4066592996949091,-0.6297811581448416,-0.09603042230497646,-0.45582977306553196,-0.5774634782568192,-0.09032362788780997,0.0313739061551364,1.1336609681119025,0.11369923155158186,0.05848915847604058,1.1089053222496614,0.0,0.0,0.0,0.0
0.026847873532775436,-0.27366972319588656,0.6861745165582633,-0.003864149708222358,-0.38891974344045627,-0.00818560085504314,0.9212271692953287,0.10171567383508331,-0.442754646686058,-0.5947910311697551,-0.1018383524636712,-0.4440735802211446,-0.5963676603322553,-0.09409851549640835,0.03293349547883513,1.1397445768277596,0.09256645024252452,0.04965514606605726,1.1076650224303912,0.0,0.0,0.0,0.0
0.029300966753393155,-0.2722878074680111,0.6862483568945248,-0.0042084663146665984,-0.3886722870115252,-0.008153877920032993,0.9213303730993427,0.08207173507698566,-0.4717409762705199,-0.5788712553253476,-0.10694440744474122,-0.42831222459675333,-0.6227532841921483,-0.09806333693750043,0.036273059582948936,1.1450279690674197,0.06935296123958516,0.0394146714362828,1.1104878648679861,0.0,0.0,0.0,0.0
0.031679567989052235,-0.27106407558998735,0.686542102100349,-0.00450944362331668,-0.388594715912621,-0.00818082909142229,0.9213614305571807,0.06485967941415431,-0.4935896392203209,-0.5736492856928306,-0.11124634255338403,-0.41303816489365514,-0.6468799272774912,-0.10182142381625348,0.04105329401547066,1.1485300530224962,0.04863602026406098,0.03017161334742647,1.1164850501847252,0.0,0.0,0.0,0.0
0.033806060196628025,-0.2700338439306105,0.6870144400614471,-0.0047667179074722624,-0.3886203731478259,-0.00823016086946456,0.92134887443731,0.05084362262341363,-0.5102730916565359,-0.5740566217262768,-0.11472714174606205,-0.3992654681091375,-0.66743733541515,-0.10509826688499982,0.046635402755049016,1.1500076720268164,0.03101297055312357,0.022114733928722274,1.1243555301651815,0.0,0.0,0.0,0.0
0.0355804550479993,-0.26919510600378665,0.6875966735756126,-0.004987926070086626,-0.3886987134862435,-0.008288877788424343,0.9213141295088593,0.03922880736503139,-0.5236189802867743,-0.5774019946853064,-0.11742666392717366,-0.38759993591657604,-0.6838655826393224,-0.1077910360516766,0.05236966258309677,1.1497615567924497,0.015768219039666343,0.014779907345004508,1.1330984880469237,0.0,0.0,0.0,0.0
0.03697401133773509,-0.26854678895034745,0.6882411254992196,-0.005180831592005134,-0.3887985047826949,-0.008354153829721319,0.9212703673604972,0.029050306256573035,-0.5349799622914492,-0.5822235898030693,-0.11936080275455721,-0.37815065712054124,-0.6963382744462253,-0.10984206000748191,0.05788083024484006,1.1480922841069197,0.0020763450597927648,0.0076994659476716356,1.1420975418787855,0.0,0.0,0.0,0.0
0.038006271681806265,-0.2680929599464118,0.6889208111445743,-0.005350726415809634,-0.3889029394480263,-0.008426714558625639,0.9212246544124052,0.019636159947176615,-0.5452584075981148,-0.5877009143450703,-0.12052756862477955,-0.37071217952329333,-0.7054478809166143,-0.11121426974540326,0.06302785897661496,1.145218649789091,-0.010659381096667357,0.0005600284766176609,1.151037153733385,0.0,0.0,0.0,0.0
0.03872261424654288,-0.2678387799040585,0.6896196695661312,-0.005500685649023934,-0.3890044218307684,-0.008507524666099619,0.9211801801371737,0.010638526337902283,-0.5550230020604809,-0.5933649667677302,-0.12092802163276843,-0.36493966853184573,-0.7119388666940618,-0.11189047438767244,0.06780202395676473,1.1413123122112239,-0.02279021429660716,-0.006807708627996646,1.1597915130319978,0.0,0.0,0.0,0.0
0.03917766620006586,-0.2677871688101197,0.690324843978789,-0.005632502577247728,-0.3891004139105242,-0.00859667546596924,0.9211380135355988,0.0019298083646130566,-0.5646237590344236,-0.5989520850886538,-0.1205772209491422,-0.3604635907760603,-0.7165459374960135,-0.1118730683966776,0.07224460486818257,1.1365361211504443,-0.034497863979958875,-0.014477724882011659,1.168338600798258,0.0,0.0,0.0,0.0
0.03942489082943305,-0.26793797915075257,0.6910223930600851,-0.005747411311271005,-0.38919080817997087,-0.008693602341536873,0.9210982050627216,-0.00650301705495112,-0.5742742391504858,-0.6043243675067476,-0.11950280982486154,-0.35695228465081635,-0.7199140990695991,-0.11118006740432466,0.07639680687786643,1.1310656645155248,-0.045873623269591456,-0.022467794143996002,1.1767048538248976,0.0,0.0,0.0,0.0
0.03951088555576611,-0.2682890849035961,0.6916948385623797,-0.005846456497941835,-0.389276055774911,-0.008797357240082033,0.921060572303655,-0.014629513521108013,-0.5840982941585342,-0.609420722635684,-0.11773862453340149,-0.3541415153419876,-0.7225705461823712,-0.10983718170647755,0.08027095790715948,1.1250993233623903,-0.05697057025204849,-0.0307590507214271,1.184930584310771,0.0,0.0,0.0,0.0
0.03947266778389225,-0.2688384040003474,0.692319188271169,-0.005930525208110403,-0.3893558973720507,-0.008906728132098998,0.9210252354014747,-0.02241303912015192,-0.5941406359171862,-0.6142195096488892,-0.11531708943702237,-0.3518468365727654,-0.7249233476808107,-0.10786882794410085,0.08383252824157654,1.1188664375745003,-0.06782371368612561,-0.0392972194406396,1.1930432591121363,0.0,0.0,0.0,0.0
0.03933645135793473,-0.26958614805790987,0.6928649189496972,-0.0060001275614332186,-0.38942859296572774,-0.009020055339336324,0.9209929467979955,-0.029825126037852187,-0.6043404482868937,-0.6187011941154592,-0.11226272419352812,-0.34996916240217896,-0.7272690716735309,-0.10528960132107743,0.08698668534877291,1.11263712344116,-0.07843620861817524,-0.04797831274050933,1.2010244264955459,0.0,0.0,0.0,0.0
0.03911681910104301,-0.27053689459293156,0.6932924354426474,-0.006054993913399274,-0.38949084530077016,-0.009134701875139277,0.9209651327261269,-0.03684416686416085,-0.614467374138539,-0.6228034989755086,-0.10858739805126846,-0.3484986911188087,-0.7297963277025779,-0.1020968308978178,0.08956942946893531,1.1067298280422204,-0.08872781145302328,-0.056618181132463405,1.2087533326978923,0.0,0.0,0.0,0.0
0.03881578425433323,-0.27170116932757926,0.6935536295539447,-0.006093579097329831,-0.3895389353587993,-0.009246145994458976,0.9209434265564671,-0.04343819412612244,-0.6240278092824825,-0.6263675845760616,-0.10428749667470937,-0.34751636082237614,-0.7325768240347242,-0.09826445273669811,0.09135061989940418,1.1015046048901422,-0.09844591789742574,-0.06489873771138036,1.215905571217612,0.0,0.0,0.0,0.0
0.038422294568224095,-0.2730959482381721,0.6935972884951852,-0.006112741375361767,-0.3895719348378081,-0.009346763175818465,0.920928325114251,-0.049528266434539954,-0.6321760067860758,-0.6290866708055027,-0.09934379168565727,-0.34718340943327464,-0.7355437509354329,-0.09373927002750118,0.09206439041362761,1.0973232126133035,-0.10706607819935131,-0.07227321290163426,1.221779373143589,0.0,0.0,0.0,0.0
0.03791463786350013,-0.2747425694495273,0.6933826251856304,-0.006108353439244317,-0.3895979576343035,-0.009424701379861134,0.9209165512842851,-0.05494576885293233,-0.6377240991732197,-0.6304945956806453,-0.09372713257501196,-0.34769778426925846,-0.7384737997990206,-0.08844352602228531,0.0914881770073132,1.09445808293147,-0.1137808806742431,-0.0778016370119638,1.2250196257264723,0.0,0.0,0.0,0.0
0.037270361383069,-0.2766588804351543,0.6929008721334128,-0.006078536367967417,-0.38964097840041784,-0.009463812547164583,0.9208981461588792,-0.05946805682066018,-0.6394605945203979,-0.6301012276204964,-0.08741919628394276,-0.34919353095963995,-0.7410220168421217,-0.08229154123613805,0.08957282146362582,1.0929576637183889,-0.11780408994321376,-0.07996481196823137,1.223330708993699,0.0,0.0,0.0,0.0
0.0364746554117471,-0.27885287446308177,0.6921537676112341,-0.006023478921655875,-0.3897015637636267,-0.00946155375555636,0.9208728945421268,-0.06304135647662258,-0.6373886926117922,-0.6278982258447127,-0.08038690234856694,-0.35177416659635696,-0.7429922355706826,-0.07524630105985929,0.08631851534426249,1.092719528016516,-0.11908616079950127,-0.0787496791990493,1.2167658321495993,0.0,0.0,0.0,0.0
0.03552098446724439,-0.28132377334883574,0.6911524280448846,-0.005945601874678922,-0.38975823411712385,-0.009429517781806417,0.9208497450456571,-0.0658149003664828,-0.6327214444982755,-0.6243719151539414,-0.07257362714417182,-0.35551089854818546,-0.7443422298993608,-0.06732007152122224,0.08177385522117091,1.0935074794181563,-0.1183263409522649,-0.0756567769853951,1.2076827109865387,0.0,0.0,0.0,0.0
0.03440270415742863,-0.28406805188400097,0.6899378210593048,-0.005849495046451354,-0.3898060683464356,-0.00937619905098281,0.9208306572760009,-0.06792240110185752,-0.6266516358143916,-0.6199838749387966,-0.06392837704544826,-0.3604093801033006,-0.744918103658956,-0.058524323052365296,0.07615551307479192,1.0948880827700378,-0.11626150339996952,-0.07163298110768236,1.197451482445169,0.0,0.0,0.0,0.0
0.03310378958668371,-0.28708513925236956,0.6885597813590034,-0.005738454066654877,-0.38984875229695803,-0.009306853855032611,0.9208139893315865,-0.06942366329958959,-0.6200374042722221,-0.6150303091097636,-0.05440003440701799,-0.3665051399142569,-0.7444214416165648,-0.04886228704127679,0.06972173343726486,1.0963579548430127,-0.11335958206862332,-0.06724917596177314,1.1867591812900906,0.0,0.0,0.0,0.0
0.03159840654161626,-0.2903769961948919,0.6870649228717589,-0.005613928706262789,-0.38989216069742555,-0.009224336826437779,0.9207972080981166,-0.07033896431033894,-0.6133915994939101,-0.6096634836478505,-0.04394348578653122,-0.3738975076853791,-0.7424304972937444,-0.03833607418891496,0.06270526366419973,1.097424590314468,-0.10983258200100883,-0.06284809867719383,1.175896395844145,0.0,0.0,0.0,0.0
0.029854225719972146,-0.29394502392686744,0.6854930324571774,-0.005475997646997874,-0.3899412741954834,-0.009130274398855574,0.9207781786173989,-0.07068853272893069,-0.6069712185821194,-0.6039542087682948,-0.03252926416621227,-0.3827478908793993,-0.738429033456361,-0.026960175169925576,0.05529864238006557,1.0976365193630195,-0.10574385477217899,-0.05862564620723601,1.1649362668803562,0.0,0.0,0.0,0.0
0.027836748775039187,-0.2977857293083036,0.68387852093078,-0.00532404037908046,-0.38999893182978906,-0.009026221651433979,0.9207556761097727,-0.07051837079399562,-0.6008735160905352,-0.5979525807490069,-0.0201555522303214,-0.3932642396355257,-0.7318284325490994,-0.014777545999766193,0.04766790249160162,1.096582094357337,-0.10111399512054017,-0.05467580515264892,1.1538385139855671,0.0,0.0,0.0,0.0
0.025514063186540908,-0.3018855454931816,0.6822540920306761,-0.005157351959883595,-0.39006524987520846,-0.008914735710358024,0.9207296183178684,-0.06991456721778326,-0.5951015417012471,-0.5917334137455204,-0.006862874709542631,-0.4056806955712702,-0.7219860937023647,-0.0018771813687185647,0.03997712806870704,1.0938778605128492,-0.09600285792756043,-0.0510154451479643,1.1425091173419404,0.0,0.0,0.0,0.0
0.022862553092344577,-0.306214830689733,0.68065453326714,-0.004975739512421714,-0.3901371372004153,-0.008800244697025162,0.9207012609346429,-0.06900776948917617,-0.589586059579582,-0.5854237017436001,0.007247790651263098,-0.4202333954122566,-0.7082308559961535,0.01158788046423434,0.03241213073714593,1.0891650391430008,-0.09057007801660041,-0.04759481892642135,1.1308399817357453,0.0,0.0,0.0,0.0
0.019874648447982923,-0.310720877052161,0.6791184664188845,-0.004779981665370893,-0.39020746156974406,-0.008689757546924547,0.9206735451963151,-0.06795893323278811,-0.5841586872930897,-0.5792137146260296,0.02199386212015573,-0.4371300509956317,-0.6899132324806843,0.02538228893078287,0.02519168955666414,1.0821348673971138,-0.08511611072370048,-0.04429501750685598,1.118745425808303,0.0,0.0,0.0,0.0
0.016570155769890724,-0.3153189882365896,0.6776838561272185,-0.004572392639395741,-0.39026364822742665,-0.008592219450041055,0.9206516995382634,-0.06691709233673342,-0.5784762927470968,-0.5733645892296911,0.03708119684240918,-0.45651051128058745,-0.6665023833219419,0.0391720882834313,0.018541743332976382,1.0726238664019903,-0.08009033914349117,-0.040908310206306864,1.1062034718790221,0.0,0.0,0.0,0.0
0.013013064639732992,-0.3198781278468711,0.6763668382258544,-0.004358482992556363,-0.390278980582029,-0.008502448899221138,0.9206470709802818,-0.06602966130034124,-0.5719281843248887,-0.568325568661101,0.05199853441117866,-0.478397416820655,-0.6377771691826025,0.05253304993122266,0.012555240139981586,1.060839311537363,-0.076007229172732,-0.03710197977552079,1.0932964924987438,0.0,0.0,0.0,0.0
0.009314343633757672,-0.3242245808571933,0.6751352756921658,-0.004136783452573998,-0.3901932497645825,-0.008465559319615932,0.9206847718770126,-0.06665882514622155,-0.5640089483394843,-0.5647169227011698,0.06633698620551148,-0.5027646125161761,-0.6041353475637072,0.06482542341817543,0.007059753384826254,1.0476434050218972,-0.0734020852063634,-0.032420149195122976,1.0802459036536538,0.0,0.0,0.0,0.0
0.0059840782606253844,-0.3281212915809748,0.6739448745948784,-0.003937104669134797,-0.3899546517729797,-0.008411052248596873,0.9207872300197857,-0.06873555490900884,-0.5543840946852995,-0.5631337150887477,0.07906417702828487,-0.526436135117154,-0.5715097763286605,0.07562238786543192,0.0021188221765913832,1.034948337972846,-0.07255394721138037,-0.026644802617357022,1.0678507623645388,0.0,0.0,0.0,0.0
0.0032775169015762436,-0.33120152204233055,0.6729138022919068,-0.0037752146880419553,-0.3895955969519931,-0.008355315372424737,0.9209403929108043,-0.072772669874967,-0.5436173397899128,-0.5650010116604622,0.0890891289031675,-0.5472942513778146,-0.5428539569553072,0.08395473953080615,-0.0020110507419420637,1.0241222237466614,-0.07363744935842792,-0.020648256503979927,1.0562015449739728,0.0,0.0,0.0,0.0
0.0016141447942887347,-0.33297700950945813,0.6721214849437204,-0.003684430064083747,-0.3892098511007369,-0.008304491354091628,0.9211043112506829,-0.07801902052522751,-0.5339525613201893,-0.5719811067287935,0.09486399210105294,-0.5617015156643842,-0.5236074992336085,0.08865928667688922,-0.0053769824693895366,1.0181131431243258,-0.07575761445914875,-0.015870494430950545,1.0459830861878157,0.0,0.0,0.0,0.0
0.0016758372900805773,-0.33311527883075803,0.6720240858030855,-0.003589774776039409,-0.38923446080204666,-0.00823507702748543,0.9210949090878467,-0.07802908397250054,-0.5339668802708614,-0.5720112977861951,0.09500867415692003,-0.5618825719559896,-0.5235583236990412,0.08883153296019461,-0.005311769355947484,1.0180664008627605,-0.07579310151716709,-0.01583812980323678,1.0459829108600252,0.0,0.0,0.0,0.0
