zhuoxili-jackie/tripod-support-walk/examples/trajectory_trot_sideways_p3_left_v0.10.csv
root_pos_x,root_pos_y,root_pos_z,root_rot_x,root_rot_y,root_rot_z,root_rot_w,FL_hip_joint,FL_thigh_joint,FL_calf_joint,FR_hip_joint,FR_thigh_joint,FR_calf_joint,RL_hip_joint,RL_thigh_joint,RL_calf_joint,RR_hip_joint,RR_thigh_joint,RR_calf_joint,FL_foot_joint,FR_foot_joint,RL_foot_joint,RR_foot_joint
0.0,0.0,0.664888,0.0038739181747107386,-0.3883128170371229,0.008248016113749812,0.9214825658214358,4.59e-06,-0.523609,-0.523606,1.78e-06,-0.523593,-0.523596,2.47e-06,-1.36e-05,1.04719,-8.76624e-06,-1.88e-06,1.04721,0.0,0.0,0.0,0.0
0.000420647239645394,0.00023481084599987162,0.6643502396079423,0.003771917651478651,-0.38859338185690634,0.008195263061504065,0.9213651794362514,-0.00047565313473498313,-0.5206400655931034,-0.5300899996905752,-0.00047844968708298067,-0.5218160107161985,-0.5271987329394963,-0.00046176882080878584,-0.0024477547638822035,1.0546545967381324,-0.00047305197271256826,-0.0018145738572393952,1.0529642938983101,0.0,0.0,0.0,0.0
0.0013000460171852446,0.0007261658112201527,0.6635180640555639,0.003738919262930389,-0.38874272886204064,0.008105698787508523,0.9213031036997571,-0.0016371561441524125,-0.5136596296937185,-0.5461110104503903,-0.0016385836251897887,-0.5171470157163325,-0.5379325696005024,-0.0019531771662845455,-0.006086119765632492,1.0657644211794948,-0.001963104143760887,-0.004353915789826692,1.0606465022747698,0.0,0.0,0.0,0.0
0.0027252436695329374,0.0015424125076816445,0.6626317309925278,0.00374956801841418,-0.38886323640904374,0.007988877055816274,0.9212532235778317,-0.003747398646651142,-0.5016353505285481,-0.5721882374499874,-0.0037428968096399843,-0.5086223113187114,-0.55584879466541,-0.004598065284071822,-0.009493977554188342,1.079176260996511,-0.004600481631683874,-0.00602193478579457,1.0685288910461845,0.0,0.0,0.0,0.0
0.004847848657812783,0.002935469622026168,0.662280904267006,0.0037540858030508995,-0.3892407018060021,0.007906475895484493,0.9210944959863067,-0.007901152785252406,-0.4820753454035674,-0.6094779840049424,-0.007874577190282953,-0.4943615035126159,-0.5797498005238934,-0.008912756467726764,-0.009448038621021792,1.0920395191524996,-0.00888992433065227,-0.002913026247163354,1.0723074121272245,0.0,0.0,0.0,0.0
0.008035863908135748,0.005525842053253692,0.664027189538452,0.003726066612820083,-0.39055615127215526,0.007993634815091482,0.9205368601710207,-0.016716204134486087,-0.44792346029647573,-0.6618448050515844,-0.016601322673467866,-0.46885240999122746,-0.608078993357018,-0.016474487082386465,0.0024652290051843523,1.0965344747363939,-0.01637352271070456,0.015010245538176443,1.0604281049308286,0.0,0.0,0.0,0.0
0.011100669711492494,0.00825971908268706,0.6650154312222971,0.0034175608933946704,-0.39013575229739084,0.008024920523688951,0.9207160342404586,-0.018449426301149843,-0.48083047761130243,-0.6181260854145982,-0.025461317428840762,-0.44777878913529545,-0.6404388920868049,-0.023928236089804773,0.009139132459038773,1.1000124616256064,-0.02036714499933706,0.007651827487360329,1.070254605285574,0.0,0.0,0.0,0.0
0.014716996603910657,0.01109028565980047,0.6661068547896252,0.003252460532085056,-0.38961063190856576,0.007955131223645343,0.9209395707056516,-0.018920614612420898,-0.5054352144751648,-0.5955330486927042,-0.03439462978579026,-0.42369659028747947,-0.6785300397595492,-0.03238268659133928,0.01737296755160469,1.1031587145543473,-0.024596625390704542,0.0007664684336723118,1.0809587178862827,0.0,0.0,0.0,0.0
0.018131590978337758,0.01406327101730428,0.6672839677706369,0.0030671557583005896,-0.38936082299514985,0.007920107688329474,0.9210461519198151,-0.020473854829688044,-0.5235563303600206,-0.5852726023872759,-0.044028596315473144,-0.40245252326181635,-0.7088713204250691,-0.04127507735897571,0.026028412162800663,1.1062841390974814,-0.029595487392576926,-0.0051266175465306575,1.0920052783573,0.0,0.0,0.0,0.0
0.021129823138145248,0.01710646469376865,0.668568636272995,0.002859381885871353,-0.3893086849324656,0.007907889652881021,0.9210689643303713,-0.023059319605418738,-0.5372815962731717,-0.5819357136680005,-0.05398095983875672,-0.38456090277282895,-0.7310668907723095,-0.050391823659867926,0.0348600475753926,1.1084003578923187,-0.03543663083647255,-0.010495059012439894,1.1029306123946327,0.0,0.0,0.0,0.0
0.02362782451193409,0.0201572909992669,0.6699338939536846,0.002643137315322725,-0.3893632262483979,0.007898401910162773,0.9210466367767903,-0.026402601380633384,-0.5481771667863827,-0.5824414696919077,-0.06389533663843143,-0.3700977466963399,-0.7458623887916856,-0.05958455822374263,0.04352090555907907,1.1091811051808445,-0.04190346927357177,-0.01572530175407583,1.1134914143255523,0.0,0.0,0.0,0.0
0.02562704646455393,0.023157850626436466,0.6713456349779408,0.002430223236279912,-0.3894645903170926,0.007880765514523514,0.92100451705682,-0.030186784500068592,-0.5573347080224281,-0.5850136582461157,-0.07349841119287095,-0.35883484708774027,-0.7543826069050702,-0.06868513276858942,0.051776972555392785,1.1086223362630232,-0.048683124270574786,-0.02101888223656999,1.1236202399575528,0.0,0.0,0.0,0.0
0.027178479160578566,0.02605612598457429,0.6727761423551523,0.002228712199297572,-0.38957810733508863,0.007850680652267282,0.9209572725921865,-0.034114901218406074,-0.5654957679716407,-0.5886285798581443,-0.08258918568144404,-0.3503523852546692,-0.7578850128403843,-0.0775220071110907,0.05953761002871216,1.1068296621311753,-0.05549413164509773,-0.02647277846858062,1.1333592653234934,0.0,0.0,0.0,0.0
0.02835677944183543,0.02880859175082948,0.67420529915694,0.002043375928613895,-0.3896857667851096,0.007807743620009478,0.920912518602869,-0.03794108665088204,-0.5731548438295431,-0.5927047767719104,-0.09103021746709872,-0.3441372241698778,-0.7576190945553511,-0.08594177001768437,0.06681560895239137,1.1039420591312765,-0.06213216583323097,-0.03213289910245625,1.1428055442790073,0.0,0.0,0.0,0.0
0.02924266876156511,0.03138171870693028,0.6756178963518383,0.001876459302877682,-0.38977966231294947,0.007753678868900572,0.9208735929603398,-0.04147913379230273,-0.5806375708391335,-0.5969235764462338,-0.09873873667395788,-0.33965987198031355,-0.7547383311725903,-0.09382247390968228,0.07367423606883544,1.1001144311205524,-0.06847172740398613,-0.03801911397043315,1.1520746037294245,0.0,0.0,0.0,0.0
0.029911882823683487,0.033751831237232535,0.6770003057607491,0.0017284541546267363,-0.38985745124945337,0.007691200756709969,0.9208414769016626,-0.04459817188642484,-0.5881554462212578,-0.6011228096768512,-0.10567580016199445,-0.3364292783326374,-0.7502489904887966,-0.10107759639843723,0.08018250916888729,1.0955198792962517,-0.07445154272814251,-0.044132963599731026,1.1612784957621762,0.0,0.0,0.0,0.0
0.030429016517926684,0.0359035966174049,0.678337297617696,0.0015988030018034623,-0.3899192359358185,0.007623263708188496,0.9208161158052266,-0.04721309065756222,-0.5958367391127233,-0.6052309062850881,-0.111834136288769,-0.3340286591409335,-0.7449868956182187,-0.10765293777291865,0.08638218640708129,1.0903582519822579,-0.08005595717862943,-0.050454921702495416,1.1705114458200303,0.0,0.0,0.0,0.0
0.03084469840284375,0.037827648267091264,0.6796089172746285,0.0014865507107639907,-0.3899653541204322,0.0075525754120803435,0.9207973562936391,-0.04927379125455064,-0.603730595529129,-0.6092207075367875,-0.11722614152315927,-0.3321372219879212,-0.7396143507660599,-0.11351947568847229,0.09226338210402117,1.0848685555036544,-0.085292442444366,-0.056933948936505,1.179834895257771,0.0,0.0,0.0,0.0
0.031194649749000474,0.03951782417290759,0.6807873914858401,0.00139097362202416,-0.389994892856365,0.007481367470638672,0.9207855764938461,-0.05075438759636393,-0.6117794940615906,-0.6130684118165853,-0.12187332552265291,-0.3305428801966605,-0.7346278942016173,-0.11866458666484941,0.0977454944186817,1.0793446349883526,-0.09015730525849501,-0.06346936990809256,1.1892511031725355,0.0,0.0,0.0,0.0
0.03149940630332507,0.04096842687353188,0.681834642002131,0.001312185690208985,-0.3900051971627304,0.007411535911283962,0.9207818924643392,-0.051641026598816316,-0.6197567222788076,-0.6167073388639487,-0.12579802614042537,-0.3291498915566152,-0.7303652165241556,-0.12308300569730754,0.10266381356240856,1.0741499893251147,-0.09457857178589386,-0.06988218529544014,1.1986495935969075,0.0,0.0,0.0,0.0
0.03176399609276138,0.04217198061965823,0.6827018486987998,0.0012515696994867174,-0.3899938465664426,0.007345440321580077,0.9207873140525338,-0.05191642807477332,-0.6271754787582677,-0.619968995114473,-0.12901808312307245,-0.32798188003729606,-0.7269956134145867,-0.12676820210212464,0.10676878511430404,1.0697246875174182,-0.09833206991957136,-0.07586614593228413,1.207706952304237,0.0,0.0,0.0,0.0
0.032009588067050516,0.043104109093503595,0.6833378832938218,0.0012135380741880623,-0.38995356116621177,0.0072870157901648025,0.9208048907667714,-0.05143098999492337,-0.6331941470543454,-0.6225342718990584,-0.1315123158079366,-0.3269253427822611,-0.7249956839290203,-0.12966798470547825,0.10983578876876601,1.066488925692252,-0.10090932985680953,-0.08084386769474249,1.2157508824507817,0.0,0.0,0.0,0.0
0.032183379818585385,0.04376277951201629,0.6836999319715666,0.001199389125518158,-0.3899019554321897,0.007247577972541445,0.9208270734667896,-0.05013928229665924,-0.6366370940797197,-0.623901019069541,-0.133321124804785,-0.32638379847945553,-0.7236980106005404,-0.1317660242382996,0.11154365015896583,1.0648517499310273,-0.10158898079603228,-0.08394524611719043,1.2213424163753102,0.0,0.0,0.0,0.0
0.03226234127694614,0.04413748994010259,0.6837806842159744,0.0012081866472550924,-0.3898677616760649,0.007246487948442686,0.9208415483149821,-0.0479215219865351,-0.6363031520389533,-0.6235345825389981,-0.13447420161315152,-0.3264727926414865,-0.7227396885677633,-0.13299257425537453,0.11182534730172879,1.0649506172747836,-0.09963844270839284,-0.08365228849748044,1.2220997500584427,0.0,0.0,0.0,0.0
0.03223163153798242,0.044230520847340776,0.6835853309081055,0.001239958208128284,-0.3898521628101306,0.007283340975849725,0.9208478194577728,-0.0448098845003234,-0.6321974253383584,-0.6213938707500851,-0.13497254742670792,-0.3272825804274643,-0.721932346920414,-0.13335260065664806,0.11067672340140478,1.0667421662331202,-0.09506490201597671,-0.0799713381224182,1.2179720079406695,0.0,0.0,0.0,0.0
0.03208596398325403,0.04405727332188854,0.6831320841522491,0.0012949971136671718,-0.3898290010531813,0.007338682644075996,0.92085710979359,-0.04097813684524869,-0.625513901433658,-0.6179584829851177,-0.13479385704727168,-0.3288646655216864,-0.7212772901859636,-0.13292276180394788,0.10816075012035299,1.0699987375169504,-0.08861018211250407,-0.0744325428351,1.2112477582643768,0.0,0.0,0.0,0.0
0.03182059944285277,0.0436392733918708,0.6824714680165812,0.0013691411538778165,-0.3897918257120894,0.00740229568586318,0.9208722300510076,-0.036607717783347905,-0.6174219980647321,-0.6136828566257511,-0.13394607938847858,-0.33120520710856666,-0.7206167203076337,-0.13176212068855453,0.10451882250495455,1.074281312796172,-0.08103801192298385,-0.06797515153018438,1.2032498269540202,0.0,0.0,0.0,0.0
0.03142154721285756,0.04299640957760402,0.6816626419495182,0.0014583878695291579,-0.3897443528777214,0.007469525298718253,0.9208916432982547,-0.03181336888749679,-0.6087597008547405,-0.608855083552235,-0.13244191834987282,-0.3343282754946341,-0.7196249603814375,-0.12991183942215093,0.10002713457599036,1.0790932263870117,-0.07284761546426546,-0.061153542410011676,1.1946370063519303,0.0,0.0,0.0,0.0
0.030864305577953832,0.04214533865579023,0.6807593356601698,0.0015603391654111344,-0.3896925432688039,0.007538127690966174,0.92091284261503,-0.02666436860815901,-0.6000245502538302,-0.603617601415236,-0.13029210084415258,-0.3383324652946253,-0.7178527146047474,-0.12740359077508082,0.0949159288670028,1.0839759155039237,-0.06428806782878933,-0.054301696066893855,1.1856892779365733,0.0,0.0,0.0,0.0
0.030116280644447158,0.0411006773371036,0.6798051077342466,0.0016740711213463946,-0.3896409832695657,0.007606597938910624,0.9209338962761673,-0.021214449677619165,-0.5914592956131387,-0.5980273119721463,-0.12750789868507933,-0.3433896288611497,-0.7147674734755326,-0.12426855848979337,0.0893469860999965,1.088543678611563,-0.055455738400941035,-0.04762057381469957,1.1764875309087757,0.0,0.0,0.0,0.0
0.029140267435429256,0.039877339726042654,0.6788339940455879,0.0017995533243105489,-0.3895918560709504,0.007673510316883808,0.9209538883844519,-0.015516511040407148,-0.5831415039494532,-0.5921129299313773,-0.12410785300552887,-0.349729701263338,-0.7097784716491101,-0.12054599569583077,0.08342335805811954,1.092481213746133,-0.04638247872605113,-0.0412251587108842,1.1670198022505582,0.0,0.0,0.0,0.0
0.02789853665078023,0.03849322190930474,0.6778733783798063,0.0019370910908790683,-0.38954510769132333,0.00773739325308743,0.9209728494898793,-0.009620619787570246,-0.5750425967337115,-0.5859178791485963,-0.1201263156752681,-0.3576200554327295,-0.7022546857923759,-0.11629143606211989,0.07721271623890777,1.095526882630331,-0.03709043363550651,-0.03517029572484162,1.1572442761754398,0.0,0.0,0.0,0.0
0.02635823222422296,0.03697167849263294,0.6769471779769325,0.00208693023330123,-0.3894990578002663,0.00779684178388998,0.92099149722085,-0.003556225273897857,-0.5670470516386497,-0.5795293303734581,-0.11562214880700113,-0.3673374647083746,-0.6915531069029258,-0.1115840347958504,0.07077495852783461,1.0974568332432608,-0.027613780241315146,-0.029461162311340237,1.1471340587063703,0.0,0.0,0.0,0.0
0.02449932055428327,0.03534324727438432,0.6760782787770461,0.0022490478677495425,-0.38945118406277573,0.00785069439988339,0.9210109030913968,0.0027014889798115567,-0.5589326029068675,-0.5730989852946821,-0.11068569985744031,-0.37912435646463394,-0.6770799398509083,-0.10653177959268313,0.06419045637497768,1.0980795788299746,-0.017990437924572146,-0.024047148342672034,1.1367239753324971,0.0,0.0,0.0,0.0
0.022326569887316298,0.0336461959763442,0.6752891126530565,0.002423160496425592,-0.3893990012410968,0.007898024334658246,0.9210321206870333,0.009275693894013967,-0.5503190468850175,-0.5668672380602504,-0.1054418155125492,-0.39311648704383917,-0.6584152237044287,-0.10127381469690841,0.05758524566323594,1.0972526402190976,-0.008223511834492554,-0.018795552181491315,1.1261748099800322,0.0,0.0,0.0,0.0
0.01988693345690224,0.03192644415035812,0.6745971917383071,0.002608975284953328,-0.38934080262889925,0.007937357678827247,0.9210558783316707,0.016412614694520933,-0.5406091086849449,-0.561219074062278,-0.10004853523889493,-0.4092288039034488,-0.63554081426268,-0.0959832393584384,0.0511369175539627,1.0949538376096455,0.0017823785371619272,-0.013446423812960243,1.1158609610286836,0.0,0.0,0.0,0.0
0.0172925860984239,0.030241182486021066,0.6739944175806296,0.002806531375981098,-0.38927679770853674,0.007964029193016793,0.9210821203271917,0.02439123316749091,-0.5289910927646224,-0.556832032248388,-0.09470167935624121,-0.42700649940107854,-0.6091979174187131,-0.0908876787292645,0.04499808130641471,1.091521955106255,0.01226688799419142,-0.007582395788809321,1.1064847636949062,0.0,0.0,0.0,0.0
0.014921153187086901,0.028601276251072994,0.673406272558375,0.0030209463602501206,-0.389102396916718,0.007970771320898686,0.9211550713106362,0.033603420540618704,-0.5148904326203831,-0.554916384975705,-0.08952949607739191,-0.443876365679646,-0.584897558254199,-0.08609875133239615,0.03936031167953221,1.0877450624112233,0.023853815085138175,-0.0006583621234900689,1.0994973575482208,0.0,0.0,0.0,0.0
0.013065339914549506,0.027135734152618114,0.6729716200054315,0.003219971428836618,-0.38890092573178536,0.00796786621223097,0.9212394991841056,0.043690963184380344,-0.49811130732470393,-0.557598907177099,-0.08492664932493392,-0.45717798313663555,-0.5662131592443587,-0.0819253422863103,0.03533649075002217,1.083617688959189,0.03592089375438561,0.006462849714940701,1.0962885638137063,0.0,0.0,0.0,0.0
0.01200862176259395,0.026104205401165977,0.6727989859817753,0.0033451570851786043,-0.38874709098835897,0.007937682921246251,0.9213042398480568,0.05224400715728256,-0.4803068217935638,-0.5687027185206089,-0.08158546673164097,-0.46445993895894344,-0.5563710503603467,-0.0790458107189623,0.033691690306854094,1.0798230619668963,0.04595296570391992,0.010882906645043228,1.0983188371137056,0.0,0.0,0.0,0.0
0.01200724889097663,0.026001158048815653,0.6727566758217141,0.0034406477941940745,-0.3887648088032061,0.007983615530019942,0.9212960150038813,0.05226490268728508,-0.4803037285181231,-0.5687123202669977,-0.08150436748728312,-0.46457991849189234,-0.5563519443015681,-0.07896217342697477,0.033676863058413394,1.0797800011010896,0.045949185703293406,0.010912531001905333,1.0983305979882751,0.0,0.0,0.0,0.0
0.01200724889097663,0.026001158048815653,0.6727566758217141,0.0034406477941940745,-0.3887648088032061,0.007983615530019942,0.9212960150038813,0.05226490268728508,-0.4803037285181231,-0.5687123202669977,-0.08150436748728312,-0.46457991849189234,-0.5563519443015681,-0.07896217342697477,0.033676863058413394,1.0797800011010896,0.045949185703293406,0.010912531001905333,1.0983305979882751,0.0,0.0,0.0,0.0
0.011719414510537556,0.025473655005647716,0.6723389898612682,0.0036036761245587345,-0.38869783882144676,0.007992907072634803,0.9213235680532947,0.053861753134122545,-0.48511001789793334,-0.5609376495461834,-0.08003578211404583,-0.4668505176782724,-0.555300915680379,-0.07783431279362868,0.031581310112026986,1.081071475794867,0.04710028396131162,0.00762924558784191,1.102653483777619,0.0,0.0,0.0,0.0
0.011812471704214681,0.024755460258989195,0.6717400799650854,0.003707830123834506,-0.3886233971248267,0.00799578925993632,0.9213545324993212,0.056215079336924635,-0.48770413422361847,-0.5577382294527683,-0.07798495422944987,-0.46572257506700643,-0.5614592324839603,-0.07601227429766894,0.0292975261993023,1.0839907316218624,0.049088686255972507,0.003856776490390335,1.109604160588392,0.0,0.0,0.0,0.0
0.01245952856631607,0.023970387892842948,0.6711992616469782,0.003754900849987512,-0.3886359685228297,0.008023893853378098,0.921348794874861,0.058785736203007095,-0.48565939615851,-0.562340507653543,-0.07581197447596848,-0.45961303549175636,-0.5759594365214343,-0.07381978876901613,0.0283073001841311,1.0874335188492357,0.05162162598305334,0.0013451741562401308,1.1175119776508131,0.0,0.0,0.0,0.0
0.013807484017065563,0.023014206843817317,0.671046926411717,0.0037568919416552083,-0.38889042013210257,0.00808877344909536,0.9212408472470729,0.06180835814958172,-0.4772916017921733,-0.5754859747240852,-0.07315454278627558,-0.4466450295770881,-0.6002051831301264,-0.07093026604934266,0.030800455182150528,1.0891132561503192,0.055049045334465994,0.002070057580038839,1.124796662050987,0.0,0.0,0.0,0.0
0.016156785447384588,0.02154005922389968,0.672360888012182,0.0037538714767876226,-0.3899240543924068,0.008254670872118647,0.9208023678639821,0.06588193846531688,-0.4587722835939719,-0.5964093949583085,-0.06890294463075156,-0.4217209140646854,-0.6366070898105899,-0.06619914112096309,0.04361125163826153,1.0813926797893432,0.06054832748772192,0.01217232358537131,1.1262256905854966,0.0,0.0,0.0,0.0
0.01835387849289738,0.019794062936938243,0.6728676800763171,0.004108793061310489,-0.3895960750041297,0.008166395084578212,0.9209404574413476,0.07214379837179646,-0.4444745816224775,-0.6184369794911889,-0.055228994887421536,-0.45611338590808226,-0.5997126011657409,-0.0510630463633351,0.033671875921243974,1.0856928597681075,0.06514867205635437,0.016303844776394995,1.1288937441396998,0.0,0.0,0.0,0.0
0.02108380617854586,0.018143669087425436,0.6735160827119305,0.0043826739774822055,-0.3892568102967541,0.00819015482434715,0.921082433428386,0.07782831024973583,-0.4261395701255005,-0.6477362725177056,-0.04091764517800829,-0.4832394553170538,-0.5821565211903181,-0.03411074329509377,0.023652138154432744,1.092062923143608,0.07004269845902837,0.022336265996302555,1.1308803700949692,0.0,0.0,0.0,0.0
0.023747353242164444,0.016586235927588476,0.6742663210811776,0.004626649694386262,-0.38909116279266576,0.008244778980682956,0.9211507394388914,0.08307415974436956,-0.40878230434384166,-0.6740430161002957,-0.028230757611512034,-0.5036069093623822,-0.5755920060513434,-0.018508885108243667,0.015157642873379383,1.100125636023995,0.07486436740369198,0.029182859824423042,1.1321564157969934,0.0,0.0,0.0,0.0
0.02613626882528594,0.015147345098240832,0.6751031761906332,0.004849582072599555,-0.38906283386166335,0.00830554385863191,0.9211610124199054,0.08782441926211315,-0.39349592676161926,-0.6956441441372554,-0.01753209696538142,-0.5191098131403497,-0.5749060584441628,-0.0046385834426692606,0.00788420842314146,1.1091008373367082,0.07939578597369767,0.036350552176429504,1.1323271767765655,0.0,0.0,0.0,0.0
0.028142106683295767,0.013833830268387571,0.6759860207323698,0.0050547352800199875,-0.38911264216933705,0.008367772356254159,0.921138307606974,0.09204574527777157,-0.3807770370743598,-0.7121736027083552,-0.008240743220325497,-0.5314943394065643,-0.5773648587398058,0.007894286224137627,0.001198748674789544,1.11836136749935,0.08354184834135397,0.043338693727314644,1.1313873330916504,0.0,0.0,0.0,0.0
0.029736647127340567,0.012658063286619798,0.6768878582881291,0.005243682226570419,-0.3892001240340218,0.008433255625240383,0.921099694630374,0.09568447744496883,-0.3706278772792239,-0.7240283331631528,0.0002494731379493794,-0.5420339546371471,-0.5814570456788013,0.01953178909766564,-0.005358885163847597,1.1275454925950996,0.08722623218776442,0.0498830462153202,1.129407791219858,0.0,0.0,0.0,0.0
0.030943440516930692,0.011637908005332886,0.6777956480931063,0.005416618312566086,-0.3893013658349435,0.00850473807669546,0.9210552514563664,0.09868083206905778,-0.3627611887274048,-0.7319835372985012,0.008305412141807774,-0.551573526127585,-0.5863194646771841,0.03057364318082529,-0.012046687212437488,1.1364992193010965,0.09037860695254543,0.05591754071325896,1.1264513843064163,0.0,0.0,0.0,0.0
0.0318133202033603,0.010791294669522507,0.6787026807558537,0.005573137926337607,-0.38940375239883374,0.008583823693095747,0.9210103016373745,0.10098917459717363,-0.35676578093370015,-0.7369344242598562,0.01607363468327468,-0.5606447116016671,-0.5914525464606628,0.041180087905539606,-0.01898450143799695,1.1451945407523532,0.0929422220229753,0.061484417556333076,1.1225859772804239,0.0,0.0,0.0,0.0
0.032406904179645715,0.010132376465322649,0.6796025444483152,0.005712888538259657,-0.38950158516326744,0.008670732229416164,0.9209672613412798,0.10258683972647079,-0.35221261694050565,-0.7397466717073389,0.023569048420870917,-0.5695743396927411,-0.596573155040764,0.051424587757256335,-0.026215753869828263,1.1536671190652616,0.09488008145535673,0.06666166675395557,1.1179064140933501,0.0,0.0,0.0,0.0
0.032783584100585905,0.009670437648682252,0.6804857368565108,0.005835895380314641,-0.3895928953886508,0.00876472485301889,0.9209269774450354,0.10347241382302332,-0.34871460801136067,-0.7411819688306245,0.03075036762451943,-0.5785629006145016,-0.6015331113435589,0.0613426348938263,-0.033744366792923364,1.1619770953292459,0.09617467160024637,0.0715172956597019,1.1125453505159983,0.0,0.0,0.0,0.0
0.032995390463000526,0.009410811939411531,0.6813376697321171,0.0059425761465976045,-0.3896771595053387,0.008864567334375132,0.9208896875275382,0.10365864534806923,-0.34595709087861287,-0.7418699146086737,0.03756513982939936,-0.5877291260536609,-0.6062688624865396,0.07096121746497014,-0.04154808402779717,1.1701847609129425,0.09682264748301175,0.07608229088959734,1.1066774474002379,0.0,0.0,0.0,0.0
0.033084021947606825,0.009356822165063075,0.6821368717910765,0.006033522595869134,-0.3897536222969732,0.008968781660486029,0.9208557278243971,0.10316417131521559,-0.3437122997070298,-0.7423054934712833,0.043970571302810554,-0.5971201099878901,-0.6107638793848551,0.0803054953070602,-0.049574044290648815,1.1783303228357727,0.09682721827462515,0.08033277452020164,1.1005244459357384,0.0,0.0,0.0,0.0
0.03307955720186195,0.00951202827577235,0.6828530004175956,0.006109118586706714,-0.3898201655119711,0.009075597329114168,0.9208260154684124,0.102006273260139,-0.34184663030711165,-0.7428565633775984,0.04993936363267072,-0.6066846037845283,-0.6150112792918503,0.08937875640014209,-0.05772036191433809,1.1864054811718663,0.09619020398268356,0.08417604634886719,1.0943638160076326,0.0,0.0,0.0,0.0
0.03299970122276071,0.009882393766936932,0.683445325096305,0.006169042383111617,-0.38987298134200943,0.009182532286472879,0.9208021950649208,0.10019534830662921,-0.340325067905162,-0.7437687343833367,0.055454325020932685,-0.6162067733420279,-0.6189667667795329,0.09810832657974045,-0.06580326093484479,1.1943010604506505,0.09490451630716303,0.08744146575848448,1.0885358244334986,0.0,0.0,0.0,0.0
0.03284893913604963,0.01047814469137479,0.6838635687869645,0.006211739764853763,-0.3899076968667408,0.00928550545763205,0.920786175831047,0.09773107870478756,-0.33921160779955545,-0.7451581298269636,0.06048782334306091,-0.6252059874437319,-0.6224865647212102,0.10625386206909926,-0.07350286658817384,1.2017092967942036,0.09294694922031872,0.08988496410812075,1.0834345637153655,0.0,0.0,0.0,0.0
0.03261800438262814,0.011314900843726808,0.684054214841671,0.006234123495007696,-0.38992300063847474,0.009377441759554102,0.9207786122968882,0.09460068672616591,-0.3386559891291637,-0.7469899486148239,0.06495895320935863,-0.6328361294581712,-0.6252574499014663,0.11330133583242433,-0.08027023565135458,1.2079526298306298,0.09027155241230216,0.09122474246912482,1.079460517876641,0.0,0.0,0.0,0.0
0.032286017659328696,0.012412645684647875,0.6839756364666253,0.006232233020977062,-0.3899278654939656,0.00944669860649547,0.9207758570185961,0.0907821904988911,-0.3388460230447925,-0.749057144758433,0.06868087055313475,-0.637884333744162,-0.62675574930709,0.11844145906836154,-0.08516647778891925,1.2117066721964158,0.08680708549431691,0.0912299206832961,1.076915636588949,0.0,0.0,0.0,0.0
0.03182991011063062,0.013788640124564938,0.68362057204814,0.006204438898523974,-0.3899494209752865,0.009476675052853602,0.920766608130929,0.08626282823605319,-0.33990720604162833,-0.7510067408725098,0.07139678027483647,-0.6391041207949263,-0.626359054587163,0.12087317600767868,-0.08668151716464897,1.2106990612806778,0.08246990345429361,0.08985635791602238,1.0758611035151568,0.0,0.0,0.0,0.0
0.03123245095122343,0.015448783478757978,0.6829910705928772,0.006150942607923658,-0.38998862396481787,0.009465525412108254,0.920750478094763,0.08101492181559145,-0.3419559072020576,-0.7526180809091179,0.07307593084103448,-0.6365009778019453,-0.6240469988325116,0.1205607113504006,-0.08481194148222851,1.2049542699808555,0.07723053550955553,0.08709788943918925,1.0762076419163025,0.0,0.0,0.0,0.0
0.030483178294670895,0.01738832334280351,0.6820976261321418,0.006074082724970096,-0.3900214709138281,0.009426517628342592,0.9207374753482486,0.074989920134584,-0.3450944597104586,-0.7538111280244828,0.07393824035086305,-0.6313254498841283,-0.6204171388011904,0.11824207118562244,-0.08106643507118357,1.1967634100791422,0.07111414085996155,0.08298610072522149,1.0777304544393633,0.0,0.0,0.0,0.0
0.029570709388357045,0.019600084420983026,0.6809831574082923,0.005978497691230821,-0.3900425329025019,0.009368930195006597,0.920729766673891,0.06814591688539888,-0.34935652471955647,-0.7543768469766069,0.07415742414886016,-0.6247965578199856,-0.6159707563144994,0.11467584303665167,-0.07640179249531494,1.187440398687233,0.06414045707626256,0.07773486552032194,1.0799877213636844,0.0,0.0,0.0,0.0
0.028474013583381627,0.022079866482576184,0.6797008187251822,0.005867631177448973,-0.3900559626325252,0.00929826992123968,0.9207255069213904,0.060441475223215954,-0.3548025753576374,-0.7539558081794107,0.07380867333075403,-0.6177750880468625,-0.6109953689207798,0.11033638058832006,-0.07139744354278238,1.177634712601317,0.0563185723041476,0.07160661713332386,1.0824579421015272,0.0,0.0,0.0,0.0
0.027162225698903184,0.024825548210122853,0.6783001234735992,0.0057431449727482035,-0.3900681907867553,0.00921754766033238,0.9207219230784607,0.051842097153353806,-0.36155743104537985,-0.7520655816173708,0.0729179997522324,-0.6107650407089676,-0.605614402074908,0.10543719860668527,-0.0664037717600784,1.167614683837096,0.04765667254969019,0.06483432267433303,1.0846370134794765,0.0,0.0,0.0,0.0
0.025598035428925123,0.027833948028835286,0.6768223440523471,0.005605415895346811,-0.390084532710589,0.00912856168236041,0.9207167349484927,0.042329882842342854,-0.3698107336378154,-0.7481314973702141,0.07150803336860391,-0.6040143892527318,-0.5998658738100218,0.10004310415815681,-0.0616256199093536,1.157441519782201,0.038175721503221634,0.05760082428103811,1.0860771388658497,0.0,0.0,0.0,0.0
0.023742099885352388,0.0310968207415877,0.6753015411630576,0.005454242302872923,-0.3901080181339999,0.009032912192377734,0.9207086357397704,0.03191501408624448,-0.37980203803629053,-0.7415088791051403,0.06962267995281887,-0.5976165057990594,-0.5937684483715537,0.09417434163608131,-0.05717052327134626,1.1470686328293889,0.027923892122850333,0.05005066942226638,1.0863882879323723,0.0,0.0,0.0,0.0
0.021558094437255086,0.034596320606605065,0.6737679241916397,0.005289477781908798,-0.3901390808532967,0.008932784835402417,0.9206974119496719,0.020649301380545715,-0.3917996701896324,-0.7315025875277427,0.06733683868830075,-0.5915762726490268,-0.5873656785579958,0.08788209144368013,-0.053076487425773894,1.1363973420116684,0.016991314915438135,0.042314473114733596,1.0852271917432976,0.0,0.0,0.0,0.0
0.019019117276559493,0.03830001146544186,0.6722511648831188,0.00511155066400916,-0.39017533727348863,0.008831549833478242,0.9206840293829732,0.00864176172003358,-0.4060739337062638,-0.7173981392785742,0.06475636814555576,-0.5858306924758955,-0.5807494910504609,0.08130008653790605,-0.04932256094830031,1.1253133644273396,0.005524646547172912,0.034532814166949005,1.0822945254193865,0.0,0.0,0.0,0.0
0.016116698746395285,0.042155427934967134,0.6707814998018983,0.004921838096686329,-0.3902110844929521,0.008734103570357848,0.9206708426378053,-0.0039241868111960995,-0.42286044043373094,-0.6985247312041153,0.06200688528721167,-0.5802224708752066,-0.5740662817351042,0.07467628840058985,-0.04581784994277969,1.1137217093706182,-0.006259519078478196,0.026868406005913312,1.0773611124911073,0.0,0.0,0.0,0.0
0.012874075242824324,0.0460836659202422,0.6693849627093633,0.0047228390317629034,-0.39023598975488233,0.00864645381165576,0.9206621562375583,-0.01677003091133849,-0.4423072717363174,-0.6743802896207858,0.059209250080783926,-0.5744323143285357,-0.567518094230634,0.06837630593904855,-0.04235978595420726,1.1015892316246305,-0.01806308308487911,0.0194858147343675,1.070358426627869,0.0,0.0,0.0,0.0
0.00936550155489021,0.049969379398290936,0.6680640222128165,0.004518784805855315,-0.39022694924129125,0.008563508728186451,0.9206677875259758,-0.029446077865631505,-0.4643983915954208,-0.6448733464294376,0.0565198913068183,-0.5679115699283785,-0.5614519898641612,0.06281178450969431,-0.03855848270017679,1.0889930945775366,-0.029514382380838845,0.01243487314796694,1.0615837879745782,0.0,0.0,0.0,0.0
0.005723815818305681,0.053665840444556794,0.666773256967852,0.004306731013474762,-0.3901180226264874,0.00852436076025071,0.9207153282983868,-0.041608566001211794,-0.48895950725440845,-0.6107745947800135,0.05521706412984706,-0.5602851594384473,-0.5563651694423363,0.058394580754401564,-0.03381460128019141,1.076151509021267,-0.040065341885735996,0.005525545742063006,1.0519048851304857,0.0,0.0,0.0,0.0
0.0024499300362743745,0.05698720502730025,0.6655037923093432,0.004108500762620108,-0.3898574956214484,0.008462362450954846,0.9208271508546023,-0.05238788955102434,-0.512742818790647,-0.5780232410633444,0.0549663375730635,-0.5512673631255245,-0.5527791707278247,0.055406241500559006,-0.027712445093868374,1.0636788204841268,-0.049378443922428766,-0.0009228060077185098,1.042718308564153,0.0,0.0,0.0,0.0
-0.00019798735326454191,0.05963265191203569,0.6644234676251095,0.003935376158480642,-0.38948137485557005,0.00839448972631501,0.9209876785263422,-0.06090291846632302,-0.5334086198213621,-0.5497902985150519,0.05633785002433637,-0.5415828433671939,-0.5516963219485862,0.05426953829090709,-0.02090971177401413,1.051538282904466,-0.05662559980286936,-0.00622156301864195,1.034626285278341,0.0,0.0,0.0,0.0
-0.0018146546861320747,0.06122197843556634,0.6637268769998192,0.0038291438669318077,-0.38905699405667804,0.008312168502925122,0.9211682261604595,-0.06588362063721621,-0.5469962554494517,-0.5317942268527526,0.0589482301811252,-0.5335289466012564,-0.5542267068635847,0.05455226786919949,-0.014873722620493506,1.0404120614962948,-0.06092914941764023,-0.009575555045846645,1.0288449968690663,0.0,0.0,0.0,0.0
-0.001762687683217289,0.0613506190191008,0.6636428189367682,0.0037384803791163505,-0.3890770170502487,0.008248588000416465,0.921160713102624,-0.0660144217767005,-0.5471695251476298,-0.5317487298265647,0.05895042956706669,-0.5335387685337005,-0.5542515371030893,0.0545828116219342,-0.014839837505428607,1.0404131058294435,-0.061083985041422775,-0.009525241508127997,1.0288017648015013,0.0,0.0,0.0,0.0
-0.001762687683217289,0.0613506190191008,0.6636428189367682,0.0037384803791163505,-0.3890770170502487,0.008248588000416465,0.921160713102624,-0.0660144217767005,-0.5471695251476298,-0.5317487298265647,0.05895042956706669,-0.5335387685337005,-0.5542515371030893,0.0545828116219342,-0.014839837505428607,1.0404131058294435,-0.061083985041422775,-0.009525241508127997,1.0288017648015013,0.0,0.0,0.0,0.0
-0.001762687683217289,0.0613506190191008,0.6636428189367682,0.0037384803791163505,-0.3890770170502487,0.008248588000416465,0.921160713102624,-0.0660144217767005,-0.5471695251476298,-0.5317487298265647,0.05895042956706669,-0.5335387685337005,-0.5542515371030893,0.0545828116219342,-0.014839837505428607,1.0404131058294435,-0.061083985041422775,-0.009525241508127997,1.0288017648015013,0.0,0.0,0.0,0.0
-0.001343643448375084,0.061668132013611814,0.6629683483379265,0.0036507820650599257,-0.38928061717142476,0.008159036266348974,0.9210758399893857,-0.06674366730763295,-0.5449274829939225,-0.5378878000100163,0.058427938224215874,-0.5324043008917132,-0.5577599950240267,0.053935244364951916,-0.018224822010238614,1.0491167997925468,-0.06201539163339364,-0.01194342552150709,1.0347240619551954,0.0,0.0,0.0,0.0
-0.0004843578805399842,0.062243260806247945,0.6619828145195964,0.0036213033855509134,-0.389364347196749,0.008047768367311643,0.9210415434268671,-0.06839540837515187,-0.5389161003768074,-0.5533320222238758,0.057277349454337774,-0.5287835097297613,-0.5677424111292959,0.052394830257417584,-0.022989274407402865,1.0616751294493325,-0.06399904410378349,-0.01520925319723744,1.0426897473659202,0.0,0.0,0.0,0.0
0.0009165576211801055,0.0631844122949992,0.6609547270542935,0.003625560249017102,-0.3894380335027416,0.00792293082346888,0.9210114551630532,-0.07132601975521236,-0.5278688196022633,-0.5788777634380777,0.05504328566313973,-0.5214850514138748,-0.5844469536764307,0.04971550629940274,-0.027598432574113655,1.0767590600390227,-0.06726491791733838,-0.017461009811727317,1.050584199091861,0.0,0.0,0.0,0.0
0.003027723199344243,0.06480875492642292,0.6605432137167547,0.003614391744958873,-0.38980029557048645,0.007844290217880275,0.9208589103964043,-0.07673055634279068,-0.5088271189826159,-0.6161330940996772,0.05024158283136219,-0.5081152413800302,-0.6071267257292342,0.045181836742319646,-0.028592289581074026,1.0914249558130464,-0.07249643448969827,-0.014262402325478613,1.0532901216100752,0.0,0.0,0.0,0.0
0.006248032192494391,0.0678992572141106,0.6625282039731111,0.003583891345768759,-0.39110899634973234,0.008017148899207897,0.9203024687680973,-0.08776883834355612,-0.47360688086377517,-0.670279632810122,0.03899385486460809,-0.4819260723716821,-0.6352099407947831,0.036760820658188725,-0.01682404888475271,1.0969422040636287,-0.08157335219894625,0.005958008751630963,1.0367492497203055,0.0,0.0,0.0,0.0
0.009411715183528568,0.07085668194621994,0.6640261196001711,0.003338887081255999,-0.3906185682796207,0.007931385542023956,0.9205124002812899,-0.082826894606971,-0.5034723870528063,-0.6255743992105686,0.029925766554760022,-0.4591666964282132,-0.6697277901532102,0.028449413318609174,-0.008164670846390113,1.0983398263380442,-0.07978464930806009,-0.002779295896004192,1.052677681667431,0.0,0.0,0.0,0.0
0.013140597964484864,0.073999619752908,0.665545562382558,0.0032307665318645597,-0.3900492941696433,0.007853991344978405,0.9207548126864896,-0.07606028948808005,-0.5253521212293549,-0.601772885751769,0.020096767573992643,-0.4338230528745571,-0.7090430356668936,0.019153305416125047,0.0014747914395978768,1.1003567609289462,-0.0778645111706563,-0.009873919398286773,1.0673269300084234,0.0,0.0,0.0,0.0
0.016664499039120345,0.07736823961816071,0.6670274209490938,0.0030945297556164305,-0.3897515332583003,0.007817253213091473,0.9208816735936263,-0.07197217479439504,-0.5415966921331746,-0.5904828447658103,0.009124157810068853,-0.41161132967711,-0.7403239052693636,0.009211805935559987,0.010799455116616265,1.1035635005502045,-0.07809083555605564,-0.015675422435571792,1.0806212848109067,0.0,0.0,0.0,0.0
0.01976678921996536,0.08085693679545206,0.6685517339142527,0.002922712117090232,-0.3896587639409741,0.007796138316592189,0.9209216718403479,-0.07064457856007433,-0.55410675023671,-0.5863193312672045,-0.0024402626681276803,-0.39284669006709044,-0.7632756410408063,-0.0011267546281977254,0.019957040443745237,1.1064119705411655,-0.08055974625727637,-0.020896164424958,1.0927614670594463,0.0,0.0,0.0,0.0
0.022363936596514894,0.08437916601399742,0.6701323480867982,0.002730833290649404,-0.38968014627597836,0.007770274339421828,0.9209134318623878,-0.07130318743401437,-0.5641811267044109,-0.5861348296938426,-0.01411817527320327,-0.37749666931867837,-0.7787144208478227,-0.011674404522220209,0.028861954982726173,1.10813923082333,-0.08464678182132046,-0.025960955928354495,1.1039494486798989,0.0,0.0,0.0,0.0
0.024456262799390373,0.08786708115906616,0.6717538719378324,0.002533041246460731,-0.3897561035777065,0.007733375239548661,0.9208821631095763,-0.07312034443887812,-0.5727089167856363,-0.5880834011938431,-0.025579380306739456,-0.3653187725635428,-0.787738696469971,-0.022235636484234617,0.037389202981125004,1.1085318445122834,-0.08962887674829709,-0.031060833077187825,1.1143800449673307,0.0,0.0,0.0,0.0
0.026093241259981862,0.09126628551504085,0.6733942836587411,0.0023399450073991685,-0.3898506782663295,0.007684786410461546,0.920843047088086,-0.07543865065162918,-0.5803165924185512,-0.591101846402299,-0.03659332269517767,-0.355926743288262,-0.7915530126909488,-0.03262484824686282,0.04547271333270482,1.107618337712208,-0.09493472195842743,-0.03628686726323479,1.1242441428966194,0.0,0.0,0.0,0.0
0.027348698195302695,0.09453352039536682,0.6750337763920046,0.0021582823486702265,-0.3899443113681653,0.007626187120445534,0.9208043316138965,-0.0778074329432845,-0.5874449437887935,-0.59459439545366,-0.047003714271743754,-0.34885228258524165,-0.7913569633446726,-0.04267856905638402,0.053118126944210066,1.1055198204585952,-0.10019133152279676,-0.04168657336547201,1.1337233911625406,0.0,0.0,0.0,0.0
0.028303726430972148,0.09763549135616728,0.6766560062072278,0.001991700511639154,-0.3900276089138092,0.007560034079541793,0.9207699730653497,-0.07994213320133876,-0.5943997106370771,-0.5982428883335548,-0.05671150043548221,-0.3436035010547446,-0.7882729526181567,-0.052264069313912774,0.060376153007909245,1.1023922653242806,-0.10519088012770839,-0.047285047974181184,1.1429830594917754,0.0,0.0,0.0,0.0
0.029035569562924454,0.100547797420737,0.6782461495408109,0.0018416887662418135,-0.3900968950108686,0.007488954450966599,0.9207415143494938,-0.0816715743300351,-0.6013877448306414,-0.6018923259739138,-0.06566214933890177,-0.339713666671062,-0.783298486142947,-0.061282051718129185,0.06730647154177581,1.0984134245560029,-0.10983985984810915,-0.05308934128048443,1.1521662345759227,0.0,0.0,0.0,0.0
0.029611054177779105,0.10325349317380847,0.6797879045298326,0.0017084151500026145,-0.39015114165814846,0.007415471575272054,0.9207193811155683,-0.08289624118324856,-0.6085381758714901,-0.6054804004369738,-0.0738343008763525,-0.3367777726854863,-0.7772790789892325,-0.06966440630915378,0.07394505050223556,1.0937885579497921,-0.11411443361321104,-0.059084467389194865,1.1613880144967745,0.0,0.0,0.0,0.0
0.03008325441641194,0.10574124288976051,0.6812601742173441,0.0015914456461537066,-0.39018980628421335,0.007341838397625882,0.9207037958983261,-0.083561010667214,-0.6159025980705202,-0.6089896355493932,-0.08122922894774608,-0.33447798841024773,-0.7708978052709581,-0.07736881733827854,0.08027744192911987,1.088764495557939,-0.11802273990023718,-0.06522303760413938,1.1707251604756639,0.0,0.0,0.0,0.0
0.030490101635726782,0.10800325909160434,0.6826337371542202,0.0014903899570908672,-0.3902113943592313,0.007269977264430171,0.9206953860428403,-0.08363857798153272,-0.6234267421748488,-0.6124066360424586,-0.08786172975527681,-0.3326010281378096,-0.7646745231148893,-0.0843719941951499,0.08621714201980947,1.0836479765841756,-0.12156325185577853,-0.07140770997165015,1.1801924016904732,0.0,0.0,0.0,0.0
0.030853774421877714,0.11003332712991452,0.6838685004369448,0.0014054663732508644,-0.3902130814890978,0.0072017075541337865,0.9206953410913737,-0.08311882648605634,-0.6308888036981091,-0.6156773909136813,-0.0937534659207801,-0.3310504273382358,-0.7589640143872197,-0.09066262191725816,0.09158969828598683,1.0788240472378356,-0.12466518243895197,-0.07746306231540864,1.1896904902191854,0.0,0.0,0.0,0.0
0.03118017007077263,0.11182545937874368,0.6849123887398537,0.0013378525587875916,-0.3901938293482994,0.007139475806678633,0.9207040857812281,-0.08200143998160445,-0.6378109675433912,-0.6186448947677926,-0.0989294680377622,-0.3298541777378705,-0.7539337109820156,-0.09623562989451628,0.09612846193933314,1.0747751162319485,-0.12710783304246648,-0.08308677223399362,1.1989099090435653,0.0,0.0,0.0,0.0
0.03153393778657058,0.11334211337623645,0.6857148361639882,0.0012936025248748242,-0.39013807851155136,0.007086829000907442,0.9207281809212391,-0.08003476460531345,-0.6433533342635417,-0.6210117266850916,-0.10333686075352896,-0.3285999223189503,-0.7506654739955501,-0.10100390325598416,0.09969671597291421,1.071901005350139,-0.1283508295622188,-0.08763277102352944,1.2072570203246622,0.0,0.0,0.0,0.0
0.031852431745243055,0.11458726703078359,0.6862326202576049,0.0012729115018705413,-0.39006642462108365,0.007056016611575916,0.9207588048502224,-0.0771918375622828,-0.6463407577254511,-0.6222736782790146,-0.10704875047324006,-0.3277351624578962,-0.7483765288448614,-0.10496628990986094,0.10194728683705043,1.070636018846098,-0.12765731712938228,-0.09023522012185996,1.2133078933747532,0.0,0.0,0.0,0.0
0.032081172159057064,0.11556426026078062,0.6864609577937704,0.0012730353136883184,-0.3900131488948751,0.007067579482528202,0.9207812836881798,-0.07340357701599422,-0.645559760109601,-0.6218931854883769,-0.11014413287923663,-0.3275793257466862,-0.7462664099722236,-0.1080853951650086,0.10275606619693753,1.0711240638346944,-0.12429064338625152,-0.08941485620454336,1.2146646262825436,0.0,0.0,0.0,0.0
0.03220601402316158,0.11627446681422664,0.6864083486578662,0.0012943975147646663,-0.38997806898412507,0.00712036150193413,0.920795705191205,-0.06869671984969011,-0.6410102561381055,-0.6198159897064849,-0.1126232143510275,-0.32819876806646886,-0.7441873026252235,-0.11036742270925651,0.1021337840043078,1.0733010275164565,-0.11825715383789619,-0.08517360062117293,1.2112533115929278,0.0,0.0,0.0,0.0
0.03222181913124787,0.11673132088477184,0.6860945866489685,0.001338042593878009,-0.3899350034375368,0.007193225255134933,0.9208133145467728,-0.06327298230000168,-0.6338899717457768,-0.6164959444051298,-0.11445366813432244,-0.3296289014402488,-0.7421739652750228,-0.11189291847078904,0.10015045048292585,1.0769424848614135,-0.11032744837107,-0.0790483074871504,1.2052983835464048,0.0,0.0,0.0,0.0
0.032123620483903596,0.11695510601166755,0.685572446896066,0.0014001852765557169,-0.38987764144228765,0.007274674430168446,0.9208368711647711,-0.057332183354901964,-0.6253626403566344,-0.6123656771747877,-0.11564143834916475,-0.33183475621177355,-0.7401020963821534,-0.11272398611812674,0.0970543019404716,1.0816096171291951,-0.10129091211918562,-0.07198991663075008,1.1980744851694198,0.0,0.0,0.0,0.0
0.03189698591184578,0.11696567138613002,0.6849040582690978,0.0014769229631201191,-0.38980993901371097,0.007359288812310765,0.9208647408891628,-0.05099864808788138,-0.6162576150526771,-0.6076935311030353,-0.11620305989694174,-0.3348193166806734,-0.7376714510482557,-0.11290542497759085,0.09312967943462032,1.0868010942633985,-0.09166313286721026,-0.06456042688077493,1.1902095155247092,0.0,0.0,0.0,0.0
0.0315168768246865,0.11678047696464776,0.6841463491337721,0.0015658173962430299,-0.389738111015248,0.007444396571754551,0.9208943120672591,-0.044347007288363285,-0.6070656252224135,-0.6026042570823851,-0.11615534241177246,-0.33866311790512577,-0.7344500234956928,-0.11247273868936265,0.08861476142399058,1.0920518911621446,-0.08170095219486984,-0.05709687667089225,1.1819653157533938,0.0,0.0,0.0,0.0
0.03095013200849514,0.11641501119748023,0.6833458978533551,0.0016658625747215845,-0.3896669688539909,0.007528256266720221,0.9209235601523112,-0.03743362399779037,-0.5980264159089324,-0.5971383735360798,-0.11551463972010775,-0.3435232337489889,-0.729918483639468,-0.11145920823001851,0.08367770527500641,1.0969702161131094,-0.07150147953077178,-0.04980106183070036,1.1734132240868775,0.0,0.0,0.0,0.0
0.03015897033161387,0.11588423696155511,0.6825392929870693,0.0017769636387656238,-0.3895988878871499,0.007609329574941416,0.920951490069234,-0.03031044052678179,-0.5892190661417478,-0.5913077732009465,-0.11430078734776844,-0.3496170809579725,-0.7235002270077032,-0.10990189563681882,0.07842554226685176,1.101235924686938,-0.061090661077177914,-0.04278899213092894,1.1645374968649467,0.0,0.0,0.0,0.0
0.029105075467352227,0.11520437124907115,0.6817557389998314,0.001899414131740277,-0.3895339853352623,0.0076861535402010074,0.920978061377436,-0.023020869536715775,-0.5806217488472903,-0.5851361974700526,-0.11254310120933353,-0.35720054443339694,-0.7145842634578993,-0.1078471053610443,0.07292686740190418,1.1045839989173696,-0.050476892581084766,-0.03611827565963541,1.155296709762371,0.0,0.0,0.0,0.0
0.027754993369144894,0.11439442708120814,0.6810199219851736,0.002033515233378484,-0.3894707255697281,0.00775749399446898,0.9210039305165374,-0.015579002097431842,-0.5721324760973662,-0.5786851557584042,-0.11028649455572491,-0.3665388040915968,-0.7025582780115414,-0.10535484683243132,0.06723876748430306,1.1067885210838506,-0.039670484610198765,-0.02979881548713264,1.145667816363479,0.0,0.0,0.0,0.0
0.026088111663682207,0.11347690814136843,0.6803540594671673,0.0021793605096316784,-0.3894066474367288,0.007822577137928204,0.9210301409871327,-0.007931992002044193,-0.5635521617208684,-0.5720703201873513,-0.10759556651775776,-0.37786115058219627,-0.6868755480282639,-0.10250101690158056,0.06143455765885122,1.107656418355736,-0.028673397756328767,-0.023785146117852603,1.1356929034366785,0.0,0.0,0.0,0.0
0.02410871954759284,0.11247714933997426,0.6797781312976474,0.00233679315899676,-0.3893391024205543,0.007881111574964121,0.9210578107830323,8.859608331551402e-05,-0.5545380925515726,-0.5654785242908021,-0.10455419684454494,-0.3912858399253908,-0.667187906706811,-0.09937647476889978,0.0556294227065982,1.1070413118100737,-0.017441358545139174,-0.01794635174132534,1.1255441418268206,0.0,0.0,0.0,0.0
0.02186350214126139,0.1114217457845998,0.6793054554285413,0.002505528554006312,-0.3892657227376083,0.007932431702507885,0.9210879414884974,0.008795034249887953,-0.5445517205054011,-0.5592105141911798,-0.10125988139059118,-0.4066998744535677,-0.6435870574944706,-0.09608629623080908,0.049989829748968415,1.1049065194204981,-0.00582680097598434,-0.012015095073693745,1.1156135291129898,0.0,0.0,0.0,0.0
0.01946460002433253,0.11034004773219684,0.6789235094293214,0.0026852523445025636,-0.3891838704182651,0.00797225720323537,0.9211216790094514,0.018556398118468112,-0.5328712124787109,-0.5538069878701465,-0.09782102201531626,-0.42359728993535617,-0.6169905346890657,-0.09276600738441289,0.04466896726726497,1.1015363364270034,0.006451938439452895,-0.005552879007189554,1.1066266217293554,0.0,0.0,0.0,0.0
0.01723922020931329,0.1092240646284123,0.6785511117645263,0.0028812073620441982,-0.3889881710347852,0.007990604282946115,0.9212035886178163,0.02978600904466284,-0.5190424273932798,-0.5503325135347352,-0.09429183137767165,-0.43978843976150983,-0.592283848049736,-0.08947162214931474,0.03977122947296396,1.0976253324757406,0.019938641713954236,0.0019192185572430472,1.0999586976853084,0.0,0.0,0.0,0.0
0.015506183178462671,0.10814789654725479,0.678308567601516,0.003056835768141317,-0.38875383266338187,0.00799390021225568,0.9213019108327163,0.04201476189597653,-0.503102676055475,-0.5505438550434465,-0.09089704460397455,-0.4523682716666097,-0.573676472122091,-0.08635315508285628,0.03642839739890393,1.0931474627887765,0.03389632701052855,0.009587778008316023,1.0970251609729933,0.0,0.0,0.0,0.0
0.014521307461796307,0.10733108159201457,0.6782680125133967,0.00314449478270877,-0.3885516903320828,0.00796320251875226,0.9213871517979226,0.05231429874006484,-0.4870393912846316,-0.5578703740041869,-0.08820035522983655,-0.45912209968466267,-0.5641653134034276,-0.08396154908149442,0.03523655065777811,1.0888765129224107,0.04538184817276073,0.014445326231565163,1.0991216321509851,0.0,0.0,0.0,0.0
0.014522343408549304,0.10724777580384454,0.6782340055704176,0.0032232469707149888,-0.38856302410331056,0.008000102124469848,0.9213817804496971,0.05233602408935722,-0.4870357841069786,-0.5578784626209607,-0.08813790375489086,-0.45923486986251827,-0.564144685560078,-0.08389536640042745,0.03522887279827661,1.0888354330967835,0.04538014188446625,0.014474558612875495,1.0991338392673917,0.0,0.0,0.0,0.0
0.014522343408549304,0.10724777580384454,0.6782340055704176,0.0032232469707149888,-0.38856302410331056,0.008000102124469848,0.9213817804496971,0.05233602408935722,-0.4870357841069786,-0.5578784626209607,-0.08813790375489086,-0.45923486986251827,-0.564144685560078,-0.08389536640042745,0.03522887279827661,1.0888354330967835,0.04538014188446625,0.014474558612875495,1.0991338392673917,0.0,0.0,0.0,0.0
0.014307765016291392,0.10684244534317927,0.6778421408523759,0.0034015472810560872,-0.38848792387308434,0.008019281876413185,0.921412640242721,0.05350317101564924,-0.49091908314375826,-0.5519248732699309,-0.08711194234809452,-0.461067881801765,-0.5636418491490206,-0.08316461993360902,0.03325581099464297,1.0903392472409406,0.04613581654816262,0.0115577612619578,1.1030060005147049,0.0,0.0,0.0,0.0
0.014488824893638744,0.10630208604735517,0.6773265751814346,0.003513882495979834,-0.388426470862297,0.008031420825079683,0.9214380205107645,0.05524502923572194,-0.49210133041703824,-0.5511937255453264,-0.08566786022582053,-0.45944317726873324,-0.5700051039382473,-0.08189534082198077,0.03139976463341283,1.0932226359545711,0.04757624721094796,0.008556415224556725,1.1089663100717377,0.0,0.0,0.0,0.0
0.015201902289977644,0.10564139436906587,0.6768102047750112,0.00357125362435226,-0.38845505033434374,0.00805712885049608,0.9214255274800994,0.057423798382259555,-0.4890544526521545,-0.5576261142326756,-0.08390556542510004,-0.4531085813241282,-0.584549006077629,-0.08013527098434219,0.030580687698181355,1.0969495523434225,0.04969777960586144,0.006426686865104827,1.1164823659242904,0.0,0.0,0.0,0.0
0.01657875300913319,0.10471472346203302,0.6765790815538879,0.0035886212390667006,-0.38871479258629305,0.008111792361213134,0.9213154349335988,0.06039848658042254,-0.4804917956318342,-0.5714269329213217,-0.0813487273319307,-0.44032464158612344,-0.6087468570109257,-0.07742874289878972,0.03276116350766049,1.0994063973192985,0.05298043050673052,0.0068531017136233986,1.1243586777648338,0.0,0.0,0.0,0.0
0.01891683418681025,0.10318670598747455,0.6776951096285807,0.0035958357368561056,-0.3897118273667994,0.0082857111524535,0.9208925608161257,0.06464702850920155,-0.46261491610764677,-0.5921130774936163,-0.07699855123080902,-0.416068353881047,-0.6450257111658054,-0.07256192674663489,0.0446089233564192,1.0929863626555434,0.05865649517177308,0.015915663184702496,1.127321934811891,0.0,0.0,0.0,0.0
0.02107891014114012,0.10134946370010382,0.6779910587291786,0.003978615592928796,-0.3894091569279571,0.008172550524974289,0.921020026132189,0.07131038353315382,-0.4492330035115507,-0.6129576298055577,-0.06285313256224133,-0.45230698563556115,-0.6057222603460635,-0.05645975411976528,0.035799796293303515,1.0947015298610552,0.06345066076819224,0.018887756633528603,1.1319428190533147,0.0,0.0,0.0,0.0
0.02376725487810576,0.0996059421832162,0.678433508633782,0.0042849157579816525,-0.38910316569090847,0.008171879574941195,0.9211479720058408,0.07739753987059646,-0.4317724148677743,-0.6410805169072008,-0.047910254814401323,-0.480746335700942,-0.586575555217258,-0.03874730881226404,0.026315766843828123,1.0996757712808254,0.06854130408180932,0.023804953643173567,1.135839874522257,0.0,0.0,0.0,0.0
0.02638116481179757,0.09796829082513321,0.6790357603366,0.004553364226372657,-0.3889706142994034,0.00821271750057408,0.9212023009942075,0.08295659715468386,-0.4151381060240535,-0.6663178520072769,-0.03475148650793029,-0.5019453443567645,-0.5790821181224898,-0.02257381704559682,0.01797745495120158,1.1070310263069274,0.07356312466640988,0.0298435310388738,1.1385125292478895,0.0,0.0,0.0,0.0
0.028727817873918697,0.09647240171163178,0.6797700510694017,0.00479063061207135,-0.3889587272715493,0.00826768789867292,0.9212056250775097,0.0879160757418524,-0.4003530571038895,-0.6872350202651067,-0.02380340004970485,-0.517993686179906,-0.5778913273644003,-0.0083312281311352,0.010719920023570665,1.1156942607553615,0.0782622891941627,0.0364517990666745,1.1396111043206112,0.0,0.0,0.0,0.0
0.03070656988375644,0.0951269450923677,0.6805824097729811,0.0050022201316151605,-0.3890118563793441,0.008329017528218758,0.9211815135232937,0.09225110986501853,-0.38792234838803363,-0.7034734961277989,-0.014441243127108958,-0.5307413553643354,-0.580103186806159,0.004422208421303293,0.004035632569842613,1.1248722080420799,0.08252490626562478,0.04306918179083669,1.1392638904536196,0.0,0.0,0.0,0.0
0.03229139366762663,0.09394190182634234,0.6814351468514543,0.005192260682574951,-0.38909413255455955,0.008396097755874257,0.921145103652564,0.09592599864745623,-0.3778789636984135,-0.7153757765559206,-0.0059983085995270104,-0.5415263556977115,-0.5841024746385413,0.016179052217395656,-0.0024967791686471225,1.1341060913267864,0.08627030796975638,0.04937916574039225,1.1376548445207522,0.0,0.0,0.0,0.0
0.033504391556854196,0.09293044672607824,0.6823073162146228,0.005363078402987952,-0.3891854384806536,0.008470023838001786,0.9211048748979936,0.09890232555465378,-0.3699742353261459,-0.7236415441582567,0.0019431755269100851,-0.5512354576560773,-0.5889619162909733,0.02727831845711533,-0.009135467495478687,1.1431852495861798,0.08943399729087465,0.0552720844923064,1.1349329419275171,0.0,0.0,0.0,0.0
0.034392884586775044,0.09210491717133597,0.6831867246354484,0.005515847873307921,-0.3892759052545593,0.008551393557297917,0.9210649915606988,0.10115531985464785,-0.3638380208217921,-0.7290842469286001,0.009565872534431877,-0.5604285318181184,-0.5941422444541092,0.03790736446256392,-0.01601229886396274,1.152048223382375,0.09197077284662729,0.06075504806565785,1.1312278578756383,0.0,0.0,0.0,0.0
0.035013105503324905,0.09147395771878691,0.6840634438267691,0.005651304012623497,-0.3893616347656637,0.008639924896508751,0.9210271070024755,0.10268028632626776,-0.3590814933837911,-0.7324896701328671,0.01690823887779705,-0.569451654470565,-0.5993353841430225,0.04815732911341598,-0.02318258897864488,1.1607104464123361,0.09385714972906245,0.06587908152864827,1.1266755971959364,0.0,0.0,0.0,0.0
0.03542002427037567,0.09104203389724819,0.6849259658631562,0.005770171297534091,-0.38944172051067244,0.008734734784012646,0.920991615519456,0.10348983799637293,-0.3553543424856562,-0.7345469846351111,0.023943654501477542,-0.5785182230923744,-0.6043770799576205,0.05807497382030877,-0.03065820684825223,1.1692192759238487,0.09508846543301115,0.07069284390734326,1.1214333338412683,0.0,0.0,0.0,0.0
0.03566173205021412,0.09081063260812987,0.6857588035341031,0.005873287449108009,-0.3895161923835292,0.00883466010648114,0.9209585165176446,0.1036067640999548,-0.35237332401040955,-0.7358241239033397,0.030628553600964108,-0.5877551616284682,-0.6091930678414385,0.06769445028947166,-0.038420848462586595,1.1776262746689423,0.09567206958641555,0.07521479952810287,1.1156875145335876,0.0,0.0,0.0,0.0
0.035776737444036505,0.09078026596745435,0.6865403991947411,0.005961487134010007,-0.38958456951744264,0.008938385074740925,0.9209280260353224,0.10305624363087533,-0.34993545103469087,-0.7367668951451821,0.03692545159693974,-0.5972140276124153,-0.6137593484812985,0.07704538536192411,-0.04641874879141578,1.185964953121811,0.09561903454377721,0.07941464628510159,1.1096621456521132,0.0,0.0,0.0,0.0
0.03579276084927414,0.09095266396803613,0.6872409583648311,0.006035308323034345,-0.38964493114728593,0.009044293832170635,0.9209009737391692,0.10185925902577758,-0.34792462561374177,-0.7377065692360062,0.04281031923898067,-0.6068447945389952,-0.6180635205317982,0.08613355596744725,-0.05454945946268786,1.1942209646197681,0.09493602722016678,0.08319880527334947,1.1036296689980176,0.0,0.0,0.0,0.0
0.03572594595919538,0.09133284074076636,0.6878208224192491,0.006094551952249192,-0.3896937216996806,0.00914998908081363,0.9208788939943049,0.10002767111676054,-0.34631604847774655,-0.7388639703369119,0.0482682966289988,-0.6164297492143711,-0.6220571148175352,0.09488704839003402,-0.06262784510268248,1.202278470518216,0.09361788933101431,0.0864007641889306,1.0979194542698674,0.0,0.0,0.0,0.0
0.035579918552688834,0.09193083706357123,0.6882311554344188,0.0061377538181298505,-0.3897268726875216,0.009251397560344309,0.9208635644472274,0.09756087686372625,-0.3451772865133265,-0.7403413627915355,0.0532739348660146,-0.6254834740171208,-0.6255937511593306,0.10306455693902954,-0.07033242420917347,1.2098208885790072,0.09164083434814763,0.08878450671895889,1.0929102756416584,0.0,0.0,0.0,0.0
0.03534514257480212,0.09276269145293839,0.6884199155699451,0.006161800171215863,-0.3897432186479821,0.009341454071965676,0.9208555766092653,0.09444449820596491,-0.34465648942011257,-0.7421007632222358,0.05774890284035573,-0.6331531678727822,-0.6283604215733031,0.11014947712504725,-0.07711293642073445,1.2161577000615311,0.08895677934885976,0.0900777900048967,1.088985592077376,0.0,0.0,0.0,0.0
0.03500097277509149,0.09384915409125939,0.6883464407937023,0.006162422971775425,-0.3897512797058353,0.00940872708150686,0.9208514757361723,0.0906540491771364,-0.34493694176090633,-0.7439434568898974,0.061509395526263756,-0.6382200545544332,-0.6298382626441387,0.11532922325013631,-0.08203025547164029,1.2199455619165347,0.0854925904166006,0.09005689267466035,1.0864331376199803,0.0,0.0,0.0,0.0
0.03452511389762984,0.09520830504352254,0.6880035901425302,0.006137309157890778,-0.3897767935980527,0.009437262403993939,0.920840552260292,0.08617357923387434,-0.3461378074700924,-0.7455378677280106,0.06430026212286942,-0.6394360126337226,-0.6294140108470976,0.11780104547493352,-0.08357516517101778,1.218889318657653,0.08116489509159297,0.08867985693021684,1.0853063937085756,0.0,0.0,0.0,0.0
0.03390189462597329,0.09684686181427041,0.6873934488645649,0.0060865308443933085,-0.38982052575043985,0.009425224060632632,0.9208225002666571,0.08097424523717002,-0.3483629868873854,-0.7466870258937569,0.06608693672266788,-0.6368058306816619,-0.6270692046496373,0.11752736528420196,-0.08174164186847802,1.213016256403401,0.07594282972910191,0.08594325224949909,1.0855166345555032,0.0,0.0,0.0,0.0
0.03312311001564843,0.09876087604685894,0.686526504813268,0.0060128315267734544,-0.3898594304005855,0.0093852854586326,0.9208069215647879,0.07500832546457104,-0.3516968009118377,-0.7473361281442595,0.06708030826086822,-0.6315800059167441,-0.6233963226485139,0.11524456482319592,-0.07803275952998068,1.204644809660945,0.0698484432420914,0.08188205419527048,1.086846966858688,0.0,0.0,0.0,0.0
0.03217991288079231,0.1009439674099625,0.6854450012658969,0.005920883515313141,-0.3898881168581225,0.00932651809875916,0.9207959684595598,0.06823412896213192,-0.3561552312111584,-0.7473100740198811,0.06744505813898367,-0.6249811966193348,-0.6188955425880927,0.11171125774167581,-0.0734012943720374,1.1951107648568724,0.06290018734989501,0.07670906861740542,1.0888679476465237,0.0,0.0,0.0,0.0
0.031053899569584497,0.10339298187434279,0.6842012184121281,0.005813907964764043,-0.38991024468427976,0.009254367957120108,0.9207880083049174,0.06060930540466633,-0.36178184622559945,-0.746287109443127,0.06724905163839393,-0.6178738395877824,-0.6138570666344412,0.10740097920111022,-0.06842360001986376,1.1850779169870815,0.055105807981198886,0.07068427088545437,1.0910701565344643,0.0,0.0,0.0,0.0
0.02971685289208052,0.10610731786285235,0.6828442203659101,0.005693214733335082,-0.38993160746410077,0.009171772415887965,0.9207805424731855,0.05209669706776655,-0.3686842684442041,-0.7438234641882271,0.06651194080151228,-0.6107632457200268,-0.6084090900625295,0.10252493604447627,-0.0634464590313845,1.174823323963068,0.04647067290801332,0.06404082224133743,1.092955714418124,0.0,0.0,0.0,0.0
0.028134049736325863,0.10908588416706509,0.6814156315687103,0.005558741698559834,-0.3899568704615528,0.009080409772778788,0.9207715708735358,0.04267354441287684,-0.37703403980663097,-0.7393830961620589,0.0652499747696092,-0.6038961741424339,-0.602595689315738,0.09714455051283756,-0.058669365101962974,1.1644135531423419,0.03701105056298236,0.05696665808018102,1.0940737140602639,0.0,0.0,0.0,0.0
0.02626852309416047,0.11232310068050169,0.6799508551274153,0.005409737447874535,-0.38998834594353443,0.00898175459245242,0.9207600951677978,0.03234268100880944,-0.38705179177757765,-0.7323595030675853,0.0634998141449929,-0.5973633408298525,-0.5964434104293538,0.09127644864210446,-0.05419165087555951,1.153805997918527,0.026768882397179533,0.0496171520165051,1.0940196473873103,0.0,0.0,0.0,0.0
0.024085847577164914,0.11580429449002344,0.678482591172479,0.005245343674971761,-0.39002554569955605,0.008877954034555418,0.9207462962204384,0.02114589123995346,-0.3989867988370512,-0.7220942862392631,0.06132743655440802,-0.5911669087817388,-0.5900071260220999,0.08496894266543124,-0.05003963230546253,1.1429065187725522,0.015827391603032787,0.0421399455217548,1.092422395297634,0.0,0.0,0.0,0.0
0.021560105147088435,0.11950055696181998,0.6770443993178809,0.005065080810670467,-0.3900648344541972,0.00877256648136923,0.9207316720716905,0.009179457362906797,-0.4130915748372358,-0.7079054033548544,0.058827204020686155,-0.5852416219570681,-0.5833957393313243,0.07835432482096048,-0.04617844370194207,1.1316081169267531,0.004326937245800005,0.034699760099626394,1.088938414311934,0.0,0.0,0.0,0.0
0.01868221995932944,0.1233630360271118,0.6756722056953196,0.004869262074102933,-0.39009895523364185,0.008671100939695855,0.9207192337629145,-0.003388392434215435,-0.42958759356453824,-0.6891436201618367,0.05610950358510007,-0.5794260396605041,-0.5767801194047175,0.07167985538729651,-0.04250674750480451,1.1198285814475457,-0.007519952320784135,0.027492484738323074,1.0832736483478635,0.0,0.0,0.0,0.0
0.015472314139500707,0.12731611934126907,0.674400020947531,0.004659360826539926,-0.3901161507014853,0.008580884836848124,0.9207138794076913,-0.016296125178160942,-0.448616493677559,-0.6653047583740148,0.05327395640842313,-0.5733862458727762,-0.5703937445116297,0.06530739738685151,-0.038828066304290955,1.107556780935423,-0.019415315887086004,0.020727826093744635,1.0752697692357105,0.0,0.0,0.0,0.0
0.011998110987385482,0.13124679330172878,0.6732405409520602,0.004439052134493852,-0.39009395847230444,0.008500702243179349,0.9207251144836488,-0.029117552397288318,-0.47017146425979234,-0.6362480408725918,0.05043600829243689,-0.5665280416840781,-0.5646109135624805,0.05963746959183696,-0.034795780678151644,1.0949056996517181,-0.030979497463761267,0.014515453966558515,1.0651174454761783,0.0,0.0,0.0,0.0
0.008384937974121535,0.1350039743246693,0.6721526191726883,0.004207730480348873,-0.3899733472188171,0.008464541419721324,0.9207776251634867,-0.0414696364975167,-0.49410962440914186,-0.6026046378076887,0.04868250981289082,-0.5583292845187965,-0.5599809533792235,0.055041829415755056,-0.02990826820866687,1.082147066466876,-0.04166168922096613,0.008688674447879463,1.0536530251887766,0.0,0.0,0.0,0.0
0.0051315544769313035,0.13839940949277732,0.6710976688797639,0.00399413904723221,-0.38970524865443684,0.008410433735529592,0.9208925727949135,-0.05249454158887191,-0.5172436361371647,-0.5703121624303855,0.04788750939167545,-0.5484267349761486,-0.5570318528050074,0.051692448844497266,-0.02384013537927819,1.0701141749137824,-0.051129718287283535,0.003430720555128125,1.0425129946754987,0.0,0.0,0.0,0.0
0.002492017568228186,0.14111878442466638,0.6702072417593354,0.0038143913676445054,-0.38933222762907016,0.008356335975338997,0.921051593884375,-0.061276091879621825,-0.5373754284596541,-0.5423715840892664,0.04871391392064574,-0.5374707486336829,-0.5570036430593309,0.04998119987175726,-0.01744634363769316,1.058974467708384,-0.058532656968592625,-0.0007787790376673097,1.0326656492006745,0.0,0.0,0.0,0.0
0.0008741701632285217,0.14272894012040124,0.6695594243774862,0.0037129466466107215,-0.3889538566812988,0.008303651964094914,0.9212123320733403,-0.06642583870197147,-0.5509483980956363,-0.5240092637251234,0.05116560483513238,-0.5279709803953812,-0.561504952931528,0.04979600792288017,-0.012332586999213156,1.0494377447039824,-0.06285226364146503,-0.0038224803244172644,1.0266677300151532,0.0,0.0,0.0,0.0
0.0009257524512004871,0.14285840775784706,0.6694742606057549,0.003621954679221678,-0.3889742324364478,0.008240451003633341,0.9212046585379573,-0.0665557861395087,-0.5511235980099061,-0.523963605185634,0.051166325236967694,-0.5279821750553916,-0.5615309625244573,0.04982665391156005,-0.012298640135904355,1.049439620467928,-0.06300522103883052,-0.0037665938294435767,1.0266216169238676,0.0,0.0,0.0,0.0
0.0009257524512004871,0.14285840775784706,0.6694742606057549,0.003621954679221678,-0.3889742324364478,0.008240451003633341,0.9212046585379573,-0.0665557861395087,-0.5511235980099061,-0.523963605185634,0.051166325236967694,-0.5279821750553916,-0.5615309625244573,0.04982665391156005,-0.012298640135904355,1.049439620467928,-0.06300522103883052,-0.0037665938294435767,1.0266216169238676,0.0,0.0,0.0,0.0
0.0009257524512004871,0.14285840775784706,0.6694742606057549,0.003621954679221678,-0.3889742324364478,0.008240451003633341,0.9212046585379573,-0.0665557861395087,-0.5511235980099061,-0.523963605185634,0.051166325236967694,-0.5279821750553916,-0.5615309625244573,0.04982665391156005,-0.012298640135904355,1.049439620467928,-0.06300522103883052,-0.0037665938294435767,1.0266216169238676,0.0,0.0,0.0,0.0
0.0013345280039513841,0.14314719328259135,0.6688056204994776,0.0035412103065611627,-0.38917469794254794,0.008153452490556969,0.9211210753876906,-0.06719823685183271,-0.5489703536464587,-0.529884433699814,0.05071144498879298,-0.5269033728764994,-0.5649612940098535,0.0492235829989267,-0.015558072269775352,1.0578668588668685,-0.06387304139571884,-0.006197455510188961,1.0325594444054635,0.0,0.0,0.0,0.0
0.002171449506472763,0.1436685796652999,0.6678233489622719,0.0035184471501098586,-0.3892583795891453,0.008040415291633862,0.9210867962202166,-0.06865916775252874,-0.5431338353104782,-0.5448958530495973,0.049710871705280546,-0.5234609293522309,-0.5746598665602771,0.047781773199909706,-0.020154300843361214,1.0700303706013596,-0.06573184374830297,-0.009535452329482405,1.040624932509425,0.0,0.0,0.0,0.0
0.0035364045640078924,0.14453679110840398,0.6667920118285635,0.003529067979117497,-0.3893341586157597,0.00791216822066798,0.9210558377254905,-0.07132191177573514,-0.5323346928361197,-0.569851679251665,0.047687414069776446,-0.5164897515192767,-0.5908337083893901,0.04524296711884915,-0.02458753316627354,1.0846457162225323,-0.06882247312655668,-0.011927739856971608,1.048699830900849,0.0,0.0,0.0,0.0
0.005598372662571018,0.14607339815827045,0.6663663193752609,0.003523128444686981,-0.38969958840344154,0.007833289874366517,0.920901980633061,-0.0764116889664895,-0.5135832448967514,-0.6064604223394054,0.043143270937105876,-0.5035952539177369,-0.612742188014217,0.04088827301556659,-0.025428416760324667,1.0988012246713985,-0.07382998253825203,-0.008946143782303831,1.0516678927609924,0.0,0.0,0.0,0.0
0.008760371974673546,0.14906065051149944,0.6683135479417897,0.0034941707093003546,-0.3910178051515418,0.008017598750821437,0.920341558844213,-0.08711683808931817,-0.47865677705162885,-0.6600329000133822,0.03221275465091232,-0.4780216516157503,-0.639823312376191,0.032709427808479505,-0.01358788399407692,1.1038532678816355,-0.08261188724047777,0.010936852597584925,1.0355723694727696,0.0,0.0,0.0,0.0
0.011885753560044853,0.15190536774775198,0.6698301342024648,0.0032656140262246856,-0.39052996435712234,0.007923447864149863,0.9205503254457089,-0.08214194349047775,-0.5065733147514686,-0.6185756655282308,0.023512600171338008,-0.4555157023665197,-0.6738804482157821,0.02460561355351057,-0.004584561909405201,1.104420993999258,-0.0804753930100463,0.0015303756385704834,1.0525213348011822,0.0,0.0,0.0,0.0
0.015565411077464132,0.15493697164958126,0.6713651222436134,0.003169185641728325,-0.38996216464664013,0.007838963299666265,0.9207920596208796,-0.07533001699808428,-0.5272319575182414,-0.596727223543595,0.014037858172750077,-0.4305035785567059,-0.7125981103040744,0.015525644023903547,0.005371317135162134,1.1055934175310198,-0.07824892163724084,-0.0060170679583736114,1.0677684806608259,0.0,0.0,0.0,0.0
0.019033186280871667,0.158208635238547,0.6728584115834524,0.003039337494004446,-0.38967331552811846,0.0078012923190999995,0.9209150934972631,-0.0711740740239207,-0.5427596310094287,-0.58655686503651,0.0033637390867004013,-0.4086299852773393,-0.7432147857343728,0.005786581985491019,0.014949913739772893,1.1080672360324046,-0.07824370691340311,-0.012121098354980351,1.0813850153002114,0.0,0.0,0.0,0.0
0.022080119936725234,0.16161647142875346,0.6743853154635231,0.0028719582157178823,-0.38958666933444286,0.007782096252325443,0.9209524514929217,-0.06975650681556178,-0.5548731467831803,-0.5830377699986021,-0.007949050021692036,-0.39019427364373027,-0.7655576049264573,-0.004381902325277139,0.024268653390245074,1.110333520015544,-0.08053444197687264,-0.01754582000585453,1.0937003831146996,0.0,0.0,0.0,0.0
0.02462631463603357,0.1650733268126201,0.6759617476737284,0.002683107909090962,-0.3896120510042244,0.007760095729939797,0.9209424691903897,-0.07032132546151638,-0.5647339476292967,-0.5832143783172592,-0.019421503383925943,-0.37515406329148776,-0.7804511267460394,-0.014792459303482015,0.033258340517032636,1.1116228115590259,-0.08447784924166635,-0.022742382345631813,1.1049890783418697,0.0,0.0,0.0,0.0
0.026674239567926507,0.16850915550730886,0.6775757257872234,0.002487614888981683,-0.38968993937147467,0.007727561390200524,0.9209103364170592,-0.07204709415491181,-0.573147870578386,-0.5853562865302094,-0.0307144056886478,-0.36325613989589234,-0.7890035687454955,-0.025248166869839828,0.04182192659424492,1.1116872159178388,-0.08934134383896454,-0.027923669209866647,1.115485135223425,0.0,0.0,0.0,0.0
0.028274243145898083,0.1718674270824132,0.6792079742723388,0.0022962528790719614,-0.3897851990410838,0.007683323681024851,0.9208708880013694,-0.07428349836877784,-0.5806928276071007,-0.5884695001087763,-0.041591217313918655,-0.3541071448036534,-0.7924174798868737,-0.03555898159558381,0.049916901729166824,1.1105237466276667,-0.09454906636848867,-0.03319631609877143,1.1253985552831838,0.0,0.0,0.0,0.0
0.029500226328223494,0.17510299821414652,0.6808403611995621,0.0021158365384555105,-0.3898788980992562,0.007628829213670986,0.9208321068563373,-0.07658359044565398,-0.5877831954441376,-0.5920008195835055,-0.05189066752150197,-0.3472360173688907,-0.7918873301322067,-0.04555690012443731,0.057564953292536435,1.1082291855869468,-0.09972585904919026,-0.03861951646919158,1.134919478103597,0.0,0.0,0.0,0.0
0.03043290635541591,0.1781809266726437,0.6824573015514457,0.0019500756175731878,-0.389962032882502,0.007566452272257187,0.920797783943491,-0.07866351537685437,-0.5947110277287195,-0.5956582497720833,-0.06150948071330599,-0.3421511688384375,-0.7885298840250295,-0.055104973046348926,0.06482626311729534,1.104942603119585,-0.10466195053600784,-0.0442260729900907,1.144216898315285,0.0,0.0,0.0,0.0
0.03114893037799291,0.181075364457007,0.6840441026392265,0.0018005246434150354,-0.39003114192673755,0.007498810935226972,0.9207693708377203,-0.08035096854394617,-0.6016763884730526,-0.5993026128610663,-0.07038949803419317,-0.33838789452169393,-0.7833376078038975,-0.06410011408220248,0.07176528423720659,1.1008308283807573,-0.10926151280982718,-0.050027480112004995,1.1534357716632189,0.0,0.0,0.0,0.0
0.03171445787485725,0.1837680947891019,0.6855842288968226,0.0016674168978765118,-0.39008529649384843,0.007428451171440285,0.9207472504946125,-0.08154458816242093,-0.6088052658857371,-0.602880905195241,-0.07850624189379243,-0.3355438810181927,-0.7771520650173792,-0.0724708795569034,0.07841978680153712,1.0960924831492511,-0.11349815382885906,-0.05601094555764516,1.1626924556133948,0.0,0.0,0.0,0.0
0.03218191573699655,0.18624666975962145,0.6870561785794136,0.0015504095116301423,-0.3901239302949006,0.0073576043037633515,0.9207316552071592,-0.08218699212607983,-0.6161481314253127,-0.6063810382758364,-0.08585815019377921,-0.3333040439969988,-0.770653934631246,-0.08017227465476752,0.08477544608286627,1.0909704912848441,-0.117377718051874,-0.062130216277760796,1.172064730073259,0.0,0.0,0.0,0.0
0.03258863205138772,0.18850235914880537,0.6884302855634562,0.0014491847810040276,-0.3901455101646532,0.007288181840220713,0.9207232283196166,-0.08224902447141517,-0.6236507410193801,-0.609792395590145,-0.09245775174516074,-0.331457578399861,-0.7643613222480505,-0.08717876073825825,0.09074503564310711,1.0857696249242368,-0.12089678639754775,-0.06828856913756748,1.1815680419119072,0.0,0.0,0.0,0.0
0.032956226372587355,0.1905281574506697,0.6896660556161368,0.001364026230957763,-0.39014715216643703,0.007221978891768031,0.920723184301203,-0.08171869747726795,-0.6310920713309353,-0.6130619813403525,-0.09832487285701738,-0.3299102376502521,-0.7586276382921855,-0.09347721812284847,0.09615307267351617,1.0808740539276505,-0.12398319133173186,-0.07431126217776964,1.1911033894609284,0.0,0.0,0.0,0.0
0.0332900643962057,0.1923173814613416,0.6907111676225886,0.0012961810790569318,-0.39012762291506436,0.007161403377879135,0.9207320305359812,-0.08059251423143984,-0.637995414356742,-0.616032772378092,-0.10348291867343679,-0.32869193126229973,-0.7536196794234303,-0.09906101424117213,0.10073215550862524,1.0767646813921021,-0.12641475664727497,-0.07989705545970799,1.2003607328535795,0.0,0.0,0.0,0.0
0.03365078297983518,0.19383294775750698,0.6915148157722948,0.0012517853488326599,-0.3900714853657385,0.007109739021991965,0.9207562766275591,-0.07862125878972544,-0.6435221170373121,-0.6184071388303737,-0.10788037588583616,-0.32741655807981795,-0.7503717113889523,-0.10384494933986735,0.10433858962043702,1.0738388162492603,-0.12765097976902406,-0.084407613164985,1.2087387364324362,0.0,0.0,0.0,0.0
0.033971301008710195,0.1950804257650942,0.6920332165849031,0.0012308267093791333,-0.3900001866126751,0.007079380923178139,0.9207867407133069,-0.0757899176564021,-0.6464994678836979,-0.6196786098014789,-0.11159391761670158,-0.32656474872474883,-0.7480368503522165,-0.10783154029441426,0.10661251306604429,1.0725405282847114,-0.12695759257919778,-0.08698849972421045,1.2148017577241401,0.0,0.0,0.0,0.0
0.03420338085825071,0.19606094863299578,0.6922613936258954,0.001230767812905101,-0.3899467634640173,0.007090835658983056,0.9208092782570045,-0.07201706159326336,-0.6457167883029383,-0.6193074224955137,-0.11469596633005105,-0.32641255995988105,-0.7459043709110201,-0.11097732584652212,0.10744057261931224,1.0730137948348266,-0.12359296355998027,-0.08615469744629348,1.2161531824269973,0.0,0.0,0.0,0.0
0.034332646944590414,0.1967765210518729,0.6922077598988678,0.0012519667851579159,-0.3899113166879145,0.00714296280915943,0.9208238570867788,-0.06733357764402076,-0.6411741413710234,-0.617240179159896,-0.11718852651685374,-0.3270288766694737,-0.7438196371017127,-0.11329040962039211,0.10683189418944088,1.0751984598763067,-0.11756558579020733,-0.08190980892790052,1.212718225869688,0.0,0.0,0.0,0.0
0.034354366219007025,0.19724126063690714,0.6918927085490658,0.0012954211374983336,-0.3898677610833526,0.007214679028835455,0.9208416797465465,-0.061941445511561485,-0.6340659070636034,-0.613935176935316,-0.11904183153993722,-0.32844628191563413,-0.7418180056227437,-0.1148535376926067,0.10485926816509583,1.0788675674223918,-0.1096487399148283,-0.0757876288202541,1.2067285009501934,0.0,0.0,0.0,0.0
0.03426422178493558,0.19747625590762852,0.6913697159314182,0.001357259862469864,-0.38980985845328947,0.007294621610083608,0.9208654736680368,-0.05604141702446645,-0.6255533478618512,-0.6098272485317516,-0.12026428809721569,-0.33062573704943354,-0.7397774986519411,-0.11573087731692461,0.10177438594594097,1.083578956408857,-0.10063370804566961,-0.06873395343908953,1.1994641141131184,0.0,0.0,0.0,0.0
0.03404844483481913,0.19750224930639443,0.6907014977845627,0.0014334869078228296,-0.3897416099494844,0.007377493253255182,0.9208935851565951,-0.04975935350568947,-0.6164639487958453,-0.6051855757467214,-0.12087477204420692,-0.33356654154811105,-0.737400275639653,-0.11596938121308624,0.09786401825002602,1.0888295876847485,-0.09103746432371154,-0.06130665429857635,1.191556168339614,0.0,0.0,0.0,0.0
0.03368261766239487,0.19733760553553734,0.6899454022703793,0.0015215731121488469,-0.38966924131089914,0.007460705215798409,0.9209233980462955,-0.04317145726418107,-0.6072870292561636,-0.6001347610592089,-0.12089226876752548,-0.3373460344529574,-0.7342570215188039,-0.11560670640688642,0.09336743370236512,1.0941548246374524,-0.08111812037262209,-0.05384038270826601,1.1832681622182066,0.0,0.0,0.0,0.0
0.033134172954359935,0.1969986521142986,0.6891482402920229,0.0016204200387167711,-0.3895975355655672,0.007542559550312195,0.92095290016133,-0.03633546845429215,-0.5982614133974313,-0.5947141291796403,-0.1203350326341098,-0.3421182206837002,-0.7298322147918176,-0.11467806999513197,0.08845258128335134,1.0991653018055647,-0.07097403730036567,-0.0465359402299143,1.1746723166639825,0.0,0.0,0.0,0.0
0.03236591697014591,0.19650105211869698,0.6883466043305835,0.0017298296111422577,-0.3895287971519343,0.0076215330649363104,0.9209811269035993,-0.029304608694120337,-0.5894659060152059,-0.5889328941345207,-0.11922435856107189,-0.3480972583226572,-0.7235550035401673,-0.11322198868209304,0.08322491328233866,1.1035453720436765,-0.06063218557469839,-0.039509106221869254,1.1657534875005136,0.0,0.0,0.0,0.0
0.03134011186219372,0.1958615053206258,0.6875693942602832,0.0018499671431683458,-0.38946302234675056,0.007696164425083632,0.9210080894863224,-0.022123675368115193,-0.5808794996970342,-0.5828098311827644,-0.11759036572303928,-0.3555354551369346,-0.7148227675552847,-0.11128542934716583,0.07774975630224124,1.1070368434683806,-0.05010133804203309,-0.032817316901985846,1.15647067475429,0.0,0.0,0.0,0.0
0.030023842711634226,0.19509919608767823,0.6868405666262068,0.00198096330700341,-0.3893984896299007,0.007765225696162798,0.9210345234182137,-0.014808204012163165,-0.5724032000699104,-0.5763980162394355,-0.11547786866430092,-0.3646941016160025,-0.7030347830465428,-0.10892790837241935,0.0720787208723219,1.1094233425680513,-0.039391032901821124,-0.026469452994714,1.1468007647178182,0.0,0.0,0.0,0.0
0.028396944597907155,0.19423636546832573,0.6861810611432698,0.0021226695232810498,-0.38933246150092593,0.007827985681312733,0.9210615893282588,-0.007305887027312787,-0.5638453271003774,-0.5697994756532603,-0.11295022540101841,-0.3757982310583495,-0.6876598539492238,-0.10622318646736856,0.066276939835074,1.1105242081224433,-0.028500801883680708,-0.020416750999019944,1.1367844679842867,0.0,0.0,0.0,0.0
0.02646399736388565,0.19329746918250174,0.6856090056924171,0.002274570990191594,-0.3892618931077691,0.007884286724803052,0.9210905725952293,0.0005553418928636077,-0.5548788149289504,-0.5631792601582816,-0.110088667192085,-0.38896097289716886,-0.6683703063763378,-0.10325763092563582,0.060448897900433854,1.1102072069907882,-0.017381834914150393,-0.014520453220572061,1.1265898927509024,0.0,0.0,0.0,0.0
0.024271739381346573,0.19230724842417135,0.6851356891200869,0.0024358286670531307,-0.3891838291683768,0.007933803442600225,0.9211227217995865,0.00910347818667524,-0.5449942739968955,-0.5568026194867779,-0.1069861618324222,-0.4040615401526132,-0.6452850653232954,-0.1001280347693121,0.05475057673407914,1.1084457069816664,-0.005878892776826225,-0.008497706832571778,1.1166006098995573,0.0,0.0,0.0,0.0
0.021931952180489198,0.19129119455891275,0.6847483397503572,0.002605241851671185,-0.38909336746454254,0.007973434833950233,0.9211601318158236,0.018749589020865487,-0.5335180319475206,-0.5511567390873015,-0.103744774076292,-0.4205775407849165,-0.6193654266034895,-0.09695263408014525,0.04933503357149291,1.1055021112077843,0.006307145748094685,-0.0018846653864234356,1.1075241614935167,0.0,0.0,0.0,0.0
0.0197259027725913,0.1902496707967127,0.6843687335328724,0.00278780181735461,-0.3888902223640733,0.007989296029215089,0.921245241105541,0.029856872872543808,-0.5200668471697657,-0.5472509380735839,-0.10042528867411077,-0.4366857220119886,-0.5947863322509264,-0.09381800506537183,0.044249360502617636,1.1020158054811067,0.019676014237682525,0.005763490658835841,1.100609870499381,0.0,0.0,0.0,0.0
0.018009763892267265,0.18923743141020893,0.6841092201228931,0.002944076079396051,-0.3886405071638455,0.007991421688629978,0.921350110320101,0.04207251551487356,-0.5047694925938211,-0.5466683569950622,-0.09721891975954235,-0.4492158665784434,-0.576326348601056,-0.09080604728339307,0.04067297458350241,1.0979626483469929,0.033554891186215685,0.013735334878434213,1.0972568875681121,0.0,0.0,0.0,0.0
0.017032549618833236,0.18846466767207123,0.6840460635763631,0.0030022334682085618,-0.3884157433697319,0.007960685028792791,0.9214449654703276,0.05244374644843184,-0.48970392844921756,-0.5526033796892372,-0.09465472536594223,-0.45599428879363635,-0.566891653831645,-0.08843319422107324,0.03923589364276525,1.094024957517454,0.04500267282370686,0.01903278527416271,1.098629832408058,0.0,0.0,0.0,0.0
0.017033553794071652,0.18838547743230527,0.6840138530889767,0.0030773220996367827,-0.38842581653892844,0.007995538194617796,0.9214401697906057,0.05246494842723538,-0.4896997786593002,-0.5526106486218728,-0.09459508808685585,-0.45610446716010544,-0.5668717472929898,-0.08837022080071985,0.039227712557174235,1.0939845127130967,0.04500117510926788,0.019061988407867096,1.098641995724309,0.0,0.0,0.0,0.0
0.017033553794071652,0.18838547743230527,0.6840138530889767,0.0030773220996367827,-0.38842581653892844,0.007995538194617796,0.9214401697906057,0.05246494842723538,-0.4896997786593002,-0.5526106486218728,-0.09459508808685585,-0.45610446716010544,-0.5668717472929898,-0.08837022080071985,0.039227712557174235,1.0939845127130967,0.04500117510926788,0.019061988407867096,1.098641995724309,0.0,0.0,0.0,0.0
0.016847322520412596,0.18803014378903574,0.6836483215006692,0.0032680620463757764,-0.3883506486755956,0.008021036655725471,0.9214709742659682,0.053440398866354905,-0.4931760121626037,-0.5473721932228149,-0.09376308792389534,-0.4577303156929181,-0.5665641853135316,-0.08781413501681185,0.037385766816995,1.0954539560131005,0.04558039548628569,0.016373293810808678,1.102219703801068,0.0,0.0,0.0,0.0
0.01705760278936589,0.1875326547328337,0.6831690590600782,0.0033883132123210535,-0.38829889952498275,0.008036473776573395,0.9214922132337858,0.0550241415749225,-0.49390184798027204,-0.5473413711786012,-0.09247980533849764,-0.4558735076479067,-0.5730842779430653,-0.0866939226282565,0.0357443453753591,1.0982261239435345,0.0468757103274969,0.013662618487023341,1.107849326621972,0.0,0.0,0.0,0.0
0.01778875844231254,0.1868794286832271,0.6826759533871593,0.003454704462242195,-0.3883401172423562,0.00805943518188971,0.9214743967478535,0.057180718430385864,-0.4905915887634091,-0.5540847896663019,-0.09075072502744116,-0.44937493303943954,-0.5877685721460045,-0.08499410024751294,0.03511324238199618,1.1018329112990237,0.048947515235560006,0.011712576378716711,1.115215724265401,0.0,0.0,0.0,0.0
0.019167435313122875,0.18591805657934538,0.6824430165105311,0.0034831670081592178,-0.38860948057012323,0.008108865461037756,0.9213602907980933,0.060278005292315584,-0.4820592786216136,-0.5677005219263929,-0.0880899632087352,-0.4365524662670289,-0.6120735355179738,-0.08222991106756569,0.037382586595388116,1.1042046274977035,0.052303449472570415,0.01213413434607697,1.1232013077140037,0.0,0.0,0.0,0.0
0.021493088702270444,0.18432328999846945,0.6835277978857418,0.0034990024159374674,-0.3896003206272154,0.00828822952128992,0.92094009164585,0.06471384007842679,-0.4644735731342705,-0.5879136950909034,-0.0835614788194656,-0.4123992567459943,-0.648438843917353,-0.07716406129780283,0.0491604753106969,1.0977303388195154,0.0581919775883101,0.02101053875915067,1.1264732671752924,0.0,0.0,0.0,0.0
0.02362230644571365,0.18240969904766305,0.6837970043560618,0.0039012967466448565,-0.3893075559038587,0.00816743263476965,0.921063352785255,0.0716300628721873,-0.4515268583099491,-0.6078512132520747,-0.06897989650548925,-0.44952421795954695,-0.6079626126369169,-0.06042667693475001,0.04041174999439556,1.098740190072449,0.063168436668231,0.023764356512694727,1.1314406210229957,0.0,0.0,0.0,0.0
0.026273620616239717,0.18058772713495944,0.6842070322800488,0.004230501390808037,-0.38902072614241684,0.008156924492820095,0.9211831750919182,0.07798168452929313,-0.43448509414363135,-0.6350522293289764,-0.053499381895398004,-0.4786233948331314,-0.5880107918099554,-0.04218267711964631,0.03085185404179149,1.1033234561622418,0.06843935154140304,0.028446537896408428,1.1357378720705316,0.0,0.0,0.0,0.0
0.028848264652866693,0.178878512179915,0.684791669828134,0.004516143905426663,-0.3889083175492089,0.00819219682339466,0.9212289687675241,0.08376432052195136,-0.4182068880112345,-0.6594486730043678,-0.039938484322832035,-0.5002457343526162,-0.580044637235421,-0.025602081034807482,0.02238764679476329,1.110451468662463,0.07364719443055989,0.034334837952401887,1.138671054115154,0.0,0.0,0.0,0.0
0.03116169535915727,0.17732467302015556,0.6855148055857972,0.0047640196352427885,-0.3889074391729638,0.008244516874966464,0.921227624322209,0.08889647671803293,-0.40368659779185145,-0.6797564783528406,-0.028755687251906626,-0.5165721917154696,-0.578598642651909,-0.011088789886213932,0.015031021295838385,1.1189987036068099,0.07851419292874944,0.04083850027510876,1.1399221458769617,0.0,0.0,0.0,0.0
0.033117515217234744,0.1759371404035594,0.6863182022157591,0.00498110407622874,-0.38896381334923247,0.00830491122980982,0.9212021325184121,0.09335268934727027,-0.39142805281464954,-0.6956272650263512,-0.019291692317915984,-0.5295011975321529,-0.58069213146627,0.0018325525008808467,0.008304449518898974,1.1281397136607652,0.08291182276544018,0.047381127685536,1.1396645557211427,0.0,0.0,0.0,0.0
0.03469077689586391,0.17472527428794296,0.6871621835641525,0.005173182568651288,-0.3890441202379179,0.00837188855407396,0.9211665550661585,0.09710312853272447,-0.38147281309541864,-0.7073753262798363,-0.010833724205480106,-0.5404039540141764,-0.5846576822869988,0.013690914987737538,0.0017800106749192588,1.137392618503383,0.08675424964752378,0.05363802962536684,1.1381124460642595,0.0,0.0,0.0,0.0
0.03590261268432537,0.1736998644587596,0.6880248523592488,0.005343942986923474,-0.3891304961690832,0.008445943757314205,0.9211284195260745,0.10011899028441934,-0.37358607743401046,-0.7156581817724729,-0.002926321142923332,-0.5501908605116698,-0.5895350069501918,0.02485266954186633,-0.004819165552118817,1.1465299875719994,0.0899790610545912,0.059492827889420126,1.1354352745736744,0.0,0.0,0.0,0.0
0.03679821998178122,0.17287005344385684,0.6888936021660784,0.0054955482772665295,-0.389214738333937,0.00852730960151701,0.921091185173182,0.10238628320609626,-0.3674146359090799,-0.7212427047102892,0.004638565486465599,-0.5594384341548703,-0.5947637759994979,0.03552275386357979,-0.011642685717511241,1.1554781727391523,0.09254744502531742,0.06494605859897547,1.1317764822901881,0.0,0.0,0.0,0.0
0.03743122114019945,0.17224117832670485,0.6897584564443293,0.005629397498774034,-0.3892940440405809,0.008615530736239099,0.9210560405254742,0.10391038888182452,-0.3625877413377044,-0.7248688467283471,0.011914784318342265,-0.5685040019781216,-0.6000221160681039,0.04580271566807379,-0.018758126264182357,1.1642436922298973,0.09444404199828599,0.07004275402118826,1.1272802880229726,0.0,0.0,0.0,0.0
0.037853949212335564,0.17181471104312832,0.6906081464921692,0.005746635575856608,-0.38936814861808294,0.008709692856391987,0.9210231062636985,0.10471230145045984,-0.3587725700058003,-0.7271839244399531,0.01888463480038138,-0.5776080761024316,-0.6051363934044051,0.05574532896476758,-0.026184078975287104,1.1728671859053288,0.09567225128754045,0.07482686091352579,1.1221073107608737,0.0,0.0,0.0,0.0
0.03811212734943024,0.1715896772461585,0.6914276639643941,0.005848352122210289,-0.38943741320080716,0.008808691820171273,0.9209922393404494,0.1048211616322806,-0.35570126520487483,-0.7287201405817156,0.025509712530642555,-0.5868815927777088,-0.6100256913010377,0.06538829060095318,-0.03390488859476486,1.1813949007573779,0.09624635549064711,0.07931395813927722,1.116443457252243,0.0,0.0,0.0,0.0
0.0382423229178019,0.17156473559985938,0.6921961383761155,0.005935529410808222,-0.38950151861180465,0.008911309811100191,0.9209635850820389,0.1042665470172978,-0.35318303715252164,-0.7298947950635218,0.03175563910980136,-0.5963777877594444,-0.6146610417247589,0.07476338473273522,-0.04186903116051799,1.1898558177642744,0.09618270806699233,0.0834730018342665,1.1105089807239334,0.0,0.0,0.0,0.0
0.03827079651582691,0.1717403705977415,0.6928846588093962,0.006008799107603808,-0.3895586558479311,0.009016025552173885,0.9209379236791588,0.10307211785015556,-0.3511101527244715,-0.7310181308226306,0.03760039054274411,-0.6060464137771796,-0.6190260779634361,0.08387762885440216,-0.04997325815083817,1.1982312904091472,0.09549140297554894,0.0872119727820632,1.1045699410856347,0.0,0.0,0.0,0.0
0.038212699103194615,0.17212092795153547,0.6934546248737303,0.00606803127029071,-0.3896054064038451,0.009120506504319156,0.9209167294921415,0.10125093586514158,-0.34946219201744244,-0.7322971188856401,0.04303053302750874,-0.6156678066377654,-0.6230689972764992,0.09265954208295969,-0.05803159841081014,1.2064007386842712,0.0941688439024723,0.09036812537998089,1.09894720887368,0.0,0.0,0.0,0.0
0.038071077495259065,0.17271630773800933,0.693858339912148,0.006111801876591429,-0.3896378606200035,0.009220714905680617,0.9209017112949222,0.09880233833105297,-0.3483075527331454,-0.7338268092111255,0.04802180779652659,-0.624753042935268,-0.6266407858802492,0.10086735247590661,-0.06572246045248954,1.2140414243121067,0.09219113423721079,0.09271077494375851,1.0940098089473074,0.0,0.0,0.0,0.0
0.03783616496851798,0.1735428445990682,0.6940447446594682,0.006136957166893316,-0.3896549145464942,0.009309636514881406,0.9208934335711472,0.09571085235839401,-0.34779283336778566,-0.7355681614549093,0.05249723359097966,-0.6324449702056518,-0.629427157921152,0.10798297505598572,-0.07249683431269138,1.2204539077315517,0.08950896656458057,0.09397301202622711,1.0901320162342478,0.0,0.0,0.0,0.0
0.037487391452806135,0.17462185292492102,0.6939736284709409,0.006139019281038514,-0.38966480753703836,0.009376010503289687,0.920888560378742,0.09195011567854784,-0.3480991360607677,-0.7373274396981322,0.056275003162583964,-0.6375215154992787,-0.6309102899400999,0.11319157105811706,-0.07741856987738445,1.2242818628227137,0.08604794135205036,0.09393407144697716,1.087595695932867,0.0,0.0,0.0,0.0
0.03700290268244423,0.17597203887375304,0.6936375649292075,0.0061152607987091665,-0.38969247565465576,0.009404275581281842,0.9208767222621607,0.0875017023673834,-0.3493436090555577,-0.7387846146898933,0.05910198381303653,-0.6387350260144973,-0.6304798968025311,0.11568856097570358,-0.0789819771660129,1.2232144683699278,0.08172448579358743,0.09255138294090921,1.0864533270832482,0.0,0.0,0.0,0.0
0.03636801975301094,0.17760074196086742,0.6930382983137199,0.006065675841238546,-0.3897385905508142,0.009392608925535423,0.9208576532285682,0.08233561509868345,-0.3516235720521639,-0.7397571776803747,0.06094093495592892,-0.6360905285867482,-0.6281189414106785,0.115435202009342,-0.07718004498859113,1.2172815563766164,0.0765064454454367,0.08982167231202094,1.0866192305790237,0.0,0.0,0.0,0.0
0.035576028406327176,0.1795046245855236,0.692185947158233,0.0059932415220260915,-0.3897806819754169,0.009353321320757406,0.9208407117385223,0.0764043645182883,-0.35501252126179894,-0.740207320320185,0.061995643165896966,-0.6308384112436815,-0.6244198342855499,0.11316766187780619,-0.07351069443145875,1.2088218076238666,0.07041347200753971,0.08578088447240909,1.0878830103074992,0.0,0.0,0.0,0.0
0.034619786648656226,0.18167794854051234,0.6911217661996704,0.005902677377983522,-0.3898134141827942,0.009295311158562561,0.9208280283057148,0.06966589411334526,-0.35951686131858396,-0.7399812248581918,0.062424701087883415,-0.6242045040489683,-0.6198844592224345,0.1096448887343207,-0.06892240217237561,1.1991877348687041,0.06346239249992601,0.08063954715021864,1.0898251834140789,0.0,0.0,0.0,0.0
0.03348265759879792,0.18411841192614192,0.68989669769038,0.005797091101449824,-0.3898401714221647,0.009223926136765308,0.9208180893460566,0.062076513237263396,-0.36517192932526227,-0.7387803940986736,0.06229156632441677,-0.6170567920283072,-0.6148066293501145,0.10534001708890818,-0.06398882964276606,1.1890548342660918,0.05565904311433026,0.07465345575262272,1.091947587173419,0.0,0.0,0.0,0.0
0.03213818879896503,0.18682659771879148,0.6885584876228242,0.0056775954983821555,-0.38986635393423946,0.00914199068147385,0.9208085658733627,0.05359641437029057,-0.37207759074313795,-0.7361850672166029,0.061612452293681105,-0.6099027114053496,-0.6093190980228895,0.10046299528187559,-0.05905488770646307,1.178708127088596,0.04700576788270608,0.06805180683855565,1.0937619495889577,0.0,0.0,0.0,0.0
0.030553350416505712,0.18980293941200835,0.6871476616417191,0.005543877665149906,-0.3898961841014754,0.009051025823277124,0.9207976487671374,0.04419877360155355,-0.38039777018138915,-0.731683269442913,0.060400704345834305,-0.6029894000917918,-0.6034709937149358,0.09507350822172213,-0.0543179248504779,1.1682198183801065,0.03751458831128986,0.06101982080206247,1.0948235818103838,0.0,0.0,0.0,0.0
0.028692679892858185,0.19304363840809743,0.6856988110464262,0.005394871910360174,-0.3899314432857016,0.00895231562945411,0.9207845681477677,0.03388104292334948,-0.39034594980479737,-0.7246918409688364,0.05869037399341491,-0.5964066899206305,-0.5972947451067692,0.08918637146696325,-0.04987361815569692,1.1575517101571837,0.02722242597701448,0.05371150567647983,1.0947300442640373,0.0,0.0,0.0,0.0
0.026522870885319686,0.1965358976201475,0.6842441529944555,0.005229310832271019,-0.38997093108624803,0.008847821811836947,0.9207698101399341,0.022678599643466656,-0.4021655881596432,-0.7145735650678816,0.0565446271270808,-0.5901553798498639,-0.5908529650159438,0.08284826224261532,-0.04574204831243608,1.146613642501087,0.0162076015047387,0.04627425315872513,1.0931075330301243,0.0,0.0,0.0,0.0
0.024018422687935873,0.20025252046727982,0.6828172101420132,0.00504618182436825,-0.39001002713073346,0.008740988702190047,0.9207552931713117,0.010680844172802195,-0.41610610514525853,-0.7006625170200121,0.054053481215534806,-0.5841689782479392,-0.5842656834498015,0.07618996182026153,-0.04187957949073891,1.1353027064251273,0.004607004833841882,0.03887364930330651,1.089603933796154,0.0,0.0,0.0,0.0
0.021169481828859554,0.20414581868362788,0.6814545962426927,0.0048451514176187545,-0.39004019675859236,0.008637378920354802,0.9207445710432645,-0.0019503796511982172,-0.4323907669999637,-0.6823147656434316,0.05131849417136855,-0.5782844909202633,-0.5777200025690407,0.06945679174584564,-0.03817666468542659,1.1235411044045391,-0.007367164430408656,0.03170826550168748,1.0839085770410146,0.0,0.0,0.0,0.0
0.01799347548480758,0.2081402847701705,0.6801922861074873,0.004627040209323879,-0.39004834017715406,0.008544697902118724,0.9207431080174915,-0.014958034846387401,-0.4511712999406559,-0.6590096422866099,0.04842035074393728,-0.5721627415129547,-0.5714715221596259,0.06300697005899715,-0.034437881863258524,1.1113222952972932,-0.019412229084435958,0.024994513756530508,1.0758348804329056,0.0,0.0,0.0,0.0
0.014552605915172366,0.21212135747279848,0.679047091972823,0.004395153795684699,-0.3900117667435329,0.008463292846917197,0.9207604884544556,-0.02791945805522355,-0.4724651126042826,-0.6305470022674586,0.045432238004408675,-0.5651901048698704,-0.5659176167743504,0.057235566207737065,-0.030342452285289638,1.0987634097794325,-0.031136123672974997,0.018857915384656403,1.0655317013753562,0.0,0.0,0.0,0.0
0.010964339284246446,0.21593201091606887,0.6779827472358495,0.004150212009200174,-0.38987840857789224,0.008424603319482818,0.9208184556816604,-0.04042014107446002,-0.4961715930290194,-0.5973996337552104,0.04331353815876733,-0.556760284187425,-0.5616415413219941,0.05250489988792988,-0.025444726144650147,1.0861395150582094,-0.04197451235271508,0.013148296480285399,1.0538179068683415,0.0,0.0,0.0,0.0
0.0077255538769120625,0.21938174781908967,0.6769423943245316,0.003925219761020328,-0.3895991257574264,0.008372168478233796,0.9209381198831161,-0.05161827817141193,-0.5191535154025804,-0.5654904049217266,0.042140652549860894,-0.54648061800191,-0.5591683891865443,0.048920503770778126,-0.01942936453042146,1.0744040572160747,-0.05159082452069273,0.007965528048737798,1.0424743579238096,0.0,0.0,0.0,0.0
0.005088973344647101,0.2221492448851374,0.6760557788206298,0.0037396621744474577,-0.3892246139739607,0.008325971430825222,0.9210976566050829,-0.06058383458886149,-0.539250955094736,-0.5376990104841866,0.04260917510241828,-0.5349245717600869,-0.5598223672093016,0.04687584870892957,-0.013246373180656457,1.0638537905764869,-0.059120234545147546,0.0037793312504218832,1.0325343436042966,0.0,0.0,0.0,0.0
0.0034672059537589894,0.2237915887509773,0.675400536643963,0.003641497209733703,-0.38885965368162634,0.008289600371293383,0.9212525124863222,-0.06590561692928307,-0.5528934687527814,-0.5192355758318814,0.04477691320684431,-0.5245886435458994,-0.565378628616391,0.04633822512603946,-0.00861736046286142,1.055380853224776,-0.06352468628546006,0.0007073368930780722,1.0266190236265071,0.0,0.0,0.0,0.0
0.0035184213444774525,0.2239223151327389,0.6753142994648085,0.0035491202365861307,-0.3888804891359974,0.00822590804985779,0.9212446490219897,-0.0660374384909879,-0.5530691186258766,-0.5191909982605654,0.04477720589747299,-0.5245996699601041,-0.565404948011819,0.04636864025014758,-0.008583448452626494,1.0553828509486092,-0.06367804180021368,0.0007626003855198507,1.0265720315817966,0.0,0.0,0.0,0.0
0.0035184213444774525,0.2239223151327389,0.6753142994648085,0.0035491202365861307,-0.3888804891359974,0.00822590804985779,0.9212446490219897,-0.0660374384909879,-0.5530691186258766,-0.5191909982605654,0.04477720589747299,-0.5245996699601041,-0.565404948011819,0.04636864025014758,-0.008583448452626494,1.0553828509486092,-0.06367804180021368,0.0007626003855198507,1.0265720315817966,0.0,0.0,0.0,0.0
