zhuoxili-jackie/tripod-support-walk/examples/trajectory_tripod_lowstep_v0.15.csv
root_pos_x,root_pos_y,root_pos_z,root_rot_x,root_rot_y,root_rot_z,root_rot_w,FL_hip_joint,FL_thigh_joint,FL_calf_joint,FR_hip_joint,FR_thigh_joint,FR_calf_joint,RL_hip_joint,RL_thigh_joint,RL_calf_joint,RR_hip_joint,RR_thigh_joint,RR_calf_joint,FL_foot_joint,FR_foot_joint,RL_foot_joint,RR_foot_joint
0.0,0.0,0.72963,0.0,-0.5231245161092812,0.0,0.852256264656019,0.0,-0.81,0.872,0.0,-0.81,0.872,0.0,0.65,1.0,0.0,0.65,1.0,0.0,0.0,0.0,0.0
2.920276171414051e-05,-3.40032397576117e-05,0.7296244562467472,-2.8042175887750254e-06,-0.5231294571050971,6.6330622257966385e-06,0.8522532317668647,6.988471907282152e-05,-0.8100762608491552,0.8721604532450804,6.988471907282134e-05,-0.8102117214622192,0.8723976257462849,0.00029037593403428394,0.6500361594994314,0.9999103832418282,0.00029037593403428275,0.6501087094209564,1.0001595476718155,0.0,0.0,0.0,0.0
7.380089081498901e-05,-8.792233988359138e-05,0.7296148307460946,-9.434966933624876e-08,-0.52313974144383,8.205233572013813e-06,0.852246918947055,0.0002005323373634557,-0.8101516041571329,0.8723642816228161,0.0002005423038342903,-0.8105499291365675,0.8730165561160463,0.0006493697745501982,0.650123462229806,0.9997928580357223,0.000649681904635556,0.6502460225915644,1.000416015153048,0.0,0.0,0.0,0.0
0.00012948324921763864,-0.00016342890101333514,0.7296021590764863,6.29119709748055e-06,-0.5231524171894583,6.675405493569555e-06,0.8522391379798787,0.0003920393523043611,-0.8102192027535897,0.8725813617773791,0.00039209109507852677,-0.8110042423095822,0.8738295130173895,0.0011124154965250898,0.6502380990930319,0.9996274206478817,0.0011135624175996287,0.6504050142629664,1.0007656288874727,0.0,0.0,0.0,0.0
0.0001930250924830156,-0.000269888903875032,0.7295878652939936,1.5952999936585013e-05,-0.5231638665154993,2.82076320224316e-06,0.8522321095277378,0.0006663110284003619,-0.8102584043164401,0.8727634782502159,0.0006664765252434664,-0.8115952597839702,0.8748561831097976,0.0017505638410280082,0.6503610953537725,0.9993630801372532,0.0017535809167890043,0.6505807071435347,1.0012237157281705,0.0,0.0,0.0,0.0
0.0002594738916851822,-0.00042337915029241625,0.729574648573407,3.0509720671240537e-05,-0.5231705830690009,-6.888978947882841e-06,0.8522279859479742,0.0010727614114672559,-0.8102090574804106,0.8728095351694657,0.001073203112433641,-0.8123547977668262,0.8761281004903639,0.002640177519914653,0.6504854445273154,0.9989204079438905,0.002647189606035935,0.6507591070381659,1.0018139720966106,0.0,0.0,0.0,0.0
0.0003211963066753545,-0.0006382644720049737,0.7295820514755221,8.299349014702095e-05,-0.5232335561862932,-0.00013524531788611444,0.8521893102482744,0.0019352997219383534,-0.8093501511281757,0.8720468430130857,0.0019365506685136747,-0.8130553412606345,0.8773844193743714,0.002956677317672784,0.6511643828568621,0.9983242366017641,0.0029663470739217674,0.6508511988296657,1.002420177776639,0.0,0.0,0.0,0.0
0.0004905270368051642,-0.0008572651324296053,0.7295569596623939,8.929958495077457e-05,-0.5231829965035556,-0.00012617799954065047,0.852220351947932,0.0024623493611145766,-0.8101169430860683,0.8732819401341845,-0.004808206866708128,-0.8123427714849188,0.8728943232951645,0.004462748525586804,0.651296795335604,0.9975302427183109,0.004482625338411277,0.6512189673080186,1.0031525557263408,0.0,0.0,0.0,0.0
0.000753819901343605,-0.0011660925507339264,0.7295129650906627,0.00012691587446438357,-0.5231611782972891,-0.0002039717293878057,0.8522337260461396,0.0034359415295564374,-0.8108779406385691,0.874864606592306,-0.013556608637644655,-0.8128760205644958,0.8691896109688043,0.0058333090766856145,0.6519112626610983,0.9966637571094374,0.0058688660365370975,0.651635267869217,1.0042441136130713,0.0,0.0,0.0,0.0
0.001060209292075399,-0.0015530666555216822,0.729461815798717,0.00018355007369544898,-0.5231579512126942,-0.0003167856936526949,0.8522356622666826,0.004692774142096982,-0.8115028840680307,0.8764193988697786,-0.022185442227927885,-0.814184011659041,0.8661366032430566,0.0073980590952423386,0.6527467789042399,0.9956249989263639,0.007456256614026612,0.6521240326877807,1.0056235072097683,0.0,0.0,0.0,0.0
0.0013900763498096776,-0.0019960757498132175,0.7294065004598045,0.00025059146573233707,-0.5231616570396167,-0.00044100124264518167,0.8522333150759737,0.006117829633600202,-0.8120467992286914,0.8779255631078257,-0.030040453908451017,-0.8158713822597966,0.8634771343763553,0.009211346097270187,0.6536688338520694,0.9944287986608166,0.009302467964515934,0.6526743216196732,1.0072039775686124,0.0,0.0,0.0,0.0
0.0017424169055577396,-0.0024797152663627747,0.7293460154721682,0.0003242332174651371,-0.5231681972970017,-0.0005674845146736398,0.852229200491952,0.007649683911211513,-0.8125872723936403,0.8794693189913567,-0.03712367451712605,-0.817707688047657,0.8610549522517755,0.011251250539193444,0.654637921360718,0.993118427122585,0.01138868518406383,0.6532907638914139,1.0089422688584846,0.0,0.0,0.0,0.0
0.0021252404121839116,-0.002998772495459729,0.7292776339433097,0.00040426313094541735,-0.5231763548627781,-0.0006952971225220511,0.8522240637565504,0.009273079300518133,-0.8131955980935041,0.8811621301260788,-0.04363548608880736,-0.8195590649716498,0.858782107392674,0.013491188121911288,0.6556611755119881,0.9917243554044859,0.01369124988936569,0.6539836261673303,1.0108344978633041,0.0,0.0,0.0,0.0
0.0025503226017523036,-0.0035568268966065307,0.7291978969875395,0.0004929501858108269,-0.5231850845161482,-0.0008275962678030882,0.852218539709365,0.011004970164464582,-0.8139321403734744,0.8831109385454156,-0.04976189824679655,-0.8212985624394872,0.8566248848106901,0.015923610663175602,0.6567636272913192,0.990254107906814,0.016205947148371976,0.6547628011181131,1.0129050159092121,0.0,0.0,0.0,0.0
0.0030305356596639567,-0.00416338983299987,0.729103014548365,0.0005942096290874409,-0.5231924595029898,-0.0009694354633562865,0.8522137979574207,0.012881862996999158,-0.8148479367221144,0.8854097381856998,-0.05560665736759898,-0.8227248292186105,0.8546120004846175,0.018559770738297975,0.6579743202021523,0.9886958648612637,0.01894840253589541,0.6556348796519713,1.0151950275274921,0.0,0.0,0.0,0.0
0.0035785806753807093,-0.004831092638999372,0.7289894000210795,0.0007130755290533221,-0.5231957996837646,-0.001126950178305165,0.8522114624316265,0.014950859804725642,-0.8159837786986719,0.8881367059809043,-0.061196675926892916,-0.8235124231146732,0.8528509567455439,0.021419035359414283,0.6593241545083678,0.9870234853880524,0.021943722474983846,0.6566040352288572,1.0177501017486623,0.0,0.0,0.0,0.0
0.004206904828230462,-0.005573970881413963,0.7288548676303993,0.0008556619523682883,-0.5231929222470759,-0.0013076488458812119,0.8522128396167733,0.01726615606997864,-0.8173617220856995,0.8913500485261372,-0.06651764455283372,-0.823239631768826,0.8515230636339615,0.024515732228545653,0.6608563431534736,0.9851941325490711,0.02521322873922978,0.6576795106562124,1.0206055896295638,0.0,0.0,0.0,0.0
0.004929166823135595,-0.006408813894718336,0.7287001971613238,0.0010301078527233318,-0.5231839435907444,-0.0015218015534268217,0.8522178032443822,0.01989565665715675,-0.818969429529093,0.8950812584835803,-0.07155250593478332,-0.8215787871184975,0.8507823706198704,0.027854061275205306,0.6626475773024666,0.9831324596999576,0.028769226901856477,0.6588885257905484,1.0237774056139322,0.0,0.0,0.0,0.0
0.0057607886125875035,-0.007362696131950774,0.7285249001870503,0.001246788002422246,-0.5231600870240485,-0.001781164123542194,0.8522316564872675,0.02293726979363649,-0.8208248204698456,0.8993807380988987,-0.07633049268213322,-0.8187569310666414,0.8502933793953922,0.031483949218880876,0.6647548533425859,0.9807166814992523,0.032674346538411184,0.6602355543837775,1.0273025496835935,0.0,0.0,0.0,0.0
0.006713446674646757,-0.008459612977508944,0.7283340980532831,0.0015173910247423099,-0.5231142453950746,-0.002100383936667744,0.8522586298633404,0.02648896828342615,-0.8228928770556739,0.904241779567101,-0.08097841953091883,-0.8150696730793243,0.8496376082308602,0.035406977937706655,0.6672686904702941,0.9777904749029409,0.03694350628120848,0.6617362269578702,1.0311579756728135,0.0,0.0,0.0,0.0
0.007787263074363259,-0.009708836110735647,0.7281391487438014,0.0018524195974188517,-0.523038880531634,-0.0024946859043685787,0.8523031588209026,0.030613860744629743,-0.825092598040383,0.90958697079814,-0.08577377054696256,-0.8106589100499098,0.8483440363333442,0.03952392671921594,0.6702840795865944,0.9742002348646388,0.04148452328338403,0.663389207978268,1.035225021097438,0.0,0.0,0.0,0.0
0.00896201852382093,-0.011088499772500647,0.727955325108356,0.002256437032809502,-0.5229290977809693,-0.002972753758134599,0.8523680131967599,0.035280368951066024,-0.8273048171234337,0.915252720379248,-0.09117433557855546,-0.8054279058861661,0.8458088469835398,0.04359445157371162,0.6738526222633422,0.9698865834047697,0.04604669277682424,0.6651539316780168,1.0392846346790596,0.0,0.0,0.0,0.0
0.010179300248699709,-0.01251313060136284,0.7277814862177584,0.0027243819631615537,-0.5227845877732434,-0.003532212331383693,0.8524531517952906,0.04026702403788091,-0.8294406241477547,0.9209861070854324,-0.09776345700008425,-0.7990324947804666,0.8411073822853963,0.04706342440455427,0.6778278084652282,0.9652195833917758,0.050016869366797806,0.6667878005122356,1.0431300876627962,0.0,0.0,0.0,0.0
0.011291248863327188,-0.013776653047861616,0.7274845219091781,0.003225461713023673,-0.5226091958100038,-0.004127447737778749,0.8525562673669879,0.04494042519740456,-0.8317965279231879,0.9264234147377499,-0.10612499402676329,-0.790935070305323,0.8324914350050902,0.04898661058911584,0.6810427326732076,0.9623282012890498,0.052314268611089315,0.6672105226526301,1.0475073315360277,0.0,0.0,0.0,0.0
0.012180118902727244,-0.014714850293009219,0.727114492495222,0.003749442255873203,-0.5223859827222442,-0.0047214660185631654,0.8526878294526788,0.04877157461544096,-0.8342667261951459,0.9312260216984848,-0.11585613189016003,-0.7801719553865665,0.8171965580839037,0.04846836229350357,0.6832960892781353,0.961477298868015,0.05188351044649073,0.666150878722632,1.0516159767313584,0.0,0.0,0.0,0.0
0.012668425396440539,-0.015102355930638281,0.7267663999255621,0.004262338039934024,-0.5220686248696329,-0.005185532528259815,0.8528770683126392,0.050826148950324876,-0.8368638162322338,0.9350140461000845,-0.12478438138078701,-0.765680536855148,0.7915354243036862,0.044884231644010134,0.6841062951575543,0.9626554927745733,0.04799811976555965,0.6634721562828159,1.054193228406074,0.0,0.0,0.0,0.0
0.012692055954027542,-0.015133285953961729,0.7267571437429359,0.004298215979839853,-0.5220579559752372,-0.005186346682307669,0.852883413926217,0.050899565784939725,-0.8368761554890121,0.9350467035154857,-0.12479354531659442,-0.765656635268333,0.791534064512868,0.04486097022130051,0.6841558825725654,0.9625717330938397,0.048009690798163286,0.6634602140999311,1.0542972682736231,0.0,0.0,0.0,0.0
0.012692055954027542,-0.015133285953961729,0.7267571437429359,0.004298215979839853,-0.5220579559752372,-0.005186346682307669,0.852883413926217,0.050899565784939725,-0.8368761554890121,0.9350467035154857,-0.12479354531659442,-0.765656635268333,0.791534064512868,0.04486097022130051,0.6841558825725654,0.9625717330938397,0.048009690798163286,0.6634602140999311,1.0542972682736231,0.0,0.0,0.0,0.0
0.012713722862074677,-0.015576446231128192,0.7276595919486532,0.003591874262268613,-0.5219635456354708,-0.004432487686564883,0.8529487138860344,0.050382812304168606,-0.8359800694125675,0.9347844583777678,-0.12518276990187466,-0.7621683287706312,0.7908962541786623,0.028988371904251856,0.6773502449419023,0.9831283618572527,0.061624669391311115,0.6709827613695349,1.048376189772181,0.0,0.0,0.0,0.0
0.012783451416281571,-0.016255079656369412,0.728734261159916,0.0031174714494809548,-0.5218798791655794,-0.0039056072550706596,0.8530043489489669,0.050929212943785836,-0.8333351019332703,0.9330977097244653,-0.1245143335185272,-0.760020958998435,0.7925234880446308,0.01426808274179073,0.6731927296863108,0.9985298740860368,0.07389078074181796,0.6786673027176937,1.041279407403427,0.0,0.0,0.0,0.0
0.01289143377815748,-0.017095818610665565,0.7297618365798206,0.002842960095807929,-0.5218098617767969,-0.0035958937214234845,0.8530495034162543,0.05235917551542753,-0.8298146203042015,0.930501983339905,-0.12300650628962828,-0.7594825594242062,0.7961099319899367,0.0030435755887944383,0.6704447039767599,1.010167816398449,0.08450433330388447,0.6855355243543488,1.03474233625599,0.0,0.0,0.0,0.0
0.01302225932381003,-0.018024105053344584,0.7307003619488347,0.002694657082621766,-0.5217460422610622,-0.003421521075412035,0.8530897370157816,0.054303982434610994,-0.8259645526451366,0.9274474433919987,-0.12102071874788177,-0.7600751602016615,0.8009010200907282,-0.005735590069376113,0.6685914215614559,1.0195527154371982,0.09397516279456872,0.6916086595230372,1.0290316956079597,0.0,0.0,0.0,0.0
0.01316384057207409,-0.018983311107048567,0.7315481536746891,0.0026190409755215836,-0.5216807764933564,-0.0033214062339543,0.8531302809784015,0.05648482883267197,-0.822110907009832,0.9242460942450842,-0.11882325104382929,-0.7613624036083698,0.8062985042294308,-0.013095287230727889,0.667346045848959,1.0275997588042443,0.10267193020153768,0.6970192343181328,1.024078209376898,0.0,0.0,0.0,0.0
0.0132780326441947,-0.019917953327864134,0.7323082755882112,0.0025771694178411287,-0.5216097506163125,-0.0032565614848711257,0.8531740860264541,0.05867565679358178,-0.8183596725397416,0.9208947898370669,-0.11661830731010091,-0.7628188895667188,0.8114877757194667,-0.01981715507126714,0.6664378016408922,1.0347589633055074,0.11068959293504407,0.7017573545088018,1.0197790307461168,0.0,0.0,0.0,0.0
0.013326446951994949,-0.020789799257881374,0.7329829337266909,0.0025431875564872557,-0.5215315491018805,-0.0032001979165396112,0.8532222068264165,0.06071980459859583,-0.8147182154091805,0.9172727662757797,-0.11454410712612305,-0.7640243082112634,0.8157966293097672,-0.026354879880590393,0.6656724669705837,1.041157504843108,0.11806865575626294,0.7057748644965652,1.016080964000595,0.0,0.0,0.0,0.0
0.013306124938153622,-0.021606033310102687,0.7335719870747647,0.0025092189070970447,-0.5214420918726698,-0.003144288055458542,0.8532771894856647,0.06262019620805959,-0.8112083975591827,0.9133754577696646,-0.11260001290409129,-0.7649969738677614,0.8192564345675574,-0.03293667233485719,0.6650536288437905,1.046701826510752,0.12496148332058142,0.7090836739228538,1.0130225154419665,0.0,0.0,0.0,0.0
0.01321067697293654,-0.022389323044557756,0.7340737083337545,0.00247133283600702,-0.5213355691142375,-0.0030850478343983395,0.8533426037472917,0.064427667884848,-0.8077927778282298,0.9090969074272001,-0.11073781966301033,-0.7658119327852463,0.82196034819836,-0.0397741662732706,0.6647021978833251,1.0509794749880823,0.13158420643283453,0.7116690701566948,1.0106961295173456,0.0,0.0,0.0,0.0
0.01302409350878804,-0.023170986522121628,0.7344866972333793,0.002425000552284663,-0.5212008960056718,-0.0030182054424156414,0.8534252373882049,0.06621309960771594,-0.8043913483239866,0.9042264507266512,-0.10888730078996632,-0.7665437175497682,0.8239665728641219,-0.04714803041448384,0.6649293409818012,1.0531078613431335,0.1382154312569878,0.7134786109200317,1.0092143574439176,0.0,0.0,0.0,0.0
0.012733527641235132,-0.023989658163616583,0.734823639524643,0.002366626370695591,-0.5210234851446904,-0.002941116104063369,0.8535339927872613,0.06806866478407786,-0.8008862081105433,0.8985394724006562,-0.106956405309729,-0.7672838901201305,0.8254001150228139,-0.05538691600782086,0.6663849739768649,1.051683863865005,0.1451579488443874,0.7145219014260982,1.0085648633869067,0.0,0.0,0.0,0.0
0.012353426805166799,-0.024888556180438483,0.7351256479936044,0.002301383323562579,-0.5207917786941968,-0.0028575594810092185,0.8536758525536173,0.07010917680898704,-0.7971417109421766,0.8919631612585415,-0.10483367852612761,-0.7681994350632224,0.8266491693858433,-0.06434731578680894,0.6684285391116009,1.0482179590458764,0.1526443895851396,0.7150099282005051,1.0084486058805984,0.0,0.0,0.0,0.0
0.011881024537766112,-0.025891803993497317,0.735445796201205,0.0022240599613895864,-0.5204898616759757,-0.0027587521550508,0.8538604960626524,0.07237098698588955,-0.7930115262449225,0.8843709366109364,-0.1024766427962105,-0.7692460833604798,0.8277884305572301,-0.07413848017705196,0.6707031308376676,1.043728039058237,0.1608834051984296,0.7151647634740966,1.0084146867076824,0.0,0.0,0.0,0.0
0.011307756166002877,-0.02701840520973865,0.7358294588288183,0.0021190712269418682,-0.5200896522551953,-0.002625634596751731,0.8541050106381354,0.07485863849429109,-0.7884622257803394,0.8757045060999048,-0.09987803719323776,-0.7703892679356608,0.8288526822674884,-0.08542454934690974,0.6730614983905798,1.0389110106255284,0.1701509591816287,0.715146231777808,1.0080510703681043,0.0,0.0,0.0,0.0
0.010626472381788975,-0.02827644736681087,0.7363025768214103,0.0019554378953095812,-0.5195505641354105,-0.002423391386746687,0.8544340318265659,0.07752219813925357,-0.7836860460833871,0.8661106096867248,-0.09709411011915767,-0.7716460857937812,0.8298871133516786,-0.0998122734174671,0.6755355377405778,1.0343966809636445,0.1808223550049264,0.7150354865284975,1.007067743023208,0.0,0.0,0.0,0.0
0.009842912322897298,-0.029645412703208425,0.7368503826377865,0.0016789123248650824,-0.5188172082720686,-0.0020924271030349217,0.8548809901986363,0.08020034774638708,-0.7793288905958834,0.8562223744704633,-0.09431189967809103,-0.7731455620320811,0.8310019425590649,-0.12041220041767087,0.6784575899161838,1.0309515281396804,0.1933623381156197,0.7147853191188086,1.0054276570504987,0.0,0.0,0.0,0.0
0.00896193699029913,-0.03101701907979358,0.7373710625488982,0.0012038453410461837,-0.5178251407542984,-0.0015385267614967213,0.8554842530956313,0.08245566205777591,-0.7767567173435416,0.8473981975520556,-0.09201698397379561,-0.7749632303359979,0.8319605081021573,-0.15212985461021744,0.6825543470245907,1.0295879396582053,0.2079935009566005,0.713960195353034,1.003643268609417,0.0,0.0,0.0,0.0
0.008042730213123241,-0.032162433274379905,0.7375615429850263,0.0004664534239952268,-0.5165054909878555,-0.000638414059465305,0.8562835118277627,0.08348863697948467,-0.7786995739757091,0.8425370205412792,-0.09112406801862698,-0.7777695871590139,0.8328764400249438,-0.1982869371327005,0.6885922626461153,1.031144443046489,0.22420593008562179,0.7113085697769156,1.0037123897917422,0.0,0.0,0.0,0.0
0.007144914527846146,-0.032940217974058154,0.7368682322863762,-0.00020654133031144698,-0.5150372855264199,0.00020678497313267365,0.8571677251846518,0.08381381094375523,-0.785346448785119,0.8417164654462815,-0.0911812725714503,-0.783510855606266,0.8346913100398158,-0.24520907815964,0.6916629974523345,1.0375003229753739,0.2363064921656235,0.7035004455063114,1.0104145622287155,0.0,0.0,0.0,0.0
0.0071491768532892085,-0.03295787771937431,0.7368583966071947,-0.00022947357210615718,-0.5150387378127445,0.0002274910990907779,0.8571668414853287,0.08380948815822668,-0.7853709441901623,0.8416706013922858,-0.09118582040278093,-0.783510560886443,0.8347184131673157,-0.24522599543629614,0.6916639088379575,1.0375009517806602,0.23633152584801922,0.7034595980913864,1.0103692792028982,0.0,0.0,0.0,0.0
0.0071491768532892085,-0.03295787771937431,0.7368583966071947,-0.00022947357210615718,-0.5150387378127445,0.0002274910990907779,0.8571668414853287,0.08380948815822668,-0.7853709441901623,0.8416706013922858,-0.09118582040278093,-0.783510560886443,0.8347184131673157,-0.24522599543629614,0.6916639088379575,1.0375009517806602,0.23633152584801922,0.7034595980913864,1.0103692792028982,0.0,0.0,0.0,0.0
0.007279814058458122,-0.03321076014389753,0.7370536804019162,-0.0002054815784649724,-0.5159433616942257,0.00020476262581798046,0.8566226493464022,0.08431452639591115,-0.779215645033382,0.8360915668962833,-0.09032578030916785,-0.7790628961363117,0.8317329548132554,-0.24631017138372288,0.6961504148069406,1.0368867201053809,0.24038189838067814,0.708057135911494,1.0109762385904724,0.0,0.0,0.0,0.0
0.007414747681041066,-0.033520708756960296,0.7371580788494637,-0.0001498238748511097,-0.5165314086390156,0.00014512542268949134,0.8562682175468225,0.0851088519053653,-0.774943937495637,0.8321415112905276,-0.08932734828956543,-0.7770910691527457,0.8311583331779373,-0.24662404883884387,0.6992205524088977,1.0362691046311672,0.24380412915061048,0.7111321551058699,1.0118839091262368,0.0,0.0,0.0,0.0
0.007533800336300782,-0.03383868855890444,0.7371898261450699,-8.200428294885061e-05,-0.5169068477331819,6.933197391683547e-05,0.8560416457363041,0.08600128844233892,-0.7720085019707144,0.829309255559173,-0.08832400679027248,-0.7766041373563954,0.8318722320982088,-0.24647740506922947,0.7011949001093245,1.0358577804388878,0.24659977779084766,0.7130479159536607,1.013046515990619,0.0,0.0,0.0,0.0
0.007715949396488627,-0.03424047667825667,0.737129169579322,4.188595022391829e-06,-0.5171630290640938,-2.3741476944880923e-05,0.8558869088775977,0.08717885077934895,-0.7701008144662431,0.8275290297440197,-0.08712433254489989,-0.777773170026799,0.8345530001071684,-0.2457435007008192,0.7025514213138823,1.035762748018338,0.24969233899676785,0.7143636975443711,1.014967752865146,0.0,0.0,0.0,0.0
0.00804542694263532,-0.03484621345378999,0.7368961103102647,0.00012473394977524473,-0.5173790373720524,-0.00014093036621369706,0.8557563299608376,0.0889569356775926,-0.7690504211616322,0.8267159148279845,-0.0854275792332567,-0.7812226455959498,0.8403268348259219,-0.24407297309271625,0.7034727145697416,1.0364781783785142,0.2543651537363925,0.7153905108291612,1.0187753980281713,0.0,0.0,0.0,0.0
0.008514109010156761,-0.03575773422458344,0.736241187158602,0.00023140304610433737,-0.5176716530955398,-0.00026268002618119995,0.8555792990910692,0.09157443908339546,-0.7687236165160086,0.8260986057409132,-0.08299143714246082,-0.7871579539075257,0.8491067759776081,-0.2406890556430827,0.7030783347713614,1.040213161937384,0.2626420355649276,0.7157143582628248,1.0272659115450073,0.0,0.0,0.0,0.0
0.009314401653278709,-0.03704518204078961,0.7366054509270363,-0.0005754647164950878,-0.5184637815876367,0.0007165102677749263,0.8550990952136738,0.0926843979523025,-0.7664626406132911,0.8257034508384462,-0.08180259562879612,-0.7860350622729252,0.8552943092069356,-0.21976240674009484,0.7053477092215396,1.033703810114484,0.20336213654784838,0.7038049739311667,1.0235651814544808,0.0,0.0,0.0,0.0
0.010167691682448866,-0.038499377325132395,0.7365311486127457,-0.0013093791085710222,-0.5192589929455955,0.0015893349580321985,0.8546144497876613,0.09450565771276005,-0.7650331948164198,0.825416889047498,-0.07999661293248536,-0.7873239071301507,0.8636278746506892,-0.198880686167749,0.7059690520419648,1.030488864760493,0.15073447984176144,0.6933467950192657,1.022496688773756,0.0,0.0,0.0,0.0
0.011015079452974074,-0.039889807478034646,0.7363190994731433,-0.0017540611804373696,-0.5198765086398875,0.0021297644524217213,0.8542369713007939,0.09690386371084372,-0.7641146567052237,0.8256183045265424,-0.07769544338378721,-0.7909354651653905,0.8736928228168361,-0.1825046090050528,0.7065664695181837,1.028386366371655,0.11598281295059522,0.6863950583267279,1.0239812583690375,0.0,0.0,0.0,0.0
0.011758565232877377,-0.04113136260473628,0.736097643453944,-0.0020044987189181134,-0.5203338758087442,0.002443968909885522,0.8539570637255153,0.0994131547355248,-0.7632872184310558,0.8257156552809525,-0.07530050175919653,-0.795232636188413,0.8834763053047139,-0.1698343302014149,0.7071850701961155,1.0266422656018828,0.09364808948829134,0.6816423812476256,1.0271482176042994,0.0,0.0,0.0,0.0
0.012378555432465835,-0.042207666116114505,0.7359157040289619,-0.0021538652703453165,-0.5206745022034446,0.0026355878669717435,0.8537484859700706,0.10176308489262198,-0.7624450698096392,0.8255805783068358,-0.07305167105292931,-0.7993284531190287,0.8921220843541314,-0.1597099742987362,0.7077775020817761,1.0249603025459817,0.0781739790863028,0.6780190094899371,1.0312341029568892,0.0,0.0,0.0,0.0
0.012887907145071329,-0.04313767201092666,0.7357824437017152,-0.0022576482900639634,-0.5209345254016172,0.002767508557382756,0.8535891659136584,0.10386543663399962,-0.7615797151229458,0.8252318504501143,-0.07102894572430073,-0.8029194606905697,0.8994965655852837,-0.15124364836595214,0.7083023607073372,1.0232473021195025,0.06611564953198645,0.6749358195719258,1.0356993238116845,0.0,0.0,0.0,0.0
0.01330725708835371,-0.043952453393979844,0.7356830749958685,-0.002343589780879234,-0.5211398803554166,0.0028728315205460387,0.8534632268171463,0.10572848463469416,-0.7607175991217925,0.8247097325376707,-0.06922639423696723,-0.8060058746973011,0.9057643728457591,-0.1438372313607964,0.7086982303725098,1.0215647964472667,0.05566951641934369,0.6721277981896157,1.0401303260836334,0.0,0.0,0.0,0.0
0.013656215471165443,-0.04468229762683458,0.7355858662261077,-0.0024237445190592568,-0.5213077769324652,0.002968205994256279,0.8533601331943115,0.1073950555012933,-0.759926330753602,0.824068322010824,-0.06760885084580028,-0.8087327688664456,0.911181522266695,-0.1371096281524512,0.7088580871955604,1.020116909503747,0.04601469523631478,0.6695363429346435,1.0441078990220534,0.0,0.0,0.0,0.0
0.01393664511112668,-0.04536277514066752,0.735447227982114,-0.0024999005776276295,-0.5214487845770687,0.0030576580823434953,0.8532734416863397,0.10894613601324665,-0.7591952999848738,0.8231676216384608,-0.06609960019620262,-0.8112819014562898,0.9159303632573931,-0.13077505680521287,0.7085811189422391,1.0192131769361998,0.0368989489348965,0.6672444630177335,1.047028907389761,0.0,0.0,0.0,0.0
0.014133405419773232,-0.04603134133824404,0.735219071208386,-0.0025678405874447717,-0.5215673438524098,0.003137552335535115,0.853200485106989,0.11048115041625753,-0.7584403216695234,0.8216984351075692,-0.06459894135424714,-0.8138265174410367,0.9200905662526533,-0.12460887451574054,0.7075957296002472,1.0192103105083787,0.02842296877471029,0.6655515052803843,1.0479165728525845,0.0,0.0,0.0,0.0
0.014237034856657218,-0.046715510645228844,0.7348668052212741,-0.002623677507791292,-0.5216636718981916,0.003206266061127189,0.8531411662767049,0.11207052789761363,-0.7576209584654235,0.8194618498860832,-0.06303731140255622,-0.8165154000901179,0.9237492166809712,-0.11844215312674573,0.7057003862447043,1.0203522300672128,0.02084142323996759,0.6651420940335925,1.0453221053474384,0.0,0.0,0.0,0.0
0.014254063350940569,-0.04744370183560007,0.7343869454256495,-0.00267109076929436,-0.521743108615339,0.0032665362433083036,0.8530922128512696,0.11378026396379423,-0.7566668423524665,0.8163541860673518,-0.06134737782828437,-0.8194256685262521,0.9270524969380407,-0.11201685112457985,0.7028797475090586,1.0225790409807294,0.013816424923149065,0.6653514617879864,1.0406002052993353,0.0,0.0,0.0,0.0
0.014190024806899414,-0.048238151358856556,0.7337915347222455,-0.0027163630606062746,-0.5218079532925384,0.003324718717926282,0.8530521833380545,0.11565197440847735,-0.7554979630486278,0.8122900361681759,-0.05948409175518277,-0.8225674098184006,0.9300915264240475,-0.10506698061190316,0.699167595033121,1.025694834529644,0.007044960981711901,0.665859455333747,1.0345529391408437,0.0,0.0,0.0,0.0
0.014044288884571555,-0.04910680804853806,0.7330940522450909,-0.0027692035534097963,-0.5218580636812908,0.0033908284408292327,0.8530210988978986,0.1176832526171569,-0.7540670921251834,0.8072122644806246,-0.05744576913872539,-0.8258785347200402,0.9328380571752757,-0.09738791220199866,0.6945753614421161,1.0295297780771882,0.00027618833592122846,0.6665626144557933,1.0275111972996167,0.0,0.0,0.0,0.0
0.013841241118010038,-0.05001602202819243,0.7323063592459941,-0.0028499300492674604,-0.5218926414356698,0.0034877608496644637,0.8529992873609387,0.11974890055469702,-0.7526485873728419,0.8015880335364551,-0.0553684753143716,-0.8292771234021503,0.9353020308441267,-0.08896251704213182,0.6891780177740853,1.0340112502754837,-0.006873425798602007,0.6675667962967584,1.0194957154038413,0.0,0.0,0.0,0.0
0.013634496758152826,-0.050890514150847686,0.7314390255005643,-0.002994106845697773,-0.5219073271220476,0.0036562995004402778,0.852989102330434,0.12159361936167305,-0.7519114705964818,0.7965127449661176,-0.0535382899931538,-0.8326855052094843,0.9375796579776859,-0.07987581810902548,0.6830941265062188,1.0391492312609554,-0.015106005604361091,0.6691417453363081,1.0102047589745842,0.0,0.0,0.0,0.0
0.013429005593020571,-0.05167634354024267,0.7305081028161008,-0.003250834169698569,-0.5218923847223018,0.003964001629395036,0.8529959305513434,0.12294054971443688,-0.7523065909585132,0.7925814350051331,-0.0522472816181909,-0.8357990979435729,0.9393756564700997,-0.06969764643582546,0.6761638879328984,1.0448647245912532,-0.025084276770661683,0.671490810643464,0.9988788165873842,0.0,0.0,0.0,0.0
0.013239196776085645,-0.052309213922500444,0.7295618889087823,-0.0036898714998237843,-0.5218231725393216,0.004511114121518503,0.8530337691432238,0.12341443309103943,-0.7544726062872027,0.7906928958489245,-0.05189315297910388,-0.8382306220023783,0.9404180189561411,-0.05770306342667579,0.6682425097955439,1.0507553600665458,-0.03733427369196259,0.6750447610892156,0.9842447749759038,0.0,0.0,0.0,0.0
0.013091386848599068,-0.0527286535622967,0.7287891406718936,-0.00434807709568828,-0.5216920453321986,0.005311544305503224,0.8531062604152942,0.12283651230156753,-0.7583242069431115,0.7913398748482774,-0.052637862526030595,-0.8393222557061288,0.9404398650962357,-0.04406122470588425,0.6602026754383196,1.0552781104856235,-0.0496660437003353,0.6809531969382333,0.9651793358552514,0.0,0.0,0.0,0.0
0.01309474610740745,-0.05273743357418817,0.7287779173341993,-0.004356608598832041,-0.521697066808502,0.00531680456823682,0.8531031133656148,0.12284526868814967,-0.7583207414533486,0.7912963672132324,-0.052626360038214304,-0.8393353653559676,0.9404579279021125,-0.044049913808435794,0.6601731880413803,1.0552756931502163,-0.049669726896757097,0.6809501521635447,0.9651722965750167,0.0,0.0,0.0,0.0
0.01309474610740745,-0.05273743357418817,0.7287779173341993,-0.004356608598832041,-0.521697066808502,0.00531680456823682,0.8531031133656148,0.12284526868814967,-0.7583207414533486,0.7912963672132324,-0.052626360038214304,-0.8393353653559676,0.9404579279021125,-0.044049913808435794,0.6601731880413803,1.0552756931502163,-0.049669726896757097,0.6809501521635447,0.9651722965750167,0.0,0.0,0.0,0.0
0.01259693109902618,-0.052993229100818905,0.7291146931086271,-0.0037584325899067883,-0.5222625126943012,0.00467359130478281,0.8527636833044766,0.11218314363463723,-0.7741988228099541,0.8200111550546354,-0.05044493442833789,-0.8353731013636957,0.9350188893261865,-0.05102714473454174,0.6643186769101274,1.0537848687877989,-0.056013641918154666,0.6800136642731492,0.9638565722679875,0.0,0.0,0.0,0.0
0.011650916191603019,-0.05388143276317642,0.7294955268095371,-0.0032257038096792233,-0.5226308611568607,0.004016201047176767,0.8525435167371335,0.10044454455514022,-0.7858969665309642,0.8368271712095546,-0.046551420048121094,-0.8317311869352011,0.9287317688993827,-0.052572037126576446,0.6659681974528101,1.0500849472249383,-0.05738471951151017,0.6777981007224062,0.9646830025913115,0.0,0.0,0.0,0.0
0.010474263915496822,-0.05521094090198868,0.7298231413959541,-0.002737596735659378,-0.5228542913995478,0.0034099012703450882,0.8524108563964423,0.09046410593998117,-0.7943387039174281,0.8459139031349842,-0.041662472729035165,-0.8288379424957749,0.9226073822018819,-0.049820733055703385,0.6655848859672904,1.0453795683828944,-0.05495417855103408,0.6746838881769835,0.9677092824790462,0.0,0.0,0.0,0.0
0.009173350478028794,-0.056783780353748405,0.7300271865139645,-0.0022831653151201797,-0.522997421688217,0.0028646476745452774,0.85232639162314,0.08288719259146479,-0.8007704090333209,0.8506403217083403,-0.0363279106043646,-0.8265199327526624,0.9165663809402477,-0.04452520175924459,0.6636438557627371,1.0408475038320688,-0.050225959090501926,0.6707303142036974,0.9727847400429558,0.0,0.0,0.0,0.0
0.007895629992289686,-0.058352921154691734,0.7302309056888888,-0.0018823812894258603,-0.5230886721654041,0.002401745818180405,0.8522728021648588,0.07707137029741114,-0.8059383278766294,0.8530459161294117,-0.03122229124081418,-0.8242523919054264,0.9106529008718839,-0.0384335534741433,0.6614272152070455,1.0360290040195017,-0.04468150296485385,0.6670442157399902,0.9777110543277635,0.0,0.0,0.0,0.0
0.006716223468469025,-0.059789719426191996,0.7304490870014203,-0.0015427960475379848,-0.5231430580385803,0.0020192370082744732,0.8522410945784664,0.07223551315689526,-0.8103413742703822,0.8541626821197918,-0.026662339504059343,-0.8219745962541215,0.9050129799212038,-0.03252714269510503,0.6593866287323791,1.031155959677246,-0.03919446858757836,0.6638973415325473,0.9818343909991875,0.0,0.0,0.0,0.0
0.005665899886139717,-0.06104947284442967,0.7306634437924596,-0.0012616085530653678,-0.5231731096642213,0.0017049883529628323,0.8522237961256678,0.06775918032711528,-0.8142248540841353,0.8545939946486696,-0.02272616451487029,-0.8197801818430179,0.8998013936093899,-0.027220396398476655,0.657616329417462,1.026560993508131,-0.03417442299749734,0.6612529910999737,0.985171303492752,0.0,0.0,0.0,0.0
0.004751502940401965,-0.062132226464062044,0.7308596660274617,-0.0010313878241324096,-0.5231876161812938,0.0014449868989793173,0.8522156807560824,0.06324348864101502,-0.817589370600744,0.8547509355371977,-0.019374185524675628,-0.8177687520994606,0.895135108233351,-0.02261228810762342,0.6561100929170863,1.0224239614700117,-0.029751183016368005,0.6590271546862657,0.9878792593070048,0.0,0.0,0.0,0.0
0.003964699794578299,-0.06306056922922566,0.7310311017918711,-0.0008430618551942846,-0.5231918114764799,0.001226399661791017,0.8522136548979589,0.05847958247656036,-0.8202237792456676,0.8549679787254789,-0.0165141456955337,-0.8160058847383161,0.8910673589803131,-0.018641806851166023,0.6548273761595884,1.018787040429039,-0.025897329469983212,0.6571346481803707,0.9901284464534998,0.0,0.0,0.0,0.0
0.0032882629752361094,-0.06386679514413814,0.7311771746182617,-0.0006875258047119106,-0.5231892585060246,0.001038628477943334,0.8522156114171276,0.05338990988123042,-0.8217841217230311,0.8555552758438849,-0.014036444881330414,-0.8145124829106766,0.8875855650365729,-0.01517585141193851,0.6537211270730995,1.0156021034606908,-0.022505398806886602,0.6555021842797608,0.9920674250375282,0.0,0.0,0.0,0.0
0.002702615302935713,-0.06458326161802223,0.7313017857628447,-0.0005567342082229836,-0.523184719613852,0.0008735284127811249,0.8522186786017474,0.047969124656940136,-0.8220022412090107,0.8567456085569911,-0.011838640695369237,-0.8132623675764542,0.8846246473373237,-0.012071150289082153,0.6527626475807154,1.0127754457081557,-0.01944840828738247,0.6540837671258365,0.9938043935014628,0.0,0.0,0.0,0.0
0.0021916142085737053,-0.065230164502693,0.7314069277662902,-0.00044468795559260156,-0.5231766000470127,0.0007240122727076564,0.8522238691928895,0.04223139968891028,-0.8211677866820978,0.8583935280644965,-0.009852219890106716,-0.8122509689526913,0.8821335507435082,-0.009258599802840611,0.6519151708963243,1.0102485494811781,-0.01666440440334762,0.6528190583553638,0.9954023735255559,0.0,0.0,0.0,0.0
0.001741771251498881,-0.06582242442778884,0.7314967710198105,-0.0003468260762618915,-0.5231656832500059,0.000584764607840562,0.8522307232384788,0.03618027116323103,-0.8196670634245464,0.8603178130901836,-0.008026427856628542,-0.811445678793539,0.8800423746977364,-0.006690012843587102,0.651166572105252,1.0079583449803673,-0.014109768802747273,0.6516767792741397,0.9968877027855061,0.0,0.0,0.0,0.0
0.0013413161720142411,-0.06637070167149456,0.7315765231970184,-0.0002598538437304397,-0.5231534367531033,0.00045202174698100525,0.8522383526723828,0.029797183110948873,-0.8178037042856708,0.86239775923344,-0.006325136527481408,-0.8107988720241434,0.8782702489345657,-0.004331199020375164,0.6505152979903404,1.0058429430743132,-0.011753441309821972,0.6506415351184578,0.9982624991537477,0.0,0.0,0.0,0.0
0.000981185106813279,-0.06687920492642331,0.7316515174388687,-0.0001820579748116055,-0.5231411787054573,0.00032401988374470555,0.852245955700978,0.023057266983636186,-0.8157716191817962,0.8645803829746043,-0.004733357321379953,-0.810255335908588,0.8767333374842126,-0.0021710894653656494,0.6499654339988261,1.003854972062828,-0.009586517573808948,0.6497105936121559,0.9995038974746439,0.0,0.0,0.0,0.0
0.0006576612404444877,-0.0673423167180768,0.7317268034539778,-0.00011369656184834913,-0.5231302132299415,0.00020206520044150462,0.8522527361345006,0.016000158170198654,-0.813703154822369,0.8668571174517815,-0.003268382080069296,-0.8097572494477389,0.8753582835551745,-0.00023450279244555984,0.6495305358198005,1.0019743608105343,-0.007635746137039007,0.648901575641424,1.0005556980395327,0.0,0.0,0.0,0.0
0.0003765701506413755,-0.06774142367366603,0.7318065990454953,-5.719556137896542e-05,-0.5231225802179218,9.212826157719767e-05,0.8522574460262552,0.008883843472137228,-0.8117480639613858,0.8692295006026326,-0.001991943990148249,-0.8092544303104653,0.8741091044482285,0.001408926288099062,0.6492416462993809,1.0002213056666653,-0.005973470678141194,0.6482667647458388,1.001322515470637,0.0,0.0,0.0,0.0
0.00015879840935349208,-0.06804347139823987,0.7318917580817808,-1.7090079110293973e-05,-0.5231217075824044,7.055630974217311e-06,0.8522579883545924,0.002435874328313674,-0.8101569173141115,0.8716562310948215,-0.001019828013948939,-0.8087323204089014,0.8730377126817991,0.0026499272141791343,0.6491472784009624,0.9986795367752145,-0.004713375481859407,0.6479035232222924,1.0016871291005676,0.0,0.0,0.0,0.0
4.3466761811752496e-05,-0.06820495849662836,0.7319674113612965,-2.583778126466791e-06,-0.5231246819017665,-1.731674502569506e-05,0.8522561627108542,-0.0018685467537478562,-0.8093572036838926,0.8738863650794554,-0.0005540322476153421,-0.8082982768886408,0.8723777665219475,0.0034847826328361126,0.6491967993240194,0.9975602428340523,-0.003864693451468171,0.647929469019673,1.0016348482559045,0.0,0.0,0.0,0.0
4.3467255970156864e-05,-0.06820573416775313,0.7319669740359109,-3.2810134053493908e-06,-0.5231243492300249,-1.8144020188914526e-05,0.8522563668889147,-0.001876009534536048,-0.80935231159608,0.8738884985731799,-0.0005500160450482648,-0.8083001416468691,0.8723774851021572,0.0034834554348641958,0.6491986616574539,0.997557893775103,-0.003862520717640513,0.6479258804822274,1.0016375920284366,0.0,0.0,0.0,0.0
4.3467255970156864e-05,-0.06820573416775313,0.7319669740359109,-3.2810134053493908e-06,-0.5231243492300249,-1.8144020188914526e-05,0.8522563668889147,-0.001876009534536048,-0.80935231159608,0.8738884985731799,-0.0005500160450482648,-0.8083001416468691,0.8723774851021572,0.0034834554348641958,0.6491986616574539,0.997557893775103,-0.003862520717640513,0.6479258804822274,1.0016375920284366,0.0,0.0,0.0,0.0
4.3467255970156864e-05,-0.06820573416775313,0.7319669740359109,-3.2810134053493908e-06,-0.5231243492300249,-1.8144020188914526e-05,0.8522563668889147,-0.001876009534536048,-0.80935231159608,0.8738884985731799,-0.0005500160450482648,-0.8083001416468691,0.8723774851021572,0.0034834554348641958,0.6491986616574539,0.997557893775103,-0.003862520717640513,0.6479258804822274,1.0016375920284366,0.0,0.0,0.0,0.0
0.00013750970476517614,-0.06831553966619487,0.7319383989352186,-1.1876242464895386e-05,-0.5231665733583634,-7.672463654989015e-07,0.8522304479299213,-0.0016397871274091108,-0.8094654681921057,0.8742614067604704,-0.00031403291964634964,-0.8088606111956388,0.8735204063994197,0.004388119049422885,0.649344695772197,0.9974218324245051,-0.0029608083731226583,0.6482815712861525,1.0022997118127115,0.0,0.0,0.0,0.0
0.0002514981297242004,-0.06847253693547257,0.7319016257786854,-6.500533412101383e-06,-0.5232160864487994,4.054091522799931e-06,0.8522000509402179,-0.0012587332037275634,-0.8095140674895676,0.8745952255594059,6.702370500954704e-05,-0.8096623061527205,0.8750490079303028,0.005448771624638049,0.649557543444071,0.9972101055310133,-0.0019020553214051802,0.6486482758368122,1.0031799684867801,0.0,0.0,0.0,0.0
0.0003744655191479213,-0.06868433697367425,0.731863353970943,8.159782191297167e-07,-0.5232570798974201,6.383771424248373e-06,0.8521748812865858,-0.0007331028191376845,-0.8095290460111114,0.8748602054279123,0.0005929788805047636,-0.8107045572986274,0.8769314639825744,0.006853829942030839,0.6497510525553544,0.9967980010852228,-0.0004932300451367495,0.6490319403588591,1.004232565837046,0.0,0.0,0.0,0.0
0.000501044570414775,-0.06897861657923701,0.7318260665678956,3.1043730000734227e-06,-0.5232750371465448,1.123197940298804e-05,0.8521638547623853,-1.7530236413643195e-06,-0.8095134788218726,0.8749936798867023,0.001325183682651775,-0.8120851642120341,0.8792800049396367,0.008862826592789155,0.6498494202885249,0.9960334171816542,0.0015329189161534084,0.649427837170238,1.005510631369689,0.0,0.0,0.0,0.0
0.0006486125770821868,-0.06940906289080823,0.7317842954898731,1.1925935463552722e-05,-0.5232685873612912,5.875100697602964e-07,0.8521678152443599,0.0011133001455231563,-0.8094120616732344,0.8749498899781609,0.0024422217037196846,-0.8140908336675663,0.8825188069811637,0.011649398896304213,0.6499127640800683,0.9947792919576857,0.004360578468198307,0.6498240299159295,1.0072069346953034,0.0,0.0,0.0,0.0
0.0008975671151806345,-0.07006772445530977,0.7317366479515116,0.00017269982354700767,-0.5234088928195427,-0.0003104819026267011,0.8520815716192784,0.003529784633414405,-0.8077577408983391,0.8737051255821102,0.00486418273374398,-0.816956855141436,0.8872780531932737,0.013157357006186072,0.6514908813595588,0.9933265365196163,0.005888833737385927,0.6500305728729474,1.0096060739145698,0.0,0.0,0.0,0.0
0.0014232141806922085,-0.07060334278701752,0.7316372215783271,0.00021128916163983626,-0.5232881242386214,-0.00031299669604160885,0.8521557348400488,0.0048732308568865115,-0.8102413327877986,0.8778218115785698,-0.008676652732455974,-0.812921711732676,0.8773608785461445,0.016538862714139076,0.6520702151005793,0.9916355987625557,0.009346490556361838,0.6510261654186807,1.0115910163581037,0.0,0.0,0.0,0.0
0.002072547319441625,-0.07129394361563826,0.7315051335243903,0.00032352315638359063,-0.5232591609914513,-0.00048172480088934296,0.8521734058937218,0.007022181784813767,-0.8121748803727483,0.8818091261383477,-0.025679903038674012,-0.8108620484719611,0.8700246452712355,0.019490676242827066,0.65354454941258,0.9899450866073701,0.012382451495712928,0.6520575731208406,1.0142740903342096,0.0,0.0,0.0,0.0
0.002788471689850379,-0.0721401322849696,0.7313557398832179,0.000476720630737071,-0.5232588311822411,-0.0007342952353596641,0.8521733562707429,0.009776099332653576,-0.813744455438146,0.8855417703494419,-0.04243234306124645,-0.8101482316607954,0.8643728901809382,0.022739451306535756,0.6554086583450891,0.9879303181610413,0.01574348142610898,0.6531298959984286,1.0175163799235811,0.0,0.0,0.0,0.0
0.0035402571513829667,-0.07310499284111778,0.7311972804406606,0.0006433030803183524,-0.5232544224050844,-0.0010078603446400615,0.8521756742668697,0.012888650000872384,-0.8151729350618448,0.8891162754943696,-0.057618303853231474,-0.8102059911781561,0.859645216667703,0.0265991590954775,0.6573509219405183,0.9855257169548134,0.019771302328961862,0.6542951056878483,1.0211369042555412,0.0,0.0,0.0,0.0
0.004329856976090297,-0.07415828221132904,0.7310279912081953,0.0008178644380589231,-0.5232426897928409,-0.0012858215780558366,0.8521823545104552,0.016242370739144595,-0.8165950947735917,0.8927038485407041,-0.07121648999081583,-0.81065134111125,0.855436765058803,0.031006233331990377,0.6593253682916902,0.9828196779401739,0.02441996675916599,0.6555865675832208,1.025050259437501,0.0,0.0,0.0,0.0
0.005174232886637631,-0.07528700723743488,0.7308422599277472,0.0010042460357257337,-0.5232280831430854,-0.001569992066202149,0.8521906474640661,0.01980843433516413,-0.8181064248086579,0.8964887696076983,-0.08362820532072895,-0.811249029905501,0.8515433781925483,0.03584445002500647,0.6613827747746444,0.9798977247764016,0.029585917413189975,0.6570350638489336,1.029245181460622,0.0,0.0,0.0,0.0
0.006094466451184274,-0.07649644649520727,0.7306342900989901,0.0012097594909073976,-0.5232119033152228,-0.0018696211569322915,0.8521997097089189,0.023623525788057813,-0.819778430080188,0.9006266474405842,-0.09524472896194328,-0.8118189782096976,0.8478700109214005,0.04105548694621835,0.663593283480532,0.9767779193756386,0.03522482292809135,0.6586642845556494,1.03375242340475,0.0,0.0,0.0,0.0
0.007110443071877168,-0.07780761715021126,0.7303996786627139,0.0014427591283723822,-0.5231883466910876,-0.002196509986760641,0.8522130295158727,0.027772114955003854,-0.8216638345627373,0.9052258949867379,-0.1063010017593467,-0.8121412947202244,0.8444007278782515,0.046665020874448335,0.6660150175516564,0.973394273439772,0.041384492449880725,0.6604881555645824,1.0386225253554484,0.0,0.0,0.0,0.0
0.008238930657870444,-0.07925403337446028,0.7301359384005807,0.0017116805512730803,-0.5231437147677179,-0.002563588169183978,0.8522389053923916,0.03237545843422168,-0.8237986203169693,0.9103443874206385,-0.1168772188065515,-0.8118955800417427,0.8411959420854298,0.05277245330119499,0.6686871218603917,0.9695998041754128,0.048200754289377166,0.6625096956345603,1.043910831558183,0.0,0.0,0.0,0.0
0.009494215862063478,-0.08087917977524353,0.7298420288336369,0.0020268910372536445,-0.5230619670108052,-0.0029880172549592485,0.8522870069010757,0.03759270004444351,-0.8261693540875139,0.9159651184789261,-0.12694829759264992,-0.8106944677093089,0.8384101915906791,0.05950219276675688,0.671656760257034,0.9651919735498291,0.0558506315154909,0.6647250391357844,1.0496790085183574,0.0,0.0,0.0,0.0
0.010929307261898058,-0.08271495145083074,0.7295148209967705,0.0024149634107477253,-0.5229404817156096,-0.0035009005632396315,0.8523585889929292,0.04358515680114693,-0.8288507843021578,0.9223606384982448,-0.13653162176473735,-0.8081254662810853,0.8360867967103569,0.06672865537918164,0.6751777918050642,0.960024215795871,0.06424557880056321,0.6672187704554423,1.0559315143633363,0.0,0.0,0.0,0.0
0.012611975748398879,-0.08479942786097415,0.7291488137090096,0.0029102601317188424,-0.5227701111709175,-0.0041403757303159665,0.8524586784948136,0.0505505319161758,-0.8319697762668575,0.9299038252795016,-0.14577931531161423,-0.8042863538395105,0.8337157532900249,0.07428487945152487,0.6795547042252529,0.9539116657263635,0.07325088432728835,0.6700799436196666,1.0626643075251014,0.0,0.0,0.0,0.0
0.014601556612521332,-0.08716271915871626,0.7287470674265677,0.0035503614548478427,-0.5225463741903038,-0.004950694483237611,0.8525890993780302,0.05868545619175643,-0.8355233365113451,0.9388168168045172,-0.1550566946347383,-0.7993303895137307,0.8306248716073035,0.08189705462440319,0.6851560603919232,0.9466235423868269,0.08260384133202558,0.6734073307465662,1.0697697849666266,0.0,0.0,0.0,0.0
0.01694156947140666,-0.08979362878354714,0.7283218998275677,0.004368147320045793,-0.5222723911628597,-0.005970284909830961,0.8527466355349135,0.06807023419681905,-0.8394413461274467,0.9492452000810537,-0.16502988511923342,-0.7931888828117531,0.825921783842848,0.08907825316309574,0.692375064429543,0.9380042831202784,0.09176809676438476,0.6772991658968571,1.0769595296503889,0.0,0.0,0.0,0.0
0.0196117999331714,-0.09260095624854871,0.7278764883436254,0.0053761821628947,-0.5219708649168308,-0.007210034757083025,0.8529158975198718,0.07851007349979294,-0.8435289496618964,0.9610036832382313,-0.17660605139080293,-0.7855213455730434,0.8183954995167122,0.09508484697462263,0.7013510414660036,0.9283695127085726,0.09983868638141492,0.6816705185173867,1.0839227406010465,0.0,0.0,0.0,0.0
0.022426614658215983,-0.09534648139253202,0.7272560539794656,0.006549446149276465,-0.5217216828244801,-0.008637539818027435,0.8530468822590129,0.08931641583190436,-0.8475501128077618,0.9730574235660713,-0.19078941042239755,-0.775841615292394,0.8063353237014881,0.09869168185916542,0.7109156132814333,0.9204388971980192,0.10520299651477458,0.6853530495594611,1.0916484740350372,0.0,0.0,0.0,0.0
0.025198529008259914,-0.09766090677385901,0.7263481658224562,0.007832230227780419,-0.5215299888534073,-0.010099747695100709,0.8531372234246489,0.09914657950011918,-0.8523446751467414,0.9856611883219487,-0.20766597805162712,-0.7623143711439383,0.7858914122562332,0.0986027198641582,0.7195514314952925,0.9169525639216236,0.10603639970964265,0.6872524993529275,1.1004132890191254,0.0,0.0,0.0,0.0
0.027615930121106972,-0.09929285236515843,0.7252871010252995,0.00914429748093885,-0.5213097379897526,-0.011386764699707671,0.8532425683768415,0.10676696905895325,-0.8579397692420371,0.9979678786832287,-0.22627223269566915,-0.7425953547989184,0.7513880921488475,0.09447688990844479,0.7261930669349895,0.9178527346043571,0.10169184336636747,0.6867954929235587,1.1088590654918806,0.0,0.0,0.0,0.0
0.029077189711889762,-0.10002311850312616,0.7243803773653053,0.010328858248756883,-0.5209673474050006,-0.01220658901658498,0.8534268198326407,0.11072903376275563,-0.8629459248604884,1.0067359920099628,-0.24364295177263418,-0.7145502368279163,0.6968190775415072,0.08700695184828393,0.7293541617536351,0.9216568241848022,0.09293586128677458,0.6834374251696432,1.1148582018699662,0.0,0.0,0.0,0.0
0.029148210914567298,-0.10009678602578918,0.7243396379072276,0.010412737038810165,-0.5209323138956976,-0.012202827713449936,0.8534472392845563,0.11093518982071242,-0.8629939308804236,1.0067855449996093,-0.24367011222199703,-0.7144988387077011,0.6968115633942419,0.08690832483759087,0.7294739959160977,0.9214763460774923,0.09299102635803261,0.6834349250129098,1.1151114546965133,0.0,0.0,0.0,0.0
0.029148210914567298,-0.10009678602578918,0.7243396379072276,0.010412737038810165,-0.5209323138956976,-0.012202827713449936,0.8534472392845563,0.11093518982071242,-0.8629939308804236,1.0067855449996093,-0.24367011222199703,-0.7144988387077011,0.6968115633942419,0.08690832483759087,0.7294739959160977,0.9214763460774923,0.09299102635803261,0.6834349250129098,1.1151114546965133,0.0,0.0,0.0,0.0
0.028787066002372665,-0.10108943527654808,0.7262031309666762,0.008764229341380169,-0.5201593154588725,-0.010786939972169108,0.8539561562231669,0.11057998749845152,-0.8626110406959677,1.0055685991868428,-0.2436663663756385,-0.7082655794171748,0.6949555590649169,0.05310496119579748,0.7143844693759329,0.9581080562170647,0.12575975039971823,0.6967134343524447,1.1029695747562642,0.0,0.0,0.0,0.0
0.028421341261632933,-0.10248514889956534,0.7283673392104965,0.007641948935954148,-0.5195337894719412,-0.009762857166697336,0.8543599527326451,0.11186830381841287,-0.8576613776255828,1.0000721061306679,-0.24187087430588936,-0.7041867842789435,0.6967441297586748,0.02243985025315725,0.7051750584206401,0.9833012771290907,0.15433679969871142,0.7097009101744033,1.0887415448290523,0.0,0.0,0.0,0.0
0.028113673701319307,-0.10409326801211712,0.7303725685589987,0.006979268297409309,-0.5190965202061955,-0.009126755376100398,0.8546384000617784,0.11443285350234168,-0.8502353863875395,0.9920091929292719,-0.23884524771246585,-0.7027356629214663,0.7016588179715583,-0.0009566184300750791,0.6998165937969351,1.000605494394315,0.1778112491842559,0.7209258621837445,1.0758429993110419,0.0,0.0,0.0,0.0
0.02786442123520179,-0.10578864720562661,0.7321310079814112,0.006613139910161152,-0.518768674568275,-0.008755862274425485,0.8548442334969776,0.11774912786557909,-0.8418851335216788,0.9827996963633547,-0.23516704528999138,-0.7033705726459011,0.708692606589427,-0.019696389502116458,0.6969847341915485,1.0133339860418982,0.1975318125282487,0.7304034556954231,1.0648764390966046,0.0,0.0,0.0,0.0
0.027623290281220424,-0.1074686688120273,0.7336549049324191,0.006407770687075221,-0.5184833008882728,-0.008524205471548996,0.8550212541778721,0.12130049504586958,-0.8334833935650456,0.9731647112771059,-0.23131594140136122,-0.7050584378657209,0.7162943968185195,-0.03582186593527288,0.6955799347287033,1.0232665214997072,0.2146771656074317,0.7383051582296655,1.055672937063043,0.0,0.0,0.0,0.0
0.027295344103368722,-0.10904637206385201,0.7349831209959697,0.006260371183442782,-0.5182083697145181,-0.008340670374831296,0.8551908129348474,0.12466898165564838,-0.8252816209088267,0.9630918623702576,-0.2276163459173377,-0.7065062685451406,0.7224994500927099,-0.05077547344097988,0.6947017752125915,1.0312753816000388,0.2298543392457097,0.7446621903421087,1.0478986882404138,0.0,0.0,0.0,0.0
0.02686957998726795,-0.11054230729479328,0.7361592508583622,0.006136108744228369,-0.517919531391501,-0.008176131217723967,0.8553682587347964,0.12785306476260602,-0.8172935773188151,0.9525792567543719,-0.2240678052919427,-0.7076455782744628,0.7273506749640515,-0.06526963979632554,0.6939491306906472,1.0378585401454827,0.24364304835701941,0.7496904759938606,1.0412613693391766,0.0,0.0,0.0,0.0
0.02633778679431788,-0.11200061996377927,0.7372283285284974,0.006018594552297733,-0.517598759741589,-0.00801677535600292,0.8555647443335164,0.13093665633188276,-0.8093655242843336,0.9414359091908973,-0.220585128791157,-0.7085399709903248,0.7310860021326572,-0.07968833984710404,0.6931437683095942,1.0431227489699646,0.2565610770964568,0.7535966027130838,1.0354812423310238,0.0,0.0,0.0,0.0
0.02568849432018408,-0.11348043671164898,0.7382319856105491,0.005897792725172775,-0.5172241541851945,-0.007853152705836171,0.8557936190232782,0.13404729805932783,-0.8012845666977271,0.9293542333173316,-0.21704128643573595,-0.7093366837571552,0.7340318491645578,-0.09430790490460474,0.6922957324061376,1.0467424889346226,0.2691402985446719,0.7565380986070702,1.0303175221183367,0.0,0.0,0.0,0.0
0.024900379164048372,-0.11504803366778908,0.7392094928145333,0.0057614771739517,-0.5167665193251579,-0.007672724836485361,0.8560726015817343,0.13732138299229893,-0.792815199418031,0.9159241525524108,-0.21329708306816186,-0.7101811042347221,0.7364667485923485,-0.10945828661771409,0.6916240703853989,1.0478776673020385,0.2819453027213963,0.7586091163495499,1.025548443728534,0.0,0.0,0.0,0.0
0.023968355753119706,-0.11678596208974017,0.7402073317736123,0.005601237727814354,-0.516187835051591,-0.0074671671605656565,0.8564245363692379,0.1409476063245708,-0.7837381538572087,0.900791967467272,-0.20917619844361351,-0.7114112256586756,0.7389954954468451,-0.1255666639664255,0.69172000593189,1.0451820642580727,0.2955530601802622,0.7599473412742535,1.020859577824739,0.0,0.0,0.0,0.0
0.022882571589479636,-0.11874576733781737,0.7412950553063063,0.005401920475883699,-0.5154549618958851,-0.007214738536504267,0.8568692718611945,0.14499579013062386,-0.7738273513828734,0.8836415999359186,-0.2045961038546956,-0.7130494433996087,0.7418229836907491,-0.14268719316070347,0.6918286261128374,1.0401783163179978,0.3103168356576975,0.7607720081122138,1.0156382830788913,0.0,0.0,0.0,0.0
0.021631808131775555,-0.120957763776273,0.742539742643305,0.005133561607898445,-0.5145234037011698,-0.0068771254565781394,0.8574333902609784,0.14945278938834158,-0.7630315829288948,0.8643281764979308,-0.1995612466911401,-0.71502030532804,0.7449855292206313,-0.16133310769526912,0.6915105868348211,1.0339633866917493,0.3265072373937396,0.7612629956558826,1.0091878464667279,0.0,0.0,0.0,0.0
0.020207266645162692,-0.12341963449180536,0.7439674961550562,0.004747629581238493,-0.5133351093979104,-0.006398373955395041,0.8581512607247755,0.15420761003048344,-0.7516855065923018,0.8430766417940152,-0.19419991800766595,-0.7172612305170214,0.7483985123907583,-0.18303015419547758,0.6906403188944757,1.027443721251339,0.34426860692319333,0.7613981639817636,1.0010348751907154,0.0,0.0,0.0,0.0
0.018598740673624974,-0.12602844310512476,0.7455001712507434,0.004166765623423906,-0.5118296125321622,-0.005697567047739897,0.8590579861273351,0.15888716524426683,-0.7409255242324134,0.8209467157086001,-0.18894380065331265,-0.7195533985152169,0.751408230706933,-0.2111424446886312,0.6897364701242676,1.0216217957818667,0.36328315889591556,0.7606754650460229,0.991397357164896,0.0,0.0,0.0,0.0
0.016826421980552918,-0.12846287323964367,0.7468253194706076,0.003258376876106335,-0.5098982809607647,-0.004540563509036078,0.8602165479322115,0.1623171093072995,-0.7343602075756277,0.8017470489919722,-0.18518907869113171,-0.7216234683057954,0.7526732215712902,-0.2513237193543552,0.6909177439940124,1.0169330354463781,0.38326766973439585,0.7577637149570037,0.982149011768394,0.0,0.0,0.0,0.0
0.014809995527475256,-0.13049509268939505,0.7473665116834197,0.0020079139104174568,-0.5075113146891378,-0.0029628342404900065,0.8616376589712724,0.16417054999182965,-0.7345744968995732,0.7875032730259447,-0.18347692743348443,-0.7243670205745013,0.7513044890796889,-0.30850023509696545,0.6946607658455598,1.0147081504400886,0.4021267436514877,0.7493312013535557,0.9782121446797875,0.0,0.0,0.0,0.0
0.012960926099444416,-0.13205055148627773,0.7467602798507184,0.0006883672148705844,-0.5046495130507876,-0.0011563216577897284,0.8633232639332755,0.1647556316432036,-0.7444761023122927,0.7831224402922969,-0.18398403088348994,-0.7321028147226213,0.753172824968179,-0.3798512146168016,0.7001165439990118,1.016438452047488,0.4174526582322353,0.734442421689934,0.9824766610372908,0.0,0.0,0.0,0.0
0.011455496319153565,-0.13302961551753145,0.745136859809735,-0.00039194980730152267,-0.5015194259789111,0.0005467574400683439,0.8651461222229652,0.16438542338496823,-0.7624145951717846,0.788365087587972,-0.18634396604280953,-0.7450784393941569,0.7592822499334324,-0.4552116984931447,0.7020969523494227,1.0242128501225123,0.4259147091713702,0.7142557462812789,0.9938367051624373,0.0,0.0,0.0,0.0
0.011467798092378328,-0.13307183414720739,0.7450875276486092,-0.0004602870569683835,-0.5015155988363265,0.0005943088462029381,0.8651482757635602,0.16439030074591288,-0.7625402662855645,0.7881839489506028,-0.18638122801878235,-0.7451142318670763,0.7593297604629341,-0.4552663153507473,0.7020904500620881,1.0242131086487534,0.4259787728724198,0.7141610732466824,0.9936700278772563,0.0,0.0,0.0,0.0
0.011467798092378328,-0.13307183414720739,0.7450875276486092,-0.0004602870569683835,-0.5015155988363265,0.0005943088462029381,0.8651482757635602,0.16439030074591288,-0.7625402662855645,0.7881839489506028,-0.18638122801878235,-0.7451142318670763,0.7593297604629341,-0.4552663153507473,0.7020904500620881,1.0242131086487534,0.4259787728724198,0.7141610732466824,0.9936700278772563,0.0,0.0,0.0,0.0
0.011371838840876423,-0.13348080670783813,0.7458342770077856,-0.0005446038681232048,-0.503294417192119,0.0006094246109259804,0.8641146113979995,0.16455921602898244,-0.7479056545774885,0.7730248866847523,-0.1844201893653656,-0.7330964842388232,0.748489135113751,-0.4595802292204424,0.7117946355297086,1.0208313135207079,0.4364271433823553,0.7243707159447191,0.9913863374094452,0.0,0.0,0.0,0.0
0.011281719194564213,-0.13400529725266147,0.7463967529824758,-0.000492358677587854,-0.5044427905948639,0.0004826937012050472,0.8634448422491096,0.1655669048962222,-0.7363953621210196,0.7604047742395375,-0.18223677443497519,-0.7263379168975758,0.7429149104397256,-0.46212422427585026,0.7186269609439175,1.0173750252706943,0.44381210363300727,0.7311604768970309,0.9896528786637664,0.0,0.0,0.0,0.0
0.011348956715504736,-0.13471006052903847,0.7467050499879974,-0.00034878417817313633,-0.5051613320945428,0.0002646203963648046,0.8630248182306867,0.16744106862334623,-0.7279764142164383,0.7509431327389093,-0.1797520380701727,-0.72490479023037,0.7436785483566916,-0.4631969004176195,0.7234011060077178,1.0147908120267843,0.45022389776420724,0.7355959819278073,0.9896033405763389,0.0,0.0,0.0,0.0
0.011633650384655499,-0.13575150536632635,0.7465756762434337,-0.00012159331337262968,-0.5056209632521845,-3.799883998344687e-05,0.8627557158843326,0.17053803723233504,-0.7220912473970605,0.7438316801732744,-0.1765788570631352,-0.729318211307975,0.7517361842585043,-0.46292657033942797,0.7261518238612936,1.0148809594173602,0.4582284904563304,0.7379055467076578,0.9936369047604701,0.0,0.0,0.0,0.0
0.012184419458501546,-0.13715596717807638,0.7457815127111354,0.0001695639278759613,-0.5059545989419177,-0.0003586350077643579,0.8625600190355038,0.174778174005136,-0.7190562833544752,0.7392347873426633,-0.17280540592930987,-0.7395942824978398,0.7669843013014539,-0.461777915612063,0.726518930725487,1.0199701047981626,0.4701149258037826,0.7381287913156008,1.004197814813298,0.0,0.0,0.0,0.0
0.01300951289583913,-0.13903553414176947,0.7440609820218683,0.000196685586034108,-0.5067380783091016,-0.00030567916790607923,0.8620999871631048,0.17951074583587912,-0.7174420195472427,0.7348458526587904,-0.16874580133714662,-0.7518518485553372,0.7852017251681452,-0.4574409755120938,0.7247111614452718,1.0334736540443106,0.49653135529993464,0.7392877696581053,1.025152356882898,0.0,0.0,0.0,0.0
0.01487421907200899,-0.14154346561028192,0.7448356912792328,-0.001407773428948528,-0.5086802049694176,0.0017416653337019483,0.8609526315936954,0.18119803155966668,-0.7121443333834894,0.7336190889722154,-0.16660515196925232,-0.7490587667837159,0.7991871796414147,-0.425990017871171,0.7353479315121604,1.0236570645840202,0.39710020119697886,0.7247336581288528,1.0171197793448348,0.0,0.0,0.0,0.0
0.017015535796895163,-0.14435312847759169,0.7445734507934411,-0.0030808416069876437,-0.5109285512050878,0.003885910789755692,0.8596088783137344,0.18365589189449658,-0.7091481326204458,0.7337636806343215,-0.16405963444215843,-0.7497142045996605,0.8169246270847417,-0.3918679257476665,0.742503609402669,1.0222814124851929,0.30423277544580707,0.7128751683246685,1.01479911019213,0.0,0.0,0.0,0.0
0.01927277985362469,-0.14733675536542892,0.743687229482072,-0.004160774680976506,-0.5127938949313204,0.005302304324527879,0.8584852909887682,0.18831401557848917,-0.7075109785114524,0.7347433668128088,-0.15989099586805908,-0.7582889320263682,0.8420979135630042,-0.36222767302985187,0.747131409799232,1.0245524283300873,0.23905167162603974,0.7067659544452791,1.0167217700224107,0.0,0.0,0.0,0.0
0.021384614412736078,-0.15009130198810677,0.7426004091567298,-0.004780308008762902,-0.5142359956549097,0.006156936533101852,0.8576133053775883,0.19368859591107843,-0.7067705931180934,0.7362180586771545,-0.15526804380189038,-0.770050719926925,0.8682904277573371,-0.3382060280845463,0.7502430387990954,1.0279141497619155,0.1959168191566209,0.7039942474166977,1.021240395111381,0.0,0.0,0.0,0.0
0.02321305179061074,-0.15248534312391945,0.7415687943956579,-0.005140123828526692,-0.5153396828875191,0.006671093237903653,0.8569446229969764,0.1989032425482284,-0.7062359657556356,0.7374060557051338,-0.15080951151487287,-0.781760066900053,0.8918391026191576,-0.31868858630466007,0.7524602919811506,1.0309628362189371,0.16580193846263935,0.7025282456397116,1.0269403918134001,0.0,0.0,0.0,0.0
0.024738839910274542,-0.1545159623331176,0.7406755912074099,-0.00537414285805186,-0.5161949978319097,0.00700376959479777,0.8564255893031916,0.2035760073520474,-0.7056908751471187,0.7381108477647048,-0.14679483718877812,-0.7921383515946318,0.9117519875334601,-0.3024123886022403,0.7540312101435073,1.0333651878865393,0.14251871147358483,0.7013817385848685,1.0329321787300572,0.0,0.0,0.0,0.0
0.025999582305378736,-0.15623820671934305,0.739922289653791,-0.005555776676235724,-0.5168756822730934,0.007248749845433507,0.8560117511143911,0.2076320839465512,-0.7051046204901683,0.7383704316538271,-0.14328074812853647,-0.8009504965878871,0.9282898098898833,-0.2883295633389451,0.755071379029989,1.0351899110367824,0.122566721069739,0.7001877769032605,1.0386633221547605,0.0,0.0,0.0,0.0
0.027056502393596162,-0.15771758309768805,0.7392696635581548,-0.005720861131543191,-0.517435420867195,0.007457472826880444,0.855670639369459,0.2111309330403275,-0.7045962920492393,0.7384086412274629,-0.14023410925263138,-0.8084391628187896,0.9421684147084315,-0.2757180640517535,0.7556346013545301,1.0367085096938273,0.10418856362215383,0.6988984223295064,1.0436817064398483,0.0,0.0,0.0,0.0
0.027947832494117364,-0.15902847061889838,0.7386541212481476,-0.005881434654415303,-0.5179102292619854,0.007650476516912614,0.8553805430106929,0.2142188144391033,-0.7041660716622541,0.7381430489336116,-0.1375342740521276,-0.8150008925805048,0.9540542131116362,-0.26400213508865883,0.7555968865982473,1.0383505989231947,0.08667349608737676,0.6976029052082124,1.0473686931284036,0.0,0.0,0.0,0.0
0.028685385401316762,-0.16024446093866762,0.7380022215730287,-0.006036607818753903,-0.5183211000086254,0.007829339561099637,0.8551289365317537,0.21707617135887045,-0.7037058257217617,0.7372259795329276,-0.13501639273432325,-0.8210573511514262,0.9644539904471368,-0.2527183352580152,0.754694223098554,1.0406267005907994,0.06989854764275236,0.6965873283463595,1.0487206475519246,0.0,0.0,0.0,0.0
0.02927710987131363,-0.16142279565871426,0.7372514434292131,-0.006182810481649313,-0.518678607462116,0.007993197948872087,0.8549095763893737,0.2198492627041178,-0.7031558728833643,0.7353924326774718,-0.13254919921445138,-0.8269789078470299,0.9737735783757387,-0.24151370807678912,0.7526796976144361,1.0439609790455553,0.054023958038426426,0.6965262940286423,1.0462622465629339,0.0,0.0,0.0,0.0
0.029735504429930365,-0.1626165742970666,0.736369506815989,-0.006324378436417039,-0.5189955989418387,0.008145046010135448,0.8547147060521937,0.2226659348914389,-0.7024047471633742,0.7323983201712503,-0.13000856888709672,-0.8330029225972493,0.9823431686391775,-0.22993626685387475,0.7494312099579478,1.048497771743372,0.03864246025720625,0.6968055201264437,1.0413116050145976,0.0,0.0,0.0,0.0
0.030066961708797392,-0.16386971253145619,0.7353377459888129,-0.006469624989361655,-0.5192779082409512,0.008292302890269698,0.8545407162202252,0.22562099790641435,-0.701352272278517,0.7280172850266028,-0.12729904206082693,-0.839283734370906,0.9903849654121029,-0.2174817159949975,0.7448174235801689,1.0542630769328505,0.023349495830312837,0.6971992134746772,1.034592406587841,0.0,0.0,0.0,0.0
0.030263221222970264,-0.16521307137803024,0.7341380809636742,-0.006633809278324682,-0.5195223343902039,0.008449539294192435,0.8543893386097042,0.22876131251207338,-0.6999449049206009,0.7220212135094856,-0.12437061305882026,-0.8458884223148382,0.9979465065991139,-0.20359409813139137,0.7385997878737929,1.0612999273679629,0.007710847163684486,0.6977358530827641,1.0262396517215207,0.0,0.0,0.0,0.0
0.030307059063755755,-0.16665408654998032,0.7327536938354093,-0.0068472523675982165,-0.5197183317063966,0.008648159942795034,0.8542664573497768,0.23204374487200785,-0.6982802253157818,0.7143423652471521,-0.12126785640304008,-0.8527493210831388,1.0048728460751815,-0.1876524331162663,0.7304403648080832,1.0696771402686718,-0.008909919136244386,0.6986189679816734,1.015850477519192,0.0,0.0,0.0,0.0
0.030190825975263822,-0.1681487409796853,0.7311769823225607,-0.007168355039308133,-0.5198513883805738,0.008956285823079165,0.8541796846267626,0.23523251728158648,-0.696871581846967,0.7055292279407083,-0.11825179570148227,-0.8595612158851061,1.010773856908829,-0.16901695425002092,0.719981053208064,1.0794571543164428,-0.027530077029697543,0.7002249689700589,1.002491926280985,0.0,0.0,0.0,0.0
0.030012401023938245,-0.1695166001819958,0.7294252568092641,-0.007707281240982087,-0.5198863467506133,0.009531276439789073,0.8541474925606243,0.23763207860100882,-0.6978361394040995,0.6987506485458992,-0.11617745807544014,-0.865852486368844,1.0154409104594297,-0.14727353374306787,0.7071272182037542,1.0905867773208482,-0.04985741216302192,0.7033152187052201,0.9846162438985364,0.0,0.0,0.0,0.0
0.02977141942727401,-0.17067049305389537,0.727598893413656,-0.008601466653940308,-0.5197648457006135,0.01057981625820532,0.8542005545731992,0.23859562605948412,-0.7024910793362225,0.6957548618260269,-0.11575491918422853,-0.8707331602494051,1.0181685761058115,-0.12029199228187941,0.6912920167883428,1.10211441878683,-0.07704479306925656,0.7086474978635885,0.9594365246124474,0.0,0.0,0.0,0.0
0.029503583904157565,-0.1715046132883009,0.7260545001303456,-0.00993610980885382,-0.519460636167921,0.012156770733624629,0.8543501238480715,0.23772432023238768,-0.7109495655408314,0.6977531336274881,-0.11731889864876012,-0.8728398108380379,1.0183286451858344,-0.08836933552644034,0.6739010575461193,1.1111078037571804,-0.10492470400297024,0.7184285047378243,0.9242793587800322,0.0,0.0,0.0,0.0
0.029523735147993013,-0.1715345075253725,0.7260130604936283,-0.009979572389997042,-0.5194862158754316,0.012183572932554546,0.8543336820007358,0.2377423075933011,-0.7109803128900964,0.6976510111131885,-0.11729645677087001,-0.8728425729892922,1.0183882554013073,-0.08837012872709314,0.6738297920087853,1.1110905407981568,-0.10493210174900613,0.7184269289874612,0.924269741103195,0.0,0.0,0.0,0.0
0.029523735147993013,-0.1715345075253725,0.7260130604936283,-0.009979572389997042,-0.5194862158754316,0.012183572932554546,0.8543336820007358,0.2377423075933011,-0.7109803128900964,0.6976510111131885,-0.11729645677087001,-0.8728425729892922,1.0183882554013073,-0.08837012872709314,0.6738297920087853,1.1110905407981568,-0.10493210174900613,0.7184269289874612,0.924269741103195,0.0,0.0,0.0,0.0
0.028127239768593115,-0.17194270873216802,0.7268615017102259,-0.008636859952947704,-0.5207456701145352,0.010688143822338085,0.8536012624690463,0.21753294027940523,-0.7411663224594564,0.7593864986785354,-0.11216344217526662,-0.8639767588449118,1.0054213725828927,-0.10846214440437912,0.6835347515810326,1.1080691020396989,-0.12118529768773587,0.7150933821867681,0.9202526720970208,0.0,0.0,0.0,0.0
0.025653312125230695,-0.17352903524725424,0.7279286729026324,-0.007464088588746213,-0.5216051481827071,0.009253350754464491,0.8531041743366693,0.1951539247542472,-0.761887614508022,0.7964060922467673,-0.1039396740699747,-0.8545398328615667,0.98919090603943,-0.1149521568366331,0.6866061896305201,1.1006535359432077,-0.12597194321796878,0.7096275241507308,0.9202016311031852,0.0,0.0,0.0,0.0
0.02274468984483573,-0.1760536009571379,0.7289476176968478,-0.006383836558639059,-0.5221285389969793,0.007915004806514084,0.8528061843669905,0.17544846881594084,-0.7754858871791906,0.8171241875091789,-0.09363586466914478,-0.8469186108027106,0.9738925633581512,-0.11005505515010364,0.6848079419968871,1.0907925096438313,-0.12223724092749402,0.7027149894869541,0.924634749495793,0.0,0.0,0.0,0.0
0.019756415122621454,-0.17923657193543122,0.729761874160748,-0.00535989733029054,-0.5224397963282645,0.006648235203385795,0.8526334099023862,0.15945504627558296,-0.7843868803806406,0.8282626809538405,-0.08200096568634849,-0.8417255955681968,0.9609877100766062,-0.09830719097249786,0.6802745082955686,1.0801379546764196,-0.11316654507085651,0.6946490411341001,0.9332514439777425,0.0,0.0,0.0,0.0
0.016804180132965574,-0.18266511027648052,0.7302849193211146,-0.004417304479402398,-0.5226850482554143,0.00553680109483599,0.8524964349397642,0.14729861945867848,-0.7912062053131819,0.8344936969108894,-0.07027877794730264,-0.837595728790413,0.9489715152263495,-0.08359333491845633,0.6741325377821985,1.070528752105837,-0.10128605115559469,0.6858034576747377,0.9451628307435754,0.0,0.0,0.0,0.0
0.014076936202286366,-0.1858985733453991,0.7308033889951373,-0.0036043226749694047,-0.5228640217768165,0.0045936595225180565,0.8523961062097941,0.13718667803990958,-0.7968305629013961,0.8380977477936533,-0.059568766015471813,-0.8332989502998926,0.9373613448650947,-0.06935053952443726,0.6686538316519055,1.0605653428516464,-0.08913530890028722,0.6781924168244068,0.9555817669997775,0.0,0.0,0.0,0.0
0.011704773286860605,-0.1887827087293575,0.7312983335078691,-0.0029293053149640866,-0.522976603441325,0.003821047979263825,0.8523334388698398,0.12811056601205564,-0.801673565276772,0.840182635679074,-0.05026106029270561,-0.8292766342396394,0.9269869381611734,-0.05658579099567053,0.6641922645011774,1.050812064366659,-0.07772624447013532,0.6719947664451701,0.9640842057546696,0.0,0.0,0.0,0.0
0.00969951747406941,-0.19128042031445347,0.7317476694455387,-0.0023789709922410534,-0.5230462910757245,0.0031908873027356303,0.8522949818737453,0.11928363004368205,-0.8058665687382093,0.8416060581049979,-0.04234775118308653,-0.8256999603753956,0.9180510467771748,-0.04559375806118909,0.660705509106893,1.0417607501777626,-0.06753624666526596,0.6670213558000723,0.9709116314309125,0.0,0.0,0.0,0.0
0.008021193433506435,-0.19340804839345127,0.7321252594969199,-0.001934785408212232,-0.5230887158181795,0.002674898166294776,0.8522718444891348,0.11017738744811306,-0.8093297730688526,0.8429472180677043,-0.03568989032832475,-0.8226397024391146,0.9104705911126341,-0.03630215032611078,0.6579165966647701,1.0338103489355333,-0.05868364171988119,0.6629303245824196,0.9765502729608565,0.0,0.0,0.0,0.0
0.00662228279205496,-0.19523426944562844,0.7324368380629018,-0.0015728262728895465,-0.5231143450580309,0.0022415873517315776,0.8522581084965793,0.1005429025162889,-0.8117394490487109,0.8446269573379793,-0.030016879472510853,-0.8201497704881857,0.904218086502882,-0.028378795410799153,0.6556734826698357,1.0268873964409133,-0.05098821033728583,0.659527127708628,0.9813320737226298,0.0,0.0,0.0,0.0
0.005438030606201334,-0.19682966530780627,0.7326963947288858,-0.0012722166902459017,-0.5231309776246982,0.0018679472453542608,0.8522493018402592,0.09029734945677248,-0.8128584328331904,0.8469283809731918,-0.02508186828582381,-0.8181244674928152,0.8990267366103133,-0.021479746602589243,0.6538263576587678,1.0208044385513981,-0.04419468500271508,0.6566387963053083,0.98550196809654,0.0,0.0,0.0,0.0
0.004388645276863542,-0.19823826206639367,0.7329181808638299,-0.001017228103054199,-0.5231429121583213,0.0015351462023699795,0.852242982975885,0.07938052668730192,-0.813060905615779,0.8497970412417603,-0.020719986051517435,-0.8162842570319434,0.8943315426027052,-0.015446659983227319,0.6522100970728206,1.0154309124608496,-0.038180657435579884,0.6540539617059189,0.9891894788523911,0.0,0.0,0.0,0.0
0.0034569884261347267,-0.1995151781742911,0.7331100993725925,-0.000795017807060087,-0.5231492175068475,0.0012293001911324979,0.8522398447559816,0.06782443999146762,-0.8126674599730795,0.8529946567521887,-0.0167579814996916,-0.8147167859229638,0.8902291970371895,-0.010028585812564583,0.6508045141569594,1.0105637008164632,-0.03272859660519899,0.6517241498514655,0.9925380079548088,0.0,0.0,0.0,0.0
0.002625610644432161,-0.200693444885446,0.7332797887110735,-0.0005974566909787499,-0.5231535283130191,0.0009410361568224514,0.8522377269929401,0.055575308036433485,-0.8119551911519458,0.8563965190842763,-0.01308841786304083,-0.8134060175586243,0.886681142444101,-0.005087429382687666,0.649605657273152,1.0060702670303117,-0.027715672116029558,0.6496211063184003,0.9956209223771129,0.0,0.0,0.0,0.0
0.0018801890659311152,-0.2017826465070864,0.7334347744647409,-0.00042089151923279934,-0.5231581413650807,0.0006657431656007784,0.8522352602185623,0.04256967782688021,-0.8111057790932313,0.859950837002833,-0.009674457922196083,-0.8122842654389151,0.8835793211060525,-0.000594269472990387,0.6486138727800277,1.0018824638813981,-0.023120560927527924,0.6477312479634553,0.998425287468886,0.0,0.0,0.0,0.0
0.0012143530917202877,-0.20276397189800172,0.7335820040254316,-0.0002665693000073238,-0.5231641109976267,0.0004057276549068421,0.8522318213314621,0.028905957608239857,-0.8102425510771016,0.8636604160388196,-0.006567773274730825,-0.8112460232519634,0.8807778639091024,0.003360347220370907,0.6478379364823837,0.99801557301042,-0.019041434049204713,0.646070262187014,1.0008404447851724,0.0,0.0,0.0,0.0
0.0006353496193822025,-0.20358508047025242,0.7337255149190087,-0.00014181465721996298,-0.5231707980534382,0.0001768722775316883,0.852227824392591,0.015171255739580797,-0.8094992839174016,0.8675436725836148,-0.003938629979825666,-0.8101680947109852,0.8781346266189621,0.006586988924001691,0.647279046060115,0.9945987489458825,-0.01568132537296517,0.6447021134086545,1.002665931166168,0.0,0.0,0.0,0.0
0.00016422545593210375,-0.20416250560772556,0.7338571684198519,-6.312227073872385e-05,-0.5231712233055337,2.8452207240779504e-05,0.8522275906769519,0.0028048912248622056,-0.809157301922219,0.871563805412407,-0.002121390472210698,-0.8089445864025833,0.8755457929796308,0.008958570208329568,0.6468171443715931,0.9919242408219524,-0.013186616190770287,0.6437369679435992,1.0037176493699755,0.0,0.0,0.0,0.0
-0.0001994284940103627,-0.2044075358237214,0.7339342303637981,-3.228331873392258e-05,-0.5231951592275254,-3.795253051864574e-05,0.8522128976249287,-0.006098648073030684,-0.8099316094062209,0.8757829122122266,-0.0013414479480818823,-0.8073263276576008,0.8725743111404072,0.009929520857658171,0.6463313951840334,0.9907702476537599,-0.012132753383666735,0.6430077123811944,1.0041497699998976,0.0,0.0,0.0,0.0
-0.000198998846900442,-0.20441061348650902,0.7339326860227802,-3.306275556123078e-05,-0.5231943819266809,-3.959648009860326e-05,0.852213374724506,-0.006113439422766103,-0.8099271405380692,0.8757848057937312,-0.0013316535908195933,-0.8073300648285499,0.8725710153406313,0.009924102629030995,0.6463398956889337,0.9907598550132025,-0.012126030179367817,0.6429988253008632,1.0041600379552347,0.0,0.0,0.0,0.0
-0.000198998846900442,-0.20441061348650902,0.7339326860227802,-3.306275556123078e-05,-0.5231943819266809,-3.959648009860326e-05,0.852213374724506,-0.006113439422766103,-0.8099271405380692,0.8757848057937312,-0.0013316535908195933,-0.8073300648285499,0.8725710153406313,0.009924102629030995,0.6463398956889337,0.9907598550132025,-0.012126030179367817,0.6429988253008632,1.0041600379552347,0.0,0.0,0.0,0.0
-0.000198998846900442,-0.20441061348650902,0.7339326860227802,-3.306275556123078e-05,-0.5231943819266809,-3.959648009860326e-05,0.852213374724506,-0.006113439422766103,-0.8099271405380692,0.8757848057937312,-0.0013316535908195933,-0.8073300648285499,0.8725710153406313,0.009924102629030995,0.6463398956889337,0.9907598550132025,-0.012126030179367817,0.6429988253008632,1.0041600379552347,0.0,0.0,0.0,0.0
-0.00010692734791625325,-0.2045285902689972,0.7339050726376153,-3.9660185602104984e-05,-0.5232358947001388,-2.324663326162385e-05,0.8521878879589929,-0.005855530723178825,-0.8100097956371244,0.8761102097697344,-0.0010748215157994094,-0.8078989023545907,0.8737216060522293,0.010846776975381294,0.6464913291146039,0.9905850584363521,-0.011207576032010967,0.6433450674997634,1.004839226767991,0.0,0.0,0.0,0.0
3.849009454719732e-06,-0.2046968135765497,0.7338698316158035,-3.293135552288098e-05,-0.5232836157499712,-1.8998123984295717e-05,0.8521585862046064,-0.005445989213109538,-0.8100222432794932,0.8763820210046941,-0.0006655072934343404,-0.8087162376205363,0.8752664491901809,0.011954101755310705,0.646700477375162,0.9903191564932746,-0.010105975709424604,0.6437007368367276,1.0057441304276458,0.0,0.0,0.0,0.0
0.000122361224217522,-0.2049212278863728,0.7338330568218375,-2.4665279867452467e-05,-0.5233225916601799,-1.682948444866937e-05,0.8521346514292591,-0.0048893473070750915,-0.8099955106870443,0.8765720139283475,-0.00010840215005117869,-0.809772791659785,0.8771608634562686,0.013415037978099911,0.6468856438841732,0.9898476198059528,-0.00864146061187396,0.6440704889168938,1.006829789657707,0.0,0.0,0.0,0.0
0.00024358194337932673,-0.20522914822051727,0.733796790209083,-2.1550783034442745e-05,-0.5233390119188535,-1.188870345514865e-05,0.8521245671837073,-0.004125198594010853,-0.8099324335257032,0.8766192817811507,0.0006570202727875605,-0.8111642846500284,0.8795150628870659,0.015477118837275664,0.6469764918291896,0.9890223493361485,-0.006553023877905972,0.6444495067579593,1.0081531896929552,0.0,0.0,0.0,0.0
0.00038702641068621215,-0.2056751198379375,0.7337552985446377,-1.1190322152803745e-05,-0.5233324082346748,-2.281845555147814e-05,0.852128622829553,-0.002972421164379597,-0.8097821930014641,0.8764927186427043,0.0018124983768879972,-0.8131881191677328,0.8827749279793329,0.018307713369913797,0.6470444828923791,0.9877052894458964,-0.0036622840147918167,0.6448300418812289,1.0099120012563036,0.0,0.0,0.0,0.0
0.0006338313160355259,-0.20635117800074407,0.7337078233075188,0.00015134336989762527,-0.5234727454235918,-0.00033474792238669115,0.8520423404019898,-0.0005117986270096147,-0.8080959697582257,0.8751935770750496,0.00427821247999124,-0.8160889137708259,0.8875841934769986,0.019907483062896456,0.6486181602011686,0.9861892327576162,-0.0020648800558807053,0.645019680475893,1.0123789431550203,0.0,0.0,0.0,0.0
0.0011604555625529499,-0.20690260959785023,0.7336071527405128,0.000191156823096441,-0.5233518777976143,-0.0003373323784211123,0.8521165775125177,0.000864860632496937,-0.8105653556804898,0.8792843408760767,-0.009214215679840362,-0.8121150691968262,0.8777061023295,0.02333455059468578,0.6492035283121977,0.9844520410361074,0.00144636950638763,0.646003887458268,1.0144406381948683,0.0,0.0,0.0,0.0
0.0018110262303180614,-0.20760834201572206,0.7334734957805115,0.0003036603272224835,-0.5233228560391983,-0.0005052204327542383,0.8521342857142274,0.0030430900406808784,-0.8124989915572802,0.8832640750803199,-0.026176863175567944,-0.8101067806157858,0.8703913880038193,0.02636039116683109,0.6506686613834023,0.9827255138689625,0.004535854789520346,0.6470215477655232,1.017201872107663,0.0,0.0,0.0,0.0
0.002528355078420299,-0.20846908687041954,0.7333222019495892,0.0004565752391762105,-0.523322964852599,-0.0007559099100606409,0.852133965170468,0.005822076288743024,-0.8140770851592632,0.8870005579543053,-0.04289161553460344,-0.8094294591873327,0.864754064100273,0.02968963541139086,0.6525204951425154,0.9806785999786656,0.007950521120367631,0.6480808732631084,1.0205263671992846,0.0,0.0,0.0,0.0
0.003281908727830539,-0.2094481332589691,0.7331613074725833,0.0006228918355089602,-0.5233199297648883,-0.0010271924769825488,0.8521354399344325,0.008957441781562103,-0.8155168066309688,0.890584529115674,-0.05804477966797226,-0.8095106360396022,0.8600392746534996,0.0336200834807382,0.654455259727195,0.9782456070225536,0.012026799234823232,0.6492339541064753,1.02423564323877,0.0,0.0,0.0,0.0
0.004073590865819755,-0.21051547185181155,0.7329890793862675,0.000797195428625799,-0.5233102227583588,-0.0013024789683749927,0.8521408796581599,0.01233230312659706,-0.8169525262047999,0.8941856697667454,-0.07161503253980543,-0.8099704197894174,0.855843344822895,0.03809037177866192,0.6564254170574692,0.9755140044117927,0.016720913886867545,0.650514032411159,1.0282436656552416,0.0,0.0,0.0,0.0
0.004920192517739798,-0.21165843003734755,0.7328000281516468,0.0009831441860495773,-0.5232979161954867,-0.0015834197277809108,0.8521477671829789,0.015918200532351007,-0.818480178894725,0.8979872328572926,-0.08400259117326249,-0.810577414633552,0.8519624352781463,0.042991613864082796,0.6584780519994476,0.9725676909955805,0.02193364428021282,0.6519517584610369,1.0325382433649253,0.0,0.0,0.0,0.0
0.0058425808995199325,-0.2128826510443597,0.7325884106694568,0.0011878597429089352,-0.5232840487659502,-0.0018790900852418226,0.8521554214559673,0.019752225536816364,-0.8201716004711409,0.9021435765559274,-0.0955976286229766,-0.8111545793921856,0.8483018530621648,0.04827220862370063,0.6606800767794248,0.9694232661287916,0.027625256224001356,0.6535704928453293,1.0371505259398752,0.0,0.0,0.0,0.0
0.0068604028965158804,-0.21420952829089507,0.7323497420152802,0.0014195254908392916,-0.5232626693778408,-0.0022011486892486347,0.8521674241177053,0.02391933769782094,-0.8220798404234079,0.9067617330004757,-0.10663432535699628,-0.8114846229947701,0.8448459660042134,0.05396216655999801,0.6630874136534273,0.9660137004891854,0.03384816185407549,0.6553834928027505,1.0421331531451266,0.0,0.0,0.0,0.0
0.007990141690326674,-0.21567296030437474,0.7320812994795328,0.0016864080072933382,-0.5232199993738923,-0.002562433396393775,0.852192127526596,0.02854144111840846,-0.8242413116488753,0.911897985275786,-0.1171920551888357,-0.8112503389016807,0.8416554746861211,0.06016276569379883,0.6657378474508867,0.9621914334665603,0.04074309273249287,0.6573926259500917,1.0475452433058865,0.0,0.0,0.0,0.0
0.009245756599610069,-0.2173168670645604,0.7317816081211638,0.0019989500865217743,-0.5231406794698592,-0.0029804030329773326,0.8522387874769175,0.03377935906706594,-0.8266381384032451,0.9175287742962894,-0.12724142218774565,-0.8100709053527244,0.8388914818181292,0.06699628490664365,0.6686799860640148,0.9577563094885619,0.048488920413538035,0.6595929153219373,1.0534552249013371,0.0,0.0,0.0,0.0
0.010686317205003185,-0.21917016786155272,0.7314465311820674,0.002385281774350577,-0.5230241342828416,-0.003487140694892166,0.8523074006708583,0.03978837027412979,-0.8293716178818366,0.9239853783181544,-0.13680684584255645,-0.8075177935712506,0.8365882400515947,0.07431016172252528,0.6721888695724282,0.9525824241965394,0.05696019212827679,0.6620817954557695,1.0598631596462458,0.0,0.0,0.0,0.0
0.012379004567282133,-0.22127118224022554,0.7310704966437566,0.0028792715873094087,-0.5228614238757583,-0.004120729480037842,0.8524028747055546,0.046766603982838655,-0.8325661086771845,0.9316346674392213,-0.14603608875045732,-0.8036962365233064,0.8342448610568994,0.08194981757012071,0.6765638388535525,0.9464861841711364,0.06602817299305044,0.6649484047002677,1.0667670454261529,0.0,0.0,0.0,0.0
0.01438315699925442,-0.22364937845182128,0.7306571746934234,0.003518055313871547,-0.522647905212347,-0.004925026538676054,0.8525271459475923,0.05490816288671629,-0.8362216564626269,0.940703057546349,-0.15529418761800537,-0.7987577812183929,0.8311886222007149,0.08965176155462388,0.682171810588911,0.9392329961794341,0.07543289052473032,0.6682958017448997,1.0740515262718855,0.0,0.0,0.0,0.0
0.01673879134047071,-0.22629521542237535,0.7302204767305494,0.004333414517985676,-0.5223854006806282,-0.005938698272848992,0.8526778093378405,0.06429886858954284,-0.8402503864467641,0.9513014284001408,-0.16525223105962009,-0.7926398388979584,0.8265352305573977,0.09695576103216139,0.6893951059029932,0.9306482139477474,0.08465766212017241,0.6722175914938595,1.0814201154259593,0.0,0.0,0.0,0.0
0.019423813363011053,-0.229116507571572,0.7297651243255244,0.005337300797637314,-0.522096280759831,-0.007172497823263853,0.8528396930912178,0.07474174134858122,-0.844446948927886,0.9632279734689142,-0.1768160737170877,-0.7850001509523244,0.8190784269780634,0.10313167369779559,0.6983667702888365,0.9210416079247047,0.09279858146316922,0.6766295999975996,1.0885456917678822,0.0,0.0,0.0,0.0
0.022252002529880258,-0.23187066803039508,0.7291341627951248,0.006504981444014205,-0.5218623938820232,-0.008594080052918522,0.8529615869757449,0.0855379462066737,-0.8485741262331229,0.975444993924527,-0.19099186772667714,-0.7753541719673306,0.8071175151227235,0.10695419339672013,0.7078903939825458,0.913194040036356,0.09821162567147557,0.6803549392793631,1.096417168659074,0.0,0.0,0.0,0.0
0.025037230628269708,-0.23418946189785841,0.7282203209402238,0.007782201081686121,-0.5216885558869199,-0.01005318905335448,0.8530412776605841,0.09535344166393943,-0.8534442959103905,0.988191501626027,-0.20786767752674049,-0.7618552953069919,0.7868184760429807,0.10712770215739799,0.7164692845891408,0.9098125526094435,0.09905101061753188,0.6823171447167242,1.1052572242483854,0.0,0.0,0.0,0.0
0.027467818722763316,-0.23582013065865737,0.7271597684228776,0.009091750226382228,-0.521491614689876,-0.011344458747198397,0.8531325448848497,0.1029608023103366,-0.8590434813545254,1.000586424572271,-0.22646227379321487,-0.7421454703826758,0.7525181055187141,0.10323377220854642,0.7230884664480104,0.9108265626285904,0.09461408844341204,0.6819409279181332,1.1136927120342603,0.0,0.0,0.0,0.0
0.028940314592394205,-0.2365442339736318,0.7262589835978891,0.010281921534712368,-0.521180160801259,-0.01218107931458061,0.8532978046282902,0.10692652844353658,-0.8639337334519821,1.009333791790988,-0.24377464721590572,-0.7141060150769508,0.6982015433718907,0.09582761830990363,0.726328509561884,0.914737640328804,0.08562228853566906,0.6786599544046868,1.1196175588734885,0.0,0.0,0.0,0.0
0.02901138212901238,-0.23661729653499494,0.7262178263788392,0.010364631310545781,-0.521146663980055,-0.012177637221282967,0.8533173115506113,0.10713161674837442,-0.8639807639315529,1.0093841994803803,-0.24380157372796193,-0.7140552236454567,0.6981943935773803,0.09573301427547964,0.7264511621077071,0.9145619587414511,0.08567221177839941,0.6786603830766569,1.119871752458554,0.0,0.0,0.0,0.0
0.02901138212901238,-0.23661729653499494,0.7262178263788392,0.010364631310545781,-0.521146663980055,-0.012177637221282967,0.8533173115506113,0.10713161674837442,-0.8639807639315529,1.0093841994803803,-0.24380157372796193,-0.7140552236454567,0.6981943935773803,0.09573301427547964,0.7264511621077071,0.9145619587414511,0.08567221177839941,0.6786603830766569,1.119871752458554,0.0,0.0,0.0,0.0
0.028651292056794685,-0.23762755889740905,0.7281475084394126,0.008695759689192567,-0.5203488693617782,-0.010732313766156689,0.8538420552763677,0.10675457575350751,-0.8635555797162681,1.0082076507557982,-0.24381434837662844,-0.7077229810230423,0.6964171299849222,0.059862034125361785,0.711241297978096,0.9528356113343306,0.11893751653132813,0.6923107920830037,1.107321230795042,0.0,0.0,0.0,0.0
0.028291087320576412,-0.2390472941546406,0.7303832876295607,0.007561695932450422,-0.519712372275429,-0.009692679086331235,0.8542528447892933,0.10807167793982697,-0.8584477211648637,1.0026764347758632,-0.2419830107742823,-0.7035465348286654,0.6983215936073753,0.027641457528791873,0.7021054621304562,0.979098522874156,0.14791469573871377,0.7056897787048105,1.0926439873935971,0.0,0.0,0.0,0.0
0.0279927331531093,-0.24068238233230108,0.7324491195006073,0.006895138827927669,-0.5192713552313369,-0.009050761752585911,0.8545336742390274,0.11069675564887804,-0.8508468153569618,0.9945632243652338,-0.23889646363372502,-0.7020577834407711,0.7034129317414973,0.003378481074479668,0.696827362322662,0.9970285533457152,0.17169147787704298,0.7172534688446254,1.0793653899442508,0.0,0.0,0.0,0.0
0.027755531385905172,-0.24240426248626332,0.7342548577639836,0.006530039498968378,-0.5189439709282915,-0.00868040514703786,0.8547392375384447,0.1140873551093196,-0.8423403283559407,0.9853137597809399,-0.23514897062146525,-0.7027046936754516,0.710658125905324,-0.015804544544785894,0.6940727060953941,1.010115633689908,0.1916372076308506,0.7270103269489128,1.0681078481664585,0.0,0.0,0.0,0.0
0.02752976777880961,-0.2441078667239467,0.7358133795621307,0.006328885108825886,-0.5186607159624432,-0.008453567579322998,0.8549149338535308,0.11771590963644399,-0.8338249294821145,0.9756779470463769,-0.2312311014026035,-0.7044533286794447,0.7185057916362794,-0.032154287911069744,0.6927499230992249,1.0202617412472252,0.2089412594763643,0.7351366550011093,1.0586964520889843,0.0,0.0,0.0,0.0
0.027217601715143577,-0.24570183042316418,0.737165037616187,0.006186245939698838,-0.5183900800969167,-0.0082758132710708,0.8550818476221959,0.12114558174201191,-0.8255526439394317,0.9656400026122761,-0.2274817028864641,-0.7059577290476486,0.7249153096088657,-0.047236823257068516,0.691956620297483,1.0284085649507282,0.22422475407886666,0.7416723550786348,1.05078654051,0.0,0.0,0.0,0.0
0.02680812807985134,-0.24720635479172193,0.7383545559844771,0.006066657275028735,-0.5181072765398591,-0.008117216648064439,0.8552556088444236,0.1243727332782552,-0.8175414222353271,0.9552066497774502,-0.22390266658464839,-0.7071473982248021,0.7299313972918785,-0.061818626217067935,0.6912932015591114,1.0350941066425097,0.23807745399158822,0.746840251152293,1.04408009273717,0.0,0.0,0.0,0.0
0.026291535606005473,-0.24866459338386307,0.7394279314343736,0.005952817900739946,-0.5177943603122227,-0.007962954898912238,0.8554473424689416,0.1274766937997542,-0.8096354393396235,0.944182587229119,-0.2204119980657428,-0.7080665309909435,0.7337639944484277,-0.076307717582258,0.6905784006862858,1.040445023237461,0.25102398071746157,0.7508487523897465,1.0382937863450825,0.0,0.0,0.0,0.0
0.025657606843402857,-0.2501367013259313,0.7404276306713626,0.005835631626252954,-0.5174293970275343,-0.007804640189965742,0.8556704108982325,0.13059046689034418,-0.8016204992157077,0.932267090026484,-0.2168786283242791,-0.708876797331831,0.7367653410181866,-0.09098852149899354,0.6898274094270153,1.044151023603369,0.2635934719194287,0.7538605844628377,1.0331833970033333,0.0,0.0,0.0,0.0
0.02488496712604874,-0.2516888500580143,0.7413933020862538,0.005703309017584537,-0.5169835203075568,-0.007630323639397429,0.8559423404399469,0.13385172722758573,-0.7932589724946617,0.9190514302089037,-0.21316208484556562,-0.7097223162924309,0.7392127779179322,-0.10619103535656087,0.6892619838831063,1.0453792815348444,0.2763477811494769,0.7559714165002445,1.0285278802619866,0.0,0.0,0.0,0.0
0.02396704536820921,-0.2534019910291981,0.7423716057773034,0.005547434551253215,-0.5164198173993023,-0.007431777830979625,0.856285330275745,0.13744499410378455,-0.7843264026763636,0.9041762492042912,-0.2090883398151865,-0.7109188170856431,0.7416763334027356,-0.12233418891325368,0.6894746090905901,1.0427827865981303,0.2898580171642219,0.7573179637895846,1.0240164153657465,0.0,0.0,0.0,0.0
0.022896464785732058,-0.2553300594429251,0.7434318822377713,0.005354835822436482,-0.5157058002724936,-0.007189751092871848,0.8567188341444608,0.14145222415182276,-0.7745919427769505,0.8873320203942214,-0.20456513309960167,-0.7125193133794162,0.7444106792928081,-0.13946147626948185,0.6897200637539215,1.0378818753090613,0.3044830865445677,0.7581263146535332,1.019047433801224,0.0,0.0,0.0,0.0
0.02166144098976044,-0.257502958530571,0.7446414670077287,0.005096575314048493,-0.5147983192037061,-0.006867385503272979,0.8572686594536492,0.14586195117819736,-0.7639923157961861,0.8683645048509976,-0.1995938839066612,-0.7144407591641203,0.7474409087162909,-0.15806409818552736,0.689561074407964,1.0317599251222498,0.32049158452304705,0.7585779368496979,1.0129324197267555,0.0,0.0,0.0,0.0
0.02025332961762541,-0.25991975228602077,0.7460282227452116,0.004725614039310047,-0.5136402499583708,-0.006410710221218728,0.8579686853196412,0.1505698412978534,-0.7528422723518842,0.8474834585724849,-0.19429479741048883,-0.7166245294317881,0.7506941672175311,-0.17963032126226927,0.6888715242643969,1.025300037115704,0.33803702127176977,0.7586605954183498,1.0051963429481399,0.0,0.0,0.0,0.0
0.018661726180366444,-0.26248265976647267,0.7475211939884234,0.004165743540657731,-0.5121714054499905,-0.005740477516786392,0.8588539718357331,0.15521610629609592,-0.7422268734819459,0.8256974273946863,-0.1890819363893509,-0.7188540690182326,0.7535432577077478,-0.20745251129505243,0.688137113493922,1.0194703790472506,0.3568382720983667,0.7579068663385508,0.9960105942215249,0.0,0.0,0.0,0.0
0.01690852623027996,-0.26488392057628324,0.748832612741173,0.0032870569294129624,-0.5102864785402837,-0.004634204770880274,0.8599857145452131,0.1586784372371355,-0.7355680880827695,0.8066380258361804,-0.18528378687771885,-0.7208519939750601,0.7547175966624177,-0.24706877276955755,0.6893483688993183,1.0147425970109465,0.3766012248598131,0.7550970247362072,0.987040579346113,0.0,0.0,0.0,0.0
0.014920303433955203,-0.2668952474725682,0.749376752628104,0.0020620828583947618,-0.5079456576435076,-0.0031038385013081727,0.8613810555624889,0.16058261038535757,-0.7356381009888872,0.792514461442591,-0.1835016376342012,-0.7235589111717757,0.7534039008861226,-0.30390606942245985,0.6932296432184618,1.0122967370987614,0.3955022487981103,0.7469342935566813,0.9832410182505018,0.0,0.0,0.0,0.0
0.013096720216278047,-0.2684384691251136,0.7487792568994708,0.000769320092479179,-0.5051397806065532,-0.0013591187982227655,0.863036130756674,0.16126223229086978,-0.7452193401108169,0.788035990669647,-0.18387013793375465,-0.7312415676174977,0.755319023406085,-0.37455234334095366,0.6988584835921355,1.013570686719779,0.4108652160647592,0.7323574277896482,0.9875930782592508,0.0,0.0,0.0,0.0
0.011610768714128243,-0.2694147656936639,0.7471723445210495,-0.00029394927194855043,-0.5020677583638359,0.0002772301760703183,0.8648281926190704,0.16102035959861274,-0.762723857585899,0.7930095583276913,-0.18603703435642874,-0.7441284038891578,0.7614359520002789,-0.4490631787875188,0.7011935337793996,1.0205081744314257,0.4194060868166086,0.7125033066952191,0.9989510465609565,0.0,0.0,0.0,0.0
0.011622880067878481,-0.26945605057631256,0.7471249478238607,-0.0003600654148562454,-0.5020643219483627,0.0003238523990550854,0.8648301463865904,0.16102548529948651,-0.7628441796489374,0.7928355027534332,-0.18607218928541214,-0.7441623930815356,0.7614821284384264,-0.44911624902604075,0.7011871617003023,1.0205081366119373,0.41946783815801597,0.712411378114668,0.9987906435441996,0.0,0.0,0.0,0.0
0.011622880067878481,-0.26945605057631256,0.7471249478238607,-0.0003600654148562454,-0.5020643219483627,0.0003238523990550854,0.8648301463865904,0.16102548529948651,-0.7628441796489374,0.7928355027534332,-0.18607218928541214,-0.7441623930815356,0.7614821284384264,-0.44911624902604075,0.7011871617003023,1.0205081366119373,0.41946783815801597,0.712411378114668,0.9987906435441996,0.0,0.0,0.0,0.0
0.011538357844870263,-0.2698308142298323,0.7478394063608413,-0.0004262936667855422,-0.5038358377860394,0.00033455914692930575,0.8637992561390214,0.16113989913015714,-0.7485133670398108,0.7780985329635519,-0.1842164067703539,-0.7322744520353844,0.7507095351907274,-0.4537331834811248,0.7107749347436584,1.0174568701811633,0.4295306536244513,0.7224551269070606,0.9967418977699786,0.0,0.0,0.0,0.0
0.011464936770853617,-0.2703343366371743,0.7483705520509698,-0.0003760189791417507,-0.5049774607691921,0.00022142779682334042,0.8631324195594539,0.16208856374536,-0.7373809752546736,0.7659789684587057,-0.1821377723151249,-0.7256349151683311,0.7452600873605195,-0.45631176203827994,0.7174775919834955,1.0142920669422975,0.4369130126217059,0.7291662786076115,0.9952583207225495,0.0,0.0,0.0,0.0
0.011539129050498465,-0.2710310121621073,0.7486575802842822,-0.0002436071824472489,-0.5056928572539261,2.1969031074530938e-05,0.8627135528640214,0.16391796559279861,-0.7292295839979597,0.7568459691062138,-0.1797236570270654,-0.7242268983229938,0.7460440411658064,-0.45722195115343034,0.7221193050332109,1.01190049385678,0.4435135115774376,0.7335796226063956,0.9953996878108308,0.0,0.0,0.0,0.0
0.011823885625511402,-0.27207127066846665,0.7485186840257152,-3.105936712465017e-05,-0.5061555482393882,-0.00026174240853268726,0.8624421670539489,0.1669781783330552,-0.7234943367957871,0.7499117475153204,-0.17659431517022425,-0.7285621672348896,0.7540068547748983,-0.4567019600168055,0.724769194664865,1.012086764013879,0.4517997560798114,0.7359447920244406,0.9995292746937542,0.0,0.0,0.0,0.0
0.012377588215397604,-0.27347374391318097,0.7477304283772612,0.00024445899191997907,-0.5065019334736498,-0.0005681984761172048,0.8622386031590951,0.17118324526796344,-0.720521754184595,0.7454440203757128,-0.17284739648799755,-0.738668434868752,0.7690964795239136,-0.4553516452215443,0.7251391447728157,1.017161256139768,0.463991419105856,0.7363652330407345,1.010024416857367,0.0,0.0,0.0,0.0
0.01319808949552486,-0.2753371598870704,0.7460091450918953,0.00027979404397379974,-0.5072857972485811,-0.0005350617246706938,0.8617776716381756,0.17592041267994302,-0.7189604242295955,0.7411799452344076,-0.16877978275831151,-0.7508890428292229,0.7872027169288509,-0.45119435542867653,0.7232829236064249,1.0307406830624166,0.49014855559071263,0.737579882936072,1.03087797754171,0.0,0.0,0.0,0.0
0.014996254812043388,-0.2778015364299235,0.7467560605206875,-0.0012962470301939527,-0.5091642113029147,0.0014927317936796849,0.8606671234709211,0.17755028154328403,-0.7138256597603786,0.7398841518777526,-0.16671958801393655,-0.7481115365666767,0.8007047977969979,-0.4199003318735696,0.7333421659718034,1.0211645702503338,0.39068487660435364,0.7234041072995148,1.0214432684259176,0.0,0.0,0.0,0.0
0.017063928758475188,-0.28056417932485045,0.7464616101110955,-0.0029236736533174283,-0.5113342682212197,0.0035928670748415713,0.859369425556449,0.17999172251910206,-0.7109880303374219,0.7399405080072583,-0.16421716106493378,-0.7489449041882005,0.818079490289918,-0.38631253055051185,0.7398915544943867,1.0201285313823247,0.2976918857924335,0.7116034648061422,1.0182068841945147,0.0,0.0,0.0,0.0
0.019245942602004858,-0.2834987050947454,0.7455482193837569,-0.003967222721526637,-0.5131328555652469,0.004970632619614827,0.8582856322313068,0.18460742649077974,-0.7094844397568666,0.7408150580128662,-0.1601025899483529,-0.7575839234673267,0.8427849202300756,-0.3573408373674859,0.7440009960625376,1.0227857503049458,0.2327536966268417,0.7054653919675096,1.019496891268385,0.0,0.0,0.0,0.0
