zhuoxili-jackie/tripod-support-walk/examples/trajectory_tripod_reorder_v0.05.csv
root_pos_x,root_pos_y,root_pos_z,root_rot_x,root_rot_y,root_rot_z,root_rot_w,FL_hip_joint,FL_thigh_joint,FL_calf_joint,FR_hip_joint,FR_thigh_joint,FR_calf_joint,RL_hip_joint,RL_thigh_joint,RL_calf_joint,RR_hip_joint,RR_thigh_joint,RR_calf_joint,FL_foot_joint,FR_foot_joint,RL_foot_joint,RR_foot_joint
0.0,0.0,0.72963,0.0,-0.5231245161092812,0.0,0.852256264656019,0.0,-0.81,0.872,0.0,-0.81,0.872,0.0,0.65,1.0,0.0,0.65,1.0,0.0,0.0,0.0,0.0
-0.000297766819423858,-0.00034553161168085115,0.7296041569220408,5.613568737964842e-06,-0.5231162337434833,6.879617792720826e-05,0.8522613456150684,0.0006836957197066398,-0.8077947961976684,0.8677614016907224,0.0006836957197066398,-0.809276225648809,0.8702832304816881,0.0027463110209196974,0.6486520699026607,0.9992209568729193,0.0027463110209196935,0.6492961214228375,1.0017403679253372,0.0,0.0,0.0,0.0
-0.00078219526164378,-0.0009191235539344885,0.7295906660129092,7.598683943061947e-05,-0.5232071756345426,6.541901414109063e-05,0.8522055158885548,0.00209797280054117,-0.8031685841957995,0.8599182980770776,0.0020991607249747036,-0.8076521766911106,0.867062031734115,0.006144689761324379,0.6472555510775903,0.9979861546587995,0.006174102594117268,0.6481960989132397,1.004422850932094,0.0,0.0,0.0,0.0
-0.0012131895033355702,-0.0015625325250590628,0.7295500884364473,0.00016970564562290724,-0.5233510292565151,3.429742936800771e-05,0.8521171692906008,0.0037426438846599698,-0.7982953732872855,0.8519228075581661,0.003748159733636542,-0.806300544084668,0.86441001006125,0.009663818903765393,0.6461110283342242,0.9968359134426505,0.0097596694357348,0.6472012575131143,1.0075993299706276,0.0,0.0,0.0,0.0
-0.0012017793103038102,-0.0020865038857809447,0.7294615735218997,0.00022719177296945937,-0.5234649359052284,1.1160465173815742e-05,0.85204718715402,0.005085623189188483,-0.7964943945331641,0.8492646657953112,0.005097557262382763,-0.8073076206159016,0.8660516035092275,0.012660565342852802,0.6459364608900673,0.9960688296174153,0.012844936349061479,0.6472336975577668,1.0103604667454793,0.0,0.0,0.0,0.0
-0.0006903116716573607,-0.002400947604076729,0.7293429566904819,0.0002580093065628436,-0.5236172738084742,7.521878905172347e-06,0.8519535691245153,0.005870532451773012,-0.797888249191566,0.852573043041143,0.005887885608749843,-0.8103107964883813,0.8718399683676313,0.014598656957142951,0.6471671537538694,0.995930298003868,0.014861588327646964,0.6487086610085275,1.0123532750694502,0.0,0.0,0.0,0.0
0.00036748451912872824,-0.002477130852972978,0.7292004929275623,0.0002637495982019788,-0.5238269619936643,2.6882150943639008e-05,0.8518246554320833,0.006018078984790611,-0.8026484946331002,0.8622870690613668,0.006037555468601532,-0.815321107532267,0.8819594450831394,0.015328129728776193,0.650025258291218,0.99644620757139,0.015634128557404692,0.6518468892643055,1.0134168300064261,0.0,0.0,0.0,0.0
0.0020120100193537134,-0.002333806972543179,0.7290473905907694,0.0002533901464464597,-0.5241050782911518,5.486936532285246e-05,0.8516535678855647,0.005606716760620619,-0.8106960580610261,0.878439185465955,0.005624792093491532,-0.822440774462586,0.8966838658546495,0.014817094969899941,0.6547987843203285,0.9973857166036337,0.015119326712138984,0.6568378216335126,1.013421690005927,0.0,0.0,0.0,0.0
0.004274476729664405,-0.002031109772547345,0.7289104824340262,0.00024716322218818035,-0.5244643730097176,5.628362287230244e-05,0.8514323562010192,0.00486443187961881,-0.8216200323617526,0.9005931614482207,0.004879274807893397,-0.8317586715067063,0.916255709194029,0.013065343335806983,0.6619055379769294,0.998245136803943,0.013318646485482897,0.6638716759086113,1.0122028645489032,0.0,0.0,0.0,0.0
0.007169794228265351,-0.0016699045846555584,0.7288313120786313,0.00027872800879563686,-0.5249288399029354,-2.8867851180834397e-05,0.8511460711978307,0.0041813744975101805,-0.8346087408874281,0.9277855596019091,0.004193616991700713,-0.843264439204484,0.9407691920616519,0.010058753734471739,0.6719124919555505,0.9982715135679174,0.010230693823264865,0.6731342768563634,1.009568220281421,0.0,0.0,0.0,0.0
0.010676946435826002,-0.0013926329996587475,0.7288378054147318,0.00039893797209617827,-0.5255332529543632,-0.00030979863051882125,0.8507729103071561,0.004184098245900955,-0.8484553894321777,0.9584604553877331,0.004196661005625324,-0.8569005928425112,0.9700786824411518,0.005574120697576688,0.6854078316738605,0.9967616651021499,0.005652577841245026,0.6845369328949473,1.005552707861678,0.0,0.0,0.0,0.0
0.014059460089189641,-0.0011675540624688592,0.7285802557065932,0.00045366419423222844,-0.5253592500427345,-0.00037596441873901314,0.8508803154581085,0.0037790912441227377,-0.8667158692950807,0.991507103625173,-0.0031381851355423923,-0.8508097882893129,0.9417962647059936,0.002980621979245341,0.6947992744668121,0.9954315547644069,0.0030540749941350533,0.6929960895228356,1.0025287110803207,0.0,0.0,0.0,0.0
0.017257666262980337,-0.001204043275909247,0.7281257531869175,0.0005538910604821518,-0.5252211636475338,-0.0005399561799646509,0.8509654111118427,0.004286112319861268,-0.8831181549837447,1.0207177284217315,-0.008797234107910907,-0.8526258504405332,0.922359010528897,0.0012683418787420037,0.7030741585695377,0.9951623172928786,0.001352782923592958,0.6999989020988834,1.0021435416470128,0.0,0.0,0.0,0.0
0.019947672525657496,-0.0014713604893757063,0.7276597708692905,0.0006979890219969662,-0.5252242107629365,-0.0007511445779309497,0.8509632642021621,0.00550849220466978,-0.8953838146080408,1.043065131050898,-0.01300854203324164,-0.8586890878563912,0.9100060513219835,0.0006477462420205042,0.7102233597978307,0.9949694576199782,0.0007491274270724952,0.7058201238504574,1.0033162810384546,0.0,0.0,0.0,0.0
0.02200078002633517,-0.0019462819129447227,0.7272727179612748,0.0008605645309750776,-0.5253089777551753,-0.0009734799595035438,0.8509105650156596,0.007310274970154174,-0.9034099413573413,1.0583252481193024,-0.016146008046712877,-0.8667406136254452,0.9016987229147571,0.0014775699650090473,0.7158808256985114,0.9942310596863226,0.0015960259162568543,0.7104215244211245,1.0053463919207073,0.0,0.0,0.0,0.0
0.02342409284932754,-0.002563072387929655,0.7269835923395521,0.0010226283816836752,-0.5254252622783065,-0.0011817006273272727,0.8508383228173217,0.00945709959323157,-0.907835311474722,1.0673995663500095,-0.018563646465411213,-0.8756643090417151,0.8954195774487511,0.003640474604643501,0.7198793540525732,0.9929788446727488,0.00378324549474873,0.7137937796564605,1.007866538940697,0.0,0.0,0.0,0.0
0.02430671382353447,-0.0032390696671421165,0.7267875709325924,0.0011707294667806405,-0.5255469074393335,-0.001359392377000981,0.850762733978066,0.011684219035901632,-0.9095185341465244,1.07163937854683,-0.020578441673042323,-0.8849287276140132,0.8900176602585202,0.006703230429574087,0.7223719997801052,0.9914210483800586,0.0068973214920006,0.7160886890618117,1.0105512019543081,0.0,0.0,0.0,0.0
0.024771318680134845,-0.0038958784956546052,0.7266690990739141,0.0012955515160735778,-0.5256621746340444,-0.0014970474619355406,0.8506911064271058,0.01375516089075896,-0.9093342639845458,1.0724785603580662,-0.022457511356162585,-0.8942939488329202,0.8848870357283715,0.010133156543657394,0.7236778757038586,0.9897936519070335,0.010419622179178984,0.7175334447170524,1.0131189932402396,0.0,0.0,0.0,0.0
0.02494175907424626,-0.004472257658999211,0.7266066701288688,0.0013901507058747978,-0.5257692758430793,-0.0015883505311114342,0.8506246018091936,0.015490636149777694,-0.9080548647262683,1.0712083322349542,-0.02440914600196717,-0.9036589878146865,0.8797474697909312,0.013490146455366522,0.7241342397814996,0.9883222921623733,0.013906281812253441,0.7183698742818826,1.0153900010993342,0.0,0.0,0.0,0.0
0.02492371931112111,-0.0049270937264147725,0.7265740340921826,0.001451743879210779,-0.5258681637448082,-0.0016320035756865012,0.850563285925099,0.016780790804689156,-0.9063150916248155,1.0688783439298946,-0.02657650188452043,-0.9129947577892233,0.8744715662809046,0.016448105348552053,0.7240037695183408,0.987231821657945,0.0170119641165618,0.7187713095395496,1.0173095159412309,0.0,0.0,0.0,0.0
0.024798775354220683,-0.005244563825355451,0.7265402006886882,0.0014806070530800925,-0.5259574833686526,-0.0016302303197042352,0.850508010450444,0.01759385483806953,-0.9046023326937298,1.06626075438436,-0.029042313133976653,-0.9223234995639721,0.8689912718469055,0.018858207915443854,0.7234292489305023,0.9867373728776129,0.019565170175676376,0.7188271440910977,1.0189768287184464,0.0,0.0,0.0,0.0
0.024647888848323276,-0.005455287246377991,0.7265184569264432,0.0014884976248233943,-0.5260414461322079,-0.0016067478668595624,0.8504561127343659,0.01807360975835463,-0.9030785409573434,1.063856715568439,-0.0317439885669046,-0.9316780352799325,0.8633378581088893,0.020706559894917553,0.7228124959210667,0.9865203606999767,0.02153641764427653,0.7188124989712863,1.0202383780807416,0.0,0.0,0.0,0.0
0.02452552690694088,-0.005593217267710057,0.7265085047475931,0.0014854728794240475,-0.5261181661113058,-0.0015790264957443554,0.8504087107581428,0.01835575089532401,-0.9018733481152453,1.0619900042790813,-0.03461633805718217,-0.9410793018741568,0.8575118481428066,0.022070642232896266,0.7223610915806785,0.9863966189603478,0.022997642365163346,0.7188660853072292,1.021108611353667,0.0,0.0,0.0,0.0
0.024462809070620276,-0.005689889347616563,0.7265043379021612,0.0014797227113300684,-0.526184783358365,-0.001559141442393141,0.8503675401029667,0.018554484128755256,-0.9010555590143845,1.0608159978113563,-0.037575357025015486,-0.9504687515871476,0.8515385531398048,0.02306121269761832,0.7221596474686223,0.9862704820027849,0.024061547591262854,0.7190401981439352,1.0216825550614856,0.0,0.0,0.0,0.0
0.02447251145365021,-0.005772587541617748,0.7265005052570519,0.0014775554551265642,-0.5262376095757714,-0.0015548273676848363,0.850334862045366,0.018760714985119397,-0.9006356838211732,1.0603587300343156,-0.04051485612660503,-0.9596116570720368,0.8455200645130629,0.023797265544604512,0.7222218463534186,0.9860776198906561,0.02485320536002434,0.7193390909201657,1.0220654715037039,0.0,0.0,0.0,0.0
0.02455066763499534,-0.005861308047482296,0.726492779598521,0.0014827165197321354,-0.5262721848428955,-0.0015691170263205292,0.8503134286156869,0.019033741193738837,-0.9005781947308474,1.0605337817750828,-0.04332228653821849,-0.967976314997149,0.8397225717977479,0.024389498250344324,0.7224996914001754,0.9857866450239305,0.025490618811796085,0.719725663269242,1.0223551339034311,0.0,0.0,0.0,0.0
0.02467734397744,-0.005964260136454043,0.7264778531073902,0.001495671441171594,-0.5262851726135288,-0.0015995787604865686,0.8503053106983851,0.019387830645700516,-0.9008077870423832,1.0611631595152249,-0.045919634951927746,-0.9746333846209516,0.8346984515364582,0.024916531708521362,0.722890191476338,0.9854192335257695,0.026058127432980988,0.7201264816427306,1.0226328522258796,0.0,0.0,0.0,0.0
0.024820862267407567,-0.006074255890987909,0.7264538221750223,0.0015138198689320075,-0.5262795022956822,-0.0016388332417970816,0.8503087133732189,0.01978387111615409,-0.9012056029620275,1.061998249316685,-0.04831390890301637,-0.9783093538167831,0.8313833654907771,0.025392773955044527,0.7232704209902114,0.9850621832098075,0.026571404558816868,0.7204567843838663,1.0229495900731778,0.0,0.0,0.0,0.0
0.02495185680814167,-0.006173565114661082,0.7264224989327231,0.0015347857074055257,-0.5262708892726802,-0.001680045271277358,0.850313926138377,0.020155364619467205,-0.9016038810424131,1.0627797279201754,-0.0505762726297757,-0.9778490936044429,0.8309572772297217,0.025744842730403034,0.7235896130052136,0.9848257936539874,0.0269519943895212,0.720679106068818,1.023306271750207,0.0,0.0,0.0,0.0
0.02506480094751364,-0.006259517441631963,0.7263841621839804,0.0015575927278606565,-0.5262596611778488,-0.0017212458213242499,0.8503207513842599,0.020490044222437914,-0.9019865819270205,1.0634714607022933,-0.05270622448906867,-0.9732549280393367,0.8333983446091159,0.025972406785803922,0.7238269377923856,0.9847240861247214,0.027199152221186292,0.7207818335054735,1.0237024400558363,0.0,0.0,0.0,0.0
0.025178342918612092,-0.0063463790568630335,0.7263377748160929,0.001583376076798857,-0.526230856902905,-0.0017657618317430796,0.850338438651686,0.020835874114576765,-0.9024824522774137,1.0642529174345858,-0.05462420453129538,-0.9656912192357264,0.8375109575171349,0.026155034749634824,0.7239949302691279,0.9846657440526216,0.02739801403947027,0.7207817310127209,1.0241391660607309,0.0,0.0,0.0,0.0
0.025312207297134973,-0.00644215502272934,0.7262859700004293,0.0016144912428791608,-0.5261824241441685,-0.0018182278826785827,0.8503682402272322,0.02122644764330982,-0.9031516046531273,1.0652628099052102,-0.05630699491719054,-0.9564331713028693,0.8423512653035354,0.02630626239198467,0.7241748141837724,0.984570066004597,0.02756340684241306,0.7207406494829174,1.0245823060530375,0.0,0.0,0.0,0.0
0.025471580064455362,-0.006545369314220988,0.726232565048641,0.0016513372547742582,-0.5261184254895607,-0.001879675360840682,0.8504076330009006,0.021660511874716366,-0.9039826934743115,1.066523278785353,-0.05780628375006032,-0.9464026599779783,0.8473482799999781,0.026404683534267552,0.7244179655725324,0.9844075594561512,0.02767247902435356,0.7206994216649568,1.0249910122906807,0.0,0.0,0.0,0.0
0.025643318274899334,-0.006650413176508334,0.726182094393394,0.0016922952897365762,-0.5260438529821272,-0.0019474877360434342,0.8504535308691995,0.022116055539662074,-0.9048949762226102,1.0679160449720366,-0.05919171110815991,-0.9361201325341582,0.8522097789827119,0.02643579485775393,0.724711786133087,0.9841821042612072,0.02770947262232757,0.7206541370376622,1.0253367836051814,0.0,0.0,0.0,0.0
0.025797512386073137,-0.006753541617608527,0.7261403002228125,0.0017350417547000614,-0.5259621401620711,-0.002017487426569266,0.8505038192099592,0.02257122370214402,-0.9057391088562581,1.0691838438922447,-0.060504635892884226,-0.925810398985741,0.8568029383123877,0.026414060348569968,0.7249831694200471,0.9839010958618317,0.027689547540813216,0.7205541051917772,1.0256104696501804,0.0,0.0,0.0,0.0
0.02589045821494347,-0.006857172921571617,0.7261142954088708,0.001777632568187584,-0.5258748856020797,-0.002085651954030287,0.8505575199663916,0.023019883863427324,-0.9062974868304511,1.0699396641651349,-0.061743764963250604,-0.915526191743325,0.8610691331635474,0.02639700210562865,0.7251110956042819,0.9835557216649733,0.02767405228553282,0.7203094925704525,1.0258284399005662,0.0,0.0,0.0,0.0
0.025867771178350468,-0.006971981894670018,0.7261116921235661,0.0018192978788338849,-0.5257825063537571,-0.0021494477714737795,0.8506143815160117,0.02348052690764829,-0.9062886697979471,1.0696809831275838,-0.06287453925087857,-0.9052396100927839,0.8649788819633495,0.02648677897855076,0.7249381128011336,0.983118997462767,0.027772276830073318,0.7197968264637679,1.0260419661458149,0.0,0.0,0.0,0.0
0.02566803299708985,-0.007116785364362992,0.7261369371371009,0.0018605882056043146,-0.5256851361064474,-0.002208439456055192,0.8506743199858826,0.02399780472025704,-0.9053874205623341,1.067817303219384,-0.06385672800071406,-0.8948977294071538,0.8685194289800618,0.02682376261344085,0.7242705674076921,0.9825749999666571,0.028134664229201453,0.7188554477490745,1.0263636712214799,0.0,0.0,0.0,0.0
0.025237063763670544,-0.007319796826525963,0.7262005018472206,0.0019053932351492118,-0.5255851564753113,-0.002268026027895049,0.8507358396278946,0.02465489527377604,-0.9032286968190797,1.0637503828695725,-0.06467452104233087,-0.8844293622075028,0.8717169460213945,0.02755147459873417,0.7229915701611149,0.9818150246229339,0.028915890438365326,0.7173694744888678,1.0268671217594305,0.0,0.0,0.0,0.0
0.02453261119874765,-0.007607452095467101,0.7263042790388444,0.001958987199073364,-0.5254899794976455,-0.0023365912103519956,0.8507943254149228,0.025537249018539637,-0.8994870190316095,1.0569523167013424,-0.06540082422750101,-0.8737629775304889,0.8746655324726067,0.028762492657680654,0.7210158317709814,0.9808023601444292,0.030217691020202955,0.7152258682937145,1.027677583097835,0.0,0.0,0.0,0.0
0.023542975605603502,-0.007991855299123267,0.7264390488362092,0.00202810262304413,-0.5254170003578904,-0.0024255879974778584,0.8508389853888534,0.026699568123310632,-0.8939624921323689,1.0471368307142592,-0.06624691555116702,-0.8628381569624802,0.877574569559994,0.030400941821765184,0.7183635908643013,0.9796201744803436,0.03198448041979532,0.7123646731581386,1.0289327549554497,0.0,0.0,0.0,0.0
0.02231108940087496,-0.00845303746188699,0.7265776257601095,0.0021211684918125543,-0.5253989335959799,-0.0025489578100184366,0.8508495542894284,0.028118471857154572,-0.8867205591327543,1.034510166367365,-0.06755897280622947,-0.8516746244246056,0.8808017075744294,0.03214313773189312,0.7152262024535442,0.9785763855179141,0.0338719193660615,0.7088261272388056,1.030764144077688,0.0,0.0,0.0,0.0
0.020964443826531242,-0.008922187747502341,0.726670255725531,0.002250729707611352,-0.5254877589982284,-0.0027236277921048524,0.8507938241492196,0.029652060685419448,-0.8782655948550399,1.020098098970456,-0.06964650922846839,-0.8405464072910207,0.8848128277717147,0.033283173069586225,0.7120488709690667,0.9782872403334989,0.035116126022588574,0.7048178772479997,1.0332606685877295,0.0,0.0,0.0,0.0
0.019750791351001332,-0.009278734346726119,0.7266636594937466,0.0024368968543227922,-0.5257307940023965,-0.0029654442686819138,0.8506423454728905,0.031026902992694526,-0.8698198612932302,1.0062355478939098,-0.07233667734498071,-0.8302424553455215,0.8897566792529362,0.03274314740277134,0.7096414038144508,0.9794416604535844,0.03454149688018875,0.7008472122273552,1.0362277369335375,0.0,0.0,0.0,0.0
0.01907257253528441,-0.009376684079590256,0.7265544086770348,0.002706228070513447,-0.5261378180484141,-0.003265702644228871,0.8503887393040455,0.03185046180775032,-0.8635331052168412,0.9970130520435899,-0.07455775190025409,-0.8227407426502709,0.8946047158905113,0.029411969020055974,0.7093713485787868,0.982095237550726,0.030952959580108533,0.6980635181260232,1.0387375071288067,0.0,0.0,0.0,0.0
0.019078968755367166,-0.009378249292585107,0.7265509678503812,0.00270386380038903,-0.5261328358523628,-0.003268889946670915,0.8503918170567119,0.03185860357585794,-0.863540217671926,0.9969813431875711,-0.07456154335421464,-0.8227323655766148,0.8946216450282041,0.0294051598067548,0.7093776289707775,0.9820894297303064,0.030960931870445588,0.6980569099313956,1.0387338987459402,0.0,0.0,0.0,0.0
0.019078968755367166,-0.009378249292585107,0.7265509678503812,0.00270386380038903,-0.5261328358523628,-0.003268889946670915,0.8503918170567119,0.03185860357585794,-0.863540217671926,0.9969813431875711,-0.07456154335421464,-0.8227323655766148,0.8946216450282041,0.0294051598067548,0.7093776289707775,0.9820894297303064,0.030960931870445588,0.6980569099313956,1.0387338987459402,0.0,0.0,0.0,0.0
0.019898941526108507,-0.009325110930614803,0.7280065740797222,0.002247002887975687,-0.5256930011992347,-0.0026658529087376006,0.8506672161876416,0.030371785357324425,-0.8670460121646533,1.0062444160359827,-0.07617570879376147,-0.8230224773733327,0.9015830658366257,0.022093671950978264,0.6932820730221743,1.0077016160841163,0.03852810900935658,0.7085434064559787,1.0245662114672278,0.0,0.0,0.0,0.0
0.021334619587002696,-0.009331311428962642,0.7297200583313856,0.0020257044619803955,-0.5254462242147411,-0.002349409432507487,0.8508211576208147,0.02968720120181482,-0.8704073553572368,1.0186734691287491,-0.07705680501787608,-0.8254453530593527,0.9139563523168381,0.016285894811055364,0.6826155649114043,1.0280387084549547,0.04275224339533026,0.7216589387334926,1.0071953970536516,0.0,0.0,0.0,0.0
0.022792499846660118,-0.009574433678465397,0.7313115413557673,0.00197565432727176,-0.5253703578214596,-0.0022694608584012156,0.8508683408494776,0.030155571522164023,-0.871912375045908,1.0289690363940398,-0.07678104763411606,-0.8285151846567966,0.9270344517717711,0.013458287875787279,0.6751175013264336,1.0451748159888636,0.0459397999672855,0.7342186710133907,0.9913154096028837,0.0,0.0,0.0,0.0
0.02412182227319756,-0.01007019287305398,0.7326839568251485,0.002025214927340704,-0.5253228028007589,-0.0023549350565091366,0.8508973531765935,0.031675745685849375,-0.8722427317622978,1.0368806743409862,-0.07546110003151281,-0.8324478513766044,0.9402010366557871,0.012248793526660945,0.669679211363347,1.0604705032716935,0.04921129874840648,0.7451492583071415,0.9780352522970455,0.0,0.0,0.0,0.0
0.02520786528053963,-0.01075015557319687,0.7338748624618522,0.002122435252355,-0.5252827267006572,-0.0025219562366598468,0.8509213782925321,0.03386363310186069,-0.8713197953998553,1.0419620169279185,-0.07344379107343521,-0.8363188480312965,0.9520339424809284,0.011893850110232881,0.6652768590152631,1.0747778644040944,0.053004262873570095,0.7543874708933525,0.9671525796013981,0.0,0.0,0.0,0.0
0.026005552446421495,-0.011499626162792933,0.7349503818394705,0.002230612271059276,-0.5252611784637293,-0.0026956639605204454,0.8509338706172193,0.036227748989550466,-0.8691656492818656,1.0442893708170988,-0.0711868673893486,-0.8392035187119682,0.9614311904969985,0.011986168035962828,0.6611604134757553,1.0885784513736776,0.057218590335652915,0.7622524917367547,0.9579361091713319,0.0,0.0,0.0,0.0
0.0265314338651001,-0.012243082498220434,0.7359472436363014,0.002330854613388939,-0.5252510211214133,-0.0028425980183710365,0.8509393935905128,0.03848724679198297,-0.8660669852091307,1.0443651612288813,-0.06896728865122463,-0.8408709496519823,0.9682414587175362,0.01230235975354266,0.656968335258249,1.1021239292535714,0.06161334702328214,0.7689808043335508,0.9498384117054901,0.0,0.0,0.0,0.0
0.026836470567645848,-0.012940400029753366,0.7368841268076666,0.002416441765940329,-0.5252441984578601,-0.002953785421594473,0.850942987483436,0.04051831798543556,-0.8623662219224394,1.0428223780514028,-0.06692060552848213,-0.8414506555849546,0.9728193680281917,0.012715176273171879,0.6526023542080788,1.1155718917706463,0.06596006957996405,0.7747888803086039,0.9424912415034089,0.0,0.0,0.0,0.0
0.026980643135871906,-0.013573556484867556,0.7377715298282487,0.0024864671819254855,-0.5252373396100217,-0.0030311616355066296,0.8509467472289199,0.04228390194239803,-0.8583557607209529,1.040246397530989,-0.06509958315407724,-0.8411808603577928,0.9756679720008938,0.013136686261869318,0.648081834374219,1.1290309329218107,0.0700945596599495,0.7798870729195478,0.9356455120309151,0.0,0.0,0.0,0.0
0.027018218239893664,-0.014135522765932114,0.7386177068261252,0.0025423042343358875,-0.5252370479556209,-0.0030804958380455313,0.8509465850976997,0.043784683188366674,-0.8542145087156583,1.0370755898102695,-0.06351592988450695,-0.8402513724780845,0.977222842479489,0.013473107005749219,0.6434699338049639,1.1426040654669745,0.07391206238462993,0.7844886682115686,0.9291256502988783,0.0,0.0,0.0,0.0
0.027048226485849404,-0.01465735522003945,0.7394223390889951,0.002596350550311659,-0.5252260285996098,-0.003126129419981394,0.8509530569662179,0.045170897450503344,-0.8503340004810412,1.0340873407337055,-0.06204998626723666,-0.8393609084053028,0.9786430767743689,0.013775003474398159,0.6390019529044424,1.156289617245335,0.07740692659770347,0.7888128668036838,0.9228294370314495,0.0,0.0,0.0,0.0
0.027135670917676397,-0.015154851743684502,0.740186449709918,0.0026562845866838374,-0.5252038058324713,-0.0031823468615138207,0.8509663795707415,0.04652415979043967,-0.8469213582564966,1.0317591946275484,-0.06063642652515947,-0.8388828738537506,0.9806044596976778,0.014042477204902237,0.6348445892294072,1.1700785878724937,0.08057082409401058,0.7930467698457756,0.9166836518179469,0.0,0.0,0.0,0.0
0.027294115911607287,-0.015619916562740224,0.7409066487809691,0.0027208945648025474,-0.5251812624417844,-0.003247740989173987,0.8509798414129961,0.04782202857849075,-0.8440104012406038,1.030197012476993,-0.0592985564859362,-0.838801049655342,0.983137205662408,0.014215647581578695,0.6310517225656476,1.1838940563188414,0.0833821628881695,0.7972544590135036,0.9106972567079101,0.0,0.0,0.0,0.0
0.027528264499973094,-0.016047559021239333,0.7415673326305346,0.0027887843325337704,-0.5251593087472501,-0.003320594864390133,0.8509928887880341,0.049050662602759094,-0.8416853438400477,1.0294877303045527,-0.058053227233817666,-0.8391621715568331,0.9862744292811731,0.014269929071062589,0.6277113507513681,1.1974718067681849,0.08584032697451673,0.8013817757310431,0.9050085588673922,0.0,0.0,0.0,0.0
0.02782241764946928,-0.016432221894165013,0.7421385531680298,0.0028560733747641236,-0.5251305163441756,-0.0033954592246399837,0.8510101377220081,0.05018664913586319,-0.8400472550666059,1.0296166584900597,-0.05692594103415303,-0.8400026269593389,0.9899216874796279,0.014165230859129772,0.6249196244542626,1.210221378137428,0.08797429580256837,0.805219098626203,0.8999230275091845,0.0,0.0,0.0,0.0
0.028060878211033344,-0.016721243610059895,0.7425859329661082,0.002900748743824612,-0.5251228199696462,-0.0034393370743346693,0.851014559548978,0.05100942097216878,-0.8387765303003804,1.0297748590307174,-0.05610764006367944,-0.8405313407627748,0.9926743664554528,0.013539441335287207,0.6225879230382046,1.221154571225313,0.08975980083828944,0.8083619646685791,0.8958989749437681,0.0,0.0,0.0,0.0
0.028196545162730808,-0.016922384227195705,0.7428551877938248,0.0029147975174585164,-0.5251202830219723,-0.0034452615571929452,0.8510160530137834,0.05152811588855277,-0.8379499979865825,1.0297230626236227,-0.05558984975895497,-0.840807812576364,0.9943042411793599,0.012076260554527481,0.6211413927926506,1.2283529569198095,0.09136336541118581,0.8103595278064452,0.8935874825228708,0.0,0.0,0.0,0.0
0.02820183572877578,-0.017061121826941795,0.7429014207190668,0.002892918398455038,-0.525101332632337,-0.0034128263082956792,0.851027951425494,0.05181513610507886,-0.8376688991128223,1.0293235616441618,-0.05530509670164316,-0.8410378244735743,0.9948493218016627,0.009330772838201747,0.6216749126188493,1.2288318980775153,0.0930295042708107,0.8108505585646903,0.893555896376476,0.0,0.0,0.0,0.0
0.028076598835389016,-0.017142678591735697,0.7427255236554806,0.0028370313325615723,-0.5250645002399876,-0.0033440422333854995,0.851051137842193,0.05188798232561049,-0.8379196755822439,1.028557901597806,-0.055236146464771076,-0.8412483151056526,0.9943443785692242,0.005318828283624062,0.624179008924214,1.2225783537357744,0.09476652511665856,0.8098273275970239,0.8958129779936871,0.0,0.0,0.0,0.0
0.027846503683665612,-0.01715237853774646,0.7423752150456645,0.0027555996044324833,-0.5250281419176771,-0.003243175809142776,0.8510742263022436,0.05171002560266562,-0.8385651660919852,1.0275117787730674,-0.055415082825048,-0.8412776746924905,0.9928068396910922,0.0005026823923538907,0.6275520526397833,1.2125511034085559,0.09635521125664762,0.8076396656864303,0.8997964247759077,0.0,0.0,0.0,0.0
0.02756737864132439,-0.017103907890929963,0.7419084115071913,0.0026615902609789443,-0.5249949579227706,-0.003124298106599563,0.8510954405084614,0.05134535923130169,-0.8395560827566889,1.0264652588490382,-0.05578276904154787,-0.8412460282473493,0.9907130324528884,-0.004735262243137791,0.6314061811988265,1.2006080047829286,0.09770366413408416,0.8047386866656526,0.9048418196310266,0.0,0.0,0.0,0.0
0.027310944048790083,-0.01704567932349357,0.7413715220073608,0.002572379365086932,-0.5249467196529599,-0.003011296962142516,0.851125875814268,0.050976604593494186,-0.8409595382610626,1.025812820897273,-0.056171812205141204,-0.8416134410047181,0.988965242024447,-0.01008419271240695,0.6357275006214864,1.1877434023293285,0.09889885374315076,0.801501800449371,0.9104515894489693,0.0,0.0,0.0,0.0
0.027070936949282892,-0.01700046692616372,0.7408026384141548,0.002492175653289496,-0.5248798325903018,-0.002908269971501713,0.8511677228174613,0.050667173265556885,-0.842573168390503,1.0253606793440946,-0.05651344388434408,-0.8423195797921196,0.9875725863919478,-0.015425461494723208,0.6404027665323971,1.1744795648519426,0.10004815381268245,0.798091228175928,0.9163123175682503,0.0,0.0,0.0,0.0
0.02678780080561174,-0.016979885476780518,0.740228398853377,0.0024176436460255513,-0.5247906209385552,-0.002810546308153874,0.8512232727102662,0.0504288845125048,-0.8440560572330618,1.0245381548290902,-0.05677920870088401,-0.8430452508020325,0.986020476330835,-0.020746930991953322,0.6452344609371887,1.1610315397930486,0.10126054339897932,0.794449645910466,0.9222893693070993,0.0,0.0,0.0,0.0
0.026365304986759586,-0.01698449333293334,0.7396709934333693,0.0023401605950842345,-0.5246822748237415,-0.0027051963293968895,0.8512906178544389,0.05022208266414993,-0.8449316481726235,1.0224874271241817,-0.05698211347943836,-0.8432272583793297,0.9833727278522171,-0.026089238635028905,0.649956982132853,1.147488489859348,0.10264119039177683,0.7904116569019529,0.9283360406545387,0.0,0.0,0.0,0.0
0.02574200264636321,-0.017045904056495722,0.7391453544184482,0.0022592105453417876,-0.5245397885454915,-0.002593013984118957,0.8513789887463991,0.050125138268772476,-0.8448815186086105,1.0186015815891791,-0.057030773891664194,-0.8426952667778229,0.9792523458835635,-0.03143094057493339,0.6544360570805516,1.1338390464153163,0.10438408740827336,0.7858148844351129,0.9344729349025113,0.0,0.0,0.0,0.0
0.02484434075249617,-0.017194611482244777,0.7386641873255787,0.0021717643302597363,-0.5243552644269197,-0.002473054955662601,0.8514932319793594,0.05020833295786342,-0.8435029100317868,1.0121309480787941,-0.056837755680712726,-0.8411736445044082,0.97311671293264,-0.036842385327111885,0.6584986174204561,1.1200900983249304,0.10669952465450026,0.7804754732653217,0.9407642865181425,0.0,0.0,0.0,0.0
0.023598341503868654,-0.017460006729469037,0.738234582790269,0.0020721608849498248,-0.5241254029194603,-0.00234290896730514,0.8516353556196168,0.050535854441615,-0.8403755149009705,1.0022855147884182,-0.05632150204632364,-0.8383528531515213,0.9643674417851883,-0.04251877653087141,0.661950440038149,1.1062899977806548,0.1098117858440344,0.7742047469974481,0.9473205685203527,0.0,0.0,0.0,0.0
0.021952894152068917,-0.017869643826149424,0.7378523740505505,0.0019526869364723473,-0.5238513293144559,-0.0021996954328731013,0.8518046331930863,0.05116828640916765,-0.8351715330187343,0.9884271270892402,-0.055410326454531436,-0.8340081917278699,0.9525532492970864,-0.04886408905312204,0.6646656286831824,1.0926117185376698,0.11395134225252683,0.7668590555713215,0.9543061377812352,0.0,0.0,0.0,0.0
0.019918736616303813,-0.018446663523347763,0.7374910555015223,0.001804632019754043,-0.5235342264748403,-0.0020404073644373984,0.8520002897596051,0.05216111669635186,-0.8278880498604043,0.9704481739912789,-0.05405574247099202,-0.8282352906984278,0.937751666944583,-0.05665554438922578,0.6667974045136627,1.0794867468935079,0.1193478845734574,0.7584031264505771,0.9619686337527809,0.0,0.0,0.0,0.0
0.017624734878030568,-0.019204327729086118,0.7370784876555785,0.0016179197330238248,-0.5231441805367243,-0.0018617346149281074,0.8522406248534039,0.05356277331070943,-0.8193880730705835,0.9495326878791491,-0.05225784875395341,-0.8219775011002702,0.9213092464890517,-0.06740122012114776,0.6691500140862562,1.067704471847113,0.12620852402908755,0.7488859172146558,0.9707177980282209,0.0,0.0,0.0,0.0
0.0153683032550304,-0.02005734754317,0.7365210475631555,0.001362584876813792,-0.5225945754286353,-0.0015906817641518993,0.8525787487537694,0.05502473822395123,-0.8121606552864088,0.9293412115140007,-0.05047123410964332,-0.8170438688820512,0.9060958089050758,-0.083720184914216,0.6733689004613665,1.058260838848061,0.13470968070657,0.7387838306012569,0.9805933567356153,0.0,0.0,0.0,0.0
0.013548548893426795,-0.020823399612563485,0.7358043469469611,0.0009982838237451257,-0.5217781389853277,-0.001137933967204885,0.8530798803234675,0.05593422011011417,-0.8095302607037785,0.9152662601617214,-0.04943407155913103,-0.8154658453965868,0.8957852873858405,-0.10973562029512746,0.680811499133981,1.0524221355887287,0.14447408516703247,0.7291659617534069,0.9905049817411467,0.0,0.0,0.0,0.0
0.012376208560285103,-0.021368556436389796,0.7351846921575649,0.0005913515910485555,-0.5208137486324085,-0.0005333081353458039,0.8536699626443388,0.05598363103392384,-0.8114212981066794,0.9090755195920494,-0.049440988303864765,-0.8167682724167091,0.8912760417578862,-0.14291928455984668,0.6885319142320484,1.051738081365988,0.15393463321279663,0.7219595794794567,0.9976785057009213,0.0,0.0,0.0,0.0
0.012383073692613796,-0.021375565970962206,0.7351672217243801,0.0005741330223781977,-0.5208063610575858,-0.0005214017580163197,0.8536744887797895,0.05597527520944175,-0.8114528501462928,0.9090118921323406,-0.04945499701505784,-0.8167835697455879,0.8912544192036234,-0.14290606644810752,0.6885462236508654,1.05173498379908,0.15393195084524636,0.7219165243762269,0.9976481338663208,0.0,0.0,0.0,0.0
0.012383073692613796,-0.021375565970962206,0.7351672217243801,0.0005741330223781977,-0.5208063610575858,-0.0005214017580163197,0.8536744887797895,0.05597527520944175,-0.8114528501462928,0.9090118921323406,-0.04945499701505784,-0.8167835697455879,0.8912544192036234,-0.14290606644810752,0.6885462236508654,1.05173498379908,0.15393195084524636,0.7219165243762269,0.9976481338663208,0.0,0.0,0.0,0.0
0.011446643546151701,-0.02133822357737741,0.7353123777910079,0.0005111469723212715,-0.5210387340939053,-0.0004851830916232289,0.8535327415512313,0.05566429397516067,-0.8052044879885253,0.8986537385592408,-0.049469651728199254,-0.809866152255122,0.8801024787145668,-0.141819612948308,0.686578921148686,1.0519742497076618,0.15355623383165054,0.7202914067157171,0.997657043380941,0.0,0.0,0.0,0.0
0.010103115174854124,-0.02123283790650368,0.7354035640694702,0.0004630516475532465,-0.5212374624183131,-0.000487792164253419,0.8534114221251634,0.05523800172571438,-0.7973213007920088,0.8846898945749736,-0.04951950800054869,-0.8010382836599408,0.8647610959969321,-0.1412682715384645,0.6830912458317591,1.0532651777308661,0.1517834366720741,0.7167344995706233,0.9983410402347747,0.0,0.0,0.0,0.0
0.009059151481571518,-0.021118365270012134,0.7354256763992995,0.00043794648175556126,-0.5213068826825156,-0.0004976284660270111,0.8533690260588481,0.05485558825029921,-0.7917792241616547,0.874270467776845,-0.049638458151290095,-0.7946298427772142,0.853000467048045,-0.1411389152929777,0.6799782585536246,1.0545987763021356,0.1499180306863971,0.7134290290585679,0.9990207097193561,0.0,0.0,0.0,0.0
0.008482683443366302,-0.021044095456391066,0.7354204597831215,0.0004292814501834878,-0.5213418336679134,-0.0005082517005573654,0.8533476723267153,0.054630590239746174,-0.7887429374832311,0.8684781302366354,-0.049721842463565424,-0.7910734273670428,0.8463691442162982,-0.14123824829968173,0.6782169853205936,1.0554964524604558,0.1487572158826202,0.7115026768596006,0.999491092908053,0.0,0.0,0.0,0.0
0.008405307003219386,-0.02104780557636203,0.735385532261251,0.00043729924516965074,-0.5213840863504023,-0.000526500641061284,0.853321842019177,0.05467221706960615,-0.7880995022994138,0.8673643558511342,-0.049656382537509175,-0.7905093687753532,0.8453090172687091,-0.14142080625293124,0.6780131469222476,1.0559531548046228,0.14861087158885175,0.7111743565794311,0.9999584131860739,0.0,0.0,0.0,0.0
0.00884909059353647,-0.02115278700878572,0.7353158716065035,0.0004632587045077419,-0.5214506785184234,-0.0005562616312068428,0.8532811177080191,0.055048636345713775,-0.7898249171265009,0.870986683573569,-0.04937511394546517,-0.7930680456913473,0.850111619271207,-0.14159641393223227,0.6794653938968648,1.0559671842356557,0.14966591589256967,0.7125516190645077,1.0005521554353023,0.0,0.0,0.0,0.0
0.009834378973996827,-0.02136651645451592,0.735219227730378,0.0005069835587116835,-0.5215467881779651,-0.0005954157426328093,0.8532223251820205,0.05577617822657322,-0.793917209932679,0.8794145370827221,-0.04886476215499939,-0.7987705573809362,0.860883054846645,-0.14171627894355215,0.6826906802159054,1.055419471572973,0.15205556053464844,0.7157893012505803,1.001194385390251,0.0,0.0,0.0,0.0
0.01138188510066859,-0.021675553042006863,0.7351328333239029,0.0005655376474205139,-0.5216691375375437,-0.0006330714475076204,0.8531474610690387,0.0567987461645467,-0.8003564933476651,0.892737349351532,-0.04818408215276459,-0.8074495846247742,0.8775011619005538,-0.14177993898262828,0.6879092247909235,1.0539427515349764,0.1558548005974182,0.7211910502094446,1.001436007310393,0.0,0.0,0.0,0.0
0.013520851920455166,-0.022036483105645543,0.7351768611531233,0.0006313471975366016,-0.5218102937012474,-0.0006444040603180446,0.8530610784296404,0.05794806656023093,-0.8089856500060577,0.9110889059763827,-0.0474986369347197,-0.818574050877357,0.8995765035357488,-0.14184377911251492,0.69570740809203,1.0504720280478825,0.16104509606936965,0.7294976955597671,0.9999401751014753,0.0,0.0,0.0,0.0
0.016341163614660516,-0.02236866654946641,0.7357593449805829,0.0006611266501451096,-0.5219941795581552,-0.0005515974152530761,0.8529486122617541,0.058825869379160615,-0.8190346879901388,0.9347694074391723,-0.047180054701781354,-0.8305398662797655,0.9263993473536863,-0.14154755544333916,0.7080612559294336,1.0414220390294555,0.1679974631027065,0.7432551656277114,0.9925991337650272,0.0,0.0,0.0,0.0
0.018926889872704446,-0.023093442182264633,0.7368458259100256,-4.191961201251886e-05,-0.5227386240357815,0.0003010852169463216,0.8524929551213992,0.05903802988587027,-0.8241475425955579,0.9521298791763149,-0.04731885490669604,-0.8345390484432081,0.9458527963995189,-0.12644852893233213,0.719805848824703,1.0270466542774201,0.1293164754345282,0.7242634022148564,1.0134122524538152,0.0,0.0,0.0,0.0
0.021274453513819763,-0.023840910685960722,0.737887975865972,-0.0005875063071240216,-0.5234122220065257,0.0009424106103273898,0.8520788769549285,0.059774063606420694,-0.8278002110582493,0.9668113816672457,-0.046884592259214944,-0.8383127530534833,0.96366591264181,-0.11292448988840742,0.7310285708618589,1.0128384114384863,0.09792884394879187,0.7086058319215157,1.030112229576018,0.0,0.0,0.0,0.0
0.02323322555944014,-0.024451574143765278,0.7387654562956125,-0.0009070809485809322,-0.5238942203680449,0.0013139343335825842,0.8517818362971108,0.06072904344531422,-0.8306564059604784,0.9788810063181889,-0.04619260489598999,-0.8421270764651824,0.9789469888067952,-0.1035546611431561,0.7408731865622278,1.0005803276380858,0.0778035152470995,0.6974156633047067,1.0446615402527364,0.0,0.0,0.0,0.0
0.024757944444199494,-0.02488559447815628,0.7395038784191541,-0.0010953370141022175,-0.5242334925166058,0.0015318441307439728,0.8515724860598929,0.06152699753588908,-0.8326893611421992,0.9882167104732252,-0.04559952156126129,-0.8450948960461062,0.9907478941942303,-0.097410917744114,0.7490559833694753,0.9904436330213806,0.06488271134979394,0.6892543812285523,1.0583348271132738,0.0,0.0,0.0,0.0
0.025883827936977258,-0.025151211239426752,0.7401660486333954,-0.00122200536571096,-0.524474244117377,0.0016758357637468363,0.8514237872733443,0.062010732543676034,-0.8339002003671114,0.9950822958488381,-0.045255546538746826,-0.8468052493245354,0.9990618674304622,-0.09345754057752335,0.7557589616603148,0.9819311666287069,0.05576702609192956,0.6828356630135766,1.0716216158098066,0.0,0.0,0.0,0.0
0.026681543303914642,-0.025275603415783186,0.7408033049115588,-0.0013245555169789215,-0.5246443845268522,0.0017879287676966762,0.8513185764728998,0.06216295280044735,-0.8343821739838058,0.9999382205680231,-0.04518321939212352,-0.8472501641199809,1.0043912135657003,-0.09094005813995353,0.7613165343298728,0.9744605207675278,0.04848665927319958,0.6773128394864477,1.0847060209939223,0.0,0.0,0.0,0.0
0.027228207258742816,-0.025293261627523305,0.7414442775661955,-0.0014203671199889104,-0.5247624464757004,0.0018878977374485169,0.8512454365036062,0.062037429937370124,-0.8342706660327118,1.003259675497144,-0.045339750193251795,-0.8466267406478182,1.0073998528945667,-0.08932775566090959,0.7660481626690471,0.9675794669638043,0.04204376140128746,0.6721869742148622,1.0976658387331972,0.0,0.0,0.0,0.0
0.02759125901613092,-0.025241192975864763,0.74209904505887,-0.0015158394494238295,-0.5248434872184534,0.001983040491485835,0.8511950914482213,0.061721882346741794,-0.8336799197133811,1.0054207152720651,-0.04564868616820634,-0.8451928147809619,1.0087182922492008,-0.08823425290031688,0.7702023841788511,0.9609958747598827,0.035986668059849625,0.6671787578896525,1.1105495148041746,0.0,0.0,0.0,0.0
0.027833220655990875,-0.025149465725370437,0.7427670907543933,-0.0016130365733707593,-0.524900459339791,0.0020768610415177234,0.8511595576307086,0.061293976726142035,-0.8327478206780271,1.0067877421345384,-0.046044298848364154,-0.8432189171564111,1.0089320483531954,-0.08739404131244667,0.7739855729152795,0.9545372089503348,0.03013161927483122,0.6621679673494857,1.1234136497368001,0.0,0.0,0.0,0.0
0.028033892856368696,-0.025025249438805672,0.7434418710015944,-0.0017149765225243376,-0.5249369993086934,0.0021782892153702515,0.8511365699277679,0.06076264650542459,-0.8318258535786515,1.0080308643292744,-0.04653739178555633,-0.8410556078854852,1.0087387637458598,-0.08669353800573341,0.7776155130128524,0.9481114719460076,0.02435148436431314,0.6572062094228643,1.136306395219236,0.0,0.0,0.0,0.0
0.028232716238969023,-0.0248880884402067,0.7441131943740235,-0.001820527470796668,-0.5249623711907851,0.002287082088680887,0.8511204167266792,0.06018348217864576,-0.831014798384093,1.0093783443528386,-0.04708077450440569,-0.8389060352632479,1.0085229353312635,-0.08600520911618462,0.7811923620727297,0.9417024447152683,0.018633461648400827,0.6523179375330871,1.149264358469131,0.0,0.0,0.0,0.0
0.02844852087379311,-0.024759439028442236,0.7447670175910852,-0.0019268950103511076,-0.5249837125255411,0.0023998032765236224,0.851106708705056,0.05962151345677208,-0.8303380874786399,1.010884141282667,-0.04761375082362841,-0.8369202893086385,1.0085214871962922,-0.08521343182378054,0.7847294862273347,0.9353586622536955,0.012991736129089871,0.6475360607433839,1.162267667734744,0.0,0.0,0.0,0.0
0.028688189607651644,-0.02465913971215816,0.7453858752748888,-0.0020307740257387522,-0.5250059489742712,0.0025122463993834834,0.8510924263066322,0.05913781127367256,-0.8297940743186029,1.0125220325111273,-0.04807778174424693,-0.8352185385722846,1.0088812631463882,-0.08422049259665075,0.788179072982886,0.929186273798478,0.007449916767972995,0.6429108274846842,1.175214371762175,0.0,0.0,0.0,0.0
0.02894826829614827,-0.02460438048055221,0.7459475386639948,-0.0021285360287122404,-0.5250320373579153,0.00261986847755862,0.8510757694655225,0.05878617904662644,-0.8293699378595486,1.014205488596339,-0.04842027582743585,-0.8338975055709154,1.0096684956698383,-0.08295162607600788,0.7914308150814773,0.9233640923609547,0.0020490856720245696,0.6385081224179017,1.1878507535971017,0.0,0.0,0.0,0.0
0.029211536642438935,-0.02460918712644711,0.7464220186946242,-0.0022158301149769657,-0.5250629042120476,0.0027171951897966666,0.8510561988303782,0.05861285250485484,-0.82903701540052,1.0157641868027394,-0.04859432857716477,-0.8330259703932531,1.01084265157939,-0.08136656881365958,0.7942875624471513,0.9181822197452917,-0.0031217497257883644,0.6344190616554585,1.1996386524332499,0.0,0.0,0.0,0.0
0.029441138788339143,-0.024683502613694716,0.7467685126087698,-0.0022867315088673052,-0.5250968015972817,0.00279659691698192,0.8510348399783615,0.05865617930356799,-0.8287384144598439,1.0169030099465974,-0.04855799522204344,-0.8326342514453708,1.0122126578076407,-0.07948245727583052,0.7964335166593473,0.9140868652572092,-0.007866213549244414,0.6308198578872362,1.2095372340771007,0.0,0.0,0.0,0.0
0.029578667185273418,-0.0248322865659847,0.746937947240411,-0.002332674606357255,-0.5251302702418563,0.0028468640032072038,0.851013897225094,0.05894674097031996,-0.8283649614581537,1.0171766575973953,-0.048273009708441006,-0.8326945399283731,1.013411719459493,-0.07740316685398593,0.7974506988533804,0.9116653645916459,-0.011788211245353328,0.6281562923417143,1.2157055011151607,0.0,0.0,0.0,0.0
0.029600247590905286,-0.025033194927670404,0.746890999678538,-0.002347489016263074,-0.5251493908501584,0.0028643390446314323,0.851001998908853,0.05943201736277609,-0.8280646028733278,1.016593233998954,-0.04779396606540502,-0.8332741799560436,1.0142974844362558,-0.07539668778258543,0.7970584465769623,0.9114180667308033,-0.014414368774388828,0.6275998545244031,1.2152524546530616,0.0,0.0,0.0,0.0
0.029505050349608746,-0.025284095677217015,0.7466265270982587,-0.002331496522247715,-0.5251546106087214,0.002849469736375898,0.85099887168115,0.060105245966874304,-0.82784030789465,1.0151527656680284,-0.04712714018924291,-0.8343648368941791,1.0148531166057388,-0.07347775079358541,0.7952481833379569,0.9133687748458081,-0.01575334901444187,0.6291597332039646,1.2081923293168029,0.0,0.0,0.0,0.0
0.029317094518468912,-0.025602577766164064,0.7461813873657442,-0.002291503944000687,-0.5251594393192189,0.0028075353723373084,0.8509961398553646,0.06100267727637926,-0.8275677671315602,1.0128716439210934,-0.046233995066581296,-0.8358946296961592,1.0152055922107888,-0.07140484116708315,0.7922854787846958,0.9170560722907782,-0.016295547728161646,0.6316884364023635,1.1974308159009568,0.0,0.0,0.0,0.0
0.029091116993416075,-0.025982139851794626,0.7456028126200815,-0.0022358315383215308,-0.5251677583475597,0.0027497397691250308,0.8509913428353625,0.06208901535985556,-0.8273437704311084,1.0101644386623991,-0.04515614781262007,-0.8378728723726178,1.0156796746292729,-0.06908788599340288,0.7885711387132406,0.9219162950784672,-0.01644392511703607,0.6347447190199889,1.184821609985144,0.0,0.0,0.0,0.0
0.028857537721570126,-0.02641450550196447,0.7449295854866619,-0.0021694348416675373,-0.5251818862274403,0.002682502520703074,0.8509830104715851,0.0633319246284644,-0.8271905069521452,1.0072574998146666,-0.04392763213738749,-0.8402492143387801,1.0164144675031552,-0.06650778601714398,0.7843954131412297,0.9275229334405105,-0.016393383147235756,0.6381442092575248,1.1714146118122517,0.0,0.0,0.0,0.0
0.028624935964549902,-0.026891283437083927,0.7441881089627116,-0.0020951610936740437,-0.5252016791502878,0.0026092096132049026,0.8509712089976393,0.06470307043423093,-0.8270848483358111,1.0042181996232227,-0.04257523685613125,-0.8429416535934938,1.0173987793915802,-0.06367950826561984,0.7799143990174885,0.9336139730604972,-0.016225404512094498,0.6417814427754244,1.157754208880862,0.0,0.0,0.0,0.0
0.02838616101959123,-0.02740593096932796,0.7433941334109655,-0.002014661282232145,-0.5252254366215416,0.0025314399443130404,0.850956975221096,0.0661811231926199,-0.8269709294161891,1.000992940662431,-0.04111658401104052,-0.8458529688972143,1.0185209347928472,-0.06062188379658727,0.7751766915835913,0.9400553579144282,-0.015971069570776073,0.6455720971088881,1.1440960863107563,0.0,0.0,0.0,0.0
0.028122029185013525,-0.027955269842098472,0.7425549152237496,-0.0019289247498496193,-0.5252504166387105,0.002449579123307088,0.8509419948693854,0.06775464937310416,-0.8267624384771968,0.997426010405219,-0.03955770287067904,-0.8488778800724159,1.019598337671926,-0.057337950760905455,0.7701458024447742,0.9468051602877301,-0.015645625359807923,0.6494415909355743,1.1305346633112783,0.0,0.0,0.0,0.0
0.027801419859948055,-0.028540555337485927,0.7416706260932557,-0.0018386397423401945,-0.5252731303956888,0.002363068709962594,0.8509284187253847,0.06942420615429433,-0.8263330609267998,0.9932503534549452,-0.03789061292216656,-0.8518978312548824,1.0203767294251376,-0.05380224816341537,0.7647074890539626,0.9538928739684668,-0.015261390993249297,0.6533257095956265,1.1170662019788644,0.0,0.0,0.0,0.0
0.02737807230279224,-0.029168550080065185,0.7407359539914102,-0.0017443601421813651,-0.5252922954082285,0.0022701399636004,0.850917039468005,0.07120467725280882,-0.8254750403658753,0.9880332363170693,-0.036089135496105804,-0.85474645159665,1.0204870227982876,-0.049955224046967346,0.7586768724810129,0.9614074797674942,-0.014806980096088645,0.6571730686504018,1.103632744290501,0.0,0.0,0.0,0.0
0.026828243403639845,-0.029825652632440143,0.7397412992918303,-0.0016508425701677412,-0.5253051045072714,0.0021754191259088125,0.8509095659639982,0.07304812487744969,-0.824166750869814,0.9816418965473515,-0.0341972787264852,-0.8573104944575395,1.0196786906453665,-0.045842850134795596,0.7519195824687515,0.9694965359458934,-0.014366173099299481,0.6610705632064776,1.0901448122982285,0.0,0.0,0.0,0.0
0.026131941160773508,-0.030486935924403456,0.7386714825897767,-0.001565952089238207,-0.5253133359337988,0.002086993851832524,0.8509048662105655,0.07487071896909031,-0.822432567648148,0.9740106901713449,-0.032296683576289974,-0.8594454211177823,1.0176646877867677,-0.04156444506838552,0.7443019635681752,0.9783890990152937,-0.014053279666858084,0.6652287074892891,1.0764811602678166,0.0,0.0,0.0,0.0
0.025283367068413564,-0.031107121394281075,0.7375027526157124,-0.001503432482760428,-0.5253235598556325,0.002024216601592816,0.8508988187196673,0.07651298635491142,-0.8204411050263043,0.9652900921075356,-0.03055053703058994,-0.8609913887804507,1.014169437314038,-0.037262273295651724,0.7356936879867201,0.9884268470138612,-0.014020835684986637,0.670063546056478,1.0624752618346713,0.0,0.0,0.0,0.0
0.024339471093668547,-0.031609083017098104,0.7362079092662259,-0.0014853388329596651,-0.5253438146191786,0.00201320087234603,0.8508863715162965,0.07773378255984034,-0.8187614577778044,0.9563512830524871,-0.029222856162852202,-0.8619706025697377,1.0093251405710124,-0.0332434038781174,0.7261668019619388,0.9999767666184143,-0.014825753335982473,0.6763099879250924,1.0477817675955585,0.0,0.0,0.0,0.0
0.023343393882528023,-0.03194029695435855,0.7347769641310524,-0.0015423204148956413,-0.5254024021824683,0.0021054162367242168,0.8508498717465378,0.07828673066145397,-0.8177400839809467,0.9477757092617309,-0.028573819141441564,-0.8621816925353352,1.0030701103233848,-0.029315629431808016,0.7157662265790643,1.013186005300954,-0.016835394866327964,0.6847135471683776,1.031768567596761,0.0,0.0,0.0,0.0
0.022377483871204952,-0.032073962744461636,0.7332859267832401,-0.001716239927672728,-0.525549510359418,0.0023666363375018373,0.8507579947987163,0.07795531658674071,-0.8174911932810645,0.9402035746654026,-0.02882636567896444,-0.8612261340622127,0.9955275320593417,-0.024877464457469977,0.7050318024712406,1.0273040923663372,-0.020646754235883566,0.6959484003586425,1.0132055559416129,0.0,0.0,0.0,0.0
0.021643296016165825,-0.03205811792999955,0.7320911298114814,-0.0020252552742032024,-0.5258879213749044,0.002780190877402,0.8505469199472431,0.07690877013127738,-0.8171286519328277,0.9342616574150441,-0.02978744909711335,-0.8584317590504055,0.9876661412940966,-0.019551053786119398,0.6965043060508265,1.0389039648322382,-0.026385300446832967,0.7101530744990964,0.9907432008013843,0.0,0.0,0.0,0.0
0.021651619311724223,-0.03206062968994426,0.7320708797563645,-0.0020264127175201206,-0.5258927558975823,0.002781299947168107,0.8505439243898859,0.07691295045997504,-0.817135825385303,0.9342357829841549,-0.02978483432756108,-0.8584546361701231,0.9876668393082185,-0.019538724241970104,0.6965083674910192,1.0389174435210604,-0.026390901059320314,0.7101646576467129,0.9907415946661066,0.0,0.0,0.0,0.0
0.021651619311724223,-0.03206062968994426,0.7320708797563645,-0.0020264127175201206,-0.5258927558975823,0.002781299947168107,0.8505439243898859,0.07691295045997504,-0.817135825385303,0.9342357829841549,-0.02978483432756108,-0.8584546361701231,0.9876668393082185,-0.019538724241970104,0.6965083674910192,1.0389174435210604,-0.026390901059320314,0.7101646576467129,0.9907415946661066,0.0,0.0,0.0,0.0
0.022232337648134023,-0.03201609725274022,0.7321015149049083,-0.0019138940261694277,-0.5255459706353212,0.002557612767402031,0.8507592070471919,0.07433032555619928,-0.819819874115755,0.9188460322814984,-0.029422618722961338,-0.8634408337549396,0.9948916575841464,-0.022530493473226124,0.6984936748305023,1.0375785310728376,-0.029232667881138923,0.7102912689869624,0.9886282651234551,0.0,0.0,0.0,0.0
0.023370175937934643,-0.03207736215703336,0.7320227981491852,-0.0018400357324423649,-0.5253228195879412,0.002365876035834271,0.8508977330556603,0.07055923770133976,-0.8271390125761738,0.9069130443970935,-0.02887626829310323,-0.8707775521304606,1.0068800213956168,-0.024244964096007855,0.7018842371112931,1.036303416384624,-0.03087501798307551,0.7122595014235341,0.9873463553998466,0.0,0.0,0.0,0.0
0.024641725163581166,-0.03217406480985216,0.7318599394633705,-0.0017943803975900118,-0.5252417280268578,0.0022301550201435584,0.8509482556224763,0.06722276862453944,-0.8365736756069948,0.8987733363393903,-0.028370903364831265,-0.8780585219313751,1.0192987880488669,-0.025108106557486694,0.7055186313235878,1.0356375316590545,-0.0317305728771405,0.7148907583573662,0.9870429264427584,0.0,0.0,0.0,0.0
0.025808229345789323,-0.03227486056110497,0.7316608213089247,-0.0017628058204744745,-0.5252583312037663,0.00213461610192936,0.8509383182292187,0.064838008525579,-0.8468351520391879,0.8932632663526611,-0.027941354078178975,-0.8842712759943224,1.03013566219225,-0.025536518823286756,0.7088080924195758,1.0355135454511333,-0.03218530603028939,0.7174483870548225,0.9874059586305864,0.0,0.0,0.0,0.0
0.026764259357540298,-0.03236822799621748,0.7314732937591631,-0.0017388460880244062,-0.5253258162473954,0.0020674650585695603,0.8508968731794244,0.0632551784752537,-0.8573381389727365,0.8892316399193546,-0.027585819552617106,-0.8890930664462982,1.0387022521912037,-0.025716317652222792,0.7115285193824087,1.0356375569947631,-0.032405471493494466,0.7196404729537402,0.9880310323920722,0.0,0.0,0.0,0.0
0.02747856631851415,-0.03245854474016362,0.7313197674567715,-0.0017167720754627293,-0.5254155276716894,0.0020161996667632863,0.8508416485539626,0.06215210024799521,-0.8678798409055336,0.88587913160468,-0.027262329582470737,-0.892549003469106,1.0449515269961875,-0.025730297113540315,0.7136204005444603,1.035825913784011,-0.032463744706572324,0.7213431936995713,0.9887343678922258,0.0,0.0,0.0,0.0
0.02796282589509104,-0.03255612455249039,0.7312081969279147,-0.0016921670778676395,-0.5255116884393353,0.0019706525666995816,0.8507824154345698,0.061254611829324825,-0.878403978770864,0.8827111645967185,-0.02692051185901758,-0.8948239511946212,1.0491518264267325,-0.025600627134164465,0.7151273339627527,1.0359582613800302,-0.03237912211444068,0.7225503581508651,0.9894426382329841,0.0,0.0,0.0,0.0
0.028250058009847402,-0.032670441354049326,0.7311377591799485,-0.0016621831745846636,-0.5256064456771418,0.0019240218753296503,0.8507240442996536,0.06039467044980896,-0.8889024747182454,0.8794504916535021,-0.02652122479060493,-0.8961584493182724,1.0516928782063766,-0.025326952646771348,0.7161413206846353,1.0359661230697084,-0.03215150977477999,0.7233197038868857,0.9901367010265151,0.0,0.0,0.0,0.0
0.02838029189983453,-0.032806963121368354,0.7310999967530142,-0.0016252822892490458,-0.5256965507367802,0.001872356099612405,0.8506685543051232,0.05949621525627969,-0.8993896787004146,0.8759572739193886,-0.026043300498304434,-0.8967982927974191,1.05297584578306,-0.024915112660197577,0.7167557214041903,1.0358494525120947,-0.031787505176082365,0.7237186085077311,0.9908458576566148,0.0,0.0,0.0,0.0
0.028398611279959577,-0.032962995691305993,0.7310905197917646,-0.001582505891364568,-0.5257810390058686,0.0018156528986956065,0.8506165399882396,0.05853376205386531,-0.9098826850790637,0.872169532922835,-0.025496392940069713,-0.8969528035205454,1.053384627778069,-0.024391006332417205,0.71710116988605,1.0355873963131503,-0.031312525452138466,0.7238671816721358,0.9915297735112323,0.0,0.0,0.0,0.0
0.028346177977959994,-0.03313119199905907,0.7311024580760114,-0.0015358900922782092,-0.5258600879149224,0.0017553945568495998,0.8505678853387801,0.057503751245779555,-0.9204041251788304,0.8680649145101281,-0.024905698971985905,-0.896799536041488,1.0532450386657832,-0.023801378317256424,0.7172882583561301,1.0352004565594253,-0.030771440586736382,0.7238670869998947,0.9921618216441135,0.0,0.0,0.0,0.0
0.028257857284380933,-0.0333013563134249,0.731128075683676,-0.0014880994134718497,-0.5259341054280289,0.0016937631697049541,0.8505223297915696,0.05639905955672852,-0.9309533069849381,0.8636470195557606,-0.02430499198847342,-0.8964814054835423,1.0528177040954212,-0.023205761101228954,0.7174036326929625,1.0347347521677694,-0.030221081739832893,0.7237970329635347,0.9927237297688235,0.0,0.0,0.0,0.0
0.028161168584244715,-0.033462104569160454,0.7311605085756391,-0.0014421272737051344,-0.5260027901785708,0.0016331087449932486,0.8504800514704104,0.05519251936445037,-0.9414473021206422,0.858957807180243,-0.023730831108839487,-0.8961075197432593,1.052299482580683,-0.022667565178099487,0.7175107528874987,1.0342426560524167,-0.029721916315791304,0.7237141224634265,0.9931959856433399,0.0,0.0,0.0,0.0
0.028074484119232086,-0.0336033882309129,0.7311944952503012,-0.001400825019437529,-0.5260643485353385,0.001575435532614313,0.8504421537601705,0.05383196906925619,-0.9516274302406037,0.8541228007022805,-0.023214719191861702,-0.8957545981372318,1.0518210288122176,-0.022239348005426898,0.7176438650283341,1.0337702564742282,-0.02932409229603377,0.7236492910339434,0.9935612782388623,0.0,0.0,0.0,0.0
0.028004264144234046,-0.03372021324801364,0.7312268268223968,-0.0013661847340429025,-0.526115165769083,0.001521957145474428,0.8504108710108838,0.05225248546004408,-0.9609425535920623,0.8494332921168046,-0.022772449404749876,-0.8954651975685985,1.0514381419303334,-0.0219393126587228,0.7177979435175804,1.0333451711426325,-0.029045054811644114,0.7236006889234411,0.9938166527761675,0.0,0.0,0.0,0.0
0.027942295976274963,-0.03381714161616454,0.731256705177124,-0.0013383419207849202,-0.526150661633087,0.0014727692034565759,0.8503890410011415,0.050411016102723985,-0.9684619974260747,0.8454520691530735,-0.02239185615907318,-0.8952416081015145,1.0511203055967446,-0.021722468622240847,0.7179210789239661,1.0329643364317347,-0.028842194474936807,0.7235306683122136,0.9939911583536967,0.0,0.0,0.0,0.0
0.02786612083629757,-0.03391097102739068,0.7312861257214365,-0.0013146754525283845,-0.5261685296321059,0.001426808600726791,0.8503781007707449,0.04833070048571787,-0.9729424114116219,0.8430778966726258,-0.022026122052830496,-0.8950357805334618,1.0507480731374395,-0.021465530511949524,0.7179260897193066,1.0325864121260555,-0.028598899809504225,0.7233789823512664,0.9941560991855427,0.0,0.0,0.0,0.0
0.027748374824525107,-0.03402480976362856,0.7313205001093956,-0.0012904475981278761,-0.5261746056336805,0.0013826163832887997,0.8503744513466841,0.046094138518170166,-0.9732673263672403,0.8433745284872659,-0.021611310821976266,-0.8947399271706388,1.050140541334769,-0.021011063906572508,0.7177468339586774,1.0321402335172534,-0.028166825242752776,0.7231094829557391,0.9943941363816577,0.0,0.0,0.0,0.0
0.027574960002639884,-0.034164346414081725,0.7313645318213985,-0.0012640707821113685,-0.5261679479085073,0.0013389247701283081,0.8503786803532106,0.04372700415285085,-0.9694124396328438,0.8463060960111276,-0.021129253614267544,-0.8942989556014111,1.0491981119983926,-0.020330870869977435,0.7173549291177802,1.031586056376893,-0.027517877772073915,0.7226949996527924,0.9947010226600937,0.0,0.0,0.0,0.0
0.02734501996266617,-0.03431833752447518,0.7314224334916106,-0.001237165101009258,-0.5261410061231458,0.0012941888041850475,0.8503954586976437,0.04118075103651724,-0.9624564205215831,0.850765774579973,-0.02060478930122524,-0.8937107974575449,1.0479035950527102,-0.019525081234611552,0.7167618621302102,1.0309128080751309,-0.026743802409060418,0.722117762330889,0.9949853557183871,0.0,0.0,0.0,0.0
0.027050525606493563,-0.03448399850524473,0.731501702380439,-0.0012088577921140556,-0.5260946473647929,0.0012455971605305192,0.8504242524556,0.038448400172867145,-0.9536086945387511,0.8558201974492663,-0.020037578162923536,-0.892909521450633,1.046166611627809,-0.018650434066987853,0.715993684140125,1.0300781172578846,-0.025896757822790665,0.7213756917884321,0.9951788332259391,0.0,0.0,0.0,0.0
0.026663837590386267,-0.034674864163766694,0.7316102365747991,-0.0011745869070099715,-0.5260322199066281,0.0011884077415070737,0.8504629984030714,0.03558578181840493,-0.9437711926475673,0.8608661395596117,-0.019380310452281613,-0.8917724701369787,1.0437781598770226,-0.017663778519257857,0.7150135098053407,1.029016906447174,-0.02493455906085593,0.7204165542399454,0.9952980674576952,0.0,0.0,0.0,0.0
0.02613306208643697,-0.034920247498843114,0.7317451132572012,-0.0011258654717563041,-0.5259560700931292,0.0011150933787446749,0.8505102593889667,0.03268158444918125,-0.9334905139782645,0.8655658522920006,-0.018538616667205708,-0.8901530003843835,1.0403976656938878,-0.0164390117074077,0.7136518146726242,1.0277424837500064,-0.023734943946070078,0.7190572480109455,0.9955426587727217,0.0,0.0,0.0,0.0
0.02539876228491767,-0.035250402332794625,0.7319084909690904,-0.001055492644145757,-0.5258636790298278,0.0010196464548218394,0.8505675971570981,0.029829346096029975,-0.9230217384971222,0.8697153969176918,-0.017419719002741398,-0.8878745460907062,1.0356286221783872,-0.014824374018906203,0.7117189988911838,1.026216922211347,-0.02214787252464256,0.7171092479503985,0.9960700573206496,0.0,0.0,0.0,0.0
0.02440836913066665,-0.03566792436828622,0.732132426694952,-0.0009623561109521634,-0.5257516882791828,0.0009047715587281287,0.8506370656929612,0.027068221073231664,-0.9124793854509822,0.8732651800656515,-0.016024834391289322,-0.8846067480473184,1.0289727844253336,-0.012796862811168106,0.7091831162768333,1.0242009912598724,-0.020141708118080876,0.7145549534795921,0.996660006706553,0.0,0.0,0.0,0.0
0.02310232355481331,-0.03617131809092254,0.7324379241589831,-0.0008465309498284759,-0.5256133779010642,0.0007738119911598212,0.8507227877351037,0.024433170456943914,-0.9019260626649267,0.8761919169838289,-0.014368917910933832,-0.8800169083696269,1.0198613184702638,-0.01036586208642094,0.7059431182813384,1.0215578252860735,-0.017713750204678063,0.7112958065606995,0.9971722600902494,0.0,0.0,0.0,0.0
0.02142274609230282,-0.036752370991523814,0.7328416901662815,-0.000709777889671226,-0.5254411517716658,0.0006319909607233786,0.8508294146464602,0.021941966366557007,-0.891421597200776,0.8785272323207393,-0.012490882791192265,-0.8737584330165881,1.0076856232191258,-0.0075827458894426325,0.7018965508707645,1.0181873167796247,-0.014901396329071155,0.7072230573343764,0.9974638255014899,0.0,0.0,0.0,0.0
0.019324525546710897,-0.03739494672535581,0.7333548468128864,-0.0005557705497909376,-0.525227780722082,0.0004860027208715356,0.8509613582755728,0.01958026256472071,-0.8810292547221422,0.8803861655974973,-0.010455513155568445,-0.8655083242988505,0.9918709389421254,-0.004549953691041865,0.6969772630777924,1.0140239363782668,-0.01179425298135988,0.702252033446913,0.997377615209991,0.0,0.0,0.0,0.0
0.01679261145156492,-0.03807775344703451,0.7339737424962927,-0.0003892573642373014,-0.5249693191473337,0.000341884323100687,0.851120993483182,0.017275076252304136,-0.8707811569679295,0.8820233209494722,-0.008340298308089533,-0.8550644763245034,0.9720284838357747,-0.0014125516245057047,0.6911792354442535,1.0090926042988613,-0.008530705233730332,0.6963404761510015,0.9968130478263703,0.0,0.0,0.0,0.0
0.013868761418505047,-0.03878408846577497,0.7346532465403905,-0.00021318751532043012,-0.5246716235062556,0.00020015315609250343,0.8513046469843257,0.014872912370777829,-0.8606175845046936,0.8839022532884377,-0.006197381551243967,-0.8425555528800133,0.9482493568301742,0.001676837132791101,0.6845327610545927,1.003708631679184,-0.005268230411135184,0.6894543892704024,0.9959821693381378,0.0,0.0,0.0,0.0
0.010687757745821584,-0.03952046614123723,0.7352292159651457,-2.3160376264158304e-05,-0.5243594494351986,4.6216889721308834e-05,0.8514970141554293,0.012189376708261469,-0.8503367882272583,0.886611085131323,-0.00398168266768149,-0.8289015903803868,0.9216412845173579,0.004611968188211154,0.6768656552716257,0.9991353253909421,-0.0021325008664549393,0.6813030035770254,0.9961724151686077,0.0,0.0,0.0,0.0
0.0077500594523769485,-0.04030654985601826,0.7355408094009603,0.00016810182327666742,-0.5239565643308561,-0.00011427630218899007,0.8517449602887646,0.009546799050041885,-0.838690196816764,0.8890615074511635,-0.001658551078362633,-0.8174785004319605,0.8975490011025724,0.007685778644083176,0.6686962325050664,0.9960213893902629,0.00114443483378308,0.6725211009037834,0.9981681547096177,0.0,0.0,0.0,0.0
0.005261303927023938,-0.04089851209592157,0.7354746292071611,0.0003255791811750232,-0.5235717414099375,-0.00025595976713123445,0.851981490456078,0.006628090750325439,-0.8276297690964561,0.8919675659684891,0.00011491145517841979,-0.808556409488273,0.8769048592226361,0.00960230661969173,0.6603342345982803,0.9963128222525524,0.0032350600845669096,0.663408995514965,1.0022647593576794,0.0,0.0,0.0,0.0
0.0036257712198334226,-0.041246716452113634,0.7351735992281774,0.0004389448121556088,-0.5232172498751873,-0.00036450837751430344,0.8521991456778987,0.004548825768141992,-0.8197346870795356,0.8939790440240595,0.0012013487787630485,-0.8037929853082666,0.8637066106857074,0.010350478334840195,0.6535160245203522,0.9986418779071868,0.004091539173697368,0.6559006211146093,1.006755106977059,0.0,0.0,0.0,0.0
0.003631465015239199,-0.04126907507772458,0.7351547557151897,0.00045763739821826055,-0.5232033305103221,-0.00036052211733790914,0.8522076833347146,0.0045655217761382495,-0.8197502924723525,0.8939865572402981,0.0012228996468782052,-0.8038135965382854,0.8635822889817278,0.010345483919043741,0.6535252987575833,0.9985418339872377,0.004092102135313178,0.655843580684145,1.0068021389897834,0.0,0.0,0.0,0.0
0.003631465015239199,-0.04126907507772458,0.7351547557151897,0.00045763739821826055,-0.5232033305103221,-0.00036052211733790914,0.8522076833347146,0.0045655217761382495,-0.8197502924723525,0.8939865572402981,0.0012228996468782052,-0.8038135965382854,0.8635822889817278,0.010345483919043741,0.6535252987575833,0.9985418339872377,0.004092102135313178,0.655843580684145,1.0068021389897834,0.0,0.0,0.0,0.0
0.003631465015239199,-0.04126907507772458,0.7351547557151897,0.00045763739821826055,-0.5232033305103221,-0.00036052211733790914,0.8522076833347146,0.0045655217761382495,-0.8197502924723525,0.8939865572402981,0.0012228996468782052,-0.8038135965382854,0.8635822889817278,0.010345483919043741,0.6535252987575833,0.9985418339872377,0.004092102135313178,0.655843580684145,1.0068021389897834,0.0,0.0,0.0,0.0
0.0031771617311452988,-0.041746148380375867,0.7351876472036402,0.0004741343056148102,-0.5232184152555514,-0.00027798152504198266,0.8521984439438982,0.0055379749705692025,-0.8161350539694765,0.8875427070670773,0.0021856789950739403,-0.8020992114372304,0.8602995538891793,0.013968814751020934,0.6520237416688378,0.9968693789304237,0.007811701640262169,0.655156242794725,1.0085878903974514,0.0,0.0,0.0,0.0
0.0024294256761497484,-0.04255402136373251,0.7351986471820156,0.0004771265624901843,-0.5231941511680324,-0.00022553662622580665,0.8522133545462872,0.007435888164437343,-0.8104306931751455,0.8770686656181009,0.004074864414874618,-0.7999570794442215,0.8555599041123889,0.019662146703938888,0.649350349898191,0.9944753627614047,0.013717206494082907,0.6534895635672314,1.011888099700822,0.0,0.0,0.0,0.0
0.0017968779189631856,-0.043457234562028685,0.7351572201525074,0.0004591117152015117,-0.5231142765513991,-0.0001890027225829601,0.8522624051091953,0.009625567560355161,-0.8055280181106317,0.867655222109125,0.006258811499947092,-0.7991587986050187,0.8527626005825233,0.02591323776854714,0.6466317963069125,0.9919882781074257,0.02029868975587673,0.6518070892982502,1.0157247753928778,0.0,0.0,0.0,0.0
0.0016380868100803116,-0.044188125798447137,0.735073997321505,0.00044674169072470867,-0.5230746598811062,-0.00017418636268087202,0.852286730080457,0.011436182898821267,-0.8033704821246305,0.8634657792486566,0.00806689036836095,-0.8004647285370743,0.8541306493674226,0.030823874962046166,0.6453633046234223,0.9901468365547037,0.025551232355226557,0.6513045424177288,1.0189557229775612,0.0,0.0,0.0,0.0
0.002019075420506517,-0.04462282647774383,0.7349550515089263,0.000436793345379476,-0.523131081224217,-0.00015945275196742374,0.852252108031171,0.012508200483814486,-0.8043771919346274,0.8654997905386745,0.009136723917757715,-0.8035588453292676,0.8595412155105371,0.033882351922462944,0.6458363346168037,0.9894068981267033,0.028854720554947075,0.6523684398069685,1.0212258138362782,0.0,0.0,0.0,0.0
0.00299105642742067,-0.044709568230670654,0.7348006662260186,0.00041833235826543944,-0.5232860114141448,-0.00013004320770565404,0.8521570033421527,0.01268386311478622,-0.8089767758034443,0.8745061023651062,0.009306900557511839,-0.8085161749931917,0.8692335763356492,0.03498729957030822,0.6481532960576667,0.9898952532306454,0.030041468155958838,0.6551999120387991,1.0223423448129347,0.0,0.0,0.0,0.0
0.004595897170842001,-0.044455342775593744,0.7346216521499329,0.0003933214995892536,-0.523540114364659,-9.39222557293347e-05,0.8520009302388394,0.011998824324478194,-0.8172204317900603,0.8906639220502233,0.008611659767259803,-0.8154740562372279,0.883508851858171,0.034117645921823335,0.6525474983259832,0.9914124631630049,0.029060972811350942,0.6599706706507131,1.0221444673334144,0.0,0.0,0.0,0.0
0.006868900626975038,-0.043919147376861874,0.7344542576493246,0.00040292871328385986,-0.5239362356801145,-0.0001039397640484856,0.8517573878671842,0.010707664978706594,-0.82843289049072,0.9133102699810904,0.007307297180905277,-0.8243811982532461,0.9025014314018034,0.031000018200225996,0.6596707246587279,0.993436869077296,0.025619917913346415,0.6669231211951587,1.0204017514457127,0.0,0.0,0.0,0.0
0.00983680542568357,-0.04321500625847686,0.7343699541460628,0.0005484752158541865,-0.5245950623924349,-0.0002777171908480939,0.8513516562276583,0.00933856939521656,-0.8409491188367515,0.9407621522467146,0.0059249386908204905,-0.8348250701943397,0.9260256745443821,0.024833891858121328,0.6708201025228001,0.995120346778608,0.0188946175752097,0.6764146147600479,1.0167756906628298,0.0,0.0,0.0,0.0
0.01349415103370665,-0.04252833107611659,0.73444038528417,0.0009933676130783578,-0.5257064809913705,-0.0008162107992841216,0.850665059153358,0.00879714488511258,-0.8521882628885289,0.9703136636638118,0.005371172679976539,-0.8461806550688887,0.9535877939757258,0.01408547733670103,0.6877856926259752,0.9955494354434563,0.007369354731980951,0.688575431694599,1.0111469173471246,0.0,0.0,0.0,0.0
0.01705113702199526,-0.04198335006875688,0.7341248922324208,0.0009834988247758244,-0.5255718936286217,-0.0008171798429290201,0.850748229251634,0.007459773972551476,-0.8719325218081948,1.005756763190336,-0.004929116127573057,-0.8421664205757184,0.9296102628217212,0.00982141266024555,0.6976795200514533,0.9954428642059387,0.00293900452070334,0.6974648010857931,1.0072365759125976,0.0,0.0,0.0,0.0
0.020402404999662338,-0.04178215893297291,0.7336596278314779,0.0010962480274379867,-0.5255331563312967,-0.0009948582801404973,0.8507718319818361,0.007393595510955484,-0.8887379030087829,1.036166637495377,-0.013937621391178275,-0.8448958305953003,0.91268036423898,0.006007479125326136,0.7070619979728267,0.9959072078143076,-0.0010420639061138014,0.704957844965483,1.0058491151208153,0.0,0.0,0.0,0.0
0.023184899774721195,-0.04189546996549642,0.7331747271787163,0.0012726842053475092,-0.525621958435511,-0.0012487952612861347,0.8507163908117245,0.008319613860393182,-0.9010024864719512,1.058964197951997,-0.021318963193999507,-0.8512535123039611,0.9015523439914033,0.0035241667216591513,0.7151215613153514,0.9963110369842355,-0.0036561952565482073,0.7109451279680811,1.006405254560751,0.0,0.0,0.0,0.0
0.025258293946769688,-0.042323769414459526,0.7327726124441268,0.001443353896131207,-0.5257157003993251,-0.001506721702355273,0.8506577742387882,0.010102184504883314,-0.9089903600250753,1.074211841821342,-0.027256294936615633,-0.8593315658001364,0.8936429543523107,0.0035566582209195,0.7210879136039676,0.9957340028827931,-0.0037108696658857267,0.7154386765237806,1.0081696571462742,0.0,0.0,0.0,0.0
0.026632855168933916,-0.043001434812812135,0.7324804618514987,0.0015858214921402843,-0.5257607722888998,-0.0017366945902970873,0.8506292255643905,0.012495839083237738,-0.9133619291699586,1.0828553792378661,-0.03208298091403361,-0.8681340656558993,0.887215986188972,0.006165822565208203,0.7247513329506776,0.9941463646910486,-0.0011460144583940865,0.7185141932990958,1.010727659540687,0.0,0.0,0.0,0.0
0.02741877100735131,-0.043826068864404405,0.7322957189046273,0.0016995644979868935,-0.5257603024660163,-0.0019281941934847918,0.8506288837668942,0.015191968449755186,-0.9149006960766689,1.0862992574749477,-0.03618942037113272,-0.8771609871866016,0.8813468735098221,0.010624530913663818,0.7264836316461097,0.9918339071970547,0.003350558975879137,0.720432200305186,1.0136735652738347,0.0,0.0,0.0,0.0
0.027769940939037358,-0.04468913671454981,0.7321979374380004,0.0017882726553573234,-0.5257381703973325,-0.002077579725961847,0.8506420292524098,0.017879758774787813,-0.9144574600399971,1.0861218179292005,-0.03996478975813181,-0.8861888614891609,0.8756133985508269,0.015955678617903663,0.7268865943735419,0.9891871309980224,0.008841196756854346,0.7215234134746484,1.0166505986410204,0.0,0.0,0.0,0.0
0.027841595211594176,-0.045496721663598236,0.7321569271253469,0.0018563814604833086,-0.5257215728902719,-0.002185064958994727,0.8506518718822504,0.020301599785103666,-0.9128404586191105,1.0838113125230069,-0.04373334019013061,-0.8951324421201284,0.869857330306822,0.021272860784410826,0.7265431249428915,0.986618218257124,0.014432555850820586,0.7220924627251896,1.0194169403956992,0.0,0.0,0.0,0.0
0.027762304579790027,-0.046181446884351156,0.7321334047480011,0.0019034971595260767,-0.5257224715928706,-0.0022491558959029127,0.8506510452933111,0.02227542975668385,-0.9108069598059635,1.0806381499620572,-0.04774543686061285,-0.9039964914942403,0.8640103616742714,0.026018398311989016,0.7258008502693083,0.9845414601084844,0.019517535572376055,0.7223271050008242,1.0219193575082297,0.0,0.0,0.0,0.0
0.0276351534839605,-0.04672195840563553,0.7321066959085415,0.001932761965501892,-0.5257443467548065,-0.002279752088302617,0.8506373780977193,0.023775319917332595,-0.9088720567733583,1.0775223504568836,-0.05210703111361771,-0.9128345830686716,0.8580675880583458,0.029940212597326484,0.7249625671093385,0.9830817495377723,0.023784320125163173,0.7224132374163443,1.0241110159165014,0.0,0.0,0.0,0.0
0.02754399918662,-0.0471354314268211,0.7320844727487182,0.00195553064249126,-0.5257896582784649,-0.0022988940413409603,0.8506092676626019,0.024906660815543626,-0.9072692803246373,1.0750505018164782,-0.0567946387127098,-0.9216783616850027,0.8520400836736535,0.03295919080189279,0.7244059889474871,0.9820118132588281,0.02710577802304615,0.7225970756186197,1.0258385283548956,0.0,0.0,0.0,0.0
0.027533146404266247,-0.047449414893836576,0.732061518222719,0.0019784399587741554,-0.5258511812566523,-0.0023205597909725863,0.8505711233921414,0.02578223131390916,-0.9061530130955499,1.0735217317879977,-0.0617506213416151,-0.9305522421060589,0.8459097884963598,0.035170934130691014,0.7242502091963371,0.9812180198779337,0.029555586966756035,0.7229582935955456,1.0271499934975505,0.0,0.0,0.0,0.0
0.027619302383920054,-0.04769744339037724,0.7320333309354481,0.0020068388736362275,-0.5259199533832616,-0.002354720992195548,0.8505284419230976,0.02651845720474416,-0.9055592455468491,1.0729944727276206,-0.06687225258142834,-0.9393940051281993,0.8396765117943998,0.036743667481599046,0.7245079305862194,0.9805913125024138,0.03130186991151747,0.7235068033683014,1.028146892483093,0.0,0.0,0.0,0.0
0.027798714674072026,-0.04791408048280678,0.7319976467885796,0.0020444132018470887,-0.5259856581719154,-0.0024074534354646964,0.8504875730662225,0.02722301764090798,-0.905440233319523,1.0733579839897887,-0.07202190513321217,-0.9479681668676596,0.8334108871192167,0.03788149110574353,0.7251210656884143,0.9800210320886034,0.03256339312500046,0.7242074023081755,1.028944184697923,0.0,0.0,0.0,0.0
0.028051496822536305,-0.048128928127579206,0.7319533287147207,0.0020916783774098274,-0.5260362871123457,-0.002479559525227419,0.8504559373107958,0.027976665349545442,-0.905707228475854,1.0743965971345566,-0.07705239447285282,-0.9557511411604449,0.8273438820869126,0.03880265280328014,0.7259652423428847,0.9794188520337485,0.03358123686429603,0.7249876480962316,1.0296562986132265,0.0,0.0,0.0,0.0
0.02834514488320708,-0.048359272039129736,0.7318991064638363,0.0021448889536035114,-0.526060652469171,-0.0025652826539221216,0.8504404792223805,0.028811140809269182,-0.906257701220849,1.0758391726671288,-0.08185324638789988,-0.9618334249027357,0.8219935968408268,0.03970421529059858,0.7268607754790736,0.9787557716160312,0.03457634775273377,0.7257483379282058,1.0303859982089707,0.0,0.0,0.0,0.0
0.028641206320531333,-0.04860368404580056,0.7318338317281231,0.0021980577084394983,-0.5260572156723234,-0.0026543291545107926,0.8504421961063153,0.029696177299034763,-0.9069647439508576,1.0773920211492363,-0.08639801130954859,-0.964967268339882,0.8182716244803632,0.04068731068207734,0.7276339308612341,0.9780915883204628,0.03566429082932606,0.7263945924116112,1.03120435010646,0.0,0.0,0.0,0.0
0.028910313530400838,-0.04884548658797963,0.7317596987644036,0.0022510055909726956,-0.5260472795645953,-0.002741198459129968,0.8504479281340661,0.030568806322724393,-0.907625145809229,1.0787665314174884,-0.09071086674187732,-0.9640091303494116,0.8173523165614338,0.0416624852233645,0.7282567406499663,0.9775436635473963,0.03674776851861456,0.726898614271262,1.032121853078513,0.0,0.0,0.0,0.0
0.029150103144162172,-0.04908193591008029,0.7316760677511599,0.0023034708170121994,-0.5260326766116384,-0.0028240582863025563,0.8504565490686671,0.03141630999417966,-0.9082313819119395,1.0799480885588022,-0.09478442706186695,-0.9589730266690261,0.8192178484875806,0.042623270783271716,0.7287197581888558,0.9771337264767308,0.037819960162367605,0.7272576054461719,1.033143964714164,0.0,0.0,0.0,0.0
0.029384824379567336,-0.0493274090639982,0.7315800025664162,0.002356435009189846,-0.5259960241605697,-0.002905959676826344,0.8504787976073698,0.03228787187243547,-0.9089529689643602,1.0811728308921635,-0.09857416211854358,-0.9510305470502985,0.8226855664993802,0.043652778331834806,0.7290377628001543,0.9767726947412639,0.038974123847938136,0.7274944657674325,1.034275431155202,0.0,0.0,0.0,0.0
0.029644245077188353,-0.04958886667139914,0.7314722766685233,0.002417695499498314,-0.5259411958955705,-0.0029961808133400487,0.850512219846924,0.03322469338514815,-0.9098499666212131,1.0826239521197731,-0.10207728729352632,-0.9414459435013028,0.8268407621035614,0.04468707671870196,0.7293574643766251,0.9763989910243824,0.04013914100100266,0.7276891900030795,1.0354819644654603,0.0,0.0,0.0,0.0
0.029946223120934798,-0.04986547876330725,0.7313541925921099,0.0024933242883101022,-0.5258787027788054,-0.0031010319857212062,0.8505502671202317,0.03423892616740557,-0.910917911453777,1.0843839010638134,-0.10535491667853233,-0.9311316134968612,0.8311473474613732,0.04563611658624161,0.7298026698207308,0.9760004148111646,0.04121340155613215,0.7279073236083415,1.0367308133147195,0.0,0.0,0.0,0.0
0.030290759473596527,-0.050157011552152804,0.7312276977713632,0.0025859938039343327,-0.5258161049989718,-0.0032227219879684254,0.8505882378817289,0.035334098367541276,-0.9121001152506043,1.0864059153432783,-0.10847072647329047,-0.9206042185210177,0.8353405230972839,0.046465578910310876,0.7304154334955838,0.9755744525510185,0.04215746017428168,0.7281689018721144,1.0380123740665703,0.0,0.0,0.0,0.0
0.03066047599940126,-0.05047177777447602,0.7310966989934327,0.0026966143169290927,-0.5257548368741657,-0.0033618949247739413,0.8506252273693509,0.03653234390155085,-0.913278412396461,1.0885000969787306,-0.11144066326179539,-0.9100861451537606,0.8393015760701736,0.04722632832074508,0.7311589903171553,0.9750843928802458,0.043028964649435106,0.728445021364419,1.0393460778646466,0.0,0.0,0.0,0.0
0.031023580300047343,-0.050831275602553454,0.730967980566406,0.0028261019557326325,-0.5256897790601163,-0.003520335813461078,0.8506643736369958,0.03789325535421374,-0.9142677504188338,1.090338631333411,-0.11422119959762593,-0.8996239868488513,0.8429669032979847,0.04805788756785879,0.7319377069893634,0.9744321287127665,0.0439881174816274,0.7286645829103855,1.0407795611331443,0.0,0.0,0.0,0.0
0.03133796014650364,-0.05127099821342577,0.7308512200436859,0.0029762389876335713,-0.5256097731590162,-0.0037027143285429396,0.8507125238691489,0.039520514815790345,-0.9148245890182428,1.0914817405881634,-0.11673277046936974,-0.8891753866111048,0.8462754059311298,0.0491764971684412,0.7326178503967734,0.973451550160603,0.045285342160249986,0.7287237438813193,1.0423841050848195,0.0,0.0,0.0,0.0
0.0315568965979793,-0.05183687178861727,0.7307578997986983,0.0031497415136812206,-0.525499298593347,-0.003917352687263489,0.8507791844269704,0.04155457634808778,-0.9146712281561343,1.0914281678691338,-0.11891418383911388,-0.8786552338136361,0.8491451130890736,0.05084058990012938,0.7330524099295016,0.9719251513697784,0.04722358542730136,0.7284980711182022,1.044245246242742,0.0,0.0,0.0,0.0
0.03163761134558455,-0.052575887357157985,0.7306988959055072,0.0033502719776960506,-0.5253431027329297,-0.004176367434192321,0.8508736439940237,0.044147815311017496,-0.9135335350969127,1.08969484904784,-0.12080681132635024,-0.8679465063707485,0.8514688739521603,0.05327330630331651,0.7331226555611046,0.9696320237805158,0.050072159549544276,0.727860879181743,1.0464457221497387,0.0,0.0,0.0,0.0
0.031553047986515655,-0.05351886589689439,0.7306799846080079,0.0035823283271632905,-0.5251343670459195,-0.00449456281139712,0.8509999191399328,0.04741506845363395,-0.9111998310546255,1.0859364955455484,-0.12266253566262231,-0.8568892208309812,0.8531175722500167,0.056534497118665504,0.732793868131294,0.9664424566312614,0.05392049849631514,0.7267069919711624,1.0490423415702879,0.0,0.0,0.0,0.0
0.03130563039942526,-0.054653096825614075,0.7306937964521972,0.003853199889257016,-0.5248908122542616,-0.0048876168380437846,0.8511468141650531,0.05135378826960136,-0.9075805168304795,1.0800852007395667,-0.12502882316376737,-0.8452568566323881,0.8539356448676039,0.0603204184294882,0.7321856098399477,0.9624966423192145,0.05843858429204221,0.7249774909973313,1.0520537537881154,0.0,0.0,0.0,0.0
0.030935651223564183,-0.055884410328921504,0.7306995940031671,0.004177117378245737,-0.5246775493155258,-0.005367539155463837,0.8512738751178007,0.055728329286548646,-0.9027810394415942,1.0724783431897116,-0.12870867078860915,-0.8327560103770398,0.8536761669297624,0.06372588150245757,0.7315670348003441,0.9585672048253102,0.06257331370825814,0.7226297371822659,1.0555506626961504,0.0,0.0,0.0,0.0
0.030514615491542902,-0.05699750447985773,0.7305769903116337,0.004580001986689197,-0.5246239843002496,-0.005928089500720312,0.8513010962248344,0.05992641914249652,-0.8972583825201847,1.0639579434600914,-0.1344221387752667,-0.8191095765469388,0.8517078751869888,0.06510138222412053,0.7311047370084361,0.9566965577726579,0.0643455272858547,0.7194634291922001,1.060000915331054,0.0,0.0,0.0,0.0
0.030152618916033363,-0.05775179540552006,0.7302799197786292,0.005096112472384365,-0.5248335058637122,-0.006522313870070416,0.8511646610276145,0.06315979102981356,-0.8916927057876469,1.0559007849243265,-0.1416689384922354,-0.8039951817733954,0.8461783752496035,0.06289448196539055,0.7312379433741839,0.9582361385765144,0.06187264059525578,0.7157355493764395,1.0651045034051265,0.0,0.0,0.0,0.0
0.029905761879452267,-0.05801805497138448,0.7299514844460137,0.005759348617313676,-0.5253168170161413,-0.007036343983606649,0.8508581324327096,0.06474662847419428,-0.8863202146594095,1.0491685213942226,-0.14798966463278,-0.7878703320950814,0.8335448808819845,0.05667715882837196,0.7326781630120532,0.9621954681484836,0.05471668135897353,0.7123847586651175,1.0692636047400252,0.0,0.0,0.0,0.0
0.029917903453057466,-0.058036759230354104,0.729945099285952,0.005774069745351978,-0.5253089262002,-0.007038417827112996,0.8508628872194742,0.06478423493381645,-0.8863292792965296,1.049162292817332,-0.14799639084363486,-0.7878421993869114,0.833559628853783,0.05664375106675201,0.7327097211735967,0.9621443085299403,0.05474330421411257,0.7123628900494908,1.0693180776654112,0.0,0.0,0.0,0.0
0.029917903453057466,-0.058036759230354104,0.729945099285952,0.005774069745351978,-0.5253089262002,-0.007038417827112996,0.8508628872194742,0.06478423493381645,-0.8863292792965296,1.049162292817332,-0.14799639084363486,-0.7878421993869114,0.833559628853783,0.05664375106675201,0.7327097211735967,0.9621443085299403,0.05474330421411257,0.7123628900494908,1.0693180776654112,0.0,0.0,0.0,0.0
0.030699479777483527,-0.05809790430677167,0.7317299344131515,0.004790081707857606,-0.5244052111543757,-0.005990175352261079,0.8514342883808567,0.0627686415503652,-0.892341140526898,1.0605153211496614,-0.15035095589203692,-0.7878808533692033,0.8411655436394614,0.04055520090620377,0.7128678830414573,0.9958009016000199,0.07184034811058912,0.725360298751523,1.0527144133605897,0.0,0.0,0.0,0.0
0.031802612180383376,-0.0582956655644963,0.7338777150955139,0.004298717728373614,-0.5241313805398341,-0.005422846252658811,0.8516093057839489,0.062005924240258525,-0.8930483169997273,1.0690775591154984,-0.1512346593151362,-0.7870841564442009,0.8501677212803773,0.028062384786662852,0.6999373182687968,1.0213486280282154,0.08236550622692365,0.7406882858654961,1.032909986782785,0.0,0.0,0.0,0.0
0.032941316122346846,-0.05872125343121751,0.7358284693835471,0.0041245248087848725,-0.5240980175155489,-0.00523121378710772,0.8516318986121215,0.06266784536716392,-0.8913537625984911,1.075077872401723,-0.15070266334356436,-0.787655856940863,0.860559099478247,0.02012386485089919,0.6915139809994284,1.0415252062706977,0.08947548261363852,0.7547434478063285,1.0150050377608526,0.0,0.0,0.0,0.0
0.03399685828015254,-0.05937463933331943,0.7374848633321105,0.004115794396561397,-0.5240924134721663,-0.005257425070032055,0.8516352281693367,0.06443823285887211,-0.8887883178841112,1.0791415473954227,-0.14913395249522443,-0.7899167797674392,0.8719876627922685,0.014884207769293696,0.6858839700457969,1.0586419636153512,0.09554989652337535,0.7667554813686617,1.0000699066558016,0.0,0.0,0.0,0.0
0.03487446912074547,-0.060188856900723,0.7388929281804224,0.00417645616502371,-0.5240496852930495,-0.005378027595714039,0.8516604730626737,0.06685074824517272,-0.885736646602109,1.08132568162998,-0.1469434928390396,-0.7929904053118296,0.8831390868529259,0.011149089005741417,0.6816976059831081,1.074050234996758,0.10169288565337055,0.7767958106252145,0.9878325627631468,0.0,0.0,0.0,0.0
0.035516451765666694,-0.061044230843504944,0.7401337277395329,0.004250065478599241,-0.5239934896537679,-0.0055027166928095644,0.8516938885849146,0.06935667301739636,-0.8821497237370596,1.0816152725500758,-0.1445918054995427,-0.7955723621544316,0.8924152921442045,0.008202170727019488,0.678011024099427,1.0885640409465274,0.10800916067792388,0.7852779065633504,0.9775142226414884,0.0,0.0,0.0,0.0
0.03593398571651627,-0.061881478903330976,0.7412567502314181,0.004312675900888962,-0.5239280235568178,-0.005598233442592474,0.8517332251008779,0.07171882380200217,-0.8781606223269504,1.0803433734623262,-0.14229633245939496,-0.7972931261630589,0.8995231244961926,0.005665107359119077,0.6743696054787834,1.1026140730571172,0.11440862500199717,0.7925145904254021,0.9685503347861223,0.0,0.0,0.0,0.0
0.036169134691606625,-0.06267431250378726,0.7422925356241882,0.004358859250206624,-0.5238566778221315,-0.005659545682129322,0.8517764677366171,0.07385958647001166,-0.8739226681758486,1.0779266462810526,-0.14014385457758122,-0.7981766605090803,0.9047124154474007,0.0033259775462291816,0.6706234284936496,1.1164631088098524,0.120725099612775,0.7987736250314592,0.9605412182160316,0.0,0.0,0.0,0.0
0.03627095474403202,-0.063412387521617,0.7432602805173989,0.00438943690093337,-0.5237821426386488,-0.005691112122992697,0.8518219362867819,0.07576846649464626,-0.8695834485506589,1.0747675172774007,-0.13816371399810698,-0.7983814450167225,0.908392535828125,0.001060116537677507,0.6667565454959951,1.1302730947696222,0.1268205590173962,0.8042843830098974,0.9532043230011408,0.0,0.0,0.0,0.0
0.0362817097080354,-0.06408945539650887,0.7441734045419192,0.0044063388452601,-0.5237115270836473,-0.005698572386560394,0.851865216363745,0.07744769707877809,-0.8652395828804665,1.0711774182866303,-0.13636889988246167,-0.7980318389902543,0.9108973850374762,-0.0012265492678604642,0.662798873295014,1.1441595982784987,0.13259212147029517,0.8092484685335029,0.9463347025386214,0.0,0.0,0.0,0.0
0.03627100966582401,-0.06472442211842014,0.7450387012491518,0.0044224000835788,-0.5236410425842155,-0.005703470483557915,0.8519084289542272,0.0790080613341686,-0.8610675464055599,1.0676199449687043,-0.1346867391544707,-0.7975853811480211,0.9130407941689201,-0.003551217989081644,0.6589138198589457,1.1581685250139166,0.1379571123234413,0.8138666201658373,0.9397839525573408,0.0,0.0,0.0,0.0
0.036298518420816835,-0.06533519415048138,0.7458577798110421,0.004448780019225187,-0.5235692945357993,-0.005723116229961534,0.8519522569465054,0.08054579784140718,-0.8572189691136162,1.0644855308783632,-0.13305286528026183,-0.7974343170672884,0.9155151428728469,-0.005903656059698999,0.6552762203098622,1.1722945839153693,0.1428904747173524,0.8183090761436237,0.9334740122366285,0.0,0.0,0.0,0.0
0.03638535310025256,-0.0659193810490769,0.7466256986809692,0.004487091722218041,-0.5235011011752205,-0.0057596952860877754,0.8519937141707205,0.08206340975570788,-0.8537706477762358,1.0619411469702915,-0.131473563315543,-0.7976635133646207,0.918488284957525,-0.008305149471295126,0.6519781670379554,1.186448243210155,0.1473828873094144,0.8226378969733017,0.9274200059561796,0.0,0.0,0.0,0.0
0.03652639751680068,-0.06646451244058865,0.7473280990132636,0.004533704144753884,-0.5234401434399811,-0.00580747783750828,0.8520305950864832,0.08351690731123312,-0.8507784610217822,1.060015623327562,-0.12999096996493983,-0.7982166813948631,0.9218363104737153,-0.010803365628042735,0.6490730374844297,1.200363291633911,0.1514254680917235,0.8267913300733996,0.9217517769118045,0.0,0.0,0.0,0.0
0.03669008532501607,-0.06695223867671231,0.7479398869947202,0.004579628588252703,-0.5233878266811202,-0.0058536210501395,0.8520621720300747,0.08482945589547752,-0.8482757855358783,1.0585885672933009,-0.12867100621564453,-0.798923642619466,0.9251762680888603,-0.013507986671521038,0.6465861765155401,1.2134671521076772,0.155037419350624,0.8305735181553321,0.9167409251701414,0.0,0.0,0.0,0.0
0.03680897745934127,-0.0673573660153165,0.7484260923107355,0.004607768265722095,-0.5233478424335608,-0.005875649811719596,0.852086428146251,0.08588132561207049,-0.8462206256991175,1.0573016184066208,-0.12760656930686337,-0.79941929616227,0.9277463879026274,-0.016674295931678726,0.6445402748033393,1.2246931668282688,0.15830060557070758,0.8336499363610669,0.9128199173299966,0.0,0.0,0.0,0.0
0.0368344937899808,-0.0676877645571215,0.7487419121714209,0.004606613493967385,-0.5233047731052619,-0.005862318337049511,0.8521129777095773,0.08667307442772589,-0.8446696589361151,1.05590713029681,-0.1267940766342056,-0.7997015958304331,0.9292705821286648,-0.02066563881653904,0.6432952113430211,1.232113228011979,0.16144620647198948,0.83563583106015,0.9105505680308629,0.0,0.0,0.0,0.0
0.0367381392288631,-0.06797025557829832,0.7488509652381644,0.00456811389789845,-0.5232323187935208,-0.005809224568402818,0.8521580403981911,0.08727452963640751,-0.8437233288590187,1.0542713517335227,-0.12617441109439145,-0.7999687654981562,0.9298054542070694,-0.025950049833571187,0.6438596766054426,1.232708155315293,0.16478333715923382,0.8362183081629547,0.9104065447204983,0.0,0.0,0.0,0.0
0.036517887057898504,-0.06821105161454113,0.7487564094501338,0.004495807987227303,-0.5231311499667033,-0.005719663894976993,0.8522211409546147,0.08770708102440045,-0.843331443609445,1.0523360940274311,-0.1257249265521201,-0.8002320714651305,0.9293693743037766,-0.03252613459686776,0.6462290394277309,1.2264600534056953,0.16829745852114986,0.8353930070229786,0.9123809691782719,0.0,0.0,0.0,0.0
0.03619591180729095,-0.06839795733872965,0.7485020800712602,0.004402975494750594,-0.5230254308001541,-0.005603443157505638,0.8522872837065484,0.08794786730243001,-0.8432983012375601,1.0501102755651384,-0.12545609347427242,-0.8003218245674021,0.927944388092551,-0.0399332880377954,0.649387237856549,1.216346529408602,0.1716941811909173,0.8334637755438455,0.9159780548227566,0.0,0.0,0.0,0.0
0.035811597396245634,-0.06854459239185835,0.7481432852729879,0.004304811960782608,-0.5229221394825568,-0.005476143438850147,0.8523519909556173,0.08806012740598915,-0.8434705685478465,1.0476948860050852,-0.1253076337601006,-0.8002943468839623,0.9258742115919679,-0.04779649911138367,0.6529661326597657,1.2042416283748303,0.17483866887296357,0.8308096234814345,0.9205964200569096,0.0,0.0,0.0,0.0
0.035403490383228,-0.06869564258753665,0.7477300460537282,0.00421732940015974,-0.5228094094910929,-0.005357502137211553,0.8524223323277934,0.08820293449379209,-0.8437215504329402,1.0451542538296563,-0.12513538010305117,-0.8004278977580647,0.9237620651049547,-0.05584642484883958,0.6568866207519113,1.1911546576607468,0.17781717285648635,0.8277398531837112,0.9257542812273531,0.0,0.0,0.0,0.0
0.03495865667388237,-0.068891141072566,0.7473057779140637,0.004145136202078524,-0.5226753049149354,-0.005253247256980436,0.8525055699942392,0.08848590609805344,-0.8437936649712778,1.0421921816037194,-0.12482116265142955,-0.8007268662566994,0.9216928113303128,-0.06394149300049151,0.661036574606609,1.1775803103050095,0.18084039602852303,0.8243946249902423,0.9311330897728823,0.0,0.0,0.0,0.0
0.03441518254166678,-0.06916220282463961,0.7469080297068239,0.0040822875328137605,-0.5225094902408823,-0.005155619933035645,0.8526081087579562,0.0889584314287879,-0.8433017405664573,1.038172450182322,-0.12428341335306316,-0.8009066695119105,0.9192202631802636,-0.0720233286190246,0.6652199500380642,1.163716337342186,0.184185410757855,0.8207531871333048,0.9365491510338271,0.0,0.0,0.0,0.0
0.03369639121079144,-0.06954784738066182,0.7465703153029571,0.004021255643304203,-0.5222976850121414,-0.005055898147319062,0.8527387616544313,0.08968673348538533,-0.8418111489068448,1.0323221049153561,-0.12341982596986853,-0.8006639135526823,0.9158164324746522,-0.08007241893631252,0.6692352826429128,1.14961198782479,0.18818378534708138,0.8167164761375125,0.9418988357617776,0.0,0.0,0.0,0.0
0.032736897543703146,-0.07010606146240364,0.7463226435148782,0.003958033173537086,-0.5220169935560185,-0.004951704662881924,0.852911527084178,0.09080336938317633,-0.8389129209686776,1.0238985607132338,-0.12207310417691004,-0.799875974353982,0.9112036103706974,-0.08810497517126394,0.6729291446412904,1.13525416140045,0.19322872135224484,0.812172442728048,0.947119788926323,0.0,0.0,0.0,0.0
0.03146284551108333,-0.07089026064936232,0.7461909467912249,0.0038831351998165563,-0.5216464556212647,-0.004835542347226804,0.8531392114590678,0.09241513115539816,-0.8341771023254367,1.0120820992362836,-0.12010665180728086,-0.7983389201827312,0.9049632643218272,-0.09626060596051154,0.6761079353161564,1.1206465697204255,0.1997136709872402,0.8069765554319976,0.9521793682900985,0.0,0.0,0.0,0.0
0.029805590548025795,-0.07194183625598942,0.7461916150595532,0.003780015227706702,-0.5211661745174274,-0.004692889169469484,0.853433949884226,0.09458206006780491,-0.8272468797740068,0.9961162536242048,-0.11743337651985027,-0.7958181660607112,0.8966214591057522,-0.10489082187422122,0.6785667529830317,1.1058632182903043,0.20798941683596,0.800970486840141,0.957070985468107,0.0,0.0,0.0,0.0
0.027727289937413347,-0.07327852221663733,0.7463221175020425,0.0036244879413509967,-0.5205570332637373,-0.004500927320874599,0.8538073435266714,0.09729063918440754,-0.8180039371044402,0.9755735514150041,-0.11405708684159245,-0.7921579456156684,0.8858348721947656,-0.11474446286287289,0.6801974911592119,1.091162973268966,0.21829575240766022,0.7940215717694896,0.961819820330219,0.0,0.0,0.0,0.0
0.025264669231422017,-0.07487861156679503,0.7465416130109438,0.0033849552006025535,-0.5197938562076495,-0.004226339497547365,0.8542745619421913,0.10042319630522752,-0.8069115152999208,0.9508833648458996,-0.11013249895740632,-0.7875480803999657,0.8728039374443669,-0.127375097117858,0.6812710385901982,1.0771756443944513,0.2307060857650779,0.786061404714187,0.9665472000758443,0.0,0.0,0.0,0.0
0.02259767122277397,-0.07666309112974283,0.7467270610037682,0.0030181649069049013,-0.5188041355694921,-0.003811538220451385,0.8548793083078925,0.1037174260138003,-0.7958318953628166,0.9244462695672802,-0.1060695594574467,-0.7831910918780327,0.8591921979357136,-0.14606619264597176,0.6830409803770632,1.065032947181829,0.24521514375670062,0.7770233722426826,0.9717019781226226,0.0,0.0,0.0,0.0
0.02013015081474844,-0.07840906875878027,0.746634380092297,0.002436575129615945,-0.5173420505331173,-0.0030953965909831715,0.855769644455663,0.10642995477139329,-0.789860342859729,0.903009931577935,-0.10297802748240067,-0.782199231717748,0.8493042837951448,-0.17767371735822454,0.6885587384751626,1.0556594043258563,0.2617860238421421,0.7666709908886769,0.9779535899974287,0.0,0.0,0.0,0.0
0.01804907855406714,-0.0799149261086695,0.7461297087534966,0.0016236652161276774,-0.5153761733478455,-0.001997662595795521,0.8569601933583326,0.1079396250128616,-0.7915161115531307,0.8902908157904301,-0.10161799675947113,-0.7855041193653647,0.8445485217254565,-0.22689592145627394,0.6976900063418349,1.050761390629626,0.2795004874051343,0.7548969157862601,0.9857173898055263,0.0,0.0,0.0,0.0
0.0164863661852288,-0.08094911250486987,0.7449305629232515,0.0009358920108004645,-0.513137181807308,-0.0008695991892695308,0.8583056568322545,0.10835066972314268,-0.8006613978387327,0.887131763447491,-0.1018937587192682,-0.7940408766897078,0.845572238035457,-0.28136600144220764,0.7044492351351195,1.0524175149046415,0.2919087464824133,0.7400231503648537,0.9971620091254607,0.0,0.0,0.0,0.0
0.016501234341978442,-0.08097532701634581,0.7448933336802186,0.0008853654730985589,-0.5131394694864537,-0.0008337630542349514,0.8583043783077826,0.10834284592902625,-0.8007238751094031,0.8870119975187911,-0.10191953516353353,-0.7940476448366762,0.8455837253740178,-0.28136430545431884,0.7044609914255239,1.052415321159121,0.29191367292409826,0.7399521395736607,0.997095190467356,0.0,0.0,0.0,0.0
0.016501234341978442,-0.08097532701634581,0.7448933336802186,0.0008853654730985589,-0.5131394694864537,-0.0008337630542349514,0.8583043783077826,0.10834284592902625,-0.8007238751094031,0.8870119975187911,-0.10191953516353353,-0.7940476448366762,0.8455837253740178,-0.28136430545431884,0.7044609914255239,1.052415321159121,0.29191367292409826,0.7399521395736607,0.997095190467356,0.0,0.0,0.0,0.0
0.01560437035150616,-0.08104098418341579,0.7453267958924473,0.0007506220093426449,-0.5142328576902709,-0.0007404746598375499,0.8576499614269069,0.1077986664346163,-0.7888445008437396,0.8715434893402452,-0.10141229158470218,-0.7813474388237197,0.8293902461853505,-0.28065215264481375,0.7066771112603165,1.051471879415556,0.2954655671321141,0.7431771860683483,0.996323080392161,0.0,0.0,0.0,0.0
0.01432092565218329,-0.08100417202908447,0.745583498388574,0.0006908658895511851,-0.5150048160294105,-0.0007510368662992662,0.8571866763514592,0.10724852755439748,-0.777275302775617,0.8542448935432888,-0.10094197082893322,-0.7688640689217597,0.8106972361798793,-0.2804003846100355,0.7059607273095541,1.0521576231258039,0.2950941586648414,0.7424960122315256,0.9967440039644281,0.0,0.0,0.0,0.0
0.013323955942459186,-0.08087780330277705,0.7457069810141801,0.0006661090293475934,-0.5154582898087254,-0.0007665684051769095,0.8569140681183296,0.10663449180690406,-0.7694369432719776,0.8418259095682188,-0.1008605007188246,-0.7597841522267731,0.7962607167248774,-0.2807992354666262,0.7046765343415153,1.0533075122951225,0.2933328475400102,0.7409341551747772,0.997237054990445,0.0,0.0,0.0,0.0
