zhuoxili-jackie/tripod-support-walk/examples/trajectory_tripod_lowstep_v0.15.csv
root_pos_x,root_pos_y,root_pos_z,root_rot_x,root_rot_y,root_rot_z,root_rot_w,FL_hip_joint,FL_thigh_joint,FL_calf_joint,FR_hip_joint,FR_thigh_joint,FR_calf_joint,RL_hip_joint,RL_thigh_joint,RL_calf_joint,RR_hip_joint,RR_thigh_joint,RR_calf_joint,FL_foot_joint,FR_foot_joint,RL_foot_joint,RR_foot_joint
0.0,0.0,0.72963,0.0,-0.5231245161092812,0.0,0.852256264656019,0.0,-0.81,0.872,0.0,-0.81,0.872,0.0,0.65,1.0,0.0,0.65,1.0,0.0,0.0,0.0,0.0
3.134227028303638e-05,0.00010252040207051252,0.7296094254672989,1.3692037536579112e-06,-0.5231142260993804,0.00017119931325295488,0.8522625634986948,-0.0007307853986891097,-0.8107816085217958,0.8729448631492642,-0.000730785398689109,-0.8098093524621917,0.8718795624825474,0.00038414298331073803,0.6495920784832578,1.000321176379188,0.00038414298331073554,0.6503406001737271,0.9999556139862468,0.0,0.0,0.0,0.0
6.957642771440755e-05,0.0002279233204487533,0.7295766596027015,-3.1722418604836835e-05,-0.5231118021875881,0.0003326981495660685,0.8522640029460842,-0.0014706340327751066,-0.8116849295260935,0.8740644520102329,-0.0014701943557311236,-0.8095483429335077,0.8716625681478516,0.0007662639136788597,0.6491506517069505,1.0008441443410268,0.000767686035892202,0.650679768192549,0.9999511367492763,0.0,0.0,0.0,0.0
0.00011322951891354155,0.0003552627526483928,0.7295331047855076,-6.56549295303659e-05,-0.5231066448171164,0.000495722033054364,0.8522670873014371,-0.0022195582469662052,-0.8126739406896154,0.875277724224853,-0.002218189012897581,-0.8093572391143963,0.8715206601926283,0.0011500436195017337,0.6486622064681015,1.0014592908675484,0.0011539061212742375,0.6509803140839937,1.000029199580508,0.0,0.0,0.0,0.0
0.00015913323841927537,0.00046988719580356644,0.7294796227527183,-7.663485717453434e-05,-0.5230887448830458,0.000668580128584925,0.8522779547215744,-0.0029789939695817327,-0.813728657397982,0.8765218626407506,-0.0029763427326441765,-0.8093388138001769,0.8715677924585129,0.001538813239269292,0.6481029025117104,1.0020873350934947,0.0015462702775406862,0.6512032121313464,1.0002177230196436,0.0,0.0,0.0,0.0
0.00020236501464675885,0.0005347872747893017,0.7294218355530836,-5.7268844675914965e-06,-0.523041577003077,0.0008705877494084552,0.8523067234102449,-0.003746971446020854,-0.8147508881736333,0.8776148196228993,-0.0037431697498067707,-0.8097055980795302,0.8720663726507933,0.0019373646830235479,0.6474633877343016,1.0025140581846412,0.0019504441930442602,0.6512960818340786,1.0005700101723203,0.0,0.0,0.0,0.0
0.00028088668665066736,0.0004065861763922717,0.729377963176453,0.0003691624134604492,-0.5229517920084442,0.0011665596499087466,0.8523613823331349,-0.00448356283841257,-0.8153640072255811,0.8781452229023795,-0.0044806884443593905,-0.8112931981748143,0.8743218675665939,0.0023415380462520918,0.6470068601319598,1.0020048282445049,0.0023663833989731676,0.6513257786406994,1.0013700844011908,0.0,0.0,0.0,0.0
0.0005002684559338958,-2.8556006031111485e-06,0.7293855336250943,0.00010343777620806602,-0.52304229270436,0.0005290232595236231,0.8523065583917466,-0.0015155924830015377,-0.8145227745116409,0.8782261746189599,-0.009363392460761781,-0.810703553536125,0.8701434188008326,0.0027396282686657733,0.6489203277486995,1.0010979296849978,0.002755050828303701,0.6512497194982805,1.0021262429170676,0.0,0.0,0.0,0.0
0.0007888376548907776,-0.0006228366633834517,0.7293812833527074,0.00013382884788092439,-0.5230906698197401,-4.0860174463427414e-05,0.8522770274786369,0.0016052733148686285,-0.8134434197901983,0.8780233713021869,-0.0143426600689571,-0.8127842361146775,0.8683670546924463,0.0031400645700650023,0.6510481675160879,0.9994133425172117,0.003154305343544401,0.6510480272344006,1.003564140396728,0.0,0.0,0.0,0.0
0.0011206887524071014,-0.0013074441184870163,0.7293624248509196,0.00026696018795985905,-0.5231096522124153,-0.0005776734963477318,0.8522651505181914,0.004731211816340366,-0.8125184104445301,0.8780320466314964,-0.019323042772201753,-0.8152998601932429,0.8664621376651074,0.0035442140667718983,0.653203740278824,0.9975164657352111,0.003561799497514693,0.6507969238478177,1.0052582218520019,0.0,0.0,0.0,0.0
0.0014914226329664137,-0.002011718050325395,0.7293239458192249,0.00043148461928456156,-0.5231162253488134,-0.001104559687160083,0.8522605285625576,0.007859861945663104,-0.8118251338676756,0.8783833291274207,-0.024303113656443096,-0.8178688737407662,0.8644800533912114,0.0039467296329008155,0.6553680450870109,0.9956534154182147,0.003971349739085483,0.6505315466627367,1.0071287795445742,0.0,0.0,0.0,0.0
0.0018996893046418215,-0.0027245140423196954,0.7292658873064453,0.0006061062319500213,-0.5231186187429058,-0.0016311812344597862,0.8522581079740634,0.011004583277717042,-0.8113533701227791,0.8790848291389829,-0.02928695172480608,-0.8204045151110371,0.8624996775673534,0.004343897553988726,0.6575569693646914,0.9938850388174439,0.004379013657802458,0.6502729097718748,1.0091487832075905,0.0,0.0,0.0,0.0
0.002346971339206677,-0.003446310222483173,0.7291899228899754,0.0007870891908947592,-0.5231198148737742,-0.0021621876761701592,0.8522560441096835,0.014182701345339877,-0.8110846786501159,0.8801307959785366,-0.034279272004006045,-0.8228695250230086,0.8605297665452106,0.004732696587471927,0.6597972466148205,0.9922021452595999,0.0047818189158591075,0.6500367929026815,1.011303869300009,0.0,0.0,0.0,0.0
0.002837074587544956,-0.004181560618527742,0.7290974029645756,0.0009767217015926154,-0.5231205615090171,-0.0027005085145337094,0.8522538538457725,0.01741291088303683,-0.811009274914375,0.8815269245984162,-0.03928496372283928,-0.825178835297743,0.8585711478963193,0.005110194517274615,0.6621182823400045,0.9905768133773422,0.005177101674889794,0.6498361097010819,1.0135894377504158,0.0,0.0,0.0,0.0
0.003374975746096076,-0.0049359839391676505,0.7289889255157078,0.0011792245958507318,-0.5231205802186708,-0.003248517990764621,0.8522516735752986,0.02071442420692919,-0.8111252630742584,0.8832881800934217,-0.04430907409978709,-0.827135889352866,0.8566633481705311,0.005473354336138607,0.6645479810609141,0.9889794337102714,0.00556228030851579,0.6496805548303484,1.016008333798253,0.0,0.0,0.0,0.0
0.00396570744898228,-0.00571539875181156,0.7288649681084969,0.001398964216501105,-0.5231195196549534,-0.0038085606058429443,0.8522496734650025,0.0241066591415303,-0.8114299147348754,0.8854279852619343,-0.04935690674482183,-0.8284013170154416,0.8549179932713181,0.005818946104567479,0.6671142108213944,0.9873801048388479,0.0059347385928980095,0.6495796329135239,1.0185639051251807,0.0,0.0,0.0,0.0
0.004614142762011685,-0.006525206803266988,0.7287274688217721,0.0016395533897139883,-0.5231187007070636,-0.0043832964994711945,0.852246985061862,0.027609310624741618,-0.8119053547345951,0.887946983833132,-0.054434198887089225,-0.8285331782860806,0.8535245636987508,0.0061433849703192355,0.6698562149916072,0.985739833432771,0.006291642913113151,0.6495543656224415,1.0212475853224796,0.0,0.0,0.0,0.0
0.005326607747412783,-0.007371661804884455,0.7285819272641514,0.0019056144651492571,-0.5231233799857651,-0.004975343871030949,0.8522403087739655,0.0312430735462207,-0.8125014632915386,0.8908258392369357,-0.059547219934672296,-0.8271774236790754,0.8526515868580544,0.006442478023895214,0.6728468852056068,0.98398951659677,0.006629771802316347,0.6496571249073485,1.0240271880378489,0.0,0.0,0.0,0.0
0.006111741634164982,-0.00826888793430719,0.7284340772626662,0.0022137989942300055,-0.5231329737038676,-0.005583829586110056,0.8522299054626721,0.035031326964175866,-0.8131783411930881,0.894051236233276,-0.0647032428436336,-0.8245257814429466,0.8519801156205794,0.006712342231457249,0.6761583243309172,0.9820128855571355,0.006946947638932293,0.6499289518752673,1.0268801527641427,0.0,0.0,0.0,0.0
0.006975321735801407,-0.009233858715449954,0.7282965719727144,0.0025848638592357673,-0.523150676121411,-0.0062069231854225086,0.8522136836833295,0.03899838327894355,-0.8138218336901539,0.8975291649053089,-0.06991025541251114,-0.8208444473998988,0.8511222126817277,0.0069485463957156155,0.679901005483777,0.9796278202743961,0.007241092494099912,0.6504439916968754,1.0297401486660676,0.0,0.0,0.0,0.0
0.007913075051803177,-0.010285615789735225,0.7281894525012236,0.0030424888966209857,-0.5231816797585196,-0.0068420778859332515,0.8521882768476521,0.04316787668530866,-0.814219916140912,0.9010292892671408,-0.07517697848095665,-0.8162775516500287,0.8496633836332581,0.007146437031707792,0.6841990550626139,0.976587727599498,0.00751066277098278,0.6512853910039259,1.0324943507525877,0.0,0.0,0.0,0.0
0.008903173182934581,-0.01144180647304923,0.728137063309834,0.003607985260369733,-0.5232340754608801,-0.0074875212097605835,0.8521484740026778,0.047560075647544005,-0.8140459286584965,0.9041345173631556,-0.08051272172989626,-0.8108096186535522,0.8470992548280165,0.007301100494416307,0.6891522824664671,0.9726322164406485,0.0077545340878605665,0.6525114386698961,1.0350100096029022,0.0,0.0,0.0,0.0
0.009894541917528423,-0.012701760437766848,0.7281476577113378,0.00427467146558884,-0.5233273181114678,-0.008149571787998702,0.852082055779719,0.05218451868109579,-0.812891903169294,0.9062160660065259,-0.08592678290822281,-0.8042945056436372,0.8427508930071423,0.007406634314572994,0.6947108256026437,0.9677699005097824,0.007969840487992087,0.6540553768995615,1.0372905215047712,0.0,0.0,0.0,0.0
0.010774717345644337,-0.013987876992327739,0.7281114098229953,0.00492275475541131,-0.5235077944720461,-0.008864963646570476,0.8519605437062077,0.05701422606607324,-0.810602513099822,0.9065420706172733,-0.09142476859416347,-0.7964894495020318,0.8355318704815037,0.007456300995472611,0.7000688089857209,0.9635220636413774,0.008145314192732674,0.6552279060571665,1.0402580740004208,0.0,0.0,0.0,0.0
0.011438284414772664,-0.015124138520920012,0.7278710203317137,0.005287030267595236,-0.5238598365430064,-0.009707808928887805,0.8517327499949057,0.061974132569764306,-0.8074513818848539,0.9049464918708798,-0.09700172172003277,-0.7865827431436493,0.8235010799097072,0.00744522905021504,0.7042126151124645,0.9623302855081527,0.008256966544187883,0.6552975612618294,1.0450125233077554,0.0,0.0,0.0,0.0
0.01180744684908371,-0.015733701387245155,0.7274104317480904,0.004854695165729796,-0.5242396451127427,-0.010764853769446461,0.851488898547853,0.0667148694657611,-0.8057019176827256,0.9039073136899707,-0.10251439747214092,-0.77045228446583,0.7988075575303812,0.007422143514898854,0.7060408541893343,0.9655714806910609,0.008304893902841948,0.6538055036242567,1.0503677545197834,0.0,0.0,0.0,0.0
0.011837587312731046,-0.01578844195118132,0.7273959769988126,0.004868301069724643,-0.5242213658376419,-0.010807778047556364,0.8514995309321589,0.06696706484063528,-0.8057073162046575,0.9039464048824236,-0.10285985966539239,-0.7703938786749972,0.798816078874048,0.007414026283519464,0.7061540120843284,0.9654390425703081,0.008317131002170965,0.6537130845001371,1.050524384111628,0.0,0.0,0.0,0.0
0.011837587312731046,-0.01578844195118132,0.7273959769988126,0.004868301069724641,-0.5242213658376416,-0.010807778047556359,0.8514995309321589,0.06696706484063528,-0.8057073162046575,0.9039464048824236,-0.10285985966539239,-0.7703938786749972,0.798816078874048,0.007414026283519464,0.7061540120843284,0.9654390425703081,0.008317131002170965,0.6537130845001371,1.050524384111628,0.0,0.0,0.0,0.0
0.011748883076525371,-0.016106296136466206,0.7281473099399212,0.004360239311648471,-0.5234877357968984,-0.010401041197732726,0.8519585653806087,0.06704704988471992,-0.8078915033264109,0.9061948582227738,-0.10291193536130051,-0.7712965819979071,0.8013673023595015,-0.00109904809976143,0.693845402841781,0.9850579761563515,0.016847317541586415,0.6570405397276404,1.0441879930897113,0.0,0.0,0.0,0.0
0.01175034808354297,-0.016601848088661053,0.7291523023716215,0.0040872027320497835,-0.522942905926463,-0.009951349463184376,0.8522998196402926,0.06724509724565297,-0.8078237314657021,0.9067944163707082,-0.10276595945574364,-0.7717021451328069,0.8047074628965215,-0.009614665206546847,0.6853635983360868,0.9994811313670834,0.02525309373952152,0.6621842294773588,1.036306096296571,0.0,0.0,0.0,0.0
0.01180161217000209,-0.017196429525075604,0.7301727101581512,0.003945386976640651,-0.5225459343923359,-0.009492112432474317,0.8525491658392579,0.06755823227259258,-0.8066103059272088,0.906371945217872,-0.10246691986638046,-0.7719659655649233,0.808381219456908,-0.01813373156224954,0.6799280849514925,1.0106357526731784,0.03354482700158942,0.6678685679315653,1.0286862711773639,0.0,0.0,0.0,0.0
0.011866736962147488,-0.017838969585508204,0.7311291724266783,0.0038636699931932634,-0.5222515773607441,-0.009043342479183277,0.8527347653023198,0.06797318205022036,-0.8048063468307836,0.9052520954137063,-0.10204416373677547,-0.7721443216528678,0.8120051099726961,-0.026665390357752818,0.6765170914462301,1.0199084838368293,0.04174497177144495,0.6735177896554331,1.0218528366092745,0.0,0.0,0.0,0.0
0.011888816829025596,-0.018493471183497954,0.7319993960576285,0.0037882871404988617,-0.5220195131973069,-0.008616779481255282,0.8528816024707997,0.06846982004174511,-0.8026035206837943,0.9033730880086686,-0.1015140725107264,-0.7720486874713958,0.814983235670209,-0.03521949621898224,0.6742154894911131,1.0279804451162255,0.04987771297309247,0.6787594048402391,1.0159089986618162,0.0,0.0,0.0,0.0
0.011825483478977765,-0.019145306269211636,0.7327872285643967,0.0036943376115115348,-0.5218164765967684,-0.00821441094731321,0.8530102227256922,0.0690329280865746,-0.8000534547917554,0.9006101465246146,-0.10088733659950455,-0.771557732877763,0.8169593940155471,-0.04380579068356069,0.6724325484143503,1.0351483857212755,0.05796538888771224,0.6833975112920982,1.0107828772422627,0.0,0.0,0.0,0.0
0.01164637437253299,-0.01979599789168958,0.7335080996304559,0.00357907703730994,-0.521613015515443,-0.007831237649890918,0.8531387483694068,0.06965307030812706,-0.7971370789297055,0.8968139522719113,-0.10017065383819128,-0.7706359087999616,0.8177806179867094,-0.05243405652661328,0.6708611116194884,1.0414664124993511,0.0660291228008608,0.687331390970868,1.0063344356043291,0.0,0.0,0.0,0.0
0.011313177144636631,-0.020450731737988805,0.734180774694875,0.0034425980806391857,-0.521379757957938,-0.0074600608479383785,0.8532852067171458,0.07032057391213842,-0.7937697117129302,0.8917270216128415,-0.09936741328040022,-0.7692026352722313,0.8172194045570598,-0.061114171421807445,0.6693790113319935,1.0467144016468533,0.07409107281548964,0.6904519155011122,1.0024054042318034,0.0,0.0,0.0,0.0
0.010784726951030613,-0.02112260744169201,0.7348274128446287,0.003293843476885313,-0.5210818548469959,-0.007089564798406578,0.8534709070702605,0.07102820669142965,-0.7898374495554963,0.885032880313385,-0.09847928060230994,-0.767212891077578,0.8150890297422596,-0.06985611823601995,0.6680514332994875,1.0503446756974488,0.08217494095515576,0.6926404816356215,0.9988148465994525,0.0,0.0,0.0,0.0
0.010003884449851338,-0.021828958488017823,0.735474578317286,0.003143000716399236,-0.5206724224200177,-0.006704883626064018,0.8537244254519888,0.07176788420624654,-0.7851848949377142,0.8762845399976624,-0.09750666044678141,-0.7645953336715002,0.8111061884927868,-0.07867007078677254,0.6671433867767393,1.0513123163446099,0.09030817636204319,0.6937192462636104,0.9953370108602888,0.0,0.0,0.0,0.0
0.00890614296927999,-0.022594558190771767,0.7361662092261474,0.0030042085564917272,-0.520087736746961,-0.0062857421741149885,0.854084428064166,0.07253196290947776,-0.7796279067871301,0.8649670370515083,-0.0964501397053458,-0.7612943568676189,0.805001863786805,-0.08756639598186705,0.6672105292965842,1.047998456055147,0.09852200051714075,0.6935285207663678,0.9915640819815841,0.0,0.0,0.0,0.0
0.007422072913790894,-0.023442947488538552,0.7369784405655564,0.002880133230771446,-0.5192490705045985,-0.00580933016327105,0.8545983613930801,0.07330841857189148,-0.7729447472611591,0.850533251008677,-0.09531234916295442,-0.7571689779467086,0.7964306938364888,-0.09655355305038928,0.667443301538091,1.0416559469785174,0.10684921972180421,0.6920240803285643,0.9867245132822274,0.0,0.0,0.0,0.0
0.005486093944348576,-0.024404207231620886,0.7380031930706024,0.0027717450324218473,-0.5180512148978141,-0.005246393099959212,0.8553290194608241,0.07408773400376283,-0.7649997093727317,0.8325157513421063,-0.09410228118980396,-0.7521920412019713,0.7851998820177303,-0.10564045591412397,0.6670829505830221,1.0329505270020793,0.11532599994214779,0.6892096527083683,0.979795830593473,0.0,0.0,0.0,0.0
0.0030476349166739867,-0.025507749656132832,0.7393243956591757,0.0026668974575398694,-0.5163610448093852,-0.004564141502075124,0.856354673995337,0.0748653262741473,-0.7559163141725056,0.810725227170558,-0.09284169256613065,-0.7465582423998475,0.771377573569498,-0.11483656046317718,0.6651196824805059,1.0220682533842504,0.12398874461147405,0.6850870692222493,0.9696410436109274,0.0,0.0,0.0,0.0
0.00010910277450828197,-0.026767773120625758,0.7409764122867796,0.0025241215928860504,-0.5140272797032108,-0.0037346112370957255,0.8577619933349864,0.07564880162149457,-0.746425123192645,0.7857708378824678,-0.09157550690606163,-0.740923853454787,0.7556421799266592,-0.12415179114897289,0.6601952965439193,1.0089967071798873,0.13286401092209782,0.6796421108091104,0.9552762861677774,0.0,0.0,0.0,0.0
-0.0031945177148012655,-0.028171446927598803,0.7428157388383463,0.00227779815045268,-0.5109029428614537,-0.002747470505008667,0.8596309940997451,0.07648356611964982,-0.7386641430900871,0.7601856102253384,-0.09039108884587434,-0.7371902804845041,0.7403202443061053,-0.13359624468324227,0.6511380053295367,0.9938129513855786,0.14194659373376953,0.6725237346059288,0.9370178814410591,0.0,0.0,0.0,0.0
-0.006338578817330971,-0.0296173995132897,0.7441003385854215,0.001802361725189921,-0.5067910298682277,-0.0016547332201307058,0.8620654646807765,0.07754756401255943,-0.7397877053824695,0.7432120827160744,-0.08952006945606886,-0.7417012722567751,0.7334095655181576,-0.14319424690146662,0.6395081341001224,0.9750680201999483,0.15116645717536656,0.6613977262075668,0.9203053433327288,0.0,0.0,0.0,0.0
-0.009221749658743596,-0.031058620399579222,0.7444271957021953,0.0010243024369021472,-0.5015352077957187,-0.0004760629280141083,0.8651364976175213,0.07892142226740304,-0.7533770757421935,0.7389718887926334,-0.08907236756412831,-0.7573368969166269,0.7379025460285685,-0.15295625142897232,0.6232842428145074,0.9514807087428526,0.16043928765274454,0.6441260137316404,0.9084687301398864,0.0,0.0,0.0,0.0
-0.01149074810562487,-0.03212921364192667,0.743852393278432,-0.0004987065827106446,-0.49536783348867075,0.0005877820240169268,0.8686829774715152,0.08059187103393312,-0.7816073639200639,0.7525957081173453,-0.08913418202401974,-0.7827621092817361,0.7534076704602959,-0.16276992577116087,0.6027861204941858,0.9290566203589572,0.16942086749276555,0.6227527544842778,0.9001139563366654,0.0,0.0,0.0,0.0
-0.011494514840414471,-0.03220438744760543,0.743716762434646,-0.0006165063201103973,-0.4953483079079159,0.0006576445681105121,0.86869398597915,0.08066854755352734,-0.7819351638393198,0.7522317787219116,-0.08913440764418247,-0.782969363304666,0.7533200654269863,-0.16340287826978087,0.6028012830461075,0.929066584001688,0.16986187775998157,0.6228593228571184,0.8999776121119122,0.0,0.0,0.0,0.0
-0.011494514840414471,-0.03220438744760543,0.743716762434646,-0.0006165063201103973,-0.4953483079079159,0.0006576445681105121,0.86869398597915,0.08066854755352734,-0.7819351638393198,0.7522317787219116,-0.08913440764418247,-0.782969363304666,0.7533200654269863,-0.16340287826978087,0.6028012830461075,0.929066584001688,0.16986187775998157,0.6228593228571184,0.8999776121119122,0.0,0.0,0.0,0.0
-0.011930863143142173,-0.032357494473365216,0.7446590185938892,-0.0005954806859323132,-0.49756558008995344,0.00042766156777794507,0.8674260521900897,0.0810795056106027,-0.7614524297143866,0.730105357618609,-0.08748003988156289,-0.7645857034245501,0.7337495741852736,-0.1659385274828654,0.6123230057312475,0.926031142365501,0.17120193523780264,0.6319883534030074,0.8965108427305929,0.0,0.0,0.0,0.0
-0.012577841621138793,-0.03254427608768134,0.7454846712458875,-0.0005229305254429949,-0.4989324993005775,0.00021260730474180817,0.8666406651452947,0.08162616132272275,-0.7447862890239274,0.71004409327688,-0.0860012968610497,-0.7503942464440259,0.7168678986117533,-0.16735914160822105,0.6186784006084424,0.9215121603396628,0.1715291537881153,0.637705756177807,0.8921961773828951,0.0,0.0,0.0,0.0
-0.012965008618759745,-0.03278172549727626,0.7461887315118896,-0.00037482745037527646,-0.4994202204218332,1.988900640258564e-05,0.8663597997036897,0.08239526192878754,-0.73519192932587,0.6982663210094997,-0.0847690890192476,-0.743818637239279,0.7091180741374606,-0.16785620859996353,0.6230111314952079,0.9153645302179897,0.17100986338787305,0.6412378300628314,0.8867773779802466,0.0,0.0,0.0,0.0
-0.012997874182872907,-0.03314839024271301,0.7467055121782993,-3.423650881938202e-05,-0.4990277494647932,-0.00011490625248560054,0.8665859973992877,0.08341909381910456,-0.7334390104036339,0.696177589953479,-0.08378170929828202,-0.7464141297115909,0.7130331530096184,-0.16749026392116295,0.625300981895282,0.9079393891234532,0.1697008916726798,0.6424682365060589,0.88106353746635,0.0,0.0,0.0,0.0
-0.012695186299624283,-0.03367093687342726,0.7463307456475426,0.0005438810558960706,-0.49754919383231244,-0.0001734024126126173,0.8674355733089439,0.08479915065305912,-0.7430617650677895,0.7063725425120434,-0.08315160217214107,-0.7618462112777572,0.7313131158196251,-0.1663053861697452,0.6212896341793571,0.9056977974409715,0.16764514630307734,0.63701183813388,0.8818762518376598,0.0,0.0,0.0,0.0
-0.011856621218239459,-0.03437532217777842,0.7449698292741405,0.0014142768633582385,-0.49481895401733755,-0.00012540780825368234,0.8689949291215819,0.08659798264893151,-0.7662410042911811,0.7317992156431625,-0.0829916887241504,-0.7922747411751297,0.7666922312342995,-0.16432727704770336,0.6106754295423293,0.9089618609133245,0.164898654904903,0.624563327963373,0.8897070492493797,0.0,0.0,0.0,0.0
-0.008526753728555794,-0.035494431974156554,0.7449304675642288,-0.0004105878154420803,-0.502477735732972,0.0009761085639486166,0.8645895001226782,0.08675491257811435,-0.7399629968188566,0.719829162100686,-0.08102430750106707,-0.7623637126132649,0.7560563293240085,-0.15623171841773154,0.6346275183007158,0.9281561933914547,0.1548493109608132,0.6445649982726064,0.9281827727476785,0.0,0.0,0.0,0.0
-0.004849782654444929,-0.0366536777127317,0.7438957587831969,-0.001650187048218572,-0.5083330688047306,0.002001155280857224,0.8611566427891112,0.08745623305122198,-0.7287955848274184,0.7235032175658442,-0.0796450759813959,-0.7498997716951848,0.7632759654233877,-0.14800447648688855,0.6526216324140823,0.9478415759694235,0.1448633780591091,0.6575274122794881,0.9613860314211778,0.0,0.0,0.0,0.0
-0.0010261532690076496,-0.03780103609319475,0.7421101186709327,-0.0024343418894370262,-0.5124580586686585,0.002907703696928232,0.8587038822226938,0.08857554302819486,-0.7309500227407478,0.7407785675411687,-0.07871968556422085,-0.752434290123334,0.7854847928432387,-0.13978527402790214,0.6644898225351598,0.9678032996824286,0.13506317450499655,0.6669772703494273,0.9852701546365621,0.0,0.0,0.0,0.0
0.002500287610631571,-0.03892003289352412,0.7404159084643921,-0.0028588660898462527,-0.5153661727334198,0.0036967564737921143,0.8569573320057193,0.08984637607084404,-0.7376149560847106,0.7611321690552928,-0.07796679014901227,-0.760849675284565,0.8119131577195728,-0.13154692913490953,0.6737571467530548,0.9827085360310445,0.12542404553385708,0.6728690678695014,1.0032585910779552,0.0,0.0,0.0,0.0
0.005473696554392752,-0.03996836493266265,0.7390678054384505,-0.003068415146830311,-0.5174250236962836,0.004372584904727979,0.8557118733444324,0.09111913795179175,-0.7444772427716195,0.7791565244214689,-0.0772586485152475,-0.7701344331574149,0.8363129967895602,-0.12328587368467463,0.6811392812278563,0.9924408243034543,0.11593083264233711,0.6755480441932292,1.0172669550010007,0.0,0.0,0.0,0.0
0.007850002979780581,-0.04092325480119099,0.7380564906736212,-0.003178690104802895,-0.5188671515725732,0.00494949171077221,0.8548346492041528,0.09233019695078805,-0.7503525945900642,0.7935925826522217,-0.07655877684304667,-0.7785783037050792,0.8568441091498261,-0.11501092499751793,0.6866468840525778,0.9983831986879919,0.10657289084602581,0.6761867015249272,1.0283408263136355,0.0,0.0,0.0,0.0
0.009675124590314093,-0.041788024825774914,0.7373112463229058,-0.003254941868411149,-0.5198705067521687,0.005449896027895315,0.8542214936396542,0.09345180141099385,-0.7549468753518667,0.8044035244699038,-0.07585804324442758,-0.7856543031358237,0.873300919083067,-0.10673151846093057,0.6903910859475887,1.0018238026323885,0.09734014874450034,0.6757615473156802,1.037183206886734,0.0,0.0,0.0,0.0
0.011024568238238854,-0.04257833932712889,0.7367492442764172,-0.003326373697866806,-0.5205648755776631,0.005896871794405311,0.8537952754939996,0.0944749221744753,-0.7583045396507925,0.8119475276963615,-0.07515952549639643,-0.7913455742733949,0.8860809496219354,-0.098453828254421,0.6925271145317784,1.0037776632322943,0.08822307655353435,0.6748799280144673,1.0440915031505564,0.0,0.0,0.0,0.0
0.011974154539761217,-0.04331250789499115,0.7362877271988988,-0.0034027595053964005,-0.5210418625408948,0.006310512804789392,0.8535010112095969,0.0953994926504571,-0.7606041040824257,0.8166664279083595,-0.07447203521580681,-0.7958438248854448,0.8957336164894618,-0.09018030653163325,0.6931641932721732,1.0050725325870482,0.07921267592703671,0.6739197697430253,1.0489058423479516,0.0,0.0,0.0,0.0
0.012588629628893544,-0.04400623983080661,0.7358499290486258,-0.0034861216137764663,-0.521363800981626,0.006706612550109243,0.8533010344129368,0.09622883997748777,-0.7620746240649467,0.8189812974781655,-0.07380713482452651,-0.7994082904159356,0.9027821874775444,-0.0819101443528332,0.6923401384582284,1.0064031545333463,0.0703004010095172,0.6732659206072035,1.0509187090044236,0.0,0.0,0.0,0.0
0.012924189460630372,-0.04467099052013663,0.7353788495820264,-0.0035764406080099316,-0.5215715963849783,0.007096952921862772,0.8531705059226014,0.09696661451879283,-0.7629466460048492,0.8192950899679937,-0.07317751833845225,-0.8022910477966193,0.9076991739902488,-0.07363977538364987,0.6900984308953595,1.008250392808693,0.06147808077465513,0.6735609825971914,1.048829704395183,0.0,0.0,0.0,0.0
0.013026449130066089,-0.04532430989437396,0.7348520798935485,-0.003658097958818847,-0.5216958972062105,0.007494357172561145,0.8530907593967366,0.09761491041667086,-0.7632862200375503,0.8178238706822492,-0.07259024747626976,-0.8046684241231996,0.910886080329932,-0.06536056760341405,0.6865825142492905,1.0107471013570049,0.05273545149965528,0.6741746018879874,1.0441425844343961,0.0,0.0,0.0,0.0
0.012932996065940915,-0.04598033173321731,0.7342641639345182,-0.0037166209556672484,-0.5217551462093759,0.007909446394153852,0.8530505229999232,0.09817375094244939,-0.7631372951119954,0.8147514555126001,-0.0720528195653042,-0.8066781945131101,0.9126811678744888,-0.057062183877126825,0.6819503990711642,1.0138672443085779,0.0440624652798939,0.6748221962069929,1.0377786799348396,0.0,0.0,0.0,0.0
0.012670106803365784,-0.04665042943261387,0.7336121431789824,-0.003739507131484547,-0.5217593959454214,0.008351331436166792,0.8530436120693512,0.09864084654922248,-0.7625310017958724,0.8101990225999791,-0.07157353423435489,-0.8084308264435204,0.9133361949914891,-0.04873366357503062,0.6763087512042516,1.0175684262892128,0.03544926040343297,0.675448698101178,1.0301520961532942,0.0,0.0,0.0,0.0
0.012259678288432059,-0.047342943824931406,0.7328939843877049,-0.003718098184468659,-0.5217206590540325,0.008827903901647016,0.8530625989778358,0.09901100136517872,-0.7614716768885297,0.8042448169316387,-0.07116109619682438,-0.8099864667118626,0.9130270563799117,-0.04036559458420058,0.6697574455358746,1.021818653754565,0.02688620353246251,0.6761928953271105,1.0213391679889325,0.0,0.0,0.0,0.0
0.011795211382972959,-0.04801986963062892,0.7321140075972927,-0.0037155903473979905,-0.5216619567104659,0.009328029482042973,0.8530931866890982,0.09928246831037012,-0.7605159280405096,0.7980083421718368,-0.07084588645467686,-0.8114577158890834,0.9122469196564068,-0.03195989732654134,0.6626554989176527,1.0266191561389073,0.018363419897040517,0.6776691152923299,1.0112390165929963,0.0,0.0,0.0,0.0
0.011353408984678563,-0.048642042700241535,0.7312832727538319,-0.0037930791352743646,-0.5216298258677319,0.009838150501159718,0.8531067624339815,0.09944698371148218,-0.7599829832822727,0.7923127813329901,-0.07064847413892346,-0.8127276429834333,0.9111975872028341,-0.023520225827989554,0.6554011066740728,1.0319886421520739,0.00987105464637341,0.6807059415904811,0.9993252232150164,0.0,0.0,0.0,0.0
0.011003864817313087,-0.049144325418633616,0.7304462102705661,-0.004047502527843828,-0.5217065983853187,0.010331769239356886,0.8530528104806241,0.09948151252670155,-0.7599771012984498,0.7878570429096096,-0.07058311468442151,-0.8132286975782559,0.909619426677119,-0.015050019795181654,0.6486055865836747,1.0378188263815713,0.0014004068747944416,0.6863528191859671,0.9845524497478955,0.0,0.0,0.0,0.0
0.010810966508348115,-0.04945785938614247,0.7298059984464844,-0.004576543431580594,-0.5220807192288572,0.010775480264773563,0.8528157285631882,0.09933926757139906,-0.7594402319382154,0.7844191180262275,-0.0706128992739843,-0.8112621056932666,0.906397132683019,-0.006550707450865124,0.6438861887315019,1.04283241169196,-0.007052754736823581,0.6961165847057058,0.9653547418882917,0.0,0.0,0.0,0.0
0.01082723585682375,-0.049484443005486184,0.7297908283901084,-0.004600826976327353,-0.5221046451817593,0.010803306404383341,0.85280059828866,0.09934414317825782,-0.7594208036555693,0.7843777354981931,-0.07060417893635601,-0.8112259859573081,0.9064659927762699,-0.006052293232237929,0.6438084716503992,1.0428227641681782,-0.007581406873891014,0.6961125313581489,0.9653471770819794,0.0,0.0,0.0,0.0
0.01082723585682375,-0.049484443005486184,0.7297908283901084,-0.004600826976327353,-0.5221046451817593,0.010803306404383341,0.85280059828866,0.09934414317825782,-0.7594208036555693,0.7843777354981931,-0.07060417893635601,-0.8112259859573081,0.9064659927762699,-0.006052293232237929,0.6438084716503992,1.0428227641681782,-0.007581406873891014,0.6961125313581489,0.9653471770819794,0.0,0.0,0.0,0.0
0.010660654927574627,-0.0500355432930631,0.730219325570554,-0.005178767951308999,-0.5224825726796075,0.00966941010644297,0.8525794063410156,0.09338214654521612,-0.7773957390561405,0.8165553140888059,-0.0655730479670866,-0.8094123037460014,0.9048630411588624,-0.005923345359951172,0.647926640459158,1.0390590858186821,-0.007598366975676304,0.6967960066201327,0.9633361199449926,0.0,0.0,0.0,0.0
0.010183832775751555,-0.05116081558705904,0.7304186090802316,-0.004888289837978611,-0.5226632797532538,0.008781383844333307,0.8524799633526939,0.08738725708323009,-0.789156796995086,0.8338214041506992,-0.06040628456429166,-0.8104558494882487,0.9052357359405143,-0.005727243524909529,0.6497830202113699,1.0354315595528831,-0.007530641537062219,0.6944548077982821,0.9656170564363307,0.0,0.0,0.0,0.0
0.009459119893027817,-0.052501092233518606,0.7303953753089751,-0.004223642473878552,-0.5227967013514225,0.008040153332113394,0.8524090132294005,0.08148629420781704,-0.7979490889591909,0.8436026519696878,-0.05536219568880593,-0.8121008145213517,0.9050368376329424,-0.005473833062042838,0.6497843110311816,1.0331948950462841,-0.00739217128695612,0.6900631582201933,0.9709909799788659,0.0,0.0,0.0,0.0
0.008563420314215366,-0.05382767956644006,0.730328155504971,-0.0035166604448416882,-0.5229007189530547,0.007361679079986432,0.8523545488227404,0.0756931051655402,-0.8049550447476007,0.8492693194960103,-0.050542848442161795,-0.8130263737937808,0.9032147930496849,-0.00518485517182368,0.6489188871407341,1.031436592266391,-0.007191750113245082,0.6849883700922006,0.9768405541130672,0.0,0.0,0.0,0.0
0.007625366150656923,-0.05504130258213406,0.7303498944026942,-0.0029157281541775685,-0.522977549222834,0.006703845892991589,0.8523151060426255,0.07000427713740603,-0.810647467284542,0.852555907589858,-0.04598784954601948,-0.8130143090502282,0.9002183172481941,-0.0048712004102425144,0.6481556149490727,1.0291623882698673,-0.006940446252846715,0.6803506412780733,0.9814190140736492,0.0,0.0,0.0,0.0
0.006709468826864054,-0.05613979702766338,0.730442802312818,-0.0024297017992737937,-0.5230320199576818,0.006060043498440839,0.852288025564686,0.06441001791112445,-0.8153957715749484,0.8544158155822704,-0.0416906563301791,-0.8124260268588097,0.8966812634853685,-0.004535308753313337,0.6476266089454761,1.0264844920029417,-0.006648373954749891,0.6762545864087925,0.9848434803691142,0.0,0.0,0.0,0.0
0.005849314791651443,-0.05714159974239419,0.7305742601330014,-0.002036076443497857,-0.5230711550395541,0.005432400672449254,0.8522692709356808,0.05889980027447035,-0.819409893303883,0.8554554127151861,-0.037631306041514254,-0.81159318913385,0.8930727609640959,-0.004178502252185553,0.6473140686019999,1.0236207512096553,-0.006322989519802587,0.6726339586686119,0.9874741797349988,0.0,0.0,0.0,0.0
0.005058205668362173,-0.05806587187966021,0.7307202625593302,-0.0017108109479632059,-0.5230995876664041,0.004823680820862759,0.8522561977553914,0.053463534461517,-0.8227123586631621,0.8560890762512304,-0.033786191348418704,-0.8107329399346744,0.8896678234737567,-0.0038024215274572795,0.6471705065300537,1.020728050930916,-0.00596974889540433,0.6693992271958213,0.9896048406025859,0.0,0.0,0.0,0.0
0.004335621972230973,-0.0589289691659626,0.7308665358021137,-0.001433932072836881,-0.5231193850602888,0.004235639854665051,0.8522476824069265,0.048091813348581626,-0.825133091484173,0.8566505665452455,-0.030131053363093813,-0.8099609416498723,0.8865855728349229,-0.0034090040258888043,0.6471433497737794,1.0178944288442167,-0.005592835839553057,0.6664630872170005,0.9914349169222234,0.0,0.0,0.0,0.0
0.0036727876262911156,-0.05974512418452984,0.7310064718262731,-0.0011885675431376357,-0.5231319031846842,0.0036692759970234296,0.852243002664864,0.042776030465413895,-0.8263700895384554,0.8574536500467316,-0.02664194873678357,-0.8093175483768575,0.88383888609141,-0.003000297123711093,0.6471888138644518,1.0151516334035502,-0.005195637831324602,0.6637513348780112,0.9930900988708683,0.0,0.0,0.0,0.0
0.0030589105429031363,-0.060526690828866477,0.7311392774148916,-0.000960538286948305,-0.5231406558281272,0.003124974468215389,0.8522400871353619,0.037508441615575316,-0.8261897786699378,0.8587404219503667,-0.0232960406532214,-0.8087897600589898,0.8813836900543313,-0.00257840306522691,0.6472902696818755,1.012489869405658,-0.0047811210218697015,0.6612200519035764,0.9946403344207998,0.0,0.0,0.0,0.0
0.002486865333893328,-0.06127977342448674,0.7312633849121407,-0.0007451049913327573,-0.5231436417128027,0.002600527393237141,0.8522402315141521,0.03228239597315696,-0.8249050436902132,0.8603712235842664,-0.020073936274547385,-0.8083891646084075,0.8792036397347127,-0.0021458360086697614,0.6474207104056836,1.0099116572156948,-0.004352255274062169,0.6588232692874672,0.996123986281772,0.0,0.0,0.0,0.0
0.0019522582734270945,-0.06201037899872908,0.7313802487096811,-0.0005373698895325831,-0.5231419815253503,0.0020939733531479656,0.852242802066951,0.027091893163127705,-0.822917220691971,0.8621742061011687,-0.016957222643499855,-0.8081117443236322,0.8772854544782848,-0.0017050297952454895,0.6475842407147685,1.0073952973532532,-0.0039118918292267,0.656546912169567,0.9975544409804941,0.0,0.0,0.0,0.0
0.0014526145899110537,-0.0627255054990859,0.7314929930279116,-0.0003306938865878919,-0.5231380125060824,0.0016040168315720627,0.8522464066470116,0.021931468444770987,-0.8205340704816007,0.8640404727369486,-0.013928147110215698,-0.8079541507182024,0.8756305594666445,-0.0012583266371050655,0.6478027937123594,1.0049003740489098,-0.0034627021144434784,0.6543937522953285,0.998933808638383,0.0,0.0,0.0,0.0
0.0009887080860265058,-0.06343227907989805,0.731605233287838,-0.00011800308879962714,-0.5231340430565119,0.0011296727822902126,0.852249659964745,0.016796066752085392,-0.8179300405471593,0.8659220028264129,-0.010970052510608924,-0.8079283882679138,0.8742725784829464,-0.0008080788559382188,0.6481105452066304,1.002377687524544,-0.003007255693909126,0.6523789027301663,1.0002570311121461,0.0,0.0,0.0,0.0
0.0005668050070492638,-0.0641349059195311,0.7317202548038159,0.00010371328166255171,-0.5231315961676487,0.0006690739102162579,0.8522516498515834,0.011681081516146677,-0.8151804001377696,0.8677891010301676,-0.008068780599545071,-0.8080682615687352,0.8732880515155224,-0.00035682884166180845,0.6485522894100781,0.9997839625790064,-0.00254825716626923,0.6505326308008104,1.001505234520068,0.0,0.0,0.0,0.0
0.00019958582519312938,-0.06482484274783251,0.731838847516162,0.00031884323883299925,-0.5231304109573819,0.00021554855359551793,0.8522525594032386,0.006583007362754233,-0.8123466692091006,0.8695592273066829,-0.005216969156039395,-0.8084061611105056,0.8727568046505333,9.234575609230018e-05,0.6491655182872286,0.9971337910391391,-0.00208917309992343,0.6488968934429,1.0026283911177314,0.0,0.0,0.0,0.0
-9.839747517149299e-05,-0.06544871369093819,0.731947516982185,0.00044630423575265987,-0.523130277947508,-0.0002545185231571814,0.8522525730834806,0.0015049027079211815,-0.809719412719863,0.8711371851608853,-0.0024306857717074177,-0.8088409383229742,0.8725320252867635,0.0005352393649514164,0.6498890451576887,0.9947295526066422,-0.0016360493590767996,0.6474832359637209,1.003549051743951,0.0,0.0,0.0,0.0
-0.0003190435710794071,-0.06580531356221382,0.7319521918922336,0.00021415580189706318,-0.5231414993578347,-0.0007950212438025614,0.8522454421867863,-0.003454519653096454,-0.8094494852926112,0.8746028267996017,0.00010923162187380028,-0.8088128220957004,0.8716000227504224,0.0009715151397312224,0.6501339146320521,0.9941458557264196,-0.0011962837539940703,0.646058403070162,1.004455745095771,0.0,0.0,0.0,0.0
-0.000316517502365897,-0.06580441268432802,0.7319510731573411,0.0002132050891745961,-0.5231398950628227,-0.0007945780169582909,0.85224642761529,-0.003767462136852834,-0.8094403765251366,0.8745940228839314,0.00010474199126696239,-0.808817910340839,0.8716077090512309,0.0009725970890290896,0.6501328798365668,0.9941491241056735,-0.0011929549429692573,0.6460606055388676,1.0044533930813204,0.0,0.0,0.0,0.0
-0.000316517502365897,-0.06580441268432802,0.7319510731573411,0.0002132050891745961,-0.5231398950628227,-0.0007945780169582909,0.85224642761529,-0.003767462136852834,-0.8094403765251366,0.8745940228839314,0.00010474199126696239,-0.808817910340839,0.8716077090512309,0.0009725970890290896,0.6501328798365668,0.9941491241056735,-0.0011929549429692573,0.6460606055388676,1.0044533930813204,0.0,0.0,0.0,0.0
-0.000316517502365897,-0.06580441268432802,0.7319510731573411,0.0002132050891745961,-0.5231398950628227,-0.0007945780169582909,0.85224642761529,-0.003767462136852834,-0.8094403765251366,0.8745940228839314,0.00010474199126696239,-0.808817910340839,0.8716077090512309,0.0009725970890290896,0.6501328798365668,0.9941491241056735,-0.0011929549429692573,0.6460606055388676,1.0044533930813204,0.0,0.0,0.0,0.0
-0.0002283993479941791,-0.06560285276550695,0.7318816744670719,0.00019927072749982615,-0.5231168496790923,-0.0004541321183755966,0.8522608260603195,-0.005203489658338048,-0.8112481029463867,0.8767970132030062,-0.001331324953037594,-0.8086527576834718,0.8716557548076046,0.0018484577280195712,0.6492272359784752,0.9950108462507887,-0.00031123779181087177,0.6466936119599674,1.0046106833507256,0.0,0.0,0.0,0.0
-0.00013510237673605978,-0.0653569750729579,0.7317767874377138,0.00011569246921537993,-0.5231084786941925,-0.00013627220569761982,0.8522660896477027,-0.006646128042935078,-0.8132812024567688,0.8792652604092144,-0.0027716522748740214,-0.8083504211084261,0.8714536601366685,0.002714292397312622,0.6481758204243817,0.9963851048757318,0.0005639988298227159,0.6472367082187767,1.0049547816072923,0.0,0.0,0.0,0.0
-4.083838161333955e-05,-0.06510908214693586,0.7316412096470158,3.0286888267062167e-05,-0.5230839349039753,0.0001822256146250508,0.8522811525089027,-0.008097219973976118,-0.8155146656621134,0.8818787607673494,-0.004217976601655049,-0.8082359071086963,0.8713852595850354,0.003580580032977692,0.6469341761101198,0.9980089010851623,0.001443767538031546,0.6475979692094059,1.0055354378125403,0.0,0.0,0.0,0.0
4.2039092300153206e-05,-0.06490218046128277,0.7314739567302642,1.1744634458533972e-05,-0.5230096141512467,0.000525202270795703,0.852326620216688,-0.00955895014285838,-0.8179145352465458,0.8844574317263503,-0.00567321524132752,-0.8086296915699505,0.8717816387679939,0.004457810838768082,0.6453978132935799,0.9996727009018604,0.0023417871782292904,0.6476264528168559,1.0064595565436634,0.0,0.0,0.0,0.0
0.00010063347036798318,-0.06485957879842438,0.7312609328748909,0.00025466436511272693,-0.522816989408842,0.0009565592866103285,0.8524443769102281,-0.011022689738728641,-0.820369087962476,0.8865718174650754,-0.007131438735756173,-0.8104430719278811,0.873678527228903,0.00536160165847714,0.6433563494530095,1.000926125942417,0.0032848165389643105,0.6469671643067465,1.008169833276851,0.0,0.0,0.0,0.0
0.00018457229800919282,-0.065340707919663,0.7309381605408639,0.0013176653323076952,-0.5224084492615915,0.0016449889147725422,0.8526927758047687,-0.012406458002347473,-0.8224530701663012,0.8872894290683789,-0.008518951169827102,-0.8162530261984028,0.8804030392358846,0.006284885775059279,0.6406402171281785,1.0008154265893794,0.004302308736042534,0.6449778777530992,1.0122753992746565,0.0,0.0,0.0,0.0
0.0009114894301915923,-0.06603074643658655,0.7311313399166952,0.0005750870322076765,-0.5228020394870238,0.00028981698004127923,0.8524538772210681,-0.00643262530357295,-0.8210270755165597,0.8897261827931271,-0.01813380142366938,-0.8112689030674997,0.871242715825739,0.0070971552904474135,0.6466408354319932,0.9980796038785297,0.005047204601652806,0.6471640559610031,1.0118669940930707,0.0,0.0,0.0,0.0
0.0016392192897463028,-0.06723347960700404,0.7311552537009994,0.0005644455028154522,-0.5229934500711363,-0.000880513828379197,0.8523360588871987,-0.00015080191023167117,-0.8191752210260523,0.8905308225570768,-0.02793757756847678,-0.8117263970519921,0.8675529453174843,0.007922268419979723,0.6517490791958389,0.9945854229322443,0.005863896920480645,0.6476667919516138,1.0143151472503975,0.0,0.0,0.0,0.0
0.0023919046369763925,-0.06861643364263895,0.7311144230234994,0.0008349582425384182,-0.5230532856380975,-0.0019609904949924747,0.852297317691545,0.006156057284036806,-0.8175944130344934,0.8912402094467219,-0.037744857258907735,-0.8131277201037669,0.8639620182655541,0.008761489926779515,0.656423789808657,0.9906737185943919,0.006721856297102585,0.6475214110499047,1.017654492860073,0.0,0.0,0.0,0.0
0.0031967827330594504,-0.07005772412154739,0.731020611115157,0.001195212606136303,-0.523055646204083,-0.0030149019840654554,0.8522923634568609,0.012483615408109862,-0.8164374314738879,0.8923893958391514,-0.047551460850114066,-0.8147406550006758,0.8603691760941964,0.009595444450407793,0.6609206194911319,0.9868150233933324,0.007592107211762771,0.6471311472652912,1.0214616298921626,0.0,0.0,0.0,0.0
0.004067342321697761,-0.07152030258486512,0.7308770528034095,0.0015803096770879912,-0.5230363632295283,-0.0040689847090391905,0.8522991896771879,0.018858378889939142,-0.8156997678651257,0.8941230568198673,-0.05736581587839476,-0.8164250543321427,0.8568471931299058,0.010411905971851822,0.6653764883026118,0.9831824834119112,0.008459249220693852,0.6466616384514885,1.0256234715679744,0.0,0.0,0.0,0.0
0.005012224377342877,-0.07299953561962999,0.7306898212051894,0.0019746912681635775,-0.5230102293614194,-0.005134920067274862,0.8523086490078658,0.025314419472956342,-0.8153326660343355,0.8964607328795755,-0.06719783447825516,-0.8181270202509064,0.8533735667634351,0.011202679038086555,0.6698959908626483,0.9797636832766159,0.009314548782336802,0.6462037584618622,1.0300760719868567,0.0,0.0,0.0,0.0
0.0060391640356121,-0.07450304599066589,0.7304657728233731,0.0023813285897168403,-0.52298335950617,-0.0062188204371958775,0.8523168784121067,0.0318888916050941,-0.8152764419847921,0.8993827743562475,-0.0770578931959172,-0.819739993200362,0.8499132104333974,0.011960807796450026,0.6745723726901656,0.9764738088204024,0.010152118402858496,0.645820419559135,1.0347729103722407,0.0,0.0,0.0,0.0
0.007155962155032552,-0.07604327423295139,0.7302115292938954,0.0028103407212478736,-0.5229587661417205,-0.007324759556375869,0.8523218751140915,0.03862059200950499,-0.8154656442060794,0.902852777517507,-0.08695676309195935,-0.8210333482548108,0.8464706866294827,0.012679363147346273,0.6794952507656322,0.9732024754352331,0.010967306547671455,0.645563889466584,1.0396778720423447,0.0,0.0,0.0,0.0
0.008370399165156002,-0.0776351570125421,0.729934512223421,0.003275405261225883,-0.522939160717859,-0.008455927654004977,0.8523217720999424,0.04554951865479525,-0.8158182397750785,0.906813149062985,-0.09690572561860572,-0.821616576185975,0.8431177817885289,0.013350900174338579,0.6847613689619512,0.9698182653482414,0.011756072515462651,0.6454893158072338,1.0447531696267283,0.0,0.0,0.0,0.0
0.009690422489263197,-0.07929621840491138,0.7296456539290294,0.0037937031592987676,-0.5229294019890207,-0.00961482656943348,0.8523133247003617,0.05271703422062118,-0.8162130563325652,0.9111690127190276,-0.10691677980713224,-0.8209708360629046,0.8399870313875378,0.01396700097223237,0.6904955089781577,0.9661474061699501,0.012514708401157619,0.6456744270025796,1.0499396281118987,0.0,0.0,0.0,0.0
0.011125688758475203,-0.08104966721692393,0.7293631185046826,0.004390379471407086,-0.5229387154335152,-0.010802232119941257,0.8522905233839392,0.060166648777465234,-0.8164589881483434,0.9157668011049797,-0.11700274695323559,-0.8186260058532897,0.8371495833800664,0.01451765431185892,0.6968827787837092,0.9619285505467174,0.013239980945627127,0.646245870140858,1.0551358806321705,0.0,0.0,0.0,0.0
0.01268798911430796,-0.08293443175287676,0.7291108345691707,0.0051145543486885246,-0.5229708044637883,-0.012012141372472265,0.8522506013327067,0.06794524788579194,-0.8163131106054407,0.9203909494392861,-0.12717811345401905,-0.814603113994893,0.8341058250203902,0.01499171110105037,0.7041454337334364,0.9567626524040633,0.013932271824863379,0.6473438267046221,1.0602229947432553,0.0,0.0,0.0,0.0
0.014385687523281912,-0.08500017388572471,0.7289244461008536,0.006031191522773765,-0.5230335879165415,-0.013234703844500095,0.8521879682641109,0.07610023791910905,-0.815395299239542,0.9246736451915619,-0.13745852639849968,-0.8089495629621674,0.8301548397217001,0.015375119627759538,0.7125799846553839,0.9500967980918968,0.014594427840054842,0.6491614099544181,1.0650179678206773,0.0,0.0,0.0,0.0
0.01621549796338869,-0.08730216956928932,0.7288474722482164,0.007213180724189092,-0.5231400060286303,-0.014458605611194478,0.8520935704721546,0.08467454465420843,-0.8131765001724557,0.9280462940853941,-0.14786091715023633,-0.8015589960110695,0.8243764622646604,0.01565000232922481,0.7225154356707248,0.9412816387815661,0.015231940926555715,0.6519065148449628,1.0692998568481251,0.0,0.0,0.0,0.0
0.01815220124583098,-0.08987830296634107,0.7289102702893706,0.008706010023864041,-0.5233196730612657,-0.015681571784624693,0.8519476588869048,0.09369628375691469,-0.8090332784494835,0.9297510093589128,-0.1584032446987084,-0.7921427623774956,0.8155343599009018,0.01579280222484376,0.7341955638120318,0.9298865435654158,0.015848298655201428,0.6557154501969893,1.072953607809772,0.0,0.0,0.0,0.0
0.020121285071999784,-0.09266673611457527,0.7290280222076764,0.01040638519742793,-0.5236574663865372,-0.01694397578153838,0.851696816202497,0.10314829638650333,-0.802606968694575,0.929047275708426,-0.16910069337123235,-0.7801876905083993,0.8019336233156822,0.015775005516223507,0.7472120199239835,0.9171231838804017,0.016424534611310486,0.6602485238663325,1.0767109921899878,0.0,0.0,0.0,0.0
0.021967154334630784,-0.09532777825802952,0.728758677157067,0.011818088149087146,-0.524344331493001,-0.01838455089238081,0.8512258003092621,0.11288407096056997,-0.7950104103651433,0.9261855605265709,-0.1799463639655325,-0.7644527669573357,0.7805239642234925,0.015583965998360238,0.7590742542869199,0.909171558458105,0.01687554023553612,0.6637346597285787,1.0838728696221933,0.0,0.0,0.0,0.0
0.02353955124837647,-0.09749219224149447,0.7279517328271313,0.012424704680384712,-0.5253587038972185,-0.020103924173054902,0.8505525799066651,0.12262640708719255,-0.7880080765904803,0.9226404972117329,-0.19087406892930955,-0.7403896781101447,0.7433347590020468,0.015286046380181186,0.7679993015859282,0.9093344015185119,0.017145049056817727,0.6651686980333296,1.0948196530945338,0.0,0.0,0.0,0.0
0.024541624218667662,-0.09869338769874869,0.7270475205489635,0.01156513067942801,-0.5264787831778496,-0.022177619725723647,0.8498202702920422,0.13181452088324289,-0.7826597745268993,0.9197122045203633,-0.20165862497796677,-0.7022598172826895,0.6789257009426317,0.015089648455623866,0.7740342289005927,0.9153209034626143,0.017249440591829826,0.6650800744581313,1.1046066042680514,0.0,0.0,0.0,0.0
0.02462494015873496,-0.09882050828933953,0.726988786922365,0.011609025386369808,-0.5264271851337002,-0.022262439917398957,0.8498494178680783,0.13235589599201036,-0.7826961557317998,0.9197654848322467,-0.20237629571755544,-0.7021582106153555,0.6789232064108038,0.015031601763559912,0.7743034095111809,0.9150106642965175,0.017305039178755897,0.6649042367059946,1.1050146531230538,0.0,0.0,0.0,0.0
0.02462494015873496,-0.09882050828933953,0.726988786922365,0.011609025386369808,-0.5264271851337002,-0.022262439917398957,0.8498494178680783,0.13235589599201036,-0.7826961557317998,0.9197654848322467,-0.20237629571755544,-0.7021582106153555,0.6789232064108038,0.015031601763559912,0.7743034095111809,0.9150106642965175,0.017305039178755897,0.6649042367059946,1.1050146531230538,0.0,0.0,0.0,0.0
0.02439027935708467,-0.09920836860318878,0.7284919832706299,0.010629126445951927,-0.5244131331652597,-0.02167586017503346,0.8511216390860145,0.1327499758293121,-0.7899563299225618,0.9272698869145681,-0.202818148364757,-0.7065790932649821,0.6864764653079155,0.0006079373429133898,0.7466392450461193,0.9528101818690945,0.03194373689212379,0.6686942843471881,1.0913296190968786,0.0,0.0,0.0,0.0
0.024247439819898155,-0.09990268570593312,0.7303921993122989,0.009987727845150531,-0.5228619567926559,-0.021012081283627217,0.8520998250625195,0.133225179750751,-0.7924153617345242,0.930574443458673,-0.20279246185791727,-0.709288619551258,0.694196433710063,-0.013807860760779474,0.727877040136206,0.977704108340162,0.04627070004291589,0.6757167401884943,1.0752891834131297,0.0,0.0,0.0,0.0
0.02413176222272089,-0.1007927714430366,0.7322161826633272,0.009591422975789656,-0.5217001259211883,-0.020320309344683114,0.8528329662057231,0.13383631851783867,-0.7920672455738385,0.9307762225192137,-0.20240715316056856,-0.7112286616414887,0.701560798224264,-0.028218468042186126,0.7160950044661798,0.9946235438077305,0.06030599713071855,0.6835450913388585,1.0606128023996553,0.0,0.0,0.0,0.0
0.023937831881637762,-0.10176403891867886,0.7338453190187569,0.009293394020796462,-0.5208036151911786,-0.019643541753002754,0.8533998819420888,0.13456336715151715,-0.7900128086325782,0.9284753165993694,-0.20172588088541013,-0.7122026969529746,0.7072809437772073,-0.04263668493242441,0.7086905268291384,1.0067422191125917,0.07411287812024961,0.6909461623225716,1.0480988639902378,0.0,0.0,0.0,0.0
0.02360724328928524,-0.10276822277757972,0.7352919235311258,0.009021548303385493,-0.5200703857375824,-0.018996147654644958,0.8538644810034288,0.13539079126053372,-0.786761608447408,0.9239974349288178,-0.20078703831179032,-0.7121677953232103,0.7109232249763476,-0.05707566054046764,0.703677640091492,1.015850134927084,0.08774554642760844,0.6974753392391585,1.03753313131619,0.0,0.0,0.0,0.0
0.023111281556417423,-0.10380324794663912,0.7366120259069248,0.00876140827246242,-0.5194196119706844,-0.018372905068930627,0.8542768525394066,0.13631322663219184,-0.7824929083023535,0.917459761811096,-0.19961477794901133,-0.7112552605065843,0.7125946479644487,-0.0715487168314266,0.699780456695472,1.0229442631832386,0.10124944878382028,0.7030487158758446,1.028380039741265,0.0,0.0,0.0,0.0
0.022418177856483264,-0.10488103895824516,0.7378706474848156,0.008511822758650851,-0.5187804538934959,-0.01776056965673271,0.854680613853416,0.1373231493796192,-0.7772263849219482,0.9087861526107077,-0.19822367876682526,-0.7095363826758423,0.712363298888991,-0.08606923343269472,0.6962718184239302,1.0284256924635922,0.11466744913578407,0.7076554746974869,1.0200327889734175,0.0,0.0,0.0,0.0
0.02148422316518344,-0.10602241715638154,0.7391328087039696,0.008277064030195453,-0.5180808425139171,-0.017139201990152765,0.8551198621165635,0.13841083854945072,-0.7708964116409114,0.897728104506902,-0.19662326433992175,-0.7070367963256491,0.7101999945360113,-0.100650650410055,0.6928270786189208,1.0322308223300214,0.12804324230305322,0.711254276762808,1.0118807502997,0.0,0.0,0.0,0.0
0.020248392578674786,-0.10725754589859703,0.740465179408273,0.00806438090223354,-0.5172360992038815,-0.016480671678382783,0.8556460546873605,0.13956481618866345,-0.7633855197252428,0.8838656203618981,-0.19482144584084612,-0.7037640678524025,0.7059837463153613,-0.11530652232779838,0.6894214839074272,1.0338502030011563,0.14142466202948467,0.7137325092421202,1.0032807727422457,0.0,0.0,0.0,0.0
0.018631089102328788,-0.10862876346412433,0.7419420480248088,0.007882937389652254,-0.5161374498937866,-0.01574571243133591,0.8563247425219473,0.14077322170214326,-0.7545519817408012,0.8666193879707537,-0.19282856637267798,-0.6997510426205256,0.6995555773246619,-0.13005059326610596,0.6862928718108198,1.0322451958372791,0.15486643179533333,0.7149060452979243,0.9934725238776656,0.0,0.0,0.0,0.0
0.016540784082148673,-0.11019299294760208,0.7436559832056986,0.007740639600690512,-0.514642866264762,-0.014881073161786924,0.8572405475494705,0.1420259498866153,-0.7442659027586669,0.8453124464942414,-0.19066247921109306,-0.6951064578163657,0.6908242883075961,-0.14489684378241974,0.6839242135803014,1.0258052366751198,0.16843105369226988,0.7145865221421872,0.9814174009507708,0.0,0.0,0.0,0.0
0.013876898530573202,-0.11201200199247185,0.7457250081480711,0.007622343286239629,-0.5125735566111943,-0.01382064681595947,0.8584982461644088,0.14331007976777402,-0.7324670165996704,0.819251613893379,-0.18835336246419845,-0.6899371057851909,0.6796724692969501,-0.15985744853425335,0.6812747834698779,1.015744961674759,0.18218690569145443,0.7126663204057216,0.9656106808918312,0.0,0.0,0.0,0.0
0.010536718508988931,-0.11414778361847723,0.7482541416685946,0.007479531091765193,-0.509707848056926,-0.012485682606785096,0.8602244323277893,0.14462012128267349,-0.7193701970771819,0.7878962131742722,-0.185956913187375,-0.6845055006071599,0.6660724998651486,-0.17494519625956495,0.6769721461123087,1.0026252317400624,0.19620626593355975,0.7090292713526603,0.944268185819739,0.0,0.0,0.0,0.0
0.006425659223157907,-0.116639255625598,0.7512295746583577,0.007209070064079546,-0.5058053590871614,-0.010797505957483406,0.8625499300867266,0.14597124620734592,-0.7058085936124809,0.7511509524611318,-0.18357045177697529,-0.6793859698129706,0.6500680224908303,-0.19017370670305916,0.6689633559731342,0.986286121712523,0.21054857228354737,0.7032580531730095,0.9161359102782254,0.0,0.0,0.0,0.0
0.0014788243957552958,-0.1195295333292476,0.7541000165489159,0.006770399838048721,-0.5006932921903654,-0.008694860821843335,0.8655546130874096,0.14748547823023486,-0.6939223819065394,0.7095759479422667,-0.18136834655321415,-0.6769440026993062,0.6329546553205527,-0.2055703756854329,0.6551298941334568,0.9652074210282078,0.22521336061890973,0.6927849411510756,0.8849070451297137,0.0,0.0,0.0,0.0
-0.0038388531461513303,-0.1226153813061724,0.7562643371064123,0.005895685031217864,-0.4943792208245855,-0.006275661395543435,0.8692036832578063,0.14939017356299394,-0.6890037206529975,0.6705870434810165,-0.17968396449690893,-0.6809006582903635,0.6197894511205043,-0.22114981184397778,0.6359571641744017,0.9391126838022632,0.24003718457367038,0.6767338143008528,0.854335787976003,0.0,0.0,0.0,0.0
-0.009095078255426041,-0.12563341597352468,0.7572304601281005,0.00428683354646877,-0.486851512518143,-0.0036785781262302073,0.8734664824021071,0.1518937648623212,-0.6970864971025099,0.643365851457077,-0.17885647187692533,-0.6946009921008678,0.6153400210057012,-0.23690991910739706,0.6124750153690232,0.9070537003014754,0.25481537951159144,0.6540969531259789,0.8279241374148063,0.0,0.0,0.0,0.0
-0.014038053131002457,-0.1283192289261855,0.7568309743175333,0.0016164736978973651,-0.47801118738317205,-0.0010455197842898117,0.8783516372374418,0.15515170627257557,-0.7232913178013481,0.636045156470787,-0.179160221221166,-0.7194570398822684,0.6216726540409943,-0.25284056369127406,0.5870697293042468,0.866591239998524,0.2693164031424303,0.6245758957632633,0.8063016473635306,0.0,0.0,0.0,0.0
-0.017790898613282334,-0.1301782241419064,0.7553600142882936,-0.002187044992993709,-0.46910215060078725,0.0011507700782908126,0.8831404559095579,0.1590588217411032,-0.7656661178724298,0.653280269015678,-0.18039965361150737,-0.7506316370550895,0.6371865408456804,-0.2687057914585732,0.5635667968363814,0.827757013394958,0.28279003114638984,0.5947349872128717,0.7890068145636255,0.0,0.0,0.0,0.0
-0.01776430608677592,-0.13029098213867288,0.7549536419519878,-0.0024861495293276355,-0.4691057195645653,0.0012638835167559585,0.8831376141523954,0.1592819975009928,-0.7664526098634743,0.6524540497830116,-0.1805621795087878,-0.7510749458800748,0.6370242300411078,-0.2697963502468073,0.5636354332760594,0.8278059611345588,0.2834511306333274,0.5950107694892358,0.7887133129233783,0.0,0.0,0.0,0.0
-0.01776430608677592,-0.13029098213867288,0.7549536419519878,-0.0024861495293276355,-0.4691057195645653,0.0012638835167559585,0.8831376141523954,0.1592819975009928,-0.7664526098634743,0.6524540497830116,-0.1805621795087878,-0.7510749458800748,0.6370242300411078,-0.2697963502468073,0.5636354332760594,0.8278059611345588,0.2834511306333274,0.5950107694892358,0.7887133129233783,0.0,0.0,0.0,0.0
-0.018163329622841253,-0.13055855771757127,0.7567861731133197,-0.0024108882596285833,-0.4720842518122469,0.0007990722051862261,0.881549776412133,0.15952726972763998,-0.7360973529145032,0.6197123328205513,-0.17684346054869635,-0.7258878546441034,0.6104462435439915,-0.27414123338884816,0.57971868458234,0.8181768273813546,0.28523653521359665,0.6113380172927156,0.7767655926822716,0.0,0.0,0.0,0.0
-0.018653961463492946,-0.13091351615332522,0.758473951429469,-0.0022216488612511603,-0.47390847589231644,0.0003662050058109038,0.8805712274697901,0.16025019395175338,-0.7113373815229331,0.5909803540066587,-0.17365903641426977,-0.707565190223509,0.5901201858778392,-0.27670124095866916,0.5928996766608827,0.8050426119705955,0.28548578157942295,0.6240196171441752,0.7630032254639152,0.0,0.0,0.0,0.0
-0.018912269842049998,-0.13153725937165206,0.7597699735821901,-0.00167203212866613,-0.47457931558177685,3.629518827455964e-05,0.8802111543335226,0.16161160871771496,-0.6948128860952077,0.5708649179744154,-0.17109428390210282,-0.7012333081329075,0.5844565615757584,-0.27770191695738466,0.6025475931445929,0.7908419334030308,0.28439678974586496,0.6322973519976084,0.7505484647811776,0.0,0.0,0.0,0.0
-0.018979291896332972,-0.13239549885298244,0.7598313413505546,-0.0008072416663127855,-0.4739547139771279,-0.00019795545917012232,0.880548827875767,0.16378923260317652,-0.6912127050571641,0.5639197575395357,-0.1693647631416491,-0.7109327587674021,0.596909785496211,-0.27734840183244436,0.6029781662439182,0.785110252474239,0.2821362968991881,0.6304204826454345,0.7490011155013531,0.0,0.0,0.0,0.0
-0.018596736092742604,-0.13363494724821295,0.7586746670443434,0.0005982278985281587,-0.47183629223874585,-0.0002570490069651649,0.8816859357932292,0.16693905417449106,-0.7031973422210201,0.574770631488657,-0.16862839273593738,-0.7403334030533323,0.6332282377865575,-0.27556110525271377,0.5945939377144542,0.7867325853284529,0.27862166408048583,0.6186128716346074,0.7579749918895242,0.0,0.0,0.0,0.0
-0.017342512648220114,-0.1354085230661825,0.756339829021309,0.0028025407655529913,-0.4679625446660337,-1.5538480192205585e-05,0.8837438556015558,0.17124038573535494,-0.7337562498258267,0.60847731041862,-0.16925956964807282,-0.7924516202622834,0.6977211564337935,-0.2723362448907615,0.5785447023939615,0.7935072458606209,0.27400072186224533,0.597946192754464,0.7759805672801681,0.0,0.0,0.0,0.0
-0.011985944850817366,-0.13752898955168383,0.75676538605247,-0.0018321931075995271,-0.4806264380500534,0.002429586521932498,0.876920160120103,0.17001178894958144,-0.6929744145340362,0.5888168753646361,-0.1637986674746628,-0.7382586766559784,0.6754030985344892,-0.261000309691138,0.6109039993743328,0.8391223788977645,0.2581333757563745,0.6278951901655233,0.8395530420679704,0.0,0.0,0.0,0.0
-0.0058976398536732585,-0.14005637020626663,0.7559380687836362,-0.004974599353840618,-0.49108979001605846,0.004935062041191106,0.8710807750524069,0.17044984242139302,-0.6698256201041969,0.5888559042388,-0.16005281169005794,-0.7094935684222204,0.6818333112914737,-0.24907185468342674,0.6424931958662514,0.8754483832006649,0.2421114046983484,0.6524608498230543,0.8965183077450891,0.0,0.0,0.0,0.0
0.00038321079444090644,-0.1427296943703536,0.7539282980623881,-0.006840547486043555,-0.49907886745393437,0.007230643895925008,0.8664993991687702,0.1721933377307946,-0.664546035127727,0.6076561113493998,-0.15764118470638316,-0.7047889373451415,0.7136317524993723,-0.2369198955711091,0.6680129516648123,0.907231124389452,0.22632057410294984,0.6706950990570721,0.9386618820247585,0.0,0.0,0.0,0.0
0.0063900536119500286,-0.14541135279718756,0.7510583075111705,-0.007749811897547269,-0.5050032088885039,0.009249532769423502,0.8630331080389755,0.17474076468716146,-0.6707839540370706,0.6359861460716615,-0.15608356836189502,-0.7156934959247464,0.7586562178304801,-0.22456524707027417,0.6862965772374714,0.9368430538424964,0.21077879736317467,0.6846375661103163,0.968796383123819,0.0,0.0,0.0,0.0
0.011482954644099621,-0.14785195348029015,0.7481935383038086,-0.008126352924108744,-0.5093562548402347,0.010906033473661458,0.8604482706573092,0.177464017282064,-0.679278554517465,0.6615848111601708,-0.15482780298973364,-0.7302948988621885,0.8008357573453393,-0.21195896984192436,0.6994994528429896,0.9605397903707965,0.19544471428187932,0.6927367807475566,0.9912072705368704,0.0,0.0,0.0,0.0
0.015617932490243177,-0.15000074940335903,0.7457704897473152,-0.008203816095870417,-0.5124888665293156,0.012236610026048658,0.858567483928918,0.18011303779977547,-0.6871798564524948,0.6822498510814912,-0.15367356908002164,-0.7447557178858142,0.8369470909603804,-0.19911797206746926,0.7091363349211831,0.9774059500854938,0.18029869241172747,0.6970254176854311,1.0084007597290494,0.0,0.0,0.0,0.0
0.018877611082336827,-0.15185521438892827,0.7438110241936903,-0.008180317738288739,-0.5147265624396801,0.013306933727441555,0.8572120938458021,0.182572490437687,-0.693855748208431,0.6981498315081626,-0.15255567222804417,-0.7576253649227221,0.866495740078165,-0.18608905867910405,0.7156030061310023,0.9893276906795714,0.16532781199802427,0.699416972814068,1.0218883612508562,0.0,0.0,0.0,0.0
0.02138616505287789,-0.15345607011214793,0.7422371378412571,-0.008156380875828942,-0.5163259858783863,0.014187581524586115,0.8562357515825907,0.18479408710959816,-0.6991852056444128,0.7098161377703865,-0.1514561063762352,-0.7685166993800322,0.8900842844048353,-0.17291301878690607,0.7193254334282614,0.9979650627967763,0.15051931054960632,0.7010411466329196,1.0324231437888174,0.0,0.0,0.0,0.0
0.023265946902089236,-0.1548577557848357,0.7409458335308525,-0.008168330639990881,-0.5174743703995732,0.014940136238536746,0.8555292786826731,0.1867640526698492,-0.7032220491858752,0.7177680674443572,-0.1503785322415186,-0.7775091558791717,0.9086008790927596,-0.15961875259172736,0.7206859675535656,1.004580548751416,0.1358609751168014,0.7024367325528338,1.0400810731147276,0.0,0.0,0.0,0.0
0.024619576012363326,-0.1561115877538543,0.7398325292053461,-0.008221040260754577,-0.5183021035304146,0.015613317556333137,0.8550155368692802,0.18848478747811132,-0.7060994704192005,0.7224395069552024,-0.1493371571446636,-0.7848673942059728,0.9228920360152258,-0.14622370598840737,0.7199380822157009,1.010169609377888,0.12134112117185603,0.7039460430112154,1.0442659629523006,0.0,0.0,0.0,0.0
0.025531226425390855,-0.15725993958764678,0.7388102523735195,-0.008306446625464566,-0.5188971931797074,0.016244213669025807,0.8546419316748709,0.1899647808625527,-0.7079786528020418,0.7242070987745787,-0.14835088152998518,-0.7909006023965167,0.9336934577254716,-0.1327359112366205,0.7172622129248075,1.0154513174817454,0.1069484433906687,0.7061004005553978,1.0437278668827155,0.0,0.0,0.0,0.0
0.026067567876612723,-0.1583444824074411,0.7378257442562148,-0.008398999481317157,-0.5193226000242956,0.016864157985961133,0.8543705835801831,0.19121051529830996,-0.7088825760160451,0.723240285772293,-0.14743245695525622,-0.7958723162856415,0.9416222442472328,-0.11915363397351464,0.7128649512587656,1.0207851665500134,0.09266957350478305,0.7082180915615863,1.039969675837767,0.0,0.0,0.0,0.0
0.026280407128282546,-0.1593997464344275,0.7368407485393254,-0.008472367911394243,-0.5196207140847467,0.017498506358324867,0.8541758219191523,0.19222637498341985,-0.7088179389652234,0.7196428191836732,-0.14659526598782277,-0.8000141261282451,0.9471788378828434,-0.10547005286275887,0.706902474014288,1.0263891669678904,0.07849133279115195,0.7100193064224438,1.0338713754687632,0.0,0.0,0.0,0.0
0.026207150954372354,-0.16045401457212008,0.7358148495719284,-0.00850407980611769,-0.5198250629039375,0.018168417576164518,0.854037173199356,0.19301334351584207,-0.7077767626806687,0.713429387278071,-0.14585314125659748,-0.8035183696143932,0.9507278033458354,-0.09167705765846353,0.6994393922702005,1.0325194239770972,0.06440074349014953,0.7115590846363958,1.0257357925871913,0.0,0.0,0.0,0.0
0.0258855372675138,-0.16152467435914103,0.7346965281037281,-0.008487353598560588,-0.5199815910604422,0.01889019631574904,0.8539263845732233,0.193568239371458,-0.705764149981476,0.7046292511460407,-0.1452204940737883,-0.8064865625847243,0.9524994643850424,-0.07777249903706734,0.6905211267795311,1.0395786954654471,0.05038499859435006,0.7133109698875292,1.0153990334397123,0.0,0.0,0.0,0.0
0.02538063743126925,-0.16259937119763324,0.7334198660863226,-0.008462070020101627,-0.5201859474206909,0.019667985220110252,0.8537846003731823,0.19388057577367523,-0.7028706796582557,0.6935525960097434,-0.14471183652570002,-0.8087608010183985,0.9525139293155802,-0.06377164691282328,0.6803528357687315,1.0482238809072124,0.03643145541501637,0.7164430036324939,1.0023241388245543,0.0,0.0,0.0,0.0
0.024894029251162384,-0.16355054506372999,0.7319278344629551,-0.008641915803840768,-0.5206431397459497,0.020460667713310243,0.8534854418227907,0.19394094366345999,-0.7000742960233324,0.68252130750798,-0.14437440813481137,-0.8095976258330588,0.9506450339263269,-0.04972565151733603,0.6699007210312206,1.0593615752228225,0.0225271373285595,0.7234400279635987,0.985663305744789,0.0,0.0,0.0,0.0
0.024543497462155863,-0.16428172067122737,0.7302580821679536,-0.009166482876649597,-0.5216799729597497,0.02122784933809595,0.852827860600758,0.19365482453700653,-0.6965774251482183,0.6716405718552103,-0.14414322181942904,-0.8071463074305302,0.9455400168644867,-0.035648330575632596,0.6606433549904623,1.0732900726705201,0.00865853796426458,0.7374414240261453,0.963233011961511,0.0,0.0,0.0,0.0
0.024523686408219735,-0.16467924427417416,0.7288838306490075,-0.010157638898001722,-0.5238068602881838,0.021923074012064725,0.8514943184266788,0.19280430479159105,-0.6895465270702081,0.660038684420996,-0.14382549333167294,-0.7975347917239616,0.9349544086250752,-0.02144226400126708,0.6567576746859415,1.0867659593114816,-0.005181892039362033,0.7626155436375877,0.9312675726197306,0.0,0.0,0.0,0.0
0.02456265520940924,-0.16470134403972966,0.7288445108215087,-0.010180633200741572,-0.5238568595362072,0.021950294701296134,0.8514625828461405,0.1928051834409451,-0.6894976546937528,0.6599778790767312,-0.14382463015567618,-0.7975003342488185,0.9350610104215591,-0.020566045828860846,0.6566564385800033,1.0867736939095405,-0.006047178077266834,0.7626127740443569,0.9312572704329578,0.0,0.0,0.0,0.0
0.02456265520940924,-0.16470134403972966,0.7288445108215087,-0.010180633200741572,-0.5238568595362072,0.021950294701296134,0.8514625828461405,0.1928051834409451,-0.6894976546937528,0.6599778790767312,-0.14382463015567618,-0.7975003342488185,0.9350610104215591,-0.020566045828860846,0.6566564385800033,1.0867736939095405,-0.006047178077266834,0.7626127740443569,0.9312572704329578,0.0,0.0,0.0,0.0
0.023772257306349288,-0.16572917202273038,0.7297117631620431,-0.01144820547933626,-0.5236749774960128,0.01970243258988575,0.8516133340230732,0.1811555444920946,-0.7328787105194714,0.7380303853904836,-0.1339580516543984,-0.7978608425747031,0.9336777225421493,-0.020039869032549073,0.6602724541458704,1.0785673371668525,-0.006428031434540793,0.7596058720090003,0.9261591430669773,0.0,0.0,0.0,0.0
0.022372589574837468,-0.1678491187406073,0.7305855374434198,-0.011029621310879596,-0.5233089448173454,0.017892357450796658,0.8518837709880075,0.16937673989393695,-0.7598790984320463,0.7827968175881349,-0.12370549152011763,-0.8016762389102088,0.9349855359390005,-0.01940356729180238,0.661793682814918,1.0676651630064087,-0.006635991501405085,0.7533366477193967,0.9259139251676879,0.0,0.0,0.0,0.0
0.020563278199628443,-0.17051617567035246,0.7308659223888638,-0.009728831623292739,-0.5230278190095035,0.01637926656567022,0.8521026757405344,0.1577305049502793,-0.7774135371931317,0.8081252197786163,-0.11353335012170833,-0.8072474394362819,0.936129055636745,-0.018687078686734165,0.6599002580402302,1.0607122545774597,-0.006670127996679419,0.7428069856125231,0.9341900993365932,0.0,0.0,0.0,0.0
0.018505528789718402,-0.17332992163547756,0.7307514443688538,-0.008111587540376646,-0.5229056252716753,0.015042730372372401,0.8522192355666217,0.14626706006397217,-0.790109722313288,0.8232383389388139,-0.10365201561268812,-0.8122477677337627,0.9351200722220546,-0.017936268820152212,0.6560023522405065,1.057062373517125,-0.006534753334720811,0.7301577289414553,0.9472454014023748,0.0,0.0,0.0,0.0
0.016370388780688173,-0.17594904301113407,0.7306952641345819,-0.006658737013490862,-0.522874434859774,0.0137647423960027,0.8522725611318417,0.1350017073130739,-0.7996341126933993,0.8325098096914285,-0.0942322423240191,-0.8148276497064335,0.9310640582857791,-0.017172971825950126,0.6522979395974217,1.0534560910838466,-0.006253485569528474,0.7183367933339596,0.958959765702744,0.0,0.0,0.0,0.0
0.014303995847122213,-0.17829972171254846,0.7308194995596395,-0.005490502229907077,-0.5228810396253009,0.012501901210815626,0.8522962954581833,0.12392291692487854,-0.806879761146518,0.8382621102595788,-0.08531444813980371,-0.8153227307747271,0.9250580055009826,-0.016395003165636468,0.6496126075382073,1.0488147015252574,-0.005858250736918757,0.7082449772248848,0.967712218545599,0.0,0.0,0.0,0.0
0.012369236048478928,-0.18041991099250154,0.7310673046116696,-0.004565737752985588,-0.5229022419502221,0.01125337099355517,0.8523061427934706,0.11301162093525463,-0.8124936985380874,0.8419345191765217,-0.0768758545191649,-0.814599657699857,0.9182319958708792,-0.015597153064628288,0.64783495801544,1.0434491789896105,-0.005372758238330617,0.6996311222343372,0.9741773872032568,0.0,0.0,0.0,0.0
0.010589784155620304,-0.18236067322646188,0.7313766213073368,-0.0038189660739243085,-0.5229292519581192,0.010027989137006857,0.8523085429458724,0.10224866920111114,-0.8168273621614489,0.8444829870715223,-0.06887501758879763,-0.8133225967319085,0.9113487769823673,-0.014777962247922926,0.6467464892329362,1.0377443826203636,-0.004812502846485285,0.6921568417193629,0.979147952343919,0.0,0.0,0.0,0.0
0.008965003164454043,-0.18416535259637684,0.7317066334654436,-0.0031937470074605576,-0.5229575107683953,0.008833944335146346,0.8523069889062623,0.09161601720636668,-0.8199466162160438,0.8465664422603958,-0.06126543448571521,-0.811898427816173,0.9048270210244407,-0.013938186991178544,0.646156306738627,1.0319522045662277,-0.004188745051034051,0.6855445613001434,0.9831946406434282,0.0,0.0,0.0,0.0
0.007480281990603826,-0.1858687118856223,0.7320359997106564,-0.0026456470998491573,-0.5229849001668109,0.007676935501247398,0.8523032672765273,0.08109693115761088,-0.8217129800217711,0.8486812175525156,-0.054000040725231575,-0.8105373595877674,0.8988421594556741,-0.013079623830971089,0.6459251238872378,1.0261922452211294,-0.003510583795608302,0.6795883832101347,0.9866793101048564,0.0,0.0,0.0,0.0
0.006117005352204727,-0.18749894285331917,0.7323575377536862,-0.0021398941885089214,-0.5230131994853893,0.006560332575648744,0.8522966479186781,0.0706760235802662,-0.822003858449686,0.851165982774566,-0.047033293138415116,-0.8093197235165782,0.8934320071475786,-0.012204911429296939,0.6459789322419471,1.0204835853786618,-0.002785747458143671,0.6741585956283654,0.9898102147029211,0.0,0.0,0.0,0.0
0.004861305149681002,-0.18907498078729962,0.732668907448676,-0.0016559444693861048,-0.5230399741150005,0.005483560567891471,0.8522889028311892,0.060339654625800904,-0.8212063825800572,0.8539294554649163,-0.04032455649609922,-0.8083070587789086,0.8886256024883918,-0.01131740744219143,0.6462686258597773,1.014813144855446,-0.0020215393449706924,0.6691618462619058,0.9926966994227671,0.0,0.0,0.0,0.0
0.0037052686308949303,-0.19061474179242774,0.7329743299605125,-0.0011744133956181752,-0.523066745778597,0.004445983701632575,0.8522793165639359,0.050075168890270985,-0.8197698481272764,0.8568231593360479,-0.03383519887536071,-0.8075362004411558,0.8844643601519168,-0.010421166635153543,0.6468072285047531,1.0091094772469233,-0.0012244469999451594,0.664568518221951,0.9953817524155468,0.0,0.0,0.0,0.0
0.002647886999497212,-0.19213691151047452,0.7332820265812917,-0.0006743393470963596,-0.5230966372190022,0.003447742893291766,0.8522661359373362,0.03987078451067836,-0.8180155140706958,0.8597523393539209,-0.02752880331853674,-0.8070554962628178,0.8810418676499564,-0.00952088650352039,0.647654867996122,1.003254670555609,-0.00040027070358146424,0.660394763768273,0.9978687631518554,0.0,0.0,0.0,0.0
0.0016970056989168581,-0.1936583577868613,0.7336014183771578,-0.0001368571710894239,-0.5231319271918531,0.0024889443672555683,0.8522480702111265,0.02971557280742402,-0.8160650085703582,0.8626834539963433,-0.02137310233012186,-0.8069484101156935,0.8785278056682788,-0.008622107925848423,0.6489024755993525,0.9971117860211134,0.0004455456266348022,0.6566898437092379,1.0001325464385757,0.0,0.0,0.0,0.0
0.0008680981241561949,-0.19518169332514784,0.733935210534694,0.00043661994460368115,-0.5231707754097501,0.0015649752093929666,0.8522263196902445,0.019600055707054788,-0.8138284274764007,0.8655880292764716,-0.015346025465769214,-0.8073199607251651,0.8771127460873144,-0.007731408112547706,0.650611239222052,0.9906351646571133,0.0013067507676102433,0.6534943028287243,1.0021432938344743,0.0,0.0,0.0,0.0
0.00016658314966785264,-0.19665061224806024,0.7342390494500014,0.0009586044011101624,-0.5232030536369524,0.0006489169256918496,0.8522072662500562,0.009519846415728443,-0.8111177486667779,0.8682803430669191,-0.009455748394273086,-0.8081695423985641,0.8766457823540564,-0.006856045015415125,0.6525154001578093,0.984409581672449,0.0021722612166601594,0.6506133239004714,1.0040860381873442,0.0,0.0,0.0,0.0
-0.0004920885059228955,-0.19780171177070796,0.7342095512627993,0.0010464608291914502,-0.5231959820186645,-0.00035790684844517974,0.8522116762999355,-0.000488652037373161,-0.8087164233750616,0.8705739822489734,-0.00383974698112138,-0.8091136632711722,0.875345581050886,-0.005997606478439116,0.652567616861841,0.9821913807393482,0.0030172333517601685,0.6464353633381356,1.0078215171315927,0.0,0.0,0.0,0.0
-0.001173997084132267,-0.19836169780277163,0.733892965104629,0.000334125286083347,-0.5231895379085241,-0.0015292813534296403,0.8522149124967835,-0.010275707234055536,-0.8099272992229267,0.8761175455087374,0.001264268005905263,-0.8083102520884551,0.8706891986858383,-0.00514721627446706,0.6506107084832576,0.9847097712841619,0.0038202940262788733,0.6413155418950997,1.0121473535466765,0.0,0.0,0.0,0.0
-0.0011668438822181268,-0.19836505335200483,0.7338888374410317,0.0003395674001840003,-0.5231857129433566,-0.0015272136413944793,0.8522172622544241,-0.010896815222700982,-0.8099185439223392,0.8760945213373619,0.0012567339153019804,-0.8083205213576163,0.8707021315822108,-0.005149369210028997,0.6506156896861464,0.9847033384611527,0.003829951809913782,0.6413210288631183,1.012150961402758,0.0,0.0,0.0,0.0
-0.0011668438822181268,-0.19836505335200483,0.7338888374410317,0.0003395674001840003,-0.5231857129433566,-0.0015272136413944793,0.8522172622544241,-0.010896815222700982,-0.8099185439223392,0.8760945213373619,0.0012567339153019804,-0.8083205213576163,0.8707021315822108,-0.005149369210028997,0.6506156896861464,0.9847033384611527,0.003829951809913782,0.6413210288631183,1.012150961402758,0.0,0.0,0.0,0.0
-0.0011668438822181268,-0.19836505335200483,0.7338888374410317,0.0003395674001840003,-0.5231857129433566,-0.0015272136413944793,0.8522172622544241,-0.010896815222700982,-0.8099185439223392,0.8760945213373619,0.0012567339153019804,-0.8083205213576163,0.8707021315822108,-0.005149369210028997,0.6506156896861464,0.9847033384611527,0.003829951809913782,0.6413210288631183,1.012150961402758,0.0,0.0,0.0,0.0
-0.0010951632707529,-0.19816502114948578,0.733836416106394,0.0003382064221574986,-0.5231602511502558,-0.0011538432273148866,0.8522334808481911,-0.012428959163354073,-0.8116021438305516,0.8780931927338779,-0.000276146993004367,-0.807978080033881,0.8705289280723983,-0.004152883593877036,0.6496844669562493,0.9853830605046656,0.004859588394422386,0.642046944728729,1.012191630081418,0.0,0.0,0.0,0.0
-0.001025353733936202,-0.1979172855045494,0.7337526396927044,0.000259870437711194,-0.5231504830256812,-0.0008068926960985093,0.8522399037251946,-0.0139607446218457,-0.8134650358950518,0.8802903935064506,-0.0018048712098390895,-0.8074422377727761,0.8700207516416653,-0.003169178882265259,0.6486034005269772,0.9865697706862375,0.005878929535447449,0.6426813026161623,1.0123818687856436,0.0,0.0,0.0,0.0
-0.0009605432066023114,-0.19766761203619465,0.7336403915506848,0.0001779954209728433,-0.5231272974014874,-0.00046141003424905513,0.8522544139702803,-0.015493845375454856,-0.8154726601602212,0.8825545198221204,-0.0033313263742462546,-0.8070465637046933,0.869575581187623,-0.0021877045300015023,0.6473324423988097,0.9880026121933799,0.006898918065190305,0.6431301411619861,1.0127995208438005,0.0,0.0,0.0,0.0
-0.0009125899900790123,-0.19746095322041654,0.7334984071017064,0.00016444254862403002,-0.5230588030635228,-9.248614936974652e-05,0.8522965756957581,-0.017030605407235055,-0.8175798961374473,0.8846948679969059,-0.004858740742712075,-0.8071095911768699,0.8695273722853595,-0.0011974255837795267,0.6457762125236137,0.9894656754661818,0.00793281928925042,0.6432469928900402,1.013560802282604,0.0,0.0,0.0,0.0
-0.0008942852455339034,-0.19742158205496294,0.7333088616201541,0.0004151193450760496,-0.5228796560718727,0.00036427591535592697,0.8524063351742213,-0.01856278579248219,-0.8196741615985446,0.8862781989705566,-0.006381098113825641,-0.8085392524567929,0.870906178847764,-0.00018340651991826024,0.643721901961517,0.9905379452807235,0.009007181832836867,0.6426692613310654,1.015145410083119,0.0,0.0,0.0,0.0
-0.0008475184515414539,-0.19790367654070581,0.7330094427680632,0.001479363137810198,-0.5225032363796407,0.001074558773205348,0.8526353410344605,-0.020009897905049777,-0.8213527269537712,0.8864617256793801,-0.00782423991411926,-0.8138680388276869,0.8770389592962019,0.0008359296289695073,0.6410708209546288,0.9902775133512952,0.010157488756149158,0.6408276119077485,1.0191278889589466,0.0,0.0,0.0,0.0
-0.00011535387795469007,-0.19858331145708719,0.7331781298235894,0.0007277679660397222,-0.5228724158919745,-0.00026106208393670275,0.8524106046382025,-0.014123598729911858,-0.820310526639699,0.8892923102697428,-0.017468015652170717,-0.8096262160033905,0.869063524454454,0.0017296347200677251,0.6468210138395567,0.9877777067041768,0.011053850306916357,0.6429265876958474,1.0188803412591922,0.0,0.0,0.0,0.0
0.0006211525306351551,-0.19977339219829307,0.7331800933509378,0.000701713579559275,-0.5230524642262485,-0.0014161234977322788,0.8522990213881161,-0.007920441629489449,-0.8188233567240071,0.8905173599045264,-0.027299355129178957,-0.8105813411929819,0.8661026416866044,0.0026257228405330343,0.651750406818901,0.9845233886315522,0.012022354108000744,0.6434087263834433,1.0214532609798235,0.0,0.0,0.0,0.0
0.0013831558451401665,-0.20114972582857338,0.7331165078395915,0.0009636146584044839,-0.5231062025060887,-0.0024814355211464525,0.8522633482816231,-0.0016816492454880538,-0.8175727330926945,0.8916130464029158,-0.03713351687534913,-0.8123124965200393,0.8629306679808425,0.003532232726150044,0.6562708566410734,0.9808451159077506,0.013030099889386946,0.6432515175331988,1.024943334015502,0.0,0.0,0.0,0.0
0.0021995609135870725,-0.20258921450740844,0.733002506563373,0.0013207243640730832,-0.5231062826128112,-0.0035205344533813386,0.8522591616493908,0.0045869826293698105,-0.8167129202576939,0.8931275177084256,-0.0469662069396154,-0.8141384593251699,0.8595880737909566,0.004429219593363979,0.6606477553370337,0.9771904527167399,0.014049743150208847,0.6428754279150488,1.0288939363152771,0.0,0.0,0.0,0.0
0.003085539403705813,-0.2040537717439631,0.7328407042238293,0.0017068339204596307,-0.5230878871817424,-0.004560468506767749,0.8522648362620081,0.010910916158476662,-0.816254201045844,0.8952270715257084,-0.05680588982637841,-0.8159628342580867,0.8562305178455367,0.00530336220705632,0.665015051415592,0.9737421561342572,0.015067232356682492,0.6424475400717453,1.0331928683542604,0.0,0.0,0.0,0.0
0.004051750048436764,-0.2055380867907216,0.7326355443058187,0.0021056279502099477,-0.5230656338028125,-0.005613041199600893,0.8522713199644165,0.017323336285650602,-0.8161656732513054,0.8979561948245196,-0.06666251439094871,-0.8177628307968338,0.8528809809531228,0.006145510033517211,0.669474053208565,0.9705032693976595,0.01607468208537345,0.6420578654164506,1.0377865081442508,0.0,0.0,0.0,0.0
0.005108411303576033,-0.20704936229117005,0.7323920072392136,0.0025197785006820924,-0.5230458891631309,-0.006684325293872897,0.8522745850611897,0.02386061801248821,-0.8164058130115082,0.9013222023671486,-0.07654648410723837,-0.819452491884128,0.8495304013466393,0.006947680124536991,0.6741170163068511,0.9674051183152153,0.017066857607803416,0.6417701506952788,1.0426412480528333,0.0,0.0,0.0,0.0
0.006266300976561789,-0.20859973649269573,0.732114698492796,0.002959377707051735,-0.5230324004032348,-0.007778250809196029,0.8522721683983153,0.03056084046243935,-0.8169268746296128,0.9053171056880951,-0.08646858493044159,-0.8208137208374658,0.8461994702514156,0.007701685147583056,0.6790351128823453,0.964354261962489,0.018039724786084135,0.6416401641314681,1.0477351947512614,0.0,0.0,0.0,0.0
0.007536642032765977,-0.2102038162905278,0.7318088230924018,0.00343814900827525,-0.5230292392314707,-0.008897816561664053,0.8522613583289934,0.037463303577924455,-0.8176634961435183,0.9099124320468813,-0.09644009637177504,-0.8214625161900151,0.8429711330444823,0.008398474220922433,0.6843290992625966,0.9612383669773751,0.018989902738384298,0.6417294990352442,1.0530463471788958,0.0,0.0,0.0,0.0
0.008931201843143168,-0.21187859571418124,0.7314828117080439,0.003973145779504831,-0.523043517504372,-0.010045358452365968,0.8522375160029227,0.04460866275787688,-0.8185089851686657,0.9150417131607526,-0.10647299353761511,-0.8208821827865577,0.8399868780233241,0.009027491159429357,0.6901303361316262,0.9579066777948471,0.019914496145121967,0.6421256538613489,1.0585335074134183,0.0,0.0,0.0,0.0
0.010463637487568709,-0.21364633301396152,0.7311519394335978,0.004588872887714726,-0.523088016212096,-0.011221629636529533,0.8521924340013909,0.05203971365126801,-0.8192826465975563,0.9205767650454363,-0.11658004863147764,-0.8186019861892561,0.83732620513235,0.009575700269614166,0.6966332552832705,0.9541273115368879,0.0208114795377044,0.6429688406618993,1.0641163738261459,0.0,0.0,0.0,0.0
0.01214953856827107,-0.21554433393346226,0.7308366413414394,0.005332849892809692,-0.5231716899675295,-0.01242093104461509,0.8521200995168021,0.05980261611753203,-0.8197466380750371,0.9263220424587114,-0.12677564291574217,-0.8146429930939061,0.83449857341491,0.010028107811815115,0.7040713215986848,0.9495407234029913,0.02168267124839737,0.6444159726710273,1.0697015011540505,0.0,0.0,0.0,0.0
0.014000351550591919,-0.21761989656619246,0.7305688897938776,0.006267384369586238,-0.5233103243671928,-0.013634145368980976,0.8520100553302905,0.06794426017615003,-0.8195117988742203,0.931914879959418,-0.13707529091552037,-0.8090533526310772,0.8308139026793242,0.010365664587312957,0.7127568205933125,0.9436428049779607,0.022532796060462944,0.6466832354548544,1.075134093742349,0.0,0.0,0.0,0.0
0.016014314589961505,-0.2199255387538663,0.7303890826285444,0.007462051324137237,-0.5235281978089646,-0.014851184508960159,0.8518462221596187,0.0765075976076417,-0.8180141741684144,0.9367634114079914,-0.14749578891136306,-0.8017305539244188,0.8253673456350461,0.010564512645144259,0.7230417674470451,0.9358383664280321,0.023369550487114865,0.6500109401970614,1.0802209298523833,0.0,0.0,0.0,0.0
0.018164992493228,-0.22249786357885776,0.7303272642167972,0.008960844822858242,-0.5238702950109246,-0.016071116770343737,0.8515992816289721,0.08552206742562209,-0.8145458018870482,0.9400307376386546,-0.15805511759225138,-0.7923987670460639,0.8169522155069665,0.010594017733253526,0.7352083780709096,0.9257344465466718,0.02419968064270343,0.6545848660585998,1.0848619343594523,0.0,0.0,0.0,0.0
0.02037343898536565,-0.22528237831293782,0.7303106020231123,0.010669968033216523,-0.5244414924151354,-0.01733407151081936,0.8512031501236431,0.09497581299305323,-0.8085425781022209,0.9407701897807268,-0.16876962719442826,-0.7805912820202175,0.8039887088628584,0.010416107262746749,0.748953556573387,0.9144530157064344,0.02501188105118457,0.6601752495621759,1.0897263515885365,0.0,0.0,0.0,0.0
0.02246748211390373,-0.22796221305434644,0.7299191641540401,0.012118494370053357,-0.5254688178838806,-0.01877881713240936,0.8505192646572021,0.10473838481574115,-0.8006431379287243,0.9386830845257529,-0.1796386544214537,-0.7652600286829215,0.7839438986148588,0.010000546929977584,0.7619722394185938,0.907973538745583,0.02573829181456227,0.6651857473314228,1.0980214413108242,0.0,0.0,0.0,0.0
0.024296099696589756,-0.23014316100347118,0.7290230375431364,0.012747143481573048,-0.5269426979347778,-0.020514683572375705,0.8495575620193154,0.11449663091334003,-0.7925843015746981,0.9352667832566309,-0.1905840375615195,-0.7414844972078317,0.7489011677708197,0.009429016629944867,0.772630259172811,0.9094579343757997,0.0263118467544638,0.668761120713597,1.1098753959576693,0.0,0.0,0.0,0.0
0.02551119828744005,-0.23135553608188225,0.728074098014069,0.011883423490788685,-0.5286436904470578,-0.02261247153356404,0.8484593737638813,0.12364847181508257,-0.7851486906187707,0.9313101064587443,-0.20136389529062906,-0.702882064949964,0.6869522128544929,0.00898535860179625,0.7809086668037621,0.9164999889907105,0.026690982863405332,0.6712510516780749,1.120383760558796,0.0,0.0,0.0,0.0
0.025590083405794672,-0.2314829707774129,0.7280039978513706,0.011925977736301299,-0.5285934052165062,-0.022696745004837135,0.8484878554126966,0.12418148554949138,-0.7852107646973981,0.9313428434065816,-0.2020800678494372,-0.7027790319244094,0.6869507245230592,0.008905348112510942,0.7811871337661221,0.9161974217073341,0.026778247588506426,0.6710979796397981,1.1208008043103312,0.0,0.0,0.0,0.0
0.025590083405794672,-0.2314829707774129,0.7280039978513706,0.011925977736301299,-0.5285934052165062,-0.022696745004837135,0.8484878554126966,0.12418148554949138,-0.7852107646973981,0.9313428434065816,-0.2020800678494372,-0.7027790319244094,0.6869507245230592,0.008905348112510942,0.7811871337661221,0.9161974217073341,0.026778247588506426,0.6710979796397981,1.1208008043103312,0.0,0.0,0.0,0.0
0.02508792925793429,-0.23187130516216548,0.7297322812730407,0.010963288330096806,-0.5259422310957595,-0.02212877810379127,0.8501616864094965,0.1246840475317659,-0.7939920627705961,0.9393941532062741,-0.20257745694836518,-0.7088860755181753,0.6953304342022304,-0.005242964940783749,0.7496316953383853,0.9532577601638399,0.041246121752588405,0.6727179981885804,1.1049005550916327,0.0,0.0,0.0,0.0
0.02462483893669465,-0.23257966852800513,0.7319230358431893,0.0103265312807428,-0.523874970836062,-0.021463120487890737,0.8514621025871587,0.12520426091258044,-0.796884511240711,0.9420445906870051,-0.20254378203316953,-0.7119740647114521,0.7023492112226676,-0.019387888169170756,0.7281105019261617,0.9768620525839155,0.05539019940658877,0.6781678376175864,1.0861938162845888,0.0,0.0,0.0,0.0
0.02419434167633332,-0.23347295062355813,0.7339941531994573,0.009905228344751325,-0.5223303300033765,-0.02076618416714584,0.8524327999350672,0.12582296913500995,-0.7964985763630208,0.9411339523794542,-0.2021156790732438,-0.7135299698269566,0.7081180250220613,-0.033532170108243275,0.7147178167967007,0.9925122401731027,0.06921245817192337,0.6847785250088753,1.0692041266188752,0.0,0.0,0.0,0.0
0.02373676390329609,-0.234447926517766,0.7358104502383616,0.009580292579293177,-0.5211651649981097,-0.020083427829758038,0.8531657193729686,0.12655172169414525,-0.794208728773849,0.9376831272027852,-0.20137658108419404,-0.7139317576387931,0.712209824353652,-0.047689205460513445,0.7064354637999918,1.0036567291767189,0.08277276664934968,0.69126551894531,1.0549058495512458,0.0,0.0,0.0,0.0
0.023198850479347725,-0.23545731309657367,0.7373905241596995,0.00928707614989796,-0.5202494366235076,-0.019431514571067645,0.8537427540840293,0.12738551812415763,-0.7906571762539432,0.9321724963744705,-0.20037602754657985,-0.7133366619091037,0.7144404965163581,-0.061871929858772844,0.7009415227357034,1.012059249870265,0.0961321548445034,0.6971005347759661,1.0430506973740252,0.0,0.0,0.0,0.0
0.022543465729826094,-0.236496310649494,0.7388005325534308,0.009009257816558964,-0.519477825798155,-0.01880690351905301,0.8542294318025114,0.1283212745768615,-0.7860946868483886,0.9247685972650516,-0.1991438120920545,-0.7119221472561003,0.7149276448479078,-0.07609331812105351,0.6967445395344487,1.0186340797169424,0.10934370076146321,0.7021257554414508,1.0330135286087982,0.0,0.0,0.0,0.0
0.021729950233203628,-0.2375759270577898,0.7401146899312281,0.008744513438258663,-0.5187614037122641,-0.018196541068269727,0.8546806569686483,0.12935227653824308,-0.7805763778126893,0.9154044731534109,-0.197697346055063,-0.7097767853877383,0.7137231190095696,-0.09036634226321545,0.6930100519382405,1.0237262969428018,0.12245597898144839,0.7062826023022328,1.0241005871304807,0.0,0.0,0.0,0.0
0.020708636905529664,-0.23871805153806153,0.7414056267948259,0.008498199858878291,-0.5180160623198766,-0.017579762104439112,0.8551479940584082,0.13046973597567144,-0.7740502259416887,0.9038281213303686,-0.19604741535356526,-0.7069426829681582,0.7108001174881978,-0.10470401327877185,0.6893756696450346,1.0272488236446284,0.1355162382719202,0.7095071768753775,1.0156291113866904,0.0,0.0,0.0,0.0
0.019412059181559374,-0.2399534549981691,0.7427448391581688,0.008277637977664759,-0.5171490855182722,-0.016927700160859784,0.8556878852855108,0.13166206541476175,-0.7664010041308382,0.8895999285705288,-0.19420192162254796,-0.7034231684495367,0.7060103543636571,-0.11911945903854268,0.6858081262715764,1.0286749962639297,0.14857461517085493,0.7116638668512059,1.0069105035734218,0.0,0.0,0.0,0.0
0.01775479653048868,-0.241324949988114,0.7442091343143351,0.008091865388510937,-0.516046971815764,-0.01620041775901204,0.856368840546378,0.13291688278725397,-0.757482600264034,0.8721147740452802,-0.19217042342053225,-0.6992379232897602,0.6991574040812669,-0.13362601115697859,0.6825492195536343,1.0269519342858193,0.161686928393392,0.7125463166314141,0.99716346689251,0.0,0.0,0.0,0.0
0.01564052611790219,-0.2428896898265117,0.7458919585322138,0.007948550475640782,-0.5145658123104151,-0.015344267612090953,0.8572767340818875,0.13422324322780416,-0.7471561401605576,0.850669060490188,-0.18996935540377763,-0.6944763582150894,0.6901080990131659,-0.1482372563312558,0.6800908358506239,1.0204541708251842,0.17491565766590628,0.711945867545749,0.9853485613005919,0.0,0.0,0.0,0.0
0.012965068168534741,-0.24470931529048276,0.7479113554502015,0.007832270015658043,-0.512527329290716,-0.014293191901621526,0.8585162182171,0.13556701541734026,-0.7353475697768359,0.8245439732713827,-0.1876269228099852,-0.6892206620251877,0.6787011382398872,-0.1629649557649952,0.6774098519865802,1.0103646465966898,0.18832818573367113,0.7097369665284284,0.9699764235219883,0.0,0.0,0.0,0.0
0.00962376550329179,-0.246845000308128,0.7503722084451169,0.007694049917353637,-0.5097124203395763,-0.012969317875719174,0.8602126754130509,0.13694098559844622,-0.7222557824143263,0.7931810193288987,-0.18519613548819167,-0.6837051267203108,0.6648675427963646,-0.1778215032757716,0.6731720776727624,0.9972094461742991,0.2019949220063143,0.705788292841074,0.9492919819134485,0.0,0.0,0.0,0.0
0.005522751614499689,-0.2493335051226497,0.7532651663468617,0.007429317435196003,-0.5058840100130232,-0.011296086408206552,0.8624955490247174,0.1383572801822866,-0.7086953780463182,0.7564878952041695,-0.1827706071425558,-0.6784673949738251,0.6486183687688026,-0.19282011012325181,0.6653900871424344,0.9808066059260766,0.21597342497603259,0.6996893580959038,0.9220402545483942,0.0,0.0,0.0,0.0
0.0006046333338123851,-0.2522071672806435,0.7560774045084426,0.0069820517367803845,-0.5008678617643217,-0.0092175038757776,0.865446516907591,0.13992717484140008,-0.696796238089057,0.7151441260213407,-0.1805186876977691,-0.6757330321492541,0.6311707849501788,-0.2079865819306148,0.6519831979417108,0.9597189357406433,0.23026455376000152,0.6890686710793813,0.8915291720706464,0.0,0.0,0.0,0.0
-0.0046860761790411395,-0.25527265103984703,0.7581866435807502,0.006099095438968308,-0.4946534753236193,-0.006828866410860807,0.8690420628304676,0.14187491480792935,-0.6918576948131536,0.6764033262720542,-0.17876675063623892,-0.6793585615754054,0.6176172258705874,-0.22333747089935727,0.6334291931402763,0.9333874038531936,0.24471649047085092,0.6728305579379515,0.8617407018206837,0.0,0.0,0.0,0.0
-0.00991050627906886,-0.25827125542085316,0.7591074176062195,0.004484773085439639,-0.4872111468964422,-0.004267890048242221,0.873262257437456,0.14440811758275798,-0.699985191142311,0.6495262787742446,-0.17785167312444988,-0.6928675208171278,0.6129941030614006,-0.23887425898162937,0.6108107297688401,0.9005505416794958,0.259135654185134,0.6499875620628486,0.8360559031635773,0.0,0.0,0.0,0.0
-0.014816193509905772,-0.26093221590360016,0.7586800525785824,0.0017991581281557932,-0.4784385505850042,-0.0016791312524157694,0.8781175871501421,0.14767361068714388,-0.7262974546021896,0.642636541887639,-0.1780412687951786,-0.7176422119834049,0.6193422585905869,-0.25458389881437254,0.5865933425355375,0.8586241862352035,0.27329276683229037,0.6203085079008741,0.8149547159328991,0.0,0.0,0.0,0.0
-0.018528003960635135,-0.26276419954565,0.7572118934912175,-0.0020238158704482872,-0.46957331312408745,0.00046554943670804944,0.8828910414285062,0.15156789829959916,-0.7687333934622703,0.6602275138110384,-0.17914036130047675,-0.7488470186575548,0.6350732686319913,-0.2702274575893371,0.5647088707352944,0.8172758013406793,0.2864466594985301,0.5904522595581962,0.7977999452906899,0.0,0.0,0.0,0.0
-0.018502082009626247,-0.26287279103201955,0.7568114066765277,-0.0023160280930464433,-0.46957568953538925,0.0005710761399479143,0.8828889973735534,0.15178735014738715,-0.7695059130968844,0.6594139936092803,-0.17928971099003796,-0.7492940874003022,0.6349049252055983,-0.27130322971617815,0.5647744669285324,0.8173223525371284,0.2870953387209851,0.5907248469412768,0.7975093236423489,0.0,0.0,0.0,0.0
-0.018502082009626247,-0.26287279103201955,0.7568114066765277,-0.0023160280930464433,-0.46957568953538925,0.0005710761399479143,0.8828889973735534,0.15178735014738715,-0.7695059130968844,0.6594139936092803,-0.17928971099003796,-0.7492940874003022,0.6349049252055983,-0.27130322971617815,0.5647744669285324,0.8173223525371284,0.2870953387209851,0.5907248469412768,0.7975093236423489,0.0,0.0,0.0,0.0
-0.018950369327732034,-0.26314846739685294,0.7586156352013708,-0.0022196321420699487,-0.4725190491287722,0.00011176961358102706,0.8813176549639457,0.152095658518239,-0.7391693671652763,0.6264775270759486,-0.175609365867887,-0.7240856311793251,0.6079540795834636,-0.27557730899512867,0.5805467478995878,0.8077680365761648,0.28882663747628234,0.6066297207893748,0.785936230685267,0.0,0.0,0.0,0.0
-0.01948598089086145,-0.26350741952452017,0.7602488329751036,-0.0020212780112395445,-0.47432053771010985,-0.00031770698017651733,0.8803498401225892,0.15286866932852697,-0.71451685969262,0.5976242353312697,-0.17245359375520178,-0.7057423033028948,0.5872279883454735,-0.2780826507487717,0.593324923055029,0.7950150036778929,0.289046625450991,0.6187398900153462,0.7729105838576463,0.0,0.0,0.0,0.0
-0.0197819024020099,-0.26411778530268726,0.7615066404555577,-0.0014926338767949734,-0.47498280690071076,-0.0006519769900076281,0.8799935682258345,0.1542549434876118,-0.6981418058322567,0.5775317678361789,-0.16989825215549123,-0.6991971587613859,0.5809891057541295,-0.2790401467729213,0.6027096549257709,0.7811091298697529,0.28794643095989886,0.6266046967053882,0.7609934211281058,0.0,0.0,0.0,0.0
-0.01987472097535888,-0.264958027480142,0.7615418083661504,-0.0006605142978704421,-0.4743557721277066,-0.0008945617004860358,0.8803325308821398,0.1564367265649635,-0.6947348970369288,0.5707248635244356,-0.16815688405123436,-0.7087109315101842,0.5930123640302903,-0.27865292232777505,0.6029371569590875,0.7756598640537614,0.2856919797728844,0.6245000127794745,0.7597099310913596,0.0,0.0,0.0,0.0
-0.019507526238427976,-0.2661797188186842,0.7603727581619344,0.0007054286648718597,-0.4722400246626502,-0.0009650817419582966,0.8814691883975581,0.15956887876748482,-0.7069077176497678,0.5817383496486606,-0.1673820528476127,-0.7380182488376785,0.6291584788268595,-0.27684039821623907,0.5944290849189656,0.7775000193091864,0.28220099878832355,0.6126628094132042,0.7686386807078188,0.0,0.0,0.0,0.0
-0.018266909199625096,-0.2679526071262528,0.7580373457374189,0.0028838347521383157,-0.4683726502425706,-0.0007325641827838102,0.8835260083051268,0.16382627844220998,-0.7374879610843954,0.6153271145743444,-0.16793670508295244,-0.79020634951636,0.6938131709303411,-0.27358872356041253,0.5783224331531209,0.7843846726559192,0.2776184643226206,0.5920943331018019,0.7863894930786699,0.0,0.0,0.0,0.0
-0.012961249273997198,-0.2701143754050828,0.7584708113628574,-0.0016918109222515503,-0.48096357894512687,0.0017472578955911523,0.8767372015569684,0.16266255939818489,-0.6964338995050305,0.5952141890631832,-0.16259142411872668,-0.7362185790529191,0.6714886936960076,-0.26227467883252353,0.6097641370249596,0.8308166469315836,0.26196393430212894,0.6234640159049845,0.8463373272317953,0.0,0.0,0.0,0.0
-0.00693145020132916,-0.272699011370084,0.7576447166547692,-0.0047653371288046255,-0.4913615441862786,0.004289644118862345,0.8709321003443714,0.16312597268196577,-0.672875342996955,0.5944709943462376,-0.1589103169452689,-0.7077885560190404,0.6781282572996634,-0.25035083786041457,0.6404336929749945,0.8679367031544267,0.24615148320054853,0.6487299237912206,0.9013608522586591,0.0,0.0,0.0,0.0
