zhuoxili-jackie/tripod-support-walk/examples/trajectory_walking_sideways_sc_v0.15.csv
root_pos_x,root_pos_y,root_pos_z,root_rot_x,root_rot_y,root_rot_z,root_rot_w,FL_hip_joint,FL_thigh_joint,FL_calf_joint,FR_hip_joint,FR_thigh_joint,FR_calf_joint,RL_hip_joint,RL_thigh_joint,RL_calf_joint,RR_hip_joint,RR_thigh_joint,RR_calf_joint,FL_foot_joint,FR_foot_joint,RL_foot_joint,RR_foot_joint
0.0,0.0,0.72963,0.0,-0.5231245161092812,0.0,0.852256264656019,0.0,-0.81,0.872,0.0,-0.81,0.872,0.0,0.65,1.0,0.0,0.65,1.0,0.0,0.0,0.0,0.0
0.0004339726750180449,-0.0001106210891878291,0.7295589438826405,-0.0002564199503639038,-0.5231371315820266,0.00022496335995113596,0.8522484527415847,-0.00016716481090478923,-0.8129362301980477,0.8766915008748944,-0.000167164810904789,-0.8120112678834779,0.8762872458170863,0.0037826723104613866,0.6499873007102772,0.9996274929359766,0.0037826723104613835,0.6519555509468148,1.0009550114274546,0.0,0.0,0.0,0.0
0.0013418782857515083,-0.00015346381951082222,0.72944779371827,-0.00039026302120957285,-0.5232729629631552,0.0003447191627170341,0.852164969413337,-0.00029925918348648833,-0.8175804982139855,0.8854938493029296,-0.00029866281965917776,-0.8160948591779463,0.8847669873868594,0.005701910814783939,0.6519675615838691,0.9998087218111668,0.005728987911995879,0.6549949950684567,1.0017303975431746,0.0,0.0,0.0,0.0
0.0027493567735616467,-6.548652135478796e-05,0.7293060875619736,-0.0004320915554464021,-0.5235416556625042,0.0003807578061693585,0.8519998844521897,-0.0005950390127733918,-0.8241443677095597,0.8987834715427166,-0.000593921973415397,-0.8220057392064645,0.8972065747974224,0.005677256617521451,0.6560393569234948,1.0006100926512325,0.005714698418628339,0.659351709084976,1.0020146973587654,0.0,0.0,0.0,0.0
0.004682439619839308,0.0001718024371894617,0.7291565216208049,-0.0003854876355254203,-0.5239612301635663,0.0003375026337364912,0.8517419602066916,-0.0011140320273399908,-0.8325328703958863,0.9165681763397746,-0.001112492676890335,-0.8295531686832166,0.9134843556201357,0.0035677383122895657,0.662496229298053,1.0018285988488849,0.0035878921517258047,0.6652771027974321,1.0014894755561365,0.0,0.0,0.0,0.0
0.007162191278059647,0.0005308286459780281,0.7290444408834567,-0.0002151084262067613,-0.524582990398216,0.00018206822721034054,0.851359270087776,-0.001723238426268095,-0.842099531881938,0.9382634575387196,-0.001721415626298821,-0.8384486518236078,0.9334295227908722,-0.0010380911698305547,0.671996023290632,1.0029758738623096,-0.0010419452467882403,0.6730659931315859,0.999775062935628,0.0,0.0,0.0,0.0
0.010185103825320002,0.0009128185516248566,0.7290324844915638,0.00014322931292807964,-0.5254717479851825,-0.00017018357701823793,0.8508110204929829,-0.001982722123592599,-0.8516524658469963,0.9626064133745329,-0.0019812286733028634,-0.848414450084385,0.9568568430697895,-0.008744072067679807,0.6854531271379525,1.003224599192333,-0.008703708926444528,0.6828988806054547,0.9965219786792996,0.0,0.0,0.0,0.0
0.012747043411607291,0.0011885893635999608,0.7287919252670991,-9.436529706761346e-05,-0.5253334038259172,-6.522382337235925e-05,0.8508964694166495,-0.006484256075674524,-0.8540704060590272,0.9367757211312943,-0.002846024119689969,-0.8611228803950955,0.9802121481041154,-0.008934882077444958,0.6916906517392868,1.0027479441436886,-0.008806224800142617,0.6897592645528984,0.9944550467949773,0.0,0.0,0.0,0.0
0.015116838257931687,0.0015536341240228403,0.7284440104452967,-0.00023221081419582467,-0.5253915053915127,-3.730261796525724e-05,0.8508605706865798,-0.014148386194895994,-0.8658388600586573,0.9171564518946597,-0.003808294271220368,-0.8718659599779919,1.000203295180299,-0.01091417724929011,0.697816583201497,1.004165571995223,-0.010695359422319327,0.6956861788467466,0.9934751024381623,0.0,0.0,0.0,0.0
0.017152785797694275,0.001915758803241872,0.7281166372722855,-0.0002950014479957126,-0.5256266482301619,-6.696464669618135e-05,0.8507153079380948,-0.02223974093143758,-0.8824561787778549,0.9035303211143936,-0.004660662500666958,-0.8799903797994421,1.0160500738282512,-0.013859414430553496,0.7038543698809997,1.0060939306458847,-0.01352645944142552,0.7009096115050846,0.992884992420892,0.0,0.0,0.0,0.0
0.018762899185709378,0.002197956745474208,0.7278454049429143,-0.0003376634458756448,-0.5259029308740065,-0.000103071142497601,0.8505445212673273,-0.029781647144459758,-0.9011886162791515,0.8932636998080401,-0.005300129557567804,-0.88587939284572,1.027980254346688,-0.016440564385345996,0.7089870206556118,1.0077855971648786,-0.015982816778803227,0.7052046356180994,0.9925926534095739,0.0,0.0,0.0,0.0
0.019931378981860527,0.002359075549501866,0.7276433790398006,-0.0003701522503381693,-0.5261605773830426,-0.00013874254082746774,0.8503851424770792,-0.03669004320079322,-0.9206093215181701,0.8845032550197272,-0.0056252600559368844,-0.8899064702151731,1.0364178200424214,-0.018121426621195837,0.7129097007925677,1.0089534353412675,-0.01756077602399565,0.7084778065015613,0.992609109004175,0.0,0.0,0.0,0.0
0.02068617503488753,0.0023791262537254543,0.7275134134781036,-0.000380746443908823,-0.5263872759524011,-0.00018901778809540245,0.8502448206368751,-0.04320440721273967,-0.9398470532143235,0.876215251211171,-0.0055453914816194945,-0.8923869341726434,1.041846536091571,-0.01886192720078244,0.7156743528870342,1.009515495885681,-0.01824166929049418,0.7107446518669438,0.9929522358482279,0.0,0.0,0.0,0.0
0.021065029505732913,0.002245541537076617,0.7274536082714695,-0.0003553021907329846,-0.5265842430946953,-0.00027097911450839086,0.8501228353920741,-0.04960361345401329,-0.9579918279255669,0.8680617804145737,-0.004987626634575714,-0.8935824318752437,1.0447032227481559,-0.01876106657801191,0.7174299554498914,1.0094453819482292,-0.01812969095302925,0.7120514811190359,0.9936404638881343,0.0,0.0,0.0,0.0
0.021089257861750886,0.0019425046752599654,0.7274631319787629,-0.0002869181851233763,-0.5267460295657278,-0.00039351384508611476,0.8500225780304604,-0.05605947767786304,-0.9736751805471586,0.8603997438920785,-0.003890742179014396,-0.8936816006735497,1.0452765932097865,-0.017800644451651224,0.7182390210743429,1.0086779355216005,-0.01720763944794295,0.7124212060669155,0.994696052416647,0.0,0.0,0.0,0.0
0.02074971391026544,0.0014437514858992922,0.7275479247935612,-0.00017910735606964295,-0.5268534571678756,-0.0005536299370994767,0.8499559377313068,-0.06253194290995884,-0.9849030106727782,0.8543610108900631,-0.0021941179153666633,-0.8927701595097597,1.0436419350175812,-0.01571451454927757,0.7180032269150882,1.0070433314382052,-0.01521405067521014,0.7118401910035781,0.9961370063263245,0.0,0.0,0.0,0.0
0.020012872276641298,0.0007137059829302058,0.7277245376932981,-4.09609230849512e-05,-0.5268860981132738,-0.0007405346408968487,0.8499355796444917,-0.0687217065464286,-0.989358023716639,0.8518304316622312,0.0001671761529988317,-0.8907874763623854,1.0396547470557291,-0.012081397430387376,0.7165654423668913,1.0042527174217928,-0.01172454336687712,0.7103063896206346,0.9979453590586714,0.0,0.0,0.0,0.0
0.01885509259053275,-0.00027394001012353273,0.7280177501593568,0.0001263488835583478,-0.52685665395992,-0.0009479722760608537,0.8499536173007799,-0.07427324810003313,-0.9855453286955916,0.8547651420928287,0.0032374674052846005,-0.887487976670943,1.0330382163450338,-0.006723603545064795,0.7140129864147163,0.9999987765904691,-0.006520053155147327,0.7079394461260907,1.000012125805977,0.0,0.0,0.0,0.0
0.01729430375727023,-0.0015031527806010222,0.7284171453974265,0.0003001069231311547,-0.5267353901580972,-0.001157429897546096,0.8500284695507934,-0.07947949515112701,-0.9751100534439135,0.8613898997895841,0.0069247702963856714,-0.8830044342609998,1.0239205567362883,0.00037436673876514726,0.7102912388670035,0.9942604018881913,0.0004917835403581931,0.7047366988537945,1.0022651094012018,0.0,0.0,0.0,0.0
0.015378607703131873,-0.0029430493131047094,0.7289168915389075,0.00046667931691382836,-0.5265313749738343,-0.0013602887489920718,0.85015448184027,-0.08479013068556637,-0.9605983750293494,0.8701801213332041,0.0111190536430886,-0.8773622516601477,1.0124500570217565,0.008903016748309539,0.705670382418353,0.9870413863248362,0.009099207908844869,0.7008536373064654,1.0045365718235082,0.0,0.0,0.0,0.0
0.013165551959624773,-0.004557735466716184,0.7295074805367737,0.0006129595583252879,-0.5262699804249509,-0.001552016066674265,0.8503158961410933,-0.09067307502819272,-0.9443493458430708,0.880561717574567,0.01570866740765236,-0.8705442074161346,0.9987625637428681,0.018491323842242485,0.7004958920230115,0.97841093781868,0.019009608814033036,0.6964850667280509,1.0066864647741247,0.0,0.0,0.0,0.0
0.010729296349117207,-0.006294200459662576,0.7301373155498112,0.0007364598096591887,-0.5260046003618994,-0.0017438620431537242,0.8504796158464009,-0.09766485549689698,-0.9282958033790837,0.8931048682193319,0.020576213511511118,-0.8625869674854824,0.9830249280772868,0.02852124381857693,0.6950847723808389,0.9689461343700965,0.029636441705563975,0.6916876155422328,1.0089230048862534,0.0,0.0,0.0,0.0
0.008201868682608564,-0.00802401603024634,0.7306608936595014,0.0008808669550582618,-0.5258802553380518,-0.0019895787535830034,0.8505558316156419,-0.10640524501367714,-0.9142418518213671,0.9098088190196283,0.025500085583148972,-0.8535404044031047,0.9654358663061599,0.03741998358673199,0.6898557716037399,0.9605860534934682,0.03931052593420643,0.6862859448370371,1.0121416586114143,0.0,0.0,0.0,0.0
0.005880539701566448,-0.009403719747660983,0.7308782038876841,0.0011590582260543787,-0.5262118783758495,-0.00236545299493888,0.8503494106967544,-0.11770840293947049,-0.9043358269964039,0.9345895575151437,0.029727709964538107,-0.8431244330228631,0.946338912769813,0.041970223560311465,0.6859194251017443,0.9569314403158254,0.0444404873803999,0.680568875775234,1.0172291664986923,0.0,0.0,0.0,0.0
0.004309008447615803,-0.01030133371533777,0.7308471929917288,0.00177155602356751,-0.5272182218039837,-0.0029868482517390626,0.849722829471247,-0.13020895026215654,-0.9012777478729985,0.972722530881899,0.033133112339475364,-0.8327234489959068,0.9295882736789861,0.03997027737279642,0.6860333702707376,0.958212823012304,0.04243864199531713,0.6764825463768864,1.0231025909942304,0.0,0.0,0.0,0.0
0.003843268271246681,-0.010601304045908307,0.7307403441587909,0.0027664882938485194,-0.5288402304382308,-0.003690213907961846,0.8487088661807843,-0.1418201830544876,-0.9098849061503915,1.0270187418282621,0.034979025796799255,-0.8237193975190318,0.9185895313569555,0.03147542534881301,0.6915473681084296,0.9627493293194506,0.03340965137400254,0.6759978572835394,1.027653713630376,0.0,0.0,0.0,0.0
0.0038459235328226027,-0.010637801147084543,0.7307315144497546,0.002784418904607445,-0.5288358145781862,-0.0036852328988480295,0.848711580744172,-0.14182675469976858,-0.9099065241892872,1.027024709379613,0.035015942063002875,-0.8237244959401134,0.918520722202569,0.03142316874952791,0.6916148096712497,0.9626158956631533,0.033454031826173465,0.6759351614774167,1.0277627486311764,0.0,0.0,0.0,0.0
0.0038459235328226027,-0.010637801147084543,0.7307315144497546,0.002784418904607445,-0.5288358145781862,-0.0036852328988480295,0.848711580744172,-0.14182675469976858,-0.9099065241892872,1.027024709379613,0.035015942063002875,-0.8237244959401134,0.918520722202569,0.03142316874952791,0.6916148096712497,0.9626158956631533,0.033454031826173465,0.6759351614774167,1.0277627486311764,0.0,0.0,0.0,0.0
0.004430692210565058,-0.011148080113842584,0.7325417225451074,0.002025285660660445,-0.527612043147962,-0.002787974996302781,0.8494784619627774,-0.14290039859557774,-0.9153140160646225,1.0368614842033756,0.03439491108841912,-0.8270959921304402,0.9285506631705143,0.01700333817852872,0.6685969295590413,1.0002666951507824,0.04840023905357685,0.6867084983584872,1.0112942836972854,0.0,0.0,0.0,0.0
0.005231484923370701,-0.012069126885328997,0.734944949772174,0.0017307092934820548,-0.5270538933890179,-0.002397267210295737,0.8498267183483593,-0.14149954245488716,-0.9142895761712917,1.0427732591190972,0.03584781965632063,-0.8277267635912302,0.9382969959809885,0.005188806257066992,0.6517115621865966,1.0322909458672722,0.05962315465783961,0.7010897078135674,0.9907759672708244,0.0,0.0,0.0,0.0
0.006044945712123101,-0.01334331077868459,0.7373566920706427,0.0017235566450471375,-0.5267941872029543,-0.0023488476577875153,0.8499878802643898,-0.13827140163604978,-0.9102686700111214,1.0458516815219763,0.03893534028705074,-0.8280154201155193,0.9480273702076504,-0.002207924326380989,0.6388198279755235,1.060322971122082,0.06924327850288926,0.7155399869663905,0.9709226502045885,0.0,0.0,0.0,0.0
0.00683690876251659,-0.014872106655975022,0.7395968279550025,0.0018643784404946894,-0.5266313069546151,-0.0025021664241367254,0.8500880717852065,-0.13389370197522704,-0.9052708017611736,1.0474487057330883,0.043122939352424415,-0.8289728718308766,0.958160074838554,-0.007127885385149064,0.6287297836372564,1.08617871258516,0.07843433942122467,0.7290093597720146,0.9530065662823097,0.0,0.0,0.0,0.0
0.007581816585551409,-0.01653254573701774,0.7416310393314006,0.0020743632069716122,-0.5264914477902859,-0.002741438576210895,0.8501734746129799,-0.12899649659945361,-0.9000938681996342,1.0481586098461892,0.047836723269274704,-0.8305143153244376,0.9683282656042806,-0.010586124888709882,0.6205077484738432,1.110794030084217,0.08759715349605113,0.741311862821455,0.9371065683602234,0.0,0.0,0.0,0.0
0.008212846275527232,-0.01820524986268652,0.7434463324123902,0.0023033535331882706,-0.5263577549505487,-0.003000466452096833,0.8502547886174997,-0.12403300899457877,-0.8948733601147961,1.0478551947800834,0.05262297982739393,-0.8320892303722381,0.9775558769931242,-0.01340765131962883,0.613449436816035,1.1344816988341768,0.0966065564066315,0.7522303689034902,0.92319487006152,0.0,0.0,0.0,0.0
0.008690379757966934,-0.0197883615943132,0.7450382425624744,0.002529384921973671,-0.5262463644500043,-0.003237033939616394,0.8503222258216843,-0.11935588163564205,-0.8895924224294374,1.0464212401346582,0.057115440209538085,-0.8331984851655382,0.9850942994056002,-0.01600655485499746,0.6072502658180046,1.1569551278389139,0.10512939463760318,0.7616860483280672,0.9112158219386146,0.0,0.0,0.0,0.0
0.008977695590300658,-0.021244386178513038,0.7463824388913061,0.0027411329995754973,-0.5261583538805793,-0.003435421342755262,0.8503752528806064,-0.1150903162733201,-0.8842760063775379,1.0437138152669527,0.06117867882953673,-0.8336973817030574,0.9905872405909227,-0.018801169828885772,0.6019672496065026,1.1771551744427016,0.11304897091546023,0.7694290513847303,0.9014527485727651,0.0,0.0,0.0,0.0
0.009009419556661177,-0.022591957253402715,0.7474355657791492,0.0029234887241076386,-0.5260695196394155,-0.00358590261471285,0.8504289829388885,-0.1111962840481692,-0.8789348147317714,1.0393578330477964,0.06484190018733647,-0.8336205516204355,0.9937401969097205,-0.022421240831160615,0.5979725061396414,1.1928156991842023,0.1206207489579227,0.7749689844376159,0.8945394075042012,0.0,0.0,0.0,0.0
0.008694982675405572,-0.023901105360376217,0.7481424765108742,0.0030487005088991486,-0.5259226880961865,-0.0036722086434270674,0.85051898653385,-0.10751212037136021,-0.8736229742104574,1.032818870101678,0.06826100853535788,-0.8331739274078691,0.9943330951785162,-0.02778133218408781,0.5963047121286359,1.1998309373598834,0.12857006453170733,0.7776380780658836,0.8913544603389936,0.0,0.0,0.0,0.0
0.007967443057994912,-0.02526601381573774,0.7484836043894157,0.003092312734726838,-0.5256558983449879,-0.003683439416752058,0.8506836935143036,-0.10380555193116546,-0.8683433557347356,1.0236471794840358,0.07166704338779112,-0.8326145963667081,0.9923712473986832,-0.03579914784824362,0.5994049401162542,1.1920779247552191,0.1377049737203538,0.7770135457082401,0.8923999227480499,0.0,0.0,0.0,0.0
0.0067998880475277105,-0.02670139490800414,0.7485298998118877,0.00307016670606416,-0.5252971488635294,-0.0036250406440076783,0.8509055990840424,-0.10001672939023129,-0.8624834177904195,1.0112237411230536,0.07508265011021242,-0.8314518968313737,0.9873742425412538,-0.045675521579250464,0.6044657987864928,1.1756592640280206,0.1478657492443032,0.7734083390426627,0.8970301127764032,0.0,0.0,0.0,0.0
0.005199567681539856,-0.028225320634393217,0.7483816654082323,0.002990837989484852,-0.5248623035926908,-0.003499251457084035,0.8511747014536645,-0.0960958776082879,-0.8555360521423958,0.9951984759542762,0.07853509815864598,-0.8292899594624148,0.9791432748039026,-0.05681271589685778,0.6100616308400977,1.1547433474157058,0.15896818952677547,0.7674065875653187,0.9041805264249675,0.0,0.0,0.0,0.0
0.003181541405633624,-0.029858287099419203,0.7481190643080456,0.0028408420770205355,-0.5243426121551432,-0.0032893839313852813,0.8514962916231441,-0.09203691025939278,-0.8472569693956344,0.975430701033676,0.08202757662365172,-0.8259145644138741,0.9676482644125965,-0.06926126615767894,0.6154625506673622,1.131901420996771,0.1712000241798251,0.7595198162900842,0.9129358104553321,0.0,0.0,0.0,0.0
0.0007959393580615815,-0.03159576799112716,0.7477898388630158,0.002591902534947029,-0.5237235143024651,-0.0029654735591715608,0.8518791983459244,-0.08793816045710566,-0.8377681039176841,0.9522386848687698,0.08548360730567953,-0.8213352532864808,0.9531538754737592,-0.0839845556912838,0.6204476699748088,1.1089713050330123,0.1847631394802082,0.7502127249528627,0.9225950477707117,0.0,0.0,0.0,0.0
-0.0018045750485832647,-0.03337925114837276,0.747394030151992,0.002204690337782224,-0.5229821765153692,-0.0024877379690725026,0.8523371360838145,-0.08408031607907875,-0.8280356148243753,0.9272217203824973,0.08869836061718975,-0.8161677695148515,0.9368746585001811,-0.1034258410264278,0.6256899850667813,1.087808289693107,0.19970034073319062,0.740007339594877,0.9326831984075622,0.0,0.0,0.0,0.0
-0.004224564301550343,-0.035074048741246595,0.746847924127645,0.0016041161039693009,-0.5219711278996644,-0.0017752029799361128,0.8529597980591215,-0.0810929068606398,-0.8216342533693411,0.9056941908597147,0.09127911303693255,-0.8131360106637561,0.9230961124065131,-0.1323810564403833,0.633508398087849,1.0702203943147877,0.21614714921103467,0.729489291661204,0.942929733575134,0.0,0.0,0.0,0.0
-0.006192492565275499,-0.0364797191107219,0.746174034668786,0.0007922583035006881,-0.5207475623302048,-0.0008136355977108801,0.8537099546397735,-0.07954951408784751,-0.8201373638935809,0.8909656504341674,0.09272881339257125,-0.812974251821482,0.9138014441109176,-0.17415692068487915,0.6438329179090766,1.0589025495395046,0.23306045464093858,0.7196988187727558,0.9524716771832975,0.0,0.0,0.0,0.0
-0.00750353323888702,-0.03737552491395543,0.7452867514521855,9.821161478768717e-05,-0.519629506408328,9.78089608002666e-05,0.8543916881955976,-0.07938701024292695,-0.8228552220613545,0.8838596257661641,0.09306213521572503,-0.8155782595186871,0.9095691771194557,-0.21935981653103265,0.6527074112377351,1.0568084590176066,0.24580693460280992,0.7106937758733293,0.9620837365469751,0.0,0.0,0.0,0.0
-0.007485395206875334,-0.03738794398468117,0.7452584017574427,6.186804043078257e-05,-0.5196366110715448,0.00011321514176235009,0.8543873686968677,-0.0794017533783189,-0.8228621605580674,0.8837787923669707,0.09306735775220766,-0.8155867506296294,0.9095810644215075,-0.21934753063698548,0.6526905665615105,1.0567964713237081,0.2457920729321336,0.7106569514796697,0.9620503170730431,0.0,0.0,0.0,0.0
-0.007485395206875334,-0.03738794398468117,0.7452584017574427,6.186804043078257e-05,-0.5196366110715448,0.00011321514176235009,0.8543873686968677,-0.0794017533783189,-0.8228621605580674,0.8837787923669707,0.09306735775220766,-0.8155867506296294,0.9095810644215075,-0.21934753063698548,0.6526905665615105,1.0567964713237081,0.2457920729321336,0.7106569514796697,0.9620503170730431,0.0,0.0,0.0,0.0
-0.007920065834509384,-0.03774663725465539,0.7453278935764953,0.00014828866558902378,-0.5201853586935252,4.445880159544848e-05,0.8540533757528127,-0.07818224858999927,-0.8159105778930551,0.8745084249616996,0.09388168033256987,-0.8104775405386392,0.9029174835862254,-0.21841077687442842,0.653478221803572,1.0567514005738972,0.24785462126717475,0.7112916056932025,0.9637265707613623,0.0,0.0,0.0,0.0
-0.007997040237418282,-0.038262442663297584,0.7452396322528985,5.27407126123047e-05,-0.5202945179164691,0.00018933486775642974,0.8539868710915842,-0.07719324151787263,-0.8143290489249998,0.8717205775476156,0.09482544422099443,-0.8102950992894511,0.9028133803363693,-0.21316411587167045,0.6523815356477111,1.0563722089520122,0.2534013182039889,0.7116882681189242,0.9662723248500045,0.0,0.0,0.0,0.0
-0.0075579101556989235,-0.03871195550610266,0.7451095840855378,-4.8858378549869516e-05,-0.5203244190285796,0.0003326875866169422,0.8539686094315174,-0.07646845074832563,-0.8163760755193651,0.875156946111872,0.09574408333388372,-0.813359705898317,0.9083469292785601,-0.20896479885670813,0.652574199613781,1.0560347182472236,0.25927470099554245,0.7133254430758892,0.968533908216461,0.0,0.0,0.0,0.0
-0.0065235649481206305,-0.03897480071266333,0.7449474576979154,-0.00011913776079063433,-0.5203840118666111,0.0004149535545130404,0.8539322536439014,-0.0761646085170176,-0.8218596016818375,0.885195675208174,0.09646481553452525,-0.8192389368071993,0.9193245975739516,-0.20766781374896875,0.6549984275955592,1.056195271932626,0.2644024242020468,0.7166666074567904,0.9702440042921395,0.0,0.0,0.0,0.0
-0.004836404435570346,-0.03899289660906231,0.744784674488304,-5.6472195138152874e-05,-0.5206466721827955,0.0002731279667515742,0.853772197343639,-0.07602667823496279,-0.8295973135934952,0.901079428941981,0.09718352008371628,-0.8271600037128533,0.9351242023242698,-0.21202060981380977,0.6611858537200495,1.057147433906926,0.26713501468407375,0.7221662818352815,0.9711785545493864,0.0,0.0,0.0,0.0
-0.0023956524512092183,-0.03871581081995022,0.7448092001648087,0.0006558641143417442,-0.5218377621135247,-0.0009643601899425649,0.8530439554231868,-0.07400645531847848,-0.8333402992719514,0.9179521197342055,0.09961311185702038,-0.8339239910946811,0.9529580681340096,-0.23441548872384907,0.6779165868900814,1.059355098664106,0.25932588510369964,0.7309022795163679,0.9704148378344938,0.0,0.0,0.0,0.0
0.000488965275902419,-0.03802142469145021,0.7444828062258946,0.0010470223171600889,-0.5224105575062206,-0.0015672343688383338,0.8526920059005715,-0.0748138846338385,-0.8459489994928622,0.9449494546090165,0.07762198943684434,-0.8310585451957131,0.923586367106765,-0.25517525900158866,0.6917840112205756,1.0633057897343348,0.25376895198087107,0.7389347455121041,0.9701242674951698,0.0,0.0,0.0,0.0
0.003262868723901183,-0.037573912610639776,0.7439702400189978,0.002022747733503195,-0.523864344683018,-0.0031804006638688036,0.8517933680846875,-0.07246869466890082,-0.850431652556546,0.963184800948006,0.0557407902507084,-0.8359158684964544,0.9025996062219009,-0.2912497860093439,0.712077147786319,1.0704770331887379,0.24042485920411025,0.7457450112696514,0.9734146823353952,0.0,0.0,0.0,0.0
0.005176718834013234,-0.037997622539518945,0.7437479841790235,0.0032109432944661715,-0.5256427441321242,-0.005093706867306965,0.8506841067839224,-0.06699426802098271,-0.8452870839309341,0.967681242374581,0.04112764106427565,-0.8435627444018658,0.8856201004036289,-0.3289532429808532,0.7341389614933796,1.0738705683623337,0.22805083984432517,0.7514699609293723,0.9770342633434531,0.0,0.0,0.0,0.0
0.005145626967764397,-0.04068481718215788,0.7437856804571834,0.00042802582925940535,-0.5192074917192896,-0.00011353018533510025,0.8546481056243852,-0.0727381168963986,-0.8874946546198021,1.0014716226368865,0.010926293866821521,-0.8697592951547992,0.8632423962627198,-0.20275445965884092,0.6817603211105296,1.0516033847453647,0.2937506758108723,0.7486539223279361,0.973828635221883,0.0,0.0,0.0,0.0
0.005945296625033272,-0.04225644980532214,0.7443985097668668,0.00036777704627395533,-0.5193451067312114,-0.00028125696631775364,0.8545644772332336,-0.06840261104892967,-0.885281819762212,1.0020544616640947,0.0004086179161761523,-0.8820066792862126,0.8503767740372967,-0.21006612073999778,0.6919722439640386,1.0389217074108772,0.30309306353551646,0.7543631038949526,0.9700333710286259,0.0,0.0,0.0,0.0
0.007199450736952654,-0.043293724378675603,0.7442010939073116,0.0009138475167056783,-0.5202246733655381,-0.0013964458689386563,0.8540278122188822,-0.06312958860386446,-0.8826897147800465,1.0045123606584312,-0.011361512391874039,-0.8973812580737046,0.8413924456730203,-0.2276622475703866,0.704211334511352,1.0378673688695201,0.3029812740109552,0.7580087332233343,0.9740035832608719,0.0,0.0,0.0,0.0
0.008912862799698888,-0.043814057644355336,0.7438076149993144,0.0016565829926103405,-0.5214196508678635,-0.002871182171006342,0.8532939468521764,-0.058334617199852945,-0.881337625419769,1.0108837195064013,-0.025525172746875747,-0.9118452347958956,0.8332913316256069,-0.252633641851548,0.7192800940033922,1.0410392804172746,0.2976182924417893,0.7624633917542977,0.9788050159178355,0.0,0.0,0.0,0.0
0.010729091546247701,-0.044058713595407764,0.7432747631522915,0.002888359839923608,-0.5234293328676719,-0.005143188452667494,0.8520486714288564,-0.05227936467864423,-0.8749904569814438,1.0136882459690169,-0.03683605584172794,-0.9220119497220581,0.8264048659532263,-0.29435377172010374,0.7410768317129477,1.0483551767745556,0.28295422792216796,0.7668811664832216,0.9853414825407366,0.0,0.0,0.0,0.0
0.011901400720466906,-0.04495533091022369,0.7428971538009923,0.004194802921255135,-0.5254981438199455,-0.007524496387914728,0.8507511307217592,-0.044233768371169324,-0.8631400607538275,1.0078974816387427,-0.0413143910006995,-0.9259038821182574,0.8189745532659504,-0.33681940956672335,0.7633746667150736,1.0530299718055316,0.2696820365690778,0.7698414051387071,0.9923715560591955,0.0,0.0,0.0,0.0
0.011465774816460595,-0.04800897414567043,0.7428619668521376,0.002347975100279272,-0.5191426616127995,-0.0029710984732388003,0.8546792126174412,-0.048045823528616964,-0.9002327925821492,1.0338318085910698,-0.06684523333271536,-0.9367772862737351,0.8051289636220399,-0.20989806324946592,0.7091453929578377,1.0312757251559512,0.3289605532715997,0.7629603392441138,0.99114787313514,0.0,0.0,0.0,0.0
0.01183276200785092,-0.05015079270365481,0.743176028945747,0.0017575935583131967,-0.5182025204563605,-0.0023691370108641515,0.8552528549191653,-0.043996676389105406,-0.9035193043664926,1.0358008069617903,-0.07617237335061525,-0.9289802450252984,0.803539150825101,-0.20079884269388099,0.7099250458568315,1.017006821374539,0.3493583008201602,0.7651726244218814,0.989992890068561,0.0,0.0,0.0,0.0
0.01296069206409132,-0.05136369942348768,0.7433304593852704,0.0030365364421756354,-0.5200251115339618,-0.004792179639484045,0.8541321313677579,-0.034876515625054894,-0.8904151705404458,1.0291114826559107,-0.08118435326273404,-0.91411339606762,0.8102258761775077,-0.23569046051731204,0.7317310496296097,1.014985733100711,0.3380172489035603,0.7699204466717466,0.9922215977051096,0.0,0.0,0.0,0.0
0.014350816895056842,-0.0524223623134683,0.7428379438837641,0.004688387581782199,-0.5222688642277967,-0.007850816071994412,0.8527318553725397,-0.024777167958463554,-0.8768968980508272,1.0226851692090453,-0.0874614367337827,-0.8953744892863406,0.8179554287465727,-0.28248872993054386,0.7558042406698151,1.0207213142231955,0.32050856670638433,0.7723454774203249,1.000596822754794,0.0,0.0,0.0,0.0
0.015224021675391827,-0.05425102730090814,0.7422436497141106,0.006229236044706187,-0.5240394017012197,-0.010684292652988104,0.8516042202651607,-0.013326115867907098,-0.8626110727435133,1.0117877741127996,-0.0904267687883981,-0.873070451079117,0.8223252709510092,-0.3222363017843743,0.7758623371811489,1.0245697080607166,0.30843636579285766,0.7719123982456078,1.011136536679215,0.0,0.0,0.0,0.0
0.014648949248546372,-0.05832406705498858,0.741872426274056,0.0046157538960636115,-0.5177091660606733,-0.006605454479028733,0.8555187211065919,-0.012852406456770084,-0.8965183013906814,1.032192894741895,-0.115212720316206,-0.8609136252695642,0.8171735642795969,-0.1960587960665163,0.7221785213017857,1.0028165223396648,0.3696374676822904,0.7618943006746253,1.0148253719126687,0.0,0.0,0.0,0.0
0.015126534086586345,-0.06110619545381173,0.742079791964994,0.005067614490774656,-0.517434313636153,-0.007571320820042319,0.8556744272539036,-0.003281106002245116,-0.8913077029185247,1.0265486530712584,-0.12105408678265953,-0.8339757045318734,0.8148891715617347,-0.2042078252129782,0.7310948934424611,0.9892478863305898,0.37707728377533944,0.761798407707735,1.0161290488271995,0.0,0.0,0.0,0.0
0.016061157682614548,-0.06325638519085042,0.7413926092538936,0.006130221265308917,-0.5177721759819908,-0.009515140398545386,0.8554436604881169,0.006999808001746502,-0.8864289361483091,1.0232883936507418,-0.12981331811400632,-0.8096306240524996,0.8108107326060118,-0.2228354281228396,0.7409071016886869,0.9886633516590938,0.3738857012191715,0.7590920718507387,1.0253398489127494,0.0,0.0,0.0,0.0
0.01686892633266707,-0.06476564904308982,0.7401469828314853,0.007056162864270254,-0.5177227432870568,-0.011158758910827207,0.8554465814698935,0.014933770204405818,-0.8867882409496136,1.0240116637518855,-0.143149846728458,-0.7842165606340914,0.7963292450353432,-0.2384574178856624,0.7445726335383025,0.9950878442562209,0.36839400235008934,0.752610884946107,1.0380054015986362,0.0,0.0,0.0,0.0
0.017273576318814175,-0.0654742871153645,0.7390025501325145,0.007780349363603077,-0.5175253208398035,-0.012324155382963225,0.8555437590489076,0.01964246911497921,-0.8885940727284648,1.0251760781706207,-0.15550664565441819,-0.7587981991124548,0.7680366173223989,-0.25194922995976643,0.7450755977422878,1.0031085620909435,0.3598762284426943,0.745098004183888,1.0483666801667861,0.0,0.0,0.0,0.0
0.017260572341330174,-0.06554304808511915,0.7389797866626153,0.007761980517883346,-0.5174558774814371,-0.012292127529713964,0.8555863896294454,0.019760175857852197,-0.8887833322801746,1.025071885372611,-0.15553090136812547,-0.7587586169501854,0.7680566340817204,-0.2523508936585112,0.7449724935327524,1.0027383748545202,0.36024060875365715,0.744768234127479,1.048432229631921,0.0,0.0,0.0,0.0
0.017260572341330174,-0.06554304808511915,0.7389797866626153,0.007761980517883346,-0.5174558774814371,-0.012292127529713964,0.8555863896294454,0.019760175857852197,-0.8887833322801746,1.025071885372611,-0.15553090136812547,-0.7587586169501854,0.7680566340817204,-0.2523508936585112,0.7449724935327524,1.0027383748545202,0.36024060875365715,0.744768234127479,1.048432229631921,0.0,0.0,0.0,0.0
0.01840024737855152,-0.06781008360717429,0.7406941999498201,0.0038518322459960095,-0.5151410606226383,-0.005124543182022788,0.8570814372660905,0.008547024448282486,-0.9133400729680959,1.0489899168673358,-0.1676148778725614,-0.7585073852081411,0.7849277774980504,-0.13320383465012245,0.7186119227715629,0.9694674062974358,0.30785334124179115,0.7072271859448511,1.0504242793629732,0.0,0.0,0.0,0.0
0.020444277710715036,-0.0690546669077394,0.7417545478356204,0.0020950150525426694,-0.5173071224269297,-0.002669579794747755,0.8557930972741126,0.005857715981283462,-0.9103960012815571,1.0547919408553432,-0.16962645904509688,-0.7486202716886264,0.7907459113282417,-0.1069015084288419,0.7295313273343806,0.9533713736684087,0.2331075414689825,0.6906939892024404,1.067344314523061,0.0,0.0,0.0,0.0
0.022815285114880606,-0.07052676838358407,0.7415751353022682,0.00015248593496046487,-0.5181332625284508,0.0002548742605396488,0.8552998503734082,0.0028210542122310265,-0.9207016262555902,1.0714035411041165,-0.1729273749516302,-0.7515141452035209,0.8097025422172488,-0.06680271354354808,0.7282956642416273,0.9449789510479123,0.17776802863702584,0.6733114598850828,1.0880457848887943,0.0,0.0,0.0,0.0
0.025856923133747774,-0.07142491929934362,0.7410638272746237,-0.0006360946772684805,-0.5197342769206618,0.0010568294844866416,0.8543270801565166,0.0034563324807955014,-0.9270194072346898,1.0886506290723401,-0.1728397432033723,-0.7591157761206735,0.8337701271141147,-0.0532344335186489,0.7368278940551378,0.9444291113177764,0.13216364541422101,0.6638258388453174,1.1131769764350588,0.0,0.0,0.0,0.0
0.029899587747684152,-0.07098012369476185,0.7408550980066922,0.0015251588406453556,-0.5243714744275068,-0.0036371178939500082,0.8514804766233098,0.014004139002638975,-0.9102609379457579,1.0948922820913376,-0.16286559001493828,-0.7664244366771621,0.8572219743019177,-0.11297747298562771,0.7797596791964909,0.9558204175608707,0.06754378616615113,0.6678848484928676,1.140330862077146,0.0,0.0,0.0,0.0
0.0338502001118016,-0.07013842617830145,0.7398623181233979,0.003492484275132678,-0.5293110281231925,-0.008417378528011348,0.8483789164043818,0.023431335748385233,-0.8944431494700097,1.1006028048533314,-0.15361702141367906,-0.7716481456548777,0.8756291696777667,-0.20208058451481004,0.8300585323825386,0.9740530012855929,0.0012557014763630997,0.674874542030549,1.1654651053834626,0.0,0.0,0.0,0.0
0.03636097874714839,-0.07031181251043947,0.7395510053823313,0.00445275476942059,-0.5335384250870457,-0.011818182152729267,0.8456815313705291,0.03211410300030716,-0.8753834486415739,1.09583851364225,-0.14449147273449847,-0.7698251093966095,0.8839496697967542,-0.29779271879553343,0.8830874104312487,0.9798320727357652,-0.04939016408328963,0.6781394219599848,1.1866383418741606,0.0,0.0,0.0,0.0
0.035709626746063663,-0.07363098985591247,0.7402549948531542,0.0036259413625306055,-0.5293739916214134,-0.007533751856207015,0.8483473770378596,0.03004139807423952,-0.8934487031977875,1.1032457559248547,-0.14801641631134835,-0.7881568750568558,0.9088640842483907,-0.16943355759090295,0.8358962032637725,0.9534551943689393,-0.04321213176382952,0.6505175689533294,1.202500526991704,0.0,0.0,0.0,0.0
0.03399479386189479,-0.0781149814646018,0.7413887177937845,0.0012261921984631561,-0.5242668314032561,-0.0015203850747899197,0.8515518036927092,0.0273277416105448,-0.9133004918759898,1.1054868650953147,-0.1519863747953931,-0.8019863070482545,0.9275783857350729,-0.04239538142585092,0.7874901490685988,0.9155422063459835,0.00280513865224577,0.6355652718387665,1.2061873364747293,0.0,0.0,0.0,0.0
0.03271267142842339,-0.08149140535386462,0.7421335109131786,0.0006224471876194286,-0.5250648611497091,-0.0011650261578369386,0.8510611886694087,0.03541310357928255,-0.8949627867843978,1.0796639316595094,-0.14324179867726974,-0.7978579456153747,0.9255729768238884,-0.04094125460890222,0.7958858833164635,0.8949962921758596,-0.014210720283456893,0.6271170657424968,1.2154410728226896,0.0,0.0,0.0,0.0
0.031367999007968064,-0.08516490078919109,0.7417895466830305,4.6331698122823806e-05,-0.5250016567912116,-0.00046525951179912585,0.851101076108733,0.04337321157811695,-0.8840090533925076,1.0572408733075673,-0.1351568310328322,-0.8017588507718126,0.9298113346004052,-0.016296397763819435,0.7890867189146754,0.8839322937854692,-0.0295491584344936,0.6231914711897163,1.2084624383462899,0.0,0.0,0.0,0.0
0.02972179629146064,-0.0889235617555275,0.7407150493989945,-0.0002901071382939135,-0.5246461657519833,0.00011488265164975572,0.8513203294891807,0.05171921651147291,-0.8745745746760718,1.0332473278706578,-0.126802818795558,-0.8090437205488961,0.9346668744082397,0.012650312825577624,0.7751956281702171,0.8808259730867662,-0.040290394725995174,0.6223310883684692,1.1909579932916659,0.0,0.0,0.0,0.0
0.027740127215205846,-0.09241113970775612,0.7391289983028865,-0.0003190518035008002,-0.5244365990845253,0.00022943393056460947,0.851449410773579,0.06034073481333441,-0.8634057973489502,1.0056061458154122,-0.11801751416709022,-0.8160684270658056,0.9359517411228493,0.03536671005549294,0.7592841023696622,0.885400419594694,-0.050275655277927114,0.6228573498888439,1.1677145202905923,0.0,0.0,0.0,0.0
0.025392604989395343,-0.09551692633109304,0.7371026852662511,-0.00025856750296241647,-0.5242416608756523,0.0002001103588462618,0.8515694769665175,0.06820749496651413,-0.8518412744034103,0.9754243300039666,-0.10981677926370284,-0.8217294278312258,0.9325123106567762,0.05437121100955884,0.7403915247819454,0.8964844875358157,-0.059600599322772826,0.6238768551357328,1.140898535592643,0.0,0.0,0.0,0.0
0.022831135802554064,-0.09837679870411728,0.7350407173453133,-0.00033848037752710734,-0.5238880444314166,0.00037878258277093804,0.8517869797411881,0.07488941870974301,-0.840787237792508,0.9444601415861215,-0.10269882030426183,-0.8256941554106911,0.9258130138705717,0.07404589196718853,0.7196220360956748,0.9081513635533888,-0.07028307921740325,0.6242477536753214,1.1122740250714775,0.0,0.0,0.0,0.0
0.020096047212293397,-0.10092271022959151,0.7330115926325927,-0.0005735696757012827,-0.5234349287698188,0.0007342361784172584,0.852065142614575,0.08030938119033972,-0.8300582872642905,0.9129759721377257,-0.09675569435305627,-0.827468008378567,0.9155628036547158,0.09297900366217501,0.6980076569779883,0.9199266307538897,-0.08509107584683108,0.623781076046713,1.0822451702206233,0.0,0.0,0.0,0.0
0.01728039928779575,-0.1029748094282607,0.7309474244355092,-0.0008614262714869867,-0.5230561415271278,0.0009925477552612412,0.8522972167058188,0.08469616829123348,-0.8191798841840473,0.8812986561518024,-0.09177138435392433,-0.8268864089688872,0.9014926475113917,0.10753185985276507,0.6769032944241218,0.9337083533448675,-0.10888954693925171,0.6222760372106104,1.050715015998352,0.0,0.0,0.0,0.0
0.01506242483478194,-0.10446137972564355,0.7286663073351092,-0.001105314499299302,-0.5227206442066561,0.0011465709106478791,0.8525025464919052,0.08799686141368195,-0.8123987313551301,0.8566888728661443,-0.088141455103561,-0.8279681476175413,0.8902907564632963,0.11758229005524397,0.6572906646697171,0.9507186621977337,-0.14425205597358476,0.6207956183729527,1.0186153678192402,0.0,0.0,0.0,0.0
0.013738899512405856,-0.10516796831725173,0.7265930472013613,-0.0012808790126206371,-0.522590450569938,0.0011905276369555036,0.8525820564414958,0.08969732792800864,-0.8100867769820865,0.842482090887365,-0.08635585511981837,-0.829606195248675,0.8828247584836914,0.12238455306478595,0.642470559031526,0.967913397150376,-0.18657402088331274,0.6189291735518883,0.9892467448311371,0.0,0.0,0.0,0.0
0.013774423706118925,-0.10516434239804716,0.7265390145573251,-0.001323114652722002,-0.5225859753669098,0.0012011935886799144,0.8525847200433477,0.08968021685858436,-0.8101358523287652,0.842337017374475,-0.08638847761972954,-0.8296578405185219,0.8828211937242535,0.12238145843763361,0.6424609932235792,0.967889990783384,-0.1865883774259234,0.618927152429624,0.9892382159776382,0.0,0.0,0.0,0.0
0.013774423706118925,-0.10516434239804716,0.7265390145573251,-0.001323114652722002,-0.5225859753669098,0.0012011935886799144,0.8525847200433477,0.08968021685858436,-0.8101358523287652,0.842337017374475,-0.08638847761972954,-0.8296578405185219,0.8828211937242535,0.12238145843763361,0.6424609932235792,0.967889990783384,-0.1865883774259234,0.618927152429624,0.9892382159776382,0.0,0.0,0.0,0.0
0.013774423706118925,-0.10516434239804716,0.7265390145573251,-0.001323114652722002,-0.5225859753669098,0.0012011935886799144,0.8525847200433477,0.08968021685858436,-0.8101358523287652,0.842337017374475,-0.08638847761972954,-0.8296578405185219,0.8828211937242535,0.12238145843763361,0.6424609932235792,0.967889990783384,-0.1865883774259234,0.618927152429624,0.9892382159776382,0.0,0.0,0.0,0.0
0.013982275148276843,-0.10542168471854589,0.7264296638083532,-0.00156686963963011,-0.5225229918892924,0.0014211537572762789,0.8526225707712604,0.08993835446391046,-0.8118018164332239,0.8441180801265379,-0.08625233280357093,-0.8312257238305057,0.8856382987030351,0.12667976461316827,0.6415145541749718,0.9669372598938059,-0.18256006895569024,0.6197974227507076,0.9912972714405741,0.0,0.0,0.0,0.0
0.014660322247513255,-0.10564252095736679,0.7262800161441065,-0.0016851028928598017,-0.5225733568800223,0.0015404835997307582,0.8525912701978975,0.09038108142942006,-0.8152382012504427,0.8500985230376387,-0.08608248513315676,-0.8350089377093998,0.8927493749980073,0.1299607103026842,0.642302490978899,0.9664907872968899,-0.18068913896620656,0.6215511271516944,0.9930168045778922,0.0,0.0,0.0,0.0
0.01584242459327543,-0.10575924030437213,0.7261124146715224,-0.0016855307788528715,-0.5227929748200602,0.0015597471275139916,0.8524565863747454,0.09083518592990313,-0.8203466192268372,0.8604392464729694,-0.08603985527111667,-0.8405016924613575,0.9036951332804868,0.13196612415051487,0.6451817843140428,0.966601681628858,-0.18148026479586607,0.6245128206370455,0.9939719756381848,0.0,0.0,0.0,0.0
0.01755026973088698,-0.10578338722436055,0.725953840829476,-0.0015681458354665418,-0.5231933054829807,0.0014822474215150166,0.8522113053456944,0.09132061804273735,-0.8269506468461769,0.8750100069926463,-0.08610451190964565,-0.8476064793179429,0.9184816579016613,0.13280731928676034,0.6504100279588979,0.9668836524865563,-0.18495300638750378,0.6289098531691508,0.9939176854781315,0.0,0.0,0.0,0.0
0.019787935083317783,-0.1058113070166686,0.7258391538419852,-0.0013039908276506974,-0.523771237814224,0.0012802334725135946,0.8518570015259209,0.09213859088242733,-0.8344628725282872,0.8930542670407479,-0.08597140209813771,-0.8565269784493049,0.937442264711149,0.13270634876236434,0.658326706257657,0.9665598638238039,-0.19095598962994045,0.6348218325833017,0.9927891325387623,0.0,0.0,0.0,0.0
0.022286245077419612,-0.10616141548103089,0.7258152103389931,-0.0008420933969074731,-0.5245339810112756,0.0007434760081942157,0.851388771881917,0.09459127031800703,-0.8397956985215193,0.9098141863428247,-0.08420807568290965,-0.8670066591519344,0.9594519276445004,0.1318692512319214,0.6690152849502864,0.9644286620168007,-0.1988804456780102,0.6412055726491117,0.9914319392273567,0.0,0.0,0.0,0.0
0.02416017284340215,-0.10642541061944558,0.7256889101994831,-0.0009727453308713395,-0.5245949866695645,0.0008017966663718311,0.851350991571506,0.0794213815460212,-0.8519182789220049,0.9014040921424037,-0.08396117580562537,-0.876130037759821,0.9768702687152361,0.1363945965059966,0.6735432225904818,0.9618852665870371,-0.19859922234075056,0.6464374010628886,0.9910554005745237,0.0,0.0,0.0,0.0
0.025755665652715556,-0.10665271730102265,0.7255369847383419,-0.0010254879510997153,-0.5247880549199921,0.0007230394623977879,0.8512320030412915,0.0597856233273591,-0.8702647208128839,0.8925597799588376,-0.08339865763702861,-0.8834430369596209,0.991019225177988,0.139430682764256,0.6778962100287876,0.9604944867207927,-0.19969575604023188,0.650573015868385,0.9911347979764212,0.0,0.0,0.0,0.0
0.027039720360350985,-0.1069334385077328,0.72539528338628,-0.0009990923316483377,-0.5250825210686207,0.0005578110719912863,0.8510505488685982,0.041172056043363894,-0.8911582484566024,0.8850811276744407,-0.08242142816983636,-0.8891087649420285,1.0022208128570957,0.14173006038887792,0.6819489597194894,0.9595117688287489,-0.20127722325836736,0.6537638448415614,0.9917930770457094,0.0,0.0,0.0,0.0
0.027960397161932833,-0.10731458081987622,0.7252880932686301,-0.0009415133520188166,-0.5253846320976708,0.000375394106236985,0.8508642435708931,0.02492808490266632,-0.9127352515318472,0.8783991160253812,-0.08107391393695265,-0.8933102707225239,1.0106025237572944,0.14412681303171093,0.6851839522609672,0.9583515841562015,-0.20207210722578742,0.6560690909912442,0.9930587729069015,0.0,0.0,0.0,0.0
0.02850487930048977,-0.10781669320408771,0.72523012300272,-0.0008671749103182865,-0.5256594439219594,0.00019499735075904212,0.8506946332259093,0.010686146652970668,-0.9341375194966378,0.8718117764253246,-0.07934981377779303,-0.8961640106583264,1.016310331177743,0.14689141713757264,0.6874635319342882,0.9567532735591546,-0.20160566021837767,0.6575420546889518,0.994905445909269,0.0,0.0,0.0,0.0
0.02869014646488825,-0.10845223036445598,0.7252252204491021,-0.0007686841332752571,-0.5259079570424887,6.932095766568583e-06,0.8505411393907089,-0.002376963676120305,-0.9548371473963742,0.8649010137500499,-0.07719847520734936,-0.897803976466045,1.0195833441507807,0.14999521878630837,0.6888883238266825,0.9546391594407061,-0.19989018405110973,0.658221896041229,0.9973244708596956,0.0,0.0,0.0,0.0
0.028537863923898503,-0.1092367820276587,0.7252715413191685,-0.0006342683322269518,-0.5261375734055377,-0.00020459936127659707,0.850399206075427,-0.014990867732640807,-0.9741207591727707,0.8576692332898003,-0.0745484655451843,-0.8983777681988622,1.020673835357237,0.15337357704213517,0.6895934487164014,0.9519678406731329,-0.19702489503614676,0.6581228257402976,1.0003475192933264,0.0,0.0,0.0,0.0
0.028050845304754497,-0.11019516194648585,0.7253696338728484,-0.0004597139661663805,-0.5263423449621634,-0.0004477238634927904,0.8502724999117297,-0.02759907076106459,-0.9907356184125576,0.8506727298756599,-0.07132122804409913,-0.8979995702147665,1.0197291138713755,0.15708078068398218,0.6896134273702592,0.9486177185982757,-0.19291293855777575,0.6572305598886918,1.0040306217518447,0.0,0.0,0.0,0.0
0.027200818954824756,-0.11136380202676678,0.7255300959391375,-0.0002535975820283362,-0.5264961140753254,-0.0007174841588056956,0.8501771949236996,-0.040293408254356115,-1.0027759565222334,0.845176638390773,-0.06743547426370541,-0.8966992061716578,1.0167097907085703,0.16134068398462478,0.6888489780296114,0.9443030035227437,-0.18713973777639858,0.6555168137544486,1.0084137532103947,0.0,0.0,0.0,0.0
0.025938326074370237,-0.11278585754765558,0.7257776421355909,-3.0678492435843384e-05,-0.5265696042458761,-0.0010015217265690129,0.8501314297785977,-0.052815012111716346,-1.0080217278515613,0.843200478210257,-0.06280796912450348,-0.8943660877614188,1.0113793872093657,0.16644858140154198,0.6871968509997917,0.9385684843631296,-0.1791384223916959,0.6529885406672501,1.013459821317564,0.0,0.0,0.0,0.0
0.024232749628219672,-0.11449206009605604,0.7261460631213269,0.00020786831602815373,-0.5265746033998788,-0.0012960432249777393,0.8501279104446474,-0.06478876104470079,-1.0050843553367894,0.8469022365301612,-0.057373749218977796,-0.890705020448224,1.0033986720335395,0.1725112722915989,0.6848363619750847,0.9309421598365225,-0.16870475210291114,0.6497733497616973,1.0189928146199616,0.0,0.0,0.0,0.0
0.022100566279260672,-0.11647431365240114,0.7266312438179993,0.0004358795040719163,-0.5264665265554144,-0.0015861456581892173,0.850194266369567,-0.07645646694877999,-0.995613489781265,0.8544584935517369,-0.051209804452158475,-0.8858795378723471,0.9929148751976116,0.17953738950714443,0.6817552174921065,0.9212286439612063,-0.15567999733233448,0.6458703750905582,1.0248537111248794,0.0,0.0,0.0,0.0
0.01960052554858922,-0.11870822508453786,0.7272360487368384,0.0006381940182400144,-0.5262443353609252,-0.0018682412660322389,0.8503311130868404,-0.08832860524524047,-0.9822310510370278,0.8643676154591875,-0.04440925072001981,-0.8799773406115718,0.9801782079392675,0.187378252589048,0.6782753808229679,0.909231647586482,-0.14033396095430478,0.6414489156767873,1.0307288168544602,0.0,0.0,0.0,0.0
0.016811283639347974,-0.12115961842641779,0.72795398728574,0.0007975447153175792,-0.525922070931692,-0.0021425139247478768,0.8505296872322738,-0.10104799789813149,-0.9674869570937843,0.8761391202144917,-0.03707753110470759,-0.8731077614700603,0.9655197225739716,0.19587903745032229,0.6747709558326369,0.8948716346665659,-0.12307798039402283,0.636702651967198,1.0363465732281232,0.0,0.0,0.0,0.0
0.01383517715291032,-0.12375556545030651,0.7286792783596968,0.0009192782037701034,-0.5255670440746667,-0.0024334192230098194,0.8507482092729237,-0.11536478419816243,-0.9537031807493903,0.8905635776168916,-0.02936358949228768,-0.8654845146776526,0.9492498873386246,0.2045968187180592,0.6713156310715704,0.8793294613291173,-0.10499604129812323,0.6314199694532313,1.0421942026151267,0.0,0.0,0.0,0.0
0.010860392411587344,-0.12619030743049234,0.7290997970711186,0.0011080945215815746,-0.5255080204806148,-0.0028193662969068496,0.8507832530737548,-0.13250252366579862,-0.9432769713339278,0.910649563921183,-0.021917196802183722,-0.856539644088138,0.9306671396900285,0.21169668324059684,0.6676279979601496,0.8675929217176411,-0.09003111269364698,0.624871139859217,1.0500048580901238,0.0,0.0,0.0,0.0
0.008350587883712466,-0.12810818558071171,0.7291220648329754,0.0015607412321734136,-0.526151692120574,-0.003417618997471033,0.8503824321126648,-0.15256679029776038,-0.9380902760544169,0.9415717882535175,-0.01546276757681432,-0.846053173982755,0.911062302083931,0.21507940758769148,0.6652137535650742,0.8632150947393762,-0.08298838257987667,0.6181959272364609,1.0594332111380356,0.0,0.0,0.0,0.0
0.006785653387170614,-0.12931467085665765,0.7289441508240887,0.002493175103173222,-0.5277963849931077,-0.004279309219092197,0.849356490278799,-0.17333436289001733,-0.9409004503671983,0.9908603661121229,-0.010490003213296135,-0.8340988168368535,0.8929714842192769,0.21355527773694719,0.6668472267222033,0.8659513882760039,-0.08689011639294077,0.613930365189771,1.0682777354582111,0.0,0.0,0.0,0.0
0.006434279435537091,-0.12969837968108938,0.7287046448273289,0.00384677887841899,-0.530077689616701,-0.005051213500287718,0.8479253095084823,-0.19116477872400023,-0.9556647702492075,1.0602466640385153,-0.008230436962825839,-0.8231527570674967,0.8804604551284648,0.20808008584605311,0.6724335424589865,0.8734529228933264,-0.09982683195309203,0.6134219837441864,1.0745975655174123,0.0,0.0,0.0,0.0
0.006443694450515294,-0.1297453366988967,0.728686655602759,0.0038641400450907843,-0.5300796674020237,-0.005050550050078252,0.8479239981111889,-0.19118870362580187,-0.9556979423126514,1.0602511498933627,-0.008176872214517744,-0.8231536487552638,0.8803854419472107,0.20811414740205555,0.6725421251699712,0.8732718903526884,-0.09987194422280808,0.6133183228362686,1.0747610404689178,0.0,0.0,0.0,0.0
0.006443694450515294,-0.1297453366988967,0.728686655602759,0.0038641400450907817,-0.5300796674020234,-0.005050550050078249,0.847923998111189,-0.19118870362580187,-0.9556979423126514,1.0602511498933627,-0.008176872214517744,-0.8231536487552638,0.8803854419472107,0.20811414740205555,0.6725421251699712,0.8732718903526884,-0.09987194422280808,0.6133183228362686,1.0747610404689178,0.0,0.0,0.0,0.0
0.0063472423345488915,-0.131173250912677,0.731862862646226,0.0022089508886243966,-0.52809176472667,-0.0033570395247281945,0.8491778016702229,-0.19160108242932763,-0.9586232209752121,1.066149192905004,-0.008273481320754277,-0.8232721516415098,0.8883249859202634,0.14972347322979052,0.6467025816000842,0.9362667017530633,-0.06559562091446763,0.6312955623658676,1.0520563174070916,0.0,0.0,0.0,0.0
0.0069956350703922286,-0.13329323551315744,0.7356746141854568,0.0014585044555630654,-0.5273261339328477,-0.0025767126825982176,0.8496578027582286,-0.1876483833706702,-0.9535001041471383,1.0695591877530815,-0.004598044411470067,-0.8222785702427822,0.9005859202998904,0.10155475538617816,0.6327118534147952,0.9855805904199183,-0.040157771685202494,0.653725992435949,1.0250349537563375,0.0,0.0,0.0,0.0
0.00775637757697078,-0.13593370424114645,0.7393367329660964,0.001282989312934376,-0.5270655304755341,-0.00236828415898059,0.8498203761696405,-0.18082226971922685,-0.9445142669923765,1.069545668864545,0.0016419666811522769,-0.8218518960618595,0.9139713945614358,0.07060026763409062,0.6226910156361631,1.0240329039946028,-0.01867260521182025,0.6753257937660218,0.9999561300321081,0.0,0.0,0.0,0.0
0.008516370652705123,-0.1389162024814714,0.7426496215422972,0.0014015246179542602,-0.5269243205419701,-0.0024837131323006494,0.8499074227933328,-0.1723930507054634,-0.934643881261749,1.0677855168733261,0.009443849764982741,-0.8230345679925467,0.9283995867102571,0.05071057241432629,0.6148759350899867,1.0558625742433618,0.0013555562206107735,0.6948257400215213,0.9780901518810902,0.0,0.0,0.0,0.0
0.009244872986271763,-0.14206019377840196,0.7455884010866292,0.0016639326589383662,-0.5267871846164065,-0.0027641342188215105,0.8499910899615636,-0.1632699886536524,-0.9249867469145228,1.0651339216229732,0.018005748306702797,-0.8255577631303954,0.9432422025274094,0.03652773324852472,0.6087222251632073,1.0838967693523058,0.02067709954675587,0.7121422139976991,0.9593713523162707,0.0,0.0,0.0,0.0
0.009845113544024928,-0.14517569748145648,0.7481664097369911,0.0019631980520034703,-0.5266251710350576,-0.0030751384561334386,0.8500897709119788,-0.15423446830481424,-0.9156953418373165,1.0614170882738097,0.026555230565018628,-0.8283512791767028,0.9568515710289291,0.025100267648686798,0.6034950473586977,1.1095250309371638,0.039507489696809714,0.7272653878091164,0.9434757310376932,0.0,0.0,0.0,0.0
0.010266514239591778,-0.14811831729762145,0.750399182523028,0.002258644165795312,-0.526468711598167,-0.0033558216697336684,0.8501848814790929,-0.1457687444815673,-0.9066552577598751,1.0564603140937072,0.034584143173608466,-0.830610529714028,0.9681421101416621,0.014802542271539125,0.5989579976706103,1.1331251655050214,0.057419500232862276,0.7402369061906893,0.9301436501857834,0.0,0.0,0.0,0.0
0.010469066445912783,-0.15083871620086733,0.7522784150790337,0.002535326614240119,-0.5263271934142938,-0.0035909136596641543,0.8502707586002711,-0.13801249731666035,-0.8978288608757863,1.0501103205163576,0.041928836961629114,-0.8321109616692767,0.9767140167191005,0.00464096477902589,0.5952357018306909,1.1540518384873446,0.07419049031012469,0.7508704187260954,0.9195458115979204,0.0,0.0,0.0,0.0
0.010386959382657459,-0.15336356248733252,0.7537798701625446,0.002778071616094991,-0.5261773073568558,-0.003775510728802537,0.850361963554063,-0.13088366102275867,-0.889174162311758,1.0419907189806399,0.04864924796366284,-0.8328979326571158,0.9823534821273724,-0.006298672622023556,0.5927556820079284,1.1702918624995071,0.0900695616848002,0.7587516188061499,0.912205902177171,0.0,0.0,0.0,0.0
0.009927165286287962,-0.15578102650749134,0.7548701414107738,0.0029556317141423913,-0.5259504662789379,-0.0038956828041812656,0.8505011433958377,-0.12416232667279416,-0.8807263856242924,1.0315721576315622,0.05495387239707988,-0.833237297543405,0.9849652278853446,-0.0190925328015347,0.5925444269748159,1.177889861103849,0.10588267722967777,0.7632869414755379,0.9088584138967584,0.0,0.0,0.0,0.0
0.009019628838332305,-0.15820472943038486,0.7555551065818603,0.003037229073631858,-0.525574184475122,-0.003934289713723845,0.8507332562074397,-0.11757658971758414,-0.8724453034861684,1.0183761315192024,0.06110866030118352,-0.833400626410786,0.9846337704764497,-0.034698890628936406,0.5969601675524054,1.1708078715476973,0.12260308431779775,0.7641671573142857,0.9098129815652152,0.0,0.0,0.0,0.0
0.007637925874680377,-0.16066463108328322,0.7559307354547987,0.0030315037785838325,-0.525077327604503,-0.0038821022831675048,0.8510402689076568,-0.11105589394586092,-0.8636228791376485,1.001709638990708,0.06713984664732288,-0.8328293060146689,0.9808826576625389,-0.05222730924573229,0.6031121141173117,1.155032549965075,0.14024588461393567,0.7618604591593001,0.9142302717341999,0.0,0.0,0.0,0.0
0.0057885602176580755,-0.1631858610527133,0.7561166719093317,0.0029346501437750726,-0.5244704717283267,-0.0037246758432317425,0.8514154326199772,-0.10457073645050725,-0.8537200373704528,0.9811855014687453,0.07305222834545406,-0.8310785870541065,0.9735072809846993,-0.07112210212998663,0.6095090012799812,1.1346135916163107,0.15887008841668387,0.7570541196631108,0.9208739207884337,0.0,0.0,0.0,0.0
0.0034872818228035753,-0.16578168165829746,0.7561976552047576,0.0027134960205351553,-0.5237242203783187,-0.0034308103484491552,0.8518766386448344,-0.09816983691410336,-0.8426320825782077,0.9567747221185889,0.07880270796634914,-0.827995170122285,0.962535972906426,-0.09174487426776268,0.6154133072740426,1.1120313920965963,0.1786837987740632,0.750230489168278,0.9287163209879631,0.0,0.0,0.0,0.0
0.0007916157503000667,-0.16841687741803865,0.7562113391769543,0.0023105472508072426,-0.5227996122784714,-0.00294729628298474,0.8524473826679874,-0.09208579073602896,-0.8307909487885654,0.9291026608351332,0.08419607957059912,-0.8236937326186802,0.9483188415415521,-0.11566205417821078,0.6207291520286689,1.0890822165844467,0.19982413725014864,0.7417702545786986,0.9369982249159527,0.0,0.0,0.0,0.0
-0.002121246826541761,-0.17097028323846838,0.7561296223066512,0.001648094521997878,-0.5216586874306506,-0.002188615489828552,0.8531498740402034,-0.08686791302196789,-0.819693542923716,0.9004048537164644,0.0887803460607992,-0.8189088963697707,0.9322084128436705,-0.1463362281907007,0.6265854125148883,1.067596366720674,0.222293468340518,0.7321535711211449,0.9452885773438052,0.0,0.0,0.0,0.0
-0.004727039645810281,-0.17326308537257523,0.7557875175315191,0.0006271066150602603,-0.5200972292152293,-0.0010182775897187076,0.8541062240791158,-0.08343136678230084,-0.8145060928718756,0.8781860065003767,0.09196801517453652,-0.8175169403793786,0.9201082795922892,-0.18969703465515358,0.6362759696193356,1.049036682616211,0.24642558783980872,0.7218901365443996,0.9537813091339165,0.0,0.0,0.0,0.0
-0.006906876654095406,-0.1751333010392445,0.7550328123640357,-0.000666038751763896,-0.5182825627251287,0.00046729490380779915,0.8552090523392084,-0.08196356971630134,-0.8157702461924051,0.8638966742879495,0.09357339386932141,-0.819745102844997,0.9125501353974028,-0.24679717117018876,0.6487081478878398,1.035506052361408,0.2702696433931069,0.7106532330875749,0.9637760375164321,0.0,0.0,0.0,0.0
-0.008426531407970827,-0.1763450684465937,0.7536568827202604,-0.0016797111828158711,-0.5167136642339211,0.001697045474978848,0.8561549438045387,-0.08183287023450371,-0.821677236855782,0.8573796754700657,0.09413089095791378,-0.8254432777623477,0.9099059232272886,-0.3031419697653246,0.659669544129313,1.0293319756134638,0.28681189792280953,0.6979206055906139,0.9775238429812547,0.0,0.0,0.0,0.0
-0.008399035101051035,-0.17637261873525645,0.7536136446682989,-0.0017428051761473773,-0.5167298635704605,0.0017287178021736735,0.8561449773603368,-0.08185725538153843,-0.8216897966009991,0.8572611961855263,0.09413985709837741,-0.825453364113135,0.9099491324064156,-0.3031473102206065,0.6596496302571011,1.0293201131251777,0.2868178653465123,0.6978538327225766,0.9774548157241569,0.0,0.0,0.0,0.0
-0.008399035101051035,-0.17637261873525645,0.7536136446682989,-0.0017428051761473773,-0.5167298635704605,0.0017287178021736735,0.8561449773603368,-0.08185725538153843,-0.8216897966009991,0.8572611961855263,0.09413985709837741,-0.825453364113135,0.9099491324064156,-0.3031473102206065,0.6596496302571011,1.0293201131251777,0.2868178653465123,0.6978538327225766,0.9774548157241569,0.0,0.0,0.0,0.0
-0.008772093738863729,-0.17670441510360388,0.753858636299427,-0.0012440264819528351,-0.5177251007626528,0.0013004934315350221,0.8555451368310428,-0.07987685251479051,-0.8106606940721681,0.8446854052128411,0.09548924378005239,-0.8182097334766202,0.9016737637960475,-0.3090729224636121,0.6643038726701537,1.0290198427365929,0.284823879242768,0.6997788525432408,0.9780989387069573,0.0,0.0,0.0,0.0
-0.008887304434018535,-0.1772781222486588,0.7539123195305152,-0.0010295392579636115,-0.518211166266603,0.001122527524851103,0.8552513473461935,-0.07797669858744927,-0.8050550951562511,0.8379723852775094,0.09713624198392426,-0.8158522849484168,0.8994188287998953,-0.3089834001164573,0.6662200863850049,1.0284911219135635,0.2873580672826392,0.7009269493012591,0.9800514593254107,0.0,0.0,0.0,0.0
-0.008585244546874357,-0.17790998028168994,0.7538874405594452,-0.0009115098967258466,-0.5184709210524462,0.0010311169207474192,0.8550941526935101,-0.07622905536063154,-0.8036515433096761,0.8373691230900911,0.09890933073406258,-0.8172632826663158,0.902912115606803,-0.3074067464619648,0.668040021865717,1.0277835564981155,0.2918415291322409,0.7026924198612603,0.9822091619250707,0.0,0.0,0.0,0.0
-0.007803412110748242,-0.17852221529755033,0.7538245376273945,-0.0007932285510222474,-0.5186526351142092,0.0009234987056607819,0.8549841881740816,-0.07457965053776118,-0.8056563481423413,0.842649466867585,0.10081121358225542,-0.821801445512961,0.9117780029309888,-0.3067827930356006,0.6710576595368182,1.0270543208121992,0.2969217226283643,0.7056267244295195,0.9842086164405914,0.0,0.0,0.0,0.0
-0.00651204709345558,-0.17911434065839915,0.7537504571560725,-0.0006053237781036573,-0.518847933569807,0.0007104663790557962,0.8548660425183522,-0.07281075015724431,-0.8103133894554853,0.8532570757786164,0.10302665584036493,-0.8290716055303563,0.925721465655803,-0.308544684918766,0.6761188132190608,1.026273122373037,0.30187722255173044,0.7100308461344861,0.9859067253866891,0.0,0.0,0.0,0.0
-0.004680174704245475,-0.1797084914732519,0.7537520233671209,-0.00011094505938063568,-0.5193401886623891,-5.76535289344578e-05,0.8545675823522553,-0.0697307851799818,-0.8147461904751512,0.8667663199593212,0.10661060710039369,-0.8378738647233419,0.9436075252183915,-0.3183106233361128,0.686059674031207,1.0254014593766427,0.30302466459682065,0.716197384927934,0.986898526523588,0.0,0.0,0.0,0.0
-0.002531157093581222,-0.17997688130759687,0.7535101656772797,2.913156839272381e-05,-0.519072842847172,-8.376794085544085e-05,0.8547300017858498,-0.06946683394827101,-0.8281936087160937,0.8901964888713477,0.08667837637954295,-0.835350546846746,0.9131037486383857,-0.3216177615314087,0.6915973874672526,1.0250816973828742,0.3078369363109217,0.7216013283830816,0.9876391287765498,0.0,0.0,0.0,0.0
-0.0004087846132149798,-0.18044797100891244,0.7532413791269729,0.00026346845000284287,-0.5189419116467108,-0.0003927540701714171,0.854809375630072,-0.06794158931900665,-0.8394963034360357,0.9108954257159233,0.06420401549351942,-0.842483151295756,0.890153109148458,-0.32661955339632814,0.6981176545481321,1.0249164314724293,0.312082827527853,0.7267689059272306,0.9892297234489831,0.0,0.0,0.0,0.0
0.0014080629053087746,-0.18117059918396275,0.7530238929146745,0.0004954092836436632,-0.5188732910448735,-0.0007723120038198224,0.8548506687978155,-0.06549572873264617,-0.8478017346650852,0.9267736858472232,0.04357430494593773,-0.8548284637375639,0.8731220360348196,-0.3298565059241175,0.7041120527679186,1.0239623418088195,0.317420708147868,0.7314482239873633,0.9911907152760989,0.0,0.0,0.0,0.0
0.0028647875890673146,-0.182096819149788,0.7528717471116435,0.0006976635515844695,-0.5188119995286266,-0.0011374077479070115,0.8548873193083941,-0.06246449978251845,-0.8535094753902092,0.9381446397057548,0.025645669061058633,-0.8695317813838659,0.8594818675372217,-0.33035055646933636,0.7089635122010463,1.0221127780545387,0.3240039056501187,0.7354839858665044,0.9932756879848299,0.0,0.0,0.0,0.0
0.004008995529542449,-0.18314877390032427,0.7527663201288073,0.0008755911586436012,-0.5187438795559564,-0.0014706085678162382,0.8549279841447458,-0.05911479584670831,-0.8572701446227153,0.9460041653847229,0.009949975165433375,-0.8850892201581403,0.8475347663052398,-0.32854946511446154,0.7126641016605345,1.0196825491840775,0.33138299277694777,0.73885620745894,0.9954448532625879,0.0,0.0,0.0,0.0
0.004928087139217002,-0.18426373865684956,0.7526861136476133,0.0010491961778669797,-0.5186757083036845,-0.0017904063818530113,0.8549685393323191,-0.05558967158011375,-0.8596719950634202,0.9514233084676439,-0.004212821381065605,-0.9006119342798862,0.8363191374910701,-0.3254580611168811,0.7155587453272269,1.0169944045259194,0.33898503704888033,0.7416643522144022,0.9976982845052778,0.0,0.0,0.0,0.0
0.005697996410830224,-0.18541560256178127,0.752599641731023,0.0012306352433938581,-0.5185999161726793,-0.002111813687632489,0.8550135394983733,-0.051941312941480355,-0.8612736183728683,0.9552979473379257,-0.017377335444754533,-0.9152439935563096,0.8254177434620881,-0.3216932086914185,0.7178308537660206,1.014341169846431,0.3465412381976599,0.7439261277433263,1.0001861162572532,0.0,0.0,0.0,0.0
0.006397837485451001,-0.18662068391299208,0.7525089586381964,0.0014431077609589026,-0.5185142723045499,-0.002466457515102593,0.8550641984341291,-0.048067761740734925,-0.8623743218615157,0.9582949319010294,-0.02973254946653077,-0.9277283242321109,0.8151232963790156,-0.3177367240968972,0.7198707145722707,1.0116135461211226,0.35391824136461725,0.7458312092491736,1.0028362707177079,0.0,0.0,0.0,0.0
0.00704421384862052,-0.18792101378918916,0.7524015543373312,0.001678222581570733,-0.5183794851957447,-0.0028417961707238397,0.8551443252993529,-0.04389656404090031,-0.863262249831837,0.9606820342413462,-0.04139689800902962,-0.9361478157117097,0.8064260742581354,-0.31300249882919634,0.7214618399639225,1.0087152143971232,0.3615004693503213,0.7473078231863589,1.0057656948853577,0.0,0.0,0.0,0.0
0.007657018855049407,-0.18932136005924766,0.752253114195031,0.0019375795261301423,-0.5181776723834732,-0.00324348188319278,0.8552646522884593,-0.03940372895483901,-0.8641873446266621,0.9627417562518201,-0.052571536698598494,-0.9379853820163059,0.8009408189195009,-0.30752859463102006,0.7225207067160728,1.0058018240231155,0.3692580527810482,0.7482389232536807,1.0091466102456028,0.0,0.0,0.0,0.0
0.008317202487602222,-0.19077788987995656,0.7521243133805924,0.002289346357381405,-0.5180349005457648,-0.003789581035377185,0.8553480226114817,-0.03441253363721432,-0.8644391205820541,0.9644128223200135,-0.06307491638442052,-0.9316267749661545,0.8008849104121125,-0.3037204661992784,0.7245283118568376,1.002681372479735,0.3760403595651351,0.7492815778399577,1.0124460408477292,0.0,0.0,0.0,0.0
0.009066537019418093,-0.19239414330194482,0.7519742149226246,0.0027468567361225073,-0.5178776309238052,-0.00448671244727916,0.8554385329047515,-0.02865708977435921,-0.8645193503692428,0.9661674384384679,-0.07275152464820722,-0.918580694783842,0.8038353878185598,-0.3007329141977874,0.7271327688372476,0.999270674657788,0.3824131107119866,0.75019641586905,1.0160765377775545,0.0,0.0,0.0,0.0
0.009760530475737784,-0.1943819058203762,0.7518006760549553,0.0032057605497849613,-0.517498578742691,-0.005145039225732564,0.8556625927723835,-0.02204010360847102,-0.8648510684174829,0.9673139487437435,-0.08159597715928747,-0.9015726535075707,0.8076465153967486,-0.2934782890606932,0.72822856195797,0.9945913199129134,0.39116467121050674,0.7503985737366669,1.0202820283404126,0.0,0.0,0.0,0.0
0.010423772839568246,-0.19676846204232473,0.7515847655453822,0.003648100563564034,-0.516822521435525,-0.005728841239158224,0.8560656242820178,-0.014569189571777722,-0.8660177856983873,0.9684090126502882,-0.09040901421615063,-0.8823104797810721,0.8106354800904829,-0.28121664085348314,0.7274473699146238,0.9884897544757454,0.4026477661259418,0.7497173418695531,1.0250826529243338,0.0,0.0,0.0,0.0
0.011178422068894809,-0.1993447509776136,0.7513022135157541,0.004146377620169829,-0.5160171427441624,-0.0063878754970024395,0.8565444010636089,-0.0064020410633968145,-0.8677920795073222,0.9701185411312895,-0.10015595677888371,-0.8616325590876396,0.8120918250805339,-0.2684984432629789,0.7264946332852107,0.9820201966100406,0.41438201055301516,0.7485249536857065,1.0303709410394402,0.0,0.0,0.0,0.0
0.01216397215000473,-0.20167023380139343,0.7507923922547828,0.004836179304146459,-0.5154193913006734,-0.00740143970915992,0.8568924559892058,0.002016225150601361,-0.8697348801810024,0.9731687916506699,-0.11171391897928543,-0.8395862004157648,0.8112246576812299,-0.2634575680601116,0.7275531514313164,0.9786929277732636,0.42166120643047433,0.7468534940830714,1.0371825462644275,0.0,0.0,0.0,0.0
0.013225709434672866,-0.20353181930605507,0.7500270798984225,0.005592499057716454,-0.5148586135446205,-0.008574470226301822,0.8572139817300806,0.009684617650384524,-0.8731254970911734,0.9781524761375845,-0.1253934113697507,-0.8159669452596405,0.8055151371842879,-0.26418471542858823,0.728659855014206,0.9791306892105734,0.42393391085098076,0.7436926775498826,1.0452499674642448,0.0,0.0,0.0,0.0
0.014175056285062503,-0.20475366570563705,0.7490786344482357,0.00636255551294438,-0.5142480401516206,-0.009833203094919318,0.8575615308562156,0.015982750142555083,-0.8779866722704474,0.9845131701764995,-0.14024585827494396,-0.7912543416705666,0.7911844918293462,-0.27046964822442865,0.7290113525395729,0.983129245753559,0.4192520359176971,0.7381615093136562,1.0536119297956854,0.0,0.0,0.0,0.0
0.014689518858527859,-0.20520381360252704,0.7481724276161147,0.007076040274318175,-0.5135020457689768,-0.011073657210880624,0.8579877346215898,0.020303639247927743,-0.8832409883625842,0.9902150104671058,-0.15292758016777797,-0.7677175769437745,0.7636639332479598,-0.28104772786077437,0.727901936311245,0.9889882721734887,0.4057363082230998,0.7295297877396312,1.0601706420212589,0.0,0.0,0.0,0.0
0.014729598036326907,-0.2052706542164629,0.7481529246604631,0.007157106107615725,-0.5134674263183165,-0.01107637328180389,0.8580077458258349,0.02047468560760018,-0.8832726338293118,0.9902474265394541,-0.15294543118883408,-0.7676802337265465,0.7636809349962528,-0.2811138205954653,0.7279190409954951,0.9888362688501631,0.4058061590659897,0.7294559646642645,1.0603203864367132,0.0,0.0,0.0,0.0
0.014729598036326907,-0.2052706542164629,0.7481529246604631,0.007157106107615725,-0.5134674263183165,-0.01107637328180389,0.8580077458258349,0.02047468560760018,-0.8832726338293118,0.9902474265394541,-0.15294543118883408,-0.7676802337265465,0.7636809349962528,-0.2811138205954653,0.7279190409954951,0.9888362688501631,0.4058061590659897,0.7294559646642645,1.0603203864367132,0.0,0.0,0.0,0.0
0.01638207601366408,-0.2073075816302557,0.750517026592279,0.004580008788820034,-0.5147335647958634,-0.0070417733881581405,0.8573090424226184,0.016036643604180417,-0.8818604226097815,0.9960941190938628,-0.15702969933464794,-0.7556577421288325,0.7703569454041457,-0.22055667701149062,0.734145072884016,0.9597876437162954,0.3292142990205762,0.7092934580663668,1.0608110673368205,0.0,0.0,0.0,0.0
0.018504396831871935,-0.20946736257111093,0.7517687541074991,0.002601026472136318,-0.5165092844681153,-0.00398994368054562,0.8562683423255545,0.014436953535607725,-0.8802853036206011,1.0024688668672634,-0.15843182374705883,-0.7499040390962513,0.7834252520765187,-0.17368423239604047,0.7416658966883465,0.9401595059938654,0.24984125425193893,0.6892577258728113,1.0722109146867331,0.0,0.0,0.0,0.0
0.02101477096287225,-0.2116653815326088,0.7520796139557318,0.001396659050255515,-0.5184234649432551,-0.0022303408527943086,0.8551199833470197,0.016118965216593572,-0.8793827275970674,1.0102541473630091,-0.1569652089142641,-0.7525444949759933,0.8047263304545398,-0.14111599606000316,0.7501324507302103,0.9293288910397783,0.18339166462607726,0.6743315436336625,1.0905977474923962,0.0,0.0,0.0,0.0
0.023823407263780436,-0.21378663366454742,0.7517580513876577,0.0009502154854114909,-0.5201906608851156,-0.001685254813925259,0.8540479689892425,0.020519914493214553,-0.8798109696545521,1.020187380719283,-0.153247642418643,-0.7630385204028367,0.8334150346510029,-0.12205958568776959,0.7598553706987288,0.9247257208042879,0.13533470755417681,0.6668918549319889,1.1124502047092757,0.0,0.0,0.0,0.0
0.026524918099178715,-0.21553200740641237,0.7510952576628662,0.0009527818522159704,-0.5219103873030989,-0.0018792766751161516,0.8529977187255835,0.025705411961778328,-0.8800266726597232,1.029594953327718,-0.14883714402097534,-0.7748679399079764,0.8607082926030004,-0.1137501642210127,0.7702210017617614,0.9250227201438391,0.09874712121739623,0.6629809111372543,1.1364814771575262,0.0,0.0,0.0,0.0
0.02883898761299136,-0.21704633436575854,0.7504295743393361,0.0010471646373895933,-0.523365225275405,-0.002203327338806132,0.852104975790709,0.030589148818493048,-0.8800598091780527,1.0372840220213062,-0.14465521789624225,-0.7855190536884108,0.8840027822983307,-0.10804138077241533,0.779295150838232,0.9259144822067078,0.06952028615846959,0.6590701331615653,1.1611595543373738,0.0,0.0,0.0,0.0
0.030581548287239115,-0.21863701115290377,0.7499339451901561,0.0010387742417239218,-0.5243976906669086,-0.0023095023924213725,0.8514696995019772,0.035138753604602474,-0.8796057259804733,1.04184678049015,-0.14069054770817788,-0.7945980792925722,0.9032940927756875,-0.09774175966302195,0.7850795163546126,0.92448150153723,0.04528504151352307,0.6532976450387968,1.1848658325137422,0.0,0.0,0.0,0.0
0.03164854949302297,-0.22056924474934095,0.7495963805838423,0.0006987904123204005,-0.5247190604973379,-0.0017278920384467594,0.8512734188448822,0.038930792484191686,-0.8803841867745217,1.0437695233171278,-0.13743051268699885,-0.8028760597713848,0.9196852294804699,-0.0739340712296735,0.7838080676428818,0.9192769753068446,0.027023906413674977,0.6447766990619873,1.205707162666738,0.0,0.0,0.0,0.0
0.03211272709200441,-0.22270257781236102,0.7492804298233888,0.00027492029360303355,-0.5247008703110716,-0.0009381262288332291,0.8512861099729132,0.042723219527621106,-0.8803067328245157,1.041727293863352,-0.13405256274030747,-0.810133706100361,0.9326589376191432,-0.04552739307004393,0.7784938367871995,0.9131370729216746,0.012151004577476567,0.6356421947766071,1.221178548705069,0.0,0.0,0.0,0.0
0.03207014299504051,-0.22475524117532314,0.748756158362046,0.00011409381803606946,-0.5248417745923749,-0.0006355630086068799,0.851199562197367,0.04740701725436642,-0.8767623917121806,1.034186111627272,-0.1295719276742226,-0.8160055354133157,0.941152764640209,-0.024981727477684092,0.7732097425326294,0.9107448140605331,-0.002756925037465597,0.6290978118386489,1.2273746575769044,0.0,0.0,0.0,0.0
0.03152497713266925,-0.22672364993857577,0.7479209523435115,0.00016504133586107942,-0.5250486040943411,-0.0007098934452519553,0.8510719312439095,0.05269940384204686,-0.8708021905447948,1.021866583909054,-0.1243092205463767,-0.8210345168008959,0.9456195597046911,-0.01016825534535393,0.766567881696166,0.9129785761594271,-0.016531145425770617,0.6278187690023782,1.2181612537488313,0.0,0.0,0.0,0.0
0.03045125583857848,-0.22883063978336265,0.7468472169100172,0.00020234861583879205,-0.525075660492151,-0.0007309651168724506,0.8510552129584583,0.05815919291111629,-0.8638547288936749,1.0054481696619346,-0.11875553693575217,-0.8256034158529394,0.947021222524426,0.006161558770647814,0.7562553297218575,0.9174223284997988,-0.02829521100513149,0.6281636760392186,1.1994113645044737,0.0,0.0,0.0,0.0
0.028872159996783355,-0.23117868109674386,0.7456468789119014,0.00013761663151942412,-0.5248655346973073,-0.0005496724532422908,0.8511849678000466,0.06369512875016303,-0.8559956346984031,0.9849686066778105,-0.11300738425782404,-0.8295931858878615,0.9457566745438091,0.02612146335445006,0.7422728145911548,0.9221360898979565,-0.038623100355804324,0.6285146749418763,1.175064817689152,0.0,0.0,0.0,0.0
0.026847720153161815,-0.2336843566249366,0.7443788055216098,-1.6206735746093902e-05,-0.524496198762687,-0.00023271259402418338,0.8514127571663948,0.06924200011444236,-0.8468018017790617,0.9604652209100986,-0.10710831730698904,-0.8325196973992738,0.9415198269253886,0.04767338849195599,0.7258822622088559,0.9267920683334006,-0.04901198364699167,0.6285756270975148,1.1474131840858688,0.0,0.0,0.0,0.0
0.024474645646025226,-0.2361305534981507,0.7430515841422757,-0.00024942503510344175,-0.5240460654025806,0.000156974122112349,0.8516898698953458,0.07439250902715676,-0.8365363221052468,0.9329115468405651,-0.10146853619205858,-0.8338144731982352,0.9337797758260276,0.068260247996873,0.7081546502945774,0.9320553318787295,-0.06119842849771591,0.6284773822650296,1.1177385695800972,0.0,0.0,0.0,0.0
0.021892189247953546,-0.23827487263241268,0.7416427827509476,-0.0005703289630826922,-0.5235543831667202,0.0006100380689985194,0.8519918488139094,0.07857243502327967,-0.826246952446772,0.9042419655027996,-0.09671761082979131,-0.8332294246031561,0.9224525336022092,0.086270851588855,0.6896598668535793,0.9388936023863411,-0.07732687197320337,0.6282721604861841,1.0866373005726992,0.0,0.0,0.0,0.0
0.019224214775268457,-0.2399849541735332,0.740126504965416,-0.0009085365867030821,-0.5231520097505766,0.0009307799928550566,0.8522383955817809,0.08195222820063355,-0.8157488318067537,0.875147885223352,-0.0927094520214131,-0.8307586718896943,0.9077332606145386,0.09964698758426398,0.6715217104450897,0.9483947476898056,-0.10146009566184011,0.6275117893220867,1.054167093591105,0.0,0.0,0.0,0.0
0.017127715543821878,-0.2412456461521856,0.7383662053148004,-0.0011798769277153141,-0.5227911876566148,0.0011290931948353847,0.8524592114274905,0.08457350961314411,-0.8090376009987448,0.852533648997738,-0.08972513014580977,-0.8303534335983469,0.8962931327659087,0.10889124792853583,0.6547310318707791,0.961089103128791,-0.13609412940063706,0.6271515837210196,1.0211034448283947,0.0,0.0,0.0,0.0
0.015896374411699894,-0.24186434095863674,0.7367413894378254,-0.0013588632458525298,-0.5226301304498349,0.0012121249978747002,0.8525575822134579,0.08593762733531003,-0.8065137231914103,0.8395798126906384,-0.0882442669583928,-0.8310712679971627,0.8891084100978942,0.11342915935432794,0.6422796275914738,0.9742808730809057,-0.1768162838097735,0.6267850725316478,0.9904603150359604,0.0,0.0,0.0,0.0
0.015921102303234385,-0.24186365925613712,0.7367030035477208,-0.0013950776276280188,-0.5226226176887344,0.0012219810072546132,0.8525621150397228,0.08592701794032916,-0.8065541474787844,0.839453155083096,-0.08826956674544653,-0.8311093107874349,0.8891013449055044,0.11342219182219249,0.6422593665660649,0.9742542531329501,-0.17683149267961557,0.6267859572889755,0.99045370356438,0.0,0.0,0.0,0.0
0.015921102303234385,-0.24186365925613712,0.7367030035477208,-0.0013950776276280188,-0.5226226176887344,0.0012219810072546132,0.8525621150397228,0.08592701794032916,-0.8065541474787844,0.839453155083096,-0.08826956674544653,-0.8311093107874349,0.8891013449055044,0.11342219182219249,0.6422593665660649,0.9742542531329501,-0.17683149267961557,0.6267859572889755,0.99045370356438,0.0,0.0,0.0,0.0
0.015921102303234385,-0.24186365925613712,0.7367030035477208,-0.0013950776276280188,-0.5226226176887344,0.0012219810072546132,0.8525621150397228,0.08592701794032916,-0.8065541474787844,0.839453155083096,-0.08826956674544653,-0.8311093107874349,0.8891013449055044,0.11342219182219249,0.6422593665660649,0.9742542531329501,-0.17683149267961557,0.6267859572889755,0.99045370356438,0.0,0.0,0.0,0.0
0.016115255888333,-0.24213326075858263,0.736616658615849,-0.0016528408537521276,-0.5225342450603139,0.0014577952496651805,0.8526154500648988,0.0861817294591799,-0.808303351039034,0.8412991031540268,-0.08813780546726,-0.832681024017751,0.8919317316891957,0.1179821472182685,0.6412267720709481,0.9730771138625994,-0.17238825816063735,0.6277849527407958,0.9923290373544521,0.0,0.0,0.0,0.0
0.016781455084816897,-0.2423664240502728,0.7364840578907429,-0.0017777656052529007,-0.5225695693201898,0.0015855944469936117,0.8525933207926355,0.08663072892912349,-0.811747726114976,0.8472669249934778,-0.08795726576912041,-0.8364315602340274,0.898995678441184,0.12139543962058605,0.6419914256979768,0.97244768892912,-0.17021586525274732,0.6296464762806596,0.993906728516239,0.0,0.0,0.0,0.0
0.01795524883291223,-0.2424924118892649,0.7363258390983816,-0.0017771517345638943,-0.5227874317267307,0.001605972724203453,0.8524597138937947,0.0870936061673857,-0.8168047146387801,0.8575513847043887,-0.08789715238717931,-0.8418508710519699,0.909834824519998,0.12339026708448865,0.6449065666811898,0.9724676103676435,-0.1708500441398137,0.6326971713152326,0.9947693010691134,0.0,0.0,0.0,0.0
0.019658874482743106,-0.24252289267633134,0.7361710314282219,-0.0016511450973825375,-0.5231989810764908,0.001522426772989299,0.8522075933345761,0.08759045123621825,-0.8233035428474157,0.8720382571060239,-0.08793759631476826,-0.8488443548595563,0.9244680464846641,0.1240820763961482,0.6502356048317021,0.9727413298171989,-0.17430716811749317,0.6371774202103946,0.9946507781331957,0.0,0.0,0.0,0.0
0.021895610059154653,-0.24255743708937832,0.736057502360382,-0.0013695183147436549,-0.523800541384968,0.0013054277327946091,0.8518388422247687,0.08843406829723784,-0.8306376013547724,0.8899510394220549,-0.0877607835545305,-0.8576249806565093,0.9432464610745566,0.12368940512235964,0.6583332841354059,0.972462400809726,-0.18043508592914295,0.6431729466674455,0.9934641692145226,0.0,0.0,0.0,0.0
0.024386143260940484,-0.24292376467933008,0.7360354697414614,-0.0008880995495424324,-0.5245924615607516,0.0007525588892978373,0.8513526849713575,0.09093237639789209,-0.835702234936199,0.9064467935401909,-0.08592562412981421,-0.867931957666243,0.9650268869742052,0.12255270453231407,0.669214446258947,0.970359623664995,-0.18847376709963487,0.6496426585665093,0.9920756977033349,0.0,0.0,0.0,0.0
0.026260889024044064,-0.24320538721223475,0.7359074057617292,-0.0010059845089471155,-0.5246565182046004,0.0007938053073740448,0.8513130421729291,0.07582871618934085,-0.8484502093237226,0.8992554045902797,-0.08560035759673684,-0.8770872887634629,0.9824596267927755,0.126936902226657,0.6738306592663387,0.9678183047724642,-0.1881394995916715,0.6549086756841265,0.9916718319042409,0.0,0.0,0.0,0.0
0.027849368233722763,-0.24344867238208526,0.7357580332243152,-0.001049736402825761,-0.5248570670451996,0.0007060168200676384,0.8511894376497191,0.05628237054147327,-0.8671973389665734,0.8911996730190231,-0.08497918217434079,-0.8843462742746286,0.9965218675102753,0.12988112548778155,0.6782595366832265,0.9663950471111321,-0.18915386237477935,0.6591007013935773,0.9917247915721148,0.0,0.0,0.0,0.0
0.02912204810113249,-0.2437436006052913,0.7356198123957528,-0.0010161569425614612,-0.5251599182438101,0.0005347859502186955,0.8510027859526725,0.03774167328242575,-0.8883170642188117,0.8841985054824153,-0.08395250813209276,-0.889931329942802,1.0076009572742313,0.13210605908647252,0.6823702390103021,0.9653793307565676,-0.19065010501962285,0.6623432073024876,0.9923653818074533,0.0,0.0,0.0,0.0
0.030029255638222917,-0.24413664087600118,0.7355165928674033,-0.0009540014935417411,-0.5254665333539671,0.00034832795258288773,0.8508136640144844,0.021543369356808475,-0.9100133280725337,0.8778032119682863,-0.08256412424435969,-0.8940613649757436,1.015865386273006,0.1344587799083406,0.685631057980178,0.9641864266486305,-0.19133739045913634,0.6646893864286902,0.9936113035650357,0.0,0.0,0.0,0.0
0.030560084719966737,-0.24464729646534844,0.735463127890385,-0.0008770972786415473,-0.5257418643581845,0.0001649202074147425,0.8506436948351932,0.007323256816080311,-0.9314689459439733,0.8713890869756239,-0.08080873355340992,-0.8968602015625464,1.0214734750035839,0.13720258734426108,0.6879102003326188,0.9625599400861014,-0.19075257929009834,0.666194444005795,0.9954266378055,0.0,0.0,0.0,0.0
0.03073323965207623,-0.24528673198541132,0.7354629407210153,-0.0007763044819807102,-0.5259899820192359,-2.6503025470749662e-05,0.8504904088020891,-0.005734460398729855,-0.9521810908781397,0.8645901757867975,-0.0786362819654065,-0.898454389059978,1.0246612043361811,0.14028408279048105,0.6893264473156828,0.960435612875813,-0.18894572760251713,0.6668999100205403,0.9977988669233457,0.0,0.0,0.0,0.0
0.030571501197384356,-0.24606960848658868,0.7355138566439267,-0.000638336510589215,-0.5262212078626286,-0.0002428293543599798,0.8503474430819441,-0.018352414424085736,-0.9714525946821737,0.8574393975468693,-0.07597556078237458,-0.8989827203711104,1.0256748200465589,0.14361772417684132,0.6900301467808072,0.9577841365231987,-0.18604912188925943,0.6668216703654164,1.0007581775061551,0.0,0.0,0.0,0.0
0.03007794497044772,-0.24702051501497524,0.7356165640784713,-0.00045837962793076286,-0.5264306498274306,-0.0004926370249826421,0.8502178062821005,-0.030968455550145366,-0.9880403350991158,0.8505054186658588,-0.07274764663452679,-0.8985553054976523,1.0246587240426797,0.14725334509330956,0.6900606918773196,0.9544870648234077,-0.18197649261214963,0.6659469729850768,1.0043581743320749,0.0,0.0,0.0,0.0
0.02922364380854077,-0.24817666551026013,0.7357825171223856,-0.0002459872692148627,-0.5265900039647072,-0.0007702921192354096,0.850118999825768,-0.04366989543228186,-1.0000435693190608,0.8450474939642801,-0.06887057377776085,-0.897207866860537,1.0215792405836153,0.1514361448489564,0.6893077433078528,0.9502468640758317,-0.17628702620961337,0.6642497221510621,1.0086338409789914,0.0,0.0,0.0,0.0
0.027958123842747047,-0.2495827915075113,0.7360375754569084,-1.7824456509071126e-05,-0.5266659848255929,-0.0010620889698778873,0.8500716511430063,-0.056193156981085714,-1.005241469710289,0.8430670291907553,-0.06425964637773424,-0.8948435994134194,1.0162135314391094,0.1564975696571029,0.6876480476708745,0.9445881245008197,-0.1683655691358137,0.6617392356205215,1.0135431758681306,0.0,0.0,0.0,0.0
0.026250408727517487,-0.25127092380908533,0.7364162437012618,0.00022470883243469805,-0.526669688031774,-0.0013639466945616944,0.8500688965394916,-0.06815640802445391,-1.002228548333763,0.8467058674662553,-0.05884673668631264,-0.8911715651672988,1.0082290713967355,0.1625570545238217,0.6852576733819108,0.9370296452246357,-0.1579919040208213,0.6585458459221281,1.0189090162440886,0.0,0.0,0.0,0.0
0.02411612566350975,-0.2532340963515301,0.7369155472878569,0.0004526078259072971,-0.5265526708625506,-0.0016584773155926087,0.8501407703472784,-0.07981007087515586,-0.9926552756196554,0.8541379588394221,-0.05271128651984347,-0.8863636306032117,0.9977815380530293,0.16965637156503421,0.682107342133146,0.9273524251457902,-0.14495985994795754,0.6546735821227614,1.0245666831633042,0.0,0.0,0.0,0.0
0.02161403915360046,-0.2554485640532772,0.7375383882126408,0.000648540772060583,-0.5263117590461391,-0.0019401707234706776,0.8502892139867407,-0.09167129897800787,-0.9791347575597968,0.8638516255895792,-0.045948814521472425,-0.8805149347039085,0.9851297404322558,0.17765792640046826,0.6785123712628398,0.9153487458312736,-0.12951530835767472,0.6502938254913437,1.030201898394303,0.0,0.0,0.0,0.0
0.018823021938550413,-0.25788060409529656,0.7382762227967056,0.0007911673736979627,-0.5259559675910543,-0.002206433555602116,0.8505085689518415,-0.10439200612537491,-0.964216967778888,0.8753196500258779,-0.038669123334735794,-0.8737617917667576,0.9706285530901575,0.1864219240968669,0.6748234000856423,0.9009378376597397,-0.11202968838817311,0.6455913019147709,1.0355545835845905,0.0,0.0,0.0,0.0
0.015846093938556342,-0.26045411423113085,0.7390151073742278,0.0008845029306993416,-0.5255541762325406,-0.0024819226136847663,0.8507560552586392,-0.11874099932183088,-0.9502355589605628,0.8892965528742035,-0.031027669168745695,-0.8663315262761883,0.9545862939570253,0.19546393492101566,0.6710947453895548,0.885381612758603,-0.09363111541263655,0.6403176110982775,1.0411683009804011,0.0,0.0,0.0,0.0
0.012879447587295478,-0.2628472010888896,0.7394392519160727,0.0010466495496105942,-0.5254684639294878,-0.002853913958741836,0.8508076475416878,-0.13597262311788483,-0.9395408966099056,0.9088278480587048,-0.02369787853026181,-0.8575182140913157,0.9361814560927766,0.20272733360813963,0.6671899540185721,0.8738178620855339,-0.07859842581732986,0.6337746235423073,1.0487864937146139,0.0,0.0,0.0,0.0
0.010389432485522347,-0.26471464035478254,0.7394727909943443,0.0014931097843319068,-0.5261275452135977,-0.003458966757757607,0.8503973261597512,-0.15610701130927812,-0.9339136198246678,0.9390917836819649,-0.01733573544452601,-0.8470110659713084,0.9166659457661847,0.20595694413751225,0.6648490287364037,0.8696451525528963,-0.07191299724078026,0.6271946023610281,1.057967404325359,0.0,0.0,0.0,0.0
0.008852702127277033,-0.2658651305531447,0.7393138516501349,0.002452723954015641,-0.5278374704926744,-0.004359738848877968,0.84933066679961,-0.17683509357382288,-0.9359693111736054,0.9874653473845473,-0.01240217923569894,-0.8348429164189665,0.8985066382534402,0.2038301946367887,0.6669084608000342,0.8726425625795428,-0.07671328868904262,0.6230949400492276,1.0665147003507367,0.0,0.0,0.0,0.0
0.008520695206319541,-0.2662031515678935,0.7390993322184659,0.003853294754651672,-0.5302039362456417,-0.005191734656722318,0.8478454953589217,-0.19443928755496803,-0.9495720109228353,1.0553899394154145,-0.010115931622695907,-0.8235452102866875,0.8857405386651621,0.19744133065057223,0.6731386116587338,0.8803292938713856,-0.09080318538603932,0.6227365978525824,1.0725133801906135,0.0,0.0,0.0,0.0
0.008531562114968663,-0.2662494939243078,0.739080582974041,0.003866625020668269,-0.5302062730110554,-0.005189331738472313,0.8478439880702014,-0.1944631796795769,-0.9496048092254517,1.0553935616507732,-0.010067413307986002,-0.8235440460064662,0.8856686512888161,0.1974745132409492,0.673251607906662,0.8801492732415109,-0.09084592842416468,0.6226319352055968,1.0726782710438811,0.0,0.0,0.0,0.0
0.008531562114968663,-0.2662494939243078,0.739080582974041,0.003866625020668269,-0.5302062730110554,-0.005189331738472313,0.8478439880702014,-0.1944631796795769,-0.9496048092254517,1.0553935616507732,-0.010067413307986002,-0.8235440460064662,0.8856686512888161,0.1974745132409492,0.673251607906662,0.8801492732415109,-0.09084592842416468,0.6226319352055968,1.0726782710438811,0.0,0.0,0.0,0.0
0.008329346270592904,-0.26767160277501556,0.7421598372753155,0.002170947227951674,-0.5280745747884501,-0.003466149422528083,0.8491881512705601,-0.19497665312143278,-0.953196319650579,1.0611817414275162,-0.010221587422037532,-0.824056619859901,0.8932641560012204,0.14047418023145952,0.6469056348099089,0.9410142206301979,-0.0554981688944972,0.6397082941259182,1.050575367713945,0.0,0.0,0.0,0.0
0.00887317359093875,-0.2697555699066329,0.7458557708326558,0.0014189714890117506,-0.5272401973576148,-0.002674307384252585,0.8497108972410742,-0.19116514848781516,-0.9483804737488152,1.0641634782162157,-0.006659686611766822,-0.8231128507697328,0.9047799656951688,0.09369492316149682,0.6325016044131107,0.9890082405913491,-0.029880708173025898,0.6611643900783668,1.0242558063796396,0.0,0.0,0.0,0.0
0.009577483610367457,-0.27232633697081726,0.7494147092094667,0.001265695834447802,-0.5269665371114304,-0.002473918913359766,0.8498814896819745,-0.18453003320355527,-0.9396159809710218,1.0639458350633686,-0.0005825229389460245,-0.8226568898494664,0.9175747674974655,0.063568921852663,0.622454927953393,1.0268305511202027,-0.008856715414066706,0.6820100048040382,0.9997279152567726,0.0,0.0,0.0,0.0
0.010297898805789558,-0.2752202779930418,0.7526465219578092,0.0014017015482022082,-0.5268245816798623,-0.0025955956438477763,0.8499689160515586,-0.1763467125843035,-0.9299681666629208,1.0621314930307266,0.007005249258560492,-0.8237401357038273,0.9314588562356091,0.04403092577954306,0.6146833853444204,1.0583993602922388,0.010597671452433684,0.7009446725590908,0.9782147279070176,0.0,0.0,0.0,0.0
0.01099401537650506,-0.2782687839968042,0.7555236105471113,0.0016732000139870493,-0.5266878345976748,-0.0028753931312537153,0.8500522674535174,-0.16750275119585287,-0.9205462726743784,1.0595223781143108,0.015320873259183751,-0.8261253802277676,0.9457973292659387,0.029920643527698822,0.6085335829694645,1.0863506790526052,0.02938733897963236,0.7178422100265317,0.9596889188169926,0.0,0.0,0.0,0.0
0.011563958825496953,-0.28129406613610647,0.7580524198909034,0.001976242792758845,-0.5265216287179831,-0.003185597428449407,0.8501534690428606,-0.15872830897076387,-0.9114997520705775,1.0558943771455505,0.023639877494826933,-0.8288075657894763,0.9589796143856738,0.01839198879942736,0.6032570043458096,1.1119651358765115,0.047742761399315325,0.7326090401217181,0.9439064613081617,0.0,0.0,0.0,0.0
0.01195635497624639,-0.28415854450147693,0.7602446632673834,0.0022752482347574714,-0.5263558753979913,-0.0034729362840072633,0.8502542292708997,-0.15046804414439452,-0.902694624782166,1.0510373137286448,0.03148960963804755,-0.8310167053042604,0.9699437303078066,0.00787997973639172,0.5986462075600878,1.1355656062700104,0.0651848564370965,0.7452357636205794,0.930651688035556,0.0,0.0,0.0,0.0
0.012131030780352155,-0.2868157088430138,0.7620930744427783,0.0025573850205022936,-0.526201690839725,-0.0037221792214524084,0.8503478027966643,-0.1428543138894574,-0.8940641244013455,1.0447654942195939,0.03871274654866,-0.8325133397723543,0.978275292238422,-0.002547321904273951,0.5948392508412275,1.1564758603432153,0.08148926388028277,0.7555424378671093,0.9200929115846306,0.0,0.0,0.0,0.0
0.012022074705486713,-0.2892928182631118,0.7635786881722092,0.0028057534835041207,-0.5260393783120607,-0.003920557570544897,0.8504465470802892,-0.13582262699859748,-0.8855292430687015,1.0366687986260752,0.04535044041091995,-0.833285966580529,0.9837158352918614,-0.01371001756144946,0.5922475232968929,1.1726648012220857,0.09698269923784288,0.7631768107297249,0.9127130923214998,0.0,0.0,0.0,0.0
0.011536638348183439,-0.2916776748947269,0.7646742831480015,0.0029858531634934043,-0.5258046736223775,-0.004044759491588663,0.8505904830165961,-0.12917664854288882,-0.877090070521504,1.0261893155793158,0.05158633088101667,-0.8335352949694218,0.98612182412364,-0.026595224311796648,0.5918757971401442,1.1801687110260455,0.11259477085060517,0.7676225517377311,0.9091944640023694,0.0,0.0,0.0,0.0
0.010605789696497355,-0.2940835733533986,0.7653853664435699,0.003066859146420981,-0.5254238697066268,-0.004078726252906029,0.8508253143328797,-0.122644561922477,-0.8687194221026577,1.0128627980037601,0.05768835925284883,-0.8335461261125912,0.9855936453065016,-0.04217174797513547,0.596097149057245,1.172940713499493,0.12929744626352035,0.7685661365169697,0.9098382105399729,0.0,0.0,0.0,0.0
0.009204865065470889,-0.29654038288268486,0.7657980599903611,0.0030614500242557873,-0.5249161552234525,-0.004026572887298794,0.8511389100610783,-0.11612652137998312,-0.8597873886596604,0.9960614495279366,0.06371829113479224,-0.8328785129827682,0.9817523168891324,-0.05969852867005576,0.6020739419079554,1.1569776493018518,0.1469600799217145,0.766355033934586,0.9138681182803979,0.0,0.0,0.0,0.0
0.007341185482357731,-0.2990719904550166,0.7660238602948688,0.00296699381614666,-0.524283088754709,-0.0038812709606880257,0.8515300203335444,-0.10957971826394161,-0.8498297664029593,0.9754599149019888,0.0696999426486911,-0.8311790780813431,0.9744648107644669,-0.07872980236409356,0.608333281054789,1.1363537098964334,0.16554308394512388,0.7615815854250635,0.9200998389767899,0.0,0.0,0.0,0.0
0.005029689725155514,-0.3016879071911254,0.7661499163984997,0.00274488494498701,-0.5234979279308498,-0.0036009645996015085,0.8520149166022258,-0.1030860992836371,-0.8387351117318005,0.9510217624759589,0.07555572286459909,-0.8282407577525837,0.9637096493073641,-0.09959264683582864,0.6141093928182716,1.1135876963668345,0.18533533758647372,0.7547755552465463,0.9274834881074223,0.0,0.0,0.0,0.0
0.0023260793520279953,-0.3043467567593635,0.7662206878747578,0.0023288227845779455,-0.5225295383603747,-0.003114495827153561,0.8526123140332154,-0.09693401825581881,-0.8268957365395918,0.9233367217049555,0.08102968497075491,-0.8240582110801646,0.9497268230434228,-0.12378502803927405,0.6192713769137087,1.0905174245383158,0.20662336965554914,0.7464216545799895,0.9352017123659063,0.0,0.0,0.0,0.0
-0.0005939267216527656,-0.30691873875113274,0.7662064693290567,0.001634413945730311,-0.5213385247124221,-0.0023289376335772715,0.8533452099773152,-0.09171197801861192,-0.8158499085038716,0.8946813040801355,0.08563055019285368,-0.8193389733654897,0.9338247189368154,-0.15484439206232553,0.6249410163753726,1.0690161676913932,0.22942607450758484,0.7369983059655935,0.9428110991557426,0.0,0.0,0.0,0.0
-0.00320882506208878,-0.30922451305645093,0.7659224663454126,0.0005659500081017743,-0.5197126310006073,-0.0011148515457100239,0.8543402237897066,-0.08832953078795418,-0.8108765273013923,0.8726555916389354,0.08878345932287944,-0.8180590853094474,0.9219487743979269,-0.19882876584140885,0.6343969118514442,1.0506075617262867,0.25397411688433014,0.7268564861181009,0.9506663086930984,0.0,0.0,0.0,0.0
-0.005407655265114926,-0.3111050900296523,0.7651650636022556,-0.0007609849736163994,-0.5178403733351906,0.00039124018931996634,0.8554768352077422,-0.0868776851022957,-0.8124326410643439,0.8585300340053109,0.0903969180737461,-0.8205321258092535,0.914583215710654,-0.25641919861146334,0.6464009555307512,1.0375357443351496,0.27792884939150486,0.7153382940391029,0.9606103554371543,0.0,0.0,0.0,0.0
-0.006943233476920881,-0.31231911791930056,0.7637782802915766,-0.0018000015373635778,-0.516222210268439,0.0016196144245537412,0.8564512633356021,-0.08673801064203435,-0.8186205098291369,0.8522070544037592,0.09098680541741588,-0.8264713178806349,0.9120990364596495,-0.31355107725450454,0.6567479485982912,1.032317976385047,0.29433069245882776,0.7022722505982012,0.974374989958416,0.0,0.0,0.0,0.0
-0.0069156648184490145,-0.31234869435405627,0.7637343888439481,-0.001864955570073953,-0.5162386640382169,0.001652928048511864,0.8564411430574929,-0.08676194916621371,-0.8186334636325009,0.8520854472312509,0.09099716508151133,-0.8264820971616146,0.9121452697791179,-0.3135581958502055,0.6567271517089606,1.0323063303573277,0.2943381807815938,0.7022032515541223,0.9743022057173516,0.0,0.0,0.0,0.0
-0.0069156648184490145,-0.31234869435405627,0.7637343888439481,-0.001864955570073953,-0.5162386640382169,0.001652928048511864,0.8564411430574929,-0.08676194916621371,-0.8186334636325009,0.8520854472312509,0.09099716508151133,-0.8264820971616146,0.9121452697791179,-0.3135581958502055,0.6567271517089606,1.0323063303573277,0.2943381807815938,0.7022032515541223,0.9743022057173516,0.0,0.0,0.0,0.0
-0.007286532230604479,-0.31266803224998485,0.7639913335239705,-0.0013410984818362504,-0.5172565218866821,0.0012317684854113236,0.8558284727484547,-0.08483010702555842,-0.8074143071739913,0.8393273758086399,0.09228490242912914,-0.8191147989373577,0.9037879993579818,-0.3197853752128661,0.6615341270183456,1.0319796329293385,0.2922445226917477,0.7042671847206242,0.97485813867905,0.0,0.0,0.0,0.0
-0.007404746590622511,-0.3132252077941053,0.7640643341942506,-0.001095508372551968,-0.5177845755893804,0.0010347304862332427,0.8555097091652156,-0.08292482354714474,-0.8014335702060598,0.832275114627113,0.0939150084114571,-0.8164753196978991,0.901262752965057,-0.320304566795195,0.6637655970972873,1.0314429422959424,0.2944757038987891,0.7055686775226814,0.9766705071264645,0.0,0.0,0.0,0.0
-0.007110705130348388,-0.3138470218573867,0.7640576518283236,-0.0009512408498054776,-0.5180802219293664,0.0009202364442882654,0.855331007243015,-0.08115043416251289,-0.7996786981515578,0.8313436215818927,0.09569634531726585,-0.8176139404877387,0.9044663271667643,-0.3192801978226229,0.6658633635576665,1.0307253904933589,0.2986931155524765,0.7074496420808378,0.9786939931873643,0.0,0.0,0.0,0.0
-0.00634635511855639,-0.314465200228305,0.7640107353289304,-0.0008143909368558628,-0.5182826500612957,0.000794650068978369,0.855208629484122,-0.07945163953987311,-0.8013907086453309,0.8363027867405031,0.09763467398523103,-0.8219341049203215,0.9130587197535709,-0.31897221114214896,0.6690381150692012,1.0299454905296614,0.30366241106306535,0.7104418227501523,0.9805845709876139,0.0,0.0,0.0,0.0
-0.005084948502102705,-0.3150847160356075,0.7639493459737465,-0.0006186432237404992,-0.5184762761675591,0.0005765162384100564,0.8550915950709663,-0.07761642862322397,-0.8058508995044081,0.8466065220111744,0.09991154354470312,-0.8290754781417149,0.9267728771955522,-0.32067882501274436,0.674068699390372,1.0290504834871812,0.30875035905618775,0.7148305204361874,0.9822108580804518,0.0,0.0,0.0,0.0
-0.0033013856186404162,-0.3157319479306886,0.7639499942068739,-0.00015243785974771617,-0.5189096081887894,-0.0001473030493902537,0.8548290902828867,-0.07453155902099062,-0.8104746393247311,0.8600381879757756,0.10352078564815273,-0.8380054138729512,0.944607999338797,-0.32943718992914967,0.6834667935198457,1.0279882052788787,0.31061895850380816,0.7208361757556782,0.9832194363175369,0.0,0.0,0.0,0.0
-0.0011984331837949585,-0.3160428437174047,0.7637195582215536,6.0087557070985696e-06,-0.5186448008885213,-0.00018946844568088256,0.8549897862412796,-0.07414815799433785,-0.8236046103952814,0.883001272536407,0.0838461308309831,-0.8352404861060108,0.9136937575733234,-0.3326508394809857,0.6889286183708797,1.0275676749503053,0.3155424109974495,0.7261561051448472,0.9839555279755217,0.0,0.0,0.0,0.0
0.0008666473228331629,-0.31656165642069944,0.7634616513524223,0.00024016553123130154,-0.518495079972128,-0.0004918431235019675,0.855080436248869,-0.07254178490700164,-0.8347196714495162,0.9032930757473927,0.06156721455946994,-0.8422618702413608,0.890447909153193,-0.3371378249594095,0.695168076761906,1.0272488909500102,0.3201341516725311,0.7311990704177325,0.9855331982870824,0.0,0.0,0.0,0.0
0.0026307480201225174,-0.31732238008784247,0.7632567836230704,0.00046946177170715105,-0.51840767405374,-0.000863495771354883,0.8551330407970966,-0.0700391127377626,-0.8428762268891478,0.9188297622919829,0.041063032335942745,-0.854535435870179,0.8732161933617427,-0.33988411811068237,0.7008952567676371,1.0261539002191937,0.3257736788953533,0.7357703405660392,0.9874439570078478,0.0,0.0,0.0,0.0
