zhuoxili-jackie/tripod-support-walk/examples/trajectory_walking_sideways_sc_left_v0.15.csv
root_pos_x,root_pos_y,root_pos_z,root_rot_x,root_rot_y,root_rot_z,root_rot_w,FL_hip_joint,FL_thigh_joint,FL_calf_joint,FR_hip_joint,FR_thigh_joint,FR_calf_joint,RL_hip_joint,RL_thigh_joint,RL_calf_joint,RR_hip_joint,RR_thigh_joint,RR_calf_joint,FL_foot_joint,FR_foot_joint,RL_foot_joint,RR_foot_joint
0.0,0.0,0.72963,0.0,-0.5231245161092812,0.0,0.852256264656019,0.0,-0.81,0.872,0.0,-0.81,0.872,0.0,0.65,1.0,0.0,0.65,1.0,0.0,0.0,0.0,0.0
0.0004492053394106533,8.38365281943867e-05,0.7295650029451639,0.00021539964741370594,-0.5231991142343168,-0.00019584365838330376,0.8522104212650063,0.00018231027791272753,-0.8117394888932007,0.8760617216659818,0.00018231027791272753,-0.8125795184116177,0.8764819272586707,-0.003159580146634983,0.6520476616335691,1.0008839800253777,-0.003159580146634984,0.6503686901056478,0.9998177696360273,0.0,0.0,0.0,0.0
0.001367325236263717,0.00011263658552558006,0.7294578245742027,0.000327598593446156,-0.5233730576732315,-0.00030005558272315995,0.8521035413302664,0.0003210181291578701,-0.8156583510460766,0.8844157566312196,0.000321475446242577,-0.8170129278704847,0.885166198601643,-0.004770048304796552,0.6551594096557123,1.0016230912718809,-0.00475107058186475,0.6525765887114764,1.000100325319523,0.0,0.0,0.0,0.0
0.002774424111555412,4.057397510644724e-05,0.7293202158410867,0.0003620774881520174,-0.5236548273325311,-0.00032986196337417316,0.8519303855963319,0.0005635610812688039,-0.8215368889711218,0.8968526712424651,0.0005644096672651927,-0.8234270021670463,0.8982989059787707,-0.004764801778304065,0.6595486040038094,1.0019398452360126,-0.004738476047565685,0.6567275446918347,1.0008400157397104,0.0,0.0,0.0,0.0
0.004692728740204787,-0.00014294777281316092,0.7291743120712872,0.00032200684101678313,-0.5240591610952859,-0.00028873703543044244,0.8516817531300197,0.0009464325350085093,-0.8292047516582709,0.9132594449017413,0.0009475541031689372,-0.8317096869884651,0.9158420043526712,-0.0030493324280536894,0.6654475498918626,1.001546147854685,-0.003034620802528286,0.6630857926059472,1.0018121248387657,0.0,0.0,0.0,0.0
0.007140033290812383,-0.0004105821476807468,0.7290610548708357,0.00018147393649211243,-0.5246212448449086,-0.00015133388184081627,0.8513357114691273,0.0013505784328434122,-0.8384372687896303,0.9335019357883502,0.0013517848377898704,-0.8413373389215333,0.9373049636095663,0.0006307755473189658,0.6731178267017844,1.0000900704984133,0.0006289930130465183,0.6721841758548549,1.0025383898536937,0.0,0.0,0.0,0.0
0.010112538606999975,-0.0006790417668948953,0.7290374292853489,-0.00010902815450299606,-0.5253854854051108,0.00016084256785214653,0.850864298209865,0.001382059559175981,-0.8490194755253121,0.9574170855741403,0.001382828243772758,-0.851322592802776,0.9616262874041472,0.006721497135356398,0.6827016957785951,0.9972076671340269,0.006745489314690151,0.6847865046905056,1.0022631889782072,0.0,0.0,0.0,0.0
0.012651764214374094,-0.0008949398481400423,0.7288071099226998,8.77045812972489e-05,-0.5252931524766496,8.082618267711431e-05,0.8509213181817564,0.002044584435201482,-0.8615471270194075,0.9805775618019473,0.00593757320375478,-0.8539349871125762,0.9358691213337041,0.006744941680715108,0.6895921063371864,0.9953675224594792,0.006824313196017411,0.6911607100925526,1.0016654732615404,0.0,0.0,0.0,0.0
0.014984433916034608,-0.0012041175772971586,0.7284705285089157,0.00021269723402936845,-0.5253644805650479,6.554507812495573e-05,0.8508772608457384,0.002828192656165007,-0.8721702207821117,1.0003721539427581,0.013642125771987978,-0.8657742235644866,0.9164342199101859,0.008328478518837605,0.6954957768465334,0.9945526331932218,0.008466082470008636,0.6972289573078604,1.0028927936356193,0.0,0.0,0.0,0.0
0.016973348268961286,-0.0015131379817053948,0.7281570628073837,0.00027996751462372606,-0.5255842188586838,9.530457071406494e-05,0.8507415244490754,0.0035319303337896747,-0.8802404756929932,1.0160472867562365,0.021677490948900924,-0.8823135514990289,0.9029475759537582,0.01066337140211902,0.700661426187158,0.9940701706986164,0.01087569593041419,0.7030440538560582,1.0045613632101391,0.0,0.0,0.0,0.0
0.018536746563612903,-0.0017511763667812442,0.7279009000422654,0.0003266026643765564,-0.5258440587833506,0.0001308475279469138,0.8505809203431947,0.0040487501552817695,-0.8860614136907905,1.0277876233040633,0.02910012123090088,-0.9008816968907519,0.8928085388305924,0.012682656851854344,0.7048965698367241,0.9938461618881977,0.012977525173362942,0.7079564031750294,1.0060156081117797,0.0,0.0,0.0,0.0
0.019665336795582505,-0.001879800499647578,0.7277131594437815,0.0003586076808009974,-0.5260929462622445,0.0001683952056993339,0.8504269838949708,0.004278926891977151,-0.8899951251949084,1.0360275004666157,0.035878523480107234,-0.9201377894140673,0.8841613238511309,0.013966053753850112,0.7081225600730028,0.9938989974521688,0.014328858380684723,0.7117258410332666,1.007001725625659,0.0,0.0,0.0,0.0
0.02039009205902288,-0.001878894710379261,0.7275956559633597,0.00036749872041797436,-0.5263151400758072,0.0002208823767160073,0.8502894739338184,0.004135699011400222,-0.8923835052250546,1.0412861631671946,0.042289258247619546,-0.939276780500972,0.8759355640886209,0.014465163241027638,0.7103603827427174,0.9942447177639476,0.014865410982483587,0.7143962951487931,1.0074288676398864,0.0,0.0,0.0,0.0
0.02075029807431546,-0.001735210008023169,0.7275460492910755,0.00034284892666813533,-0.5265068639452803,0.00030275612503426864,0.8501707552085336,0.0035495965403065533,-0.8935149630884358,1.0440312368877507,0.048632105275346164,-0.9574212344586385,0.8677534839658214,0.014235574671890011,0.7116601382535631,0.9948986647561185,0.014637985475615935,0.716093620185681,1.0072556002005004,0.0,0.0,0.0,0.0
0.02076844234952254,-0.0014327007268755136,0.727562779792568,0.0002802320413268934,-0.5266592673416229,0.00042106117318287394,0.8500763261617609,0.0024623846165757,-0.8935980741964636,1.0445735953209752,0.055091729927089515,-0.9732014806147803,0.8599504895923145,0.013226975898366276,0.7120458423778407,0.9958846320983332,0.013595007384199179,0.7168618690436392,1.0064116009503372,0.0,0.0,0.0,0.0
0.02043698521349225,-0.0009459201954611198,0.7276505546973703,0.00018180146369486833,-0.5267555087060962,0.0005736180915208245,0.8500166304010144,0.0008140208550263587,-0.892718243435431,1.0429921472074895,0.06162696382029119,-0.9845674000349884,0.8536962056507186,0.011202492195390865,0.7115034983730371,0.9972290894649428,0.0114983785470292,0.7166169849061497,1.0047428633877469,0.0,0.0,0.0,0.0
0.0197238162392699,-0.00024009701112927306,0.7278246158336715,5.317122508115946e-05,-0.5267803088197538,0.000751971726227175,0.8500011399704759,-0.0014629382185360812,-0.8908045359085133,1.0391363594939997,0.06790883586818997,-0.9891036268369784,0.8510184025785765,0.007789919142111314,0.7100287678316487,0.9989267370212404,0.007983403712526954,0.7152317579116954,1.001984402649162,0.0,0.0,0.0,0.0
0.0186068143310469,0.000710293871758667,0.7281089814844425,-0.00010881686326069507,-0.5267531314022748,0.0009532299190863208,0.8500177751491491,-0.004417817797542417,-0.8875943430077453,1.0327193942775768,0.07353426657492215,-0.9852621974417359,0.8541402191767129,0.002831633929792016,0.7077430047759524,1.000879957660359,0.002931455214931142,0.7128300025093532,0.9978540871531308,0.0,0.0,0.0,0.0
0.017104164702078765,0.0018862687010357967,0.7284900625236844,-0.0002846916294475519,-0.5266487024749902,0.0011615060134425141,0.8500821807542294,-0.007957026763670235,-0.8832121945832456,1.0238560927394218,0.07881059569598932,-0.9747420777990425,0.8610387579548414,-0.003706136631192303,0.7046270419626179,1.0030442432311888,-0.003626112381583139,0.7093612129155648,0.9923866961949347,0.0,0.0,0.0,0.0
0.015262122743443008,0.0032557940073353283,0.7289607410206972,-0.0004634207860037253,-0.5264786539827266,0.0013707949707794402,0.8501871165001618,-0.01197404156243544,-0.8776733199784629,1.0126760121537228,0.08417997427418697,-0.960182331546439,0.8700542691398925,-0.011583494142383213,0.7008228261492387,1.0052722840876958,-0.011373801117190017,0.705082596484911,0.9856235931098033,0.0,0.0,0.0,0.0
0.013133267788979986,0.00478463566653235,0.7295139103300322,-0.0006368105108129195,-0.526272830505213,0.0015801314247852545,0.8503140628785844,-0.016368894260405123,-0.8709231450853596,0.9992665006816761,0.09005716322672035,-0.9439463121817379,0.8805763982483661,-0.02048575940114364,0.6965226437928707,1.0074286854230818,-0.019942423534455835,0.700338421380357,0.977641013713409,0.0,0.0,0.0,0.0
0.010783404966492681,0.0064264381505856815,0.7301098620768195,-0.0008055668138412099,-0.5260850580530018,0.001801339247206233,0.8504296666582103,-0.021040833147161583,-0.8629391933140061,0.9837312625059622,0.0969085977242695,-0.9279073383481766,0.8931654882770541,-0.029880352773203247,0.6918206161380958,1.009657823840336,-0.02878651904505071,0.6954528389904026,0.9689128887369223,0.0,0.0,0.0,0.0
0.008327086944617278,0.008075284184003809,0.7306236956204112,-0.0010011370845638332,-0.5260332191846216,0.002077334267000696,0.8504608954685363,-0.025804143237752514,-0.8537925634103969,0.9662702765093751,0.10531669933783096,-0.9137665247061943,0.9097129740832776,-0.03844250319448311,0.6865798193003346,1.012733671332269,-0.036665722259702,0.6907452636460345,0.9610698585342206,0.0,0.0,0.0,0.0
0.006040390829907354,0.00943378958920594,0.7308927343350322,-0.0012911397157626102,-0.526354697812584,0.002453159447669734,0.850260575975143,-0.029969622955693814,-0.8434229762594351,0.9474540372311535,0.11606959488598347,-0.903583748806215,0.9338619006561286,-0.04339190122265652,0.6811588300997102,1.0172585117673116,-0.04108541458292921,0.687113803543919,0.9569971378188877,0.0,0.0,0.0,0.0
0.0044507549620663505,0.010340808490431373,0.7308920944982735,-0.001831924550318514,-0.5272385019813867,0.0030204781802109135,0.8497099992305776,-0.03330352210826965,-0.8334208980776561,0.9310811390587704,0.12807222030593407,-0.9000689974907465,0.9705841402525371,-0.042294281826924754,0.6770702652819471,1.0227572601832053,-0.03993794724768694,0.6867420801401994,0.9576774174145569,0.0,0.0,0.0,0.0
0.003923988835394588,0.010668597037748142,0.7307897534257384,-0.0026777884137487266,-0.5286705992580752,0.0036579400459199225,0.8488149659401272,-0.03514967634831195,-0.8250010957251965,0.9204047193737804,0.1393276179842726,-0.9080781130805086,1.0231228291528236,-0.034866315381541814,0.6763060221417705,1.0271522259335404,-0.0329508616622514,0.6911997887110292,0.9616469797123243,0.0,0.0,0.0,0.0
0.003925148586718187,0.01070475853245104,0.730782616139744,-0.0027009422964311006,-0.5286667641189696,0.003654582500514916,0.8488172956846697,-0.03518898926102748,-0.8250059647327941,0.9203358140748034,0.1393316284291628,-0.9080965886860303,1.0231318399460994,-0.034898800020059496,0.6762473041041988,1.027257460736355,-0.03291093808447463,0.6912593951210653,0.9615159938710223,0.0,0.0,0.0,0.0
0.003925148586718187,0.01070475853245104,0.730782616139744,-0.0027009422964311006,-0.5286667641189696,0.003654582500514916,0.8488172956846697,-0.03518898926102748,-0.8250059647327941,0.9203358140748034,0.1393316284291628,-0.9080965886860303,1.0231318399460994,-0.034898800020059496,0.6762473041041988,1.027257460736355,-0.03291093808447463,0.6912593951210653,0.9615159938710223,0.0,0.0,0.0,0.0
0.004593205223110273,0.011194795275380646,0.7325722652487767,-0.002049523875451101,-0.5276166779922405,0.002850025517800593,0.8494753191887708,-0.034691689289188254,-0.8280507714833168,0.9303721419989653,0.14023067324364552,-0.9127911065093001,1.0327671816074449,-0.048359856685548014,0.6872383440157475,1.011029795179062,-0.01800327509552708,0.6691998107479223,0.9992998719537914,0.0,0.0,0.0,0.0
0.005412912719564197,0.012125041192378375,0.7349430570938086,-0.0017776983140181197,-0.5270991695642868,0.0024698193553293335,0.8497983320916178,-0.03618239313068222,-0.8286920041527123,0.9401736039210142,0.13878696072307156,-0.911677064703626,1.038630598443025,-0.05951091620421872,0.701610059584777,0.9908905625969944,-0.0060311769095985086,0.652359760192251,1.0314300450851062,0.0,0.0,0.0,0.0
0.006227498689426969,0.013425826788131895,0.7373183060765945,-0.0017579601310106117,-0.5268195582788759,0.0024039183373158446,0.8499719311645857,-0.0393034936347569,-0.8292238688136847,0.9501169251550489,0.13554675250354203,-0.9078806981003474,1.0418125024794864,-0.06959352411394397,0.7159318562210393,0.9714543046316375,0.0014075317370023177,0.6392655395260516,1.0594460181288419,0.0,0.0,0.0,0.0
0.007014023860188196,0.014988609254537183,0.7395259734548923,-0.001879865400285603,-0.5266262861800605,0.002538842791432692,0.8500910392937654,-0.043547466550167765,-0.8304453910400076,0.9604642656011364,0.13113669430696245,-0.903116783580032,1.0434875786512872,-0.0793316302065667,0.729243888499934,0.953937382405945,0.006264689501856617,0.6289548406328475,1.0852521054314304,0.0,0.0,0.0,0.0
0.007754579229270311,0.01668512316409312,0.74153473540382,-0.002073536243253845,-0.5264617528806482,0.002766848741937566,0.8501917829227253,-0.04834166922289334,-0.8322155786868816,0.9708276907815275,0.12617946012111145,-0.8981069524952303,1.0442332745699228,-0.08898371529300413,0.7414125327844698,0.9383848823391315,0.009604920730958456,0.6205732555478624,1.1098350752397292,0.0,0.0,0.0,0.0
0.008383631362459064,0.01839082438417657,0.7433334431428164,-0.002289363369953015,-0.5263120620761509,0.003016920570050836,0.8502830530586766,-0.05320455974774617,-0.8339510127466427,0.9802057694083913,0.1211555461587545,-0.8929807097653475,1.0439285484599465,-0.09842384579469146,0.7522561290049168,0.9247394494915607,0.012264576215007835,0.6133993348451187,1.1335150075950657,0.0,0.0,0.0,0.0
0.008856718670990015,0.01999921239342512,0.7449136149553017,-0.002500997759750225,-0.5261860414852859,0.003242330439374618,0.8503596192491577,-0.05774839026446998,-0.8351660742383453,0.9878301275305854,0.11644153973044111,-0.88777185845495,1.0424741439475187,-0.10734005760406673,0.7616573659794285,0.9129608927692178,0.014719194293493587,0.6070605053883009,1.1559822473611734,0.0,0.0,0.0,0.0
0.00913650823613364,0.021468312098166815,0.7462461974377136,-0.0026927136241882504,-0.5260763340029929,0.0034258305676465677,0.8504261894957323,-0.06182601854960252,-0.8357645724383632,0.9933758547366143,0.11217866501920297,-0.8825825485933196,1.039790639943937,-0.11561191367337695,0.7693238509990907,0.9033477516943221,0.017435391917717508,0.6015663387531048,1.1761545689694615,0.0,0.0,0.0,0.0
0.009161638047026311,0.02280930311816015,0.7472855436568171,-0.0028488098030350632,-0.5259617328999676,0.003555928988923072,0.850496028901132,-0.06544348213843165,-0.8357763243695019,0.9965530282521085,0.10835104822487282,-0.8774469956309212,1.0355472269494386,-0.12345705331075393,0.7747763087634699,0.8965341745351703,0.021049153593896974,0.5973157256211689,1.191777919662829,0.0,0.0,0.0,0.0
0.008849400136451715,0.024081709454087427,0.7479750468757158,-0.0029464368385008505,-0.5257967952652924,0.0036192796663367223,0.8505974073634376,-0.06873369204952216,-0.8353737967936296,0.9971341496936319,0.10481865004995028,-0.8723999580751323,1.029239603974744,-0.13148095648473082,0.777379442901625,0.8933904635130158,0.02649236786040071,0.5954674810475117,1.198812622447819,0.0,0.0,0.0,0.0
0.008139719017214107,0.025368831472245404,0.7482921037126182,-0.002967252602796615,-0.5255301296397235,0.003611614203849464,0.8507621491907649,-0.07191296182112772,-0.8347925240820788,0.9951191210294297,0.1013628653778014,-0.8674284364726106,1.0204466988631369,-0.14033605595492682,0.7767172644059035,0.8944242291845034,0.03475556024471035,0.5986041807655291,1.191262200835064,0.0,0.0,0.0,0.0
0.007005764104032579,0.02667832653826668,0.7483014954785909,-0.002925163655944546,-0.5251836087583811,0.0035346838931418407,0.8509765722503089,-0.0749791999306386,-0.8335822511217378,0.9900524964217778,0.09795281378224317,-0.8619982444468416,1.008620407461775,-0.14985619833158784,0.7730625591388318,0.8990301137837737,0.04496497766224969,0.6038236276600566,1.1751086015778494,0.0,0.0,0.0,0.0
0.005453145284807049,0.028024190021954422,0.7480975286781998,-0.0028300534544565214,-0.5247708349017292,0.0033907018072822353,0.8512320863167936,-0.07795026898995769,-0.8313706201118503,0.981739441296197,0.09454924711055167,-0.8556405433243304,0.993439847192996,-0.15993362459186006,0.7669547344685771,0.9062019637665912,0.05648329518075314,0.6096574331844057,1.154452984234939,0.0,0.0,0.0,0.0
0.0034955606407580378,0.029428028261925393,0.7477561130166713,-0.002674834008840467,-0.5242884222887286,0.003167201615503913,0.8515306596658442,-0.08084033442428568,-0.827937470487853,0.9701353344133324,0.09113219925557492,-0.8480829094855263,0.9747365662255693,-0.1707274126838902,0.7588834875258359,0.9150939249215012,0.0693012313274093,0.6154270165380785,1.1318342381431463,0.0,0.0,0.0,0.0
0.0011796955110381846,0.030894566657821983,0.7473251214318039,-0.002442290249401783,-0.5237273230901353,0.0028447264170021885,0.8518777105892553,-0.08361761101924339,-0.8232848320552989,0.9554911643852636,0.08775000856274015,-0.8393676121723572,0.9527454406889037,-0.1824044556624154,0.7492965558605421,0.9250527594666732,0.084276722338211,0.6209909912963575,1.1090401154275376,0.0,0.0,0.0,0.0
-0.001350838948749265,0.03238894691808985,0.7468116701653011,-0.002102783421005389,-0.5230671695267454,0.0023972445140012307,0.852285496581928,-0.08616591021672848,-0.8180079186300924,0.9389890644709933,0.08458668979533294,-0.8303171124309875,0.9288873589345624,-0.19506348068278223,0.7387155153552672,0.9356193040468168,0.10360294551289789,0.627024657940109,1.087791446927625,0.0,0.0,0.0,0.0
-0.0037256733737375996,0.03381834197605421,0.7461540304326677,-0.0015901302577522375,-0.522178115222113,0.0017749880041482908,0.8528331237038288,-0.08826198195957344,-0.8146217665017691,0.9246466905107698,0.08207761586695056,-0.8240710813300002,0.9079340455674642,-0.20890609732470192,0.7277701686737811,0.9464698696343419,0.13158464980561976,0.6356495383580957,1.0697099190458275,0.0,0.0,0.0,0.0
-0.005646591819742766,0.035006822936173417,0.7453996887168717,-0.0008896978442302868,-0.5210824216745072,0.0009582515662705472,0.853505360272279,-0.08947198104302609,-0.8141157474988896,0.9148724201824674,0.08075265541491815,-0.8224226459514049,0.8935141309768692,-0.22318464544689315,0.7176640248571626,0.9564616197020555,0.17169127798362502,0.6471156122461946,1.0570418242044615,0.0,0.0,0.0,0.0
-0.006896690045639878,0.03576438072658423,0.7446036772390084,-0.00024333724445727654,-0.5200246161918866,0.0001610986038495483,0.8541512239578577,-0.08972127125205881,-0.8162846260674952,0.9104776098545377,0.08064826557295691,-0.8248848283706333,0.8868463067107486,-0.2343181002036823,0.7092314879183498,0.9649259597447649,0.21604239490173288,0.6576076447267587,1.0522975718956191,0.0,0.0,0.0,0.0
-0.0068822080927519,0.035774153104424646,0.7445785049355582,-0.00021247546015053104,-0.5200272470664589,0.0001479163217499097,0.8541496328415886,-0.08972400592040895,-0.816296094231624,0.9104770528083375,0.08066335303970668,-0.824898927285622,0.8867724550947611,-0.23430856229669234,0.7091948604318735,0.9648950583198455,0.21603471761521792,0.6575959107885332,1.0522861947791213,0.0,0.0,0.0,0.0
-0.0068822080927519,0.035774153104424646,0.7445785049355582,-0.00021247546015053104,-0.5200272470664589,0.0001479163217499097,0.8541496328415886,-0.08972400592040895,-0.816296094231624,0.9104770528083375,0.08066335303970668,-0.824898927285622,0.8867724550947611,-0.23430856229669234,0.7091948604318735,0.9648950583198455,0.21603471761521792,0.6575959107885332,1.0522861947791213,0.0,0.0,0.0,0.0
-0.00738976973917487,0.03592912331627368,0.7446281489673703,-0.00030025188516618224,-0.520510873154779,0.0001809027220395984,0.853854968979311,-0.0899339342598954,-0.8108896830552902,0.902932555415542,0.08005570268184525,-0.8184584399129838,0.8778240788367812,-0.2348850498102152,0.709253217848279,0.9661624985658992,0.2161000667524074,0.6578856968314055,1.052834013068245,0.0,0.0,0.0,0.0
-0.0075215583941057205,0.0361548703585545,0.7445772077643801,-0.00037409918424925504,-0.5208105381189568,0.0002348190124959779,0.85367217847021,-0.0905142825119229,-0.8090394614533,0.9006084054972191,0.07931436856308892,-0.8153878310802759,0.8738047893954982,-0.2362004614863416,0.7094762503588228,0.9679581661962262,0.21586859938595448,0.6583295063301222,1.0534640662522214,0.0,0.0,0.0,0.0
-0.0071853638889216535,0.036413445266953635,0.7445216258922884,-0.0004406270444833991,-0.5210414974031828,0.00029952883585137067,0.853531179345039,-0.09132182868140454,-0.8101760545919976,0.903585821562775,0.07855198557485632,-0.8152880558638268,0.875057852374771,-0.23834341310587134,0.7110092644161176,0.9694274831277558,0.21593583587803525,0.6600633647738815,1.0536046305718918,0.0,0.0,0.0,0.0
-0.006342772570153259,0.036705024913119756,0.7444802364569659,-0.0005070214915087239,-0.5212396424834695,0.0003793175630116342,0.8534101207222108,-0.09236502074405549,-0.8142142988981396,0.9119910402512194,0.077757210884395,-0.8180608387244158,0.8817156712811721,-0.24138953791095213,0.7141875009811518,0.9704143996205238,0.21651551818716078,0.6634510376714928,1.053130797212917,0.0,0.0,0.0,0.0
-0.004982523684110416,0.03705617437289968,0.744467283871008,-0.0005842555874017096,-0.5214276031820936,0.000490772227717338,0.853295184814614,-0.09374920685169741,-0.8210274891760155,0.9257348503716718,0.07681866413912683,-0.823426213049166,0.8935072197374717,-0.2454601457306742,0.7191919182496567,0.9708458185086821,0.21768510007627762,0.668731607300726,1.0518642239714044,0.0,0.0,0.0,0.0
-0.0031163402694027085,0.03750056574479589,0.7445154819870665,-0.0007092591287370267,-0.5216615407636306,0.0007768033713077468,0.8531518800401987,-0.09590897866974839,-0.830226023597246,0.9442928018820702,0.0752658918242959,-0.8304796641666342,0.9094872922574313,-0.24969765999156648,0.7260236914268176,0.9704846030923555,0.22063884237591436,0.6766288572404142,1.049592226511451,0.0,0.0,0.0,0.0
-0.0009815418783799181,0.03772575475219563,0.7443610529409288,-0.0008123371531936861,-0.521424451372722,0.0008074075935149369,0.8532966832889856,-0.08373338399184377,-0.8303030281352753,0.9177059390627043,0.07509135546084594,-0.8429853448418921,0.9316551562373823,-0.2537641313905114,0.7317890413759537,0.9702349456166118,0.22270946490038457,0.6824988634844656,1.048215260545737,0.0,0.0,0.0,0.0
0.0010492755560943495,0.038123889353844975,0.7441220926279927,-0.0009267473832791675,-0.5212562942419338,0.0009585309936943939,0.8533991434673392,-0.07062942836242049,-0.8400129669838627,0.8972516194135247,0.07412551532224858,-0.8540010698282958,0.9513021869736172,-0.25840567648250545,0.7369559797595576,0.9713288561093482,0.22456037916136556,0.6881403539433366,1.0473436631834259,0.0,0.0,0.0,0.0
0.0027808717688852127,0.038660028776065794,0.7439269371066384,-0.0010577520063142299,-0.5211950196925835,0.0011687764957093393,0.8534361526030191,-0.0589611473713168,-0.8545660861442909,0.8820849910584788,0.07256652147708198,-0.8621529514281052,0.9665186635022135,-0.2634615491926552,0.7417034208921595,0.9727455349682953,0.2257072147308542,0.6934410241351381,1.0461319466636296,0.0,0.0,0.0,0.0
0.0041642312047685285,0.039262435412772474,0.7437860859819425,-0.001194420600029532,-0.5212076930904671,0.0013952100521030656,0.8534278923328286,-0.04901365576440356,-0.8711000878808715,0.870064446657958,0.07070521158123405,-0.8676992737267875,0.9775305285971273,-0.26855875850399064,0.7458310660750784,0.9742269865364986,0.2260878940698317,0.6980544817488267,1.0446580765447482,0.0,0.0,0.0,0.0
0.005233979419129793,0.03987466173358847,0.7436856343973951,-0.0013264014009442906,-0.5212608107685375,0.0016131779412546345,0.8533948707797465,-0.04041203775295036,-0.8882260960332062,0.8596548319926627,0.06876643465517303,-0.8712895405219864,0.9852246144361531,-0.27343802629525954,0.7492704292710031,0.9757018274170889,0.22583082666812307,0.7018587583529097,1.0431178833822823,0.0,0.0,0.0,0.0
0.006059027333614532,0.040468177223586234,0.7436111878430911,-0.0014491226279908865,-0.5213269024631325,0.0018138652676277904,0.8533538953474082,-0.03271674781003649,-0.9051745668721662,0.8499306772275972,0.06686810816244537,-0.8735810919591033,0.9905848367074135,-0.2779783809031821,0.7520746865131258,0.9771360804155765,0.2251005122902664,0.7049124556610079,1.041617155232355,0.0,0.0,0.0,0.0
0.006708842407287194,0.041037279002556395,0.7435498143662401,-0.0015634297398567976,-0.5213843324400452,0.001998353153835788,0.8533181939687969,-0.025637312848332296,-0.9211531628113077,0.8405454715822277,0.06504185261180143,-0.8751048725091378,0.9944344305226602,-0.28215661883233134,0.7543242469911259,0.9785360996018448,0.2240228963978673,0.7073288090526536,1.0401929010092397,0.0,0.0,0.0,0.0
0.007231244926054955,0.04158735215920513,0.7434890016683116,-0.0016728201589549842,-0.5214168531119882,0.002171654220488813,0.8532976918294423,-0.019033818318281562,-0.9348931827433432,0.8317880577553567,0.06327466565421737,-0.8762113957384192,0.9973042099360253,-0.2859763150645244,0.7560477581844071,0.9799564129347426,0.2226672873472578,0.7091759922244362,1.0388745346740014,0.0,0.0,0.0,0.0
0.007643755102713557,0.042123800574986506,0.7434220418252051,-0.0017808868347720921,-0.5214154928049712,0.002339472562276105,0.8532978607574034,-0.012810758722796356,-0.9444464000576177,0.8246941072932855,0.06154409538162897,-0.877037824318131,0.9993890133994385,-0.2893970990968187,0.7572195689502915,0.9814382570810085,0.22107582413952895,0.7104705164864851,1.0376801922217098,0.0,0.0,0.0,0.0
0.007933889054437782,0.04264487611626753,0.7433520569572799,-0.0018904201169993463,-0.5213815722010668,0.002508107999767049,0.8533178727034765,-0.00681122490012345,-0.9474294647999076,0.8209457546789576,0.059837232557485,-0.8774985486248952,1.000559135008622,-0.2922808018709165,0.7577808432031685,0.9829618106697943,0.2193224847391016,0.711210819417479,1.0366089061717862,0.0,0.0,0.0,0.0
0.008095270407270542,0.043136451260164986,0.7433107971636719,-0.001998656079697203,-0.5213347327613349,0.002678384349835042,0.8533457259796976,-0.0008714612032739112,-0.9422916579790296,0.822300200833252,0.058182343835611335,-0.8773766184992027,1.0006532654090405,-0.29452244994137206,0.757905766102501,0.9842381165928858,0.21754195129946288,0.7115974689179377,1.0354630028001743,0.0,0.0,0.0,0.0
0.008142855148307485,0.04365788608982342,0.7432635908376094,-0.0021211467905679956,-0.5212500422317609,0.0028681127884822954,0.8533965480002323,0.004756304637881051,-0.9305881272908334,0.8269013401829343,0.0563939666508312,-0.8768458881751798,0.9997855708007992,-0.29633004255741774,0.7573809483922418,0.9856725952421759,0.21548417899707192,0.7114606568184582,1.0343373327471104,0.0,0.0,0.0,0.0
0.008110323478471834,0.04425635186816045,0.7432115275660234,-0.0022693152559780565,-0.5211214755617067,0.0030909224434003315,0.8534739035934886,0.009930977023085121,-0.9147086061108493,0.8330851702740645,0.054324516850540294,-0.8759724769734362,0.9981288944299407,-0.29795641368111014,0.7563070269552187,0.9873165532692597,0.21299670263817888,0.7109177118837696,1.0330517881640644,0.0,0.0,0.0,0.0
0.007994140475161502,0.04495485859988234,0.7431574026957017,-0.0024501072722829544,-0.5209507630071639,0.003357750754905897,0.8535766075792354,0.014785079815735592,-0.8965244417920075,0.8397869811513347,0.05188769846544207,-0.874645513146968,0.9955428551184738,-0.2994472953362583,0.7546751258958546,0.9891978031413227,0.2100385675865243,0.7100013400667312,1.0315266588656073,0.0,0.0,0.0,0.0
0.007756814400085867,0.04574285105572904,0.7430984278321676,-0.0026643698865474724,-0.5207394058856997,0.0036745786618273433,0.8537036193917502,0.019666590447276037,-0.877176309762868,0.8465287899147504,0.04909113199226534,-0.8726871007259994,0.9916883166683849,-0.30057199895698805,0.75231215311471,0.9913483387418097,0.2067188442220129,0.7086105677040079,1.0298557535279351,0.0,0.0,0.0,0.0
0.007375331317136666,0.0465745417899963,0.7430396107084314,-0.002911611419708874,-0.5204849495757015,0.004047080865721725,0.8538562882128271,0.02497690181376614,-0.8574179080993047,0.8532014836662086,0.04603753727922319,-0.8700555219580433,0.9864723519741231,-0.3008199254508757,0.7490859000959778,0.9936133998761544,0.2034378345481196,0.7067476339204565,1.0281394706706712,0.0,0.0,0.0,0.0
0.0068647549715712755,0.04734739161132697,0.7429649252342231,-0.0031890097426209548,-0.5201741151751126,0.004475358513348657,0.8540425582398263,0.030941143850451554,-0.8382124106937635,0.8596418548736471,0.04299786604173982,-0.8671475644943983,0.9804218517229579,-0.29935185041031953,0.7448377303813785,0.995839742693017,0.2010350314903225,0.7044467375793073,1.026768996702262,0.0,0.0,0.0,0.0
0.006308856771049108,0.04788298282298053,0.7427886502122485,-0.0034869705933720184,-0.5197876500143698,0.004938375308835662,0.8542741084557867,0.03722994233776704,-0.8216609396227343,0.8653056148196746,0.0405008483403017,-0.8651538015714361,0.975112500736181,-0.2951917265882508,0.7393400789269922,0.9982821795243465,0.2008429649393432,0.7016343632468051,1.0268977575568474,0.0,0.0,0.0,0.0
0.00584962036638518,0.04805713909661019,0.7425301745453208,-0.0038252895024870437,-0.5192295579173355,0.005400542005507004,0.8546091899173781,0.04163585781972332,-0.8112653924143658,0.8682835781121555,0.03899611905751559,-0.8655553327332137,0.972782483647065,-0.2875021194346425,0.7328001685006369,1.000130073112021,0.20360183087400713,0.6985553312826557,1.0283564604630517,0.0,0.0,0.0,0.0
0.005855019220392502,0.04807231409019392,0.7425255721177824,-0.003845563912322219,-0.5192185271934652,0.00540683724524654,0.8546157608938936,0.04164663838963058,-0.811248274879785,0.8682977795905167,0.038953607473858114,-0.8655711719312612,0.9727877318573351,-0.2875387857418151,0.7327730540227783,1.000153747424192,0.2036397199881027,0.698552669531813,1.0283129311811368,0.0,0.0,0.0,0.0
0.005855019220392502,0.04807231409019392,0.7425255721177824,-0.003845563912322219,-0.5192185271934652,0.00540683724524654,0.8546157608938936,0.04164663838963058,-0.811248274879785,0.8682977795905167,0.038953607473858114,-0.8655711719312612,0.9727877318573351,-0.2875387857418151,0.7327730540227783,1.000153747424192,0.2036397199881027,0.698552669531813,1.0283129311811368,0.0,0.0,0.0,0.0
0.007243682307219229,0.049161886526829124,0.7441982245083119,-0.0024131539281797227,-0.52064573371383,0.0035493651241381144,0.8537620269495019,0.04301499228281794,-0.8022657452582762,0.8719190887542779,0.04032272877426498,-0.860829718028667,0.975752433888663,-0.22580355389387255,0.7080703496202226,1.0211360778090277,0.17475185580905264,0.7077638597771335,1.0103412668211462,0.0,0.0,0.0,0.0
0.009197417324997213,0.05050600849474778,0.7456467837411116,-0.0012369968314529856,-0.5219889276147659,0.002049868315120892,0.8529489007709175,0.04290328679652023,-0.7989227309565317,0.8836135512530814,0.040209793348345645,-0.8585897279035256,0.9832011856626975,-0.1699408779950224,0.6862986688954158,1.043113306123761,0.14810419204440292,0.7185092554772943,0.9924297190042246,0.0,0.0,0.0,0.0
0.011489408911612266,0.051879242795813935,0.7467152200117241,-0.0005219447346000301,-0.5229573950187,0.0011388429162857059,0.8523579022956034,0.04146971374885142,-0.8022893114794672,0.9025492459473871,0.03874818301794934,-0.8598179851495419,0.99501599291308,-0.1328381120251637,0.6718338106129612,1.0655949399910702,0.12795427644196294,0.7295134260922029,0.9766079076224639,0.0,0.0,0.0,0.0
0.01372642784431127,0.053086994924780605,0.7475358037860679,-8.957092999520175e-05,-0.5236825420710332,0.0005976906072302803,0.8519132760281455,0.03965514622843142,-0.8078935894854657,0.9223288804591203,0.03689387161799202,-0.8623072643996488,1.0075765871657771,-0.10770764385180413,0.6617117989399423,1.0888443698702694,0.11307797794017647,0.7399303794554855,0.9630372419704955,0.0,0.0,0.0,0.0
0.015676863977056355,0.0541065336175578,0.7482308944915569,0.00019284660671029378,-0.5242466947750386,0.0002422794704728091,0.8515663844517889,0.037899219623317514,-0.8132126893233078,0.9396531308347742,0.03509849610530143,-0.8645774508954233,1.0185695466112032,-0.08925755366650495,0.6534235799368278,1.1124843848651182,0.10149590921095984,0.7491950601181411,0.9511503170199586,0.0,0.0,0.0,0.0
0.01726424270942197,0.054990727943225994,0.7488540883621834,0.0003936825965832604,-0.5246862843072765,-7.5496063304843355e-06,0.8512955703026067,0.03623223638556521,-0.8175297523920894,0.9537678221214688,0.03339483542431889,-0.8660498012740925,1.0271370072000894,-0.07423127478648606,0.6458017904567575,1.1358843836967127,0.0918692071025157,0.757070476339763,0.9405236942733671,0.0,0.0,0.0,0.0
0.018472317678303974,0.055810928894135414,0.7494008844200855,0.0005453987120627329,-0.5250252714882485,-0.00019415115701217398,0.851086440465517,0.034566491377036164,-0.8208148764665745,0.9647729197494902,0.031694087652553,-0.8665475602542733,1.0329728374017506,-0.061048842576067686,0.6384474932052553,1.1582763530154874,0.08321009855039392,0.7633289087647439,0.9311015039746428,0.0,0.0,0.0,0.0
0.01929311839197473,0.056635049743169144,0.7498229667094887,0.0006587347584955228,-0.5252802619841588,-0.0003343876441431602,0.8509289633237753,0.032770193699980146,-0.8232880259842571,0.9729289868122187,0.02986232356198088,-0.866044362971207,1.0358790097248405,-0.049135785087758475,0.6313825587950385,1.1783654381096242,0.07486920974066791,0.7676338152945672,0.9232277486664703,0.0,0.0,0.0,0.0
0.019699705134418582,0.05751028045205122,0.7500367371345354,0.0007318923974515047,-0.5254588759289489,-0.00043010188281552425,0.850818575874654,0.030732422372959024,-0.8252119097488735,0.9783300433250864,0.027787330563014474,-0.86458244701647,1.0355945307568353,-0.03858122459621147,0.6250519788178409,1.1937966057875922,0.06654803019123445,0.7694598785734946,0.9176725864977748,0.0,0.0,0.0,0.0
0.019643792875778728,0.05845072907047616,0.749940984836682,0.0007561176173598604,-0.5255562307130256,-0.00047409283189605125,0.8507583980666029,0.028407586969621812,-0.8268052364189771,0.9808305004543427,0.02542409736372343,-0.8622621101755947,1.031816332682197,-0.029955809588527678,0.6207211126546927,1.2004561599856947,0.05832648701461518,0.7681501437314464,0.9155016562859075,0.0,0.0,0.0,0.0
0.01909180299510213,0.05944599511022012,0.7494758070967088,0.0007244628230906474,-0.5255567845398963,-0.0004627571863014603,0.8507580897255632,0.02582156690493549,-0.8281897872308238,0.9802769466213184,0.022800776183464964,-0.8592013902341223,1.0244022624782103,-0.02398494485764737,0.621103291154126,1.192208990539551,0.05043234719067573,0.763289494407695,0.9173820927156188,0.0,0.0,0.0,0.0
0.018036683238411236,0.06054404123076164,0.748677605840064,0.0006466793316079381,-0.5254777914290117,-0.0004039274613905339,0.8508069753847438,0.02286505659929407,-0.829168619946418,0.9765652873012979,0.01980926439108656,-0.8550145450815403,1.0129193869371318,-0.019736521380795895,0.623441924677024,1.175113779064753,0.04241703127183965,0.7550523954437485,0.9227681987098804,0.0,0.0,0.0,0.0
0.01649696676702695,0.06175944621805898,0.7476284454187095,0.000538505878804796,-0.525326904808082,-0.0003145941266351882,0.8509002609746422,0.019537002595927378,-0.8294309011739733,0.9696108239829877,0.016452383343849502,-0.8493828410306077,0.9971955078410675,-0.016371850967211547,0.6263858359627369,1.153171657749275,0.034000551301684466,0.7439208355881567,0.9306515741557371,0.0,0.0,0.0,0.0
0.014494526612271148,0.06305055228193175,0.7464043163568765,0.0004173331976768792,-0.5251052716313309,-0.000211448928004935,0.8510371524365662,0.015982187529327164,-0.8285816459710699,0.9591579030048004,0.012880104018397199,-0.8421495718443888,0.9772624616328963,-0.013318818196584148,0.6293526583137454,1.1286268557455414,0.025361530897761046,0.7303918648042557,0.9402495952095155,0.0,0.0,0.0,0.0
0.01208017945299315,0.06431314916198333,0.7450581632124639,0.0003039944839537492,-0.5248172701742297,-0.00011434528185428318,0.8512148538643929,0.012515681431129974,-0.8262480238427881,0.9449704812476915,0.009411200043016899,-0.8334793423942184,0.9536185572349024,-0.010177704673470277,0.6322055372554352,1.1027226947108093,0.017109175129374397,0.7149710403956858,0.9512015591913403,0.0,0.0,0.0,0.0
0.009386398097476835,0.06538881164946682,0.7435971335277444,0.00022717385935765971,-0.5244539566327224,-6.657102972538449e-05,0.8514387772075089,0.009651800465506448,-0.8225015443002331,0.9274769993763703,0.006558669440857597,-0.8243411230364351,0.9279132425565525,-0.006602066622695646,0.635340582463538,1.076201489356873,0.009966538676078263,0.6980828132748831,0.9636513010525691,0.0,0.0,0.0,0.0
0.006643068735198271,0.0662082771257116,0.7420273143776407,0.00019093624362184893,-0.5240548546997769,-4.320537657463636e-05,0.8516844902557766,0.007500323940040007,-0.818002362005211,0.908257564155199,0.004424444271866655,-0.8156718031073843,0.9022279038035919,-0.001829860044420568,0.6394625173650218,1.0495719096161025,0.004544908676479293,0.6806963423079828,0.9775320861401877,0.0,0.0,0.0,0.0
0.004434341351950635,0.06680710179712009,0.74035412131648,0.0001825930640216448,-0.5236057517652629,-5.874557815857234e-05,0.851960668063417,0.006021676270213312,-0.815853230924705,0.8932301295447106,0.002959507309653022,-0.8104974316614425,0.8823599929598117,0.0037109657993748234,0.6464978870840452,1.0233905522396765,0.0004388444738584801,0.6644986510422675,0.9919944470958648,0.0,0.0,0.0,0.0
0.003079848551196909,0.06708140644183204,0.7390041318627848,0.0002104984738465444,-0.5232303021171812,-0.00012646624228469577,0.8521912875892627,0.0054975997524089075,-0.8155681138547161,0.8842293514707542,0.0024426386672851143,-0.8089997523897311,0.8711813691873658,0.00959562904636204,0.655142781585612,0.9992221449542641,-0.001908823584068727,0.6527515010504812,1.0035391427999103,0.0,0.0,0.0,0.0
0.003097515848918453,0.06708157983535655,0.7389720261766258,0.00022469654410351992,-0.5232187077418133,-0.00012880508970152148,0.8521984022454507,0.005500101589404968,-0.815613950082172,0.8841957980535401,0.0024468410787902156,-0.8090295738287738,0.8710810748882639,0.00960053599273341,0.6551538030658232,0.9992217637348002,-0.00190215985173596,0.6527289035880508,1.0035111467397595,0.0,0.0,0.0,0.0
0.003097515848918453,0.06708157983535655,0.7389720261766258,0.00022469654410351987,-0.5232187077418131,-0.00012880508970152142,0.8521984022454507,0.005500101589404968,-0.815613950082172,0.8841957980535401,0.0024468410787902156,-0.8090295738287738,0.8710810748882639,0.00960053599273341,0.6551538030658232,0.9992217637348002,-0.00190215985173596,0.6527289035880508,1.0035111467397595,0.0,0.0,0.0,0.0
0.003097515848918453,0.06708157983535655,0.7389720261766258,0.0002246965441035198,-0.5232187077418131,-0.0001288050897015214,0.8521984022454507,0.005500101589404968,-0.815613950082172,0.8841957980535401,0.0024468410787902156,-0.8090295738287738,0.8710810748882639,0.00960053599273341,0.6551538030658232,0.9992217637348002,-0.00190215985173596,0.6527289035880508,1.0035111467397595,0.0,0.0,0.0,0.0
0.003327613199677666,0.06741402424007902,0.738896840426076,0.0006149095785954326,-0.5229805609441314,-0.0004698784266676318,0.8523442578999614,0.00534220653044839,-0.8180888045517001,0.888182452178475,0.002287126546773305,-0.8121257233648025,0.8744358332493963,0.0026467136268582625,0.6564652600886862,1.0008023382180846,-0.008801840556531021,0.6508789696352953,1.001783210581426,0.0,0.0,0.0,0.0
0.004051092177382143,0.06767675407444658,0.738792826114775,0.0008222572427239475,-0.5229311415204309,-0.0006545156115458815,0.8523742820677312,0.005054980700525494,-0.8224959161964647,0.8963213395325661,0.0019967136625428845,-0.8165202254354591,0.8816979574567794,-0.0016894459952582503,0.6589122387203306,1.0020941499425253,-0.013059482682145651,0.6515311554664452,1.0007342754447877,0.0,0.0,0.0,0.0
0.005310174100746547,0.06774360469211439,0.7386578786490435,0.0008706736273707339,-0.523124390049634,-0.0006992493273385934,0.8522556104321116,0.0049877327317763235,-0.8282933228243786,0.9080556970257003,0.001922608777541704,-0.8223940699407563,0.8933656002175209,-0.002812470919172218,0.6628003294028395,1.0027644895155499,-0.014218804777393533,0.6549077985219751,1.0008303450519997,0.0,0.0,0.0,0.0
0.007135193218352993,0.06759000601961049,0.7385124052451729,0.0007622022175626642,-0.5235826161907026,-0.0006071862461524434,0.8519743507850113,0.005212668536202243,-0.8352857129213322,0.9232742017499291,0.002136413080136285,-0.8296635556488755,0.9094884816712118,-0.0004967079223177581,0.668384993813912,1.0025039466040255,-0.012116565577697417,0.6613184903469058,1.0019074563755932,0.0,0.0,0.0,0.0
0.009552995519643566,0.06728102815416125,0.7384144199996153,0.0003962252145994829,-0.5244320732378951,-0.0002902958785393747,0.8514521473889682,0.0053903581668171,-0.8430169931696558,0.9417435255579594,0.0023000863550239736,-0.8369591665964315,0.9288149018937766,0.006256437710830443,0.6759942350032053,1.001005141760063,-0.005764897962488234,0.6719563047341713,1.003422680652607,0.0,0.0,0.0,0.0
0.012541293979501995,0.06703659978163601,0.738422359928741,-0.0003700579850981868,-0.5257655285703112,0.00045317425874912644,0.850629335643534,0.0044971348115398786,-0.8515669260681914,0.963661292102932,0.0013947098968359797,-0.8422948196238361,0.9491347283602282,0.018645135636285583,0.6853805165670082,0.9982615966127615,0.006168568556837044,0.6882244529117651,1.004317122841337,0.0,0.0,0.0,0.0
0.014822995862425447,0.06697655884268806,0.7381940326548503,6.082160213194532e-06,-0.5254608285119806,0.0002828792786515666,0.8508177464309403,0.004907502693471316,-0.8639535750034235,0.9856467253579132,0.013625965076376343,-0.8499147586468009,0.9292094892950667,0.016016620721572245,0.6915337835295899,0.9967730829473045,0.0035076801614660922,0.6927448138677228,1.0027790046049265,0.0,0.0,0.0,0.0
0.01688629982113545,0.0668525915814445,0.7379413115407144,0.00016334117607707613,-0.525511849787066,0.00030541557964308805,0.8507862103809394,0.005097415572778035,-0.873536623469188,1.0035400319086865,0.03080556993401921,-0.8647305246359505,0.9135751024116543,0.0164831103516358,0.6970051248536226,0.9959719767233624,0.0038816700177799804,0.6982839585275703,1.0028540707969702,0.0,0.0,0.0,0.0
0.01863203295471964,0.06676489191245494,0.7377056499836804,0.00014389453364450122,-0.5258522679621693,0.0004763713458975131,0.8505757724293272,0.004892081080800908,-0.8803732957444177,1.0173166967042528,0.048151267325034844,-0.8830211760491654,0.9028452663934393,0.018941187475422644,0.7017060818148667,0.9958370747754501,0.006215703705688946,0.7044099914093653,1.0037139100072783,0.0,0.0,0.0,0.0
0.01995684633105637,0.06680236477322193,0.7375136677986854,9.56765809704852e-05,-0.5262167483656139,0.0006666087593756184,0.8503502103358791,0.004316086301755784,-0.8853067064784241,1.0275765904670173,0.06422941034841541,-0.9028414794577799,0.8945834470327853,0.02078587236334795,0.7053720003866087,0.9962604584102144,0.007952917566705393,0.7095210083946006,1.0043015145624008,0.0,0.0,0.0,0.0
0.02083314319680478,0.06700132080072,0.7373870508014189,6.038305847032501e-05,-0.52650612988854,0.0008386546641687413,0.8501709170525844,0.0033490697437800025,-0.8887217664135244,1.034692515808759,0.07908246061502322,-0.9231060022507755,0.8870693808334484,0.02107099061001962,0.7079572226918338,0.9971362891507677,0.008136967493509333,0.7130678345235791,1.0041666673057268,0.0,0.0,0.0,0.0
0.02128920941369243,0.06736789362479365,0.7373319848654322,1.0089065048489706e-05,-0.526741732619146,0.0010173856217243345,0.8500247713696863,0.0019236032803317202,-0.8907244712823547,1.0389297417542454,0.09318803780707893,-0.9430437596930562,0.8795068094900489,0.020074452502859382,0.7095227213348477,0.9984388147702183,0.007040216597361836,0.7152950133113319,1.003307355125073,0.0,0.0,0.0,0.0
0.021365279062598216,0.06790616843737828,0.7373445645150641,-8.71882107895077e-05,-0.5269579302324998,0.0012331170888556105,0.8498904703463505,-3.24575258954143e-05,-0.8914213680611127,1.0405703153405157,0.10701283472044354,-0.9617934751615844,0.8717321019794029,0.018222139669923327,0.7101248412576339,1.0001950052092652,0.005102757304987441,0.7165492910900166,1.0017998719786105,0.0,0.0,0.0,0.0
0.021083164733797656,0.06863010335858756,0.7374224562101855,-0.00024992395993155524,-0.5271695382734655,0.001504032315428362,0.8497587618502969,-0.0025898991236025766,-0.8909075213460408,1.0398070674623852,0.12080331928680059,-0.9779835806822869,0.8642289413299373,0.01569232419560521,0.7097856119212003,1.0024401607436744,0.0025197553901683085,0.7170220197222,0.99962849684312,0.0,0.0,0.0,0.0
0.020426891903036638,0.0695729004213843,0.737575554502206,-0.0004651592029829501,-0.5273411802606094,0.001819740212921673,0.8496515472673613,-0.0058086969927027155,-0.8892910132938803,1.0367139935685536,0.13447793671143643,-0.9895926987775411,0.8581903700333033,0.012051805212531148,0.7084909761516903,1.00515843521265,-0.0011235410546869906,0.7165412290676444,0.9965188134368504,0.0,0.0,0.0,0.0
0.01935242311241332,0.07078173501876828,0.7378300141279939,-0.0007000867204047619,-0.5274122341234012,0.0021499299805911314,0.84960651067222,-0.0097404460055876,-0.8866030509623579,1.0312063345446476,0.14758008692417252,-0.9942465859727616,0.855601818657821,0.006464461793705951,0.7062528879686943,1.0082413833586494,-0.006619371478272524,0.714762592727608,0.9919524274768113,0.0,0.0,0.0,0.0
0.017833852737886843,0.07228953811038713,0.7382226217410485,-0.0009474785371319685,-0.5273825496633685,0.0024806627587152952,0.8496237961046429,-0.014423279220256425,-0.8825955649001486,1.0230107441161407,0.15952691760237692,-0.9903466275533235,0.8587024291341074,-0.0014136214749099676,0.703238814701142,1.011461475995461,-0.014221584873204848,0.7117948226016793,0.9854256837672148,0.0,0.0,0.0,0.0
0.01588860031462773,0.07409071585471244,0.7387534602092063,-0.0011563268819379596,-0.5271850303882024,0.002773622609366297,0.849745205141137,-0.01975268889478695,-0.8775165236299146,1.0123788565534435,0.1707464293100337,-0.9796690518745377,0.8654445333575285,-0.012056697774834932,0.6994920404089202,1.0146214920445704,-0.02426145828768943,0.7074766328647404,0.9766464345011254,0.0,0.0,0.0,0.0
0.013573504540979556,0.07615990771365444,0.7394226139235915,-0.0012784138408377134,-0.5267850705260007,0.0029983103504492782,0.8499922736495964,-0.025594866020113183,-0.8715895248022865,0.9996904101776186,0.18199621559561677,-0.9650044578197212,0.8740702678276765,-0.025599310675127298,0.6951956624428308,1.0174202530630132,-0.036698061373863236,0.7019870106321261,0.9653541390655808,0.0,0.0,0.0,0.0
0.01097142099013329,0.07844057798210848,0.7401949515120811,-0.0012829106612416595,-0.5262065882555181,0.0031500639774788316,0.8503499619060735,-0.03179909388139318,-0.8649473037169667,0.9852625929430974,0.194193160139278,-0.949021458933777,0.8840171893970733,-0.04155119720655929,0.690460622728692,1.0197948735998854,-0.050911824164323494,0.6957368593821802,0.9517953694675864,0.0,0.0,0.0,0.0
0.008183575888176479,0.08080418089266488,0.7408963676100919,-0.0011856569920911898,-0.5255697558785589,0.0032769830119059344,0.850743373353909,-0.03814974688155553,-0.8576998185955917,0.969157446099711,0.20852083092564033,-0.9341716999274294,0.8960642603283502,-0.058236116288605644,0.684811490360736,1.0228137071529773,-0.06531752033356325,0.6889248888209213,0.9380522263711216,0.0,0.0,0.0,0.0
0.005464960424854412,0.08278920252825346,0.7412748192082964,-0.0012317914131585823,-0.5254541086699488,0.003564358919700909,0.8508135857620491,-0.0437803523577117,-0.8480825407407888,0.9498821568856055,0.2266903213928522,-0.9224201669289056,0.9139190689337299,-0.06944449148773515,0.6783169415533378,1.0278154782875357,-0.07461013867351687,0.683398882669359,0.9294230845918454,0.0,0.0,0.0,0.0
0.003228146655781924,0.08413162229738425,0.7413665752221154,-0.0017017049898839182,-0.5262683019638335,0.004232871068797338,0.8503063338296062,-0.048428505864347555,-0.8356619647803686,0.9286606034620689,0.24869880410404727,-0.9153115335103634,0.9427476678111305,-0.07078396103612955,0.6726105568100527,1.0340225749583136,-0.07544931838491947,0.6818675467724459,0.9278006874685752,0.0,0.0,0.0,0.0
0.0019205558843474375,0.08472651472346993,0.7413370671692413,-0.0028175761017398436,-0.5282061239411646,0.005315261187468206,0.8490948709622917,-0.051785522048704985,-0.8211451626796361,0.908520327481466,0.2721933441489753,-0.9152956227882891,0.9892277416798942,-0.06053622645893124,0.6700052208978734,1.039791461542103,-0.06645873056813655,0.6869101123154293,0.9324551669450676,0.0,0.0,0.0,0.0
0.0017000184083204727,0.08467688002157389,0.7412691455504504,-0.00434963530459257,-0.530689077861676,0.006293958072898986,0.8475320462394432,-0.05293957996092327,-0.8080170637851891,0.8941572204048716,0.29271722192445004,-0.9265421439370048,1.0544036551946618,-0.04389392766167213,0.6712230101993261,1.043932134235762,-0.051699450620488516,0.696734082722824,0.9401001342966667,0.0,0.0,0.0,0.0
0.0017133372293949727,0.08472113766891913,0.7412484742654488,-0.00433854614095495,-0.5306834318252243,0.006278058388707083,0.8475357562878709,-0.052975189381461625,-0.8080262239932553,0.8940809550065223,0.29273918697995893,-0.9265685471732886,1.054403846792936,-0.04400653039495926,0.6711206793156275,1.0440976331394503,-0.051569322094098764,0.6968701720101352,0.9399244493296843,0.0,0.0,0.0,0.0
0.0017133372293949727,0.08472113766891913,0.7412484742654488,-0.00433854614095495,-0.5306834318252243,0.006278058388707083,0.8475357562878709,-0.052975189381461625,-0.8080262239932553,0.8940809550065223,0.29273918697995893,-0.9265685471732886,1.054403846792936,-0.04400653039495926,0.6711206793156275,1.0440976331394503,-0.051569322094098764,0.6968701720101352,0.9399244493296843,0.0,0.0,0.0,0.0
0.0014854307159464799,0.08594280300556124,0.7435363049443351,-0.002756913457117056,-0.5284310744864986,0.0045961920318284815,0.8489592887553802,-0.05259205681041443,-0.8114217844994708,0.9020554788167868,0.29400283135831845,-0.9326907863417546,1.0613484870761587,-0.0750247748881886,0.6825463404906824,1.025525913849426,-0.023350760845996847,0.6667218499523412,0.9835075709589156,0.0,0.0,0.0,0.0
0.0016512778379847285,0.08777895998620139,0.7464547802922159,-0.0020695185975050036,-0.527298169543843,0.0037731828114233993,0.8496694184092768,-0.055391284257522,-0.811446081162751,0.9102091855739108,0.29113612650350223,-0.9306897904209962,1.0641829758123516,-0.09759950147936595,0.6977775270906784,1.0029626944099372,0.0021655837335961825,0.6473798299362724,1.0193313564955517,0.0,0.0,0.0,0.0
0.0019101826932585743,0.09007023362821963,0.7493650834720647,-0.0019685051189583126,-0.5267634099875349,0.003558082843209303,0.8500022205455593,-0.06056011074136546,-0.8105922455896547,0.9181837103186211,0.28539715995773585,-0.9245829178616162,1.0638332082618132,-0.11548724165031313,0.7130650930571024,0.9814723736638344,0.020365889568147204,0.6340922904123067,1.049757286332832,0.0,0.0,0.0,0.0
0.002184043559185278,0.09268922601359585,0.7520892476664198,-0.0021337682526455523,-0.526415062722974,0.003663413217252302,0.8502171535407945,-0.06722780974182642,-0.8104062635090845,0.9267009347960746,0.2780549480282326,-0.917345541192191,1.0621146939403978,-0.13196295863152813,0.7273279227572944,0.9621177207592702,0.033814670744468076,0.6241493937916454,1.0769468630038164,0.0,0.0,0.0,0.0
0.0024426215494663325,0.09552292441839152,0.7545882444182005,-0.002418072333800015,-0.526104277544703,0.003941281204427774,0.850407495485442,-0.07481470334691831,-0.8111234186894692,0.9356847027508686,0.2698290513150742,-0.9100320419896831,1.0597176578538685,-0.14809580949855447,0.7402912430779418,0.9449633259940731,0.045116496065452955,0.6162306618998133,1.1022094816062944,0.0,0.0,0.0,0.0
0.0026314450157626313,0.09845740916076207,0.7568682461150387,-0.0027463332811687364,-0.5257807162399178,0.004273173257722418,0.8506049823943292,-0.08276536279248427,-0.8122948588872194,0.9443606924644206,0.2612830377866044,-0.9028176384778507,1.0565441915009854,-0.16425875984116048,0.7519178314503724,0.9297799209463488,0.05507775087955079,0.6093713830245261,1.1259693535937507,0.0,0.0,0.0,0.0
0.0026402879877597306,0.1013994364026661,0.7589226785088061,-0.003075159268794702,-0.5254478044515208,0.004598702518948229,0.8508078514727577,-0.09069580615034394,-0.8131100030807967,0.9513335289336928,0.2527192097107154,-0.8953125215189643,1.0517316101193932,-0.18033790484294748,0.7619134430920488,0.9166155068672184,0.06453769858984332,0.6030072417785634,1.1480408814878458,0.0,0.0,0.0,0.0
0.00242147881334523,0.10431446710782973,0.7607363162974091,-0.003396013671718631,-0.5251086785355331,0.004895479402514656,0.8510143224994672,-0.09845329400277303,-0.8133337117916446,0.9561247721016156,0.24425820720008334,-0.887395641129995,1.0449333912356225,-0.19619093462609333,0.7700372585033876,0.9056847648966732,0.0740053102562738,0.5972268910980028,1.1674139302986979,0.0,0.0,0.0,0.0
0.0019094050999289222,0.1072290135332792,0.7622767878242839,-0.003687696735415606,-0.5247344542506795,0.0051446997072311365,0.8512424363716552,-0.10606243083560818,-0.812980757132328,0.9584390550928923,0.23586137252435715,-0.8790655013617772,1.0357636441186673,-0.21212724900786686,0.7758489204555706,0.8974991260106675,0.08416556511803613,0.5924274845223569,1.1819010574131399,0.0,0.0,0.0,0.0
0.0010239567566780025,0.11021841287877564,0.7634981284750473,-0.0039057321085311063,-0.5242555291930545,0.00531442356565561,0.85153546154542,-0.11366198596740011,-0.8123059524759745,0.9581573892967937,0.22740275592329384,-0.8705054978076924,1.0238683406371603,-0.22894349220377075,0.7787402744949455,0.892756721165316,0.09591985159207526,0.5896369097090484,1.1875124069950609,0.0,0.0,0.0,0.0
-0.00028172482563301607,0.1133686098616683,0.7643800525818144,-0.0040188377253732865,-0.5236134897693874,0.005388854546129104,0.8519294117011934,-0.12145354874228832,-0.8115935968081475,0.9553724730533054,0.2186996356543244,-0.8618412586710404,1.009021156196896,-0.24724345719261906,0.7783120866770525,0.8918258266902672,0.11018551260500341,0.5913673369733236,1.1783388641988564,0.0,0.0,0.0,0.0
-0.0020244928987126565,0.11667243386479839,0.7649880359129434,-0.00403735425636133,-0.5228384793072873,0.0053606371282801475,0.8524053542158395,-0.12936352749652877,-0.8103249347325526,0.949567851767737,0.20976559998012484,-0.8525149960617538,0.9906655801647783,-0.2666603836552365,0.7748672178921922,0.8939893738013988,0.12632858219382243,0.594860519385151,1.1604346207760345,0.0,0.0,0.0,0.0
-0.004186263795730393,0.12010098375229307,0.7654108510531942,-0.003960427912316917,-0.5219547806236672,0.00521432178612814,0.8529480247020691,-0.13724808759735424,-0.8080280329063734,0.9404396653910108,0.20071055628518497,-0.8420947514415301,0.9685367195149855,-0.286807180423426,0.7689752911805195,0.8981304299735717,0.1439947019610717,0.5987713737161647,1.138052962016639,0.0,0.0,0.0,0.0
-0.006735009162078543,0.12359349016351845,0.7657149140286755,-0.003750956526713802,-0.520959006962478,0.004901673809530221,0.8535593810530516,-0.14483446083832652,-0.8044170109962252,0.9278643759423306,0.19181744204485984,-0.8305304283219284,0.9427392970794658,-0.30751106359977026,0.7611563348938444,0.9032125763630975,0.16371317364611915,0.6025650348443079,1.113991693085398,0.0,0.0,0.0,0.0
-0.009587646806186213,0.12702064107539174,0.7659289124686868,-0.0033384142340219945,-0.519829314898926,0.004343149414698176,0.8542525829140213,-0.15165058795898786,-0.7995633786539903,0.912207096466249,0.183637555843627,-0.8184174625071602,0.914219068170732,-0.3286054431236663,0.7519082341270801,0.9083667617172516,0.1876624150055854,0.6065778103258753,1.0904442706890247,0.0,0.0,0.0,0.0
-0.012506514209272693,0.13017040816411868,0.7659856916388981,-0.0025453996517343837,-0.5183893665880729,0.00332049281811199,0.855134468885727,-0.1568628148778249,-0.7953580185239603,0.8962471212263193,0.1773587892089193,-0.8088493526551445,0.8870286675969452,-0.35088757955965955,0.7415740810441699,0.9131375821391441,0.22010997900325385,0.6124410425249803,1.0690804967115792,0.0,0.0,0.0,0.0
-0.015097038583354348,0.13291529166342925,0.7657495992789016,-0.0013496516300629993,-0.5165631117230075,0.0018690826877875107,0.856246014050534,-0.1604730064791363,-0.7948048782595138,0.8846754744732822,0.17338336841583252,-0.8052533131539921,0.8666019249686402,-0.37367683500679494,0.730306278852125,0.9180915363354648,0.2669500057806071,0.6216028321408349,1.0521240665447402,0.0,0.0,0.0,0.0
-0.017307491606041267,0.13506480535599266,0.7646883756430384,-5.975939269976456e-05,-0.5145734655939557,0.0003324014123670382,0.8574462283109899,-0.1627642748089448,-0.7991912180044608,0.8781560586973921,0.1714897997195331,-0.8083464349668187,0.8537313575115959,-0.39304264740434114,0.7153005212399434,0.9288519583753345,0.32622375125767655,0.6324406155074789,1.0415032321573436,0.0,0.0,0.0,0.0
-0.0188069606231079,0.13630984598597906,0.763160891502431,0.0008248830826537694,-0.5128196697791295,-0.0007931094985476892,0.8584955892914348,-0.16384659325331102,-0.8070961948068937,0.8771835142842745,0.1713433864894371,-0.8159232168640739,0.8491489642975589,-0.4034847152604425,0.6996300532876091,0.9421548267873323,0.3875729695505002,0.6406750187462539,1.0405054529062059,0.0,0.0,0.0,0.0
-0.018786092291198302,0.13635204420537742,0.763113471032177,0.0008816605733271876,-0.5128265547387754,-0.0008279954079232782,0.8584913871746156,-0.16388865640010844,-0.8071647051162615,0.8772344058218046,0.1713567426191277,-0.8159333375297355,0.848978965045822,-0.40352540837097517,0.6995420858341774,0.9420410173137116,0.38760419218782527,0.6406555198550941,1.0404992240307636,0.0,0.0,0.0,0.0
-0.018786092291198302,0.13635204420537742,0.763113471032177,0.000881660573327187,-0.512826554738775,-0.0008279954079232776,0.8584913871746157,-0.16388865640010844,-0.8071647051162615,0.8772344058218046,0.1713567426191277,-0.8159333375297355,0.848978965045822,-0.40352540837097517,0.6995420858341774,0.9420410173137116,0.38760419218782527,0.6406555198550941,1.0404992240307636,0.0,0.0,0.0,0.0
-0.019337485574619555,0.1366578485688148,0.7634963247753925,0.00046887006749190706,-0.5138819136107685,-0.0005537753990317662,0.8578606252517957,-0.16443133993492945,-0.7971544980496663,0.865289488340114,0.16941372508278327,-0.8035045100899261,0.8342346901765131,-0.4034889628687785,0.7024846933479142,0.9415612677676714,0.392131574961362,0.6451009626518791,1.0392031842037517,0.0,0.0,0.0,0.0
-0.019577406114933454,0.13715680864939073,0.763682171548712,0.00019038435324493822,-0.5145747725015434,-0.00031603008946267416,0.8574454311405277,-0.1657286978024474,-0.7918466083445244,0.859351915870694,0.16732602181063425,-0.795708672108956,0.8251072465807071,-0.4054471103109151,0.704479002674904,0.9424949871898181,0.3940048560402048,0.648153421102623,1.0383645577511378,0.0,0.0,0.0,0.0
-0.0194118219711293,0.1377509552647308,0.7637915986821803,-9.014374050609285e-06,-0.5150371050679711,-0.00011620031496871732,0.8571678755176442,-0.1674590763572566,-0.7905505726537143,0.8594760879786412,0.1653163752279562,-0.7920407448366202,0.822036035890707,-0.40900655940190384,0.7068146425238028,0.9436933140626304,0.3946965685457491,0.6512049105406742,1.0373560818365815,0.0,0.0,0.0,0.0
-0.018800488633996373,0.13841228308156095,0.7638695232014571,-0.00016918512386907987,-0.51533659439349,6.652615396673854e-05,0.8569878420547075,-0.16956972249773913,-0.792945807183337,0.8656201620983751,0.16339113400441208,-0.7921709432994782,0.8250708327568662,-0.4139306124944567,0.7100136576397069,0.944769509865402,0.3950603129801732,0.6549231341423506,1.0359634178965715,0.0,0.0,0.0,0.0
-0.01773321010022336,0.13916227446489035,0.7639412472196893,-0.000320922101760496,-0.5155167340770681,0.0002653036672855384,0.856879410132769,-0.1721735439675535,-0.7987472802836451,0.8775450669016598,0.16140141416064174,-0.7956605144997847,0.8338393848513258,-0.42017487522830405,0.7143328489902938,0.9455797171306966,0.3955235032660735,0.6597069486856475,1.0339985034139239,0.0,0.0,0.0,0.0
-0.016224812637892418,0.14002046162908913,0.7640362982746821,-0.0005677658577971958,-0.5156379277650299,0.0007812052884893379,0.8568060427018555,-0.17602621261224735,-0.8075925000950792,0.8946237789813669,0.1585138879650847,-0.8014663182849519,0.8473170253199818,-0.4255292345029644,0.719510862508686,0.9459159000682482,0.398755941552274,0.6665349287214094,1.031355936829144,0.0,0.0,0.0,0.0
-0.01450806583706689,0.1404438899944589,0.7639976242014337,-0.0006269343355103673,-0.5154527262474821,0.0007527198035356766,0.8569174565675941,-0.15691540775504415,-0.8123578500389395,0.8788435638323221,0.15824915332948658,-0.8118918206567305,0.8662057794896876,-0.4321829531459784,0.7247011114943234,0.9458921319944441,0.3997161868695519,0.6714007708192847,1.02972700653509,0.0,0.0,0.0,0.0
-0.012870518599513353,0.14098820907451892,0.7639356576275982,-0.0007064536725138323,-0.5152893885583185,0.000917033380638832,0.8570154642783183,-0.13342375465658451,-0.8245784455578679,0.8651681827331504,0.15714028599824353,-0.8212180066324267,0.8833275384937758,-0.438324732463764,0.7293541512942086,0.9463034004233684,0.40119114284601526,0.6763382926937139,1.0281614660680984,0.0,0.0,0.0,0.0
-0.011529903834180278,0.1417166273959311,0.7638866922559046,-0.0008058584064711119,-0.5152020712711225,0.0011596149450894264,0.8570675770575813,-0.11162438877605534,-0.8402186124304007,0.8536820968540769,0.15522432902769465,-0.8278554140480675,0.8960384016176305,-0.44472062070775514,0.7333034101903265,0.9472052719668564,0.401598832746252,0.6807115887170544,1.0263838595887391,0.0,0.0,0.0,0.0
-0.010489904476354027,0.14259126994911664,0.763877727893882,-0.0009265806977943706,-0.5151799068095368,0.0014360763424398027,0.8570803595653479,-0.09301473240298369,-0.8570288256396447,0.843585100870493,0.15271218735080275,-0.8319749812541573,0.9046606146834557,-0.45127451997126894,0.7366653672237131,0.9482646572610043,0.40076898149644785,0.6844926185214643,1.024198303317631,0.0,0.0,0.0,0.0
-0.009699778899505131,0.14355250163426445,0.7638864094287923,-0.0010599624538316227,-0.5151938878394593,0.0017163380168540568,0.8570712855978031,-0.07715119072786059,-0.8739205326941811,0.834073521142658,0.14986561592889694,-0.8342893380575945,0.9102055928687146,-0.45783791124909085,0.7394204082377989,0.9495123978923794,0.39886758053050975,0.6875932373488411,1.0218445188585155,0.0,0.0,0.0,0.0
-0.009083488266148559,0.14457049766573382,0.7638928127691673,-0.0012023768629942635,-0.5152146122342528,0.0019916544185149417,0.8570580440920353,-0.06316578138457829,-0.8903088098336105,0.8246446314736285,0.14682605939942092,-0.8355329238201804,0.9137782584494261,-0.4643624951361806,0.7416237009576215,0.9509833986313594,0.396112501927632,0.6900662942594157,1.019466874313165,0.0,0.0,0.0,0.0
-0.008557409785227487,0.14565701300719044,0.7638960259577439,-0.0013597381526575995,-0.5152174184629646,0.0022720288750256484,0.8570554245259203,-0.05039081407503445,-0.9055662924326289,0.8152164603895262,0.1435801238274952,-0.836278733957314,0.9163485170574931,-0.4709299494329893,0.7434477941421529,0.9525974225716707,0.39264233713842056,0.692126616760883,1.0169525446871353,0.0,0.0,0.0,0.0
-0.008071836549223539,0.1468451995487409,0.7638868871208053,-0.0015405710354197105,-0.5151845204459038,0.0025720282570705234,0.8570740465119999,-0.038460942591460545,-0.9185541949683362,0.8061992162102382,0.1400338291094557,-0.8368532455614496,0.9184403292826537,-0.47768291635840077,0.7449373196928774,0.9544271491528382,0.3884449534243364,0.6938648635271705,1.014249236818598,0.0,0.0,0.0,0.0
-0.007623444754042546,0.1481756149061199,0.7638533632532539,-0.0017547123506286737,-0.5151118004870249,0.002907417551727149,0.8571162703547063,-0.027245465340934864,-0.9274103305985687,0.798696516872652,0.1360503913725959,-0.8372415873902136,0.9200026129969054,-0.4847391224714197,0.7460141809679337,0.9566446483048279,0.3834141218749573,0.695250242443342,1.0113686703341982,0.0,0.0,0.0,0.0
-0.007178666985021452,0.1496553978640323,0.7637653401991964,-0.0020114511760199877,-0.5149775059067476,0.0032929771392966383,0.8571950062709139,-0.016476716875383685,-0.9296736571661034,0.7941212882043363,0.13159727701646712,-0.8378038439171326,0.9214969576058906,-0.49201610622705355,0.7465445479636087,0.9594747330329949,0.37770460508907877,0.6962284156645072,1.0085016506418885,0.0,0.0,0.0,0.0
-0.006713891287572954,0.15128031936247258,0.763692171700652,-0.002311349259694489,-0.5148005346125613,0.003734261758013644,0.8572987358653594,-0.006004219383504013,-0.9238633909809952,0.7942967782062934,0.12665740310079718,-0.8382938405948225,0.9229119466573981,-0.4994918699240575,0.7470017150672624,0.962235726788756,0.37145583508682745,0.6972858195390886,1.0050278309282883,0.0,0.0,0.0,0.0
-0.006177382580199514,0.15311939729999274,0.7635917567387185,-0.0026703645028754927,-0.5145460441540065,0.00425092986812572,0.8574480550996318,0.00393065997331586,-0.9115775626896657,0.7973886457732087,0.12104007303895253,-0.8391686869291305,0.9248186378110684,-0.5074685574339484,0.74723213335509,0.9653323437564896,0.36445618607234026,0.6983209384422929,1.0010652269744031,0.0,0.0,0.0,0.0
-0.005519761765816843,0.15522760964938234,0.7634228916647693,-0.003105830038942745,-0.514183939701857,0.00486518701167635,0.8576605155466746,0.01325520146575375,-0.8950239063360301,0.8014018535852798,0.11457377767831475,-0.840834674191747,0.9277340881226258,-0.5161456423437474,0.7470946578154675,0.9691331731627116,0.35663611643529697,0.6992643350255989,0.9967578980798154,0.0,0.0,0.0,0.0
-0.004746732071302285,0.1575961779740412,0.7632047154140047,-0.0036210921963062367,-0.5137156826131528,0.00558248483637617,0.8579346834064117,0.022237145018572192,-0.8760465509255451,0.8051611740621828,0.1072465913767638,-0.8431264431430411,0.9314864530890958,-0.525350671175149,0.7466609007047668,0.9734035894605613,0.34810139364858556,0.7002276197467421,0.9919187938361379,0.0,0.0,0.0,0.0
-0.003873393261765818,0.16010900360331426,0.7629201605413696,-0.004210014004202651,-0.5131281316919292,0.006404285829718004,0.8582777996496507,0.03167015305626423,-0.8556319863309254,0.8076819205787641,0.0993304098845899,-0.846230919149692,0.9362389797655003,-0.5341432897402287,0.7456907350288726,0.9780687615104252,0.33961209719863505,0.7011053474554407,0.9869273215211963,0.0,0.0,0.0,0.0
-0.0029213418187570834,0.16247101939476516,0.7624188872142541,-0.004844549859268056,-0.5123849233405832,0.007282145850455029,0.8587113548927476,0.042595456445911825,-0.8342668154908556,0.8076772377920916,0.09169238780945356,-0.8512963247729077,0.9429950580459222,-0.5408637092529098,0.7432256274501281,0.984067270098586,0.33275904719331173,0.7010097233036922,0.9838300311900097,0.0,0.0,0.0,0.0
-0.0019714398894385586,0.16441551171266386,0.7616539674590721,-0.005512440825381887,-0.5113845013490924,0.008170247747004176,0.8592954973859919,0.054987343192364896,-0.8119349307810784,0.8026677434954747,0.08512006098756413,-0.8592121849341837,0.952349193206181,-0.5430602847726993,0.7382339393787243,0.991278504295387,0.32852106472215237,0.6990569346006398,0.9835669218440634,0.0,0.0,0.0,0.0
-0.0012060509945728242,0.16575542337338658,0.7606765457223176,-0.006241073964540949,-0.5100220700120306,0.009097662072389873,0.8600905589769191,0.06837006464159535,-0.7897760572905046,0.7892831960013096,0.07999900053313287,-0.8698191067693356,0.9634963248625522,-0.5374638398237928,0.7295612213168451,0.9988303905481399,0.32776080778407757,0.6946220431271058,0.9860452032956527,0.0,0.0,0.0,0.0
-0.0008833945570720731,0.16629647174846773,0.7596790432618034,-0.007067017878597403,-0.5082542064676518,0.01006892714243497,0.8611192342367238,0.08024428356827018,-0.7707639434992475,0.7641243998399925,0.07679504384237697,-0.8818118107922674,0.9744036791985469,-0.5210440794727538,0.7167256419390071,1.0046941584747386,0.33114104636492,0.6876374266934804,0.9899934938954636,0.0,0.0,0.0,0.0
-0.0008434645287018678,0.16637304002548764,0.75965932390157,-0.00717170019630236,-0.5082097521238679,0.010080198346895886,0.8611444734559808,0.08027184148820495,-0.7707366043328113,0.7641351723606188,0.07659331021778044,-0.881884843538025,0.9744311335176319,-0.5211482022498631,0.7166398430360952,1.0048275760954795,0.33122626869954136,0.6876324156314844,0.9898112747602985,0.0,0.0,0.0,0.0
-0.0008434645287018678,0.16637304002548764,0.75965932390157,-0.00717170019630236,-0.5082097521238679,0.010080198346895886,0.8611444734559808,0.08027184148820495,-0.7707366043328113,0.7641351723606188,0.07659331021778044,-0.881884843538025,0.9744311335176319,-0.5211482022498631,0.7166398430360952,1.0048275760954795,0.33122626869954136,0.6876324156314844,0.9898112747602985,0.0,0.0,0.0,0.0
0.001154378258891703,0.16797178464308393,0.7623772610741752,-0.005019366380248272,-0.5116112950834776,0.007355125770716809,0.859170874057684,0.08200327959622186,-0.7486584285399045,0.760894322722398,0.07832273354035797,-0.8657676147326238,0.9708685597888446,-0.43541404757681584,0.6995296020329986,1.0162941259123754,0.3020333220482016,0.7105889643409318,0.9661541914567331,0.0,0.0,0.0,0.0
0.003818625381994538,0.17002761662284313,0.7640381298244876,-0.003071394877520557,-0.5148239709747767,0.00477764149456723,0.8572770961509575,0.0822972389022892,-0.7366019747300385,0.7700331267101842,0.0786113536374545,-0.8559314982478143,0.974121125473921,-0.34830954546090276,0.6807604764301144,1.0344457040651147,0.2700723644597649,0.7299357087775905,0.9487621282856316,0.0,0.0,0.0,0.0
0.006865402869771229,0.17241404625343354,0.7645679070117282,-0.0016087341213132766,-0.5174329609764178,0.0028327351400272856,0.8557175459702402,0.08055095528278408,-0.7369191848806745,0.7922438287265176,0.07679512181519114,-0.8532208210031976,0.9839695776740418,-0.27741426897366167,0.6663709860088773,1.0566863461543767,0.23968579851995744,0.744137161168092,0.9386310814743584,0.0,0.0,0.0,0.0
0.010161236335852131,0.17494697402606343,0.7643737595139077,-0.0007596256059784636,-0.5193387407066418,0.0017082865364139734,0.8545664263983741,0.07688904517817062,-0.7478460399483854,0.8250508197377843,0.07297057389716653,-0.856196738797033,0.9992794762824356,-0.2294032837994412,0.6588576342281997,1.0811787186851454,0.21475086710457683,0.7553085118325239,0.9328269414276383,0.0,0.0,0.0,0.0
0.013240630393049858,0.17747531695072166,0.7638144775484175,-0.00030538838885670993,-0.5207767616304894,0.0011398879553043495,0.8536920826264244,0.07208299163889031,-0.7624530962258051,0.8589650443084822,0.06794978525214361,-0.860758854778729,1.0144592513583364,-0.19553815091406182,0.6547547052693137,1.1068006202063116,0.19395560141891163,0.7639943665499589,0.9295015930530719,0.0,0.0,0.0,0.0
0.01584182400882496,0.1798673474289103,0.7632721413097296,-3.9844868322316156e-05,-0.5219231083905556,0.0008053609483710496,0.8529921563145055,0.06704417270769697,-0.7758725690233922,0.8883225106799854,0.06269883380944664,-0.8642412598306425,1.026391348893027,-0.1688668558602637,0.6506824234221726,1.1327601465723276,0.17505642872492627,0.7709317049890393,0.9260435415824297,0.0,0.0,0.0,0.0
0.017896181964155208,0.18208974476497095,0.7628257162122988,0.00012741175582672422,-0.5228344732721163,0.0005890634569464992,0.8524340152344678,0.0620826407170201,-0.7870940400323834,0.9122207573665316,0.05754708553397649,-0.8661448786886138,1.0345082732461377,-0.14603261319022615,0.6458565642252079,1.1577023091661316,0.15728828836071856,0.7761119411480236,0.9221389157834812,0.0,0.0,0.0,0.0
0.019397165411517852,0.18417421883823243,0.7624305100649061,0.00023739402452148438,-0.5235525550614374,0.0004375385773055756,0.8519932360604227,0.057246524275666434,-0.796198607351985,0.9309730444284724,0.05254529200709091,-0.8664937113854289,1.0387635202093015,-0.1256271377194062,0.6404638990397575,1.1800631056068551,0.14018281970907867,0.7792545320892112,0.9183658163788423,0.0,0.0,0.0,0.0
0.02033876548621634,0.1861730124682055,0.7619806027382366,0.0003041166379932593,-0.5241052073556162,0.0003304689090337226,0.8516534095077042,0.052467235526133874,-0.8035958651415762,0.9450365935006367,0.047622089519528996,-0.8654520723645216,1.0391004218948332,-0.10729363567528268,0.6351572712207311,1.1973804985714216,0.12346572063546438,0.7798461494107254,0.9157729984499973,0.0,0.0,0.0,0.0
0.02069829789263014,0.18812490252618363,0.7613456484230672,0.00032683506552199005,-0.5245035761583347,0.00026636946927174616,0.8514081399794483,0.04766762577813269,-0.809735603947732,0.9546835036062029,0.04269818680494029,-0.8632322405615136,1.0353810453674275,-0.09130366045977036,0.6313163806991058,1.2054822874063655,0.10714195715132249,0.7772279572682999,0.9156511249867829,0.0,0.0,0.0,0.0
0.020467154899732623,0.19004926560064125,0.7604373830690441,0.0003027041482698317,-0.5247453178973203,0.000244897364809019,0.8512591848199463,0.042815489774912945,-0.8149728082408156,0.9601453718272501,0.03774144586313853,-0.860038244944538,1.0275839370871955,-0.07811676613404421,0.6316942750494606,1.1981922296327479,0.0913420815941723,0.7709856558525168,0.9188396358101171,0.0,0.0,0.0,0.0
0.01965678882384234,0.19201736604679448,0.7592725377778142,0.0002426199931178706,-0.5248573866154135,0.0002587507247643157,0.8511901067909798,0.0377462423330807,-0.8192888983897907,0.961603421036791,0.03258626650733708,-0.8555286349167752,1.0153470172817927,-0.06670627477974571,0.6336394855984931,1.1815949849185592,0.07559359962140469,0.7613192904469402,0.9249110567284683,0.0,0.0,0.0,0.0
0.01830515504358082,0.19405785073225398,0.7579161935295646,0.0001643818243872184,-0.5248564879843642,0.00029009045917708796,0.8511906695017634,0.03242943004861354,-0.8225084653012321,0.9592006741084446,0.027206185702682954,-0.8494398194948665,0.9985904235915616,-0.05610099767807561,0.6358942762397389,1.159735396540963,0.05962917055989997,0.7487388337206502,0.9329729667952791,0.0,0.0,0.0,0.0
0.016453747091185193,0.19612798886938468,0.7564316943398304,8.890135461361929e-05,-0.5247522415407523,0.0003207002228636037,0.8512549408055569,0.02701975735534996,-0.8243140038701715,0.9528335783089258,0.02176203527612059,-0.8416913077902329,0.9774806025154961,-0.04557122163732675,0.6379625755604629,1.1348985011801838,0.04373648200046201,0.7337913114930372,0.9423632302981464,0.0,0.0,0.0,0.0
0.014171499000731926,0.1981019792413449,0.7548616527938863,4.292049742319128e-05,-0.524552876447951,0.0003224649760323928,0.8513778091918714,0.02191262274439409,-0.8243601213007619,0.9423408826057844,0.01665248340977889,-0.8325978647388331,0.9527427886994857,-0.034591371796435184,0.6397980121804173,1.1083526035230151,0.028699052538149014,0.7170113524926003,0.9528788264414316,0.0,0.0,0.0,0.0
0.011579486685546288,0.19981202577684487,0.7532118512260461,5.595000617255239e-05,-0.5242533820926077,0.00025114087022907094,0.8515622849576667,0.017655725884992916,-0.8226287560223481,0.9280071320574932,0.012419290209466456,-0.8230809944882752,0.925939202156847,-0.02270758376749698,0.6417468793800661,1.080787507608932,0.01534758411205501,0.6988089308108355,0.9647442006749352,0.0,0.0,0.0,0.0
0.008871510957959905,0.201165539290903,0.7515027731449717,0.00012910969837744656,-0.5239211660683838,0.0001536248380244669,0.8517667353657572,0.014366023039321005,-0.8193832153569867,0.9108443021324518,0.009165405897684577,-0.8137144129080159,0.8987014283921745,-0.008658244834392658,0.6442267679306232,1.052683830618202,0.004636080487187661,0.6802669373155817,0.9779734713390847,0.0,0.0,0.0,0.0
0.006703423133350719,0.20218312614266404,0.749706112474056,0.00023430877357011104,-0.5235291349618809,1.2043301386378173e-05,0.8520077404580443,0.012076859332622149,-0.8182221565951978,0.8975012038322114,0.006905522173218967,-0.8081037588104815,0.8777086107050371,0.006819208917475443,0.6495705257865129,1.0246580872611126,-0.0037650473064858754,0.6630857602599711,0.9919990842172501,0.0,0.0,0.0,0.0
0.00538904425980291,0.20270222057872497,0.7482573538173521,0.0003597916640284964,-0.5232192443262745,-0.0001695198437439692,0.8521980193473951,0.011177027195029046,-0.8183888037038324,0.8894249440193341,0.006022021159372314,-0.8063936370565823,0.8659129966676289,0.021868445777789777,0.6567268673039466,0.9985758393132139,-0.008933517488349136,0.6506564117434167,1.0035187282088422,0.0,0.0,0.0,0.0
0.005409879264254577,0.20270478452211413,0.7482215051947295,0.0003858117646452333,-0.5232106586686905,-0.000177249435628652,0.8522032776206595,0.011184150399858109,-0.818434143079483,0.8894123861678941,0.006033192256204026,-0.8064221758261532,0.8657950570093117,0.021874792980576735,0.6567345183024071,0.9985734966342203,-0.008924955888404168,0.6506328128865222,1.0034927520806853,0.0,0.0,0.0,0.0
0.005409879264254577,0.20270478452211413,0.7482215051947295,0.0003858117646452333,-0.5232106586686905,-0.000177249435628652,0.8522032776206595,0.011184150399858109,-0.818434143079483,0.8894123861678941,0.006033192256204026,-0.8064221758261532,0.8657950570093117,0.021874792980576735,0.6567345183024071,0.9985734966342203,-0.008924955888404168,0.6506328128865222,1.0034927520806853,0.0,0.0,0.0,0.0
0.005409879264254577,0.20270478452211413,0.7482215051947295,0.0003858117646452333,-0.5232106586686905,-0.000177249435628652,0.8522032776206595,0.011184150399858109,-0.818434143079483,0.8894123861678941,0.006033192256204026,-0.8064221758261532,0.8657950570093117,0.021874792980576735,0.6567345183024071,0.9985734966342203,-0.008924955888404168,0.6506328128865222,1.0034927520806853,0.0,0.0,0.0,0.0
0.005617259569344396,0.20306143425167472,0.7481459737846025,0.0007759321817301929,-0.5229609418941392,-0.000520278485445249,0.8523561347774424,0.010977405344512817,-0.8209011913667934,0.8933130598226101,0.005824675968426396,-0.8094074533086943,0.8688923587750473,0.014705098458995074,0.6579941314265987,1.0002651734646324,-0.015901860563279337,0.6486896439497986,1.0016506385924258,0.0,0.0,0.0,0.0
0.0063202618668434934,0.20335703729192228,0.748040882546613,0.0009833238903376109,-0.5228976979872417,-0.0007061930090158032,0.8523945869168832,0.010620755958725404,-0.8253369855032501,0.9014056160921378,0.005462912230852442,-0.8137262044911632,0.87594881577439,0.010166859536788118,0.6603740162552751,1.0016570514638437,-0.02036052745608137,0.6492252970681885,1.0004673587651807,0.0,0.0,0.0,0.0
0.007563156086012354,0.20346020768890793,0.7479043038163241,0.0010290225923842648,-0.5230829116073749,-0.000750140858181789,0.8522808492425185,0.010474925129487361,-0.8311532311375646,0.913090961535452,0.005305831300803415,-0.8195209877945767,0.8874413304437703,0.008929621755522388,0.6641956233164151,1.002402156104419,-0.021788033413357326,0.6524954336420025,1.0004425886715864,0.0,0.0,0.0,0.0
0.009376636009404651,0.20334449640298616,0.7477568052336955,0.0009148015134301324,-0.5235407405470158,-0.0006551741381694661,0.8519998983993613,0.010616811694988541,-0.8381417700966771,0.9282458681272081,0.00542961153922056,-0.8267002406412016,0.9034157585682125,0.011239129703071803,0.669718571995869,1.0021853622588124,-0.020017978100342552,0.6588124153953557,1.0014215665887878,0.0,0.0,0.0,0.0
0.011787295485949156,0.20307575916527307,0.7476570185961036,0.0005393730404278637,-0.5244005769799308,-0.00033223919669520414,0.8514714519917593,0.010700287475122795,-0.8458392280262316,0.9466341946542949,0.0054908626793161025,-0.8338664736488366,0.9225890535122152,0.018123785614207397,0.6772681445852173,1.000697565686796,-0.014087101634314866,0.6693747040073809,1.0028602893170662,0.0,0.0,0.0,0.0
0.014770458811867726,0.20287772921622368,0.7476620207048287,-0.0002408661101840931,-0.5257571699896585,0.00042120215519047676,0.8506345647672252,0.009687118529828103,-0.8543351487806929,0.9684600575485408,0.004459296348060885,-0.8390046072713172,0.9427001715747183,0.030789535950899696,0.6865730821906585,0.9979642987765428,-0.0027176674507969865,0.6855712702081678,1.003701923828785,0.0,0.0,0.0,0.0
0.017060932542385526,0.20285946753751904,0.7474327470629567,0.00010473852622217354,-0.5254782692577618,0.00027398024881908795,0.8508069713528043,0.009978566055900117,-0.8667050687918468,0.9904571488510089,0.01668719400997297,-0.847416907937536,0.9245812409549816,0.028385761499312694,0.6927426059788315,0.9965366123174454,-0.005442563398219864,0.6902225789694878,1.002089587130297,0.0,0.0,0.0,0.0
0.019116638179897828,0.20277824711850426,0.7471829301340157,0.0002488427839451554,-0.5255383563017153,0.0003052408339789795,0.8507698166725202,0.01006631612281604,-0.8762555601929366,1.0082911213384278,0.033793864631734,-0.8627533710722989,0.910046640036044,0.02888324380112724,0.6982025875927792,0.9957622195974651,-0.005400140089295799,0.6957343431061249,1.0020243710411638,0.0,0.0,0.0,0.0
0.020847533350425444,0.20272863452080936,0.746950902179883,0.00021923601477538492,-0.5258896569919465,0.00048265248006292683,0.8505526366140113,0.009766326532410849,-0.8830203430736931,1.0219474272845541,0.051057404454989394,-0.881323208756254,0.8999451007129937,0.0313882268935886,0.7028683614948517,0.9956514053737247,-0.0034345680732678742,0.70179981086811,1.0027665395202958,0.0,0.0,0.0,0.0
0.022153392787379784,0.20279986280528192,0.7467633905534268,0.00016703183887744341,-0.5262563279860833,0.0006743451496055592,0.8503256991374469,0.009110635036046564,-0.8879019437672395,1.032097641424959,0.06707451783006657,-0.9012909110361376,0.8920108593861263,0.03319150990761044,0.7064903009738501,0.9960992458925376,-0.0020949360571994105,0.7068003663148141,1.0032267504507628,0.0,0.0,0.0,0.0
0.023010449607596264,0.20302700211359231,0.7466420792629787,0.0001298595136537523,-0.5265443764029729,0.0008462144710279304,0.8501472147434114,0.008076489906258482,-0.8912783172598746,1.0391219654653778,0.08188766569922201,-0.9216136742750823,0.8846630344373055,0.03338852983819991,0.7090386683388673,0.9970024602641431,-0.0022450215815629742,0.7102409087625597,1.002966187340531,0.0,0.0,0.0,0.0
0.023449172441382005,0.203416073332651,0.7465921857725317,7.863175051797427e-05,-0.5267776882374463,0.0010240710905135512,0.8500024778026598,0.006595141282294265,-0.8932561591069674,1.043292808744611,0.09596845963947125,-0.9415552596248428,0.87718178817962,0.03228221702208308,0.7105767142684767,0.9983398375568884,-0.003590531614679392,0.7123841960136184,1.0019933956930602,0.0,0.0,0.0,0.0
0.02351192682922553,0.20397032084538175,0.746609045868732,-2.310732252296737e-05,-0.5269992254182236,0.0012416550829270946,0.8498648564138295,0.00459011168981378,-0.8939155237520097,1.0448734767608956,0.10977030809225509,-0.9602594154217688,0.869466310054202,0.03037981974936963,0.7111644413369259,1.0001437965884241,-0.005630343641547075,0.7136241167202961,1.0004097904213654,0.0,0.0,0.0,0.0
0.0232179170599651,0.20470657331306202,0.7466906276324177,-0.00018493458577136104,-0.5272089132051432,0.001510023887024169,0.8497343393461931,0.0019974331657367237,-0.8934050598910928,1.0440989343243605,0.12354500110913835,-0.97640103570973,0.8619641004076618,0.02771662221523755,0.7108159761247238,1.002443206916713,-0.008316994366084518,0.7140613181519949,0.9981550360433897,0.0,0.0,0.0,0.0
0.022552803072399336,0.20565594895669323,0.7468462929056435,-0.00040046658665197134,-0.5273826977181646,0.0018241143198316613,0.8496258013860997,-0.0012480264188633825,-0.8917917463080662,1.041008983547821,0.13719798375572095,-0.9879457738490006,0.8559123340086255,0.02396182417993624,0.7095230116441628,1.0052321829854338,-0.011947589576440877,0.7135934623168837,0.9949890579915264,0.0,0.0,0.0,0.0
0.021471362157850237,0.206865923591269,0.7471019309933984,-0.0006337082671392199,-0.5274539933302353,0.002151592379204872,0.8495806341860989,-0.005195103525672939,-0.889129361211711,1.0355357107670442,0.15027796863866894,-0.9925457097167864,0.8532771568108459,0.018219178298612047,0.7072938037792111,1.0084072663095156,-0.01733635220191053,0.7118483934562484,0.9903812453982064,0.0,0.0,0.0,0.0
0.019948874187501707,0.20836887332870752,0.7474946350850479,-0.0008809824706871167,-0.5274283406110938,0.0024818889648918745,0.8495954387926529,-0.009888218007799585,-0.8851532027765427,1.0273970285312615,0.16219175116868345,-0.9885851687227918,0.856305371109056,0.010198687394861253,0.7043002090982392,1.0117429729280485,-0.024681887458956282,0.7089733922866499,0.9838381631995636,0.0,0.0,0.0,0.0
0.018000743447285826,0.21016135200890956,0.7480254919036131,-0.0010868150925427732,-0.5272292445356773,0.002773725938871818,0.8497178643430474,-0.015222349789109774,-0.8801439449449246,1.0168700422464159,0.1733766173506705,-0.9778481336529642,0.8629196826806467,-0.0006608129249315465,0.7005812383259004,1.0150350189784882,-0.034389302904566654,0.7047583060791743,0.9750334833255507,0.0,0.0,0.0,0.0
0.015685219462399622,0.21221795951073064,0.7486948682671012,-0.0012100164900896125,-0.5268323437280996,0.0030026022798076554,0.8499630591041004,-0.02107456132314654,-0.8742890000866401,1.0043067052251162,0.18457406769553306,-0.9630800915824226,0.8713942589199123,-0.014393759383916044,0.6963243599837494,1.017985837270748,-0.04634277903094234,0.6994402651669951,0.9637278637857528,0.0,0.0,0.0,0.0
0.013081533115042551,0.21448849107959883,0.7494706539764624,-0.0012068880246381402,-0.5262384929330598,0.003153926397247117,0.850330315068867,-0.02729130262257202,-0.867805554297769,0.9900988156613414,0.19672006327341532,-0.9469620418261857,0.8810616031996324,-0.030716951699376608,0.6916326679192887,1.0204998894960462,-0.06015752023576164,0.6933049518324849,0.9500686957997948,0.0,0.0,0.0,0.0
0.010291604928065745,0.2168452353044834,0.7501764909143902,-0.0010940023263066913,-0.5255716073808795,0.0032764316557024552,0.8507423544585012,-0.03366006212709622,-0.8607973436639036,0.9743017379336738,0.21100293175634036,-0.931923589179911,0.8926685007640937,-0.04789092734505855,0.6860137004211541,1.0236498954929403,-0.07426725318471669,0.6865518712837756,0.9361587843986905,0.0,0.0,0.0,0.0
0.0075749371396430214,0.2188259613199328,0.7505528742612466,-0.0011230682529969548,-0.525432175442676,0.0035592746890829126,0.850827302859378,-0.039319358888244706,-0.8514391103844441,0.9553701272296692,0.22912578900304484,-0.9198680559303547,0.9098708544176644,-0.059486949164747435,0.6795124489137895,1.028806907359478,-0.08341591422139868,0.6810375235284721,0.9274300452909714,0.0,0.0,0.0,0.0
0.005344676488484302,0.22016534948265443,0.7506404800083168,-0.0015789822999763697,-0.5262471172316449,0.004228252992580076,0.8503197047563408,-0.04401210970233667,-0.8391869669671266,0.9344244750507273,0.25107286654368843,-0.9122734411957262,0.9377588023431755,-0.06095997722203369,0.6737956493279125,1.0351384084544353,-0.0842821750312061,0.679521843285277,0.9258102663071456,0.0,0.0,0.0,0.0
0.004046283144213047,0.22075540527282086,0.7506078021103922,-0.002687534395519772,-0.5282199108927643,0.00531928056516823,0.849086690597363,-0.04742334941095161,-0.8246580610652748,0.9143837311587414,0.2743698205158904,-0.911418047893797,0.9828076276213689,-0.050484170861639796,0.6711902289952767,1.0409583512685845,-0.0754769161037666,0.6846112496277962,0.930593924768821,0.0,0.0,0.0,0.0
0.003828728582375669,0.22069888680864103,0.7505421245296093,-0.004219527759776424,-0.5307728832130796,0.006318258153419004,0.847480042033478,-0.04863801342493544,-0.8112337959626112,0.8997848179492067,0.2944919623844499,-0.9213130576406116,1.0458462069602965,-0.03328657534903236,0.6724330090358032,1.045064064126071,-0.060942024111361195,0.6945599217481788,0.9384432451532402,0.0,0.0,0.0,0.0
0.0038437537131062014,0.22074207791462383,0.7505205408027043,-0.004205851991089641,-0.530768595833804,0.006302292971117248,0.8474829140395381,-0.04867119019569572,-0.8112409137450753,0.8997122325150909,0.29451441554205676,-0.9213386822112233,1.045846083817543,-0.03338896193361241,0.6723322544685927,1.0452311821574012,-0.060821815081562494,0.6947015272055629,0.9382717654355046,0.0,0.0,0.0,0.0
0.0038437537131062014,0.22074207791462383,0.7505205408027043,-0.004205851991089641,-0.530768595833804,0.006302292971117248,0.8474829140395381,-0.04867119019569572,-0.8112409137450753,0.8997122325150909,0.29451441554205676,-0.9213386822112233,1.045846083817543,-0.03338896193361241,0.6723322544685927,1.0452311821574012,-0.060821815081562494,0.6947015272055629,0.9382717654355046,0.0,0.0,0.0,0.0
0.0035327854479526044,0.22199429512682525,0.7528347567297167,-0.0025769188681282395,-0.5284087586237728,0.0045688744986615145,0.8489738916389867,-0.048250094528848285,-0.8146453195136584,0.9073949934529562,0.29582163845752824,-0.9276656719326476,1.0526080954917507,-0.06587690123541445,0.683746870913721,1.0266923548610571,-0.030470552917874556,0.6644107868425231,0.9821364621658583,0.0,0.0,0.0,0.0
0.0036645874811938447,0.22384938982600766,0.7557666483637483,-0.0018782082672178795,-0.527244825378812,0.0037233397045316357,0.8497031853455745,-0.05105016958738438,-0.8146374731918806,0.915433494616876,0.292964172771807,-0.9256859874892394,1.0553141162351944,-0.08910871457307831,0.6990062040201918,1.0042146121462057,-0.0035612012440952995,0.6452465333202021,1.0183077368436362,0.0,0.0,0.0,0.0
0.003944644363876945,0.2261390006288716,0.7586825902957305,-0.0018011161945829736,-0.5267327837574312,0.0035195818579560356,0.8500217309217136,-0.056245416240810066,-0.813827706314786,0.9235989732801714,0.28722415284670305,-0.9195614753585566,1.0550687123521025,-0.10698506137960057,0.7144190092651236,0.982812163214038,0.015472178085754636,0.6324110778773373,1.0491013576323145,0.0,0.0,0.0,0.0
0.004249512025672415,0.2287463604047531,0.7614101026120645,-0.0019895322359230376,-0.5264094447196943,0.003640626969874789,0.8502210795473443,-0.06293059188025539,-0.8137276071491222,0.9323786911640882,0.279904919702741,-0.9123560828611221,1.05354575991865,-0.12336618667770594,0.7288172933281891,0.9635376345766283,0.029400836658732214,0.6228324362383636,1.0765919476171835,0.0,0.0,0.0,0.0
0.00453872743953581,0.2315597879417969,0.763911402358012,-0.0022885212959269036,-0.5261139209194694,0.003928558666567584,0.850401946912061,-0.07050621277198194,-0.8145609073558262,0.9416409426637995,0.27174385846753196,-0.9051490398093786,1.051409366958038,-0.13944804607586656,0.7419068429570631,0.9464428341113352,0.040987127765671476,0.6151556824920087,1.102065592677367,0.0,0.0,0.0,0.0
0.004747988309225846,0.23446475009168607,0.7661913940614834,-0.0026233347101962973,-0.5258005342958014,0.004265718618705181,0.8505931576811055,-0.07841549982672383,-0.8158053902642435,0.950491657249348,0.2632919606649209,-0.8980432653782864,1.048449390313997,-0.15558733129848684,0.7536230937629904,0.9313260627084267,0.05118339212303128,0.6084331557961477,1.125977841190204,0.0,0.0,0.0,0.0
0.0047755211764862505,0.23736668736425032,0.7682445721696431,-0.0029550674084483468,-0.5254788724118371,0.00459271790911797,0.8507891214440879,-0.08627115612651452,-0.8166629927620168,0.9575947939921642,0.2548547062418075,-0.8906440687504394,1.04383943617313,-0.171636069176126,0.7637112369720565,0.9182264265385869,0.060832039842426584,0.6021704730337187,1.1481695533691845,0.0,0.0,0.0,0.0
0.004576096999294441,0.2402314909038481,0.7700550681401843,-0.0032775536389738195,-0.5251536651350435,0.004890243740309565,0.8509870569835564,-0.09392840433867819,-0.81691379551121,0.9624992857690537,0.24654497930324076,-0.8828316959540798,1.0372459221990926,-0.1874223276670204,0.7719286767610737,0.9073667378214847,0.07047129941490562,0.5964900038704126,1.1676526487637657,0.0,0.0,0.0,0.0
0.004085504651217715,0.24308598901188175,0.7715907575757024,-0.0035717587392203806,-0.5247953944091117,0.005143387424795818,0.8512053701148109,-0.10142218081558796,-0.8165928121669405,0.9649374853937699,0.23831522505089206,-0.8746109645337867,1.0282977531122628,-0.20322433861941377,0.7778283865041111,0.8992578590227356,0.08081237323466847,0.5918115260940424,1.182247371225475,0.0,0.0,0.0,0.0
0.003223126210322163,0.24600640399595494,0.7728079894426283,-0.003793511295951888,-0.5243327273081828,0.005320794165545071,0.8514883965710034,-0.10889512770332636,-0.8159598347920449,0.9647995152340569,0.2300360008368346,-0.8661645351323676,1.0166423421254636,-0.21985710700665043,0.78081150450181,0.8945848723996017,0.09276696550865807,0.5891657701322411,1.1879617804425693,0.0,0.0,0.0,0.0
0.0019405871995962164,0.24908061060939546,0.7736899651707629,-0.0039101580137890475,-0.5237051984938422,0.005403821657563843,0.851873449783667,-0.11654722470807129,-0.8152936424075216,0.962176244266939,0.22152592353629189,-0.85761402888245,1.0020469460732848,-0.2379839472920302,0.7805002575903162,0.8936955852431219,0.10724669059198418,0.5910544100999128,1.1788802347259209,0.0,0.0,0.0,0.0
0.00022140522700567298,0.2523034853085773,0.7743031746096232,-0.003931724060102914,-0.5229427215188577,0.0053844168601317995,0.8523417504800771,-0.12430953019666265,-0.8140809916354482,0.9565655608256914,0.21279411974100126,-0.848400584135551,0.9839549593824334,-0.2572615638864762,0.7772040107753644,0.8958724997548688,0.12360422005385988,0.5947158557940679,1.1610553128149832,0.0,0.0,0.0,0.0
-0.0019166270943516625,0.2556498603166544,0.7747363443519383,-0.00385580033753818,-0.5220663654653913,0.005246743702083652,0.8528800118035585,-0.13204929303751922,-0.8118734037571996,0.9476906371848753,0.20394123878797887,-0.8381093948412724,0.9621134211446664,-0.27733198672788334,0.7714812480058845,0.900005929637461,0.14148760773853084,0.5987939490208901,1.1387339747390746,0.0,0.0,0.0,0.0
-0.004443452040798171,0.2590642689275261,0.7750560227357705,-0.003642621198060846,-0.521069056101096,0.004941404841608139,0.8534924443736521,-0.13950635470526493,-0.8083995372403868,0.9354388492161226,0.19523743157623372,-0.8267003349279033,0.9366241097306595,-0.29806809784684246,0.7638387887350129,0.9050663049166763,0.16142314373739836,0.6027287468767176,1.114699922237138,0.0,0.0,0.0,0.0
-0.007280704890728835,0.26242404555362225,0.7752914090077205,-0.00321860587189657,-0.5199269807073292,0.004387015115923815,0.8541933793978823,-0.1462197765054427,-0.8037139138967759,0.9201402912191794,0.18721770365626872,-0.8147503345627012,0.9083891969288416,-0.31935142217655227,0.754761981616586,0.9101867697333748,0.18553499081636765,0.6067944312999367,1.0911279018490505,0.0,0.0,0.0,0.0
-0.01020129938349442,0.26552204785098654,0.7753793206581325,-0.002415771487355301,-0.5184805712076387,0.0033787378374543846,0.8550793211503523,-0.15137904280456843,-0.7995314441943628,0.904339342639109,0.18101767990469195,-0.8051521907826611,0.8812299837747916,-0.3418782406626256,0.7446076191057927,0.9149056392960286,0.21803250179232733,0.6125432115989417,1.0697414888508934,0.0,0.0,0.0,0.0
-0.012796879057250436,0.2682278336133443,0.7751702027535352,-0.0012052403335291435,-0.5166421192599989,0.0019404675723010151,0.8561984014163285,-0.15495478179255742,-0.7989890018823942,0.8928756079594238,0.1770929705185329,-0.801546876117287,0.8608364735762858,-0.3650320279039311,0.7334979112737141,0.9198563198391719,0.2648985283215839,0.6216162169119381,1.052737058231898,0.0,0.0,0.0,0.0
-0.015015189918488797,0.2703528618440856,0.7741369409738137,0.00010639778641154468,-0.5146467653095855,0.00041689293560540747,0.8574021937435031,-0.15723283302845278,-0.8032858894381598,0.8863244679134822,0.17520955664581142,-0.8045656965667924,0.8479300175086942,-0.3848176268942902,0.7186781557631311,0.9305859485393888,0.32420223599509435,0.6324025059703314,1.042119070132175,0.0,0.0,0.0,0.0
-0.016525841829947218,0.27159276302833985,0.7726179127133764,0.0010257749907538992,-0.5128970316964766,-0.0006958776784705107,0.8584492404428281,-0.15834334266538858,-0.8110532878553026,0.8851920897142729,0.17502007931937688,-0.8120579499049806,0.8432540861017064,-0.39570148323041987,0.7030997768750801,0.9439997379386786,0.38548913425046366,0.6406032551775646,1.041195274469534,0.0,0.0,0.0,0.0
-0.01650449894260685,0.27163493966304914,0.7725707248822234,0.001083656127539173,-0.5129048151514026,-0.0007309617606351375,0.8584444897480601,-0.15838488528174402,-0.811118151793562,0.8852447582658884,0.1750331997924227,-0.8120670291028647,0.8430878018910167,-0.3957398630830562,0.7030129980322254,0.9438882409615574,0.38551915203961334,0.640582447472423,1.0411881588666492,0.0,0.0,0.0,0.0
-0.01650449894260685,0.27163493966304914,0.7725707248822234,0.001083656127539173,-0.5129048151514026,-0.0007309617606351375,0.8584444897480601,-0.15838488528174402,-0.811118151793562,0.8852447582658884,0.1750331997924227,-0.8120670291028647,0.8430878018910167,-0.3957398630830562,0.7030129980322254,0.9438882409615574,0.38551915203961334,0.640582447472423,1.0411881588666492,0.0,0.0,0.0,0.0
-0.017042971923941556,0.2719279432735173,0.7729470356795739,0.0006378141908978279,-0.513962389555059,-0.0004650106102207393,0.857812356568174,-0.1588819264694825,-0.8012947774925823,0.8735981399009685,0.17315980186771465,-0.7996687711457161,0.828386666126732,-0.39547249836422493,0.70592991271322,0.9434667661873295,0.39031167796998323,0.6450733028742368,1.0399674182808207,0.0,0.0,0.0,0.0
-0.01727125266972798,0.27241953883127173,0.7731291610090156,0.00034278856873903434,-0.5146526048740826,-0.00023701268666611892,0.8573986952505263,-0.16014674057148595,-0.7961529686796007,0.8679221190487861,0.17112917784142265,-0.7919570845356453,0.8193751982782875,-0.3973538547055031,0.7079298729667127,0.944427872464023,0.3922865538677613,0.6481416272024331,1.0391566449496645,0.0,0.0,0.0,0.0
-0.017096123153038257,0.27301292796582183,0.7732355564530402,0.00013256521613948973,-0.515111580131726,-4.3175979502209274e-05,0.8571231186804464,-0.16186667274466526,-0.7949875347075017,0.8682413890416472,0.16915126955919185,-0.7883848984551568,0.816443170769037,-0.40090378190124437,0.710283874043768,0.9456479311888016,0.3930155302112512,0.6512005752799603,1.0381567704966261,0.0,0.0,0.0,0.0
-0.016477110811879837,0.27368059130821804,0.7733097647487012,-3.861048961303101e-05,-0.5154092272275614,0.0001397965149610081,0.856944168225009,-0.1639928083778913,-0.7974758966162512,0.8745078412172674,0.16722776344384008,-0.7886030782736376,0.8196178136412524,-0.40583953036852827,0.7135047167250258,0.9467557888193908,0.3934104408983395,0.6549311311168267,1.0367701144579164,0.0,0.0,0.0,0.0
-0.015402965580534085,0.27444450427613837,0.7733762160762501,-0.00020520626467191848,-0.5155898769017099,0.00034662975656214013,0.8568354081004592,-0.16664218138915113,-0.8033453807465925,0.8864998134566383,0.16520698071894918,-0.7921685634519351,0.8285239082862315,-0.4120910558095495,0.7178445520597271,0.9476178372944822,0.3939353828186542,0.6597419572852311,1.034816808843417,0.0,0.0,0.0,0.0
-0.01388579293154597,0.27532567512273515,0.773463965466314,-0.00047374101267287123,-0.515721890383592,0.0008786797128873927,0.8567554699391124,-0.17057383798819206,-0.8122212865992653,0.9035975859189885,0.1622516636487278,-0.7980003419930977,0.8421068474193407,-0.41743633903169025,0.7230562700595927,0.9480466101199231,0.3973183155930404,0.6666553163057086,1.0322119812438888,0.0,0.0,0.0,0.0
-0.012153324620677381,0.27577184296438273,0.7734109925045101,-0.0005567156505340389,-0.5155226429914878,0.0008654869611685452,0.8568753384028948,-0.1513437640287145,-0.815561294228092,0.8850489452804849,0.1619364342922639,-0.8086615619079678,0.861340511877767,-0.424032170833164,0.7282072365849014,0.9481038969927937,0.3983609558099713,0.6715063246403272,1.0306194707475351,0.0,0.0,0.0,0.0
-0.010493491360270613,0.27634335973310326,0.7733334240238448,-0.0006577383890522166,-0.5153499911590903,0.0010462389050421603,0.856978914196079,-0.1279007205081204,-0.8268720143156081,0.8696217416218173,0.16076206453712752,-0.8182213334461198,0.8788221558083091,-0.43018340604548727,0.7328495684002319,0.9486301751705283,0.39992314761681796,0.6764634694790613,1.0291031709642804,0.0,0.0,0.0,0.0
-0.009128915628039119,0.27709584438929713,0.7732728594836145,-0.0007733722762956716,-0.5152538049539607,0.0013029662199015135,0.8570363006634071,-0.10616891559513464,-0.841962874000719,0.8570909164533418,0.15878800322950581,-0.8250817070291551,0.8918828556042013,-0.43663424567369896,0.7368196837738654,0.949618778776899,0.40039324472842563,0.6808737037160476,1.027343031237888,0.0,0.0,0.0,0.0
