zhuoxili-jackie/tripod-support-walk/examples/trajectory_walking_sideways_sc_left_v0.20.csv
root_pos_x,root_pos_y,root_pos_z,root_rot_x,root_rot_y,root_rot_z,root_rot_w,FL_hip_joint,FL_thigh_joint,FL_calf_joint,FR_hip_joint,FR_thigh_joint,FR_calf_joint,RL_hip_joint,RL_thigh_joint,RL_calf_joint,RR_hip_joint,RR_thigh_joint,RR_calf_joint,FL_foot_joint,FR_foot_joint,RL_foot_joint,RR_foot_joint
0.0,0.0,0.72963,0.0,-0.5231245161092812,0.0,0.852256264656019,0.0,-0.81,0.872,0.0,-0.81,0.872,0.0,0.65,1.0,0.0,0.65,1.0,0.0,0.0,0.0,0.0
0.0006524594454986111,6.475145731294957e-05,0.7295781728101348,0.00025941069651845626,-0.5231918209298617,-0.0002364651484716615,0.8522148762503619,0.0003130206205434751,-0.812658357569855,0.8779960956079892,0.0003130206205434751,-0.8138454608357735,0.8787777236541081,-0.0035634355070859047,0.652848547056071,1.0005546982747295,-0.003563435507085903,0.650857042673195,0.9995192065666504,0.0,0.0,0.0,0.0
0.001930237470557833,3.225369092845683e-05,0.7294795555530411,0.0003608868367124795,-0.523429131104973,-0.00033456791104688254,0.8520690714582339,0.0005979834361876479,-0.8179441188093156,0.8894049279993214,0.0005986871220827617,-0.8198849332656336,0.8909257088659179,-0.0046710555561726074,0.6571833461714464,1.0007983505570508,-0.004651688394933981,0.6543935738267872,0.9997460158773813,0.0,0.0,0.0,0.0
0.0038070915346548415,-0.00012184679051285456,0.7293568663859297,0.00033880398596297537,-0.5238359080951295,-0.0003153962715418615,0.851819069478491,0.0009535592193423766,-0.8253981639000457,0.9055615582000377,0.0009547295539966428,-0.8279369520183029,0.908101159964033,-0.003441133356654639,0.6631473920288302,1.0004235357727609,-0.0034250802064933602,0.6606044329835046,1.000483302406739,0.0,0.0,0.0,0.0
0.006261875748373722,-0.00035777604087045836,0.7292569005612369,0.00018844307837243747,-0.5244271078740858,-0.0001715485683071018,0.8514553092130654,0.001264155202603306,-0.8346472853009519,0.9260101168210965,0.0012653250492910967,-0.8373893279289145,0.9295034674364844,6.760417501474074e-05,0.6709450387599353,0.9990720703299492,6.602040998818356e-05,0.669813900991836,1.0011148984547067,0.0,0.0,0.0,0.0
0.009265452077045338,-0.0005612435713285352,0.7292486743921144,-0.0001446846137981417,-0.5252583622189451,0.00019817999532209892,0.8509427670002979,0.0009972551891773817,-0.8453393133429331,0.9503693434413362,0.0009975514688480335,-0.8468951613546137,0.9535786599834271,0.0062900685910907035,0.6806800737002453,0.9963881203362049,0.006305285078186722,0.6828638673775747,1.000725670235917,0.0,0.0,0.0,0.0
0.011847397529586957,-0.0007100031172361173,0.7289964330891865,2.0006597597727018e-05,-0.5252319762626033,0.0001612420441494937,0.8509590734647697,0.0013842063094171562,-0.8581088667331411,0.9740864447275676,0.0077886606850792834,-0.8528692397728839,0.930740568803253,0.006339529169186448,0.6876260902629431,0.9950556257920014,0.006410493706724511,0.6895404216243314,1.000270497963592,0.0,0.0,0.0,0.0
0.014206195086146093,-0.0009300049760343661,0.7286596784182278,0.00010624548515322504,-0.5253746894093273,0.00020583057319893233,0.8508709550065303,0.0017895061045929443,-0.8688551675571253,0.9942809484461003,0.018203060292154138,-0.868121101845284,0.912584277457658,0.007940397958399,0.6936218225758557,0.994627732944499,0.008067976264712066,0.6960205851735356,1.001403689212649,0.0,0.0,0.0,0.0
0.016192226870658376,-0.0011203367849751426,0.7283562190476817,0.00012960576387213975,-0.5256550240241873,0.0003037134161583833,0.8506977645901262,0.002015439861688442,-0.8770124091352478,1.0102214918354218,0.028894458092828763,-0.8878923219658813,0.8992813663205049,0.010164093447315817,0.6988057810325425,0.9945367827669552,0.010361377286481736,0.7021885346663475,1.0027975193329641,0.0,0.0,0.0,0.0
0.017709798814413615,-0.00120666867354921,0.7281189494997009,0.0001266220534951821,-0.5259636482266392,0.000412892110049451,0.8505069395549252,0.0019542917081256874,-0.8828406061594856,1.021998456211283,0.038793249801848,-0.9093823063549575,0.8886627267736645,0.011896026992723532,0.7029404509619634,0.9947575196421634,0.012164184875153894,0.7073251564148118,1.003816211889928,0.0,0.0,0.0,0.0
0.018733483125825394,-0.0011460606071872273,0.7279613926572089,0.00010031345138245276,-0.5262526605607994,0.0005308599755888126,0.8503280810237762,0.00149377168324554,-0.8866232974959392,1.0299150668679373,0.04791365203825451,-0.9310191816114537,0.8791848698322314,0.01270088859030061,0.705911171452559,0.995333850688132,0.01301609811138821,0.7111552440837943,1.004204709810827,0.0,0.0,0.0,0.0
0.019272577028722072,-0.000908524004196417,0.7278899878631967,4.474762347857456e-05,-0.5264990356595053,0.0006684919953635851,0.8501754622227774,0.0005265651694470542,-0.888646305566806,1.0343639831208291,0.05661858714799504,-0.9515627052472482,0.8701184062125968,0.012410309386013875,0.7076915092337243,0.9962964090708701,0.012730219027387892,0.7136292172610019,1.00381366206066,0.0,0.0,0.0,0.0
0.01933873590369236,-0.00046549176429811027,0.7279098988186752,-4.561371350539449e-05,-0.5266865412619682,0.0008355365385673874,0.8500591667946338,-0.0010451512269991142,-0.8891344107674058,1.0356607564739462,0.06522502027380243,-0.9694105676159256,0.8616326467688513,0.010881777363992859,0.7082821090457094,0.9976661375587181,0.0111581431236059,0.7147460284965338,1.0024899745807674,0.0,0.0,0.0,0.0
0.018925416569813256,0.00021741040507195945,0.7280307450331109,-0.0001720727745474882,-0.5267984444194541,0.001033570106738299,0.8499895888074384,-0.003311321097466059,-0.8881895569511818,1.0339236505520042,0.07377795493999899,-0.9822762895031663,0.8549374384650144,0.007860795986167488,0.7076844998760122,0.9994514064073516,0.008053238433505685,0.714459871530705,1.000008158404993,0.0,0.0,0.0,0.0
0.018008047450654714,0.0011809405869419,0.7282715044507859,-0.00032614775331793244,-0.5268141450901547,0.0012521935451882235,0.8499795186778902,-0.006347678129763062,-0.8857853777929598,1.029082641247562,0.08197445274169947,-0.9875260822926218,0.8522743623242437,0.0029129263471425523,0.7059341899194571,1.0016036912258068,0.0030111083483973095,0.7126790448513499,0.9960101934248847,0.0,0.0,0.0,0.0
0.016582300257175255,0.0024488371785642074,0.7286587321169004,-0.0005084151241244305,-0.5267547173840257,0.0014866072284949686,0.8500158817496793,-0.010189010384056308,-0.8816885339295103,1.0209439486970338,0.08943568118629727,-0.9835053795567695,0.8561800247557115,-0.004095744632325098,0.7032282137990328,1.0039516332232707,-0.004022975602978853,0.7096419492127107,0.9901396698445571,0.0,0.0,0.0,0.0
0.014697808123574671,0.003988685610123409,0.7291735262415608,-0.0006929112546046372,-0.5265961388752454,0.0017186017625980502,0.8501135646510165,-0.014698496017655625,-0.8761091679331034,1.0097975521950362,0.09666641537111269,-0.9722076558068582,0.8645852085357643,-0.013095573031137429,0.6996216631033865,1.006383304157005,-0.012868696825121314,0.7054362907223077,0.9824366555408542,0.0,0.0,0.0,0.0
0.012447340013709002,0.005742866565882713,0.7297939178241918,-0.000867935064564572,-0.5263683090983594,0.0019471316104458622,0.8502539964881961,-0.019712292683207507,-0.8691472499656105,0.995985398326539,0.10441312760942195,-0.9567330387319022,0.8759960519865302,-0.02355493891262304,0.6953393373916784,1.008734947710273,-0.022894854347544177,0.7005405771883243,0.9730976927882228,0.0,0.0,0.0,0.0
0.009942451762040675,0.00763452650416468,0.7304638925229879,-0.0010369644057560145,-0.5261433226569283,0.002190371889459742,0.8503924570451776,-0.025063017836349795,-0.8608720971958936,0.9798279945245305,0.1134249652107348,-0.9400124476323048,0.8903488969799973,-0.034594215130354905,0.6905383870584819,1.0111388055194557,-0.03320109380507011,0.6954835707241795,0.9628015852868698,0.0,0.0,0.0,0.0
0.0073261423428979035,0.009521983965847965,0.731013935884892,-0.001241193823744615,-0.526068330258627,0.0025037885179901988,0.8504377122281497,-0.030500272265838888,-0.8514088716125183,0.9615818564985353,0.12443831567071087,-0.9246891221065191,0.9092645655865514,-0.04446955029143416,0.6849705182952052,1.0146556736552677,-0.04217821583722209,0.6905922932808678,0.9537596836761673,0.0,0.0,0.0,0.0
0.004905774562525678,0.011007779361053252,0.7312327134411379,-0.0015615606853974608,-0.5264463676151604,0.002931977922711998,0.8502018507733854,-0.03506785401478758,-0.8404290387228521,0.9415171685520386,0.13842435232537004,-0.9136011442766437,0.9366225069225559,-0.049673637774163316,0.6789780031410377,1.0201208927844398,-0.04673633593523716,0.6867508871490893,0.9498533171515158,0.0,0.0,0.0,0.0
0.0032397171560489494,0.011968035026425516,0.7312069077900831,-0.002164697968888407,-0.5274429811036979,0.0035618265893520244,0.8495802076075543,-0.03861577433124219,-0.8295617075430528,0.9238668008972809,0.15363845069264503,-0.9098253541150424,0.9778150689297139,-0.04812488705917104,0.674673077893553,1.0261606600037008,-0.04515556393943948,0.686599946746804,0.95089083955645,0.0,0.0,0.0,0.0
0.0027046805698051324,0.012292147701644243,0.7310919435544243,-0.0031044475862685764,-0.5290148739581807,0.004250829869917354,0.8485962267071492,-0.04048544977891217,-0.8203505897862375,0.9122889593412817,0.16756717344848004,-0.9186623614608393,1.036009689188426,-0.039808576521911485,0.6739903604415843,1.0308514227435537,-0.03738669358951841,0.6915493566054267,0.9553782112645226,0.0,0.0,0.0,0.0
0.0027075104264622824,0.012332804238935695,0.7310829314838067,-0.0031277231816791012,-0.5290103676716416,0.004247639155121175,0.8485989664177191,-0.040532329903571786,-0.8203583964817124,0.912214754212806,0.1675766615426261,-0.9186811200514454,1.0360188074275314,-0.039848708002226466,0.6739233933918359,1.0309714164035222,-0.03733865392305219,0.6916214184812257,0.9552323092229726,0.0,0.0,0.0,0.0
0.0027075104264622824,0.012332804238935695,0.7310829314838067,-0.0031277231816791012,-0.5290103676716416,0.004247639155121175,0.8485989664177191,-0.040532329903571786,-0.8203583964817124,0.912214754212806,0.1675766615426261,-0.9186811200514454,1.0360188074275314,-0.039848708002226466,0.6739233933918359,1.0309714164035222,-0.03733865392305219,0.6916214184812257,0.9552323092229726,0.0,0.0,0.0,0.0
0.0032973448978843483,0.01296890417023299,0.7330745554123251,-0.0023674033826236026,-0.5278627974828178,0.0033225154758806255,0.8493198592554809,-0.040142616253739466,-0.8230051024282355,0.9220623068904967,0.16841156267205165,-0.9229122284858564,1.0450554088287907,-0.05584726717010435,0.6858959943517275,1.0134439048646124,-0.01847347782378583,0.6678476610873272,0.9973954113892537,0.0,0.0,0.0,0.0
0.004041884111953441,0.014124058682460649,0.7356951685456572,-0.002028795317428804,-0.5272562495411566,0.0028702165566311137,0.8496990603538829,-0.04203380266819231,-0.8232958794622984,0.931880708838368,0.1665204810155639,-0.9211020336386742,1.0502517479210391,-0.069446149448618,0.701372000360663,0.9916832898185326,-0.0027076056296774544,0.6497877999957135,1.033357508783667,0.0,0.0,0.0,0.0
0.0047652882623321815,0.015704640283863428,0.7383234479295303,-0.001984318155604715,-0.526906597321794,0.0027692811519068584,0.8499163672162855,-0.0457596118006701,-0.8234352729511972,0.9417603866097425,0.16257300468921337,-0.9163578500670254,1.0524815154833576,-0.08182547060202353,0.7167299600167999,0.9706571082275885,0.007631139647335406,0.6357143784434498,1.0646726779393119,0.0,0.0,0.0,0.0
0.0054458321485069084,0.01758617285078407,0.7407690033247667,-0.002111168802006758,-0.526655305908082,0.002894369161055511,0.8500713819158444,-0.050749088333757346,-0.8242687224318455,0.9519704631062973,0.15729260847701515,-0.910498009857282,1.0529631349300013,-0.09376233751457733,0.7309424476685702,0.9517216584607012,0.014746350603434242,0.6246580900671712,1.0933370843255958,0.0,0.0,0.0,0.0
0.006056553441089357,0.019639418722550445,0.7429866690507189,-0.002330513339121063,-0.5264349938484816,0.003134432187760388,0.8502064109933456,-0.05642518849509714,-0.825700121201784,0.9621009132721924,0.15131941139207997,-0.9042753043125282,1.0522155705193847,-0.10557948983398735,0.743758778700369,0.9350762059382887,0.020052999908773732,0.6157898508667025,1.1202569099464657,0.0,0.0,0.0,0.0
0.006494511555376613,0.021740938470563704,0.7449564155603945,-0.0025811526414643233,-0.5262242686899121,0.0034044433829582767,0.8503350906895827,-0.06227660475767878,-0.8270117348055234,0.9708343570279364,0.14515237424397004,-0.8977059634480733,1.0498027713154128,-0.11730349922434426,0.7548479094174916,0.9208256152156736,0.024570893882598484,0.6083206997526177,1.1453874665348387,0.0,0.0,0.0,0.0
0.006677941456162812,0.02379925684958809,0.7466550596786862,-0.0028269546494961314,-0.5260177361154638,0.003647483509802872,0.8504610781707872,-0.06793080723700287,-0.8276873652314402,0.977195870113036,0.1391441821814105,-0.8907583188235919,1.0453353261774703,-0.12882689880564482,0.7638855388276985,0.9091784635440567,0.02898985623885888,0.6019340745211531,1.16765958112972,0.0,0.0,0.0,0.0
0.006519122404741519,0.025799701201203246,0.7480311721421088,-0.0030369481910781423,-0.525786357841734,0.0038328267644715482,0.8506026053876171,-0.07328193630288667,-0.8276174043688685,0.9806092622052737,0.13338704998803888,-0.883479807056571,1.038368304394621,-0.14035853437348386,0.770285568107097,0.9007970579434633,0.034181258435382264,0.596896056158881,1.18465772794135,0.0,0.0,0.0,0.0
0.005921946676021946,0.027789285359017646,0.7490186797329823,-0.0031767736358233353,-0.5254780069035645,0.003934814069706249,0.8507921541764245,-0.07840248176310181,-0.826941213918594,0.9807289809887699,0.1278019183917815,-0.8759595979329824,1.0283696160932727,-0.15250367762601158,0.7733120579563161,0.8966278150817898,0.04132334364183265,0.5944125818408207,1.19198850810922,0.0,0.0,0.0,0.0
0.004829673866251362,0.029840678487711266,0.7495939949337898,-0.003219281187835402,-0.525039735642898,0.003939730247367702,0.8510625069583593,-0.08345975114074147,-0.8258839023818111,0.9775459470055605,0.1222232748389288,-0.8682433072901425,1.0149820153083744,-0.16587528712449542,0.7725479662259269,0.8971421649938291,0.051671113731800986,0.5973241089380378,1.183113050098173,0.0,0.0,0.0,0.0
0.0032255080456987787,0.03194185455752199,0.7498195074402986,-0.0031705412441672405,-0.52449653033451,0.0038391773762082204,0.8513980256333422,-0.08837570435844962,-0.8239652028179968,0.9705870280318996,0.1166961361580734,-0.8598511859365924,0.9977396239201546,-0.18020700287253277,0.7682974466584559,0.9016693813626628,0.0644964663832969,0.6024005259625566,1.1647791268655545,0.0,0.0,0.0,0.0
0.0011476108262266868,0.03407401232759924,0.7497960491533071,-0.00303055338254407,-0.5238662865131789,0.003623505590046626,0.8517874146806387,-0.09305757338510881,-0.8208198489744788,0.959777541657522,0.11130237968717964,-0.8504559918982698,0.9766089009616286,-0.19523684462003807,0.7612620057613017,0.9089711491234304,0.07950042196755762,0.6080672402272294,1.141742611382933,0.0,0.0,0.0,0.0
-0.0013262633543724444,0.03620707591887485,0.7496015057052449,-0.0027803200353289114,-0.5231487681555094,0.003268794596046588,0.8522305739527086,-0.09737257517255601,-0.8163808982926017,0.9454581155149249,0.10619822117805211,-0.8401407287053417,0.9520766566281265,-0.2108830583389188,0.7521613078304636,0.9179309598824115,0.09743900446020703,0.6138153585917292,1.1172143580370455,0.0,0.0,0.0,0.0
-0.004029376875253158,0.03826985988868906,0.7492702081700409,-0.002389196115693948,-0.5223414679346474,0.002746336401375624,0.8527286439742533,-0.10110758197353867,-0.8111046090400539,0.9287993991676973,0.10167285856003,-0.8296954389974898,0.9257164031509565,-0.2270282093740722,0.7417743979846235,0.9277097848613485,0.12077533052019854,0.6202075679902316,1.0939202944988822,0.0,0.0,0.0,0.0
-0.006416230049747946,0.04012875446190595,0.7487177174017369,-0.0017752313312154177,-0.5212482924078,0.0019981734096427613,0.8534008867576236,-0.10400467364552755,-0.8088318677786017,0.9159222783798309,0.09835228132672469,-0.8237576089238682,0.9046236793965662,-0.24388185258834938,0.7309920789868513,0.9378312455504275,0.1549841858831208,0.630235505623375,1.073975758049261,0.0,0.0,0.0,0.0
-0.008359346334563443,0.041627811469401726,0.74800375293738,-0.0009463335444436496,-0.519952843316489,0.0010124262610556173,0.8541938422705861,-0.10565240763915888,-0.8094237582701808,0.9074050732778879,0.09664821918544912,-0.8228385672622004,0.8904397329628049,-0.2606570318145469,0.7206878205434377,0.947442154902029,0.20259659701065108,0.6429519865372704,1.0600372005924912,0.0,0.0,0.0,0.0
-0.009671069917511809,0.04256134906657555,0.746988168805173,-0.00025814360500698495,-0.5187462222994846,0.00012118337688490399,0.8549282282896512,-0.1061792680540321,-0.8131023089082525,0.9039828703842862,0.09639112276769035,-0.8264071654771503,0.8839429874676559,-0.27260486627301517,0.7104898807471373,0.9579185407422779,0.2522255767300298,0.6539020028852494,1.054813507961707,0.0,0.0,0.0,0.0
-0.009653939209885469,0.04257599831833196,0.7469579928703665,-0.0002190907604813523,-0.5187514395023302,0.0001033513291514948,0.8549250758586987,-0.1061858703683659,-0.8131202842273847,0.9039959005423822,0.09640889807084099,-0.8264206424818822,0.8838522434226834,-0.2726048302067398,0.7104448554639023,0.9578747745513952,0.2522251522415909,0.653890991310149,1.0548039603848283,0.0,0.0,0.0,0.0
-0.009653939209885469,0.04257599831833196,0.7469579928703665,-0.0002190907604813523,-0.5187514395023302,0.0001033513291514948,0.8549250758586987,-0.1061858703683659,-0.8131202842273847,0.9039959005423822,0.09640889807084099,-0.8264206424818822,0.8838522434226834,-0.2726048302067398,0.7104448554639023,0.9578747745513952,0.2522251522415909,0.653890991310149,1.0548039603848283,0.0,0.0,0.0,0.0
-0.009898316957553752,0.042803928919820204,0.7470132441692131,-0.0003292619522941784,-0.5193485381264658,0.00016675247772056508,0.8545624375819949,-0.10664129012579603,-0.808496729399186,0.8985789986031185,0.09554380597046032,-0.8204763209821407,0.8766704548236283,-0.27415149345038387,0.7117456168383133,0.9593164046054335,0.25293673603267736,0.6555572718638112,1.0552473466330912,0.0,0.0,0.0,0.0
-0.00972956199286808,0.04312482044623211,0.7470078194340498,-0.00042540476446708,-0.519748070854266,0.00025229610091749154,0.8543194357034918,-0.10755530308258313,-0.8076533595311214,0.898908462795546,0.09451406029773082,-0.8180759294767758,0.8748558380420072,-0.27665136573480903,0.7134932844868073,0.9609266154029806,0.2532314646928061,0.6576221928621016,1.0553339466086344,0.0,0.0,0.0,0.0
-0.009080444804504753,0.04350499446729449,0.7469970576373623,-0.0005171109411670095,-0.5200410644860309,0.00035470084198090004,0.854141029357461,-0.1088108589036928,-0.8101622748712857,0.9049915610634561,0.09341044127712268,-0.8189153566666656,0.8786230135553604,-0.28015139247473586,0.7164793039327603,0.9622057073592339,0.2537004193645505,0.660899162132381,1.0548052289373204,0.0,0.0,0.0,0.0
-0.007929222411704533,0.04395640382285302,0.7470045180677295,-0.0006176135065148799,-0.520273822656491,0.00048827777832475964,0.8539991391077452,-0.11046404054658857,-0.8157678317615881,0.916688464255676,0.09216013510825058,-0.8226502139543789,0.887752779445414,-0.2847382724889568,0.721035116748002,0.9629974910135742,0.2546055470236868,0.6657875888995054,1.053493178640072,0.0,0.0,0.0,0.0
-0.006282877362028489,0.044505407921656796,0.7470715186960708,-0.0007759941300982597,-0.5205232353122418,0.0008376002271726146,0.8538467413763703,-0.11302555313250004,-0.8239834411859127,0.9333985108614105,0.09019698155450227,-0.8282295040555342,0.9012435063401276,-0.2892055796728666,0.727194064187843,0.9629957075657262,0.2576317024930731,0.6732377274556303,1.0512015083069457,0.0,0.0,0.0,0.0
-0.0043057493384059745,0.044785343900059504,0.7469413217890591,-0.0008682909225801656,-0.5203206659921966,0.0008537732350242435,0.8539700941388837,-0.0987079286048346,-0.8263155705317187,0.9084821562406113,0.08995770131285764,-0.8397416885657009,0.9217894871104416,-0.2940607675788573,0.7327286816170671,0.9630145321505014,0.25934505216382886,0.678730547362468,1.0498435661478305,0.0,0.0,0.0,0.0
-0.0023927620968735904,0.04523742918599064,0.7467491732645188,-0.0009748195617228127,-0.5201702792134257,0.001015689654909774,0.8540614139067364,-0.08240956867032598,-0.8385086769207897,0.8885208012794152,0.08886761682117017,-0.8500221122065579,0.9403473029515068,-0.29930566608673165,0.7377924105458705,0.9640718382968753,0.26105883483118275,0.6842250038440618,1.0487655933730993,0.0,0.0,0.0,0.0
-0.000752662386785871,0.04585001659092631,0.7465977622704827,-0.0011034859413296893,-0.5201103876320454,0.0012481023365064734,0.8540974237384037,-0.06755805582397427,-0.8554882917090398,0.8729517844331094,0.0870945075644325,-0.857620717057953,0.9547494246382198,-0.3049757037402253,0.7424364957423099,0.965442581639359,0.2619871871973689,0.6894109085195519,1.0472689537003605,0.0,0.0,0.0,0.0
0.000579507706970334,0.04656309469259111,0.7464990913059208,-0.0012477127917252754,-0.5201123110505276,0.001508031613446573,0.854095634544002,-0.05483597648461421,-0.874255409896847,0.8600272284483605,0.08490170595876417,-0.8627836951458048,0.9652491969631428,-0.31077590913034076,0.7465333648646393,0.9668754024506584,0.2620125829361118,0.6940099084960085,1.0453670048761765,0.0,0.0,0.0,0.0
0.0016426042825105625,0.04732380205804068,0.74643360982219,-0.0013987594090996054,-0.5201420909145081,0.001770495770608763,0.8540767612316384,-0.04393171174907222,-0.893183942341851,0.848475257500751,0.08250918365278839,-0.8661818835236406,0.9727532460836966,-0.3164863861517741,0.750006666762228,0.968359360157273,0.2612473363375531,0.6978892594745951,1.0432808984760333,0.0,0.0,0.0,0.0
0.0024987685070052023,0.04810494420821999,0.7463805196783228,-0.001552922801962096,-0.5201709687579448,0.0020269408351187607,0.8540583371193348,-0.03435978855131043,-0.9110570640462526,0.8376810886969975,0.08003298379595025,-0.8684612612416897,0.9781901248684742,-0.32199301646119505,0.7528547303562642,0.9699325333985086,0.259846373678482,0.7010533010651744,1.041170299676084,0.0,0.0,0.0,0.0
0.0031968475816242267,0.048900297976263836,0.7463199787340086,-0.0017108938126993512,-0.5201764614811293,0.0022785312283346254,0.8540540557006766,-0.02574177265841329,-0.926354120627332,0.8277753547705827,0.07750490708226149,-0.8700829691967233,0.9822111422167462,-0.32724035858964307,0.7550506345271812,0.9716873445765546,0.25791147395349073,0.7035096600724636,1.0391537458227422,0.0,0.0,0.0,0.0
0.003759721325775388,0.04971471585123625,0.7462424704820044,-0.0018766029796595512,-0.5201455198780134,0.0025327478269576036,0.8540718363817723,-0.017800197154844988,-0.9368982271076595,0.8197739208205707,0.07490311903804756,-0.8712489575090705,0.9850991904164283,-0.3321579838919725,0.7565503787629787,0.9736792047267767,0.25550594937409415,0.7052695906826719,1.037268683506412,0.0,0.0,0.0,0.0
0.0041742276087091265,0.05054958812973047,0.7461451442729149,-0.002054986795002765,-0.5200757538664782,0.0028004219398188946,0.854113075011995,-0.010253302791779198,-0.9400362207549907,0.8154037148739193,0.07219631791887582,-0.8718976149581809,0.9867321727573327,-0.33655967824400207,0.7572377773689096,0.9759434202242132,0.25272038163314,0.706300761496811,1.0355551611453777,0.0,0.0,0.0,0.0
0.004465959518825222,0.05137495523279872,0.7460849886950351,-0.002239479813267401,-0.51998507414133,0.0030792310458007096,0.8541668605937415,-0.0027738075720634267,-0.9340883219829316,0.8166287338806781,0.06946343504520097,-0.8719306065217016,0.9872679406757918,-0.34029459270210155,0.7575109350886701,0.9778761753177274,0.24980579018626636,0.7070222126042162,1.0335942609466535,0.0,0.0,0.0,0.0
0.004639502935854485,0.05226392992219585,0.7460181802332623,-0.0024494659146068586,-0.519846288712553,0.003392757029342292,0.8542495685853508,0.004405787491054814,-0.9207547100194327,0.8214028970676521,0.06647192387181071,-0.8714837240722535,0.986712244458695,-0.3435642773360833,0.75705231702238,0.9800025413191217,0.24646544550215785,0.7071912115942594,1.031540584216174,0.0,0.0,0.0,0.0
0.004720479187044828,0.05326927443427147,0.7459294798232725,-0.0027003714645635465,-0.519645098677306,0.003761062658840254,0.8543696704719114,0.011227025568755707,-0.9025571284383854,0.8277965436457704,0.06304696737463053,-0.8706635259980392,0.9852090748672889,-0.3465403548696677,0.7558066837205059,0.9825245206766552,0.2425743772762735,0.7068191370438739,1.02934571542735,0.0,0.0,0.0,0.0
0.004714599212407373,0.05438459402354604,0.7458272841844256,-0.0029957280450908868,-0.5193788005730142,0.004191639907977697,0.8545285936021677,0.017979693952391393,-0.8815760509730417,0.8346256576750294,0.05918737478321041,-0.8694695556531069,0.9828035099858755,-0.3490606166638267,0.7537930652042214,0.9853221378893271,0.23829133515084894,0.705996962545644,1.0269376711047415,0.0,0.0,0.0,0.0
0.004590114455327018,0.05553356781253745,0.7456915177388174,-0.003328590690435306,-0.5190372508372896,0.0046808039276259265,0.8547323223102512,0.025157310906217437,-0.8592290663214243,0.8410699873283501,0.05509489851737801,-0.8680162317236738,0.9794951078426666,-0.35045420304107777,0.7507107093324311,0.9884112090256464,0.2341156254541245,0.7045467469819126,1.0247073206563413,0.0,0.0,0.0,0.0
0.004359090532841521,0.056559724320260414,0.7454791631061506,-0.003689856207818133,-0.5186015098294464,0.005216988466890437,0.854992188265554,0.033167902025467044,-0.8369679679114861,0.8463306816234298,0.05120769280109087,-0.8669346822416993,0.9760325212984714,-0.34959075077571505,0.7462395125031012,0.9917909152985617,0.23117156450285892,0.7023470552502658,1.0234215372149418,0.0,0.0,0.0,0.0
0.00408677170295265,0.05725862774158695,0.7451434748295865,-0.004071710974968122,-0.5180280009769769,0.005777420709999449,0.8553344566796507,0.041672454882142905,-0.8170793949980202,0.8490239537054985,0.04812574667294111,-0.8674012225738553,0.9739854188962065,-0.3451244140715753,0.7401383808764633,0.9952978557911916,0.23085462641864934,0.6993419681333213,1.023920556233094,0.0,0.0,0.0,0.0
0.0038255771720391257,0.05750237532218836,0.7447606146075043,-0.004502294773323037,-0.5172238980023623,0.006346010635835312,0.8558147561394498,0.04822331056753986,-0.8034724329588084,0.8468064972921093,0.04625052226210828,-0.8702348581616617,0.9746390476276005,-0.33571269867640186,0.7324850521727234,0.9976779952978136,0.2339304495409417,0.6957777439517501,1.0256196524247443,0.0,0.0,0.0,0.0
0.003835457007947189,0.05752812539613118,0.7447543340131381,-0.004537147016156445,-0.5172084043825987,0.006352890931099442,0.8558238846338523,0.04823581702230207,-0.8034504158270055,0.8468210223988247,0.04618339541416489,-0.870256594477705,0.9746551846183471,-0.3357591295478052,0.7324476104457314,0.9977248274877925,0.23397654570906148,0.695776917825319,1.025549420748822,0.0,0.0,0.0,0.0
0.003835457007947189,0.05752812539613118,0.7447543340131381,-0.004537147016156445,-0.5172084043825987,0.006352890931099442,0.8558238846338523,0.04823581702230207,-0.8034504158270055,0.8468210223988247,0.04618339541416489,-0.870256594477705,0.9746551846183471,-0.3357591295478052,0.7324476104457314,0.9977248274877925,0.23397654570906148,0.695776917825319,1.025549420748822,0.0,0.0,0.0,0.0
0.0054054504796650525,0.05881831660266843,0.7468012972355801,-0.002928283244806367,-0.5190312988491573,0.004262575244209522,0.8547395898310095,0.04959984131200831,-0.7918143543866988,0.8498687149952072,0.04754064360906765,-0.8629718871237997,0.9764697706339218,-0.2668521480094358,0.7073520112648513,1.0201231268585165,0.2029016818598296,0.7082260615236112,1.0044869463934432,0.0,0.0,0.0,0.0
0.007527951942504798,0.060450285687406735,0.7482947213481155,-0.0015359238922764103,-0.520768101524733,0.002477365043511124,0.8536932048661062,0.049370108503845656,-0.7869289964324061,0.8616772688085967,0.04730138003263202,-0.8591354540716465,0.9829149074225183,-0.2006107189029974,0.6842649591825137,1.0443332007181403,0.17238713177293824,0.7202694995651712,0.9859905032500709,0.0,0.0,0.0,0.0
0.009991058404366926,0.062184932855446656,0.7492855057860577,-0.0006805189602697676,-0.5220660497080258,0.00138934463092879,0.8529036559645516,0.04740681945786002,-0.790112509422487,0.8820232419390698,0.04529072441212444,-0.8592093662776058,0.9939139407831289,-0.15528331773340665,0.6685961951862726,1.0693783143908442,0.14845990256597127,0.7318670050755306,0.970273506921261,0.0,0.0,0.0,0.0
0.012463601547498945,0.06382576340194882,0.7499348427412682,-0.00018123590278352052,-0.5230116347727,0.0007602170103994011,0.8523251839034398,0.0447178411218439,-0.7972296963971736,0.9050971659820713,0.042531289038853094,-0.8614632568187324,1.0066129599603582,-0.12469491372600441,0.6581210081622973,1.0952701510925411,0.1299464739312174,0.7424257619533008,0.9571296596836586,0.0,0.0,0.0,0.0
0.014612251771929761,0.0653277170493677,0.7504286238871783,0.00012515335661559862,-0.5237485590931455,0.00037101752209716174,0.8518728153489168,0.04184028904910035,-0.8044187870389123,0.9257802269484285,0.03957881669900496,-0.8634595249593808,1.0174157579946566,-0.10217858764107567,0.6495649447337997,1.1214541983614494,0.11468931280128297,0.7514922823148321,0.9457087858739036,0.0,0.0,0.0,0.0
0.01630087491605232,0.06672645275297708,0.7508191480788526,0.00032248304701986753,-0.5243178122622325,0.00011814500111035335,0.8515225856023957,0.038891771255560585,-0.8105709224092226,0.9426491899884085,0.036557494044832585,-0.8644085811313856,1.0250046596994826,-0.08398338943138278,0.6415927205612817,1.1467136802255082,0.10126139028165819,0.7586002856011925,0.9357546288320104,0.0,0.0,0.0,0.0
0.017463882914721212,0.06808072045893482,0.751069026543998,0.00045044652225228365,-0.5247459817214852,-5.060207284598898e-05,0.8512587439812384,0.03583742785958508,-0.8155025711356206,0.9553934518277811,0.03343373365088161,-0.8640617159555953,1.0287487941911624,-0.06837086179874469,0.6339096999269113,1.1694049133702897,0.08873287425153838,0.7631985466721198,0.9276763598046041,0.0,0.0,0.0,0.0
0.01804130549167432,0.0694324115344386,0.7510613305063769,0.0005250603370055726,-0.525047293109492,-0.0001602098430810648,0.8510728750482205,0.032633075502554995,-0.8193799407713613,0.9638638087241884,0.030164225563039705,-0.8624717419417905,1.0282081430447971,-0.054802927221166774,0.6269126820637974,1.186783483659692,0.07665169086152175,0.7644376698293704,0.9226753946156332,0.0,0.0,0.0,0.0
0.018001137596408052,0.07080846300796784,0.7507284386596474,0.0005449564758604033,-0.5252221951553457,-0.00021243710378304954,0.8509649250169575,0.029223151490200938,-0.8223988172115795,0.968077554414863,0.026694201283516253,-0.8596719407766749,1.0231314251132717,-0.04359610980731296,0.6219885664120514,1.1942837921733442,0.06496321843903335,0.7618678369813496,0.921448258219565,0.0,0.0,0.0,0.0
0.0173678197828441,0.07222777738478806,0.7501266807541529,0.0005016874310799597,-0.5252612535886733,-0.00019879676648147288,0.8509408465152102,0.02554925426038821,-0.8246205164479646,0.9683308436438942,0.022966630958660663,-0.8555388814213468,1.0135591609095183,-0.035468676754565824,0.6221701056705315,1.1851970506322729,0.053788730445311406,0.7558893853488969,0.9233383924965949,0.0,0.0,0.0,0.0
0.016113151726649396,0.07371064086927813,0.7492048853083285,0.00041563233339433534,-0.5251872265441465,-0.00014097525411109905,0.8509865947537649,0.0216080324533457,-0.8258884216176425,0.9642826189553365,0.018981995721880644,-0.8499089961740444,0.9990381620949048,-0.029207392806341097,0.6243835843128572,1.1661310804105158,0.042805399571492014,0.7461845741445586,0.9287685358928437,0.0,0.0,0.0,0.0
0.014255419604166913,0.07522909053133972,0.7479709910336544,0.0003117241249667097,-0.525016972356908,-6.560656584665573e-05,0.8510916973282222,0.017533179255829534,-0.825926861385187,0.9556931218668563,0.01487901294530579,-0.8427254392683595,0.9795442202708807,-0.023756409523703306,0.6271696708771856,1.1414566924562215,0.03199842484126229,0.7329056031960888,0.9375900132050173,0.0,0.0,0.0,0.0
0.011899034604595293,0.07670564472523887,0.746546372880943,0.00021137354546343895,-0.5247663636079237,1.0519879245696465e-05,0.8512462739044869,0.013563979695908994,-0.8243705726820132,0.9427240434202783,0.010899940060269023,-0.83401634854114,0.9557581580851128,-0.018430846188283924,0.6300774313962337,1.1138342315432601,0.02181631607671381,0.7171219873996858,0.9485764803155776,0.0,0.0,0.0,0.0
0.009220955381615539,0.07796910600204218,0.7449749140502758,0.00015054270218256625,-0.5244274180545881,3.094835593050247e-05,0.8514551424307051,0.010280626757486418,-0.8212988149382641,0.9260615705028286,0.007624233656260261,-0.8248625556822388,0.9296983801851557,-0.012730418970273279,0.6334260311092632,1.0848242460424953,0.012950005027372717,0.6995644512326213,0.9614553259378834,0.0,0.0,0.0,0.0
0.006461830905839431,0.07894394003379586,0.7432923359695682,0.00013529295810895374,-0.5240472261839577,2.4171227469071756e-05,0.851689195564008,0.007798813548872876,-0.8172638000376355,0.9072681804432373,0.0051584796198325625,-0.8161132759788289,0.9034661927270631,-0.005708406519262347,0.6378113814553966,1.0553569996658019,0.006070274957907739,0.6814207430873288,0.9758883901072921,0.0,0.0,0.0,0.0
0.004238867913398234,0.07966519351155736,0.7415168486851386,0.00015100916785053685,-0.5236086436596677,-2.1693546410817214e-05,0.8519588986626668,0.006075631042121259,-0.8155114457070147,0.8925772542115469,0.003449250656871142,-0.8109271444422634,0.883165751225273,0.00214707135281932,0.6452743352875706,1.0262230062809772,0.0007847249347886992,0.6645394443017493,0.990869722264035,0.0,0.0,0.0,0.0
0.0028800351824453717,0.08001041113669008,0.7401008050263195,0.0002028173172157254,-0.5232419206426027,-0.00011880905688940334,0.8521841568767774,0.005436973039160301,-0.8154445690407152,0.8837717941821615,0.0028187475812656492,-0.8094621159391739,0.871767352995907,0.01005989454707891,0.6545036535678437,0.9993084989184519,-0.0023476352119328136,0.6523533214493208,1.0027436690562257,0.0,0.0,0.0,0.0
0.002899029485449413,0.08001134136301026,0.7400664110885221,0.00021995913542252848,-0.5232313568900261,-0.00012263603383070115,0.8521906381470076,0.005440504853459738,-0.8154917509960162,0.8837436736904972,0.0028247121626293788,-0.80949167409638,0.8716606722613334,0.010064817754165992,0.6545134341278014,0.9993070547281339,-0.002341031348731683,0.6523309586423295,1.0027163921092532,0.0,0.0,0.0,0.0
0.002899029485449413,0.08001134136301026,0.7400664110885221,0.00021995913542252848,-0.5232313568900261,-0.00012263603383070115,0.8521906381470076,0.005440504853459738,-0.8154917509960162,0.8837436736904972,0.0028247121626293788,-0.80949167409638,0.8716606722613334,0.010064817754165992,0.6545134341278014,0.9993070547281339,-0.002341031348731683,0.6523309586423295,1.0027163921092532,0.0,0.0,0.0,0.0
0.002899029485449413,0.08001134136301026,0.7400664110885221,0.00021995913542252848,-0.5232313568900261,-0.00012263603383070115,0.8521906381470076,0.005440504853459738,-0.8154917509960162,0.8837436736904972,0.0028247121626293788,-0.80949167409638,0.8716606722613334,0.010064817754165992,0.6545134341278014,0.9993070547281339,-0.002341031348731683,0.6523309586423295,1.0027163921092532,0.0,0.0,0.0,0.0
0.0034456106155831934,0.0802908020216736,0.739978908380071,0.0007012970464636645,-0.5229280321639688,-0.000542753403486088,0.8523763762436842,0.005579275311447523,-0.8196805814275425,0.8909129811153284,0.002959554412683763,-0.8150959608452638,0.8790824794597526,0.0024139099088234268,0.6568417678896876,1.000484636556311,-0.009933152813115553,0.6508953656744122,1.0007477273954075,0.0,0.0,0.0,0.0
0.004615012033492442,0.08044763708225333,0.7398703639993222,0.0008730837647597513,-0.5229940826686835,-0.0007039005857981881,0.85233557460794,0.005525111059899815,-0.8255556888224211,0.9025144744326876,0.0029008899539864634,-0.8213102315625674,0.8904864679551506,-0.0008206459833674526,0.6607426101951897,1.0012238536928662,-0.013131773873450695,0.6533083428002118,0.9999534967817377,0.0,0.0,0.0,0.0
0.00640972956004632,0.08039793819625425,0.7397501841533595,0.0007800565495309456,-0.523440288780142,-0.0006315402550407704,0.8520617681544262,0.005530441554372683,-0.8326157272611754,0.9178859945666893,0.002897823445724967,-0.8282361174364531,0.9060233760901095,0.0005364907185342062,0.666425806859602,1.0011648216652946,-0.011944407189764418,0.6595734549077849,1.0004494349765705,0.0,0.0,0.0,0.0
0.008820296335564385,0.0802292908071871,0.739665441225617,0.0003858784020867299,-0.5243037900886351,-0.0002863475040693516,0.8515311531597995,0.005289200430993444,-0.8406515597185577,0.9368705086742973,0.0026451092912659407,-0.8349967642358075,0.924667460730046,0.006616826419937938,0.6740589501940182,1.0000909632422375,-0.00625786872215192,0.6702666034550412,1.001487654266412,0.0,0.0,0.0,0.0
0.011789143861399586,0.08022048154275992,0.7396305007153975,-0.0004551159989556143,-0.5256490196712597,0.0005871169010485755,0.8507012144588814,0.003480163444309933,-0.8500741582952765,0.9597775904257311,0.000827597528005415,-0.8395112268624259,0.9438111142270338,0.018591279365364262,0.6828916720435687,0.9985239583874194,0.005221001645305321,0.6865147540547712,1.0022274008064738,0.0,0.0,0.0,0.0
0.014002826522829404,0.08026336508220146,0.7394394960414693,-0.00011455702621692052,-0.5254605993439871,0.00044596744680113626,0.8508178104193529,0.0035557465239596225,-0.861710134211573,0.9809642135847395,0.017425094335134558,-0.8504550035207978,0.9265546766994562,0.01565817650266285,0.6892384627842949,0.997366428563022,0.002220304349823711,0.6913486957641259,1.0003767510538693,0.0,0.0,0.0,0.0
0.015974272738737805,0.08028747336224132,0.739229861838486,1.0018793942702268e-05,-0.5255920845174846,0.0005334934870447518,0.8507365491013585,0.003190483407498473,-0.8707892416992157,0.9982528376316405,0.040346885216259606,-0.8686467070763347,0.9117557309749331,0.015681309960990836,0.6947104640903901,0.9969235889296515,0.002123024238280425,0.6971043584469506,0.9999259570389806,0.0,0.0,0.0,0.0
0.017608903263585884,0.0803972342704893,0.7390352875461883,-6.439298523156418e-05,-0.5260069905555959,0.0008019253584416262,0.8504798637568723,0.002224095825633981,-0.8772669778267653,1.0115253914434614,0.06349611919704876,-0.8900841244094642,0.9008639889841409,0.01768787898306088,0.6992424827623536,0.9973142701076727,0.003972009559869102,0.7034377354141524,1.0001605912568556,0.0,0.0,0.0,0.0
0.018787553310074624,0.08068362734077135,0.7388848215058366,-0.0001869543523750021,-0.5264424598474051,0.0011109396626167523,0.850210013661889,0.0007051187831276953,-0.8818654955268423,1.0211994732947622,0.08503495215491838,-0.9127135450516741,0.8918472769153333,0.018967560974707514,0.7025753649419267,0.9984492734357374,0.0051118978575139876,0.7086879750008267,1.0000014783188482,0.0,0.0,0.0,0.0
0.019462200959836303,0.0811855158560985,0.7388059750348408,-0.00031870835985179654,-0.5268073085138443,0.0014208621754428455,0.8499834935291737,-0.0013843264685998147,-0.884812168085004,1.027419643878287,0.10500484042810979,-0.9352161836222938,0.8832784536914954,0.018557109567939892,0.7046539248443164,1.0002177288736553,0.00458024226753011,0.7122942518880815,0.998971429170771,0.0,0.0,0.0,0.0
0.01963319539067001,0.08192040007816019,0.7388130975198516,-0.0004781709089616952,-0.5271054199001941,0.0017467287891174844,0.8497979739932069,-0.0041170843986722185,-0.8861453879494741,1.0302885826938026,0.12399738265531884,-0.9563872318971735,0.8746539176305517,0.016493784358559044,0.7055009436955818,1.002573522999416,0.0024190309331897303,0.7143493418171116,0.996944265632656,0.0,0.0,0.0,0.0
0.019311880913963696,0.08290651052293153,0.7389150962777904,-0.0006966555119335336,-0.5273665561142237,0.002116074866062777,0.8496349524298551,-0.007589915677026922,-0.8858345344480292,1.0298637476049533,0.14248253239976774,-0.9745651078783762,0.8664007044671784,0.013059508297828006,0.7051555027859139,1.0055016658718408,-0.0010608629318118552,0.7151419547628615,0.9938488619825954,0.0,0.0,0.0,0.0
0.01848151919291123,0.08418607332499736,0.7391307510977834,-0.0009474775990561934,-0.5275313176365918,0.002507807053922164,0.8495313543963995,-0.011861003626936376,-0.8840642423810523,1.0263091626270593,0.16056771713129578,-0.9875355814019614,0.8597103215370299,0.007576129271732283,0.7036389458152411,1.008900732867756,-0.006487719715791389,0.7144288707398974,0.9892294048562694,0.0,0.0,0.0,0.0
0.017116375664082153,0.0858040212434672,0.7394922727682144,-0.0012013182163180354,-0.5275506397948906,0.002894868382090134,0.8495178038296756,-0.01697637476267615,-0.8808479577230564,1.019598493672057,0.17784702999216231,-0.9926541305122535,0.8568850622248191,-0.000669727813214541,0.7010530372275703,1.0125612634124657,-0.01447158875150934,0.7120688607252157,0.982477890500256,0.0,0.0,0.0,0.0
0.015218469182762746,0.08778581092761789,0.7400433373868163,-0.0014344404804849048,-0.5274118986994618,0.0032518769322036393,0.849602293303846,-0.022925545861194722,-0.8760290781530012,1.0096502370119225,0.19382281144051386,-0.988225899706959,0.8604480868791593,-0.012081488555408922,0.6976875372052405,1.0160807474885911,-0.025244487389858065,0.7082999226929941,0.9729114532449173,0.0,0.0,0.0,0.0
0.012841176900539925,0.09011230996456913,0.7407795276868636,-0.0015323356092980145,-0.526973225158542,0.0034985174138872552,0.849873303669135,-0.029493410668569493,-0.8702697586648513,0.9972211726755522,0.20942194719995544,-0.9765368567287226,0.8680276727755093,-0.027656343951955334,0.6936483770468206,1.0190787847334488,-0.039531442194918505,0.7027709915171608,0.9599897329317603,0.0,0.0,0.0,0.0
0.010113282737615798,0.09269554792970054,0.7416391683498393,-0.0014592891572122726,-0.5262663547406166,0.003631636755853734,0.8503107699880396,-0.036455523755333695,-0.8638797915650148,0.9829055983118375,0.22602820595453596,-0.9610128202353041,0.8781347253120861,-0.046529444770825115,0.6890198033039215,1.0215199163053112,-0.05624200076150983,0.6960929302866847,0.9441784220215693,0.0,0.0,0.0,0.0
0.007194915338921446,0.0953355169945995,0.7423738283468234,-0.0013000657818576964,-0.5255435118831425,0.003762060458806282,0.8507574118675666,-0.04353727418299787,-0.8567535036024455,0.9666122717108709,0.24521513520427007,-0.9451005740590201,0.8911795231398187,-0.06545558565993007,0.6831636524394296,1.0249554587279637,-0.07235829390980789,0.6890000420438355,0.9287316645955288,0.0,0.0,0.0,0.0
0.004388794494564733,0.09743965552935366,0.7426674810630012,-0.0013810332127809806,-0.5255311822352355,0.0041329926733742845,0.8507631795142891,-0.04963012197880962,-0.8466108998475005,0.9463208912456589,0.2690655770473964,-0.9316478780018469,0.9109027771802584,-0.07652325175364162,0.6760999323233291,1.0311061134394353,-0.08131769378808702,0.6835895152059197,0.9205550373646451,0.0,0.0,0.0,0.0
0.0021059733611397953,0.09880169154536075,0.7427156028766186,-0.0019259203802824564,-0.5265193801125083,0.0049211901030696776,0.8501467020959372,-0.054538090720173474,-0.8331634439037439,0.9237254751460798,0.2972815573001102,-0.9229031537385493,0.942288909428247,-0.07668699283885475,0.6701802545312738,1.0379052000926519,-0.08111703681620333,0.6826206819803405,0.9197074047511636,0.0,0.0,0.0,0.0
0.0007933490787220313,0.09933590708368807,0.7426786328713887,-0.003124278621375782,-0.5286449169879397,0.006111416168329382,0.8488153163193557,-0.05790133199529526,-0.8174217728978453,0.9021741025814756,0.32711175352604893,-0.9216926908288563,0.9917389158518098,-0.06486677090012315,0.6676876093633101,1.0437776697159489,-0.070858641942707,0.6883885794789578,0.9252335545829439,0.0,0.0,0.0,0.0
0.0005784179559083222,0.0992078512067726,0.7426146583562585,-0.0046816274327441745,-0.5312267696904666,0.007101463174084584,0.8471869750825965,-0.058807838387311566,-0.8034232811554476,0.8868309416858551,0.3525875595127976,-0.9326004394599825,1.059869400921282,-0.04751536427983201,0.6691373768326785,1.047817212563548,-0.055560589344583994,0.6984814454842924,0.9334331497141737,0.0,0.0,0.0,0.0
0.0005940074934910098,0.099258493478305,0.7425912352083343,-0.004668630237564083,-0.5312212648222207,0.007085933925954073,0.8471906286266285,-0.05885985558687385,-0.803437440891337,0.8867494142910349,0.352622916509934,-0.9326231157949929,1.0598698675654405,-0.04764166560791836,0.6690211849611046,1.0480081263982761,-0.05541607461678492,0.6986404298820466,0.933234625130639,0.0,0.0,0.0,0.0
0.0005940074934910098,0.099258493478305,0.7425912352083343,-0.004668630237564083,-0.5312212648222207,0.007085933925954073,0.8471906286266285,-0.05885985558687385,-0.803437440891337,0.8867494142910349,0.352622916509934,-0.9326231157949929,1.0598698675654405,-0.04764166560791836,0.6690211849611046,1.0480081263982761,-0.05541607461678492,0.6986404298820466,0.933234625130639,0.0,0.0,0.0,0.0
0.0003052824620388121,0.10078142908937049,0.7451808281637098,-0.0030585032393070036,-0.5289204748617635,0.005312368523029244,0.8486492535615743,-0.058985762767342534,-0.8063678480229208,0.8948704166386938,0.35337906480024156,-0.937507840295391,1.0661259944988921,-0.0816121837411698,0.6820066941676981,1.027742491403076,-0.019552573391811878,0.6679166863733409,0.981838087555893,0.0,0.0,0.0,0.0
0.00027166654172309514,0.10319006364650188,0.7484905304350302,-0.0023095397516439543,-0.5276005359004873,0.00439970360920278,0.8494780651387093,-0.06298636733988816,-0.8061437720661911,0.9031219761197941,0.34915980836512306,-0.9346503735749314,1.068203120699486,-0.10910128718973915,0.6986050703209562,1.0031723831258748,0.012988724474677409,0.6472802304010196,1.021640164159452,0.0,0.0,0.0,0.0
0.00021429038239845525,0.10626690794658585,0.7518251966732417,-0.0022004081952796965,-0.5268715014383443,0.0041490215033190905,0.8499319765701511,-0.06997181757561012,-0.80478802670742,0.9105917132825989,0.34128028163944907,-0.9273111715027614,1.0663021362811198,-0.13241496389441235,0.7149400141244738,0.9797513475260913,0.036685271395741695,0.6325440494343404,1.0550487859103552,0.0,0.0,0.0,0.0
8.037148841857054e-05,0.10984759766280204,0.754993397626293,-0.0024156031867958293,-0.5263376313567627,0.004272518868507471,0.8502614940484573,-0.07896730201029654,-0.8038313521248754,0.9180289313624713,0.33117677862650896,-0.9183165334495246,1.0621341544986929,-0.1545601373293982,0.7299773604065363,0.958576949024889,0.054387472499375214,0.6212176088705015,1.0844477785514735,0.0,0.0,0.0,0.0
-0.0001613803022813585,0.11380892081414279,0.757945223786486,-0.0027827540034919304,-0.5258241279728768,0.004594564758731374,0.8505763532431392,-0.0893066460679912,-0.8035782330552586,0.9253827679878474,0.31969728705995903,-0.9087726202922528,1.0563396441247213,-0.176834398169041,0.7433977316246041,0.9397576450407555,0.06902160952525153,0.6118899842374158,1.111096193085397,0.0,0.0,0.0,0.0
-0.0005770898480447132,0.11804686276414528,0.7606642367408769,-0.003205389883270477,-0.5252597774293337,0.004988043977840989,0.8509212719798808,-0.10044977759869335,-0.8036764896141677,0.9318746006372572,0.3074021876437593,-0.8988879898328532,1.0486993008650425,-0.19976554836257387,0.7549784723439332,0.923263169278487,0.08207186560953311,0.6036043080326999,1.1351281044363692,0.0,0.0,0.0,0.0
-0.0012848680389830397,0.12248626382070646,0.7631297507144209,-0.0036161782630326532,-0.5246207643527775,0.005366329534255704,0.8513114467526014,-0.11200398966414118,-0.8034351373334033,0.9361680897220328,0.2946095223407776,-0.8883640113576305,1.038301905817527,-0.2235414830161417,0.7643080970910635,0.9092662522881428,0.09455659066332413,0.5957390811532766,1.155641666136542,0.0,0.0,0.0,0.0
-0.0023520722433711546,0.1270967424754094,0.765297655151068,-0.003969728656197809,-0.5238790952686747,0.005673764345528981,0.8517644881027985,-0.12376598184028968,-0.802706801412661,0.9377133418042684,0.2815116858771927,-0.8772348630909466,1.0247348852226466,-0.24828955960310228,0.7709109603228144,0.89819846438625,0.10747596643740716,0.5885679809977457,1.1703670337286927,0.0,0.0,0.0,0.0
-0.003845261500777926,0.1318744604365078,0.7671034095824165,-0.004208780664800987,-0.5229908467517913,0.005853957575595033,0.8523078032963579,-0.13561440871973618,-0.80155142745178,0.9361514524064348,0.2682460120080921,-0.8656941976127945,1.0076829306596802,-0.2743187891687405,0.7741663699660348,0.8907110821339504,0.12204004522112208,0.5833059812897985,1.1751315493628185,0.0,0.0,0.0,0.0
-0.005775846253702688,0.13681005016909828,0.7685022124101115,-0.0043063205370351965,-0.5219435624352725,0.005887803405004576,0.8529488302394659,-0.14749601734915818,-0.8001009967087446,0.9314625804267095,0.2548929469256342,-0.8538962975061443,0.9870974125345011,-0.30145771695643486,0.7736939690579062,0.8871761841362681,0.13962298041715854,0.5830533203643019,1.163728757028531,0.0,0.0,0.0,0.0
-0.008125616795438832,0.14177434890940463,0.7695471410906506,-0.004257964088600681,-0.5207919700146949,0.0057482336627692155,0.8536536484545659,-0.15898822820704597,-0.7977152006129242,0.9230525637628343,0.24182244994247654,-0.8414343474578777,0.9627254985750336,-0.3286995206738927,0.76989340755949,0.8867166235127141,0.1601644477358882,0.5850527822357042,1.1432525337303785,0.0,0.0,0.0,0.0
-0.010825692366371879,0.14658260536400358,0.7703138990387989,-0.004029407696961297,-0.5195626034469008,0.005380388733089845,0.8544059435597174,-0.16949471092972657,-0.7939878747871194,0.9108007397425164,0.22964503879426013,-0.8283418015463279,0.9350126640186499,-0.35514803124754835,0.7634877368491824,0.8879975272332488,0.18451669332324144,0.5884427560884552,1.118878493548356,0.0,0.0,0.0,0.0
-0.013749708097097527,0.15101587872093553,0.7708279631007854,-0.003453829618238723,-0.5181232234474653,0.004549067534082363,0.8552869123106857,-0.17805798677167514,-0.7897213904596152,0.8960384110874858,0.21956066739875402,-0.8164164961230522,0.9062731941829392,-0.38150140216705036,0.7550954651447406,0.8898273880108789,0.2144258953101871,0.5934173907088868,1.0938031362895906,0.0,0.0,0.0,0.0
-0.016748449862421567,0.15492623555072235,0.7710309140208192,-0.002489563696852757,-0.5164778244032835,0.0032864659288222844,0.8562906388101817,-0.1845182723514344,-0.7858166211327615,0.8802237687387782,0.21189356629501782,-0.8069200055242098,0.8785759150547037,-0.4068659483322439,0.7447652145162457,0.8923259180571855,0.25510985241893314,0.60040275438548,1.0711735196259988,0.0,0.0,0.0,0.0
-0.019500000489769787,0.15821725131759987,0.7703941385737539,-0.001260866733552789,-0.5145531354849195,0.0017460580745014905,0.8574557902649668,-0.1892607247334777,-0.7866052199345548,0.8685059965415353,0.2068516031685219,-0.8040023476874671,0.8571603321279124,-0.4299669010113072,0.7301531629709088,0.9005693667043436,0.30853335020668227,0.6103273323387174,1.0527986395843252,0.0,0.0,0.0,0.0
-0.021831697014760853,0.16066771373103814,0.7689503674919669,0.00011179397434580088,-0.512430345461698,6.263256806536468e-05,0.8587287840926688,-0.19206140219178375,-0.7925220376124531,0.862229462101154,0.20472362663997423,-0.8083565867103099,0.8441792937744745,-0.44899010693560754,0.7120029408513241,0.9140749287559792,0.3759642059323895,0.6215816010695455,1.0413515099373054,0.0,0.0,0.0,0.0
-0.023378948390942268,0.16199023033630414,0.7671872320121257,0.0010161926717809284,-0.5105418139113519,-0.0011683367678205893,0.85985153287632,-0.19321970058693366,-0.8018370527584436,0.8619774275665735,0.20488005750229296,-0.8172444060364465,0.8402347657903152,-0.4580773246829721,0.6942496947279141,0.9286249311646849,0.4452064741786506,0.6296155533301274,1.040740155210112,0.0,0.0,0.0,0.0
-0.023356096412366627,0.16205037542756578,0.7671297967822408,0.001072853756439096,-0.510545501050056,-0.0012081698322640325,0.8598492197286807,-0.19329608730240852,-0.8019561695643475,0.8620547964505725,0.20488086158545418,-0.8172491122159176,0.8400064851042526,-0.45815263033665343,0.6941426495640203,0.9284611598154404,0.44526070591287764,0.6295937147458267,1.0407367847018698,0.0,0.0,0.0,0.0
-0.023356096412366627,0.16205037542756578,0.7671297967822408,0.001072853756439096,-0.510545501050056,-0.0012081698322640325,0.8598492197286807,-0.19329608730240852,-0.8019561695643475,0.8620547964505725,0.20488086158545418,-0.8172491122159176,0.8400064851042526,-0.45815263033665343,0.6941426495640203,0.9284611598154404,0.44526070591287764,0.6295937147458267,1.0407367847018698,0.0,0.0,0.0,0.0
-0.023678201153458905,0.16252691942220882,0.7676170965710066,0.0005625291290781123,-0.511712910280943,-0.0008011740747431385,0.8591559457589109,-0.19444566752132522,-0.7922261993087648,0.8516540041752393,0.20210564521698274,-0.8047241451136075,0.826462899356899,-0.45907572736624586,0.6986054440911815,0.9274149390909858,0.45112205900064434,0.6358329553074836,1.0385034554595516,0.0,0.0,0.0,0.0
-0.02366419405880233,0.1633128481963571,0.7679296233970038,0.00022261884846143192,-0.5124850974505305,-0.00047370125595832017,0.858695959545105,-0.19660793137590638,-0.7876124484254848,0.8479843057189604,0.199085164626861,-0.7971471584047237,0.8189930867672089,-0.46292360643934716,0.702245608263041,0.9276321364861645,0.4531707892475982,0.6406614254863534,1.036309327111514,0.0,0.0,0.0,0.0
-0.023239909145218857,0.16429175067673255,0.7681381957685766,-2.469906991447963e-05,-0.5129867192498568,-0.00020210219012113423,0.8583965193416905,-0.19947266325132762,-0.7875321454662043,0.8509971623591722,0.19602090899768354,-0.7940525883056962,0.8178913652415165,-0.46902687307464824,0.7059862656740997,0.9284481623113368,0.4531961925905957,0.6451893573412584,1.0339836971786895,0.0,0.0,0.0,0.0
-0.022378919113651828,0.16543331125165975,0.7682898702771688,-0.00023745453422045797,-0.5132973402229783,6.201200683912185e-05,0.8582108017788352,-0.20303351005875267,-0.7914857776876845,0.8603577814996582,0.19283828688845117,-0.7948746724091317,0.8228876567930867,-0.4769580403159567,0.7103246198299598,0.9294841856657762,0.45232310534659903,0.6501345703045645,1.031312835827962,0.0,0.0,0.0,0.0
-0.021090621745110116,0.1667141524497553,0.7684308228555994,-0.0005893558061987589,-0.5135118024967485,0.0007521943453897268,0.8580819981563189,-0.20821906691965586,-0.7989016614580863,0.8752066738164928,0.18846958015706858,-0.7983119008039825,0.8328836387037621,-0.4833510463021386,0.7150462612700583,0.9304142539752471,0.45470959997572147,0.6568897270976204,1.028173396503024,0.0,0.0,0.0,0.0
-0.019574373938203864,0.16744371680167466,0.7684558522433537,-0.0006361595796819575,-0.5134343058850777,0.0007117612588529621,0.8581283716538034,-0.18533064679203595,-0.8069536518667183,0.8636725038934284,0.1874587688940316,-0.8066097882909549,0.8486968413114282,-0.49206311874218167,0.7202047397521342,0.930695763515693,0.4538622782238415,0.6616016663613105,1.0260714469918677,0.0,0.0,0.0,0.0
-0.018100641344170554,0.1682754765849278,0.7684545047206581,-0.0007220558428281877,-0.5133473303404822,0.0009163208417113338,0.8581801427577864,-0.15603320602489112,-0.8222440472599135,0.852081134070924,0.1855416257957257,-0.8143149253069556,0.8635411040759116,-0.4997403863120967,0.7247617245377329,0.9313020626290126,0.4539599672525143,0.6664385534073435,1.024013621957124,0.0,0.0,0.0,0.0
-0.016853905807390372,0.16936836879079312,0.7684718031720152,-0.0008435163229073477,-0.5132997610942972,0.0012238819077922984,0.858208101717658,-0.12850025726765382,-0.8407212302468474,0.8412391580423674,0.18258791822612722,-0.8198339114602943,0.8748039875356058,-0.5078655698962243,0.7287323694091473,0.9322618012330258,0.4527120662286307,0.6708699770521753,1.0214452069725464,0.0,0.0,0.0,0.0
-0.015858592560661022,0.1707141172438927,0.768502815185245,-0.00100040568817453,-0.5132835619593751,0.0015774518528675649,0.8582170447249388,-0.10499907806213633,-0.8600428124697345,0.8308522621957174,0.17876314222495066,-0.8232204414520721,0.882463639533542,-0.5166148234652326,0.7320494984224488,0.9336151322426384,0.44965993232947876,0.6746474790473239,1.0184021041481612,0.0,0.0,0.0,0.0
-0.015055253455249853,0.17228046635284197,0.7685360195430354,-0.001192244616231099,-0.5132726492095656,0.0019544669423832094,0.8582225504990768,-0.08523141284823488,-0.8789430209927396,0.8205617509602657,0.17424844568672718,-0.8251020372540394,0.8874783261594614,-0.525966266273119,0.7347786771698273,0.9353353827342223,0.44489917160068854,0.677785966007152,1.014955265399153,0.0,0.0,0.0,0.0
-0.014362923912511639,0.17406206868680996,0.7685582849540342,-0.0014221442899551224,-0.513237630768548,0.0023556967890113086,0.8582421351584553,-0.06821836890390406,-0.8964285369245775,0.8102754389065636,0.16910673266459636,-0.8261576774439485,0.8909190126282686,-0.5359586830191257,0.7370157352749798,0.9374240461131403,0.4385909245459926,0.6804001227625261,1.0111224851411444,0.0,0.0,0.0,0.0
-0.013720790238823848,0.1760838383843294,0.76855052827273,-0.001697553209222057,-0.5131555517772344,0.002795442058973642,0.8582893937926758,-0.05309342952610519,-0.911130244619764,0.8004307274009126,0.16327732979899925,-0.8268561000020767,0.893503915400399,-0.5467054496345155,0.7387750356198546,0.9400054209760474,0.4308026858004592,0.6825578029564774,1.0069387042466724,0.0,0.0,0.0,0.0
-0.013067017023979721,0.1783615870812809,0.7684578164633893,-0.002032004967126357,-0.5129894584269992,0.0032990661765193233,0.858386161736634,-0.039103649876753174,-0.9208602784667499,0.7918609898149291,0.15670320668216126,-0.8278592535061717,0.8960924852031613,-0.5581460164774579,0.73983246584576,0.9435081697655231,0.42176804188441286,0.6841514104831439,1.0027532966494552,0.0,0.0,0.0,0.0
-0.012368815902293653,0.18086714890583186,0.76832069001762,-0.0024244514741397455,-0.512738384399818,0.003870020385992873,0.8585327565913405,-0.025696997940936488,-0.9231926392829355,0.786478114024784,0.14943858543395197,-0.8291976603128338,0.8989467118529071,-0.5700924830543724,0.7404912693811826,0.9474222968880338,0.4117413297253024,0.6855046205998042,0.9981914287483634,0.0,0.0,0.0,0.0
-0.011663076977500127,0.18357645348782925,0.768213090996728,-0.0028722316887026715,-0.5124355836870007,0.004506308823391625,0.8587090403840393,-0.012713306632877015,-0.9165076545248859,0.7861575398600282,0.14150022381184776,-0.8301997652254247,0.9013385882470255,-0.5823170903583853,0.7411005902749486,0.9510377134297217,0.4008312363579754,0.6869730563988119,0.9926620400766406,0.0,0.0,0.0,0.0
-0.010890837397475555,0.1865217633075124,0.7680859041404042,-0.0033870156883445243,-0.5120389753854975,0.005223549376062931,0.8589396546573063,-0.0002191658133227064,-0.9025020454858972,0.7888197705994826,0.13280872329293733,-0.8314896442742251,0.904063116487699,-0.5948788750005841,0.7414561932717261,0.9547328299601078,0.3890599126169993,0.6884373633904372,0.9863987993300349,0.0,0.0,0.0,0.0
-0.009979656132564844,0.1896944518088947,0.7678458688158812,-0.003987951798087863,-0.5114982641734888,0.006053159858781936,0.8592537350769492,0.012022737298502244,-0.8834072946360619,0.7919870804185299,0.12334839279412285,-0.8339723065967419,0.9082198253459163,-0.6075164890059785,0.7411357408240118,0.9592383731254512,0.37692935346705037,0.6896442083033085,0.9801182215614248,0.0,0.0,0.0,0.0
-0.00884047079867761,0.19289735031253238,0.7674702941533799,-0.00466608763981713,-0.5107816322529367,0.006979115276552329,0.8596694968004389,0.024788444444708076,-0.8610874758018678,0.793920039879624,0.11366416097586889,-0.838635982859278,0.915314890362483,-0.6192472966181423,0.7402079240460044,0.9643785792212131,0.3657444987475903,0.6907200812135835,0.9743183521426451,0.0,0.0,0.0,0.0
-0.007466338935761526,0.19578658299098714,0.7667955538057024,-0.005404060280833677,-0.5098417332651738,0.00794830913516516,0.8602145241365879,0.03923243213536761,-0.8366991106454381,0.7924771345934117,0.10475797665491321,-0.8469216789089999,0.926773246937034,-0.6283189338518017,0.7377259028744891,0.9712786207951597,0.35737360712353256,0.6907324011701939,0.9712458965392691,0.0,0.0,0.0,0.0
-0.005929447842078343,0.19816366867451032,0.7658436029297384,-0.006211718730872113,-0.5085637351739563,0.008990660025727008,0.860954998736069,0.05596567530557467,-0.8107918940075662,0.7847441095841147,0.09703243238554157,-0.8593449318821155,0.9428925802023426,-0.6319865399929776,0.7329026682231851,0.9792779612178655,0.35274988457557716,0.6892268909001403,0.9709903529561249,0.0,0.0,0.0,0.0
-0.004649437986164332,0.19982735062939216,0.764647053601926,-0.007115284357799638,-0.5068649121602561,0.010083341837246955,0.8619371553464189,0.07365595134627291,-0.7848231622210139,0.7664109964832295,0.09097724402011728,-0.8744614890034839,0.9603255070444315,-0.6264678794670567,0.7238270710728838,0.9879300163586658,0.35195450650506943,0.684670778816399,0.9737854877226259,0.0,0.0,0.0,0.0
-0.004010547558942345,0.20051718129813814,0.763438126323391,-0.00815137466554609,-0.5047177918115349,0.011219723797832452,0.8631729974448056,0.08909649640239779,-0.7617828208414335,0.7332538418955101,0.08723379871622361,-0.8902709681144507,0.9758747948718415,-0.6078544399464508,0.7098111476407418,0.9949118647659085,0.35567110475563746,0.6768098802385476,0.9781786180613994,0.0,0.0,0.0,0.0
-0.003947218690736061,0.2006248673116879,0.763409525739705,-0.008294809247803209,-0.5046567947755913,0.011230638306031222,0.8632071526520203,0.089134085552388,-0.7617497398524187,0.7332653523745881,0.0869540877114359,-0.8903753631836995,0.9758967100864032,-0.6079810762983238,0.7097059040682924,0.9950927845516063,0.3557571431247143,0.6768107748098013,0.9779397748364826,0.0,0.0,0.0,0.0
-0.003947218690736061,0.2006248673116879,0.763409525739705,-0.008294809247803209,-0.5046567947755913,0.011230638306031222,0.8632071526520203,0.089134085552388,-0.7617497398524187,0.7332653523745881,0.0869540877114359,-0.8903753631836995,0.9758967100864032,-0.6079810762983238,0.7097059040682924,0.9950927845516063,0.3557571431247143,0.6768107748098013,0.9779397748364826,0.0,0.0,0.0,0.0
-0.0018096826222324014,0.2022961018166632,0.7664525358403106,-0.005964197447204152,-0.5086191078744705,0.008430817189584106,0.8609297025746668,0.090674984033563,-0.7357572897122321,0.7274215206053224,0.08847463739787942,-0.8706241183018524,0.9702036701288066,-0.51209569901555,0.6921941101512049,1.0090914931813622,0.329215942862568,0.7041210555234944,0.9531333813333194,0.0,0.0,0.0,0.0
0.0011092001841339137,0.204467782411288,0.7684021100888213,-0.0038480320751796185,-0.5123837819160996,0.005701294063967527,0.858729030558825,0.0909055561563482,-0.7207927737718904,0.7357680626210512,0.08868541483542833,-0.857877737197998,0.9723692401321606,-0.41401868851038026,0.6734688543233691,1.0303063833085164,0.2993423354263797,0.7279016479867557,0.9346034740774652,0.0,0.0,0.0,0.0
0.00447337827587614,0.2070850568321486,0.7690140831724216,-0.0021518918791760427,-0.5155286010902871,0.003497643809709432,0.8568625311606363,0.0890864029946428,-0.7196413205469635,0.7591919253633715,0.08678080542021703,-0.8534035375865455,0.9820456262455189,-0.3300038922572179,0.6588061233603305,1.0559876423715544,0.2687135525911582,0.7452209579532602,0.924746369602404,0.0,0.0,0.0,0.0
0.008112815780473914,0.20998028095785418,0.7688030850322798,-0.0010794897829952165,-0.5179130241194576,0.0020846129388092257,0.855430060576633,0.08515834602984602,-0.7304573399837554,0.7950390406434515,0.08266077172010701,-0.8552905822763086,0.9976576764214553,-0.2693672672895222,0.6507454163030745,1.0843817321016107,0.24125676490394626,0.7584849255325712,0.9193527847027883,0.0,0.0,0.0,0.0
0.011547199770130603,0.21311804515475616,0.7680119514793203,-0.000519134522020479,-0.5196934452441333,0.001419849154879854,0.854351471876773,0.07911238583727447,-0.7477113539846584,0.8348115474826199,0.07631815147871383,-0.8595874231250656,1.0134341369403437,-0.2259465257291304,0.6474205718229881,1.1132311987635495,0.2170815460790201,0.7679838771058245,0.9173425375611627,0.0,0.0,0.0,0.0
0.014372450832344955,0.21624130159975452,0.7670683797440925,-0.00021305986345785863,-0.5211158785015346,0.0010502262014327123,0.8534852622066735,0.07239359450002571,-0.7642269846594791,0.8693925654717933,0.06929090968898996,-0.8627302757858016,1.0248250703132982,-0.1920404648582885,0.6441680910828803,1.141680571347669,0.19375265158792976,0.7742279235754119,0.9162598109141564,0.0,0.0,0.0,0.0
0.01647508421968029,0.21927480440861002,0.7661279633254192,-4.7597816706485527e-05,-0.5222414639515547,0.000835521357519108,0.8527972519703882,0.06543950039895151,-0.778426821244895,0.897243797209191,0.062051914932933064,-0.8638613891858606,1.0308832348106902,-0.1634655229040718,0.6398895409345154,1.1674906401300271,0.17056927736276906,0.7773936820954434,0.9152830926618978,0.0,0.0,0.0,0.0
0.017801762463126803,0.2221964241664158,0.7650993759585705,3.4050703521025596e-05,-0.5231097172441628,0.0007031422145864575,0.8522650574535529,0.058473616126828436,-0.7902526071290712,0.9182743281501361,0.05484016936518531,-0.863102881992812,1.0314308762312974,-0.1385517862157808,0.6350774836302443,1.1875948342296057,0.14747903390649222,0.7768035335009098,0.9157566753472689,0.0,0.0,0.0,0.0
0.018362899933497427,0.2250269306799774,0.7639347910875314,5.222288404847979e-05,-0.5237428718945071,0.0006293710961167187,0.8518761678228166,0.051521118302271365,-0.8000172378215422,0.9330451399492724,0.04768343230079673,-0.8605853351113666,1.026578610486204,-0.11701417467596689,0.631367600270032,1.1973081476236107,0.12468034227888998,0.7723470302146122,0.9182628352278425,0.0,0.0,0.0,0.0
0.01821229076664872,0.22779204029966543,0.7626564736146833,1.4179897362790018e-05,-0.5241482706818917,0.0006064608842308928,0.8516268093157405,0.04456027023940573,-0.8080117018056696,0.9422917285732816,0.040560399800626,-0.8563740033023218,1.0166323808082771,-0.09904666381054031,0.6319613630794468,1.1898280448105607,0.1024621554464846,0.7644504666638174,0.9224851307387316,0.0,0.0,0.0,0.0
0.017343763747138294,0.23052184729440786,0.7611879163079723,-5.183421295097967e-05,-0.5243629357360475,0.0006091161688567119,0.8514946493766011,0.037581054700137735,-0.8142460236468451,0.9459764529921818,0.03346319368714313,-0.8504055213095882,1.0012938895808319,-0.08313027264701654,0.6340079627960337,1.171751069350275,0.0807314285007786,0.7528648369141918,0.9291152552896661,0.0,0.0,0.0,0.0
0.01579314796322625,0.23318291270004965,0.7594967922896826,-0.00011323244726612388,-0.524418250321707,0.0006065900344467274,0.8514605792146002,0.03075057494400718,-0.8185795956089895,0.944041912039555,0.026562847318553982,-0.8427719767393481,0.9807025725733154,-0.06787059351131643,0.6362157713042702,1.147465167248025,0.05974059352712875,0.7377086453849732,0.9384510227160099,0.0,0.0,0.0,0.0
0.01369258120209961,0.23567567434246892,0.7576934498870689,-0.00014044528169323067,-0.5243368086348299,0.0005709723944549682,0.8515107547038319,0.02440362826982458,-0.8207224731487431,0.936837913462323,0.020193652094316717,-0.8336938947965531,0.955853608282333,-0.05237447016994427,0.638279391558021,1.1196564284951358,0.04017957049079583,0.72013424370295,0.9494378771383313,0.0,0.0,0.0,0.0
0.01120112261452548,0.23782767951394562,0.7558194542923161,-9.653086622957539e-05,-0.5241193535077978,0.00044515886786818077,0.8516447004437603,0.019137529588654164,-0.8206414434993311,0.9248780662711921,0.014944152923654207,-0.8241365453580122,0.9285740390466414,-0.0359748133439595,0.6404166853132988,1.0898139344473556,0.02283825355644919,0.7008561352989979,0.9619021973717643,0.0,0.0,0.0,0.0
0.0085096557382581,0.23953442806770064,0.7539272053220563,2.3976243838637838e-05,-0.5238560509454465,0.0002843470223194975,0.8518067600458171,0.015078482844474578,-0.8183253903230648,0.9089310136899118,0.010921508859962107,-0.8144334224286216,0.9003166200226065,-0.017023329635294876,0.6428025642289322,1.0588791871989827,0.008817320628221203,0.681206926168097,0.975651714387513,0.0,0.0,0.0,0.0
0.006355528811267648,0.24082725653439316,0.7519731389950007,0.00018393748667556135,-0.5235075994542101,7.641565428064701e-05,0.8520209819255269,0.012231566627117699,-0.8179434081924121,0.8965789239661465,0.008107747981426473,-0.8086708278600439,0.8785738459668554,0.003453477762132992,0.6482124789122119,1.0277424091025615,-0.0022303495021795856,0.6630420108864389,0.9901413784441622,0.0,0.0,0.0,0.0
0.00505765168549181,0.24150644263071938,0.7504198834119636,0.00036385679735595353,-0.5232361024270562,-0.0001692830393877893,0.8521876671651771,0.011064941723698504,-0.8184931500758631,0.8890410785957014,0.006962106762004077,-0.8069154038454275,0.8663732238200342,0.022850922227589533,0.655588788757958,0.9987492446137587,-0.009149191718228273,0.6499660561837001,1.0020059826494963,0.0,0.0,0.0,0.0
0.0050818950701009375,0.24151074813175083,0.750379394578429,0.0003963279026391722,-0.5232305389195571,-0.00018033760185501678,0.8521910663369411,0.011073355516783323,-0.8185399328277285,0.8890407548100818,0.006977288348593088,-0.8069428465930131,0.8662441835951681,0.022857528541301388,0.655594139165524,0.9987452218192241,-0.009139742366125914,0.6499407981978164,1.0019805551146512,0.0,0.0,0.0,0.0
0.0050818950701009375,0.24151074813175083,0.750379394578429,0.0003963279026391722,-0.5232305389195571,-0.00018033760185501678,0.8521910663369411,0.011073355516783323,-0.8185399328277285,0.8890407548100818,0.006977288348593088,-0.8069428465930131,0.8662441835951681,0.022857528541301388,0.655594139165524,0.9987452218192241,-0.009139742366125914,0.6499407981978164,1.0019805551146512,0.0,0.0,0.0,0.0
0.0050818950701009375,0.24151074813175083,0.750379394578429,0.0003963279026391722,-0.5232305389195571,-0.00018033760185501678,0.8521910663369411,0.011073355516783323,-0.8185399328277285,0.8890407548100818,0.006977288348593088,-0.8069428465930131,0.8662441835951681,0.022857528541301388,0.655594139165524,0.9987452218192241,-0.009139742366125914,0.6499407981978164,1.0019805551146512,0.0,0.0,0.0,0.0
0.00562286621817056,0.24181666929243162,0.7502858492487087,0.0008758369506992057,-0.5229167710586671,-0.0006011897366402043,0.8523830840802238,0.011161316683280695,-0.8228114653114369,0.8962773317607146,0.007060859676243199,-0.8125361735879122,0.8735889885967341,0.015020588458936,0.6578948559992736,1.0000652935079284,-0.01677942977288148,0.6484493478530502,0.9999193323031912,0.0,0.0,0.0,0.0
0.006784647930488326,0.24201359999177113,0.7501726029187652,0.0010449674103657543,-0.5229742747970207,-0.0007615501482150327,0.8523474854688159,0.011020009979766498,-0.828768989826764,0.9079353902704239,0.006912863040921804,-0.8187115545598115,0.884883272830741,0.011625290591522456,0.6617480048453336,1.0009296043980427,-0.020216704250801423,0.6507752127830986,0.9990041745768676,0.0,0.0,0.0,0.0
0.008572937584186783,0.24201029768248114,0.7500492954634098,0.0009463736167588092,-0.5234192842456398,-0.0006866913368290419,0.8520744601921638,0.010921211716642907,-0.8358793760961238,0.923329355506012,0.006801647276679226,-0.8255591258086075,0.900289345922651,0.012914717383069804,0.6673815365099786,1.0009565420509832,-0.01939321896303283,0.6569508664783162,0.9993796297838637,0.0,0.0,0.0,0.0
0.01097923701952306,0.24189214141600918,0.7499631068042591,0.0005431048986933321,-0.5242913761472017,-0.0003367046523878515,0.8515386923473998,0.010561698637150707,-0.8439281611831476,0.94230325263186,0.00642601965107074,-0.832193383306559,0.9187788189225803,0.01905034054169417,0.6749654882478846,0.9999279420070323,-0.014190126282843652,0.6675600296565818,1.0003057955229,0.0,0.0,0.0,0.0
0.013944004346332002,0.2419388936818501,0.749926425566268,-0.00030982534116071796,-0.5256551432670529,0.0005425548750724695,0.8506975255632048,0.008617323407598947,-0.8533419826019241,0.9651775921205176,0.004471690491907585,-0.8365331576698527,0.9377250669755299,0.031199167431605238,0.6837260682226698,0.9983961080174961,-0.003375074858187683,0.6837017655593777,1.000951473321621,0.0,0.0,0.0,0.0
0.01616535431731893,0.24203182977171103,0.7497347696156819,2.5866551996544773e-06,-0.5254882380224468,0.00042229956624539015,0.8508007600822003,0.008553888048573405,-0.864994160233142,0.9864109654982044,0.02102637880454311,-0.8481597323672894,0.9220797059770487,0.028407349666273563,0.6900862096477385,0.997329632202511,-0.00653199352736426,0.6886298680612548,0.998996081225992,0.0,0.0,0.0,0.0
0.018131385089297295,0.2421024690826249,0.7495280478107981,0.00010633205971467407,-0.5256413055081303,0.0005239617037213683,0.850706137336116,0.008063079468083628,-0.8740123335343298,1.003626471217719,0.04384278495356937,-0.8667618462289108,0.9083149444822177,0.028532112872624162,0.6955565171554504,0.9969490880948609,-0.0068940098309730625,0.6944190456639555,0.9984291759130098,0.0,0.0,0.0,0.0
0.019749446653381436,0.24225761192347503,0.749338187478025,2.8124099122524706e-05,-0.5260565073367688,0.0007923032129027622,0.8504492474882284,0.0069932940598625625,-0.8804724293819287,1.0168352855015057,0.06689618310378329,-0.8884366301382886,0.8979414793851567,0.030437530848014968,0.7000553123275375,0.9973811260906149,-0.005551806906636396,0.7006249847582389,0.9984916927384093,0.0,0.0,0.0,0.0
0.020909850776330882,0.2425819433929947,0.7491927783514606,-9.958804477584764e-05,-0.5264961472647227,0.00110245158732464,0.8501767943187595,0.005380865001198025,-0.8850310353470832,1.0264234789413533,0.08835875576388491,-0.9111599096431985,0.889209344248337,0.03164547673705172,0.7033531427023924,0.998565717632071,-0.004827133983472248,0.7057728940382025,0.9981910523179064,0.0,0.0,0.0,0.0
0.021566470504867496,0.2431149174864397,0.7491185874904662,-0.0002345127035315293,-0.5268627409207242,0.0014123309530627804,0.849949176453847,0.003211816951088703,-0.8879527838433156,1.0325787861530598,0.10827543658981292,-0.9336825547140903,0.8807817499513282,0.03112723616149577,0.7054003881965258,1.0003966937347153,-0.0056868976712411015,0.7092895374149905,0.9970327681807848,0.0,0.0,0.0,0.0
0.021721300678177624,0.24387372191266649,0.7491297627732264,-0.00039704559275825145,-0.5271637106129938,0.0017383884200978892,0.8497618740407443,0.0004114612425431012,-0.8892681153409467,1.035402258764415,0.12722680998340619,-0.9548186422073336,0.8722211476209338,0.02894925075178453,0.7062254243681898,1.0028293295865116,-0.00804954279523817,0.7112958336507146,0.9948975334132376,0.0,0.0,0.0,0.0
0.021385739330782597,0.2448770303845059,0.7492350674897922,-0.0006177760537656106,-0.5274284670082332,0.0021073973195548275,0.8495966039354383,-0.0031166727676028966,-0.8889487750379553,1.034954016308963,0.14567417809094751,-0.9729259081460777,0.8639810631282172,0.025386115695689174,0.705867374906788,1.0058490794677601,-0.011619664460436736,0.7120762596234705,0.9917111570101612,0.0,0.0,0.0,0.0
0.020541566601842837,0.24616829032772086,0.749453438387095,-0.0008650415865519394,-0.5275890055510152,0.0024948090610213787,0.8494956555818831,-0.007427260414259895,-0.887210655722573,1.0314225680205207,0.16372711283715555,-0.9858240156902826,0.8572322036286718,0.019671596625706656,0.7043453452189449,1.0093544126035403,-0.017078012343306224,0.7113464144840267,0.9869913409366423,0.0,0.0,0.0,0.0
0.01916589706457663,0.24778881081136173,0.7498146315643345,-0.0011196302513303276,-0.5276129663420646,0.002882169094788047,0.8494792506454392,-0.012574184886794015,-0.8840137551843871,1.0247365602022824,0.18096446541472005,-0.9908557235423712,0.8543399104576208,0.011255407883678238,0.7017600649360919,1.013162793683551,-0.02485426273391539,0.7090629709839028,0.9801976555180566,0.0,0.0,0.0,0.0
0.017261329628434092,0.24976593361309388,0.7503639693560165,-0.001357917535683196,-0.5274863019691599,0.0032450857203793052,0.8495562528246932,-0.018554471342701998,-0.8792125837483553,1.0148336237417874,0.19687625984310453,-0.986315796120689,0.8578093075700648,-0.0002811395357942975,0.6984083241973427,1.0168633507588918,-0.03520303422348333,0.7054652631844803,0.9706232200624455,0.0,0.0,0.0,0.0
0.014877001657778558,0.25208730381755184,0.7511022440851248,-0.0014533542943204116,-0.527042814877405,0.003494722714347418,0.8498303042140509,-0.025153078358638725,-0.8735508010787806,1.0025427436075136,0.21240057216448796,-0.9744997754351925,0.8651808710967338,-0.01616954028151272,0.6944019299587348,1.0200343549285618,-0.04904736189557808,0.7000938996563466,0.9576054283063062,0.0,0.0,0.0,0.0
0.012140574325304996,0.2546678897282102,0.7519675594471357,-0.0013675853331831527,-0.5263096440479063,0.0036259039149823965,0.8502841531590024,-0.03214878258075248,-0.8673583073774398,0.9884732710954212,0.22892633342537327,-0.9588150512308816,0.8749314307200255,-0.03556476888826539,0.6898096795760243,1.0226334198234572,-0.06537788055760964,0.6935258881089553,0.9415864052032535,0.0,0.0,0.0,0.0
0.009213712030589894,0.2573058154553277,0.7527025941847181,-0.0011892150505964053,-0.5255507816989964,0.0037515390945030876,0.8507531296313635,-0.03926525415369974,-0.8605038549598701,0.9724974991137061,0.24804242185938796,-0.9426826238199888,0.8874517967511639,-0.05506885087744339,0.6839476117705243,1.0262631683637282,-0.08119237842147625,0.6864799727979961,0.9259367053771447,0.0,0.0,0.0,0.0
0.006406805726118952,0.25940947556934635,0.7529909007954545,-0.0012521817935914478,-0.5255166432647497,0.004118827241320454,0.8507724284170601,-0.04540250339216991,-0.8506271433469977,0.9525529965908698,0.27181125077558305,-0.9288572651510055,0.9064238792008621,-0.06653550093538788,0.6768566179984075,1.032609030750309,-0.09003002234114639,0.6810841646056497,0.9176509673742965,0.0,0.0,0.0,0.0
0.004131297909887014,0.2607689987587766,0.7530310389769973,-0.001783831445175207,-0.526510079262747,0.004909215754690688,0.8501528415413224,-0.050363154101815556,-0.837355575665905,0.9302502147129781,0.2999036416906028,-0.9195145928187237,0.9367261792531297,-0.06679646861263644,0.6709109907367379,1.0395614991303697,-0.08987399149894618,0.6801289535033094,0.9168403808201072,0.0,0.0,0.0,0.0
0.0028283968299587397,0.2612951488607745,0.7529876140422543,-0.0029759134098494493,-0.528676771309412,0.006110425121256612,0.8487960167920618,-0.053779204125677674,-0.8215864428446573,0.9087883743531057,0.32946588389428405,-0.9173104565392752,0.9845164683503145,-0.05467801704692181,0.6684034107994578,1.0454998028768776,-0.07981067309558805,0.6859289516256869,0.922567113086988,0.0,0.0,0.0,0.0
0.002621418563913639,0.26115363289091764,0.7529259699053411,-0.004539003175925264,-0.5313452520202151,0.007126679285286299,0.8471132338997589,-0.054739526261514765,-0.8072207114034077,0.8931639072560466,0.35450561832384075,-0.9267235249378438,1.0502551815055952,-0.03663448929911288,0.6699070215306792,1.049495727140246,-0.06467334734516067,0.69619867947692,0.9310544877895185,0.0,0.0,0.0,0.0
0.0026391011674074187,0.2612029642914308,0.7529012680168538,-0.004522481568143086,-0.5313413063508928,0.007110820882476214,0.8471159304086837,-0.05478827871687481,-0.8072326474969248,0.893086463575782,0.35454145350782473,-0.9267453599819363,1.0502552159502143,-0.03674975720375169,0.6697921402691869,1.0496888902051644,-0.06453932525766784,0.6963647057397127,0.9308607310795367,0.0,0.0,0.0,0.0
0.0026391011674074187,0.2612029642914308,0.7529012680168538,-0.004522481568143086,-0.5313413063508928,0.007110820882476214,0.8471159304086837,-0.05478827871687481,-0.8072326474969248,0.893086463575782,0.35454145350782473,-0.9267453599819363,1.0502552159502143,-0.03674975720375169,0.6697921402691869,1.0496888902051644,-0.06453932525766784,0.6963647057397127,0.9308607310795367,0.0,0.0,0.0,0.0
0.0022638341722632568,0.2627538411625322,0.7555218196343934,-0.0028521362515557926,-0.5289118190427806,0.0052739309969849915,0.8486556066199636,-0.054850836530148654,-0.8102403304066179,0.9009768164852212,0.3553882326169337,-0.9319356322968927,1.056412845657326,-0.07237199523981429,0.6827748307539592,1.0294185546969736,-0.02655126863432368,0.6653338388770056,0.9798869126220878,0.0,0.0,0.0,0.0
0.0021935279557783968,0.26517155178248636,0.7588537427141945,-0.0020877513620131283,-0.527556356235397,0.004333265407705614,0.8495064185165334,-0.05881959362069897,-0.8099525907441404,0.9090852920822996,0.3512180144783083,-0.9291025321134888,1.0583717544109983,-0.10056306047820582,0.6994392909235612,1.0048726735348847,0.007429074968220949,0.6448188453170933,1.0201214460371604,0.0,0.0,0.0,0.0
0.002163081471188086,0.26822847169451985,0.7622022673053651,-0.0020067858283957345,-0.5268579927293824,0.0040961522687387895,0.8499410861020876,-0.06579537622931579,-0.8085947208725085,0.9167402867839937,0.34338321569443764,-0.9217255362089913,1.0566026778633202,-0.12376938013977357,0.7159621003581168,0.9814775312321748,0.03202417109861891,0.630572203512625,1.053970679538179,0.0,0.0,0.0,0.0
0.002070743129443412,0.2717713866749246,0.7653787978150722,-0.0022518961017047564,-0.5263595184757254,0.004241714683590385,0.8502485484436257,-0.07476494497941849,-0.8077012960628963,0.9244709487715929,0.3333654265047923,-0.9127628648494348,1.0526933191222554,-0.1456573757172493,0.7311922212514933,0.9603416443838688,0.05026065963688146,0.6196704968501573,1.083737650302795,0.0,0.0,0.0,0.0
0.0018769781041320357,0.27568278861661816,0.7683337924759677,-0.0026416778919907216,-0.5258703237702774,0.004586044068735197,0.850548289231986,-0.08505994210320433,-0.8076105491194346,0.9322284782077555,0.32201781831873105,-0.9033783528940789,1.0472990288619297,-0.16768072332066006,0.7447817818854077,0.9415762634518396,0.06531252014966105,0.6106888809410618,1.110654804418316,0.0,0.0,0.0,0.0
0.0014929073525333568,0.27985453261693166,0.7710556815794536,-0.003074187193964093,-0.5253238474628975,0.004989580146180239,0.8508821944016925,-0.09609603004778486,-0.8077834396958773,0.9389530842335234,0.3099134368787113,-0.8936313072197726,1.0399629144198594,-0.19045203722277038,0.7565077450240411,0.9251371780201271,0.07868208209616309,0.6025920814667812,1.1348707681745684,0.0,0.0,0.0,0.0
0.0008149105558909789,0.28421579235127625,0.7735243639834332,-0.003491339112764493,-0.5247014596885692,0.0053741937960702,0.8512621845195091,-0.10750919222991422,-0.8076085606945644,0.9434674902722406,0.2973480461323356,-0.8832533039564893,1.0298731215439454,-0.21408964080837978,0.7659914753334469,0.9111968267241588,0.0914529947513872,0.5948854669065471,1.1555178402406836,0.0,0.0,0.0,0.0
-0.0002263842621793512,0.288734860656418,0.7756966007057726,-0.003849332890991656,-0.5239766941829406,0.005686755651187084,0.8517049180318118,-0.1190975886412919,-0.8069226546489657,0.9451991662446295,0.2845075747264708,-0.872256339285927,1.0165909323560613,-0.23869133749629773,0.7727519519961487,0.9001843930410024,0.10463269451093629,0.5878613213576782,1.170350713298315,0.0,0.0,0.0,0.0
-0.0016960537545125678,0.2934127649468538,0.7775079859911317,-0.004094167085440951,-0.5231041098910135,0.005876657665594417,0.8522386947948845,-0.1307655708118945,-0.8058219993055745,0.9438376499252107,0.2715053295517284,-0.8608442172352966,0.9998201673504734,-0.2645510867516071,0.7761577790545193,0.892763770920561,0.1194804711845779,0.5827739218840964,1.1752081156007288,0.0,0.0,0.0,0.0
-0.0036069905320207495,0.2982473653713563,0.778916094999046,-0.00419477978391762,-0.5220643174096377,0.0059212133775398,0.8528752496950015,-0.14247257941192704,-0.8044682241486824,0.9393968301577875,0.2584124844123409,-0.849197771070107,0.9795301266010306,-0.29158721809881577,0.77583146987521,0.8892943154770158,0.13736510188576828,0.5826934323340054,1.1638685995819091,0.0,0.0,0.0,0.0
-0.005940190690439759,0.30311573828290855,0.7799750384509475,-0.004146411815149414,-0.5209117327690768,0.005793201239424027,0.8535808179381591,-0.15381200630038905,-0.8022302378143933,0.9313035928517734,0.24558135908824488,-0.8369048140624109,0.9554636856073763,-0.31881507922056374,0.772175516558018,0.8888945534768529,0.15820060466373878,0.5848435294951884,1.1434180274154642,0.0,0.0,0.0,0.0
-0.008629231904849618,0.30784038594127894,0.7807615694096918,-0.0039146481621516885,-0.51967628556534,0.00543860957811961,0.8543369682254388,-0.16420436533150767,-0.7986666910857552,0.9193960779737136,0.23359614682289095,-0.8239494242481531,0.9280039263346679,-0.34535927453003223,0.7659159101257397,0.8902318254744234,0.1827850983112397,0.5883080658405514,1.1190314260875993,0.0,0.0,0.0,0.0
-0.011549547294883644,0.3122005901151287,0.7813007790978921,-0.0033341831663949153,-0.5182304864600772,0.0046247356415583035,0.8552219933714347,-0.17268417013639586,-0.7945157390732747,0.9049196282580155,0.22365207324835226,-0.8120791017457392,0.8994089432762838,-0.37189200955515195,0.7576792755338354,0.8921143577722017,0.21283735800256195,0.5932787522376103,1.0939073506127799,0.0,0.0,0.0,0.0
-0.01454865389029932,0.3160478259577136,0.7815317093228072,-0.002357087002833049,-0.5165730035624985,0.0033748197294284927,0.8562332548570359,-0.17907018110986248,-0.7907052961533313,0.8893604357508891,0.2161018823668921,-0.8026197303366702,0.8718156501511151,-0.3975659107278253,0.7475124599575094,0.8946499105916504,0.2535567187329625,0.6002310607109391,1.0711775242346517,0.0,0.0,0.0,0.0
-0.017300881600580995,0.31929185261572307,0.780938331688195,-0.0011078079252781995,-0.5146373614816542,0.0018440223470896282,0.8574052475407328,-0.18375454256156712,-0.7914816364500332,0.8777918551163512,0.21113691779793697,-0.7996678717113535,0.8504638411271698,-0.4210752910399579,0.7331714043925837,0.9027539125255206,0.30706351537782617,0.6101460557439531,1.0527088756555247,0.0,0.0,0.0,0.0
-0.01964040596919693,0.32171611328092564,0.7795199331659949,0.00028842184303095344,-0.5125118437370297,0.00017818700074591676,0.8586800889105929,-0.18654940365931957,-0.7973162248675121,0.8714938808803496,0.20901136663724385,-0.8039374812573228,0.837445073449758,-0.44052791201679525,0.7151956546824026,0.9162939886610467,0.37446362173755676,0.6214134685063115,1.0411410763315687,0.0,0.0,0.0,0.0
-0.021198407358710203,0.323034664451475,0.7777619082142495,0.0012328456867751103,-0.5106311419869622,-0.0010350007626433746,0.8597983750263923,-0.18775195825163754,-0.8064824504331284,0.8710623089766222,0.20910522793538364,-0.8127313509652544,0.8334069505449578,-0.45007847748076757,0.6975190487115193,0.9310101889751644,0.44358497604787556,0.6295052216706833,1.0403997887540823,0.0,0.0,0.0,0.0
-0.021175145490188823,0.32309457055107405,0.777704901668899,0.001290889179671847,-0.5106357470465439,-0.0010749997716478596,0.8597955058145134,-0.18782744999556047,-0.8065975526757186,0.8711416912170199,0.20910600711422395,-0.8127352309631318,0.8331835335850175,-0.45015127983227676,0.6974129380612465,0.930848908230503,0.4436381503501309,0.6294821443123971,1.0403955905929945,0.0,0.0,0.0,0.0
-0.021175145490188823,0.32309457055107405,0.777704901668899,0.001290889179671847,-0.5106357470465439,-0.0010749997716478596,0.8597955058145134,-0.18782744999556047,-0.8065975526757186,0.8711416912170199,0.20910600711422395,-0.8127352309631318,0.8331835335850175,-0.45015127983227676,0.6974129380612465,0.930848908230503,0.4436381503501309,0.6294821443123971,1.0403955905929945,0.0,0.0,0.0,0.0
-0.021482947688593095,0.3235547292019258,0.7781816173816565,0.0007373893750587797,-0.5118093399729584,-0.0006709249451270204,0.8590984842455911,-0.18893219402883613,-0.797074187599083,0.8610652145718076,0.20640342839722117,-0.8002394057104975,0.8196859796605944,-0.4507719182396774,0.7018378645441107,0.9299132056237958,0.44988804181706143,0.6357785277597996,1.0382851472827404,0.0,0.0,0.0,0.0
-0.021456115702434227,0.32432994477594945,0.7784880784353115,0.00037449265861663565,-0.5125805741150001,-0.00034995054665544316,0.8586389767124483,-0.19106126829812775,-0.7926448414678647,0.8576787901294203,0.2034485849198378,-0.7927654587380867,0.8123649182999773,-0.4544999592018081,0.7054791927311567,0.930190249442017,0.4521290154525391,0.640632027775976,1.0361491855009317,0.0,0.0,0.0,0.0
-0.021020958012766773,0.3253060369221131,0.7786922794034429,0.00011121311398588927,-0.5130786891940734,-8.154524367090644e-05,0.8583415635263784,-0.19391853993610425,-0.7927166759420592,0.8609087972359666,0.2004242053960223,-0.7898045696086833,0.811463713013028,-0.46057123566456387,0.7092384694816799,0.9310518765930922,0.45226049997631124,0.6451734019635158,1.0338501995603597,0.0,0.0,0.0,0.0
-0.020150166329963776,0.3264538567028087,0.7788393229910727,-0.00011803472268531906,-0.5133862025089188,0.00018660221727994137,0.8581576535351113,-0.19750636365694413,-0.796794320922989,0.8704242106116827,0.19724641161327192,-0.7907690100755965,0.8166877224598738,-0.46850492792930504,0.7136017410440606,0.9321447728393074,0.4514821947431672,0.6501374658104458,1.031196561780285,0.0,0.0,0.0,0.0
-0.018849835424640676,0.32775154538066853,0.7789743479376804,-0.0004917648052975782,-0.5136103710284867,0.0008891504119611231,0.8580229334644274,-0.20275670921307265,-0.8042758716488174,0.8853563424589439,0.1928410422588067,-0.7942947550946382,0.8268831564676193,-0.4749101503403062,0.7183720899471968,0.9331749714648501,0.45404574838813294,0.6569763717860286,1.0281028155164986,0.0,0.0,0.0,0.0
-0.017308118917392055,0.3284962568596711,0.7789842643555762,-0.0005638914029069788,-0.5135103233362628,0.0008606462862944133,0.858082798534933,-0.17967791877507966,-0.8106776546283376,0.8706062593055973,0.19182124221122288,-0.8029759860809358,0.8432537972584656,-0.48356550730709785,0.7235004191927186,0.9335395750591813,0.45330819573206793,0.6616593274883491,1.0260458912424646,0.0,0.0,0.0,0.0
-0.01579752414822874,0.32935111817891444,0.7789679962763628,-0.0006733000119702951,-0.5134075883129798,0.0010831585127011115,0.858143939964258,-0.150358698107675,-0.8249084492871641,0.8569890363746516,0.1898608496268733,-0.8110661853245363,0.858701805688742,-0.49125642922661594,0.7280756219090142,0.9342533723227486,0.45355726983848516,0.6665396231667015,1.024034045964006,0.0,0.0,0.0,0.0
-0.014517237890878453,0.330463883806321,0.7789748639254974,-0.0008121371676217837,-0.5133472380256624,0.0014054557839942917,0.8581794557892213,-0.12285809741087639,-0.8427367682925526,0.8449316013707141,0.18687096260349573,-0.8169148901429569,0.8704878337819945,-0.49945237509015245,0.732093641108814,0.9352968796302042,0.45242642508805186,0.6710274887149407,1.0214814291284517,0.0,0.0,0.0,0.0
-0.013495227198740169,0.3318216610406054,0.7789991478708396,-0.000980783434810924,-0.5133190731780986,0.0017703522927018597,0.8581954515308221,-0.09936478909871184,-0.8616605162217148,0.8338002556191698,0.18302866211492433,-0.8205838761511992,0.8785884282354604,-0.5082844453886392,0.7354630140469328,0.9367095259869954,0.4494673873065667,0.6748509909771271,1.0184354582414037,0.0,0.0,0.0,0.0
-0.012672271167766615,0.3333911844720466,0.7790286545414263,-0.0011803807999091176,-0.5132967919143661,0.002156135848334436,0.8582076445649914,-0.07956519526573685,-0.8803108214681508,0.8230322109877161,0.17851734240656988,-0.8227090958251376,0.8839755871328221,-0.51770517614487,0.7382417045155163,0.9384676141961604,0.44479583333907613,0.6780226386007616,1.0149759878182318,0.0,0.0,0.0,0.0
-0.011966486352403343,0.3351676124767685,0.7790498585270197,-0.001415753277208785,-0.5132509142317451,0.0025647077192891936,0.8582336027896196,-0.06248922273317747,-0.8976277909263615,0.8124156382954292,0.1733985077639878,-0.8239793584934957,0.8877389420825956,-0.5277387068461359,0.7405241433887451,0.9405747860002629,0.4385904067433266,0.6806612336711874,1.0111241825916757,0.0,0.0,0.0,0.0
-0.01131575391683509,0.3371768647646676,0.7790431811849978,-0.0016953662228751433,-0.5131572572042984,0.0030108444271414935,0.8582876498748933,-0.047277402869108795,-0.9122002370296077,0.8023133727685051,0.16761067353137016,-0.8248820814946574,0.8906233885740095,-0.5384927079323107,0.7423217968044108,0.9431575810256926,0.43092066459709083,0.6828337820316622,1.006915105606312,0.0,0.0,0.0,0.0
-0.010678694532236323,0.3394442530560163,0.7789557326554645,-0.0020334336465496865,-0.51298618072593,0.003520265159060939,0.8583872385264347,-0.03324306467756606,-0.9218383406748101,0.7935733857832845,0.1610627761714498,-0.8259052448450217,0.8932125525895457,-0.549928429579817,0.7433784811574093,0.9466654465320811,0.4219380561579551,0.6843968080052265,1.002688075164281,0.0,0.0,0.0,0.0
-0.009998779540615758,0.3419364986612968,0.7788244632591178,-0.0024296090529443465,-0.5127285497409014,0.004097517808632596,0.8585375598238261,-0.019791952346346738,-0.9240755108415637,0.7880316867803624,0.15383356771960566,-0.827279224489827,0.8960845891079597,-0.5618440358093093,0.7440263918535386,0.9505826644059764,0.4119795165285665,0.685714375047369,0.9980827802354327,0.0,0.0,0.0,0.0
-0.009312537939813622,0.3446320949861889,0.7787237091729674,-0.0028799255866295203,-0.5124173857187729,0.004739733345739146,0.8587186173418887,-0.006784978083425168,-0.9173109894494449,0.7875835824778474,0.14593359939024392,-0.8283305619637071,0.8985074970862187,-0.5740378835434571,0.7446160029924201,0.9542006378985223,0.40112329736336627,0.6871408287698264,0.99249918626693,0.0,0.0,0.0,0.0
-0.008561211427743512,0.34756519752556714,0.7786061460604186,-0.0033967395298859417,-0.5120102816338467,0.005462302487878105,0.8589552356865439,0.005715358432294409,-0.9032306649594039,0.7901284872901208,0.1372807136250532,-0.8296781883702219,0.9012732693754685,-0.5865723103913608,0.744951518307933,0.9578796423028438,0.38937845552932693,0.6885634534957521,0.9861484447546646,0.0,0.0,0.0,0.0
-0.007671468866625028,0.3507307894043299,0.7783804382704566,-0.0039994449352553155,-0.5114583995432547,0.006296265973017722,0.859275664156538,0.01795662992589065,-0.8840625722713957,0.7931875099742017,0.1278525143680486,-0.8322140653601431,0.9054750195445589,-0.5992105667194962,0.7446313158353597,0.9623320349230885,0.377229869094153,0.6897455850914097,0.9797231322917997,0.0,0.0,0.0,0.0
-0.006553748466662178,0.35393914421130784,0.7780190947815013,-0.004681544551641859,-0.510732624636735,0.007233991510998719,0.8596964223719334,0.030734453905366214,-0.8616518937425404,0.7950027242726828,0.11815455057423671,-0.8369019734476013,0.912586667414079,-0.6109530531543188,0.7437005686157496,0.96743128716866,0.36602166570315886,0.6908191258532262,0.9737593023351844,0.0,0.0,0.0,0.0
-0.0052004037433400745,0.3568360278301593,0.7773481482511979,-0.005423829551913749,-0.5097925457482231,0.008219680644002591,0.860241000663563,0.04517355706989702,-0.837156727420256,0.7934214952717685,0.10922044489420847,-0.8451872427128014,0.9240289034582623,-0.6200434988620669,0.7411962973746062,0.9743865167674944,0.3576986529980412,0.6908233157225362,0.9706450188428948,0.0,0.0,0.0,0.0
-0.0036854146988080927,0.35922456368323763,0.7763921294840909,-0.006230219422565422,-0.5085261319774965,0.009278998773862391,0.8609740168226374,0.0618617796941499,-0.811113275359358,0.7855274758069631,0.10145475341101742,-0.85755541314981,0.9400592347591732,-0.6237799381935668,0.7363405658384675,0.9825131248707073,0.3531129731487379,0.6893005217678925,0.9704508905609227,0.0,0.0,0.0,0.0
-0.002417696228747046,0.3609039871275643,0.7751851084354171,-0.007114600559989698,-0.506847933211784,0.01038085173010776,0.8619436135706164,0.07953980287460785,-0.7850022114221725,0.7670497917222654,0.09535949050608009,-0.8726420812929583,0.9574500906432087,-0.6184876439084818,0.7272461613032033,0.9913406550513097,0.3522206186065319,0.684722048324939,0.9733793781785319,0.0,0.0,0.0,0.0
-0.0017806040169656388,0.3616143256775834,0.7739612595234528,-0.008097357077958727,-0.5047293375727521,0.011508645922520117,0.8631629508214269,0.09500753759114318,-0.7618030510850211,0.7337862565841506,0.09158633931768705,-0.8884669307776989,0.9730115875326911,-0.6003451158539266,0.7132158405707358,0.9985267019982322,0.35553942997496946,0.6768092191810828,0.9779499474881014,0.0,0.0,0.0,0.0
-0.0017179387760758343,0.3617223696794496,0.773932646544634,-0.008239822747022951,-0.5046685719462247,0.011520067592569539,0.863196979752315,0.09504512754859591,-0.7617692623815394,0.7337981619117964,0.09130571530568093,-0.8885727364875534,0.9730333855082803,-0.6004707841302931,0.7131109208527503,0.9987092013087175,0.35562749475021405,0.6768116161541218,0.9777118268828985,0.0,0.0,0.0,0.0
-0.0017179387760758343,0.3617223696794496,0.773932646544634,-0.008239822747022951,-0.5046685719462247,0.011520067592569539,0.863196979752315,0.09504512754859591,-0.7617692623815394,0.7337981619117964,0.09130571530568093,-0.8885727364875534,0.9730333855082803,-0.6004707841302931,0.7131109208527503,0.9987092013087175,0.35562749475021405,0.6768116161541218,0.9777118268828985,0.0,0.0,0.0,0.0
0.00042984469849775483,0.3634130741034381,0.7769710993393251,-0.005901828652916741,-0.5086607686751393,0.008661995186191339,0.8609032237532639,0.09664159530169616,-0.7356149534148292,0.7279357151789047,0.09289579996733653,-0.8686793905090265,0.9672245766819606,-0.504318286188628,0.6958019892763714,1.012119870375286,0.3287060123553197,0.7041296770611768,0.9529528784006039,0.0,0.0,0.0,0.0
0.0033564902859980223,0.3656111298087649,0.7789078109468072,-0.0037894964890766883,-0.5124364062285267,0.005892484217404004,0.858696598291678,0.09689102044753907,-0.7206887403278147,0.7364418448931667,0.09313311420266697,-0.8559086212759276,0.9693858100607164,-0.4060420226903497,0.6770876540476829,1.0330319981089038,0.2984428247908543,0.727822048707464,0.9344712802220809,0.0,0.0,0.0,0.0
0.006729028608370637,0.36826230575121405,0.7795039260036187,-0.002105230331848745,-0.5155838004152327,0.0036645686544277342,0.8568287364994316,0.09506364250482185,-0.7197144906134041,0.7601742064746649,0.09122092193951635,-0.851485995754305,0.9791543565525962,-0.32181561065869296,0.6623235425382411,1.0585498518257943,0.2674494368787893,0.7450294963990367,0.9246449068083431,0.0,0.0,0.0,0.0
0.01037695957529362,0.37119813135520197,0.7792750595172181,-0.0010503058747883566,-0.5179720182911455,0.002238783912557441,0.8553939869858564,0.09110642828406174,-0.7307605902831918,0.7963768956673113,0.08706671903807521,-0.8534434323117098,0.9948883458468009,-0.26101292240580276,0.6541803270657625,1.0868570549092704,0.23967329524671074,0.758194649723238,0.9192831330589589,0.0,0.0,0.0,0.0
0.013822206850177906,0.37438310839504607,0.7784609108722726,-0.0005095297459763858,-0.5197578493126697,0.0015731271949012964,0.8543120294881342,0.0849954096380045,-0.7483162381521506,0.836575640081384,0.08065176891061353,-0.8578317971496857,1.0108105920662318,-0.21747368650260246,0.6508675319647592,1.1156498381218052,0.21522748848235695,0.7676073853372681,0.917336813205486,0.0,0.0,0.0,0.0
0.016653632275362953,0.37755990312186305,0.7774897637936882,-0.00021768391365438385,-0.5211836966119892,0.0012034759221916872,0.8534436470237976,0.07818425287235439,-0.765143280037064,0.8715591548266315,0.07352657394231354,-0.861060380694322,1.0222925208255642,-0.18356286794427248,0.647644346575484,1.1440672629165005,0.19153052601520446,0.7737113276884185,0.916335668422698,0.0,0.0,0.0,0.0
0.018753496706933995,0.38064939662906006,0.7765245432045084,-5.9449661540203036e-05,-0.5223087576390676,0.0009837718108691416,0.85275587969377,0.07112915295041017,-0.77961122301483,0.8997305623343752,0.06618451021369595,-0.862246709505725,1.0283543028095825,-0.15508746975333876,0.6433435578516489,1.1698540414760765,0.16784361498756176,0.7766809323944396,0.915393256517866,0.0,0.0,0.0,0.0
0.02006801480241492,0.3836267919561389,0.7754769021962284,2.0333069793207878e-05,-0.523171931556037,0.0008422984768584155,0.8522267422181538,0.06405911523066897,-0.7916572556497794,0.9210007502128285,0.058870188499961264,-0.8615050711665629,1.0288182365991163,-0.1303589715645698,0.6384443875632061,1.1899228161872786,0.14417066851851018,0.7758583768301593,0.9158341378410317,0.0,0.0,0.0,0.0
0.020609653611576403,0.3865118083973271,0.7743015215358254,4.057009492066904e-05,-0.5237957522125523,0.0007568983765347178,0.8518435510250703,0.05700024973267979,-0.8016005334917973,0.9359531873859929,0.05161209413057579,-0.8589638900004141,1.0238095634012752,-0.10905979492261506,0.6345830645241203,1.1995731999005168,0.12077226155714368,0.7711685085076738,0.9182195948273925,0.0,0.0,0.0,0.0
0.020434060759891806,0.38932908475548916,0.7730188452917736,8.257412709018054e-06,-0.5241878621747225,0.0007201374760226612,0.8516023523232689,0.04993476655984242,-0.809744124124003,0.9453410588720543,0.04439272365626414,-0.8547025277658868,1.0136547890483991,-0.09134681511833419,0.6349665704974643,1.1919871135315323,0.09797974669329187,0.7630464907643623,0.9222545261236529,0.0,0.0,0.0,0.0
