zhuoxili-jackie/tripod-support-walk/examples/trajectory_tripod_com_tilt_v0.10.csv
root_pos_x,root_pos_y,root_pos_z,root_rot_x,root_rot_y,root_rot_z,root_rot_w,FL_hip_joint,FL_thigh_joint,FL_calf_joint,FR_hip_joint,FR_thigh_joint,FR_calf_joint,RL_hip_joint,RL_thigh_joint,RL_calf_joint,RR_hip_joint,RR_thigh_joint,RR_calf_joint,FL_foot_joint,FR_foot_joint,RL_foot_joint,RR_foot_joint
0.0,0.0,0.72963,0.0,-0.5231245161092812,0.0,0.852256264656019,0.0,-0.81,0.872,0.0,-0.81,0.872,0.0,0.65,1.0,0.0,0.65,1.0,0.0,0.0,0.0,0.0
-0.0001041459760962071,0.00014407007032511267,0.7295914197773717,-0.0002072068576981489,-0.523055032524846,-4.61688917809163e-05,0.8522988841270319,-0.0001014564248085927,-0.8105969263279481,0.8722468619095235,-0.00010145642480859252,-0.8093743400207903,0.870538879518693,2.387224785137452e-05,0.6492010066289755,1.00079656539114,2.3872247851371498e-05,0.6494468795571428,0.9998022846041972,0.0,0.0,0.0,0.0
-0.00023255648816899942,0.0002862233539683124,0.7295552677661734,-0.0004122551752817312,-0.5229779525456398,-9.132274034355368e-05,0.852346105087011,-0.0002024467771124788,-0.8110947851596566,0.8722740138523498,-0.0002020350367582992,-0.8086612436243862,0.868875363443777,5.4090164011748246e-05,0.6483224671373548,1.0015679593106641,5.4742882316766115e-05,0.6488154967849844,0.9995936864351207,0.0,0.0,0.0,0.0
-0.00035715123184870776,0.00039559896713022523,0.7295417348602877,-0.0005676621993513035,-0.5229057973601264,-0.00012299966045748646,0.8523902801638937,-0.00029019047942672847,-0.8113724838952661,0.8720827928519262,-0.0002891525234155768,-0.8080043069794358,0.8673827372225725,8.259193359098555e-05,0.647601854986381,1.0020236661051625,8.419200061714842e-05,0.6482943766620511,0.999300071170527,0.0,0.0,0.0,0.0
-0.00046868029177399664,0.00047341636359860527,0.7295485234261884,-0.0006751672660045778,-0.5228405268467629,-0.00014175049365989812,0.8524302361733539,-0.0003649947855108019,-0.8114803001978284,0.8717678014613269,-0.0003633527484418497,-0.8074448917409163,0.8661430241472718,0.00010831992267488177,0.6470596241528771,1.0021857802207847,0.0001107633363587706,0.6479049521678257,0.9989345543062698,0.0,0.0,0.0,0.0
-0.0005635580532366667,0.0005284931607137119,0.7295668839574017,-0.0007481240160784604,-0.5227816333493477,-0.00015118430383400056,0.852466293343233,-0.0004304809378539639,-0.811505687088395,0.8714341980842756,-0.00042834203177779823,-0.8069963758285111,0.8651572398434642,0.00013173434343827906,0.6466562176343379,1.002161128724378,0.0001347948647526261,0.6476203939100259,0.9985420151073771,0.0,0.0,0.0,0.0
-0.0006395519610684631,0.0005703111104725092,0.7295879727950209,-0.0008008644071559652,-0.5227280316148384,-0.00015513534205151034,0.8524991140835887,-0.0004907491024041778,-0.8115353711224736,0.8711805520561655,-0.0004882074942618108,-0.8066653863512575,0.8644113247807639,0.0001535202088421585,0.6463456015418937,1.0020594116293928,0.00015701404202323556,0.6474086142033949,0.9981657357036067,0.0,0.0,0.0,0.0
-0.0006945411888778508,0.0006078715829357978,0.7296035559170322,-0.0008469309644057769,-0.5226781375634479,-0.00015717759629247348,0.8525296607839226,-0.0005499359729075878,-0.8116545110736252,0.8711034274384045,-0.000547029007550043,-0.8064608458558155,0.8638946565678145,0.0001744247927901307,0.6460832706268744,1.001982076869138,0.00017827242201872063,0.6472386284574273,0.997844178858453,0.0,0.0,0.0,0.0
-0.0007266603342626077,0.0006503533490173707,0.7296043898120326,-0.0009000981436641198,-0.522630147857504,-0.00016092803349294248,0.8525590258016997,-0.0006123704176704737,-0.8119520794038009,0.8713004034209733,-0.00060905440527264,-0.8063938917914698,0.8635953609131707,0.00019522650834257724,0.6458183088364019,1.0020401387234887,0.00019947886741340082,0.6470734558208416,0.9976241188929054,0.0,0.0,0.0,0.0
-0.0007234485327427017,0.0007147248739232243,0.7295747894250216,-0.000985673999490541,-0.5225804477746986,-0.00017317170059311045,0.8525893935898594,-0.0006859351143805591,-0.8126376216700935,0.8720435854773367,-0.0006819989863120586,-0.8065311850608652,0.8635843963522482,0.0002157581690981235,0.6454897407969257,1.0024176664695559,0.0002207254749958583,0.6468770112785533,0.9975704875531414,0.0,0.0,0.0,0.0
-0.0006796069834285019,0.0008154029281074348,0.7294979979736829,-0.001125095582145127,-0.5225193930322243,-0.00019915754990323668,0.8526266348182171,-0.000778961945996084,-0.8139114684472593,0.8735521031539603,-0.000773983789495841,-0.8069507580596339,0.8639103449507682,0.00023860622271461583,0.6449955617611653,1.0032922401465847,0.00024489829507148603,0.646570611671577,0.9977608723016835,0.0,0.0,0.0,0.0
-0.0006226216197162686,0.0009487135602142199,0.7293644467552813,-0.0013128062764787155,-0.5224282574061397,-0.00023575321755223827,0.8526822015403424,-0.0008948062589509227,-0.8157550132328523,0.8756422751167717,-0.0008882283926099139,-0.807661107782944,0.8644326783868174,0.00027355084913297705,0.6441593627678773,1.0047196945375692,0.00028190930329976405,0.6459797966832657,0.9982811638737262,0.0,0.0,0.0,0.0
-0.0005888559515597187,0.0011063849881436084,0.7291653223123732,-0.001536078709559175,-0.5222765180109744,-0.0002769334535557332,0.8527747665734445,-0.0010379572620066735,-0.8181530629124593,0.8780803262682652,-0.0010291106406282518,-0.808710743885332,0.8650148329795359,0.0003353352706513144,0.6427529906259445,1.0067140569210904,0.0003464938747331376,0.6448760247084026,0.9992099539230574,0.0,0.0,0.0,0.0
-0.0006388052658040576,0.0012624726267566643,0.7289141329267127,-0.0017557011057940935,-0.5220260990933813,-0.00030862528903370065,0.8529276488245678,-0.0012072639527419833,-0.8208652948591287,0.88029658438965,-0.0011956534475740528,-0.8100678640978037,0.8653894607216454,0.0004453344992606592,0.6405751072219439,1.0090285200009355,0.0004593732265548516,0.6430377557867779,1.000489906426977,0.0,0.0,0.0,0.0
-0.0008505275595437152,0.001369163644550424,0.728776513399906,-0.0019097095129263894,-0.5218424626024349,-0.0003265757283840562,0.8530396770273327,-0.0013300612392148055,-0.821748075350442,0.8800231098342898,-0.0013161202830769727,-0.8099921592835735,0.8638200852205355,0.0005706520880260909,0.6386816796645749,1.0104169958912756,0.0005865931246008237,0.6414093799971816,1.0011802885276804,0.0,0.0,0.0,0.0
-0.0008721532822600593,0.001065110594199867,0.7289833791575949,-0.0019106891467150157,-0.5222810457839628,-0.0006620282479402661,0.8527710244845293,0.0003771952285090386,-0.8171367841376131,0.8755460271678639,-0.0029891653410650436,-0.8237358481671802,0.860762817057827,0.0005149703411455661,0.641441194929158,1.0087709954230712,0.0005322953090288431,0.6427982630573549,1.000953317846581,0.0,0.0,0.0,0.0
-0.0008729553683090382,0.0006355347446953992,0.7292803369517984,-0.001752652258763467,-0.5227633697948315,-0.0009757211656585582,0.852475474942839,0.0022313222086936895,-0.8115497402324029,0.8701445713126594,-0.0047166178008904314,-0.844306357262259,0.8545534581073582,0.00045020555433218537,0.644935095206961,1.005959288050933,0.00046788689790330015,0.6446759945576158,1.0003993580956836,0.0,0.0,0.0,0.0
-0.0008585634139057377,0.00020735404658851693,0.7295384524334215,-0.0015998711742756051,-0.5231945096665855,-0.0012892504616447739,0.8522108209241501,0.004073755412458999,-0.8064631393519641,0.8652116015120965,-0.006467435427615085,-0.8671880921063241,0.846332401952376,0.0004043750141049248,0.6481546570494093,1.0033687485491691,0.0004239719532470884,0.6462887577730285,1.0000683722652015,0.0,0.0,0.0,0.0
-0.0008119461255524814,-0.00018642617031294632,0.7297220227296073,-0.0014986943952645059,-0.5235687678024186,-0.0016135368631639002,0.8519805724285959,0.0058849138529991,-0.8022625956053168,0.861222209880861,-0.008246567318659755,-0.8902599241435185,0.837183077805691,0.0003745078031586734,0.6509352924265761,1.001416153067074,0.00039829298691410525,0.6475241301252393,1.0001464485563791,0.0,0.0,0.0,0.0
-0.0007189769544542838,-0.0005512988031567594,0.7298359032928833,-0.0014429523482484535,-0.5238932365132202,-0.0019493424176402357,0.8517804850361169,0.007680424540393881,-0.7989520490560326,0.858266064461739,-0.010063044117596462,-0.912747803857009,0.8274597244078791,0.0003548351921258305,0.6533664648057066,1.0000487029733298,0.00038491700245452034,0.6484562912513251,1.0006106655246487,0.0,0.0,0.0,0.0
-0.0005690562616581893,-0.0009049514987218897,0.7298975893840808,-0.0014102090685937786,-0.5241760462396745,-0.002294255728169881,0.8516056718044914,0.009485885090568033,-0.796414957240997,0.8562912599575111,-0.011927759733286917,-0.9345608016165483,0.8171506463393984,0.0003402887548421625,0.6556031043246957,0.999058608737628,0.00037848988939264306,0.649203306273023,1.0013679896139713,0.0,0.0,0.0,0.0
-0.00035391536153250896,-0.0012658389303424767,0.7299243780212001,-0.0013775128494904541,-0.5244227615583754,-0.002645907934405171,0.8514527989201982,0.011327491023001904,-0.794531381526116,0.8552241724059052,-0.013853430262506811,-0.9558212401666425,0.8061511127727728,0.00032721847465519844,0.6577873951724047,0.9982312929498341,0.0003751286992088869,0.6498689004151577,1.0023250401565305,0.0,0.0,0.0,0.0
-6.815896812330724e-05,-0.001649728621842435,0.729928640911435,-0.001325842123440527,-0.5246337425779918,-0.0030026099360547357,0.8513217151141188,0.013228656768426767,-0.793221830337079,0.8550095582813526,-0.01585471358383649,-0.9765277450028783,0.7944190751016708,0.000314077721740836,0.6600132485650098,0.9973964535710712,0.00037310620821070394,0.6505142393787287,1.003415165597567,0.0,0.0,0.0,0.0
0.000287371965714762,-0.0020697413828039226,0.7299169076401982,-0.0012397932382730511,-0.5248022633198307,-0.003363021784153977,0.851216621907484,0.015209526373126123,-0.7924440056331693,0.8555896878778808,-0.017948384614981806,-0.9962814720118089,0.7821124312300444,0.0003023667236377749,0.6623059657401887,0.9964361105917325,0.00037376574213749585,0.651138904057383,1.0046066562436022,0.0,0.0,0.0,0.0
0.0006990181831881306,-0.0025364426490526405,0.7298896817842496,-0.0011076915040211111,-0.5249148279921818,-0.0037263226298797866,0.8511458810880353,0.017288002883326346,-0.7921558387132018,0.8568348351951802,-0.020153725331588865,-1.0140547725622016,0.7698006424819159,0.0002975200055978863,0.6646022891468492,0.9952936263579854,0.0003824261304533115,0.6516610146066609,1.0059116313867453,0.0,0.0,0.0,0.0
0.0011325861415319841,-0.003055284971508,0.7298395335526445,-0.0009263241097409957,-0.5249601755427539,-0.004094378249410378,0.8511164386172526,0.019482120682195927,-0.7922365660573589,0.8584296545749678,-0.022492050618658915,-1.0280717289136647,0.7587960860504761,0.00030758846445902476,0.6667412185260456,0.9940278287687083,0.00040726701038311397,0.6519089338583389,1.007419805145961,0.0,0.0,0.0,0.0
0.0015951764061728128,-0.0035909747469894462,0.7297320499338853,-0.0007513614137459791,-0.5249233857055242,-0.004483769638638728,0.8511373393320862,0.02178907464389659,-0.793072970584138,0.8607996541742446,-0.024993225620559716,-1.0359422267068148,0.7512969952747962,0.00033528959865556605,0.66851375887951,0.9930442762413465,0.00045255290335962945,0.6517227991332694,1.009282109154795,0.0,0.0,0.0,0.0
0.002016580169172997,-0.004148498038529478,0.7295746811390039,-0.0005904379893406798,-0.524845423005369,-0.004907683117660351,0.8511832047096046,0.02426117465363214,-0.793987899243423,0.8629331719711095,-0.027686865245140416,-1.035911178054382,0.7505812225824705,0.0003802138731665427,0.6698743371246706,0.992419351422789,0.0005187862079201025,0.6510210073098568,1.0115833491681452,0.0,0.0,0.0,0.0
0.0023943563828464913,-0.004736383386379409,0.7293717919971502,-0.0004395351721269242,-0.5247292104274349,-0.005371400946977337,0.8512521427784484,0.026931850020642217,-0.7949001347806695,0.8647359649077991,-0.030604523511421254,-1.027949304143874,0.7565732886236115,0.0004419318228903819,0.6708595128263233,0.99209961191582,0.0006062088770915968,0.6498114657230732,1.014313858953247,0.0,0.0,0.0,0.0
0.0027874562168790458,-0.0053755920561427495,0.7291319601123294,-0.00026960435079498253,-0.5245423256210968,-0.005868663031173384,0.8513641023320937,0.029821841803454336,-0.7962008552345016,0.8668660006527411,-0.033778987702541674,-1.0137426015110251,0.7659566170773209,0.0005203016618267798,0.671619164139581,0.9918115183657071,0.0007147898946728584,0.6482098927758018,1.017343458633974,0.0,0.0,0.0,0.0
0.0031945427872735093,-0.006130842293881748,0.7289124726711896,6.045281640813605e-07,-0.5243089399396019,-0.006389814109449038,0.8515041431341905,0.0330112790106213,-0.7972634177055143,0.8686822300922619,-0.03724489561065083,-0.995487941182345,0.7764614991426713,0.0006088918006063843,0.6725579907673974,0.9908587750093502,0.0008382751287030531,0.6464913512582695,1.0204101212173633,0.0,0.0,0.0,0.0
0.0036404045857648263,-0.007043775525643341,0.7287596813779618,0.00041606192792968417,-0.52405642532013,-0.006936295897776416,0.8516551988759169,0.03657568624947839,-0.797713791378102,0.8699517123619787,-0.04104730220104623,-0.97468177121251,0.7866381744158544,0.0006956719979346262,0.674102618405624,0.988706241073284,0.0009667257532163336,0.6449780445903791,1.0232526004306979,0.0,0.0,0.0,0.0
0.0041246778656230405,-0.00816097032228837,0.7287252652398422,0.0010240581354380434,-0.5238207985921703,-0.0075121823202402935,0.851794746041547,0.040603522653802904,-0.7969488479429175,0.8700913291652796,-0.045237453727461276,-0.9519990000224661,0.7956545495218371,0.00076899876325226,0.6766656641210604,0.9847885656251338,0.001092416773791236,0.6439587713631216,1.0256150997044746,0.0,0.0,0.0,0.0
0.004635527666447711,-0.00952503720399912,0.7288607772856897,0.0018612204170447221,-0.523642354780443,-0.008127219594511882,0.8518973931408725,0.04518875547155343,-0.7942899619788409,0.8683914289531253,-0.049874559477378816,-0.9274590817362633,0.8029198381209971,0.000816218933993506,0.6806460114869964,0.9785622154036475,0.0012095333150799817,0.643699414225189,1.0272426788699347,0.0,0.0,0.0,0.0
0.005163369091560973,-0.01114843753283699,0.7291966087343746,0.002914903631685606,-0.5235725545597946,-0.008806854620066246,0.8519305856466535,0.05041697508983818,-0.7891918434409861,0.8642959641215033,-0.055027012248099944,-0.900747757633751,0.8078164721077264,0.0008196815333230311,0.6863715404491086,0.9697860512725547,0.0013109061527257703,0.6444206921777786,1.0279805257804802,0.0,0.0,0.0,0.0
0.005705858192107172,-0.01295590391978292,0.7296858343851325,0.0040400296107571294,-0.5236940569559811,-0.009613427802254193,0.8518425880851582,0.056338284841987864,-0.7815852870528631,0.8577753585745447,-0.060773422402957425,-0.8716224790855844,0.8095587397121966,0.0007525442729822146,0.6938420554331006,0.9592967325540596,0.0013809878031393196,0.6461380468579686,1.028123333734931,0.0,0.0,0.0,0.0
0.006228196033605825,-0.014653373000397773,0.7299860896526196,0.004781426814038786,-0.5241488401695339,-0.010685478392549613,0.8515462124031066,0.06289520250625595,-0.7728093980927474,0.8499516294405277,-0.06720505496074818,-0.8405373666437738,0.8070473597676946,0.0005821486575453059,0.7014451737813804,0.9517065131354572,0.0013866074208898484,0.6476746878479966,1.030056863602048,0.0,0.0,0.0,0.0
0.006709230316267953,-0.016000810782361426,0.7299761239736722,0.004783888782238901,-0.5249424618515828,-0.012112431850704892,0.8510380809035403,0.06998632192552219,-0.7642382929064855,0.8423495873583872,-0.07438720335854823,-0.8067621321715641,0.795435735259364,0.0003265191086902385,0.7082674405137032,0.9491997469888088,0.0013335672468550522,0.6485652519789201,1.034130776797699,0.0,0.0,0.0,0.0
0.00700941193291267,-0.016662727425100884,0.729625141011235,0.0036345752100236336,-0.5257374580788718,-0.013916227040655859,0.850525281023887,0.07719027361646646,-0.7589374986196983,0.837912348508518,-0.08225842616611181,-0.7695328914223978,0.763139808063723,0.0001349164725661476,0.7123900001581269,0.952795653790123,0.0013618353653208687,0.6476534062730372,1.0391247783498538,0.0,0.0,0.0,0.0
0.007065262697476921,-0.016767548507680672,0.7295985841135901,0.0036761849554567583,-0.5256925814998362,-0.013982444794971311,0.8505517542500085,0.07759445258768001,-0.7590040722146224,0.8380126558622055,-0.08277229162392041,-0.7693282930705495,0.7631516334133581,9.806794463841824e-05,0.7125698984222061,0.9525044974363653,0.0013809421490259034,0.6474361042742454,1.0394474544932129,0.0,0.0,0.0,0.0
0.007065262697476921,-0.016767548507680672,0.7295985841135901,0.0036761849554567583,-0.5256925814998362,-0.013982444794971311,0.8505517542500085,0.07759445258768001,-0.7590040722146224,0.8380126558622055,-0.08277229162392041,-0.7693282930705495,0.7631516334133581,9.806794463841824e-05,0.7125698984222061,0.9525044974363653,0.0013809421490259034,0.6474361042742454,1.0394474544932129,0.0,0.0,0.0,0.0
0.007309886551318757,-0.016762650503496332,0.7292600801741718,0.003657897280964019,-0.5253362101140425,-0.013969918782376923,0.8507721948322655,0.07769058721696553,-0.7635822820598925,0.843270376097588,-0.08293929709763556,-0.7739414969142374,0.768520262591523,0.0003122331948450323,0.7106668607956261,0.9546417631710363,0.0015823532262414365,0.6457059569188476,1.0414954908820118,0.0,0.0,0.0,0.0
0.007633647429255236,-0.01673480241725473,0.7289271643016865,0.0035934744185773027,-0.5251764106404665,-0.013983037863726941,0.8508709063662364,0.0778112422479617,-0.7674667711023756,0.8482754544291509,-0.08304710838989665,-0.777627782830697,0.7732694370252561,0.0004606368398280796,0.7095592376957959,0.9571536452431466,0.0017266280417895833,0.6447639017842443,1.0437045171316228,0.0,0.0,0.0,0.0
0.007997397314329913,-0.01674337628338278,0.7286296557491735,0.0035740926576511094,-0.5251481392081632,-0.013994319627285664,0.850888251632403,0.07796412175007385,-0.7704717262331013,0.8525819969332318,-0.08308482806120251,-0.7808089338553853,0.7778379253145977,0.0005680337110588825,0.7091523801481388,0.9594243631521444,0.001835464452991098,0.6444322760881056,1.0459120167082396,0.0,0.0,0.0,0.0
0.008396735138077416,-0.016812616819110834,0.7283657258397652,0.003637319448533238,-0.5252192589131796,-0.013992537620479311,0.8508441154905282,0.0781569500170169,-0.7726642411866377,0.8561913711230097,-0.08305168946103522,-0.7838000491513216,0.782582436584388,0.0006438984187289172,0.7093593592131344,0.9613097988725847,0.0019173245946777692,0.644595110774972,1.0481505759547716,0.0,0.0,0.0,0.0
0.008834862395498997,-0.016960972611793,0.7281311906861709,0.0038118445637299716,-0.5253703788554733,-0.013969588843687045,0.8507504248895893,0.07839774229929419,-0.7741060408137692,0.8591419466280233,-0.08294648292429818,-0.7868512403548039,0.7878080435711043,0.0006922799279735249,0.7101333947825601,0.9627317028067977,0.0019761818042315685,0.6451852617640391,1.0504707026556848,0.0,0.0,0.0,0.0
0.00931603162610004,-0.017211800099330314,0.7279281134093648,0.0041339997725648,-0.5255844059811268,-0.013915495409220548,0.850617599878384,0.07869560066262919,-0.7748045221789371,0.8614210904128011,-0.08276534387759403,-0.7902074136610127,0.7938379896984868,0.0007154751030522261,0.7114707807782082,0.9635397751969461,0.002015123245197797,0.6461719573973322,1.0528856137323388,0.0,0.0,0.0,0.0
0.009853421638956033,-0.017606059915125486,0.7277703743949007,0.004667186621685466,-0.5258416400950312,-0.013813194915883568,0.8504575136698022,0.07906541676503961,-0.7747051862912071,0.862981592578136,-0.08249929321127025,-0.7942335215737895,0.8012191306472894,0.000712852845230034,0.7134600709195519,0.9633915037428622,0.002036053981576751,0.6475908246905138,1.0553444300858617,0.0,0.0,0.0,0.0
0.010458230519310883,-0.01820178986995066,0.7276857965846741,0.005501747075449284,-0.5261123795924515,-0.013637959569975395,0.8502878929382999,0.07952449995552259,-0.7736724862056051,0.8636717685965487,-0.08213477329289284,-0.7993796797413274,0.8106272713928379,0.0006837735313005922,0.7162373038345661,0.9617300743824739,0.0020442041980786915,0.6495021336938653,1.057709521669089,0.0,0.0,0.0,0.0
0.011150755460699801,-0.019072264366926942,0.7277145031903349,0.006752221193921413,-0.5263564402651388,-0.013358142957838487,0.8501322634255669,0.08009287291396093,-0.7715597811022745,0.8633589663978583,-0.08165563139066755,-0.8062286289450856,0.8229541143502175,0.0006238594870092584,0.7200137624912011,0.9577862450746788,0.0020484388416664194,0.6520168879911675,1.0597517132752676,0.0,0.0,0.0,0.0
0.011968833118258485,-0.020279498971846922,0.7278937729815764,0.008516870796897884,-0.5265294866611792,-0.012945954444579558,0.8500156262396963,0.08078598155549577,-0.7683825939931448,0.8621677529271097,-0.08105228055090749,-0.8153871140000479,0.8391354977268581,0.0005203396509880758,0.7250348330765651,0.9508067308717252,0.0020618848373452816,0.6552850292255726,1.061199835337253,0.0,0.0,0.0,0.0
0.012896325606953522,-0.02174890881285208,0.7282037795313026,0.010685784386469383,-0.5266158263706006,-0.012427911636756295,0.8499453702682334,0.0815663020544311,-0.7645320019891391,0.8605018016764183,-0.08035203146906449,-0.8263994408376714,0.8583276795933036,0.000365290697271297,0.7310825136626551,0.941182767553995,0.0021068867802768176,0.6591756511231537,1.0619690155944634,0.0,0.0,0.0,0.0
0.013721685328142373,-0.02296198706953712,0.7283825389537645,0.012471600206598753,-0.5267474103830546,-0.012010597416051174,0.8498454979540353,0.08224145247302576,-0.7614690280030298,0.8593805034243281,-0.0797144689345022,-0.8354257320062434,0.8740333693896603,0.0002010897194034862,0.7361293239781735,0.9338848642245717,0.0021856189555518606,0.6624413403793342,1.0632432839255468,0.0,0.0,0.0,0.0
0.014469705680381926,-0.023832662812086118,0.7284117257641429,0.013739245349546817,-0.5269821613328537,-0.011733295773877979,0.8496842734477683,0.08280200402534146,-0.759500625866353,0.8594065387807419,-0.07917789743963487,-0.8420578021581147,0.8859067711944394,3.9875202627620365e-05,0.7401917863547508,0.9296083843164568,0.0022495723792540136,0.665246403742353,1.0650201248998805,0.0,0.0,0.0,0.0
0.01513666186282373,-0.024435391905952706,0.7283417821530851,0.014601331595180723,-0.527288995444755,-0.01156445419748545,0.8494818301750915,0.08326986436159368,-0.7583005796864203,0.860181036789568,-0.07873135849245942,-0.8467871114951518,0.8947571076165954,-0.00010243116083712692,0.7434565771732025,0.9275785655066199,0.0022899153905999955,0.6676778443322896,1.067049818121281,0.0,0.0,0.0,0.0
0.015732538391086574,-0.02485077555197376,0.7282214352917507,0.01517992817760685,-0.5276321218607364,-0.011469782983481053,0.8492598882789482,0.08366739339752748,-0.7575987634825836,0.861402510946191,-0.07835657493099733,-0.8501696524582132,0.9014725141620157,-0.00022321623226014773,0.7461674886308041,0.9269390666776278,0.0023093850343565213,0.6698467877042965,1.069086830965492,0.0,0.0,0.0,0.0
0.01626833598797169,-0.025140564996439126,0.7280848637580501,0.015568615648554086,-0.5279868193477784,-0.011423303678429206,0.8490330057982872,0.08401162896539156,-0.7571928888282068,0.8628531205029919,-0.07803587018456559,-0.8526189153530943,0.9067110137008669,-0.0003260470199862603,0.7485214441854452,0.9270527237364289,0.002312836534727621,0.6718425058378954,1.0709706817532183,0.0,0.0,0.0,0.0
0.01675749695170886,-0.025343444166934966,0.7279520735346169,0.015825771559649555,-0.5283434641261195,-0.01140947789126188,0.8488065460892738,0.0843149243525865,-0.7569571245051483,0.8644271448553823,-0.07775540991753584,-0.8543908263764796,0.910904449329265,-0.0004175756534915561,0.7506736096584088,0.927535210147705,0.0023017725094193675,0.6737504143763194,1.0726154902383274,0.0,0.0,0.0,0.0
0.017217951682717413,-0.025477807029408057,0.7278320864121325,0.01597849123016829,-0.5287069672081035,-0.011422125971751275,0.8485771418568274,0.0845864506419947,-0.7568349937037484,0.8661344945787909,-0.07750557864849777,-0.8556110399168324,0.9143149820176844,-0.0005064044219056929,0.7527602046404264,0.9282115540844296,0.002272546750025236,0.6756702629481471,1.0739863377388617,0.0,0.0,0.0,0.0
0.017670867392236382,-0.025547752357258337,0.727727163246192,0.016031556006549767,-0.5290930403515137,-0.011461742758715216,0.8483349411149663,0.08483332715012808,-0.7568134404607969,0.8680630519697324,-0.07727970678578826,-0.8563096202204631,0.9170857397271713,-0.0006022165431651209,0.7549122312341324,0.9290442418416075,0.0022172981037364555,0.677718751215552,1.0750751806743566,0.0,0.0,0.0,0.0
0.018136469112336195,-0.02555117177215689,0.7276382020871965,0.015979750226175423,-0.5295220748150473,-0.011531760438556514,0.8480672369378882,0.08506139875091835,-0.7568813758527286,0.8703084210736043,-0.07707178568683869,-0.8564584124059705,0.9192840385639094,-0.0007146497869399334,0.7572603797332502,0.9300413573641246,0.0021267015699951786,0.6800204220716894,1.0758733052495422,0.0,0.0,0.0,0.0
0.018628661791504263,-0.025490416460990567,0.7275727360389828,0.015824284869387247,-0.5300101874296955,-0.011633556876476147,0.8477637958674062,0.08527607117552924,-0.7569778648140294,0.8728865334565314,-0.07687355273234854,-0.8560221248862766,0.9209609802787647,-0.0008516757976713289,0.7599418350802317,0.9311274681086251,0.0019942809971787707,0.6826970015381276,1.0763268353346493,0.0,0.0,0.0,0.0
0.019138927250132203,-0.025395484599678678,0.7275602386837144,0.015609135460252239,-0.5305500018544306,-0.011755557886001654,0.8474283788505292,0.08548334620952044,-0.7568620781513138,0.8755021279198576,-0.07666760861698094,-0.8550525284037661,0.9222399410317955,-0.0010156961327985135,0.7630872326656974,0.9318942908553637,0.0018258570316680124,0.6858211475133268,1.0762653433265699,0.0,0.0,0.0,0.0
0.01963167709870778,-0.025354767537400326,0.7276810591029806,0.015469314756736107,-0.5310871586961893,-0.011859314689908848,0.8470929623270703,0.08569376826783755,-0.7559875171177932,0.8773864631193725,-0.07641990116084618,-0.8538611701611194,0.9235751407510274,-0.0012001306833757351,0.7668996745867516,0.9311754983547561,0.001649380104504546,0.6894500629845487,1.075216847582953,0.0,0.0,0.0,0.0
0.020059437958112783,-0.02558180029905734,0.7281604679948441,0.015733121006482182,-0.531471161511344,-0.011850580861107133,0.8468473517219219,0.08593350536181306,-0.753244232274712,0.877132060613067,-0.07606394002143224,-0.8534100726685425,0.9265023802788394,-0.001385506968674025,0.7720746618083918,0.9257830059162528,0.001532271373403333,0.6939222631337532,1.0717010859458431,0.0,0.0,0.0,0.0
0.020550412236939847,-0.026563573232523563,0.7298410182336365,0.017122626858690745,-0.5313548254152543,-0.011526910708948785,0.8468978660304267,0.08628752788187889,-0.7462706746032769,0.8733831492028129,-0.0754495423474606,-0.8560393563915907,0.9363495831633075,-0.0015569994893487214,0.7826473299680614,0.9048608061857352,0.001600465784584091,0.7021938042037927,1.059148092508937,0.0,0.0,0.0,0.0
0.020577892761528584,-0.027466979165970573,0.7323098397001877,0.018146933575180123,-0.5305106735782263,-0.011150173580427147,0.8474106369703656,0.08649525836899855,-0.7396361255903501,0.8690506506073222,-0.074978810780503,-0.8570825285547906,0.943609700674936,-0.003418803281394624,0.7413184172225579,0.9707016248784809,0.003868030174149027,0.7110049817013688,1.0389483127443515,0.0,0.0,0.0,0.0
0.020740195027037348,-0.02843968054274633,0.7349539663100123,0.019247046699556326,-0.5297396615726717,-0.010759026368969913,0.8478736259029457,0.0867333216369888,-0.732262990460478,0.864680795075113,-0.07444395145861857,-0.8579789337333054,0.9517334211255379,-0.00530706236002641,0.7092531019084855,1.0222199854497758,0.0060288961321994065,0.7214893616141592,1.0167500683039565,0.0,0.0,0.0,0.0
0.021026005610281652,-0.029404596542478435,0.7374425411253971,0.020332280339187193,-0.5290837390819931,-0.010380497060356913,0.8482624833717486,0.08700279881902201,-0.7252428910817015,0.8609266974834329,-0.07389548418664899,-0.8591033450568332,0.9602792685131087,-0.00724176450244097,0.68556950996021,1.064523698466731,0.008064980064543571,0.7322682149204487,0.9953298098096036,0.0,0.0,0.0,0.0
0.021349356724999963,-0.03027051020592116,0.7396918274730592,0.02126824378371163,-0.5285561081191696,-0.010048347515411633,0.8485724088659039,0.08727148472572775,-0.7188235996351666,0.8577066940630301,-0.07336787176752452,-0.8598376262728952,0.9679490553947142,-0.009249530305180038,0.6675782990061445,1.1022110745315377,0.010025410237202631,0.7426798932838677,0.9754725441734295,0.0,0.0,0.0,0.0
0.021689022320182598,-0.03102311446616474,0.7417030457036294,0.022035718277170182,-0.5281384435831643,-0.009765577929324618,0.8488161432355468,0.08753421868256647,-0.7131091168695318,0.8550859192037517,-0.07287406157972987,-0.8601664482835406,0.9746305573839124,-0.011358648853509313,0.6531954559615684,1.137889755864908,0.011951593264683985,0.7525471603076155,0.9572814654077176,0.0,0.0,0.0,0.0
0.0220301006359725,-0.03166619954910256,0.7434966366628817,0.02264028828573251,-0.5278066061039166,-0.009527881974161198,0.8490093187736459,0.08778964458109144,-0.7081131222225188,0.8530541431004256,-0.07241889618818163,-0.8601451036140888,0.9803701609690816,-0.01359928295092349,0.6409887406977921,1.1729422303005783,0.01388584354726078,0.761799984324316,0.9406816964423017,0.0,0.0,0.0,0.0
0.022350337203335527,-0.032201198669204414,0.7450882046610231,0.023081966774587445,-0.5275361223865062,-0.009331701204612353,0.8491676994209412,0.08803501811751813,-0.7038401379450524,0.8515464999629424,-0.07200644125259847,-0.8597874970196759,0.9851221264566554,-0.016003642130878244,0.6300923756118827,1.2079712685787893,0.01587361590276438,0.7703388861242283,0.9256160719964521,0.0,0.0,0.0,0.0
0.022620637535976196,-0.03262485271933693,0.7464839997896178,0.023352363824353007,-0.5273026792904021,-0.009175137266680873,0.8493069930084857,0.08826653958678873,-0.7003138826963801,0.8504754008123356,-0.07164150375154361,-0.8590762769420311,0.9887513614570091,-0.01860634655051364,0.6200492484217731,1.2430059891391452,0.01796344701389954,0.7780097341310716,0.9120956514738657,0.0,0.0,0.0,0.0
0.022805080735044992,-0.03293406204410744,0.7476824219485348,0.02344226141725759,-0.5270769358897914,-0.009055603664724994,0.8494459135665678,0.0884804937551871,-0.697580348955113,0.8497271313881593,-0.071328994082653,-0.8580111247966783,0.9910920729833608,-0.021444921592825263,0.6106452405956451,1.2774656147659722,0.020209582909982256,0.7845894228172592,0.9002021236782033,0.0,0.0,0.0,0.0
0.022844700534367348,-0.033127783702822836,0.7486741233016991,0.02334338982360112,-0.5268141393259176,-0.008967787664146994,0.8496125749671122,0.08867044661413913,-0.6956836426456761,0.8490536538234119,-0.07107429452363351,-0.8565968269188802,0.991865028058024,-0.024560406662826367,0.6017754009933903,1.3098407276625548,0.02268287212036674,0.7897037891137273,0.8901057953474506,0.0,0.0,0.0,0.0
0.022648333035932465,-0.033216044185549916,0.7494447511826486,0.023060765547243803,-0.5264408655723918,-0.008898598737818831,0.849852358406017,0.08882711146277351,-0.6946485195822178,0.8479931183768191,-0.07088208247905067,-0.8549011465061056,0.9907103546385434,-0.027997999169436773,0.5934720273506545,1.3371257366249725,0.025480055867403643,0.7927730163693125,0.8820578305623894,0.0,0.0,0.0,0.0
0.022092062680022985,-0.033230868719918094,0.7499813364042075,0.022627393343586072,-0.5258438423235469,-0.008821559103977151,0.8502343410236136,0.08893993304875393,-0.694469229515471,0.8458386806836449,-0.07075491454441023,-0.8531330566295954,0.9872870799212531,-0.0318076978064004,0.5862749548559867,1.354009276381178,0.028729515484060823,0.7930129910757077,0.8763299933357311,0.0,0.0,0.0,0.0
0.02104797538003564,-0.03323298718622738,0.7502931825633106,0.02211193302805298,-0.5248759931566405,-0.008694972058347182,0.8508470201431616,0.08900245489136503,-0.6951063507311306,0.8417883042456568,-0.07069177330334561,-0.8516920310853546,0.9814951011733969,-0.03604483832832367,0.5820942064394417,1.35248863644662,0.032581115352215,0.789662629436496,0.8729553144328575,0.0,0.0,0.0,0.0
0.019416292004743915,-0.0332726154491478,0.7504290229866953,0.021557058708828816,-0.5234130059728374,-0.008482490260729026,0.8517641491382923,0.08900803741029498,-0.6964377952892382,0.8351592257145233,-0.07069327995600133,-0.8507690267838505,0.9731981165609249,-0.04076623423834234,0.5806743790293666,1.3321823256785792,0.03717182483030232,0.782369331892459,0.8714285961994368,0.0,0.0,0.0,0.0
0.01712648487757286,-0.03339083592718848,0.7504752897943953,0.02097956022467942,-0.521349273211242,-0.008151073259939938,0.8530465130223556,0.08894980194371885,-0.6982821505532794,0.8254029810459014,-0.07076449880078126,-0.8503761693522295,0.9622503864709663,-0.04603068662245265,0.5795816969649515,1.300294764629536,0.042630136314561064,0.7711942414872289,0.8706825615594365,0.0,0.0,0.0,0.0
0.014115788415603465,-0.03365734923774387,0.7505400898038951,0.02042255634904147,-0.518545005896639,-0.007649160686258304,0.8547721839137143,0.0888257809880213,-0.7004803367633582,0.8119651244161333,-0.07091498311901974,-0.8507456005183415,0.9488154553876352,-0.05190387824263949,0.5776501320020587,1.261358864223079,0.04910905982972108,0.7563216935165834,0.8692844964370918,0.0,0.0,0.0,0.0
0.010318955126652244,-0.0341557503776268,0.750728089230188,0.01992683125495247,-0.5148352770464127,-0.006910987118562917,0.857029636104684,0.0886358618253848,-0.7029576826418734,0.7942816621377926,-0.07116545008636252,-0.8522426965893972,0.9331684229456787,-0.05845921232238561,0.5740655057347551,1.2176846027404753,0.05678362314977081,0.7379626644609372,0.8656259740682889,0.0,0.0,0.0,0.0
0.005695247140276548,-0.03495983354684946,0.751118346239365,0.01949192651484784,-0.5100648598100155,-0.005868399006618792,0.8598950316642305,0.08838418804794418,-0.705840115847858,0.772041223320455,-0.07155328814767628,-0.8552643343703988,0.9156444567625293,-0.06577877159957292,0.5679456178595527,1.1703273280970439,0.06582362244603525,0.716477757031998,0.8580157480310607,0.0,0.0,0.0,0.0
0.0002827302040073077,-0.036106330074381604,0.7517333750188967,0.01904319125076407,-0.5041404972159246,-0.004468968882744358,0.8634001067008228,0.08808784875318441,-0.7096509331770685,0.7456873724262404,-0.0721343116707469,-0.8602120072156547,0.8967775162503778,-0.07395431145131118,0.5583592706807654,1.1199939379967612,0.07634633169519314,0.6925608639991842,0.8448859638987827,0.0,0.0,0.0,0.0
-0.005705046647741888,-0.037568903370977846,0.7524748143715317,0.018427398404460206,-0.4970977804789624,-0.0027019566310292295,0.8674946265316555,0.08780083655174692,-0.7157780434867782,0.7174457743568082,-0.07297886703483022,-0.8677893652693147,0.8779403713182392,-0.08308874965465407,0.5450230084269748,1.0677170330456944,0.08834277150029513,0.6672807060209804,0.8255324966776767,0.0,0.0,0.0,0.0
-0.011742127968380343,-0.03919977201910044,0.7528826362599081,0.017409564153677195,-0.48912298774148755,-0.0006425909222581887,0.8720408230213343,0.08766682302667803,-0.7283446506408574,0.694030468844399,-0.07420627861193008,-0.8803454275157231,0.8629223900738612,-0.09330890235979786,0.530719421014622,1.0130497592394743,0.10159890241194101,0.640823624905012,0.8030567415770757,0.0,0.0,0.0,0.0
-0.017408000882176446,-0.04092551217150773,0.7524629502783995,0.015944821436877712,-0.4805910175452824,0.0016189361716507022,0.8767983893517416,0.08782500708137755,-0.7496160566857532,0.6797571495268284,-0.07581742936759786,-0.899373407326639,0.8544100146774323,-0.1047611327337179,0.516161265920083,0.9538563872992866,0.1158180264058549,0.6123490699286411,0.7831441629445829,0.0,0.0,0.0,0.0
-0.022252442924134093,-0.04254993323589716,0.7514875729085259,0.013806246157197916,-0.4718126293832111,0.003933921619878507,0.8815819613525654,0.08830394727638917,-0.7805669474701888,0.6791566845376192,-0.07783499799463639,-0.9238998874963282,0.8538147830799311,-0.11759473072988666,0.5024194750983675,0.8899137335283664,0.1308294457917024,0.5848894211070506,0.7635651744228549,0.0,0.0,0.0,0.0
-0.025550373186785318,-0.043708963693597544,0.7502578826547756,0.010811185939030448,-0.463820819437331,0.005962592358650302,0.8858429957997292,0.08910630333811055,-0.8193258908840292,0.6956440303724348,-0.08006251317111261,-0.9501712665592223,0.8611366216796041,-0.13179770327057003,0.492285322579922,0.830673094467021,0.14592229848804086,0.5632090039160262,0.7444113190542899,0.0,0.0,0.0,0.0
-0.02549946410913402,-0.043840780645917815,0.7499217943155578,0.010533973073971236,-0.4638479098486702,0.00609447686839832,0.8858312532824733,0.08919225170487681,-0.8199779721928813,0.6949741458729224,-0.08019778933367472,-0.9504537801203915,0.861036926114145,-0.13288420609943524,0.4922896275444766,0.8307276282070735,0.14654038456784835,0.5635365225178877,0.74429207949047,0.0,0.0,0.0,0.0
-0.02549946410913402,-0.043840780645917815,0.7499217943155578,0.010533973073971236,-0.4638479098486702,0.00609447686839832,0.8858312532824733,0.08919225170487681,-0.8199779721928813,0.6949741458729224,-0.08019778933367472,-0.9504537801203915,0.861036926114145,-0.13288420609943524,0.4922896275444766,0.8307276282070735,0.14654038456784835,0.5635365225178877,0.74429207949047,0.0,0.0,0.0,0.0
-0.025566682050299792,-0.04362938060403647,0.7499638086390683,0.010271786889473163,-0.4652645995380731,0.00589549306213301,0.8850924166279632,0.08898281007275201,-0.8110096831605684,0.6855688440575525,-0.07981865483307046,-0.9409553084905093,0.8513661426289878,-0.13427827298101,0.4942241902488021,0.836884611560682,0.1464227614084826,0.5667792500881942,0.7465981896635012,0.0,0.0,0.0,0.0
-0.025649807397380153,-0.043338177617354263,0.7500519985746174,0.009935699113482539,-0.46634478164397025,0.005691980817197408,0.8845289299231206,0.08875410198857416,-0.804446981553671,0.6789167842100238,-0.0795897221293708,-0.9328626333508103,0.8428229979066265,-0.1355150175730595,0.49589797914940187,0.8413498243148501,0.14634739689507756,0.5694522955579285,0.7477349661912799,0.0,0.0,0.0,0.0
-0.0257185225416621,-0.04303562884350217,0.7501558252934899,0.009603126861080528,-0.46717303325623016,0.005510253319724918,0.8840965863869262,0.08851586569526472,-0.7996700179655685,0.6743127613288882,-0.07947616282770997,-0.9261996596771422,0.835687079683326,-0.1365873994604491,0.4973366427356622,0.8446262324878802,0.14627053135499216,0.5716906266867272,0.7481655680337747,0.0,0.0,0.0,0.0
-0.02577334017324319,-0.042713514631582676,0.7502588713760757,0.009253320559625047,-0.4678186409334848,0.005342302938541262,0.8837598967214346,0.08826103321570797,-0.7963246042607508,0.6713644821035638,-0.07946378384306513,-0.9205652807515193,0.8295479369435407,-0.13751090176416406,0.49850331127245884,0.8472355212423163,0.14617897190453713,0.5736172064613682,0.7480653041070258,0.0,0.0,0.0,0.0
-0.02582491000405734,-0.04234201047897107,0.7503496765988241,0.008840003483785231,-0.46832944894955564,0.005171658250344093,0.883494558860412,0.0879794493467567,-0.7942292916061761,0.6698669568922644,-0.07954793228995685,-0.9155202970473062,0.8238585358193093,-0.13830423189610103,0.49932920443158074,0.8496146474928685,0.1460692104220224,0.5753027329401238,0.7475070353788738,0.0,0.0,0.0,0.0
-0.0258819089997738,-0.04188594060687002,0.7504207458682638,0.00831192083108061,-0.4687387632423333,0.004980252266532396,0.8832836921926654,0.08766191516828828,-0.7933239831718176,0.6697758148778719,-0.07972829727234303,-0.9106830618101578,0.8181234710768035,-0.13898759306719966,0.49975457917180327,0.852110121136383,0.14594282980003798,0.5768043395985716,0.7465034352889985,0.0,0.0,0.0,0.0
-0.025948787065653543,-0.0413018523292668,0.7504648145915334,0.007607425766209115,-0.4690702166142126,0.0047466975179875255,0.8831153536324572,0.0873000944646444,-0.793680600919292,0.6712308921197983,-0.08000907236866976,-0.9057097891672442,0.8118824337727498,-0.13958227877177276,0.49971088405067077,0.8550546599412222,0.1458047208924446,0.5781732153813542,0.7450258653766293,0.0,0.0,0.0,0.0
-0.026025745460719237,-0.040528933511817807,0.7504705200460675,0.006640934723795027,-0.4693404120604901,0.004441888816700183,0.8829811692310452,0.08688534893849167,-0.7955464171092381,0.6746139762549551,-0.08040079385493387,-0.9002475118187945,0.8046385295618333,-0.1401114060832975,0.4990876874884331,0.8588582730675927,0.14566287925587101,0.5794513678179438,0.7430118730401843,0.0,0.0,0.0,0.0
-0.026102780574299086,-0.039488169057615215,0.7504210213426458,0.005301217921738422,-0.46955818979688546,0.004028327398748387,0.8828764217383919,0.08640987736222792,-0.7993863046170843,0.6806197235819621,-0.08092008888838437,-0.893964829930655,0.7959114626965155,-0.1406020709605156,0.4977391677078479,0.8640203748393731,0.14552963035383343,0.5806822753739586,0.7403645454542408,0.0,0.0,0.0,0.0
-0.026155233812883736,-0.038099337256521267,0.7502969429114799,0.003474459452395728,-0.4697207689655016,0.003467451900895837,0.8828013956215104,0.08586960238075607,-0.8058143650659754,0.6901565819976905,-0.08158353470095532,-0.886659672995196,0.7854011840373875,-0.14108296869528522,0.49553217163042507,0.87101140252955,0.1454201604584862,0.58191692017215,0.7369593777263065,0.0,0.0,0.0,0.0
-0.026192668104340542,-0.03640210240215907,0.7501065414651322,0.001212412071233325,-0.4698171637731597,0.002774036961605903,0.8827585555518842,0.08526879508562575,-0.8144935406319446,0.7026537647390615,-0.08235935682487536,-0.878432817493896,0.7732008505604597,-0.1415444387653853,0.49256142492958144,0.8794902517737897,0.14532442924821815,0.583140642616982,0.7327596481795664,0.0,0.0,0.0,0.0
-0.026253118316714712,-0.035007387740937805,0.7499587326809392,-0.0006328811815832276,-0.4698493890848511,0.002219031597873351,0.8827435793800881,0.08470129181089163,-0.8215313850534597,0.7125158535254015,-0.08303309157760705,-0.87159864001825,0.7628409129776335,-0.14189828047244704,0.490092436616408,0.8860428393553191,0.1451950258183465,0.5841218903056155,0.7289317124535087,0.0,0.0,0.0,0.0
-0.02634337476400158,-0.03396081447640277,0.7498701050301267,-0.001996984075983004,-0.46983046563171466,0.0018212175377994922,0.8827525297531389,0.08419051592916059,-0.8266341703977012,0.7194241247490009,-0.08359518071794111,-0.8663036304525955,0.754628173457824,-0.14212804358948508,0.4882225788292101,0.890465393006568,0.14502167771769967,0.5848854385104101,0.725548807913873,0.0,0.0,0.0,0.0
-0.026479089971344138,-0.033201116111079024,0.7498264653348408,-0.0029660561989802133,-0.4697660726220415,0.0015519170992503307,0.8827845892839341,0.08373670221581132,-0.8301110217204912,0.7237966351672827,-0.08406602692421537,-0.8622332103661906,0.7480580037689446,-0.14222938194461382,0.48674230548318004,0.8931967447528838,0.14480025537626587,0.5853834339217647,0.7225731519622954,0.0,0.0,0.0,0.0
-0.02667074577322209,-0.03266230583305445,0.7498123332709689,-0.0036331037226359584,-0.46965366393710284,0.001380984782984175,0.8828421882696955,0.08333376257408368,-0.8323372872989102,0.7261171393914937,-0.08446668773738736,-0.8590952270239169,0.7426341591944918,-0.1422002696525519,0.48544956214307183,0.8946420504362794,0.14452812778320193,0.5855759444594187,0.719916127025539,0.0,0.0,0.0,0.0
-0.02693131663774102,-0.032294582945815345,0.7498181454384412,-0.004068354414208108,-0.46948594311354014,0.0012861582262486278,0.8829296367820978,0.08297339687000499,-0.833575956283325,0.7266900992623798,-0.0848128545250699,-0.856651145589061,0.7379293775378398,-0.14203294840553535,0.4841907051050818,0.8950503369702044,0.14419846085596075,0.5854335529806756,0.7174525172161548,0.0,0.0,0.0,0.0
-0.027283553541473268,-0.032065629633757586,0.7498408899485265,-0.004317324929220223,-0.46925207621654036,0.0012536675692709344,0.8830528172139804,0.08264575493464621,-0.8339309527174353,0.7255625569294771,-0.08511456339210617,-0.8546798537348006,0.7335207739186048,-0.14170886028861843,0.48284461632275866,0.8945143469844201,0.14379656936334007,0.5849238310326685,0.7150226744946644,0.0,0.0,0.0,0.0
-0.027753871905007436,-0.03196128108759448,0.7498878205246098,-0.004399879142790013,-0.4689373197959563,0.0012785547529719078,0.8832195629988375,0.0823413194931635,-0.833376761043682,0.7225972895458137,-0.08537761322959743,-0.8530136472659653,0.7290712449518147,-0.1411996146449427,0.4813567046681994,0.8929332594033265,0.14330126383897948,0.5840491248283376,0.7123892913926333,0.0,0.0,0.0,0.0
-0.028359554676342668,-0.03198513103686862,0.7499839213969922,-0.0043109200250625885,-0.46852235689451605,0.001364504142447279,0.8834400688145124,0.08205275284687416,-0.8318186124543171,0.7176177800148896,-0.08560560787039781,-0.8515985063071033,0.7244757986287821,-0.14047087245577922,0.4798114501817141,0.889937107801414,0.14268847722140063,0.5829279870587795,0.7091406330514914,0.0,0.0,0.0,0.0
-0.029100555472942373,-0.03214599534996371,0.7501843686737103,-0.0040381889628944,-0.46798586201904396,0.001518108367522899,0.8837254219083984,0.0817721391839229,-0.8291481787076299,0.7105571851592276,-0.08580202945257265,-0.8504302362018595,0.7198382244522059,-0.1394866734154595,0.4785190776544761,0.88480630790093,0.14193414379658395,0.581927430299612,0.704483883487234,0.0,0.0,0.0,0.0
-0.029841485018908282,-0.03247220700400011,0.7505828536450948,-0.0035422663073256754,-0.46729037974293824,0.0017548084513239902,0.8840950593665863,0.08151706258858891,-0.8259723639718287,0.7028564148761377,-0.08598950415069466,-0.8504282338804516,0.7170731475049166,-0.13825615789647153,0.4783350929224658,0.8763222597351885,0.14105306563750464,0.5819448584199685,0.6971815528418798,0.0,0.0,0.0,0.0
-0.030151590925742905,-0.03288465005665348,0.7512571807000666,-0.0029327154138507052,-0.4663478496419202,0.0020397610436792965,0.8845942130093001,0.08134941876236257,-0.8257147645405407,0.7007955333374497,-0.08627931643016998,-0.8541973252579598,0.7212258666966388,-0.13691549663374103,0.480519039751982,0.8637264750015877,0.1401560816908391,0.5845412633585222,0.6855985218073231,0.0,0.0,0.0,0.0
-0.02984170787125847,-0.033314650991370306,0.7523125747285021,-0.0023024202193316122,-0.46508582839938073,0.0023452562862333578,0.8852594935137083,0.08128157732548216,-0.8300962822224789,0.7076039860810001,-0.08673300599021963,-0.8626443520994755,0.7342721732180553,-0.13546907596890786,0.4860038979811167,0.8458022895566752,0.13924546294051257,0.5910318112100764,0.6675885248360669,0.0,0.0,0.0,0.0
-0.02878454821786534,-0.03362997296538899,0.7529946514890923,-0.0018348201490975872,-0.4634212085567512,0.0026122374383915005,0.8861323789989767,0.08140568822126866,-0.8434377716930601,0.727503497053547,-0.08753322113662962,-0.8784537260137245,0.7578889828895378,-0.1341702884946401,0.4904245606129726,0.8307235831261758,0.13854376602148935,0.5964981014589025,0.6519895758824759,0.0,0.0,0.0,0.0
-0.02651956525873416,-0.033822926426424475,0.7533898736753835,-0.0015259791326368032,-0.46176657073861255,0.0028402435479716413,0.8869956248779228,0.08170355479627547,-0.8651949448331753,0.7622315549752845,-0.08868034631205396,-0.9010633328248221,0.7937474904804143,-0.133510980560203,0.4957339142026839,0.8197373089227427,0.1385103146989267,0.6027329095563628,0.6402468341332014,0.0,0.0,0.0,0.0
-0.021621507081298095,-0.03386028868535497,0.7550715997349725,-0.0059874195769559855,-0.47211275928907465,0.003987895686844426,0.8815088144830184,0.08030718500832919,-0.8358609055772741,0.7625116257068258,-0.0870217376044036,-0.8526440836765066,0.7765343615171858,-0.12088627767770554,0.5265894805261984,0.8467689043057751,0.12312416577355259,0.5858517396639682,0.7659804017740677,0.0,0.0,0.0,0.0
-0.015756515148458813,-0.033680333822456665,0.7562591978788962,-0.009985274241722002,-0.4817310383066621,0.004995297840763892,0.8762479945938735,0.07930955818452198,-0.8167235705964438,0.7772365573040318,-0.08593727775817254,-0.8144724717771249,0.7714865533055633,-0.1095012101190091,0.5602883654074227,0.8696505325673096,0.1091816730601337,0.5789650356910981,0.8655542234496059,0.0,0.0,0.0,0.0
-0.00944512879114224,-0.03329596498769346,0.7566264588612152,-0.01362479892382641,-0.4902094361663044,0.005809772809720674,0.8714788121851837,0.07867624484001079,-0.8084557407361205,0.8038704465785917,-0.08538838183944233,-0.7877371825993135,0.7775720237319833,-0.09937163517356395,0.5922477421281329,0.8917893589865715,0.09673438232341394,0.5790698217251172,0.9418217770654516,0.0,0.0,0.0,0.0
-0.0030413206241089105,-0.03281687862045679,0.7563520136461667,-0.016899250864084805,-0.4975063487646973,0.0064625218219457005,0.867271632229922,0.07830972417118115,-0.8082970545822237,0.8376391726461322,-0.08523134848096423,-0.7707898287988594,0.7923274096894379,-0.09029626488721755,0.621831609722664,0.9122487487577048,0.08561601300370622,0.5838842881431753,1.0037994499349205,0.0,0.0,0.0,0.0
0.002851481507340565,-0.03247459660868059,0.7563509151291274,-0.01948567185595901,-0.5035817351266577,0.007050388013678381,0.8636990428777856,0.07806604519558025,-0.8090165500352562,0.8689092390304138,-0.08519970216935709,-0.7587884090179416,0.8097666618090651,-0.081991174312579,0.6516068096435709,0.9224471971809124,0.0756565625240657,0.5885001575426311,1.0572498220669573,0.0,0.0,0.0,0.0
0.007952029939899165,-0.032345034518046246,0.756730306406376,-0.02132301043913238,-0.5084803794736246,0.007617452305399752,0.860775817118805,0.07790044452163063,-0.8086508974710956,0.8945991001166831,-0.08521758606259548,-0.7499266421145719,0.8270054265675802,-0.07428418526549013,0.6799441173451986,0.9235546374416912,0.0667209529610054,0.5914685299106759,1.1049203600259743,0.0,0.0,0.0,0.0
0.01219738505111869,-0.03240953304882595,0.7573763661554042,-0.022515247894725553,-0.5123533594225487,0.00817075406882958,0.8584406429559439,0.07778789323512561,-0.807039993694195,0.9144537397055877,-0.0852559983598135,-0.7432496153129399,0.8426694766747335,-0.0670914116936629,0.7053501789199224,0.9187330041429242,0.05869021238741039,0.5928592947404407,1.148589022337614,0.0,0.0,0.0,0.0
0.01563989500134578,-0.032626911773366,0.7581583184383845,-0.023204189277588855,-0.5153826075734773,0.00870777833036582,0.8566017207590013,0.07771349425244228,-0.8044710110500282,0.9291450644057359,-0.08529611306418304,-0.738182895765827,0.8562862114511962,-0.06037448420649556,0.727192960760929,0.91065179355191,0.0514587850674334,0.5931045876535286,1.1892883382961466,0.0,0.0,0.0,0.0
0.018377724740288665,-0.03296074826413632,0.7589645308512664,-0.023516088225164704,-0.5177398159041684,0.00922642260733287,0.8551651008711563,0.07767037355700065,-0.8012892576362357,0.9395397095362955,-0.08532460984644846,-0.734391378667557,0.8678628832277688,-0.054111514008242434,0.7453825873052581,0.9012568344379965,0.04493245278330208,0.5925952898336138,1.2272508081351463,0.0,0.0,0.0,0.0
0.020509198613601842,-0.033386379618966316,0.7596897535524714,-0.023547024604449185,-0.5195713012387521,0.009727014700623295,0.8540471800470752,0.07765677052878385,-0.7978064098559864,0.9463906961571128,-0.08533317380625581,-0.7317098240901571,0.877578538930613,-0.04828239441010514,0.7599579994038583,0.8921032413286302,0.03902673884273871,0.5916434410531322,1.2616896149864778,0.0,0.0,0.0,0.0
0.02210622432495911,-0.033886054072147266,0.7602140966612733,-0.02337152513606831,-0.5209945261234643,0.010209863806870497,0.8531788993190386,0.07767231505249193,-0.7943280638926284,0.9502484959802381,-0.08531835566441073,-0.7300885840876442,0.885565957443354,-0.04286371871241873,0.7707810054808373,0.8847496111003507,0.03366557829354785,0.5906784354565495,1.2903631411632714,0.0,0.0,0.0,0.0
0.02320845665540591,-0.03443716494255925,0.7603960809131429,-0.023063239599528974,-0.5220988744386744,0.010670438661294798,0.8525063014593027,0.07771485062051513,-0.7912262770948911,0.9515374434323804,-0.08528205360582615,-0.7295366327130045,0.8918013595842534,-0.03782932319554711,0.7774278483708714,0.8809528858168341,0.028780199952522886,0.5907501580232466,1.3088868883736884,0.0,0.0,0.0,0.0
0.023850898709703985,-0.035004681692966125,0.7601150435618564,-0.02270605010498288,-0.5229486230060139,0.011097405921248887,0.8519894486239621,0.0777804122880677,-0.788942171330951,0.9507708128979405,-0.08523183327454235,-0.7300599165794378,0.8962281828166117,-0.03315264215044237,0.7795009138603403,0.8822237619491099,0.02430835536914276,0.5943459374083233,1.3103026181011772,0.0,0.0,0.0,0.0
0.02408991581664101,-0.03558349445345524,0.7593508553359045,-0.0223247392382411,-0.523600227204806,0.011493055612191778,0.8515939864522971,0.07786997419050856,-0.7875324091232053,0.9482550739568528,-0.08516798307166037,-0.7316173694628112,0.8990441551723565,-0.02879789096492667,0.7772333505227315,0.8887954199469991,0.020189138446161287,0.6014860899137809,1.2947699192836186,0.0,0.0,0.0,0.0
0.024005789606310998,-0.03620029849919705,0.7581837081794986,-0.02188315600753359,-0.5241033318149966,0.011874683131403628,0.8512906771274418,0.07798907337103451,-0.7866689914654649,0.9440945566251873,-0.0850837488025338,-0.7341264737180612,0.9007206864732922,-0.024718744445742076,0.7715104499199156,0.8995958412259802,0.01636270596793645,0.6098057288611775,1.2695312163649366,0.0,0.0,0.0,0.0
0.023678792195568486,-0.03686946345142091,0.7567129012886162,-0.021359490588418795,-0.5244869204501044,0.012254376388895859,0.8510623201022874,0.07814020350769002,-0.7861103616123581,0.9385208062470966,-0.08497806404202177,-0.7374909400359319,0.9017084894015188,-0.020866934845741897,0.7632646555369056,0.913322507476959,0.012774090803008153,0.6184249743514978,1.2392922746908963,0.0,0.0,0.0,0.0
0.023161433639430535,-0.037592695582804335,0.7550042785221432,-0.02075216984310349,-0.5247646995182952,0.012638073866813405,0.850900485765059,0.07832146945757001,-0.7857499261511631,0.9317446596680886,-0.08485422603439502,-0.7416228024773698,0.9022557545173236,-0.017193566951636072,0.7530944116678727,0.9291049631792457,0.009372105295043304,0.6271397407590438,1.2066839765704402,0.0,0.0,0.0,0.0
0.02248036866685918,-0.03836157483668297,0.753080576819681,-0.02007779249447045,-0.524943436896332,0.013026482125718527,0.8508005530507393,0.07852780497441686,-0.7856044256174243,0.923937013588542,-0.08471865395583565,-0.7464487625669763,0.9024165170338982,-0.013651610407137228,0.7412494644306915,0.9466031911344231,0.006108430599141159,0.6360288100518758,1.172983636780984,0.0,0.0,0.0,0.0
0.021650736219433517,-0.039154718817346446,0.7509248098208753,-0.019375863881402566,-0.5250315570489376,0.013413690435490662,0.8507564357150161,0.07875261416830832,-0.7858290661532762,0.915320914697406,-0.08458113046899084,-0.7518989394656503,0.902105375477959,-0.010199862089043776,0.7277380312947808,0.9659388031925068,0.0029367495124860837,0.6454165538728233,1.1386048001747424,0.0,0.0,0.0,0.0
0.02069597610365325,-0.0399273589248802,0.7484895329307292,-0.018724288396238967,-0.5250465431019672,0.013782388283964137,0.8507558841253574,0.07898869028726704,-0.7867808926220033,0.9063626356895054,-0.08445691452602892,-0.7578732148670159,0.9011488841763257,-0.006807825399993876,0.7124755279807354,0.9875803807233148,-0.00018799199869969432,0.6560038845330088,1.103373158114714,0.0,0.0,0.0,0.0
0.019705780297051625,-0.0405875711039168,0.7457324162448441,-0.018273542593688876,-0.5250227981759773,0.014093118233090448,0.8507752482618496,0.07923249862774404,-0.7892445931353982,0.8983780825127446,-0.08437415114996119,-0.7642447077449095,0.8995734689888981,-0.0034646925354179085,0.6956740506192487,1.0119851614273152,-0.0033110697969811285,0.6691282178891732,1.0665805909755737,0.0,0.0,0.0,0.0
0.018729688365142057,-0.041076246010293686,0.7427079591692975,-0.018115720443020053,-0.5249566743101687,0.01432247697274546,0.8508155954279417,0.07947459381851399,-0.7935705236837631,0.8921447644272431,-0.08435235249557828,-0.7707702151271354,0.8973197538948604,-0.0001325649044551739,0.677793755583899,1.0385741757890927,-0.006476104605389466,0.686161241725732,1.0264497456085895,0.0,0.0,0.0,0.0
0.017852469565411935,-0.04135141905507997,0.7396982641993093,-0.018304323250461618,-0.5248044989754572,0.014457884664888477,0.8509031432404506,0.07970484493539265,-0.79969173092196,0.8885192190565485,-0.08439819126051243,-0.776996191867434,0.8947096203302347,0.003247219109520564,0.660302291468308,1.0646443532621772,-0.009728637415735174,0.7088396495544528,0.9796992671135836,0.0,0.0,0.0,0.0
0.017259528164634684,-0.041407713331520504,0.737448248496471,-0.018804782030862728,-0.5245308710842391,0.014511578809396393,0.851060021110638,0.07990458237008705,-0.8063338538382766,0.8883481663542194,-0.08447594913988435,-0.7817461742959801,0.8927365052648791,0.006741853389850842,0.6469339519379329,1.0835559100972985,-0.013111884403279029,0.7377262257847919,0.923396331337414,0.0,0.0,0.0,0.0
0.017258386804293716,-0.04140775884990356,0.7374054228037378,-0.01882232909194492,-0.5245169455897848,0.014498856180767022,0.8510684325517934,0.07994855168891994,-0.8064298829799417,0.8882833787060058,-0.08444518876531686,-0.7818362843999265,0.8926596715892741,0.006744370304179543,0.6469050440204717,1.0834681715177985,-0.01319693900490585,0.7378861467047719,0.9235195651240701,0.0,0.0,0.0,0.0
0.017258386804293716,-0.04140775884990356,0.7374054228037378,-0.01882232909194492,-0.5245169455897848,0.014498856180767022,0.8510684325517934,0.07994855168891994,-0.8064298829799417,0.8882833787060058,-0.08444518876531686,-0.7818362843999265,0.8926596715892741,0.006744370304179543,0.6469050440204717,1.0834681715177985,-0.01319693900490585,0.7378861467047719,0.9235195651240701,0.0,0.0,0.0,0.0
0.017609956898545998,-0.04155675642083686,0.7371416694889754,-0.018657936576689727,-0.5251206207182686,0.014528441450917674,0.8506992062345936,0.08012268548131013,-0.8048099176528927,0.8876717037218448,-0.08423551089226783,-0.7815201745753175,0.8938729898881709,0.006928366813796084,0.6487283110753879,1.0857212443724036,-0.013233442850871675,0.7390913076736289,0.9273170061033978,0.0,0.0,0.0,0.0
0.01794175057086547,-0.04173067413724968,0.7368533450116151,-0.018458058513425326,-0.5256302702027535,0.01456395368330683,0.8503881527723712,0.08032516305740867,-0.8036293098193436,0.8873163086043883,-0.08403009082559175,-0.7818768056390285,0.8956727266851414,0.007111697619658023,0.6500949558452069,1.0880524330998538,-0.013268661429865242,0.7398677498548476,0.9312453299282897,0.0,0.0,0.0,0.0
0.018164429847671137,-0.04191720717521441,0.7366276821966052,-0.018238070521004224,-0.5259894487684605,0.014599348979492851,0.8501701780098482,0.08054345227508676,-0.8025194915040346,0.8865767031853076,-0.08381272145674164,-0.782454436423877,0.8972902791885093,0.0072720288076462995,0.6509552525375998,1.0897284210713956,-0.013282958845107797,0.7402167646125846,0.9344602088571086,0.0,0.0,0.0,0.0
0.01822650630771487,-0.04213099374140609,0.7364820893946629,-0.01797505152335166,-0.5261896101453437,0.014640853117557109,0.8500511967627681,0.08077275072876358,-0.8011342812760761,0.8848539540051534,-0.08356972454883828,-0.7830604730542572,0.8983420927719924,0.007404620792355019,0.6511992050693636,1.0906013445895142,-0.013267478958401826,0.7400057751599202,0.9369435520243704,0.0,0.0,0.0,0.0
0.018092630877348043,-0.04239328170863372,0.7364161129261897,-0.017636628590274647,-0.5262296356088078,0.014697641399742488,0.8500325283636354,0.08101175701054293,-0.7991944264599254,0.8816501164173676,-0.08329039503206137,-0.7836279008906087,0.8986322738399737,0.007509923140039713,0.6507126670008394,1.0906534015190938,-0.01321685362776926,0.7390864501097912,0.9388527541787999,0.0,0.0,0.0,0.0
0.017729059511416855,-0.042729461752571175,0.736427916991487,-0.017184133522585947,-0.5261058492224009,0.01478078565768512,0.8501169739185284,0.08126000778614055,-0.7964242638102048,0.8764623861208978,-0.08296471906382284,-0.7841355337004328,0.8980230906396257,0.00758986090208268,0.649379532019315,1.089854807538001,-0.013126266632363425,0.7373068712904101,0.9403542783013251,0.0,0.0,0.0,0.0
0.017096776943578782,-0.04317052314592024,0.7365174775185045,-0.016570518836832807,-0.5258095063305676,0.014903950333852542,0.8503103275994764,0.08151670622732916,-0.7925080357637074,0.8687029242978658,-0.08258213661904094,-0.7845825276578058,0.8963829320802139,0.00764668293684464,0.647070260832067,1.0881311256596273,-0.012990119929489825,0.7344965520098002,0.9416051721153129,0.0,0.0,0.0,0.0
0.016151942921681137,-0.04375441145976273,0.7366820381444683,-0.015739034415159486,-0.5253294032630338,0.01508403951356539,0.8506196403886618,0.0817802912270246,-0.7870765724971154,0.8576691299238678,-0.08213155426770846,-0.7849915003799317,0.893584715830601,0.007683021406911051,0.6436360019688594,1.0853950402896129,-0.012801993075870531,0.7304518356800568,0.9428035095448125,0.0,0.0,0.0,0.0
0.014855798135109522,-0.044524257640061966,0.7369039858833178,-0.014627310054401162,-0.5246605066694984,0.015340451886832853,0.8510476279725979,0.08204849128094295,-0.779742564804815,0.842599072325391,-0.08160315629488522,-0.7854303551922802,0.8895494776583988,0.007702562060644661,0.6389169606684708,1.0816493042904314,-0.012556101143828657,0.7249338513446243,0.9442929838074609,0.0,0.0,0.0,0.0
0.013201695192167994,-0.04551438668383601,0.7371339393602154,-0.013190269472093608,-0.5238205581694859,0.0156889342528701,0.8515819966229152,0.08231862701126312,-0.770250727205634,0.8229449781124097,-0.08099393194663561,-0.786030575628569,0.8843388391957135,0.007710060304684851,0.6327980411784472,1.0771660475899467,-0.01225115316672299,0.7177267509701056,0.9466568929047735,0.0,0.0,0.0,0.0
0.011282329230816677,-0.046690547372144835,0.7372997897277381,-0.011490373743153653,-0.5228777921752847,0.016115320191053415,0.8521778465885406,0.08258639273085389,-0.7589367805947226,0.7993247762151722,-0.08032204980890711,-0.7868588642429303,0.8782586153381166,0.0077069574831921785,0.6255019525194899,1.0725801025055002,-0.011900507272010504,0.7090103363358204,0.9503658801220048,0.0,0.0,0.0,0.0
0.009604925176889002,-0.04764503583186276,0.7375090402738426,-0.010144722959790122,-0.5219811046904312,0.01644557317692586,0.8527381509379702,0.08283701851275317,-0.7492798710850539,0.7788526334787813,-0.07971631607241426,-0.787340021853148,0.8726007075585654,0.007673384412160414,0.6193813177972992,1.0678621826170194,-0.011571313499214449,0.7016533730209588,0.9523757156434788,0.0,0.0,0.0,0.0
0.00830861021969197,-0.048384772998014,0.7376978020137035,-0.009128786653268526,-0.521231910041615,0.01668670980008189,0.8532030912535753,0.08308433943356296,-0.7418174063674675,0.7628561940277674,-0.07920059099600288,-0.7878898042771224,0.8684037348982372,0.0076465210805526556,0.6147613527970522,1.0637048168242722,-0.011297904737192175,0.6959968096102643,0.9534373465978503,0.0,0.0,0.0,0.0
0.007361819460093947,-0.048935950849147807,0.7378278526833496,-0.00839494332875985,-0.5206497429786865,0.016851356156084234,0.8535627697237241,0.08332636482125937,-0.7364256194755094,0.7510861685989789,-0.07877138338912115,-0.7885307526839809,0.8655519171070758,0.007635304779163448,0.6113447035437994,1.0605504080989798,-0.011082893479067128,0.6917442192289041,0.9541798578998589,0.0,0.0,0.0,0.0
0.006700262705805568,-0.04932725889816304,0.7378956970853885,-0.007895655312224774,-0.5202194770568851,0.01695227222732208,0.8538278367353587,0.08355900729830391,-0.7327947184795383,0.7429081069323943,-0.07841819717827653,-0.7891962174016991,0.8637268786816686,0.007638886898699593,0.6088369855111686,1.0584485674381463,-0.010919271093956153,0.6885932796134924,0.9548461400160755,0.0,0.0,0.0,0.0
0.0062487170001467056,-0.04960584234699249,0.7379206162031797,-0.007557617316427447,-0.5199145507438572,0.017010159576612175,0.8540154546707511,0.08377850392324475,-0.7303806382274945,0.7373209280103262,-0.0781228918758927,-0.7898265609064746,0.8626273284336353,0.0076550666041440224,0.6070257654909458,1.0571370094924046,-0.010794725279531745,0.6862897544948269,0.9554985212494563,0.0,0.0,0.0,0.0
0.00594183264050981,-0.04981398356480354,0.7379253047841058,-0.0073166828640546765,-0.5197075231571802,0.01704332311271202,0.854142893000329,0.08398215871522904,-0.7286765336991011,0.7333951535729076,-0.07786826276673875,-0.790374422227683,0.8620038202337054,0.007681006522097537,0.6057606497329582,1.0563001611259673,-0.010697345755834928,0.6846368201887654,0.9561169746533638,0.0,0.0,0.0,0.0
0.00572703535190575,-0.04998153407561989,0.7379284231038609,-0.007128517596662336,-0.5195741663611791,0.017064359459886293,0.8542251913419456,0.08416807893528538,-0.7272953894554052,0.7304030412427915,-0.07764068080905946,-0.7907898471399877,0.8616342854239228,0.007713696127249307,0.604922714415245,1.05567955625286,-0.010617729813402367,0.683479224327058,0.9566536675449986,0.0,0.0,0.0,0.0
0.0055556745601079175,-0.05012302508508449,0.7379461319754178,-0.006972671922016712,-0.5194935173036971,0.017078781793796717,0.854275238162819,0.08433339755781452,-0.7259408418438162,0.7277622620947085,-0.07742916673652954,-0.7909586527324207,0.8612172269977213,0.007749225086260567,0.604397690536825,1.0550861907313067,-0.01054907256263275,0.6826840507099114,0.9570216856883033,0.0,0.0,0.0,0.0
0.005395674309909577,-0.05025587697850243,0.7379953054881234,-0.0068235674555640665,-0.5194525502292595,0.017093736372449743,0.8543010541748893,0.08447674497113879,-0.7243451717579736,0.7250011885977623,-0.07722386511249602,-0.7908177408359564,0.8605916745835817,0.007785852656552971,0.6041459195182951,1.0543164393677007,-0.010485776361309996,0.6821901914626405,0.9571378256865252,0.0,0.0,0.0,0.0
0.005201738747457499,-0.05040447773328562,0.7381009974514045,-0.006645103400288399,-0.5194381227109464,0.017119431284750544,0.8543107188534005,0.08459440599138263,-0.7220941208914285,0.7214183050180931,-0.07701047738554624,-0.7902419612707655,0.8594962964980989,0.007821412741219304,0.6041298047583396,1.0530844668601909,-0.010420510296335143,0.6819308250598097,0.9568839835867787,0.0,0.0,0.0,0.0
0.004901898464726453,-0.05061311768905304,0.7382905850881698,-0.006371598398968873,-0.5194372919048257,0.017174853401349496,0.8543121952325539,0.08467919743522816,-0.7184848928606735,0.7158132457125058,-0.07676644326929878,-0.7890474918512879,0.8575199599500273,0.007853890906052865,0.6042552814649846,1.051043131130638,-0.010341958285301114,0.6817543207071816,0.9562273027579761,0.0,0.0,0.0,0.0
0.0043686492824762556,-0.050991111638205244,0.7385413245599917,-0.005841937744104662,-0.5194506267313085,0.01730767759057323,0.8543051928018848,0.08472011793425141,-0.712167551248564,0.7057357486183715,-0.07645172741864298,-0.7871240621981044,0.8540857245337214,0.007886585825324822,0.6041022394812762,1.0481490897618053,-0.010229495300585917,0.6810744538845854,0.9559467046242389,0.0,0.0,0.0,0.0
0.003414885904193749,-0.05179007373895315,0.7387582089800084,-0.004683195894541099,-0.5195257061232961,0.01762932487452404,0.8542600981304069,0.08470086181892804,-0.7004551779300986,0.6864301304183291,-0.0759914508435326,-0.7846218585626786,0.8487254261690821,0.007935962164517781,0.6029411155339679,1.044675068656095,-0.01004374874070905,0.6787700644617635,0.9582188410264405,0.0,0.0,0.0,0.0
0.0019306725651469779,-0.05346035475614724,0.7391849887512889,-0.002208180899159547,-0.5201306159589361,0.018338464107360963,0.8538869755497371,0.08454094472975253,-0.6756704954721251,0.6479266987641473,-0.07515317576158918,-0.7794091706971817,0.8400464236198252,0.008040867690110047,0.6030927859414573,1.0380321234091119,-0.009747494444539461,0.6765530524098494,0.9635891616002306,0.0,0.0,0.0,0.0
0.000774259534244126,-0.05492167328004977,0.7394348862669108,-0.002533013625128494,-0.5201891088815123,0.016480232077059547,0.8538883280580192,0.07515456226774987,-0.733518355676571,0.7273646127222442,-0.06608239638493772,-0.7789866911486474,0.835428852390271,0.008138281204591482,0.6041915438265338,1.0339204050447106,-0.009856341642015352,0.6705720929762835,0.9661576939578105,0.0,0.0,0.0,0.0
-0.000512526778333747,-0.05675989631068663,0.7396714334560747,-0.002047017780086349,-0.5203749842380038,0.015021606483329304,0.85380327759746,0.06665614961412204,-0.7800388917963798,0.7687068147401339,-0.057713470111658845,-0.7785732098704734,0.8309543403860392,0.008229791912401203,0.6052239407821682,1.028845798403229,-0.009858090413140324,0.6644812109029071,0.9708120857368486,0.0,0.0,0.0,0.0
-0.0018253791405177997,-0.05872000581255284,0.7398117692483142,-0.0011220293762212227,-0.5206859836902764,0.013871760113160828,0.8536348292507348,0.05909470716457605,-0.8189769254785252,0.7888842528680711,-0.050197920332640866,-0.7778257540723043,0.8261784751616532,0.008330555529392294,0.6059454475062297,1.0242316091119756,-0.009798394051141667,0.658399378793323,0.9772197880475421,0.0,0.0,0.0,0.0
-0.0030539165579647034,-0.060582180940611706,0.7400187784660427,-0.00012281810108193486,-0.5210092408470318,0.012898154529878435,0.8534535684367586,0.052350145630535395,-0.8519571196979306,0.7969981593567605,-0.04347698234549635,-0.7765790279947182,0.8213308321322318,0.008419492279127349,0.6070637685464926,1.0190566789348494,-0.009710804811361839,0.6532993662900479,0.9826512670868073,0.0,0.0,0.0,0.0
-0.004151013643322473,-0.06227628245068581,0.7402689627893176,0.0008130263715464952,-0.5213190743793433,0.01203862255015675,0.8532765280045378,0.04631177710287664,-0.8805054970876054,0.7981233252124621,-0.037468664300440456,-0.775079919214529,0.8167248557376421,0.008495826245290576,0.6085135490723973,1.0137094985493345,-0.009614679709994045,0.6491395816474179,0.9869757872657144,0.0,0.0,0.0,0.0
-0.005080143914316569,-0.06378976038723737,0.7405199212586178,0.0016412371866983098,-0.5216161888517878,0.011262131804867619,0.8531043442952584,0.0408819038187959,-0.9059521031305436,0.7949732456108678,-0.03208923543116226,-0.7736724713770575,0.8128032857014971,0.008565377783843024,0.6101948337322831,1.0086300068273901,-0.00952191888763429,0.6457850338171047,0.9905216651266888,0.0,0.0,0.0,0.0
-0.005838812157821754,-0.06512577904207915,0.74074835425237,0.0023453621912187116,-0.5219013700551546,0.010548594056257464,0.8529373871358793,0.035974214867384835,-0.9293878304436497,0.7890377240731664,-0.027259418163619088,-0.7725096009318922,0.8097052281591447,0.008631605307751897,0.6120056490076433,1.0040609481949916,-0.009439030875675075,0.6430918845305396,0.9935231952875891,0.0,0.0,0.0,0.0
-0.006443917328113045,-0.06629342777223071,0.740946905030327,0.0029202395676147836,-0.522169395081323,0.009883078571777676,0.8527795259029246,0.03151254036399291,-0.9514660980441542,0.7812046624773515,-0.022906541189165953,-0.7716332146225593,0.8073923137249954,0.008695480234757903,0.6138557906197462,1.0000761500748938,-0.009368891364810259,0.6409246982521696,0.9960875797356966,0.0,0.0,0.0,0.0
-0.006910314557676607,-0.06730700714323876,0.7411132625331387,0.0033704511790074525,-0.5224102495456199,0.009254986038061477,0.8526373886136875,0.027429566489881842,-0.9721679192178035,0.772141628075646,-0.018964762263003056,-0.7711209660030104,0.8058875107673086,0.008757351134496879,0.615680117569156,0.9966657115937879,-0.009311969740242475,0.6391677132026822,0.998279028554451,0.0,0.0,0.0,0.0
-0.007269306143152707,-0.06818084249671662,0.74124742431102,0.003701666255464931,-0.5226088188693225,0.008655259389541753,0.8525206194525998,0.02366519447752156,-0.9907049792909142,0.7627321562761629,-0.015374138749455455,-0.7709704456155994,0.8050479545748911,0.008815655489229473,0.6173690397378873,0.9937910613456759,-0.009266730872840424,0.6376598389235782,1.0001392890700556,0.0,0.0,0.0,0.0
-0.007549032353622573,-0.06893898612096855,0.7413449105641415,0.00393572690082183,-0.5227534107991324,0.008080816439033809,0.8524365559719469,0.02016595683567665,-1.005363162112699,0.7543590748432207,-0.012078707494477304,-0.7712237696863151,0.8048007633611459,0.008869503433376561,0.6188174074313681,0.9914195132047977,-0.009229376573519217,0.6362329252890667,1.0017888976340719,0.0,0.0,0.0,0.0
-0.007763000628366731,-0.06962626561541217,0.7413978240150643,0.004128422407583035,-0.5228414521675633,0.00754050563866645,0.8523865982043896,0.016886466798997996,-1.0137198802388592,0.7490881422489679,-0.009026331880091281,-0.7720438573808523,0.8053045651402239,0.008920251580853642,0.6199822922999932,0.9894805764141216,-0.009192398632137942,0.6347577981781283,1.0034624400659304,0.0,0.0,0.0,0.0
-0.00801039837854141,-0.07026958905056525,0.7414268628219789,0.004308003460604348,-0.5228882419275271,0.0070354134590719895,0.8523613262681403,0.013787356139512267,-1.0141413686856309,0.7499895231261322,-0.0061710818503177885,-0.772808724311198,0.8054879704314151,0.00896344980786515,0.6207557625001424,0.9877975685670484,-0.009149556806122483,0.6330578824494774,1.0051675852102,0.0,0.0,0.0,0.0
-0.008298686923771881,-0.07087600685721428,0.7414334234666695,0.004474641826125712,-0.5228931158867252,0.006558029307161462,0.8523612844272117,0.010829962906115714,-1.0066305509021953,0.7570757481344534,-0.0034755273909897783,-0.7735046955463621,0.8053058437027788,0.008999071254526838,0.6211370638124374,0.9863446810070765,-0.009100875545176565,0.6311008253987895,1.0069116950772945,0.0,0.0,0.0,0.0
-0.008538233800331876,-0.07143368875910434,0.7414000368035439,0.004602692710903367,-0.5228385032074557,0.006093590367623529,0.8523975498205212,0.007975093599111843,-0.9928278378292074,0.7673863315950805,-0.0009089456223705314,-0.7747724810646118,0.8058179182759299,0.009031699961880899,0.6212447865983776,0.9852369706115591,-0.00905259164924734,0.6290124354434701,1.0086994726469576,0.0,0.0,0.0,0.0
-0.008734953679786883,-0.07191088272966184,0.7413399931966156,0.004634934747378812,-0.5227250230423808,0.005617694152399817,0.8524702394674198,0.0051864620453696015,-0.9752156224189238,0.7790725710925316,0.0015563999305099863,-0.7764020098609323,0.8067381556587698,0.009059503391558532,0.6211127904172653,0.9844836462645318,-0.009012602154027513,0.6268518074161684,1.010294931279023,0.0,0.0,0.0,0.0
-0.008853059778949,-0.07230454882976997,0.7412580995538463,0.0045598150128015776,-0.5225669767493374,0.005120947113724629,0.8525706649884014,0.0024328624823046897,-0.9554958425370159,0.7909092099381686,0.00394851145708788,-0.7784875344937684,0.8083475983948054,0.009085459909953401,0.6209029510349345,0.9840704919546214,-0.008985328961381983,0.6247742200854481,1.0116442998057609,0.0,0.0,0.0,0.0
-0.008872604977253597,-0.07261962302189055,0.741157817181775,0.004377220516254087,-0.5223808302578447,0.004597433889850891,0.8526886722135492,-0.00031564256029134336,-0.9345865111744476,0.8023084141295342,0.0062972866707429985,-0.7810520435037934,0.8107831296198299,0.009111698636011757,0.6207382036309255,0.9839817584866863,-0.00897291242428599,0.6228829598907993,1.0127513276470659,0.0,0.0,0.0,0.0
-0.008791229281706761,-0.07286514032081695,0.7410461636424962,0.004092366373891219,-0.5221770000601665,0.004042765105856539,0.8528177350383407,-0.00308817106162337,-0.9127922389886568,0.8130375826477639,0.008634073686856043,-0.7840562270253093,0.8140378054505175,0.009138525333543418,0.6206999785647102,0.9841504827203461,-0.008975187248083447,0.6212298270928053,1.0136014050501359,0.0,0.0,0.0,0.0
-0.008618177832933158,-0.0730529897186184,0.7409374879317172,0.003713894779332159,-0.521960013363783,0.0034533090317210467,0.8529548792823562,-0.0059137655872011224,-0.8900907397637273,0.8229493246878677,0.010992164315992106,-0.7874160417519567,0.8180147213271488,0.009164701017212,0.6208635380088819,0.9844244118971529,-0.008990261653457126,0.6198518324247915,1.0141183268228298,0.0,0.0,0.0,0.0
-0.008372039194977258,-0.07319755455109266,0.740858498437331,0.0032532576794969533,-0.5217302931988115,0.0028257744898732714,0.8530996029020792,-0.008821983849938994,-0.8665077945665874,0.8317061417932615,0.01340752398072544,-0.7909888891669608,0.8225341711036853,0.009187564992814664,0.621333159954444,0.9845242529261631,-0.009014894573010518,0.6188065467881106,1.0141197570591822,0.0,0.0,0.0,0.0
-0.008083727837606707,-0.07331508300595359,0.7408518716793939,0.0027236811638421212,-0.5214852669452323,0.0021566698414335886,0.8532532137033957,-0.011843145824491474,-0.8426055577669229,0.8384382964804931,0.015919169295670457,-0.7945376546670493,0.8272889035996206,0.009202795956874801,0.6222533801144277,0.9840181415878634,-0.009044651256367808,0.6181841775658281,1.0132867177999476,0.0,0.0,0.0,0.0
-0.007808431944391908,-0.0734193982036494,0.740962437832057,0.002134770028292793,-0.5212236808024615,0.0014412148451325567,0.8534162174621654,-0.015004977369702188,-0.8202084361919084,0.8414971514656173,0.018564356988318678,-0.7976645575814502,0.8316882087552879,0.009204447046502716,0.6237126309378507,0.9824815468482988,-0.009074601429619808,0.6180225297064967,1.011289578395853,0.0,0.0,0.0,0.0
-0.007642474973654943,-0.07350148682568629,0.7411420430499882,0.0014835630788401408,-0.5209857186973282,0.0006862891622107219,0.85356382828773,-0.018266710204835685,-0.8043487622119586,0.8405147243896797,0.021296675653509213,-0.7996906159474224,0.8344729188683474,0.009192775053910238,0.6252827888191924,0.9805339394534317,-0.009101757144358904,0.6179384466863993,1.0086867206451178,0.0,0.0,0.0,0.0
-0.007642978731372155,-0.07351147835320238,0.7411416458146476,0.001464521865373089,-0.5209869011449348,0.0006567284506586857,0.8535631627002455,-0.018501311955090326,-0.8043348524682912,0.8405316941119809,0.021418657438061494,-0.7997030171052816,0.8344691040521166,0.009195259487787653,0.625322436641846,0.9805289945752319,-0.009091619334977362,0.6179049776344945,1.0086969754834445,0.0,0.0,0.0,0.0
-0.007642978731372155,-0.07351147835320238,0.7411416458146476,0.001464521865373089,-0.5209869011449348,0.0006567284506586857,0.8535631627002455,-0.018501311955090326,-0.8043348524682912,0.8405316941119809,0.021418657438061494,-0.7997030171052816,0.8344691040521166,0.009195259487787653,0.625322436641846,0.9805289945752319,-0.009091619334977362,0.6179049776344945,1.0086969754834445,0.0,0.0,0.0,0.0
-0.007821543549443219,-0.07337543321336872,0.7409287866648993,0.001291190668917137,-0.5208859481234737,0.0006275440094587133,0.8536250746450005,-0.018652834585345477,-0.8051857168029085,0.8403143158503003,0.021272555687398078,-0.7994417158564151,0.8326914385589965,0.009183757660727935,0.6233723897308805,0.9828620368587012,-0.009082772499163222,0.6162391489943022,1.0100668868681342,0.0,0.0,0.0,0.0
-0.00802676557271236,-0.07323027450763622,0.7407650483229573,0.00110102048366203,-0.5207715958629374,0.000591081134070888,0.8536951348809227,-0.018795495603297487,-0.8058517077773572,0.8398760399839863,0.02113175150309547,-0.7989190374903585,0.8305796354162724,0.009166610161071854,0.6215594788597003,0.984756641946194,-0.00907575037090107,0.6147067048865394,1.010940258036906,0.0,0.0,0.0,0.0
-0.008215820515795629,-0.07310488510925713,0.7406642584610673,0.0009392240026031874,-0.5206600047401879,0.0005621930234164102,0.8537634105893885,-0.018927156038037622,-0.8063105867500737,0.8393870351622096,0.021000087357199274,-0.798349644627334,0.828644989868984,0.009148867211923754,0.6201314691960128,0.9859892980280938,-0.009067722243464808,0.613518496026494,1.0113059917348441,0.0,0.0,0.0,0.0
-0.008372883093829017,-0.07300309971972112,0.7406048179577962,0.0008121243814207521,-0.5205613098704642,0.0005431424618511305,0.853823733633706,-0.01904884348892556,-0.8066412470818468,0.8389642837919478,0.020877935197440134,-0.7978456086114644,0.8270530583515233,0.009133328290329638,0.6190506407019066,0.9867614124478896,-0.00905947393972394,0.6126374190431289,1.0113870223959704,0.0,0.0,0.0,0.0
-0.008496760255727879,-0.07292121288596258,0.7405686556360089,0.0007142619198681622,-0.520478778541419,0.0005323699112281341,0.8538741403159016,-0.01916223589874629,-0.8069027832037818,0.8386489544868334,0.02076423684889484,-0.7974366737235101,0.8258035340594828,0.009120840031927362,0.6182345594231885,0.9872616030517958,-0.00905184140538097,0.6119895724248052,1.0113409945365426,0.0,0.0,0.0,0.0
-0.008594405901948023,-0.07285288707628539,0.7405449598590849,0.0006360844763913455,-0.5204107786313935,0.0005269924463844222,0.8539156510802265,-0.019269174305929837,-0.8071266257516473,0.8384295042502015,0.020657227033292425,-0.797102382346964,0.8248105907038652,0.009111011129884921,0.6176007059017132,0.9876142255630677,-0.009045169671289132,0.6115027706713828,1.0112445706303936,0.0,0.0,0.0,0.0
-0.008673663834213778,-0.07279352624400812,0.7405268152617334,0.0005707492474728045,-0.5203545627824379,0.0005250265252871188,0.8539499561355701,-0.01937130401982742,-0.8073264743950557,0.8382754352186446,0.02055518765243127,-0.7968184030133307,0.8239892728943481,0.0091033547492458,0.6170822072327481,0.9878987039953714,-0.009039314605206397,0.6111175388780057,1.011143274929272,0.0,0.0,0.0,0.0
-0.008739419457390677,-0.07274116544020563,0.740508810683342,0.0005155011412833781,-0.5203085847179167,0.0005258432386375884,0.8539780058153138,-0.019470058258273647,-0.8075095490670317,0.8381627854947205,0.02045667040403651,-0.796575535571329,0.823292389502128,0.009097848503983064,0.6166328466832016,0.9881714529346144,-0.009033908471857477,0.6107915244123389,1.011079085911788,0.0,0.0,0.0,0.0
-0.008791833200327944,-0.07269770773880153,0.7404891675556204,0.0004735436001129471,-0.5202748131562591,0.0005307310145833815,0.8539986023854305,-0.019566214407726535,-0.8076604748192535,0.8380688565871319,0.020360749586382704,-0.7963739317238355,0.8227200814966018,0.009095109654760875,0.6162491591992632,0.988446069302241,-0.009028543087260322,0.6105195930797039,1.0110798052830738,0.0,0.0,0.0,0.0
-0.00879259565175703,-0.07269707637634917,0.7404857422790956,0.00047282744436374517,-0.5202748110507199,0.000530678434973163,0.8539986040976555,-0.019567276321428597,-0.8076692971605245,0.8380687003105198,0.02035983181973042,-0.7963773674469603,0.8227124208703132,0.009095164850224791,0.6162294274579372,0.9884798182983988,-0.00902859151780116,0.6105017002227133,1.0111087539796235,0.0,0.0,0.0,0.0
-0.00879259565175703,-0.07269707637634917,0.7404857422790956,0.00047282744436374517,-0.5202748110507199,0.000530678434973163,0.8539986040976555,-0.019567276321428597,-0.8076692971605245,0.8380687003105198,0.02035983181973042,-0.7963773674469603,0.8227124208703132,0.009095164850224791,0.6162294274579372,0.9884798182983988,-0.00902859151780116,0.6105017002227133,1.0111087539796235,0.0,0.0,0.0,0.0
-0.008148902989300228,-0.07260819778122685,0.7409120500717712,0.0003534706923369762,-0.5206909117298285,0.0004887417646248844,0.8537450501361148,-0.019596515265270342,-0.8077151901171181,0.8423484295821799,0.020330581283761168,-0.7957709407509396,0.826046381968079,0.009065786493288916,0.6211076651156039,0.9854375856740094,-0.009177660121339231,0.6154715661815864,1.0074322193714846,0.0,0.0,0.0,0.0
-0.00716233638388392,-0.07237796449249612,0.7411589915536002,3.1055155697841935e-05,-0.5211169792176437,0.00038361925252824514,0.8534851761119957,-0.019694937342954997,-0.8107203725330501,0.8512518720204787,0.020272843049825157,-0.7970353053922312,0.8324580317357387,0.009004960325861141,0.6259923626728652,0.9843337735777037,-0.009416741369316734,0.6206728441304454,1.00461157946925,0.0,0.0,0.0,0.0
-0.006282365121238828,-0.0721378957602065,0.741278388810285,-0.00030896783578957844,-0.5215138597446841,0.00027676275673382215,0.8532427099222442,-0.01980404688888659,-0.8136876133793707,0.8593141027775553,0.020204823731752714,-0.7981834196605204,0.837935025632431,0.008958444637526215,0.6298880699924592,0.9843896790069719,-0.009634583048706609,0.6249135733101108,1.0028717873012434,0.0,0.0,0.0,0.0
-0.00559189113472645,-0.07195871225098929,0.7413377854138558,-0.0005606742395039144,-0.5218375894055863,0.00020251459998193544,0.8530446500128821,-0.0199046056761344,-0.8159717235110959,0.8654854188634735,0.02013769636411473,-0.7991217322105664,0.8422140680136099,0.008939122806906282,0.6328263420629407,0.9847021208025443,-0.00979263066163567,0.6281214550085934,1.0018511869233873,0.0,0.0,0.0,0.0
-0.005103106731992885,-0.0718584533001389,0.7413781453396849,-0.0006960626182620097,-0.5220803829941998,0.0001689881309937578,0.8528959846502225,-0.019988794101229994,-0.8173871432425877,0.8695863978439538,0.020075848256944126,-0.7997968366358423,0.8452945068556516,0.008948621071679647,0.6349534317403166,0.9848453236389705,-0.009882920339776464,0.6304190943170193,1.0012593201829376,0.0,0.0,0.0,0.0
-0.004787054156024501,-0.07182371572788969,0.74141330763288,-0.00073429856557997,-0.5222475196718067,0.00016949693533931866,0.8527936211493677,-0.020059473756852873,-0.8180883265500969,0.8719801449674145,0.020017700394818965,-0.8002533760241426,0.8473770128275989,0.008983389798646895,0.6364130030212959,0.9847499876112219,-0.009912595416348051,0.6319715777084374,1.0009250169381307,0.0,0.0,0.0,0.0
-0.004596595727818961,-0.07182697475903599,0.7414400444593187,-0.0007161275801240924,-0.5223504223522618,0.00019080694751008573,0.8527306063596002,-0.020125013964173533,-0.8183869439162982,0.8732606816824864,0.01995875439502802,-0.8005877006400881,0.8487478316274643,0.009037600941575687,0.6373285408772169,0.9845454563910958,-0.009895746587708896,0.6329414636269121,1.0007715248171325,0.0,0.0,0.0,0.0
-0.004482796000647601,-0.07183762670841748,0.7414458775465455,-0.0006871313475050321,-0.5224008032506805,0.0002184864106522508,0.8526997601015515,-0.020195849807261364,-0.8186370847955236,0.8740561527695071,0.019893265978216963,-0.8009164024753657,0.8496985375381578,0.009105660508923271,0.6377855602298128,0.9844501329654252,-0.009847381451017732,0.6334569481071934,1.0007892771588303,0.0,0.0,0.0,0.0
-0.004405908060708911,-0.07182812988517122,0.7414132523550265,-0.0006883012311128905,-0.5224053822989734,0.00023999968094584815,0.8526969480340784,-0.020282882112864525,-0.8191758225632558,0.8749152150199343,0.01981484220721083,-0.801362286383121,0.850475535100063,0.00918414823787331,0.6378085087818779,0.9847110715488515,-0.009778878343089973,0.6335824232516243,1.0010207949383558,0.0,0.0,0.0,0.0
-0.004343406731902304,-0.07177804570525743,0.7413213546712237,-0.0007499005598748763,-0.5223609015964024,0.0002468297015489475,0.8527241436758094,-0.020396868467735193,-0.8202906260074414,0.8762314244502521,0.019716603770325313,-0.8020522280760506,0.8512478234331767,0.009273321124398583,0.6373353201722216,0.9855690955385871,-0.009694175176543045,0.6332887621153811,1.0015563335294224,0.0,0.0,0.0,0.0
-0.004297163248206044,-0.07167910438498673,0.7411483642156874,-0.0008838545227162032,-0.5222492659173427,0.00023706440970673034,0.8527923937573816,-0.020547641105796998,-0.8221832372526446,0.878165556605086,0.01959163016337091,-0.8031207229663301,0.8520866926196232,0.00937841937701757,0.6361991247545092,0.9872136712162688,-0.009586074448458777,0.6324283466410794,1.002527570258512,0.0,0.0,0.0,0.0
-0.004299371965224784,-0.0715447532492649,0.7408802092644915,-0.0010693170915884829,-0.5220339368833488,0.00021993594118100565,0.8529240159188926,-0.02074144962634646,-0.8248941773841701,0.8805391407378992,0.01943480736729457,-0.8047102214353928,0.8529673755596582,0.009510602923197053,0.6341526409611709,0.9896627078706893,-0.009432880874005546,0.6307454682163244,1.0040592093921603,0.0,0.0,0.0,0.0
-0.004410219148877471,-0.07142854259003517,0.7405447457910038,-0.001224981502375776,-0.5216686111774439,0.0002234070985090392,0.8531472965565701,-0.02097125732038708,-0.8280824975942432,0.8826598531667653,0.019249617476304194,-0.8068982457757965,0.8537993534222887,0.009684942874798205,0.6310797432574206,0.9923992003661781,-0.009199932974112047,0.6280570267120126,1.0060402331852345,0.0,0.0,0.0,0.0
-0.0046769432578905,-0.07145305389163559,0.7403803868669027,-0.0011757006326535726,-0.521366656844278,0.00028234807701620475,0.8533319091295056,-0.021112659909257835,-0.8289470190761996,0.8817814227310043,0.019120651650076155,-0.8078622370664891,0.8531614302006055,0.009858527658613215,0.6286802225655315,0.9933029185862846,-0.008946829795766748,0.6258063995356197,1.007220412278275,0.0,0.0,0.0,0.0
-0.004646881916408947,-0.0719992096575946,0.7407321259299964,-0.0012799676858741478,-0.5221338827091995,-0.00042917275345295597,0.8528624660638353,-0.01762734547071812,-0.8213207033461482,0.8748275393399181,0.015602047424090451,-0.8208549305090269,0.8515874662283703,0.009836315647288386,0.6337540686911295,0.9905386108111753,-0.009102656875887056,0.6282027664915786,1.0068452042807858,0.0,0.0,0.0,0.0
-0.004591645860549639,-0.07270544528275759,0.7411551440575288,-0.0011235077123219032,-0.5228463426932087,-0.001046460043091011,0.8524255654214825,-0.014193493109023056,-0.8132435354467793,0.8673168119326508,0.01222975304946353,-0.8414281290906446,0.8471625877470079,0.009813964789548543,0.6392320795055798,0.9863498689032987,-0.009233316513741145,0.6307982653122188,1.0062718283396153,0.0,0.0,0.0,0.0
-0.004522823225884637,-0.07338054976320013,0.7414870156300035,-0.0009571742678949937,-0.5234038835154667,-0.0016113176247394073,0.8520826615967847,-0.01102413191761662,-0.806543182202661,0.8610081703949003,0.009054763597250853,-0.8643449945909675,0.8398666367477134,0.009821662118590703,0.6438322510860262,0.9826745320988471,-0.009307836504985808,0.6327044666422315,1.0061129881202362,0.0,0.0,0.0,0.0
-0.004413689418905502,-0.07397565513630307,0.7416989101003649,-0.0008575853286685626,-0.5238407221867528,-0.0021514499297294355,0.8518130860637592,-0.008103601035615138,-0.8014697973299962,0.8563650768519863,0.0060474632064705155,-0.8874101349968131,0.8311413796117924,0.009850406370570735,0.6475364067549976,0.98003618916226,-0.00934921859112812,0.6339664733681618,1.006508794451665,0.0,0.0,0.0,0.0
-0.00424688384655962,-0.07449769778289823,0.7418099414889829,-0.0008234292295380562,-0.5241920991297985,-0.002675519877045136,0.8515954478316491,-0.0053805557179164585,-0.7978350001404375,0.853348601513587,0.0031751189376161885,-0.9098521422104634,0.8216147339925334,0.009890647533360658,0.6505907284196478,0.9783202126163995,-0.009375105787088474,0.634794967981236,1.0073656433444031,0.0,0.0,0.0,0.0
-0.004013443277144361,-0.07497151539933906,0.7418502077626138,-0.0008280060098930047,-0.5244829289565346,-0.0031849056938879536,0.8514146040648722,-0.0027997851922975476,-0.7953493916685944,0.8517483213181324,0.0004064575146983285,-0.9315973516832142,0.8114139026890576,0.009935481488849911,0.6532640491160656,0.9772192626859861,-0.00939595302531652,0.6353933036817612,1.0085349286023697,0.0,0.0,0.0,0.0
-0.003708759767372785,-0.07542369095700704,0.7418462207732935,-0.0008418743640086602,-0.5247285198209359,-0.0036794204969993996,0.8512612604828739,-0.0003110408410849988,-0.7937546100328389,0.8513416041183364,-0.0022884979260180214,-0.9527873812729388,0.8005009568822127,0.009980468575452183,0.6557731882964475,0.9764287161322955,-0.009417417841905746,0.6359119049202476,1.009888786858955,0.0,0.0,0.0,0.0
-0.003331691491387203,-0.0758774735259034,0.741816303330993,-0.000839649829438111,-0.5249343787360748,-0.0041588580675728255,0.8511321265871175,0.002128516636118904,-0.7928683204397186,0.8519488004990616,-0.004938907264458083,-0.973439331589783,0.7888661044623972,0.010023596190810887,0.6582556850869009,0.9757100237074826,-0.009441031980373164,0.6364315401551168,1.011344314393133,0.0,0.0,0.0,0.0
-0.0028876055418689877,-0.07635269079451285,0.7417703233467534,-0.0007998299882362039,-0.5250954854248031,-0.004622770604903099,0.8510303880887067,0.004554584137669808,-0.7925753597911318,0.8534115565534198,-0.007573589377408665,-0.9931715300268464,0.7766792722144827,0.010065565956132387,0.660756400203999,0.9748962034691369,-0.009463404603689567,0.6369514088405978,1.0128674278629395,0.0,0.0,0.0,0.0
-0.002394953405034143,-0.07686627214174267,0.7417105036540532,-0.0007041893055587699,-0.5251974043719755,-0.005070465870186108,0.8509650292075585,0.006997400092261281,-0.7927813377064377,0.8555155640264944,-0.010221656644313942,-1.010969308703618,0.7645012160990935,0.010110089553497913,0.6632151873520687,0.973891726356559,-0.009475174814695063,0.6373759997359936,1.014475616805015,0.0,0.0,0.0,0.0
-0.001892219833368432,-0.0774299769297521,0.7416314648487387,-0.0005420529883287963,-0.5252251378096254,-0.005503123398470042,0.8509453427948701,0.009484877475175107,-0.7933310586788809,0.8578811994109512,-0.012912945849208077,-1.0250636486478257,0.7536078970821547,0.010162963211192762,0.6654685754412362,0.9727076447494044,-0.009462738160661552,0.6375175670716392,1.0162538129005587,0.0,0.0,0.0,0.0
-0.0014053020502623444,-0.0780299369812675,0.7415124904572125,-0.0003411970666835165,-0.5251704913620655,-0.005933286722208584,0.850976283274546,0.012037232523834054,-0.7942538956536015,0.8603987388938387,-0.01568167086466929,-1.0331159815407611,0.7462502195434639,0.010228196962838913,0.6673106749266314,0.9715994714761949,-0.009418514947226026,0.6371842400574551,1.0183405782107637,0.0,0.0,0.0,0.0
-0.0009687255469708643,-0.0786536157466711,0.7413496041543305,-0.00013355558415599394,-0.5250727805005436,-0.0063804388877179066,0.8510333996618076,0.014698252166612864,-0.7951845698261938,0.8625587085897362,-0.018564249369637624,-1.0332597773625447,0.7455950014509882,0.010302250707261942,0.6687262452045197,0.9707775564480647,-0.009349694339786491,0.6363520239641681,1.0208272498248627,0.0,0.0,0.0,0.0
-0.0005831271105360488,-0.07930815855690404,0.7411450823983919,8.197445039818477e-05,-0.5249408514431979,-0.006851554809488616,0.8511111278575627,0.01750435153621646,-0.7960290221524253,0.8642641503001571,-0.02159483710047023,-1.0254770209442094,0.7516094458857822,0.010383586014325718,0.6697632151138707,0.9702234799272691,-0.009258449652300771,0.63503905004489,1.0237276159478044,0.0,0.0,0.0,0.0
-0.00016775550326490388,-0.08000126623562441,0.7408966206079106,0.00031450271127511024,-0.5247351969252755,-0.007345543202345132,0.8512337617781025,0.02046903259086539,-0.7974358140424668,0.8665444958714275,-0.024809259150964026,-1.011498323189149,0.7610220382292066,0.010471674891557956,0.6705538302197278,0.969778007787345,-0.009146284787225265,0.6333623295057794,1.026933796660444,0.0,0.0,0.0,0.0
0.0002679266562689079,-0.08079386259574149,0.7406549529324116,0.0006410008864478866,-0.5244772364047777,-0.00785161787878614,0.8513880253490508,0.023664915274284114,-0.7987945286067671,0.8687302276127655,-0.02824266326921806,-0.9935648928446867,0.771600484829518,0.010562035449228869,0.6714444879126195,0.9688031869067337,-0.009014122655449541,0.6315402320476715,1.0302360112384188,0.0,0.0,0.0,0.0
0.0007584552767880405,-0.08171410947031701,0.7404555622934459,0.001088486692642507,-0.5241896360148225,-0.008373938642952083,0.8515596971692424,0.02715518075542188,-0.7999086994375383,0.8708187098734141,-0.0319403056480791,-0.9731947750850343,0.7819286220987792,0.010646078717971776,0.6728153578574253,0.9668865697133909,-0.008873750354821457,0.629869256934525,1.0334125800397034,0.0,0.0,0.0,0.0
0.0013098347676550532,-0.08279586920025345,0.7403393783111742,0.001688645553304176,-0.5239046025643898,-0.008917896381426416,0.8517285876452512,0.03101463658193692,-0.8003258539756506,0.872412321715921,-0.03595191044118315,-0.9510706633915067,0.7912015154302782,0.01071506914385379,0.6750259439228796,0.9635851716847132,-0.008733695543395327,0.6286066829883317,1.0362538190222537,0.0,0.0,0.0,0.0
0.0019106680237121006,-0.08407389814525566,0.7403514823787842,0.0024705715684490187,-0.5236582089785398,-0.00949201014003379,0.851871984625046,0.03532557962125962,-0.799457648674488,0.8728996675287042,-0.040333526506111515,-0.9272087624014236,0.7988474418674543,0.01075987892594821,0.6784249468758171,0.958429090162931,-0.008599407895557201,0.6279856372871178,1.038535060020363,0.0,0.0,0.0,0.0
0.0025449549122203694,-0.08556268876233321,0.7405261219999132,0.00342897424109057,-0.5234984410810418,-0.010117101889846786,0.851959663699358,0.04016886682947166,-0.7967366360002426,0.8716848944423335,-0.04514863797954186,-0.9012782715894428,0.8042545219318841,0.010769272193627916,0.6833204750434029,0.9511415904740707,-0.008480066831916176,0.6282154074260069,1.0400819719870318,0.0,0.0,0.0,0.0
0.0031970065513581983,-0.08720721014766115,0.740839675520139,0.004452222662971587,-0.5235033043160625,-0.01084601869899673,0.8519429745950748,0.04560316416008124,-0.7918967698436574,0.8684958973597742,-0.050469353355576035,-0.8730212429093595,0.8066026630038184,0.010730069257187265,0.68976057176766,0.9423080532143023,-0.008401076898151083,0.6293510265696,1.0410568089280439,0.0,0.0,0.0,0.0
0.003815606335534651,-0.08877185727945258,0.7410223430749211,0.005170488979354225,-0.5238013050050166,-0.01179984225233667,0.8517430496585081,0.05160716644887528,-0.785756571925403,0.863869417249543,-0.05637928672777132,-0.8429342026522804,0.8047218230160619,0.010637867674509508,0.6963911911560671,0.9357192345947899,-0.00842196477527628,0.6304269013661303,1.0433504833777638,0.0,0.0,0.0,0.0
0.004358883190270292,-0.0900526164319573,0.7409668866893085,0.0052645207381063,-0.5244619294279427,-0.013077145129174206,0.8513171898166912,0.05814772137484343,-0.7789450926980425,0.858432735100428,-0.06295155752068118,-0.8111056292939116,0.7949448626536619,0.01050515740515471,0.7025143410741753,0.9334725203555981,-0.008572844449394611,0.631103786642375,1.047417116448076,0.0,0.0,0.0,0.0
0.004696085220590946,-0.09068022509683844,0.7406110456320688,0.004276282589410859,-0.525102414149447,-0.014711747433570814,0.85090112971431,0.06476882703909399,-0.7750215274184825,0.8555948331722761,-0.07011540925408061,-0.7766783154327098,0.7658928231090095,0.010457267683825428,0.7059412743147951,0.9369006510707504,-0.008678354234972008,0.6300206672171661,1.0521007791230865,0.0,0.0,0.0,0.0
0.004740605240801511,-0.09076587836370084,0.7405885483494573,0.0043068919635701215,-0.5250666986784558,-0.014769792565213581,0.8509220092629538,0.06511677676984443,-0.775075241510541,0.8556830782496775,-0.0705597181639399,-0.776488453558507,0.7659216065767217,0.010429099805250306,0.7060892997514127,0.9366730774151709,-0.008663928054189593,0.6298368085459226,1.0523676189637798,0.0,0.0,0.0,0.0
0.004740605240801511,-0.09076587836370084,0.7405885483494573,0.0043068919635701215,-0.5250666986784558,-0.014769792565213581,0.8509220092629538,0.06511677676984443,-0.775075241510541,0.8556830782496775,-0.0705597181639399,-0.776488453558507,0.7659216065767217,0.010429099805250306,0.7060892997514127,0.9366730774151709,-0.008663928054189593,0.6298368085459226,1.0523676189637798,0.0,0.0,0.0,0.0
0.004954762245455243,-0.09078643389579266,0.7402415887202356,0.00432830834396498,-0.5246724864113528,-0.014743910678857532,0.8511654744218085,0.06520423783179552,-0.779598499672936,0.8606112193755076,-0.07070319009429281,-0.7813322854651488,0.7713987110797649,0.0106427844839038,0.7039439622482313,0.9387883731472301,-0.008423110014765003,0.6278816978608567,1.0545095449748847,0.0,0.0,0.0,0.0
0.005231233351970632,-0.09082057088613077,0.7399182696459932,0.004358951485430307,-0.524466981609757,-0.014728449499578728,0.851292228038314,0.06532438286311039,-0.7831609265295569,0.8649017217014214,-0.0707759796846577,-0.7853396355611381,0.7763831300236016,0.010819518448356687,0.7026213483290528,0.9409831804938876,-0.008258738547003909,0.6266964127012769,1.0567765527956448,0.0,0.0,0.0,0.0
0.005549751756126799,-0.09090183780168594,0.7396407671989778,0.004450656382809432,-0.5243963690841434,-0.014706254452693355,0.8513356364143942,0.06547989733380107,-0.7857653645498084,0.8684385312244044,-0.0707778175736622,-0.7888505083951053,0.7812498060570231,0.010970775286507202,0.7020650878536618,0.9428068357941854,-0.008143010919078332,0.6261713653684995,1.0589967968084422,0.0,0.0,0.0,0.0
0.005908351017266494,-0.09104633329158528,0.7394018816014987,0.004629045003899234,-0.5244294141353699,-0.01466885796619559,0.8513149746938274,0.06567524836551289,-0.7875423575102555,0.8713043146510409,-0.07071197951661072,-0.7921582770376983,0.7863153403531197,0.011102154909017411,0.7021670622117223,0.9441938745766556,-0.00806331350067625,0.626181949393038,1.0612238630491277,0.0,0.0,0.0,0.0
0.0063121736166370755,-0.09126657144535072,0.7391941525526079,0.004914037923223189,-0.5245473993375357,-0.014610156337104122,0.8512416938868316,0.06591561660796152,-0.7885978003033115,0.8735953343722972,-0.07058011856361773,-0.7954957075081236,0.7918559070077125,0.011215761858550383,0.7028686736594523,0.945116676830282,-0.008013542574378849,0.6266580629504196,1.0635174420291067,0.0,0.0,0.0,0.0
