zhuoxili-jackie/tripod-support-walk/examples/trajectory_tripod_lowstep_v0.20.csv
root_pos_x,root_pos_y,root_pos_z,root_rot_x,root_rot_y,root_rot_z,root_rot_w,FL_hip_joint,FL_thigh_joint,FL_calf_joint,FR_hip_joint,FR_thigh_joint,FR_calf_joint,RL_hip_joint,RL_thigh_joint,RL_calf_joint,RR_hip_joint,RR_thigh_joint,RR_calf_joint,FL_foot_joint,FR_foot_joint,RL_foot_joint,RR_foot_joint
0.0,0.0,0.72963,0.0,-0.5231245161092812,0.0,0.852256264656019,0.0,-0.81,0.872,0.0,-0.81,0.872,0.0,0.65,1.0,0.0,0.65,1.0,0.0,0.0,0.0,0.0
5.882571316945033e-05,0.0001331721668202522,0.7295790397465353,-6.716624200259096e-06,-0.5231049993972151,0.00020778650946410692,0.8522682185704763,-0.0009035835335742626,-0.8112191251101771,0.8734859256672519,-0.0009035835335742618,-0.8099703727841784,0.872098592600284,0.00045928784013163766,0.6494141843283038,1.0006218813960712,0.00045928784013163533,0.6503391563766833,1.0001216033333427,0.0,0.0,0.0,0.0
0.00012315602012350722,0.0002902759353029266,0.7295065730200427,-4.939154967117911e-05,-0.5230917755694838,0.0004054931520069815,0.8522762624098733,-0.001817397894388563,-0.8125942055561436,0.8751578586742128,-0.0018166934955548665,-0.809896393305353,0.8721012992204458,0.0009162985875283776,0.6487412030129016,1.0015314208232053,0.0009183318785822073,0.6506248740218163,1.0003619630131964,0.0,0.0,0.0,0.0
0.00018604460877447097,0.00043280547219277693,0.7294179036060154,-6.675399187174757e-05,-0.5230602893563409,0.000613385711811346,0.8522954610933546,-0.0027400345540324516,-0.8140592425805708,0.8768505005604033,-0.0027379684155916925,-0.8100352512720217,0.8723057769912027,0.0013782779242482593,0.6479438178377934,1.0024958634384287,0.0013840052536493598,0.650775913745605,1.000767709897173,0.0,0.0,0.0,0.0
0.00023541233216037606,0.0004973002028582253,0.7293133208330581,4.1723138550365225e-05,-0.522983088039667,0.0008640762312275848,0.852342619640682,-0.0036663307650729544,-0.815450770602751,0.8782230340918308,-0.003663024801941136,-0.8107556930919065,0.8731315996221053,0.0018536477794003383,0.6469529077558984,1.0032382852906292,0.001865934237051385,0.6506484828405473,1.0015198697567984,0.0,0.0,0.0,0.0
0.00034821975615043337,0.00023786143547924112,0.7291589520063011,0.0006580355698573485,-0.5228154710526407,0.0012703105126118863,0.8524446823861334,-0.00453308851568797,-0.8165232743634806,0.878908987810783,-0.0045319182430042446,-0.8138891693810438,0.8771556606078695,0.0023385020268399995,0.6458817498965089,1.0030331268131167,0.002367515344990599,0.6500244433494481,1.003642620840727,0.0,0.0,0.0,0.0
0.0007627328800259677,-0.0002880407628083506,0.7292262441480686,0.00024051583330869883,-0.5229811160375414,0.000365035576324062,0.8523441565290921,-0.0004313638948794888,-0.8156679195084591,0.8800531326511782,-0.010971635362267463,-0.8120753647078358,0.871070164625537,0.0027838929663590514,0.6492381729065718,1.0014015791200994,0.0027978702594769265,0.650628487939082,1.004000683631319,0.0,0.0,0.0,0.0
0.0012268110045154349,-0.0011351014416233077,0.7292186658812637,0.00027575971422740073,-0.5230632881907078,-0.0004346024466701112,0.8522936885982542,0.003896847297703912,-0.8144352050819754,0.8803682615578852,-0.017540256882320922,-0.8139848636424649,0.8684846121432802,0.0032336179843078755,0.6524359588085943,0.999096300554007,0.0032488326921479836,0.6505584369478126,1.0059220286929949,0.0,0.0,0.0,0.0
0.0017360755919554965,-0.002085056137922688,0.729180721535326,0.0004699299748956978,-0.5230932609743448,-0.001186181602737121,0.8522744936123866,0.008249981846258723,-0.8133653023300819,0.8808073328811972,-0.024109900131684348,-0.8165437647243721,0.8659038051613193,0.0036871266735507536,0.6555677651882267,0.9965251784643988,0.0037117944166618,0.6502904452485978,1.0083166569855508,0.0,0.0,0.0,0.0
0.0022978495404339713,-0.003069080295318976,0.7291130886060487,0.0007139756998958063,-0.5231020807054939,-0.0019253423535451602,0.8522675615422098,0.01262517630641691,-0.8125931629419094,0.8816715185601045,-0.030678804288107445,-0.8192239504010752,0.8633089382636883,0.004134359641166959,0.6587002179909889,0.9939874376975983,0.004175558452368606,0.6499734301703302,1.0109833099657428,0.0,0.0,0.0,0.0
0.002917086085335858,-0.004069908218076986,0.7290167652343335,0.0009755464727674914,-0.5231044419501378,-0.002666498114490644,0.8522638563900969,0.017041551086076023,-0.8121243613950031,0.8830296022436831,-0.03725285683096767,-0.821863519264985,0.8607575252926242,0.004568685397866,0.6618887417254888,0.9915650909820244,0.004633433406927709,0.6496716549227763,1.0138685709852613,0.0,0.0,0.0,0.0
0.003599009754827239,-0.005088620764939017,0.7288947579324865,0.001250102769405487,-0.5231057673402296,-0.003415955554351455,0.852260010012265,0.021523958167922436,-0.8119361779775303,0.8848918109500425,-0.04383889941363871,-0.8243217825144231,0.858248596967348,0.004985077737098236,0.6651881056019504,0.9892356002593253,0.005080799802141567,0.6494239841761904,1.0169455901847775,0.0,0.0,0.0,0.0
0.004349370604453564,-0.006132822666049819,0.7287507415388174,0.0015429946077836479,-0.523107793344641,-0.004177142499505984,0.8522548956681207,0.026099272744982208,-0.8119982028722041,0.887250946616973,-0.050444099757959306,-0.8263541940852673,0.8558004345918722,0.0053789043051183615,0.6686535912035881,0.9869370324222085,0.005513867743858115,0.649260902908894,1.0201952579098077,0.0,0.0,0.0,0.0
0.005173418100313292,-0.0072124107935326535,0.7285893662432339,0.0018629998294681567,-0.5231114561063113,-0.004952524572052931,0.8522478549238673,0.0307951640348075,-0.8122664037833387,0.8900801649092565,-0.05707597145733354,-0.8275560645501918,0.8535020298451458,0.0057454342716883175,0.672344221102221,0.9845871797864866,0.005929169510139763,0.649213276385621,1.0235952368915697,0.0,0.0,0.0,0.0
0.0060752774656599425,-0.008338371447174291,0.7284183639322691,0.0022203535503527083,-0.5231194709378876,-0.0057442876889891754,0.8522371103834437,0.035639849292636805,-0.8126631631716927,0.8933166712241686,-0.06374255652275619,-0.8273977946539594,0.8515178787042188,0.006079521891526994,0.6763372815927934,0.9820743659911212,0.0063232621943898094,0.6493278604320223,1.027102539240769,0.0,0.0,0.0,0.0
0.007058984965484845,-0.009524463715950875,0.7282516607689609,0.002629089257413907,-0.5231390294308412,-0.0065538506116771126,0.8522181004989238,0.040662681896596706,-0.8130498666565616,0.8968428591065182,-0.07045253006773605,-0.825433371832202,0.8499651813169864,0.0063752689194867575,0.6807553982207535,0.9792265933324679,0.006692579579736762,0.6496909591233385,1.0306355828260823,0.0,0.0,0.0,0.0
0.0081283255700245,-0.010795364482252878,0.7281064054978181,0.0031199500954291613,-0.5231711968332305,-0.007377791734546991,0.8521899629217706,0.04589550617540336,-0.8132623035330451,0.9004988105671344,-0.07721577852185975,-0.8218113549018318,0.8483748958545426,0.006627117356068474,0.6857294347065358,0.9757853677605277,0.007035272457016088,0.6503817367712724,1.0341072255761627,0.0,0.0,0.0,0.0
0.00927942541028817,-0.012179125493713099,0.7280091560986919,0.003728401450807771,-0.5232228359390744,-0.008211715102883052,0.8521481858864473,0.051369601798199105,-0.8130145451145552,0.9039780190253656,-0.08404303400888972,-0.8167611507606443,0.8461387691404412,0.00682849998884428,0.6914333161839535,0.9714071217840543,0.0073498621842450025,0.6515144327775432,1.037374490913363,0.0,0.0,0.0,0.0
0.0104900301880355,-0.01369832620953963,0.7279890092443045,0.00448098465411398,-0.5233090756086668,-0.009054187639627205,0.8520830674578146,0.0571106589336621,-0.811892964337642,0.9067754700984525,-0.0909457878492995,-0.8103830199129367,0.8425541112575627,0.006971510739870484,0.6980188865434992,0.9657742715136263,0.007634615696848142,0.6531841575084725,1.0402870464905307,0.0,0.0,0.0,0.0
0.01170407997140574,-0.015340411980671362,0.7280412618767176,0.0053505405203743825,-0.5234674923930971,-0.009919446997694056,0.8519711032042593,0.06312664218166422,-0.8094475095319014,0.9081986927479638,-0.09793508532506834,-0.8025882243396029,0.8367684293069116,0.007045416170479466,0.705406325697174,0.9590922857762858,0.00788328615004698,0.655303391200842,1.0429585361088052,0.0,0.0,0.0,0.0
0.012781900100759299,-0.016959213871754013,0.7279508218277438,0.006115888523658334,-0.5237779212677328,-0.010872707902188146,0.8517635055124706,0.06936335729082076,-0.8058367959781592,0.9076451236781317,-0.10501403329091064,-0.7930555332041743,0.8273495369701827,0.0070380576733308125,0.7122238034775961,0.9542333439219423,0.008073497199387502,0.656741903336264,1.0471127647789016,0.0,0.0,0.0,0.0
0.013662754905384092,-0.018306159019278994,0.7275565514801469,0.0064097915148676144,-0.5243303843758048,-0.012008656344820873,0.8514061044917688,0.07569462574379815,-0.8019050826071455,0.9058578842778577,-0.11216094103974937,-0.7801290610754607,0.8111504211042728,0.006947243583536709,0.7175042410123975,0.9539564161463523,0.008172276423269339,0.6569524081993924,1.053622951264886,0.0,0.0,0.0,0.0
0.014170791035164984,-0.019027310088614732,0.7269506212006506,0.005753843781799829,-0.5249392070450587,-0.013395941087554404,0.8510148476677821,0.08174959936041996,-0.7992979631731155,0.904393272157693,-0.11921434629161894,-0.7590933817633161,0.7790352729665617,0.006847892442996184,0.720261763547872,0.9585978225122274,0.008201869205993579,0.6555312765581838,1.0604938140781572,0.0,0.0,0.0,0.0
0.014210380473875801,-0.019097049675299585,0.7269286794064796,0.005768224753572278,-0.5249146416302689,-0.013452061368863183,0.8510290175019222,0.08207637426126375,-0.7993061360521453,0.9044348625560004,-0.11966596710491799,-0.7590272666255932,0.7790429259012461,0.00683147512503884,0.7204132403125435,0.958427915784406,0.008222236162630915,0.6554128925672658,1.0606974772315156,0.0,0.0,0.0,0.0
0.014210380473875801,-0.019097049675299585,0.7269286794064796,0.005768224753572278,-0.5249146416302689,-0.013452061368863183,0.8510290175019222,0.08207637426126375,-0.7993061360521453,0.9044348625560004,-0.11966596710491799,-0.7590272666255932,0.7790429259012461,0.00683147512503884,0.7204132403125435,0.958427915784406,0.008222236162630915,0.6554128925672658,1.0606974772315156,0.0,0.0,0.0,0.0
0.014019036650737437,-0.01951074703104096,0.7278393538961268,0.005183453534052085,-0.5238400861439287,-0.012937684249081371,0.851702596147536,0.08220846459375149,-0.8025070546199217,0.907218167002398,-0.11977566956911803,-0.7608941807142972,0.7826411400148598,-0.0038134752927693446,0.7046469737912398,0.9814395597848399,0.01894274902364438,0.6587220956976877,1.0529682724604108,0.0,0.0,0.0,0.0
0.013902756840446779,-0.020146068969816563,0.7290726576913426,0.004873604758324063,-0.5230278177666565,-0.012370478093044736,0.8522118991721824,0.0824719192440161,-0.8025565941001319,0.9074280626880953,-0.11960520908765775,-0.7617677784814886,0.7866790185926997,-0.014462817240113092,0.6936605265732352,0.9980011563568265,0.029503189696650972,0.6642854159187138,1.043298497314923,0.0,0.0,0.0,0.0
0.013821309683467474,-0.02090331207858661,0.7303375670641701,0.004713838718297955,-0.5224217956536221,-0.011792508782115746,0.8525926248139886,0.08286884182354463,-0.8008959953151339,0.9059740572220213,-0.1192188672417152,-0.7621395074370723,0.7906862264010694,-0.025117783728032847,0.6865466296391416,1.010548120400064,0.0399169343773534,0.6705681902593579,1.033860205343944,0.0,0.0,0.0,0.0
0.013714497659250596,-0.021722886173335697,0.7315383578129044,0.004624474496739191,-0.5219468051964704,-0.011225896038381672,0.8528916261981719,0.08338443934093477,-0.7982199191688373,0.9031839542883535,-0.1186565084224482,-0.7621100103674427,0.7941473775577665,-0.03578929256409871,0.6819841313792413,1.0206775108710024,0.05021805547511673,0.6767638872160257,1.0252862553328637,0.0,0.0,0.0,0.0
0.013463942270353118,-0.022545150757004605,0.7326512724874457,0.00451328682726537,-0.5215339147056476,-0.010688255697988147,0.8531516671987178,0.0839797273811555,-0.7947100930484599,0.8987265775999992,-0.11793740280840015,-0.7611800965278394,0.7957763564688005,-0.04648897243542533,0.6787311483696693,1.0289926224974082,0.060446574627103095,0.6822323557572524,1.0176561821902592,0.0,0.0,0.0,0.0
0.013024004799952643,-0.023375440005616248,0.7337006506968213,0.004379140379592165,-0.5211206338402612,-0.010170293727259427,0.8534111982162886,0.08464433799169695,-0.7904245357865602,0.8924507861252425,-0.11707558734479177,-0.7594148936732047,0.7954721609280349,-0.057228313138290694,0.6761257966431908,1.0357859687776192,0.07063526614840072,0.6867725384454599,1.0107308318025818,0.0,0.0,0.0,0.0
0.012340909609208438,-0.024229134365609754,0.7347289287777403,0.004229662960435402,-0.5206457331983925,-0.009656828925861307,0.8537077228821618,0.08536672139070277,-0.7852735214767655,0.8840218729997138,-0.11607831462252048,-0.7567966031159703,0.7930531092218163,-0.06801898416043986,0.6738343986477142,1.0409543794148786,0.08081831212830044,0.6902487512705021,1.004125996668012,0.0,0.0,0.0,0.0
0.011346182194819497,-0.02512929301308334,0.7357853568048538,0.004076255201722055,-0.5200375853244575,-0.009126924215836768,0.8540848864415038,0.08613475485073026,-0.779098677343792,0.8729449383895396,-0.11495030373337288,-0.753274920966526,0.788247206942938,-0.07887281747231782,0.6717852965968337,1.0439265530975608,0.09103356510490558,0.6924907927931351,0.9973857946607179,0.0,0.0,0.0,0.0
0.009956823575306844,-0.026107524857633617,0.7369262836258498,0.003932625016711579,-0.519205317964219,-0.008552556461585448,0.8545976983564393,0.08693667647904198,-0.7717167116068464,0.8585966352765547,-0.1136969277169238,-0.7488135364881451,0.7807377284629089,-0.08980190748007545,0.6701372599361114,1.0435338669556469,0.10132370906784849,0.6932788067511639,0.9899519759041177,0.0,0.0,0.0,0.0
0.008086663292979414,-0.027204577784219655,0.7382255554627398,0.0038121965190876825,-0.5180329950427032,-0.007897592833410527,0.8553156792858554,0.08776260003771161,-0.7629674659244103,0.8403298204718475,-0.11232795934085904,-0.7434428533575851,0.7702859333251921,-0.10081865810926757,0.66927260193538,1.0379393424310048,0.11173574125851934,0.6924276655609602,0.9810167021473752,0.0,0.0,0.0,0.0
0.005656098386984049,-0.028456327996233988,0.7397835589803125,0.0037041185216938038,-0.5163824283300272,-0.007122766191783384,0.856320461871453,0.08859997909863251,-0.7527766957080106,0.8176125860463389,-0.1108623859868689,-0.7371783486348763,0.7566704450591794,-0.11193341525133381,0.6678665541453991,1.0284625708888404,0.1223166711200609,0.6899068598246719,0.9693366117134398,0.0,0.0,0.0,0.0
0.002617916833158014,-0.029892412594158545,0.7416891504332114,0.0035724887525715194,-0.5140896430843889,-0.0061868131757372114,0.8577067095110116,0.08944487477222382,-0.7414317151519833,0.7903690036408443,-0.10933872433524089,-0.730305274264041,0.7400413349542261,-0.12315698347456078,0.6644285150699523,1.015826523129618,0.13310983018222974,0.6857798489710046,0.9534679302505321,0.0,0.0,0.0,0.0
-0.0009964446125913704,-0.03151622031000473,0.7439315354945288,0.00334014964584835,-0.5109857877750006,-0.005059346780436731,0.8595677815637698,0.09031630214718289,-0.7300923745579213,0.7596736020368798,-0.10783060745871612,-0.7237571021591137,0.7213850822682507,-0.13450068484804328,0.6572604800019699,1.0004011763780851,0.14413830812436676,0.6800307765037684,0.9324601462432638,0.0,0.0,0.0,0.0
-0.004972493216477527,-0.03331730548576374,0.7461076978976213,0.0029457882650711018,-0.5068859174599668,-0.0037283119725712317,0.8620000514513327,0.0913257046708604,-0.7224082302551161,0.7296339782999245,-0.10649470925781161,-0.7210420849522257,0.7047593019898413,-0.14598283134929885,0.6455494514026511,0.981757634217564,0.15538115264213218,0.6713115843423497,0.9087023162147376,0.0,0.0,0.0,0.0
-0.008841548691266852,-0.03523162529234944,0.7472463022985654,0.00235117128745425,-0.5017032214730281,-0.0022418785228634952,0.8650337123707096,0.09269713127432458,-0.7252475661358977,0.7087474707913187,-0.10557662801870589,-0.7287613711691723,0.6981139172481454,-0.1576232749572625,0.6297770360098944,0.9584616297689438,0.16671008158412942,0.6560732943766205,0.8905012639683038,0.0,0.0,0.0,0.0
-0.012402106128950624,-0.03707189691929644,0.7473710509653168,0.0012385635224839715,-0.49517838171200457,-0.0006656785545132006,0.8687901893538756,0.0944838404327165,-0.7430142176970649,0.7037032768753659,-0.10525463422242856,-0.74880522117556,0.7043447002902724,-0.16943774169566628,0.6091960992944979,0.9286784549384057,0.17802902189589903,0.6344119133475655,0.8763486098967896,0.0,0.0,0.0,0.0
-0.01517442975164382,-0.03839676565721439,0.7465327937871717,-0.0008200331684020142,-0.48787691063951116,0.000719311509725547,0.8729117539599298,0.09666011962205302,-0.7768574551594544,0.7195380453831042,-0.10556551958224232,-0.7782980002977609,0.72180484525036,-0.1812481193228683,0.5851877977031235,0.9013882803300219,0.1888047679416955,0.609525096750087,0.8654749070682018,0.0,0.0,0.0,0.0
-0.015169477724434497,-0.03849349112165255,0.746325946248075,-0.0009893974785364166,-0.48785930745349726,0.0008127172138938031,0.8729213347801471,0.09676513149127028,-0.7773232064657084,0.7190319026052057,-0.1055978770796362,-0.7785819628324534,0.7216874021647429,-0.18201972748405135,0.5852259759810192,0.9014120498363407,0.18932360770211135,0.60967999639028,0.8652890661186691,0.0,0.0,0.0,0.0
-0.015169477724434497,-0.03849349112165255,0.746325946248075,-0.0009893974785364166,-0.48785930745349726,0.0008127172138938031,0.8729213347801471,0.09676513149127028,-0.7773232064657084,0.7190319026052057,-0.1055978770796362,-0.7785819628324534,0.7216874021647429,-0.18201972748405135,0.5852259759810192,0.9014120498363407,0.18932360770211135,0.60967999639028,0.8652890661186691,0.0,0.0,0.0,0.0
-0.015686110354232768,-0.038703642412225736,0.7478035200394527,-0.0009338005500928081,-0.4903622732786157,0.0005410217961556178,0.8715180297945516,0.09713917928143254,-0.7520540619889932,0.6917941934991164,-0.10342687034926773,-0.7563390356271118,0.6982697396668156,-0.18467095413444606,0.597988050686137,0.8938485280766832,0.19057186839214668,0.6221997958568936,0.8568921690891975,0.0,0.0,0.0,0.0
-0.01600209759783192,-0.03902267915258224,0.7490517972959885,-0.0007167263031114162,-0.4915762287231116,0.00031522104543324297,0.8708341967868867,0.09789112794192581,-0.7356897925730475,0.6737051127505225,-0.10167688368027726,-0.7442280064649412,0.6859372802618614,-0.18598182976994468,0.6073652195365373,0.8839411635151974,0.19063231156401486,0.630854168078795,0.8474839852226024,0.0,0.0,0.0,0.0
-0.01605266335072686,-0.039548242633461766,0.7496074606409721,-0.00019767060001788683,-0.4915467127682351,0.00018085230035625396,0.8708511683321792,0.09907336870799502,-0.7301228652552259,0.666922009305771,-0.10036234188851324,-0.7451645922413596,0.6883299407975163,-0.18610984592965402,0.611072065907832,0.8764343911519372,0.18964762257455786,0.633223426025989,0.8423903220916134,0.0,0.0,0.0,0.0
-0.015739352382154046,-0.04024326098739007,0.7490357033838347,0.0005778445856388737,-0.49011376614015456,0.00013381301906668816,0.8716582727362969,0.10076846915251507,-0.7390945160268027,0.6758157173499684,-0.09960597040337114,-0.7622105079136821,0.7086473254051182,-0.18509402852821275,0.6065002340031012,0.875639192066104,0.1876382827282765,0.6267619340534584,0.8457135586544615,0.0,0.0,0.0,0.0
-0.014763488254028186,-0.041190937492304285,0.7474382727879052,0.0017538084273649637,-0.48712344738346436,0.00023974587296682044,0.8733313309890844,0.10304212661342799,-0.7644051985092901,0.7037100385333678,-0.09954209316393982,-0.7975366404012196,0.7504725139642976,-0.18294192960005123,0.594797809110005,0.8796000178477963,0.18467232361102948,0.6125955907255157,0.855914450871179,0.0,0.0,0.0,0.0
-0.010764809617159917,-0.04256748687658296,0.7476323632049976,-0.0007556930404171756,-0.4966976314427493,0.0016663660308109407,0.8679217217419107,0.10289883918559573,-0.7306581093450552,0.687169246546499,-0.09677996361765874,-0.7581633346911842,0.7347396981196987,-0.1735033400690509,0.6235875752127188,0.9049982802492799,0.17265235601768994,0.6372447749972465,0.9032376620370806,0.0,0.0,0.0,0.0
-0.00633426563199653,-0.04406616213189601,0.7467538204216714,-0.00237122079005526,-0.5040541727799683,0.003032072026960663,0.8636634615139683,0.10357138798621847,-0.714414733245109,0.6888921138565454,-0.09489555896045695,-0.740132581256512,0.741192173372024,-0.16376471488381264,0.646903778301021,0.9276430977048548,0.1606413623872641,0.6540590321881712,0.9442488238705026,0.0,0.0,0.0,0.0
-0.001793042216657795,-0.04552573345054955,0.7447836764234185,-0.003418657540705224,-0.5093545936977031,0.0042346791417429645,0.860539527361895,0.10483763010664594,-0.7144559120125016,0.7069411531283908,-0.0936910451236946,-0.7403107542394062,0.765348843790567,-0.15395235137102328,0.6622006789133219,0.9518047964749113,0.1488230557913972,0.6659375354519143,0.973927307900653,0.0,0.0,0.0,0.0
0.0024635853714679284,-0.04693855617215395,0.7426272109531948,-0.004000963268858886,-0.5131031127795442,0.005277178028774071,0.8583014268547595,0.10637326328396424,-0.7219093538476193,0.7308582892148329,-0.09281690185322486,-0.7495854853696254,0.7966527586453455,-0.14405556869129837,0.6732577245279224,0.9717970846458268,0.13718356061807307,0.6739843792081204,0.9957633646750284,0.0,0.0,0.0,0.0
0.0060822709830695805,-0.04827015695065782,0.7408204554744229,-0.004264654774941576,-0.5157780306033707,0.006170937836938158,0.8566894159453422,0.10792984668759226,-0.7299901224283576,0.7522908591699714,-0.09203470556752823,-0.7605927716351706,0.8261440967044821,-0.13405755538075806,0.6819524297125076,0.9855076317736078,0.12569711451188145,0.678070549617828,1.0126293973268259,0.0,0.0,0.0,0.0
0.008982893884491201,-0.04948385493111556,0.7394022683190409,-0.0043701901655543865,-0.5176593793184721,0.006932952941337335,0.8555475454964758,0.10940703192826766,-0.7370383772578135,0.7694392228497642,-0.09128092105878197,-0.7709038097717363,0.8511367314607057,-0.1239727658593609,0.6882653888330498,0.9944765095471036,0.1143518565121145,0.6795518715409117,1.0257052927736967,0.0,0.0,0.0,0.0
0.011201709580093932,-0.05057927898501677,0.7382954343154492,-0.004416173671556762,-0.5189695052122724,0.0075929636262896906,0.8547476218002608,0.11075843792667445,-0.7426255937933591,0.7821456889700453,-0.09053653179550786,-0.7797128608763628,0.8711636181649333,-0.11381973294700269,0.6922256047882429,1.000404993627864,0.10313656653601606,0.6796783812328487,1.0356838561150972,0.0,0.0,0.0,0.0
0.01281490639243267,-0.051575932787534515,0.7373970223404005,-0.004448708416010032,-0.5198719799612224,0.008182706293622654,0.8541934071171119,0.11196612886703812,-0.7467550020941651,0.790740027940296,-0.08980218431204441,-0.7869141419488014,0.8865851428299604,-0.1036124932368314,0.6939404833118459,1.0046508424559824,0.09204052104433308,0.6792922547237322,1.0426645491341433,0.0,0.0,0.0,0.0
0.013904065608544727,-0.05249849018874694,0.7366046366319194,-0.004484430479112123,-0.5204812846212525,0.008730234908118828,0.8538166695730048,0.11302636849303475,-0.7496025810716386,0.7956741227482235,-0.08908847771500666,-0.7926941305722948,0.8980009962308247,-0.09335929581602034,0.693503614269159,1.0082722301684182,0.08105355852735732,0.679038269296587,1.046027069264283,0.0,0.0,0.0,0.0
0.014548920481242273,-0.05336978905822798,0.7358369054551399,-0.004525927198823067,-0.5208754206367923,0.009258576933325194,0.8535704955729231,0.11394149655332972,-0.7514038965418888,0.7974407031418328,-0.08841107205160137,-0.7973367962461355,0.9060631687200601,-0.0830632672893487,0.6910336525898763,1.01199466355125,0.07016601251820381,0.6797093997062428,1.0444023876653754,0.0,0.0,0.0,0.0
0.0148219750308559,-0.05421922768571173,0.7350517608712486,-0.0045533903096245856,-0.5211126408611216,0.009790548496993682,0.8534196080074349,0.11471453457977625,-0.7522478998379641,0.796364251735159,-0.08778121729590276,-0.8010959903296029,0.9113959142273746,-0.07272053483523769,0.6867645743129934,1.01610400061798,0.05936593729410203,0.6806438491065241,1.0394667987326898,0.0,0.0,0.0,0.0
0.014791978368740315,-0.055069998208716,0.7342272925710954,-0.004548419708434965,-0.5212345080541327,0.010344758969391772,0.8533386698454415,0.1153476214444719,-0.7522337103456593,0.7927917013967262,-0.08721247680744998,-0.8042027343991158,0.9145805108419632,-0.06232529338719905,0.6809591087993808,1.0206851881065064,0.04864165159592581,0.6815974428655618,1.0322115514106112,0.0,0.0,0.0,0.0
0.014525063840817793,-0.055934764401828596,0.7333461735928435,-0.00450413014119021,-0.5212773550674251,0.010934426622387647,0.8533053792283396,0.11584063929256641,-0.751498790190083,0.7871193344744497,-0.08672142026267951,-0.806839015174179,0.9161126726631122,-0.05187332284784642,0.6738686155768586,1.025806729358356,0.0379816738443018,0.6827102276260555,1.0230426214370507,0.0,0.0,0.0,0.0
0.014100440916252814,-0.056802748074079513,0.732391484129091,-0.004446892808258062,-0.5212900618433769,0.011562140262083437,0.8532896421967396,0.11618989066361138,-0.7502959800079633,0.7799828733099837,-0.08633006797845257,-0.8090691019591453,0.9163866559159572,-0.04136750740936934,0.6658076440104544,1.0316176930620113,0.027374718172646507,0.6845734489233476,1.0119579881950123,0.0,0.0,0.0,0.0
0.013690515680144327,-0.057594515654451756,0.7313660440791139,-0.00450525068022617,-0.5213655938931508,0.012200785796603246,0.8532342943451674,0.1163930717993684,-0.74945486378549,0.7732950199429443,-0.08608238510540052,-0.8107834588165319,0.915976145986837,-0.03082820188291446,0.6575595753025306,1.0382900436911995,0.01680904098160399,0.6885292499603004,0.9986408063107306,0.0,0.0,0.0,0.0
0.01338648419314353,-0.058238884068849056,0.7303186046630017,-0.004783412767122177,-0.5216614328888102,0.012821318692422371,0.8530428372512603,0.11641371400396176,-0.748780396026593,0.7675906300060189,-0.08597911532253973,-0.8110428985593576,0.9143608177501212,-0.020263941569874863,0.6500365401478778,1.0457965010379087,0.006273840079321604,0.6960943145121842,0.9820008661772605,0.0,0.0,0.0,0.0
0.013273221594978724,-0.058642434944761235,0.7295116081991828,-0.005408333463833298,-0.522469545552243,0.013379755320948405,0.8525358092462323,0.11616762729285712,-0.7466527848016251,0.7623385565625829,-0.08595471475222242,-0.8073711525010916,0.9098254199579703,-0.009662183034000413,0.6454657560415383,1.0525720908272125,-0.00423614419145261,0.709368217150676,0.9601343913008251,0.0,0.0,0.0,0.0
0.013295986950601801,-0.05867224409996374,0.7294911055899308,-0.005435091041134998,-0.5225024738118402,0.013411411938555827,0.852514960968836,0.11617193967789019,-0.7466217777107662,0.7622910567032074,-0.08594489112451878,-0.8073272173095689,0.9099139756072993,-0.009030900684020064,0.6453731361912629,1.0525656521062716,-0.004894752345900212,0.7093612204190823,0.9601240148274061,0.0,0.0,0.0,0.0
0.013295986950601801,-0.05867224409996374,0.7294911055899308,-0.005435091041134998,-0.5225024738118402,0.013411411938555827,0.852514960968836,0.11617193967789019,-0.7466217777107662,0.7622910567032074,-0.08594489112451878,-0.8073272173095689,0.9099139756072993,-0.009030900684020064,0.6453731361912629,1.0525656521062716,-0.004894752345900212,0.7093612204190823,0.9601240148274061,0.0,0.0,0.0,0.0
0.01300796592910309,-0.05932059238672583,0.7300752371137593,-0.0062639808121694165,-0.5227538257334199,0.011936874224369154,0.8523770945181538,0.10857644158657882,-0.7700028814321207,0.8033879661679665,-0.07953303541891367,-0.8057781761583397,0.9082146473781796,-0.008852915881604983,0.6498531222166365,1.0472930607851116,-0.004981504013424657,0.7095379925801384,0.9566678519148744,0.0,0.0,0.0,0.0
0.012318549094320163,-0.060655052315654434,0.7304444907679575,-0.0060512162939101895,-0.5228193659043634,0.010754646782807136,0.8523541699254488,0.10092252105067034,-0.7850070253253865,0.8256623560100073,-0.07295139461573373,-0.8070735554995015,0.9083009348005593,-0.008600957605160199,0.6519156689609045,1.041854762998065,-0.004958428872784236,0.7064195532543418,0.9579805882126283,0.0,0.0,0.0,0.0
0.011386740894308712,-0.06234023932471482,0.7304796366529966,-0.005261835259135856,-0.5228673631592163,0.00977405200232475,0.8523417750762248,0.09335765016741504,-0.7956967175033033,0.8380795292028961,-0.06645668986212369,-0.8097742565387265,0.9087020092348969,-0.008277831408992272,0.6517892394506535,1.0384077487496326,-0.004845154937945718,0.7006934684651377,0.9640218009783074,0.0,0.0,0.0,0.0
0.010236391491930157,-0.0640585687268752,0.7303778308584654,-0.004349272857656246,-0.5229279040793043,0.008888758093929566,0.8523194711728597,0.08591392592705448,-0.8040869366259911,0.8453354081691338,-0.06020384085119435,-0.8117208057371103,0.9071445631225004,-0.007909495041952092,0.6503630478519724,1.0362136698724638,-0.004651350891310633,0.693789868971084,0.971706677118829,0.0,0.0,0.0,0.0
0.009032296900363659,-0.06564321410881803,0.7303820505593563,-0.003559004629123542,-0.5229852929142931,0.008031170868001088,0.8522964373830798,0.0785913530283312,-0.8107841900852677,0.8496448654088911,-0.0542627553783448,-0.8123163890899356,0.9039343641570157,-0.007512782120925071,0.6491399196186128,1.0334392642636516,-0.004390688817122898,0.6875000526382757,0.9778947215771419,0.0,0.0,0.0,0.0
0.00785304843850448,-0.06708234541254529,0.7304850722241087,-0.002917154972406343,-0.5230301837235514,0.0071878421310897075,0.8522788581482433,0.07137869140183982,-0.8161869090839245,0.8521788582720523,-0.048631067064665814,-0.8120057877198473,0.8998545266810878,-0.007091378845050057,0.6483042894577695,1.0300931659406634,-0.004076435073059456,0.6819818891138608,0.9825404882467519,0.0,0.0,0.0,0.0
0.006737800363641947,-0.06839957992057057,0.7306457290387218,-0.0023958074444544687,-0.5230631729461273,0.006360572500313414,0.8522668128770984,0.06426305457272802,-0.8204561519418283,0.8537339128581481,-0.04328453037255543,-0.8112460074075664,0.8955191061775233,-0.006647203725672658,0.6478031125426537,1.0264375370636494,-0.003718278636616614,0.6771148597515346,0.9860968341575664,0.0,0.0,0.0,0.0
0.005701037704469797,-0.06962201095361313,0.7308320969346019,-0.001960632586309151,-0.5230860508018869,0.005553589901904773,0.8522595244498877,0.05723202967292908,-0.8235113903103283,0.8549010272823988,-0.03819251942987274,-0.8103459717567679,0.8913007177902372,-0.00618242115268506,0.6475526554328365,1.022671132820506,-0.003323352495970001,0.6727557657768461,0.9889599932603846,0.0,0.0,0.0,0.0
0.004741937657172632,-0.07077398770154085,0.7310259067774174,-0.0015808876947980325,-0.5231008758286319,0.0047705250808968425,0.8522559572052678,0.050274118474472204,-0.8250996513902019,0.8561632061115283,-0.033322941987132176,-0.8094750819584359,0.8873789324009743,-0.00569948638258604,0.6474850245260881,1.0188954392053147,-0.002897296645457407,0.668787199096306,0.9913996881566275,0.0,0.0,0.0,0.0
0.0038538620347875934,-0.07187633249248522,0.731220083591167,-0.0012308908928693354,-0.5231123364923286,0.004013855010704671,0.8522533996911362,0.04337886243471989,-0.8250197767374292,0.8578683387275082,-0.02864442936478596,-0.8087009372487448,0.883816717350666,-0.005201160916035433,0.6475734339513649,1.0151322367793982,-0.0024448850972320245,0.6651399120095289,0.9935767450011437,0.0,0.0,0.0,0.0
0.0030329537359983175,-0.07294180607851504,0.7314101370751089,-0.0008972008471844841,-0.523119074017883,0.0032827063712818644,0.8522528106543225,0.03653713350804105,-0.8236557347274107,0.8599090082040811,-0.024129562548488075,-0.808093225516202,0.8806801810184826,-0.004690727874975064,0.64779200358513,1.011390385531882,-0.001970771348358846,0.6617564725087104,0.995581383643546,0.0,0.0,0.0,0.0
0.002278850981214396,-0.07398247484823674,0.7315972201523028,-0.0005670145914513027,-0.5231231597944295,0.002576302554628385,0.8522530145715485,0.029740591897244074,-0.8214684488879926,0.862123626005788,-0.01975228934835544,-0.807696059461421,0.8780356795027753,-0.004171659067251984,0.648161650336812,1.0076319815072399,-0.001479267093423508,0.6586280419916669,0.9974517166047341,0.0,0.0,0.0,0.0
0.001595064693884558,-0.07501031329372941,0.7317857510634088,-0.00022725991979907867,-0.5231276502346749,0.0018942506219294262,0.8522522054694008,0.022981612601285013,-0.8187933129023496,0.8644049815844019,-0.015488271454452036,-0.8075550955466663,0.8759753817933745,-0.003647611819958498,0.6487336585667528,1.0037865035652265,-0.0009744365502574515,0.6557767041221314,0.9991935377897081,0.0,0.0,0.0,0.0
0.0009903159621379581,-0.07603221318916287,0.7319803444341734,0.00012802447248472126,-0.5231341405714441,0.0012346073228837848,0.8522494531081081,0.016253380516747733,-0.8157993440520708,0.8666812110463338,-0.011317408632981519,-0.8077280711015505,0.8746199360895894,-0.0031226896130484866,0.6495688477948828,0.9997897083693863,-0.0004604804448705885,0.6532416167333637,1.000785028062719,0.0,0.0,0.0,0.0
0.00047611243092055943,-0.07703166213647787,0.7321767498380256,0.00047056064910671247,-0.5231400446879522,0.0005866127151563267,0.8522464010496527,0.009551122167055464,-0.8125655307175529,0.8688226840768681,-0.007232017290864316,-0.8082401915497611,0.8740137968712484,-0.002601943167961524,0.650665481057239,0.9957277548058564,5.703981188343054e-05,0.6510338742612073,1.0021920887929106,0.0,0.0,0.0,0.0
4.829884474601484e-05,-0.0779081971090795,0.7323177202055418,0.000649952073687594,-0.5231388079134556,-9.166596034879808e-05,0.8522472392531067,0.0028828095053591114,-0.8094828947394095,0.8707016630628339,-0.003270007272656603,-0.8088718074188748,0.8736416892139532,-0.002091827908731978,0.6516412742474987,0.9924743690226596,0.0005678905443998745,0.6489143266061137,1.003577218047405,0.0,0.0,0.0,0.0
-0.00035293419921398434,-0.07833813815250668,0.7321789446350967,0.00022255519480857009,-0.5231349162462334,-0.000893368967338894,0.8522493835522087,-0.0036146662432655846,-0.8094527233535573,0.8748324735452031,0.0003010446211315484,-0.8086423499576486,0.8713032526855871,-0.0015930558515429088,0.6509470672711516,0.993285988415642,0.0010589403804608568,0.6459011869089462,1.0059446785296855,0.0,0.0,0.0,0.0
-0.0003489238680138758,-0.0783385057997675,0.7321769121212313,0.00022335236548194992,-0.5231325872320869,-0.0008927324000375761,0.852250813621463,-0.004025790179406869,-0.8094437425694246,0.8748188090694234,0.0002964549695184857,-0.8086491248377842,0.8713127915714992,-0.0015937626229889116,0.6509487645421702,0.99328615202307,0.001063781841770167,0.6459038758172452,1.0059444933984214,0.0,0.0,0.0,0.0
-0.0003489238680138758,-0.0783385057997675,0.7321769121212313,0.00022335236548194992,-0.5231325872320869,-0.0008927324000375761,0.852250813621463,-0.004025790179406869,-0.8094437425694246,0.8748188090694234,0.0002964549695184857,-0.8086491248377842,0.8713127915714992,-0.0015937626229889116,0.6509487645421702,0.99328615202307,0.001063781841770167,0.6459038758172452,1.0059444933984214,0.0,0.0,0.0,0.0
-0.0003489238680138758,-0.0783385057997675,0.7321769121212313,0.00022335236548194992,-0.5231325872320869,-0.0008927324000375761,0.852250813621463,-0.004025790179406869,-0.8094437425694246,0.8748188090694234,0.0002964549695184857,-0.8086491248377842,0.8713127915714992,-0.0015937626229889116,0.6509487645421702,0.99328615202307,0.001063781841770167,0.6459038758172452,1.0059444933984214,0.0,0.0,0.0,0.0
-0.00020988519217205175,-0.07808808273106453,0.7320041837895175,0.00017028862282137658,-0.5230697360783385,-0.0005003683162920942,0.8522897229418352,-0.005703139210865872,-0.8123423942513344,0.8782170942080395,-0.0013802656637520192,-0.8090632224604936,0.8719583643021908,-0.0004754587445656988,0.6494253697985175,0.99507465760155,0.0021949408377670383,0.6462507647706522,1.0068024999760363,0.0,0.0,0.0,0.0
-2.9759932092023787e-05,-0.07777478522170302,0.7317508418452912,1.7808032475236326e-05,-0.5230263521222153,-0.0001412701468042683,0.8523164991429816,-0.007388604387137101,-0.815840403820773,0.8823791178525806,-0.003060679678066618,-0.8095690533783018,0.8726484034825576,0.0006232125647564009,0.6476471879452855,0.9978340210997978,0.003313056696689117,0.6464195432092945,1.0081664865956377,0.0,0.0,0.0,0.0
0.0001252761902548177,-0.07753025861186427,0.7314329809240697,-2.6484422163928885e-05,-0.5229129171651692,0.00025389677191940804,0.8523860720922283,-0.009076500954477089,-0.8195354235089379,0.8863512398540724,-0.004740016022999421,-0.8108518283969818,0.8739916784135873,0.0017384763609252804,0.6453439745494847,1.000797810333672,0.004454832849468994,0.6459888409771533,1.0102349039201122,0.0,0.0,0.0,0.0
0.0002786449597245226,-0.07764998691225701,0.7309484240168365,0.0005030253487437836,-0.5225656164567138,0.0008353596441874911,0.8525985137431205,-0.010737645815150926,-0.8236586863685668,0.8897514085563789,-0.006394003172308857,-0.8155966489988781,0.8791116856304889,0.002905945301747796,0.6418440927374818,1.003465820848187,0.005675372914018556,0.6439420071529639,1.0146286849078152,0.0,0.0,0.0,0.0
0.0004412200705205464,-0.0784262735186427,0.7304594000072654,0.002063854854054474,-0.5219194079095304,0.0017450214559963193,0.8529905199066544,-0.012311840132409622,-0.826939516001459,0.891131230776604,-0.007971605008179639,-0.8249389779874915,0.8899457424230527,0.004117807287841738,0.6379947827285762,1.0031597730734128,0.007016956098064688,0.6407570831586704,1.0207544066740277,0.0,0.0,0.0,0.0
0.001600778252809353,-0.07936274502360194,0.7307392528565197,0.0009869552922167771,-0.5225521401334559,-0.0001914851440231325,0.8526067382413981,-0.0038800018800719243,-0.825219955970838,0.8956028330355361,-0.020584915385546226,-0.816222452265592,0.8757184258766013,0.005028262031638801,0.6471205531468772,0.9994509258076506,0.00787749259902915,0.6444732494980272,1.0199922675628337,0.0,0.0,0.0,0.0
0.002751541778236428,-0.08094513067721196,0.7308778274912517,0.0008372013393701816,-0.5229018855893367,-0.001882205033678375,0.8523903885223277,0.004902288120315464,-0.8227810581590541,0.8978800855900866,-0.033415038868769044,-0.8150854495576231,0.8696131084589246,0.005963798899378251,0.6554014084718636,0.9939905301982199,0.008855426271717258,0.6463615210761259,1.0220876334047253,0.0,0.0,0.0,0.0
0.0038931150630542293,-0.0828750298359144,0.7308171710930973,0.001216292440835298,-0.5230048184958985,-0.0034123953827872827,0.8523220260092556,0.013780557252246133,-0.8207464348924974,0.8994535736924484,-0.0462629904424509,-0.815899019918567,0.8642323225276995,0.006929967555751429,0.6623559521233596,0.9884550088970893,0.009912953278896882,0.6464914168198986,1.0266077514967846,0.0,0.0,0.0,0.0
0.005108470480523104,-0.08492053248812918,0.7306636935206858,0.0017662154417671955,-0.5230112397196743,-0.004897538006588053,0.8523098836288223,0.02272999390271762,-0.819239127062348,0.9014680861310078,-0.059109219360251014,-0.81716395178636,0.8591093446553962,0.007883359196431856,0.6689842711167716,0.9829782375752714,0.010993647573197379,0.6461527198040374,1.031989267336732,0.0,0.0,0.0,0.0
0.006432077043949254,-0.08700762269088023,0.7304348529324355,0.0023616052988227132,-0.5229892436076691,-0.006386200137722862,0.8523120850597459,0.03178640109541095,-0.8182710464148734,0.9042821625603565,-0.07196464569526248,-0.8185750844311729,0.8542387134776291,0.008797174668260717,0.6756254071665887,0.9777832294250437,0.012069691521415411,0.6457491502929761,1.0378953223674363,0.0,0.0,0.0,0.0
0.007881564148327462,-0.08912697521640023,0.7301440149646742,0.0029762185328670383,-0.5229670971389289,-0.007896087532164925,0.8523110988571081,0.04099817814253827,-0.8177467020848042,0.9079346084625963,-0.08484312377517621,-0.8199334344307964,0.849512711882315,0.009655406623580944,0.6824904745067115,0.9728188586893847,0.013127597459245762,0.6454749897271076,1.044184861930548,0.0,0.0,0.0,0.0
0.00946887346742218,-0.09129599670383118,0.7298080195017144,0.003624397898411339,-0.5229573457138015,-0.009432669375595924,0.8522989516902506,0.050419416975547235,-0.817501903646443,0.9123202180169139,-0.0977593859294688,-0.8209113185538215,0.8448370245583905,0.01044555022347957,0.68977192805795,0.967867633277691,0.014160707750222674,0.6454702672846748,1.0507475312508425,0.0,0.0,0.0,0.0
0.01120359518350799,-0.09354473215685644,0.7294474685787953,0.004339190799355311,-0.5229685631939769,-0.010996303804108626,0.8522699892854857,0.06010739431020591,-0.8173067750682361,0.9172372801048173,-0.11072890346467376,-0.8209757786312163,0.8401828456403321,0.01115503455544584,0.6976777086448402,0.9626139367555876,0.015165990169929025,0.6458712138595909,1.05747108913814,0.0,0.0,0.0,0.0
0.013093986031046424,-0.09591268531846522,0.7290891265246677,0.005167257887966551,-0.5230117216686176,-0.012584186151732233,0.8522169188076743,0.07012142251162008,-0.8168383292553306,0.9223774001797023,-0.123767978556209,-0.8194196423698905,0.8355616326946219,0.01176926391686112,0.7064622892058132,0.9566425560108531,0.016143026149439618,0.6468436290785932,1.0642189083888547,0.0,0.0,0.0,0.0
0.015152386692036935,-0.09844975867030466,0.728769153289528,0.006170123974665783,-0.5231044533300715,-0.014190417520597945,0.8521280963135621,0.08052191577148786,-0.8156665803474094,0.9273425475598291,-0.13689404113911469,-0.8155525534193672,0.8308317424722161,0.012269330876078644,0.7164744117784116,0.9494011284377105,0.01709372694783397,0.6486265480653511,1.0708039537561944,0.0,0.0,0.0,0.0
0.01738374023646818,-0.10122933790175216,0.7285294928269854,0.007444945915054691,-0.5232604949127716,-0.015799892584093565,0.8519937738260146,0.09137060411924447,-0.8132058362549457,0.9315080828558481,-0.15012698443448863,-0.8092725072224529,0.8251319405280138,0.01263274914873251,0.7280911731541146,0.940162075140714,0.01802786664681266,0.6514496744021216,1.077048821773838,0.0,0.0,0.0,0.0
0.019787235268983277,-0.10432142880940858,0.7284132150236821,0.009083345475567509,-0.5235095656540701,-0.01740064971485696,0.8517936633323584,0.102716677995343,-0.8087390932801172,0.9340957234289673,-0.1634861291092839,-0.8005062011193432,0.8171840611939252,0.012827358710422123,0.7417393726395551,0.928195044578114,0.018957523708821426,0.6555852519963975,1.082772592247183,0.0,0.0,0.0,0.0
0.02234240610084305,-0.10775497509034045,0.7284258059785743,0.011110872659656651,-0.5239218980151584,-0.01900381915146481,0.8514817955462073,0.11459039723533465,-0.8015104871208898,0.9342027347671243,-0.17699458408655602,-0.7890489526258023,0.8054723817328885,0.012805344458643442,0.7577071563095212,0.9133414047029932,0.01988785627149891,0.6612132559402556,1.0880651455745016,0.0,0.0,0.0,0.0
0.02495847910434335,-0.1113733123107661,0.7283388040798913,0.013278224203524668,-0.5246768989844539,-0.02069920245602432,0.8509461695382045,0.12695021989154853,-0.7914237272738147,0.9311962209514674,-0.1906695811099877,-0.774346010995203,0.7880399651192134,0.012503785872063232,0.7750288647168037,0.8987470495760084,0.020781489847339622,0.6676454785112553,1.0947390433215614,0.0,0.0,0.0,0.0
0.027462905732778844,-0.11476319300908362,0.727686926735496,0.014993357607380964,-0.5259402917318804,-0.022638416190076397,0.8500879430229831,0.13957914234472682,-0.7801761769031763,0.9259134079884742,-0.204481922456208,-0.7536442633916782,0.7595711024936596,0.011907051199305834,0.790840904703331,0.8912371258737709,0.02155502832252841,0.6729966439663643,1.106010250767733,0.0,0.0,0.0,0.0
0.02967077161285007,-0.11754891386808437,0.7265033604024319,0.015699665909877918,-0.5277469510565337,-0.024931913069308625,0.8488904969732877,0.15218064880780513,-0.7686992845672279,0.9192304536366362,-0.21837086251874802,-0.7225430865124762,0.7118831162708946,0.011103789215172924,0.8043238652796588,0.8926198630734514,0.02215509706279954,0.677135491904775,1.1208012328470864,0.0,0.0,0.0,0.0
0.03125289468068594,-0.11909369145003694,0.725516668867103,0.014496571032617348,-0.5296934975240254,-0.02763801623962824,0.8476147640098064,0.16387749537569135,-0.7592500625418389,0.9143410684187235,-0.23199044034927785,-0.6736531741563254,0.630402435288327,0.01049124887239966,0.8160968411581289,0.8981851964680677,0.02257988477518153,0.6810603160249793,1.131369095209809,0.0,0.0,0.0,0.0
0.03136497110477399,-0.11925748243243099,0.7254139645258925,0.014547757026244276,-0.5296177396374542,-0.027745905647800585,0.8476577005764783,0.16456879289842938,-0.7593438836576181,0.9143556588922311,-0.2329156328552361,-0.6735350229075019,0.6303952549419041,0.010349845258704082,0.8164623739343497,0.8977813276202554,0.022718962563074856,0.6808611240572426,1.1319246823017912,0.0,0.0,0.0,0.0
0.03136497110477399,-0.11925748243243099,0.7254139645258925,0.014547757026244276,-0.5296177396374542,-0.027745905647800585,0.8476577005764783,0.16456879289842938,-0.7593438836576181,0.9143556588922311,-0.2329156328552361,-0.6735350229075019,0.6303952549419041,0.010349845258704082,0.8164623739343497,0.8977813276202554,0.022718962563074856,0.6808611240572426,1.1319246823017912,0.0,0.0,0.0,0.0
0.030739018062385673,-0.11972988267743032,0.7275304816740571,0.01342599250205867,-0.5263388187802427,-0.027042002141216128,0.8497387367247347,0.165277379083814,-0.7700623656508461,0.9242534837842464,-0.23371215311158333,-0.681435864447864,0.641548495208996,-0.00733953645394644,0.7772069051169048,0.9434632137902103,0.0411581519549543,0.6826795369381996,1.1128977678743976,0.0,0.0,0.0,0.0
0.03012154765609895,-0.12060925817923258,0.730207885831591,0.012653729461841276,-0.5237197906862231,-0.02620862463358434,0.8513933121472714,0.16595702071616034,-0.7737242567673447,0.9273160938507531,-0.23379294007706308,-0.6857510305996709,0.6509410613816754,-0.02502492137213832,0.7499526911003873,0.972084362642354,0.05920857930868041,0.6889116004861483,1.0902660380172002,0.0,0.0,0.0,0.0
0.029473507063646015,-0.12173215876083414,0.7327643300313662,0.012123735101720311,-0.5216905393413641,-0.02532266399239396,0.8526727149951664,0.16671226706453462,-0.7732415639031388,0.925477931353957,-0.23332694057933465,-0.6880026417005507,0.6582803434400054,-0.04271069323478581,0.732460415207197,0.9903912280382646,0.07687496647061862,0.6963830447693677,1.069348123402657,0.0,0.0,0.0,0.0
0.028697372739617467,-0.12296844872556738,0.7350661994656251,0.011692340732410418,-0.5200679545651937,-0.024436967909112775,0.8536951718277326,0.16755164514395524,-0.7701602162507464,0.9198258761369037,-0.23241942222940665,-0.6883911473904843,0.6626650232815026,-0.060411945817402654,0.721088457310739,1.0025326487863935,0.09424104658014605,0.703540196943499,1.0511315892562625,0.0,0.0,0.0,0.0
0.02773292159999394,-0.12428958066598597,0.7371708065626281,0.011318805963368215,-0.518678204440384,-0.02355793933785779,0.8545699669215017,0.16848245495408876,-0.7651187283205021,0.9108180768731424,-0.23113662223366352,-0.6873011196097607,0.6642578366904732,-0.07814359991060142,0.7130591937023438,1.0107702920455564,0.11138881811943978,0.7098413965332557,1.0350768159064654,0.0,0.0,0.0,0.0
0.02651569118330088,-0.12570876795045557,0.7391886260897599,0.010994489437101877,-0.5173601037598495,-0.022666985371542197,0.8553968973603899,0.16950291439739304,-0.7583385873023862,0.8984622447748982,-0.22952102354217133,-0.6850062742979997,0.6632737359205528,-0.09592061829205338,0.7065947161664032,1.0161766204644231,0.12839721068342902,0.7150693639498945,1.020152963362624,0.0,0.0,0.0,0.0
0.024968937306971233,-0.12726270600127934,0.7412397191702061,0.010721658298416625,-0.5159546411334497,-0.021727602278679793,0.8562731839987777,0.17060607808205813,-0.7498566644830748,0.8824606571919877,-0.22760490188218555,-0.6817108953614927,0.659848596978258,-0.11375799973367033,0.7007468110456704,1.0190462497185606,0.14534384418697546,0.7190751993465031,1.0051782747954596,0.0,0.0,0.0,0.0
0.022996624885858276,-0.129005445310118,0.7434430343765017,0.010502372010031187,-0.5142880472778162,-0.020686169664004037,0.8573036725653084,0.17178228090616982,-0.7396454210223367,0.8622738239525326,-0.2254200811698605,-0.6775992439318751,0.6540184884519606,-0.13167091789113788,0.6951215001232295,1.0190478437157737,0.16230952432575663,0.7216614029032322,0.9888767400154249,0.0,0.0,0.0,0.0
0.02047902918238492,-0.13100603059982546,0.7459114515721577,0.010327862012361187,-0.5121545735123457,-0.01946984788157761,0.8586104781098989,0.17302207423217897,-0.7277135780185403,0.8371726974147844,-0.22300771632673982,-0.6728895644201852,0.6457337872418841,-0.14967492530899335,0.6896226726340811,1.0151574113353237,0.17938206941402385,0.7225254370604512,0.9698419715301169,0.0,0.0,0.0,0.0
0.01727224081756046,-0.13334420398542002,0.7487306823295854,0.010164914421295279,-0.5093072991583356,-0.017985212197940706,0.8603367257539598,0.17432147293494582,-0.7142338998291803,0.8063114595582692,-0.22042946597086968,-0.6678973602666048,0.6348653962441673,-0.16778619398390102,0.6842214058196859,1.0054929734258902,0.1966555140625898,0.7212003863324549,0.9465947475791111,0.0,0.0,0.0,0.0
0.013185741206447034,-0.136107482262585,0.7518358321761286,0.009959543774627279,-0.5054718393856217,-0.016119693261595135,0.8626350228022681,0.17569609614670528,-0.6997156226682605,0.7685806109608602,-0.21778040554347655,-0.6632208197996265,0.6210642462347336,-0.18601886618645366,0.6768998300732727,0.9906810666882657,0.21421639715942176,0.71651900194724,0.9186628320496406,0.0,0.0,0.0,0.0
0.008117586977041876,-0.13940857164561854,0.7550522927749193,0.00967363048230669,-0.5003763814953445,-0.013750311518210163,0.8656447462140976,0.17722811495084978,-0.6851578655036163,0.7234445815715762,-0.215215504515156,-0.6604705223750967,0.6054254713102575,-0.20440511840115286,0.66492546022298,0.9699916658809833,0.23212725199299863,0.7073445788036621,0.8860630346185252,0.0,0.0,0.0,0.0
0.0021908863705788727,-0.1431392332231373,0.7581225687935248,0.009004027013894158,-0.4939153426881186,-0.010866758077664828,0.8693954654377333,0.17900773421528335,-0.6729922878453772,0.6733855109136233,-0.21296273904116927,-0.6605934292710728,0.5887348865539038,-0.22295333257051753,0.6461482961792867,0.9440176395852599,0.250313150628314,0.6936333156088405,0.8486537348990527,0.0,0.0,0.0,0.0
-0.00396818057253927,-0.1468755331444156,0.7602391925958781,0.007470710873479322,-0.4862503319723774,-0.007680771278604624,0.8737538605856705,0.18133549188673237,-0.6703546955915715,0.6291010156743313,-0.2115003710535257,-0.666925774278573,0.575610491211317,-0.24167154345732259,0.6233342010498213,0.9124777260247614,0.26848965936320557,0.6746247491413123,0.8116135537586435,0.0,0.0,0.0,0.0
-0.010098479583183557,-0.15042886408875897,0.7610218167549523,0.004907446022994343,-0.4774037940033117,-0.004319130234558015,0.8786597063475665,0.18440808448755927,-0.6817065858684551,0.5976132470864618,-0.2110993304861696,-0.6816884170673082,0.569058355865085,-0.26051409138754156,0.5958278722446199,0.8760088421130461,0.28639514752112183,0.6493312937989659,0.7780018651934177,0.0,0.0,0.0,0.0
-0.015864264681969945,-0.1536006424880498,0.7603172702020997,0.001106206003235719,-0.4672345209463737,-0.0009238106710338036,0.884132244247508,0.1885024557654066,-0.7128359468408568,0.5884439286531826,-0.2121240199163191,-0.7076072436329714,0.5733704174025843,-0.27953432093935576,0.5674280552896426,0.8286039814899324,0.3038261473626087,0.617623564996721,0.7484388741150556,0.0,0.0,0.0,0.0
-0.020195957734112736,-0.15580768704981898,0.7584533135692486,-0.0038242164813991958,-0.45740199622911687,0.0018707078685278966,0.8892498465931793,0.19341467472764817,-0.7602893769311293,0.6062068858712001,-0.21417915374354515,-0.738748221164614,0.5865424904643752,-0.2984260805638828,0.5443075548810961,0.7817828452501231,0.31983247670116394,0.5869745720191056,0.7244091021404133,0.0,0.0,0.0,0.0
-0.020140206870326787,-0.15592835942244365,0.7578835764392191,-0.00423576330565569,-0.457436252330813,0.0020002821291152046,0.8892300783453982,0.19373236010622,-0.7613241030211916,0.60516434712762,-0.21446375285799432,-0.739267121052779,0.5863672805727005,-0.29974345995065954,0.5443914316642364,0.7818397557412611,0.3206107807134478,0.5873665243284653,0.7240940462417641,0.0,0.0,0.0,0.0
-0.020140206870326787,-0.15592835942244365,0.7578835764392191,-0.00423576330565569,-0.457436252330813,0.0020002821291152046,0.8892300783453982,0.19373236010622,-0.7613241030211916,0.60516434712762,-0.21446375285799432,-0.739267121052779,0.5863672805727005,-0.29974345995065954,0.5443914316642364,0.7818397557412611,0.3206107807134478,0.5873665243284653,0.7240940462417641,0.0,0.0,0.0,0.0
-0.020300967568134654,-0.15647288905562953,0.7602857608433711,-0.0038292552664412768,-0.46069450772762327,0.001548466519918303,0.8875491589794584,0.19378539335848421,-0.7259429609031339,0.5674350026940238,-0.2098147244646003,-0.7138027423427273,0.5617131883317839,-0.30435877801187905,0.5651484409260051,0.766003682952009,0.3225239416508336,0.608793580980504,0.7055989378624327,0.0,0.0,0.0,0.0
-0.020362378380344683,-0.1573422774524949,0.7620149762122892,-0.003007364065062271,-0.46232498007156625,0.0012271461362194846,0.8867046084664083,0.19487855531690038,-0.7003825729503397,0.5377718370873213,-0.20628820289786032,-0.703247189008492,0.5536985036598027,-0.30687006464258576,0.5800620800179315,0.7496065378060358,0.3227926110582531,0.6227809109860057,0.6903840495626913,0.0,0.0,0.0,0.0
-0.02024224173098372,-0.15850635250358433,0.7624146512748703,-0.0018088712824316892,-0.4623309698797154,0.001033740782199315,0.8867049868218632,0.19711369381066493,-0.6892982214689463,0.5223747719408363,-0.2040209159141924,-0.7116071930345463,0.5673376297589212,-0.3075361454028015,0.5846872905894057,0.7413354464693045,0.3215838924834367,0.6249368803573451,0.6869922955537205,0.0,0.0,0.0,0.0
-0.019631730131234863,-0.16013126914306572,0.7614827548457173,1.6305123538750258e-05,-0.46056914259134624,0.0010608049344221033,0.8876231966998757,0.2006480922007743,-0.6960743669944747,0.5275950388707162,-0.20318021634122319,-0.7429203722892436,0.6092839446799924,-0.3063399437482246,0.5794355723135423,0.7406947851052099,0.31884696278551955,0.6155501083142628,0.6955281247753198,0.0,0.0,0.0,0.0
-0.01806879711899405,-0.1624005852767768,0.7591959549817799,0.002772049568687756,-0.45679510485920066,0.0014666522791339112,0.8895664094652813,0.20568850695512217,-0.7244232105931389,0.5598537886155458,-0.20425818897230924,-0.799975547199218,0.6832840778383704,-0.3033243548395186,0.5651831856085523,0.7462991679823353,0.31482375494238585,0.5954734279184014,0.7152485274265239,0.0,0.0,0.0,0.0
-0.011975943157434483,-0.1647283895436868,0.759965896728359,-0.003015279790260347,-0.4713044743797985,0.00433924077740811,0.8819547445911519,0.2033561251777286,-0.6794511893227062,0.5389507443186836,-0.1968594783089616,-0.7361581601496032,0.6560040058167198,-0.29192159746750557,0.5985186859190754,0.8054125949586144,0.29745308326912956,0.6253406166346744,0.7953427264292732,0.0,0.0,0.0,0.0
-0.005006438120596319,-0.16756760016948075,0.7593039921354822,-0.007193960689897987,-0.48355472251986487,0.00737498384455004,0.8752534986343221,0.2032799793059021,-0.6531698420769706,0.5393586852746376,-0.19186812773795847,-0.6992482235036026,0.6593851141449265,-0.2797150996233704,0.6341732167990618,0.8508055870087075,0.2798453949971437,0.6531893953211562,0.8646176306331299,0.0,0.0,0.0,0.0
0.002201448442698248,-0.1706867121033325,0.7573894754460743,-0.00975504825356844,-0.4930745302524263,0.010228688327658685,0.8698722438295265,0.20495696041236,-0.6456971635463888,0.5597329979602732,-0.18871964779103548,-0.6897235132743716,0.6924679260837728,-0.267035213792298,0.6654778475658895,0.8872817647628692,0.26247933882931257,0.6746347307552261,0.9158282381440991,0.0,0.0,0.0,0.0
0.009170837155157157,-0.1739479976666974,0.7545073077158606,-0.010989456222595078,-0.5002819051775216,0.012806428094368503,0.8656981244078935,0.20773634941001035,-0.650345344314736,0.5900616414741022,-0.18678448230127861,-0.6991218641657833,0.7428956541470048,-0.2538592737452005,0.6898055846900663,0.9193881133323919,0.24537468324657385,0.6912520504455564,0.9533755591184917,0.0,0.0,0.0,0.0
0.015215490599177681,-0.17699658462362036,0.7515118773787607,-0.011411625619423835,-0.5056127278539153,0.014958086788331373,0.8625553894518759,0.21086566187919206,-0.6582052923566634,0.6182019147659261,-0.18538360494786804,-0.7146459309284787,0.7925531559204656,-0.2401797654870593,0.7083416795355915,0.944416637461706,0.22852431766560244,0.7016892767744897,0.9805380284172481,0.0,0.0,0.0,0.0
0.020159862712468272,-0.17971333309089502,0.7487754417543352,-0.011384105298589475,-0.5095027354381904,0.016707389198892985,0.8602314966761615,0.21395072357541686,-0.6658233474444646,0.6406068761220323,-0.1842112916118803,-0.730958993442928,0.8355726084007004,-0.22600868719831718,0.721585951483305,0.9633370255675733,0.21188965113319067,0.7079471640790581,1.0012454433039377,0.0,0.0,0.0,0.0
0.024062221548551952,-0.18207040314977002,0.7462916153474629,-0.01119191594399056,-0.5123363648866925,0.018127861861165454,0.8585205710153572,0.21682008714776982,-0.6726582726257142,0.6575517955680865,-0.18316290506993743,-0.7462310360084983,0.8709964073235518,-0.21144229207519932,0.7296514003048646,0.9789707189653609,0.1954604712600277,0.7122991393385207,1.0172442929106,0.0,0.0,0.0,0.0
0.027114558950734807,-0.18412065702036873,0.7440766145050831,-0.01096005684971748,-0.5144326332612654,0.019313136467470918,0.8572432243823921,0.21939993847533767,-0.6784622364599041,0.6699643036917698,-0.18219289449280324,-0.7598802684316681,0.899867644315163,-0.1965752248599886,0.733749684969878,0.9922875685423656,0.17922645422637334,0.7160882241684943,1.029335872291405,0.0,0.0,0.0,0.0
0.029510938363582227,-0.1859358549741167,0.7420710334066164,-0.010736191857751954,-0.5160404084292695,0.020347749270144808,0.8562552190510639,0.22166961859843032,-0.6832384399882372,0.6787243575675531,-0.1812983485476101,-0.771898729264789,0.9235076288374152,-0.18148563696630368,0.7348643413414478,1.0042152359160539,0.16317721884059938,0.7200239718833211,1.0372823297225346,0.0,0.0,0.0,0.0
0.031421090062800396,-0.18758370494243543,0.7401655240102334,-0.01053083789099909,-0.5173567747843373,0.021299710267091654,0.8554398818038588,0.22363264722132573,-0.6871219181054549,0.6845610712205399,-0.1804976396888558,-0.7825272175346588,0.9431186748151974,-0.166237351298061,0.733660530813429,1.0158033509757496,0.14730275029397352,0.7247931695215026,1.0398896724079048,0.0,0.0,0.0,0.0
0.032995766753074855,-0.18912873101405195,0.7382489239760657,-0.010324920378207822,-0.5185578217676163,0.022224257897453616,0.8546913266575928,0.22529582504086068,-0.6901247737070635,0.687918641151293,-0.1798062254959494,-0.7920224070812493,0.9597199461500134,-0.15088343856631234,0.7307325730217799,1.0279652342320351,0.13159080659423145,0.7297787046487489,1.0389136496494011,0.0,0.0,0.0,0.0
0.03436983681961242,-0.1906205449474893,0.7361938483954422,-0.010098900192883386,-0.5198246985058695,0.02316274432062393,0.8538991640198,0.22665952118053087,-0.6921855696328212,0.6890628132858909,-0.17923396436318684,-0.8005308718457885,0.9740328465249081,-0.13547643034185983,0.7265893810678934,1.0417471846974564,0.11602916267763873,0.735106644128753,1.0354759412863879,0.0,0.0,0.0,0.0
0.035735485280636005,-0.19203755583027465,0.7338520327914595,-0.009936482795866165,-0.5214051186550339,0.02412706679997499,0.8529102257550949,0.22772118009031586,-0.6937091389615511,0.6892128092199092,-0.17880369126547474,-0.8077785486687917,0.9864180873460945,-0.12009862250192518,0.7220654123432446,1.0585080951781063,0.10060584882323871,0.7422206909778722,1.0303302246651103,0.0,0.0,0.0,0.0
0.037247709677106,-0.19335439359920498,0.7310684771444949,-0.009904053609936039,-0.5236172165683551,0.02511677006865965,0.8515257295564344,0.22843478245474552,-0.6944042234839628,0.6886174378650989,-0.17848890918419258,-0.8130170353775931,0.9965760337063545,-0.10482276930811751,0.7181480678581812,1.079681349881652,0.08530792592009614,0.7538138388120414,1.0237143031036746,0.0,0.0,0.0,0.0
0.039007443554403484,-0.1945532863944097,0.7277829550855103,-0.01002363345333193,-0.526871175372418,0.026124583225495795,0.8494844303960927,0.22866437600647377,-0.6926219902295178,0.6859006571389418,-0.1781720042243536,-0.814602801989689,1.0032757662564535,-0.08966936304198513,0.7164925796967058,1.1058194906954049,0.07012200638546522,0.7741667615651667,1.0151052381001664,0.0,0.0,0.0,0.0
0.04107766243607365,-0.1955914797093492,0.7243013597171046,-0.0103020273759258,-0.5316954073892454,0.02713321917622836,0.8464382141717521,0.22810348407989606,-0.6846331846653312,0.6779547258701475,-0.17760136336865773,-0.808949498030935,1.0038502890757441,-0.07451083001105263,0.7207065789583892,1.1343486696978358,0.05503211356640066,0.8091552329334389,1.0024291603563111,0.0,0.0,0.0,0.0
0.043228306454062664,-0.19634980372920607,0.7217994771641009,-0.010752305418768286,-0.5385834703495506,0.028101820126179084,0.8420347505299364,0.22610468947945334,-0.6627092535913661,0.6576554963992483,-0.17630528939524864,-0.7885720861846054,0.9919904567142213,-0.058841408576174384,0.7367715784163418,1.1560314697463259,0.040023728535609045,0.8636728842361017,0.9780804026211907,0.0,0.0,0.0,0.0
0.04324752517422361,-0.19627478586108546,0.7216017315281389,-0.010679532854642841,-0.5386714778037686,0.02802908938612291,0.8419818030853727,0.2261092863300397,-0.6627385637595737,0.6575646173513396,-0.17640063513453308,-0.7888679025744979,0.9918442475153716,-0.05780899251955594,0.7369767963550266,1.1560702747848282,0.03916631630377246,0.8637426471671739,0.9781267559260495,0.0,0.0,0.0,0.0
0.04324752517422361,-0.19627478586108546,0.7216017315281389,-0.010679532854642841,-0.5386714778037686,0.02802908938612291,0.8419818030853727,0.2261092863300397,-0.6627385637595737,0.6575646173513396,-0.17640063513453308,-0.7888679025744979,0.9918442475153716,-0.05780899251955594,0.7369767963550266,1.1560702747848282,0.03916631630377246,0.8637426471671739,0.9781267559260495,0.0,0.0,0.0,0.0
0.04148802427158772,-0.19745679674654698,0.7227742237568565,-0.012946474223764042,-0.5357988094063626,0.025008922477276693,0.8438759259751538,0.21140907750009452,-0.7199955125497208,0.7454115167283877,-0.1642201470981596,-0.7993076338573444,0.9962546415588248,-0.051682301104426766,0.7279951843839156,1.144325388757894,0.03329422088091511,0.845303149726362,0.971200603768611,0.0,0.0,0.0,0.0
0.038759210240131535,-0.20002136983872792,0.724415807189679,-0.012842349818363514,-0.5327377307373315,0.0224956751198947,0.8458838743591707,0.19638542552064353,-0.7540898377340439,0.7923775623967714,-0.15120765315791596,-0.8125432390147566,1.0024816094679723,-0.04688493898627962,0.7175377266636574,1.126713657697089,0.02888242492330226,0.8254528011286529,0.9659607342231181,0.0,0.0,0.0,0.0
0.03536516414905156,-0.20329741015562242,0.7257360089165934,-0.01144311812069833,-0.5299933101570096,0.02038588897489312,0.8476795159535205,0.1814571265391253,-0.7757013099033738,0.8177995124652067,-0.1380749832586919,-0.8254678785325581,1.0061216145273244,-0.043277567358452375,0.7056820273267111,1.1103950335610344,0.02580984865841756,0.8038070304595811,0.9669232010370494,0.0,0.0,0.0,0.0
0.031434650656188945,-0.20663383580921393,0.72670613521733,-0.009751179362475404,-0.5278942665504025,0.018519324154606002,0.8490521730006407,0.16674577919752498,-0.7907292695760836,0.8321460237982525,-0.12526466006017267,-0.8333620520459437,1.001961984763941,-0.0405179370942793,0.6935377786843981,1.0973698642338825,0.023732251901220996,0.7818314612004038,0.972299082137622,0.0,0.0,0.0,0.0
0.027233534478790095,-0.20981988213345124,0.7275387098752396,-0.008120404013634593,-0.5263954236505938,0.016787058656994168,0.8500353590645591,0.1522511714570217,-0.8016376480152091,0.8402651657854289,-0.11291801674292887,-0.8358207685806718,0.9907866050715216,-0.03826378046832169,0.6823710780708098,1.0861986521139337,0.022302009336309842,0.7611007264323528,0.9789385666697039,0.0,0.0,0.0,0.0
0.02309266755692728,-0.2127640722775277,0.7284376878366788,-0.006720110197322562,-0.525355953479768,0.015111650573214218,0.8507218113339123,0.1379654714795005,-0.8096793877673777,0.8449343628507813,-0.1011110445834043,-0.8339389119705142,0.9752514203070125,-0.0363349339716555,0.6734836739592392,1.0749577289465333,0.0213278195436752,0.7430988127847312,0.9840134969804355,0.0,0.0,0.0,0.0
0.019170710930208775,-0.21548152259419823,0.7293713857819158,-0.005557708416772562,-0.5246464757565122,0.01346201696564705,0.8511956070449626,0.12386645327522916,-0.8156255219812092,0.8476920046138284,-0.08983957960755794,-0.8293380944798785,0.9575495635146907,-0.034627902974351275,0.6667374323050507,1.0636688096901616,0.020694716603661192,0.7276433192509378,0.9876177830478285,0.0,0.0,0.0,0.0
0.015654457949120227,-0.21805175445565605,0.7302677359437147,-0.004534288393123086,-0.524143471666533,0.011840668433375041,0.8515355893379755,0.10993453382089281,-0.8196822922258358,0.8495238095597489,-0.07905951359417492,-0.8242459657382762,0.9406893973961717,-0.033095015102187715,0.6619676722419515,1.0524728427378767,0.020346014608143902,0.7144586407779778,0.990399730950327,0.0,0.0,0.0,0.0
0.012524142567868907,-0.22049684048388146,0.7310995815386689,-0.0036214926397692758,-0.5237965699445294,0.010249646709043754,0.8517740209983782,0.09614736119142486,-0.8219629626561159,0.8512709829098618,-0.06872664822833119,-0.8191893273360462,0.9251523464344917,-0.03169131095136924,0.6587307771856249,1.0416463167045007,0.020223126986504737,0.7030771688117061,0.9928057235712173,0.0,0.0,0.0,0.0
0.009759964266452495,-0.22285225691935295,0.7318635573724493,-0.002770268970828696,-0.5235639601901539,0.0086967817150406,0.851937480797525,0.0824854881164441,-0.8224648169577312,0.8534554622775451,-0.05878930157991601,-0.8146100877173228,0.911398385817952,-0.030387145749223632,0.6567572993685061,1.0311825856044023,0.02028368405206191,0.6931901785719822,0.9950674570772877,0.0,0.0,0.0,0.0
0.007356719892200178,-0.2251546719726254,0.7325666474204642,-0.0019310021662451737,-0.5234050967601167,0.0071901622232645925,0.8520514523685585,0.06893187723998806,-0.8216424374397523,0.8560090620149421,-0.04919583101626227,-0.8109690228242139,0.8999907896046826,-0.029164006852628443,0.6559083196973357,1.0209238886371967,0.020495808966861262,0.6846085295252984,0.9972704458879618,0.0,0.0,0.0,0.0
0.005252211178996845,-0.22741882410738187,0.7332363928060344,-0.0010856118438478657,-0.5233078223878672,0.005731775395721243,0.8521237534685944,0.05546893283873107,-0.8200865256035772,0.8588811277724365,-0.03990113625904118,-0.808096903502701,0.8905942885130458,-0.02800649558792513,0.6560561142577969,1.0106751125330573,0.020827675133570624,0.677175429453802,0.9993272104847497,0.0,0.0,0.0,0.0
0.003432621270923618,-0.22966203873036092,0.7338923765010156,-0.00021414466088407182,-0.5232569402939587,0.004322473587519807,0.852163977646529,0.04208127388283017,-0.8180684193849503,0.8619919099956306,-0.03086499209340584,-0.8060893101178912,0.8833337380096465,-0.02691085784142688,0.6572014543145447,1.0002219287255658,0.021258070964792732,0.6708513700178654,1.0011450429922109,0.0,0.0,0.0,0.0
0.0019417277598768132,-0.23187396691375547,0.7345010629197769,0.000661770441435779,-0.5232271176443485,0.0029521659911073807,0.8521879077629715,0.028757955671320487,-0.8154352505203074,0.865101976717595,-0.022066688476266548,-0.8054364142994783,0.8788567725976707,-0.025885509873209145,0.6592280558127716,0.9898407946131548,0.021774842045478644,0.6655185256988119,1.0029305065442873,0.0,0.0,0.0,0.0
0.0007245832083818667,-0.23387635130001752,0.7347920679010848,0.0012748887573433058,-0.5232088643162474,0.0015493491990879842,0.852202123018136,0.015501225108369874,-0.8123551768602939,0.8677842337934839,-0.013569292502260622,-0.8060519426927192,0.8760545175982536,-0.024941216467516486,0.6604746120671704,0.9827088382437739,0.02235917889539809,0.6597915601396117,1.0065981244136506,0.0,0.0,0.0,0.0
-0.0003471773321881979,-0.2354592388922925,0.734659612737271,0.0013258086490007452,-0.5231244890856221,3.9157154408450765e-05,0.8522552490991477,0.0023478098201565063,-0.8091909879325133,0.8698320241220021,-0.00547439647631697,-0.807244626065503,0.8730700183065293,-0.02404036601413923,0.6595764999693668,0.9806111582384409,0.02295073410964086,0.6526920176717955,1.0123815022228548,0.0,0.0,0.0,0.0
-0.0013219131913446822,-0.23626377190547854,0.7341951337797228,0.0003359393409518131,-0.5230228404374428,-0.001670470219807655,0.8523169627871741,-0.01049153162889156,-0.8106611227433411,0.8763752052443159,0.0018991559811294047,-0.806734450549316,0.8669694326945724,-0.023167021203338318,0.656582171903012,0.984157994488276,0.023519555163241102,0.6449283215163701,1.018404880777102,0.0,0.0,0.0,0.0
-0.0013104427750164627,-0.23627407797902558,0.7341862317573201,0.0003517212948966891,-0.5230143885301956,-0.00166755585862358,0.8523221485682363,-0.011308544806882842,-0.8106583441061901,0.8763400771151325,0.0018926016192440153,-0.806752542834353,0.8669764887546231,-0.02318188984163683,0.6565917995206147,0.9841333150163476,0.023539833720632366,0.6449293648335269,1.0184125249497569,0.0,0.0,0.0,0.0
-0.0013104427750164627,-0.23627407797902558,0.7341862317573201,0.0003517212948966891,-0.5230143885301956,-0.00166755585862358,0.8523221485682363,-0.011308544806882842,-0.8106583441061901,0.8763400771151325,0.0018926016192440153,-0.806752542834353,0.8669764887546231,-0.02318188984163683,0.6565917995206147,0.9841333150163476,0.023539833720632366,0.6449293648335269,1.0184125249497569,0.0,0.0,0.0,0.0
-0.0013104427750164627,-0.23627407797902558,0.7341862317573201,0.0003517212948966891,-0.5230143885301956,-0.00166755585862358,0.8523221485682363,-0.011308544806882842,-0.8106583441061901,0.8763400771151325,0.0018926016192440153,-0.806752542834353,0.8669764887546231,-0.02318188984163683,0.6565917995206147,0.9841333150163476,0.023539833720632366,0.6449293648335269,1.0184125249497569,0.0,0.0,0.0,0.0
-0.001174321414279439,-0.23602516163525142,0.734031338081415,0.0003407408542398388,-0.522959084932534,-0.0012502378462818352,0.8523568010449173,-0.013082976478504232,-0.8133814043798178,0.8795521377940042,0.00011952148200268151,-0.8070255995201442,0.867491985680462,-0.022163415944182502,0.65518172878751,0.9857550393994317,0.024641315992573246,0.6453961475768695,1.019120546294911,0.0,0.0,0.0,0.0
-0.0009817185918169144,-0.23570342195357605,0.7337937992867858,0.0002116146990130414,-0.5229368416973144,-0.0008738234137061166,0.8523709587072396,-0.014858473137947102,-0.8167479919730599,0.8836651014521233,-0.0016457367509114286,-0.8073881715336052,0.8681193674323391,-0.021186067844980287,0.6535754775961157,0.9884443146926987,0.025736707794419625,0.6457580300159185,1.0203474942181983,0.0,0.0,0.0,0.0
-0.0007847349998888846,-0.23546585930190586,0.7334833887636001,0.00021371016279750102,-0.5228583411191411,-0.0004567955166514969,0.8524194394709461,-0.0166260900510535,-0.8203518308509119,0.8877389338693001,-0.0033967113553271416,-0.8087145598563376,0.8697553313191946,-0.020193427749713187,0.6515344878183422,0.9913760651923618,0.026844456077424406,0.6455912177431088,1.0224042976576095,0.0,0.0,0.0,0.0
-0.0005397704212618645,-0.23562497604578342,0.7329759094516829,0.0008424639788704607,-0.5225581315597756,0.00015857353939033756,0.852603227914153,-0.01835700561671392,-0.8245586352313117,0.8915653133191289,-0.005106764946883732,-0.8139526929171047,0.8758805621648028,-0.01914046701947269,0.6483455450937897,0.9941757266751003,0.0280100455003996,0.643834228709885,1.0271078477067348,0.0,0.0,0.0,0.0
-0.0002205438701581804,-0.23643048386347654,0.7324465519336326,0.002493173736828131,-0.5219777981034431,0.0010941580399399695,0.8529547263424846,-0.020002133628352497,-0.8282811104380374,0.8940556026421176,-0.006736573315914439,-0.8240503522373875,0.8882568789740696,-0.01802803453027264,0.6449622989619449,0.9941803874925678,0.029258518581670275,0.6411194371600867,1.0335783170595814,0.0,0.0,0.0,0.0
0.0011121422228537801,-0.23738581583621485,0.732621787596702,0.0014283044921206093,-0.522663224444271,-0.0008620075447558649,0.8525376066208388,-0.011495167375366287,-0.8274730692364112,0.9001222436370084,-0.019509797082980597,-0.8163921131764673,0.8754657737093553,-0.017541701836463083,0.6543130950915863,0.9914502620761525,0.030304115215715913,0.645100156967324,1.0337125594593832,0.0,0.0,0.0,0.0
0.0025426271050205482,-0.23897179257888254,0.732654047129617,0.0012727784871714484,-0.5230702734411524,-0.0025788553215017797,0.852284705120508,-0.002645755772935897,-0.8265612915363275,0.9051560846240053,-0.03249875257628417,-0.8158213519024089,0.8703474095388604,-0.01704100471870246,0.6631478908854738,0.9869418054189819,0.03145013005259046,0.6476232147801352,1.0364941268814873,0.0,0.0,0.0,0.0
0.004028256260102545,-0.24095902514160045,0.7324327437152379,0.0017361273514536937,-0.5232514010993082,-0.0041101717123955646,0.8521666876837682,0.006318978632159125,-0.8261989695837468,0.9097560531892016,-0.04550340564326169,-0.8172647792627711,0.865943450386604,-0.01652144925379373,0.670688976678009,0.9826362414927025,0.032668454205336594,0.648396521994034,1.042267536896804,0.0,0.0,0.0,0.0
0.0057119326892192115,-0.24309251775772725,0.7320731819765344,0.0024241188802438425,-0.5233798125295641,-0.005583705300680893,0.8520777650656587,0.015376039405550266,-0.8267134645338573,0.9156013331437983,-0.05850787455267295,-0.8191268139191648,0.8619053161006716,-0.016081568260280406,0.6782180843613947,0.9786570990717474,0.03393290893284047,0.6490234087187607,1.049305864268326,0.0,0.0,0.0,0.0
0.007669824944665714,-0.24527913262681444,0.7315812979354906,0.003185132706861134,-0.5235503789758202,-0.007054729065575884,0.8519595567876013,0.024553593398205457,-0.8282507187136149,0.9233775637203767,-0.07152128011161339,-0.8210733149484686,0.8582910795529616,-0.015794837981744865,0.6862238016957783,0.9753931998460387,0.0352413063014174,0.6500999773810014,1.0572960075364124,0.0,0.0,0.0,0.0
0.009950179419974964,-0.24749858517433537,0.7309523606816424,0.003980219156385163,-0.5238192506473418,-0.008543327033623352,0.8517772960521552,0.03389436707242848,-0.8307696050048182,0.9332862115368691,-0.08455663920682162,-0.822920707585284,0.8550577188526131,-0.015718381600159453,0.6950222641644072,0.9729820854325518,0.03660321539439084,0.6519629859137501,1.0661940949664994,0.0,0.0,0.0,0.0
0.01260359887682267,-0.24974989996501284,0.7301825131903841,0.0047999833871791315,-0.524233808047513,-0.010060477119700085,0.85150141600564,0.0434452474317073,-0.8341943946010268,0.9454581314783066,-0.09762824248890833,-0.8242889473563995,0.8520995911452619,-0.015913858338278537,0.704952885099509,0.9714300302512642,0.038038552922465524,0.6549506904680564,1.075964703445154,0.0,0.0,0.0,0.0
0.015642161614869914,-0.2520492246394015,0.7292776281402237,0.005659510717122715,-0.5248464687826219,-0.011610624067495127,0.8510989058585485,0.053258206416835215,-0.838112285182968,0.9594880597508806,-0.11075014168270123,-0.8247118404454542,0.8494708774907719,-0.01644618833744876,0.7163387756104403,0.9706008678253688,0.03957982454641327,0.6593605738805712,1.0865566828669462,0.0,0.0,0.0,0.0
0.019071726630849814,-0.25440685264670415,0.7282539518857603,0.006560911304694506,-0.5257212346799293,-0.013203716057865657,0.8505291292670263,0.06338501181847868,-0.8420111490215721,0.9748787805657135,-0.12393717401777131,-0.8234777982485619,0.8472217962115668,-0.0174000362071317,0.7295939700705906,0.9702776993504698,0.041276379085421505,0.6655796267583691,1.0978040991890474,0.0,0.0,0.0,0.0
0.02287375713530246,-0.2568308919306045,0.7271494081102847,0.007496365092719734,-0.5269239315419113,-0.014854330249412108,0.8497495653141891,0.07387703493601155,-0.8452134220061011,0.9909132530482292,-0.13720606218882636,-0.8198454389135587,0.8452230740268766,-0.018878322877669284,0.7452011731501308,0.9700431730940912,0.04320004212171284,0.6740449856324264,1.109347322684086,0.0,0.0,0.0,0.0
0.026884927273529292,-0.25938915420488307,0.7260362602996713,0.00854251954943608,-0.5285005492712611,-0.01655770136643594,0.8487284826758099,0.08479703035465577,-0.8461456981770026,1.0053285249709611,-0.15057226476522986,-0.8139799117407114,0.8429095202738339,-0.02096687369539832,0.7633534219586903,0.9690673189768444,0.04544696951120308,0.6848069084298233,1.1208456170780616,0.0,0.0,0.0,0.0
0.03099050027867138,-0.2621080159238068,0.7249990820291271,0.009703905255127643,-0.5304846893021911,-0.018332524649856907,0.8474407042257999,0.0961899962561646,-0.843752005225653,1.016736377941323,-0.16405478672671628,-0.8056137302674777,0.8391059762224087,-0.023795540017568076,0.7843748278754976,0.9665309211931129,0.048144681750773494,0.6980725367980254,1.1316987680111623,0.0,0.0,0.0,0.0
0.034972486897155826,-0.2650072375250069,0.7241026548787517,0.010970097494985143,-0.532864467912576,-0.020201898035760463,0.845888289972707,0.10807773164518499,-0.8368999852790296,1.0231976484518115,-0.17767048333779326,-0.7942484034130216,0.8322688063431407,-0.027483761228940296,0.8079889026074693,0.9619500586559342,0.05144107104409441,0.7134412271106305,1.14159735654475,0.0,0.0,0.0,0.0
0.038527000006583365,-0.2680350903035038,0.7232861866597994,0.012227261207822967,-0.5355669836052943,-0.02220893503966788,0.844112115396815,0.12042114946268855,-0.8251779901314156,1.022969278897001,-0.19143106372618326,-0.7789205623739492,0.8198658802626433,-0.03211287373999387,0.8327233425560937,0.9564443511269143,0.05547500123690459,0.7294455411700941,1.151260021599096,0.0,0.0,0.0,0.0
0.04137866715790885,-0.2710644252399524,0.7224270049597042,0.013261785562033689,-0.5384375091283865,-0.024403164818642496,0.8422076106009488,0.13311040828960355,-0.8093291447744108,1.0155144310579702,-0.2053383671361206,-0.7577387742160452,0.7976372476478486,-0.037669605511570746,0.8564703593291215,0.9520304041048053,0.06032413696359449,0.7441079070574944,1.1617582176599692,0.0,0.0,0.0,0.0
0.04350446416141249,-0.27344827702231056,0.7212386091763248,0.013140546014084202,-0.5412037228768424,-0.02690490907179963,0.8403582463821818,0.1455923989239044,-0.7949368379357747,1.0066352077344294,-0.2192878043853591,-0.7257682683307862,0.7559037563851012,-0.04388411672675517,0.8762191116654499,0.953747480131367,0.06588943865415942,0.7552519243241166,1.173874972634677,0.0,0.0,0.0,0.0
0.04468591734398415,-0.27473344353164647,0.7201665011641608,0.01128676315645288,-0.5435696661153049,-0.029660491087531785,0.8387639014199362,0.15699842633406158,-0.7839516685062482,0.9988803431871051,-0.2329377870854436,-0.6764489570731573,0.6803051899242576,-0.04969010369531865,0.8913115108527757,0.9595177620072562,0.07162669610445753,0.7624971201654044,1.183587533635963,0.0,0.0,0.0,0.0
0.04468450703544218,-0.27486237571922556,0.720076027819317,0.011285254176088642,-0.5434117599641543,-0.029757429891625806,0.838862800186709,0.15760008457599395,-0.7842671133608573,0.9986567638519716,-0.23386889434498548,-0.6763324467849322,0.6803002359558578,-0.05077772932354232,0.8915094702978259,0.9590470861963581,0.07275974489393629,0.7621977683960635,1.1839273335809166,0.0,0.0,0.0,0.0
0.04468450703544218,-0.27486237571922556,0.720076027819317,0.011285254176088642,-0.5434117599641543,-0.029757429891625806,0.838862800186709,0.15760008457599395,-0.7842671133608573,0.9986567638519716,-0.23386889434498548,-0.6763324467849322,0.6803002359558578,-0.05077772932354232,0.8915094702978259,0.9590470861963581,0.07275974489393629,0.7621977683960635,1.1839273335809166,0.0,0.0,0.0,0.0
0.041553944751652576,-0.2758360732224058,0.7231680358632209,0.011215474850350111,-0.5360967008474204,-0.028749973989554076,0.8435923064253208,0.15859175109736168,-0.7999065428776893,1.0022013957533782,-0.23530474506059562,-0.6951115377425345,0.6942514295843506,-0.06528692688387837,0.8253953093477792,0.9907648119776309,0.08960492750244112,0.7416884911512955,1.162390874043842,0.0,0.0,0.0,0.0
0.0381994016677973,-0.2773442911591773,0.7273225351274156,0.011336094770609024,-0.5301467712324616,-0.027479542849668376,0.8473846639112139,0.15921486275005353,-0.8025692808177509,0.993051418243952,-0.23550651004976358,-0.7029018493728377,0.698486771600327,-0.07986251496783661,0.7787332907214213,1.0044016074834143,0.10608539558975898,0.7308540007389037,1.1318976398590663,0.0,0.0,0.0,0.0
0.03512437729758038,-0.27901279916328803,0.7312723635402882,0.01139242080222767,-0.5256349153058971,-0.026183213439525965,0.8502309026926789,0.15976821030069474,-0.7989394590942089,0.9784161407096693,-0.23486231916653003,-0.7045853370438586,0.6973991866172217,-0.09451343579329573,0.7494078964319065,1.011533077369624,0.12200819629423951,0.7264305017903633,1.1016475894223434,0.0,0.0,0.0,0.0
0.032422780136066524,-0.280679752937517,0.7346845762978368,0.011334776344466257,-0.5222782814209819,-0.02496933730170124,0.8523341198121077,0.1603978161383184,-0.7922345067981356,0.9614776972542781,-0.23364766904195022,-0.7028882170198127,0.6932940314577305,-0.10925323514017005,0.7315689043679037,1.0161808591500887,0.1374327332390486,0.7255781292282495,1.0749603792732334,0.0,0.0,0.0,0.0
0.030070533693861142,-0.2823004005888821,0.7375897080519462,0.011179976494544046,-0.5197574550609383,-0.02386808978572927,0.8539072024079306,0.16117496964431982,-0.7839960607551375,0.9437367327356718,-0.23203853723623852,-0.699439024914982,0.6877558405281997,-0.12409485726941584,0.7203609117198475,1.0195949383971734,0.1524698603487718,0.7266658543646655,1.0521762749015644,0.0,0.0,0.0,0.0
0.027854781723222286,-0.2839405457548056,0.7401602873523705,0.011021861493963012,-0.5177230562450995,-0.02283195025576608,0.8551725309251693,0.1620985716621367,-0.7743683563164102,0.9244865482507049,-0.23010371942561075,-0.6949938592589829,0.6810732951765954,-0.13904952459007802,0.7120332861015471,1.0217698634846877,0.16726605927389554,0.728293604696036,1.0323741804883755,0.0,0.0,0.0,0.0
0.025595963211329783,-0.2856314186887549,0.7425564425767984,0.010850589606249543,-0.515892111635199,-0.02181493679585981,0.8563070140962088,0.16314720921795356,-0.7635700709755256,0.9032417140803557,-0.22789796617473246,-0.6897093210031365,0.6728943094258099,-0.15412865177013324,0.7048414118980981,1.0222570303652516,0.18193917485938885,0.7296208459871413,1.0142077287537214,0.0,0.0,0.0,0.0
0.023127629968539083,-0.28744260622335727,0.7449360686613101,0.010682438649642016,-0.5140099291632861,-0.020748301208903086,0.8574667260150651,0.16430429962648344,-0.7515666755921087,0.8791927274399192,-0.22546029904225573,-0.6837993392595038,0.6630672134955379,-0.1693432443816452,0.6980766309536307,1.0204032462809995,0.19659301569187784,0.730083277179632,0.9961656472097149,0.0,0.0,0.0,0.0
0.02029757545996205,-0.2894687465503747,0.7474541447756987,0.010539459729382118,-0.511823776785227,-0.01954482567446881,0.8588034356564216,0.16556130527646323,-0.7382673180902944,0.8514064810491967,-0.22283139287682205,-0.6776068386565001,0.6516838823332465,-0.18470454929229152,0.6916019401758187,1.015118886239869,0.21132445581295156,0.7292779538702993,0.9765489132842176,0.0,0.0,0.0,0.0
0.016938650372849647,-0.29180555419460413,0.7502435092027773,0.010406117864326048,-0.5090589898740865,-0.01810239682182907,0.8604783325387534,0.16690836510564366,-0.7237085494545024,0.8188656800913402,-0.2200641585039209,-0.6714370026107078,0.638638483019156,-0.20022425073595024,0.6854300787928871,1.0045444083126895,0.22623022910857424,0.7267491198118228,0.9535309066372194,0.0,0.0,0.0,0.0
0.012867326206299996,-0.29453705093271937,0.7533567876819943,0.010214346612923534,-0.5054224002193006,-0.016308549990399136,0.8626574613814239,0.16834187322323235,-0.7082426822714423,0.7805669512621602,-0.21723887092221417,-0.6656301864598687,0.6235482590081316,-0.215912482153599,0.677615639748697,0.9895411278099515,0.2413989232205814,0.7218106839373608,0.9255434973113588,0.0,0.0,0.0,0.0
0.007883707219193781,-0.2977627882262579,0.7565004690580565,0.00992716808414016,-0.5006322515157003,-0.014045134478379906,0.8654891878432878,0.1699323929455771,-0.6929404486544666,0.7354683717350955,-0.21449784420988197,-0.6616241384320064,0.6065805391530859,-0.2317915202114231,0.6658101449076551,0.9691888386207598,0.25689010724862854,0.712364783881741,0.8939295316205886,0.0,0.0,0.0,0.0
0.0020850372880558375,-0.3013865689188284,0.759454301212833,0.009268564320417816,-0.4945530653769949,-0.011300641082744537,0.8690245420888728,0.17176149940830465,-0.6800843911393244,0.6858242117240828,-0.2120555016079289,-0.6603860317326021,0.5885129884013509,-0.24787013240089995,0.6478876156450245,0.9437848091680608,0.2726530796582351,0.6982600372262394,0.8584341437427642,0.0,0.0,0.0,0.0
-0.003939820745074346,-0.3050257715205265,0.7614753787576529,0.007813481988381624,-0.4872683316357655,-0.008270843062949583,0.8731781694700933,0.17412496516260118,-0.6765576102946026,0.6418020837788136,-0.21037652416559588,-0.6655789607829957,0.574358992272319,-0.2641608563551506,0.6261359291921026,0.9126305843768424,0.2884593751323394,0.6786891289685297,0.82371948403526,0.0,0.0,0.0,0.0
-0.009916966967296673,-0.30848090898860797,0.7621916743145671,0.0053828798756764785,-0.4787908117207397,-0.005085080291600128,0.8778977874299874,0.17721268813996738,-0.6869051572310668,0.6105549887937605,-0.2097340719575543,-0.6795148644688334,0.5673077655878674,-0.28062016447893123,0.6002124950036181,0.8760305343211928,0.30407331960084233,0.6527594878565088,0.7926797768428396,0.0,0.0,0.0,0.0
-0.015528637192326883,-0.31155552842254086,0.7614530945136488,0.0017474124794129413,-0.46893170668696577,-0.001872174856962403,0.883230715031232,0.1812994600233209,-0.7170763874570005,0.6016113493716333,-0.2104992948462304,-0.7050806856396431,0.5717703602556541,-0.29729550237046254,0.5737272984537812,0.8279147469497944,0.31932242544042544,0.6202485994729146,0.7657118553119029,0.0,0.0,0.0,0.0
-0.019717607180592636,-0.3136702554807285,0.7596296136949163,-0.0029768854033422705,-0.4593216754598324,0.0007402660790516915,0.8882647063866717,0.18617498253791992,-0.7634650330363975,0.6193436844702863,-0.2122902091396205,-0.7363071965239443,0.5856840115553907,-0.31388877145046584,0.5524195364724064,0.7794777644904964,0.3333296625621242,0.5890533000190066,0.7434418422170628,0.0,0.0,0.0,0.0
-0.01967152163667009,-0.31376755539587364,0.7590938177772837,-0.003338931287674285,-0.4593395446841011,0.0008382395954870897,0.8882540917899784,0.1864851993395648,-0.7644322510585015,0.6183602001775339,-0.21254722077573707,-0.7368613236490117,0.5854673651638385,-0.315057481132637,0.552495703048005,0.7795299088760581,0.33404164618022714,0.5894237485409858,0.7431218549448381,0.0,0.0,0.0,0.0
-0.01967152163667009,-0.31376755539587364,0.7590938177772837,-0.003338931287674285,-0.4593395446841011,0.0008382395954870897,0.8882540917899784,0.1864851993395648,-0.7644322510585015,0.6183602001775339,-0.21254722077573707,-0.7368613236490117,0.5854673651638385,-0.315057481132637,0.552495703048005,0.7795299088760581,0.33404164618022714,0.5894237485409858,0.7431218549448381,0.0,0.0,0.0,0.0
-0.020064456806380956,-0.31429112309381724,0.7614422397372531,-0.002998712545369698,-0.4622161651104087,0.00039253496731489474,0.8867621272641255,0.18669314907826456,-0.730668351118984,0.5813263176710616,-0.20807086573783323,-0.7120336983566825,0.5599883263339617,-0.3188650317746136,0.571870438909143,0.7625063803389942,0.3355944310490839,0.6093107026109668,0.7239122922292615,0.0,0.0,0.0,0.0
-0.0203365003619191,-0.3150823532414512,0.7630692038806173,-0.0023169736958310863,-0.46364186475869884,4.76378229948624e-05,0.8860196671669355,0.1878582529496628,-0.7063483280681276,0.5522055084471161,-0.20460575560877176,-0.7009405862584409,0.5497059066962764,-0.32078071894966637,0.5852677070079262,0.7465418746956605,0.3356141149797765,0.6217668591552739,0.7091263751579135,0.0,0.0,0.0,0.0
-0.02038772505393204,-0.31616335157999464,0.7634102838790251,-0.0012635735294658822,-0.4635740581707876,-0.00017881346842744283,0.8860572577428314,0.19010715845187864,-0.6957120925123207,0.5366845528144656,-0.20229434795734527,-0.7080821522442113,0.5606012633140443,-0.32101981211777114,0.5888695398943995,0.7388992381976618,0.3342574519450561,0.623077579071611,0.7059223064043784,0.0,0.0,0.0,0.0
-0.019909383674222816,-0.3177154899586335,0.7624718334606893,0.0004285794879480484,-0.46185889424434856,-0.0001919985034669018,0.8869532914779588,0.1936078362375016,-0.7019262993571176,0.5407044210925185,-0.20130106420623892,-0.7378702336918486,0.5999777748264336,-0.31957058733118526,0.5831652755551247,0.7388494754948495,0.33149039378261,0.6135993966681462,0.7142204606274247,0.0,0.0,0.0,0.0
-0.01842794679448935,-0.3199385872538494,0.7602744680065205,0.003081208570574371,-0.45827019202141484,0.00016740534310077414,0.8888075771694632,0.19855102286469536,-0.7284214784566948,0.5704519974085478,-0.202078869452309,-0.7932700425939007,0.672155153585724,-0.31649561005085763,0.5693897806256589,0.7444991171381562,0.32758141306095234,0.594508782454034,0.7328556955017935,0.0,0.0,0.0,0.0
-0.01257110886270552,-0.3224099018608395,0.7610805615965147,-0.0025031645841693774,-0.4722213022947841,0.0031253862032064594,0.8814709341703578,0.19640612580089145,-0.6842863004444606,0.5490790068510202,-0.19505357856608033,-0.7318876062099657,0.6464768176182397,-0.3053208346863418,0.6020742282865734,0.8006574592481807,0.3115444249679367,0.6236400496852798,0.807489253767055,0.0,0.0,0.0,0.0
-0.005838039031570265,-0.32542761036525725,0.7604864437988444,-0.0064679840476614256,-0.4840547507825849,0.006256374708665534,0.8749914406453777,0.1963855358367952,-0.6576199896681622,0.5474525539996226,-0.19024728002601798,-0.697036272804529,0.6515589957741839,-0.29340032299258206,0.6365789481622527,0.8446258262178005,0.29528526062474086,0.650639150299375,0.8737621472462458,0.0,0.0,0.0,0.0
0.001149730341846589,-0.3286977919427297,0.758650868876252,-0.008854572773420747,-0.4932505299401527,0.009182486639955082,0.8697937647476358,0.19806476458945857,-0.6493719321530546,0.5654387314823324,-0.18717388070356866,-0.6890837795807749,0.6859612080886116,-0.2811352227942294,0.6666095664718067,0.8804981948240329,0.27928674957950606,0.6716616243267702,0.9231067659551033,0.0,0.0,0.0,0.0
0.007968748263270103,-0.33205000984610716,0.7558408252979167,-0.010008096484311448,-0.5002066443398905,0.011805546218040298,0.8657677402406957,0.200839572335726,-0.653887620431931,0.5947481557765982,-0.18526858757038384,-0.6996335838413746,0.737412158719287,-0.26853977024568104,0.6898097912325771,0.9126237343889099,0.2635787799369189,0.6885593104951967,0.9592359964752588,0.0,0.0,0.0,0.0
0.013896147217398108,-0.33513492112425314,0.7528816015570213,-0.01044105945106186,-0.5053861934753213,0.013983141418617869,0.8627167852071336,0.20394714899444602,-0.6618251751375971,0.6224315709831584,-0.18385826674115247,-0.7155402637825592,0.7871478190192936,-0.2555968972190734,0.7074169705376147,0.9383208779532142,0.24814506161066452,0.6994385130312162,0.9858514553043521,0.0,0.0,0.0,0.0
0.018765866205785024,-0.33785872363843533,0.7501287262429955,-0.010474874944089593,-0.5092006635580995,0.015745879212921664,0.8604400202888688,0.20702170151170063,-0.6697487865341305,0.6448704180737564,-0.18266174796791312,-0.7319825244943327,0.8300168310549692,-0.24231309957601627,0.7199626294335739,0.958402777331393,0.2329537963158134,0.7063070690345574,1.006433239785552,0.0,0.0,0.0,0.0
0.022670341423547784,-0.34021954873303534,0.7476379905777238,-0.010345549859412998,-0.5120179706823139,0.017175623446265473,0.8587406856878878,0.20990411431323885,-0.6769637914347244,0.6623419080269141,-0.18158114575829928,-0.7473738686078456,0.8656503851722424,-0.22876405780930847,0.7279716847395474,0.9748893985774401,0.21799696938142946,0.7113550391717931,1.022660992275998,0.0,0.0,0.0,0.0
0.025808822086680665,-0.34228041631305056,0.7454139556385836,-0.010161212018190025,-0.5141505439291466,0.018370471684007107,0.8574429973577201,0.21252821417493045,-0.6832459431507791,0.6757733533001606,-0.18058184858161194,-0.7612665571448172,0.8952450126736358,-0.21502500040330172,0.7325759152070509,0.9888506997808835,0.2032662280049734,0.7158984995514767,1.0352829304837508,0.0,0.0,0.0,0.0
0.028369854116530032,-0.3441164320366814,0.7433520791133035,-0.009968309523156346,-0.515849725099167,0.01941743780655779,0.8564009907919261,0.21487740134868527,-0.6886777979576775,0.6860119179753061,-0.1796699975085375,-0.7737467037840058,0.92010789570768,-0.201160518905464,0.7345105534203261,1.0016806930968631,0.18875323427386784,0.720687962304031,1.0440039637417984,0.0,0.0,0.0,0.0
0.03052802328653349,-0.3457995798788811,0.7413192292769359,-0.009774204805912526,-0.5173221117286563,0.020387653106127307,0.8554920462738621,0.21695653583122668,-0.6934209466264543,0.6937846393740646,-0.17886747113707813,-0.7851078381878785,0.941475976644682,-0.18722576976357574,0.7343691986800382,1.014661304532445,0.1744500971087767,0.7264927655852224,1.0476193062774377,0.0,0.0,0.0,0.0
0.03244125774253115,-0.34740032996788306,0.7391898162114645,-0.00955373943163604,-0.5187602067176417,0.021340386804782594,0.8546000011000259,0.21877001529140935,-0.6974448203418269,0.6994811684282252,-0.17818827536256757,-0.7956128272786761,0.9603866250702818,-0.17326805923237332,0.7327621632066932,1.0288322619917165,0.16034685648495636,0.7328129113915838,1.047927358033859,0.0,0.0,0.0,0.0
0.034277114027835995,-0.3489591114268351,0.7368370641592155,-0.009306850671914314,-0.5203714934403528,0.022317466479213427,0.8535975761652423,0.2203168669328821,-0.7008020135024913,0.70368130796792,-0.1776480638099419,-0.8053349142548656,0.977610252389748,-0.15934039016324472,0.7304127987348721,1.0452205677753312,0.14643364544593485,0.7400270421081343,1.046177439985622,0.0,0.0,0.0,0.0
0.03624781346469358,-0.3504548004454039,0.7341365575359124,-0.009118668703146066,-0.5224218213358549,0.023334841272616706,0.8523190574286088,0.2215843225091372,-0.703821815308908,0.7076441287965557,-0.17726841326723827,-0.813897842962854,0.993526526871102,-0.145513892153037,0.7284408116791644,1.0648917189559175,0.13270042679789212,0.749768106249708,1.0432659553427621,0.0,0.0,0.0,0.0
0.038503256697634096,-0.3519262736337363,0.7309739204876765,-0.008949253556676784,-0.5252195776249468,0.024419737427011954,0.8505692109195151,0.2225178240151205,-0.7056298046080982,0.71081895765953,-0.17700474978236533,-0.8207858278502687,1.0082207853370382,-0.13183363326152164,0.7280766330485678,1.088610043171823,0.11913705071289304,0.7649742071394776,1.0394581701820456,0.0,0.0,0.0,0.0
0.04108020514866901,-0.35334915467164507,0.7273848986052385,-0.00882208785997259,-0.529147183271518,0.02556576601117491,0.8480989451767236,0.22293235248963655,-0.7041234633697993,0.7112151977835287,-0.17671530513738865,-0.8239105878330807,1.0198859521735693,-0.1182976164778062,0.7312050721746337,1.116011320344696,0.105731783732282,0.7898804996168259,1.034415484229558,0.0,0.0,0.0,0.0
0.04397163787012214,-0.35466888959462406,0.7237684391226866,-0.008756824902418534,-0.5346614045949937,0.026754953948683206,0.8445973436456812,0.2224932994236337,-0.6954686660560958,0.7055302049296239,-0.1761507684719361,-0.8194703677879817,1.025523453708823,-0.10478649372266009,0.7414383226871489,1.143685650923023,0.09247138215158936,0.8301269042808458,1.026087663381299,0.0,0.0,0.0,0.0
0.046700822011660356,-0.35573496481995837,0.7213094958650242,-0.008803995674385653,-0.5420899896440511,0.027918075540870974,0.839810403511395,0.2205276889128536,-0.671826858224018,0.6855841735323747,-0.17483134871825168,-0.7997943418720314,1.0176590135593342,-0.09089123519151039,0.7633322789879607,1.1626875848047622,0.07934531072247424,0.8889387190516149,1.0060113920167533,0.0,0.0,0.0,0.0
0.04670288285774053,-0.35564863828525906,0.721068168185804,-0.008719420128299606,-0.5421733168536892,0.027831490831034648,0.8397603672016306,0.2205375182124848,-0.6719329893649234,0.6854512015216836,-0.17494075847782797,-0.8001973461107668,1.017442730188399,-0.09000874809114498,0.7636145551450331,1.162706589595588,0.07863351679862876,0.8890354472129413,1.0060753073758275,0.0,0.0,0.0,0.0
0.04670288285774053,-0.35564863828525906,0.721068168185804,-0.008719420128299606,-0.5421733168536892,0.027831490831034648,0.8397603672016306,0.2205375182124848,-0.6719329893649234,0.6854512015216836,-0.17494075847782797,-0.8001973461107668,1.017442730188399,-0.09000874809114498,0.7636145551450331,1.162706589595588,0.07863351679862876,0.8890354472129413,1.0060753073758275,0.0,0.0,0.0,0.0
0.04565648523925864,-0.3567299743376392,0.7219795398058609,-0.011176905601059411,-0.5401460450418819,0.024912628530768578,0.8411282231303895,0.205850756587026,-0.7265665614840828,0.7692218576618838,-0.16307122805329008,-0.8089708558754604,1.0228911782972523,-0.08102954214389245,0.7577693659521693,1.1529259613545846,0.07014117199388106,0.873376093734671,1.0012556598185245,0.0,0.0,0.0,0.0
0.04376792221363417,-0.3591333854498268,0.7232472293650125,-0.011356621279088304,-0.5377185136288883,0.02243910743528144,0.8427492590986778,0.1908368039476117,-0.7597302145872075,0.81400869834473,-0.15042504233234089,-0.8223005535825162,1.0320820772105805,-0.07321073993560788,0.7491954240077302,1.1385271078331793,0.06285693950445786,0.8551832848298231,0.9989094309779638,0.0,0.0,0.0,0.0
0.041115401953844354,-0.3622849258018582,0.7242583926891093,-0.010183819897347552,-0.5351106207746116,0.020327606690050265,0.8444759924075775,0.1759074571521063,-0.7814803576724698,0.8381172469877158,-0.13760779634583906,-0.8377202166975469,1.0406851063036069,-0.06668082155350842,0.7371266226961313,1.1250376268065907,0.0568921522850127,0.8333264571130239,1.0022307948740656,0.0,0.0,0.0,0.0
0.03761864912305347,-0.3654467470460862,0.7252200498023692,-0.008777774704412775,-0.5327014092152114,0.018424380875166013,0.8460571502450253,0.16115404186384524,-0.7962309671659301,0.8506363423988752,-0.1250570379500291,-0.8482847346717374,1.0407561557352447,-0.06126822390121406,0.7234105078095674,1.1127455166744926,0.052091962771905045,0.8100500737627426,1.0072340804719817,0.0,0.0,0.0,0.0
0.0335058711011948,-0.36840968834671733,0.7262950621576417,-0.007482553048083936,-0.5306419755637275,0.01664224703318455,0.8473996346372787,0.1465974930399975,-0.8065210792332763,0.856769105097714,-0.11293289341595106,-0.8525684880350172,1.0319435765272802,-0.056782335442318706,0.7099733660652132,1.100479599806839,0.04827680600243025,0.7874345818631027,1.011291055830835,0.0,0.0,0.0,0.0
0.029096847445963477,-0.37117036360477956,0.7275052078459722,-0.006343963733548041,-0.5289490531669441,0.014934168226302077,0.8484984525014346,0.13222851224218032,-0.8138670427282936,0.8593989875314476,-0.10127466073294625,-0.8516633266576156,1.0166760972019684,-0.05304524964770551,0.6980253054089581,1.0875565414631772,0.045278540224394155,0.766653693443783,1.0135647836459127,0.0,0.0,0.0,0.0
0.02465157831463447,-0.37376494050339065,0.7287828510718628,-0.00534179644567946,-0.5275913626377828,0.013275058980949859,0.849377767598018,0.11803081491716899,-0.8191701313519744,0.8602239722008166,-0.09008091625819398,-0.8471520851767216,0.9974467644541497,-0.04990488953280104,0.6879854659757133,1.0741006083115938,0.042951010276359815,0.7480519856404898,1.0143572542606412,0.0,0.0,0.0,0.0
0.020353540712409766,-0.37623040854072826,0.730053007392594,-0.004443671994571071,-0.5265244790028243,0.011652900774194279,0.850068489413386,0.10398607161466661,-0.8228405276923806,0.8603638298421123,-0.07932898552428158,-0.8404555235567545,0.9762848014208791,-0.04723824198749388,0.6798807904341989,1.0604849950135624,0.041172670011611824,0.7316011182081225,1.014252724535846,0.0,0.0,0.0,0.0
0.016346568514184708,-0.3786124931821224,0.7312483292586965,-0.003597250575928115,-0.5256880576162155,0.010066672327318983,0.8506102444576122,0.09007568524160543,-0.8248550011527427,0.8605403658563052,-0.0689795609842325,-0.833003647925627,0.9551509725612031,-0.04495191105874435,0.6735654440144052,1.0470698780574066,0.03984818603302905,0.7171023859489123,1.0138843700823934,0.0,0.0,0.0,0.0
0.012721552240235655,-0.38094719303073515,0.7323405936795871,-0.002757699495781438,-0.5250342752266329,0.008520289725928108,0.8510339650059341,0.07628196128010646,-0.825153779332378,0.861259015831413,-0.058988805963860455,-0.82582708602107,0.9355163881073914,-0.042975731515806824,0.668923399815399,1.0340010167846947,0.03890155768842897,0.7044039801803047,1.0136170897705008,0.0,0.0,0.0,0.0
