zhuoxili-jackie/tripod-support-walk/examples/trajectory_tripod_reorder_left_v0.05.csv
root_pos_x,root_pos_y,root_pos_z,root_rot_x,root_rot_y,root_rot_z,root_rot_w,FL_hip_joint,FL_thigh_joint,FL_calf_joint,FR_hip_joint,FR_thigh_joint,FR_calf_joint,RL_hip_joint,RL_thigh_joint,RL_calf_joint,RR_hip_joint,RR_thigh_joint,RR_calf_joint,FL_foot_joint,FR_foot_joint,RL_foot_joint,RR_foot_joint
0.0,0.0,0.72963,0.0,-0.5231245161092812,0.0,0.852256264656019,0.0,-0.81,0.872,0.0,-0.81,0.872,0.0,0.65,1.0,0.0,0.65,1.0,0.0,0.0,0.0,0.0
-0.0002907766314703403,0.0003438286897187094,0.7296033370278269,-4.866262345348704e-06,-0.5231192503932833,-7.146427088284673e-05,0.8522594937794162,-0.0006725481436549182,-0.8092888799614711,0.8703284915374664,-0.0006725481436549174,-0.8078255640204454,0.8678266398490776,-0.0027563854070639464,0.649327632415056,1.0017448630643775,-0.0027563854070639508,0.6486697582456482,0.9992315345811998,0.0,0.0,0.0,0.0
-0.0007652154252650732,0.000911762961353644,0.7295895214792788,-7.310178490077787e-05,-0.5232075622359527,-6.990321506850936e-05,0.8522052784328323,-0.002070151852088947,-0.8077162434297297,0.8672000796999939,-0.002068991694931949,-0.8032903029247348,0.8601303524510693,-0.0061712769262032355,0.6482537200878918,1.0043991404387949,-0.006141789747660078,0.647288871765043,0.9980029807302697,0.0,0.0,0.0,0.0
-0.0011886965200665707,0.0015493909886002857,0.729549413507831,-0.00016373449185603918,-0.5233471396795208,-4.125039281896291e-05,0.8521195590283592,-0.003699965343109549,-0.8064083415927604,0.8646226453177422,-0.0036945853579615838,-0.7985068174221593,0.852270869239947,-0.009753139235908162,0.6472799133445605,1.0075398563066895,-0.009657404843307921,0.6461490302770098,0.9968503763765395,0.0,0.0,0.0,0.0
-0.001170986293164108,0.0020743922490113805,0.7294600308460335,-0.00021771145542665333,-0.5234603689376529,-2.1565672003139066e-05,0.8520499951812102,-0.005045033897326537,-0.807448974293441,0.866330696262404,-0.005033363106176508,-0.7967569017678059,0.8496922289524227,-0.012890205487950529,0.64733919716158,1.0103101276330342,-0.012705100299309697,0.6459726059764452,0.9960766800343006,0.0,0.0,0.0,0.0
-0.0006552776081225602,0.002397436303972426,0.7293400773166736,-0.0002467939322093385,-0.5236139450648367,-1.940948161221927e-05,0.8519556181220154,-0.00585433883502256,-0.8104867355396013,0.8721844382083189,-0.005837247332851051,-0.7981542181241953,0.8530099941803562,-0.014987829211606605,0.648834736154698,1.012344607373826,-0.014721580154410767,0.6472025247596116,0.9959168496314771,0.0,0.0,0.0,0.0
0.0004040457166654852,0.002490454629043851,0.7291963431754135,-0.00025268326408661604,-0.5238252277063556,-3.741835484816986e-05,0.8518257248812221,-0.0060503555517669744,-0.8155392031208188,0.8823720992956571,-0.006030927387122635,-0.8028711320059294,0.8626607468824429,-0.015869700221606328,0.651982446335195,1.0134759055239286,-0.015556274519489818,0.6500593158903051,0.996387561245374,0.0,0.0,0.0,0.0
0.002047210797059592,0.00237250335231384,0.7290425168044917,-0.0002447390132595628,-0.5241045955488064,-6.040392551064498e-05,0.8516538671190328,-0.005714359015472155,-0.8227126838528547,0.8971710629760093,-0.00569593524869169,-0.81082952856629,0.8786793448890651,-0.015488373930749701,0.6569697818410118,1.0135694615243114,-0.015173935721535945,0.6548324834925434,0.9972524799416563,0.0,0.0,0.0,0.0
0.004305584810517928,0.0021037251003534914,0.7289052905893376,-0.00024274641893839614,-0.5244645571783013,-5.373415334320299e-05,0.851432244192446,-0.005075306346961621,-0.8320974996288353,0.9168256988523698,-0.0050596604536588975,-0.8216260202049164,0.9006403781077019,-0.013854213947826183,0.6639888077487673,1.0124626025635355,-0.013584134507451313,0.6619351811597262,0.9980086310760519,0.0,0.0,0.0,0.0
0.007194538881542461,0.0017837990899558297,0.7288259781121159,-0.00028030816572528023,-0.524929406393123,4.202522929007872e-05,0.8511457207581883,-0.004522009895501443,-0.8436812233770238,0.9414284534046881,-0.004508550749693003,-0.8344575740153961,0.9275958212264819,-0.01096525205378043,0.6732282601757543,1.0099634601027991,-0.01077392323322552,0.6719320260268187,0.9979097909882287,0.0,0.0,0.0,0.0
0.010694444451884225,0.0015514022378986777,0.7288329811031959,-0.0004100276648556857,-0.525540683792524,0.0003396348137381326,0.8507683034789164,-0.004683035268168642,-0.8573708860327645,0.970800689781924,-0.004668730442581182,-0.8480862720879752,0.9579778840020857,-0.006559785995424712,0.684610978584562,1.006099459993787,-0.006465670339098797,0.6854472890620055,0.9962780181163694,0.0,0.0,0.0,0.0
0.014052748254515945,0.0013693218675370313,0.7285734089306389,-0.0004732555747473682,-0.5253602586665648,0.0004046734176714711,0.8508796688618115,0.002536595610764386,-0.8509228861739748,0.9423485043846197,-0.004371344206556849,-0.866170776355951,0.9906884498370115,-0.004257022182974496,0.6929993363686886,1.0032569497031987,-0.004170262784242429,0.6947067029383643,0.9948320127423699,0.0,0.0,0.0,0.0
0.01723826373319872,0.0014405795301169419,0.728116988751967,-0.0005801497922697877,-0.5252165365472524,0.0005729543908399505,0.8509682278950215,0.008159918698085836,-0.8526141401828093,0.9226261136756819,-0.004982790653908657,-0.8824690531566802,1.0197086580640367,-0.0027778906630709153,0.699955459246909,1.0030115741086976,-0.0026850955954619295,0.7028968558480534,0.9944730087683458,0.0,0.0,0.0,0.0
0.019928429750226385,0.0017319336357587108,0.7276498016484211,-0.0007301978189211414,-0.5252171462235603,0.0007911724935847418,0.8509675611737558,0.012368353801155987,-0.858709891804965,0.9100309451913322,-0.006289950160091512,-0.8946889407767654,1.0419962364546689,-0.0023054326114883266,0.7057701299581653,1.0042674724305964,-0.002198827972648824,0.7100268260976556,0.9942140591578738,0.0,0.0,0.0,0.0
0.021990881451460942,0.002221031961548249,0.7272613652533261,-0.0008968051532067239,-0.5253006019763813,0.0010195733123150553,0.850915644334989,0.015519343025198798,-0.8668484216478874,0.9015558275807738,-0.008148233353346097,-0.9027253196751418,1.0572976271239174,-0.003225612510295236,0.7103947622191472,1.0063361660823313,-0.0030991858190569386,0.715702976483691,0.993430752026943,0.0,0.0,0.0,0.0
0.02342853471266864,0.0028445458724185692,0.7269700723335282,-0.0010609154526922558,-0.5254156219567514,0.0012318076366898132,0.8508441580643006,0.017956855593101357,-0.8758564372746679,0.8951793457252902,-0.010326046265636,-0.9072025419634591,1.0664761309225392,-0.005451673105809891,0.7138046776880836,1.008868466785118,-0.005291639076879457,0.7197358104035013,0.9921537926500206,0.0,0.0,0.0,0.0
0.024327011827346454,0.003522546183552493,0.7267710797876936,-0.0012096970091431836,-0.5255356999700234,0.0014117732428088297,0.8507695173115186,0.01999101230112426,-0.8851826218265041,0.8897333986630768,-0.012566424775862095,-0.9089605641836164,1.0708482305567701,-0.008584278747334095,0.716138993454096,1.0115535848256638,-0.00835899966469989,0.722264759923918,0.990588038543567,0.0,0.0,0.0,0.0
0.024806723685823436,0.0041793327010359845,0.7266489496492222,-0.001333923384135767,-0.5256500708428316,0.0015496428828135323,0.8506984320417353,0.02188690277858206,-0.8945862607663563,0.8845969961953408,-0.014639421406391911,-0.9088549102293366,1.0718187670370665,-0.012129482257176735,0.7176241691671207,1.014125023261104,-0.011795744587998612,0.7235995071940636,0.9889652382923408,0.0,0.0,0.0,0.0
0.024989999560037803,0.004755009439921339,0.7265829731476335,-0.0014278650015443256,-0.5257560887538516,0.0016408778634277828,0.8506325904052976,0.02384890683268666,-0.9039755651183533,0.8794677220195182,-0.016373818391268044,-0.9076474884174283,1.0706643224480241,-0.015632121990692097,0.718491895577334,1.016400076395712,-0.015152735483636055,0.7240783666422467,0.9875029873067366,0.0,0.0,0.0,0.0
0.024982123983987133,0.0052095810636096805,0.7265472954315861,-0.0014888639710141204,-0.5258543256857635,0.001684297987564113,0.8505716751584994,0.026020696668495016,-0.9133304131619729,0.8742079720864134,-0.01766318451546805,-0.90596436054137,1.068424856704541,-0.018754763087551238,0.7189184816873606,1.0183263056154275,-0.018113288052653234,0.7239647205497739,0.9864210600220572,0.0,0.0,0.0,0.0
0.02486449813990792,0.0055272098563000135,0.7265104418604718,-0.001517229896582693,-0.5259434639754824,0.001682123807148455,0.8505165143454939,0.02848701074334209,-0.9226799777698457,0.8687404901026234,-0.01847584193504941,-0.904293531569243,1.0658716808597393,-0.021326199046320896,0.7189909140604809,1.0200076217076728,-0.020529542660003786,0.7233980873540491,0.9859395971604159,0.0,0.0,0.0,0.0
0.024718182210803203,0.005738730017489296,0.7264859777037282,-0.0015248020373695823,-0.52602750150612,0.0016581994879207372,0.8504645748133393,0.031184999827505444,-0.9320579925476942,0.8630932978476019,-0.01895651018460876,-0.9027964809423411,1.0635059764602592,-0.023317769251358915,0.718985329341669,1.0212879342645265,-0.02238845256369188,0.7227816114901353,0.9857359504506482,0.0,0.0,0.0,0.0
0.024598040734969965,0.00587812048037811,0.7264738574494344,-0.001521703810592617,-0.5261043982144074,0.0016301657789813786,0.8504170677711625,0.03404817409642403,-0.9414803043486161,0.8572684265372944,-0.019241469548716562,-0.9016037820302477,1.0616543989232468,-0.0248003637443914,0.7190421873061044,1.022178254627094,-0.02376616161136815,0.7223256253982171,0.9856225113399188,0.0,0.0,0.0,0.0
0.02453555401852501,0.005976640107026757,0.7264680689930658,-0.0015160487433330378,-0.5261711484867678,0.0016100818942206638,0.8503758179373502,0.03699327922896541,-0.9508781414077586,0.8512999628036079,-0.019444275445826276,-0.9007870777222301,1.0604767120992153,-0.025885641839317023,0.7192147429422587,1.0227717430835526,-0.024771976144244805,0.7221156393944823,0.9855035485638122,0.0,0.0,0.0,0.0
0.024543824227780633,0.00606108539279194,0.7264631389430639,-0.0015140029672942078,-0.5262240081078002,0.0016055636064370596,0.8503431208938439,0.03991761548379444,-0.9600036597938437,0.8453057592809686,-0.019654353479836052,-0.9003599755974431,1.0600017186062647,-0.026697050176983227,0.7195083915423106,1.023171608297712,-0.025522865839647996,0.7221660702056572,0.9853157444431537,0.0,0.0,0.0,0.0
0.024619300895172426,0.006150879600846343,0.7264548470506935,-0.0015191403374587745,-0.5262585607128831,0.0016194923639761677,0.8503217019067094,0.04271477768972713,-0.9683174030576314,0.8395690796585416,-0.019929195049810715,-0.9002902052625934,1.0601505528525785,-0.02735053191929705,0.7198878188582291,1.0234731760812235,-0.026127139946510138,0.7224302968743459,0.9850288569734189,0.0,0.0,0.0,0.0
0.02474279068477483,0.006253884150436295,0.7264398803695257,-0.001531816463078731,-0.5262716757531379,0.001649337389392742,0.850313504846585,0.045312065581604236,-0.9749009223305256,0.8346456316244103,-0.020281935982647076,-0.900505715735688,1.060751998446184,-0.027929227530005457,0.720282727699569,1.0237559830570555,-0.026661974227420993,0.72280818226338,0.9846649849009463,0.0,0.0,0.0,0.0
0.02488371289326385,0.006363174501229165,0.7264161784581729,-0.0015495753905473526,-0.5262663192799218,0.001687945594759202,0.8503167120828223,0.047713370228517016,-0.9785192361444905,0.8314328724075583,-0.020674684626821475,-0.9008917139078784,1.061565617351515,-0.02844800829505199,0.7206105864768163,1.024071513747133,-0.027140976811511775,0.7231804335636925,0.9843102148838295,0.0,0.0,0.0,0.0
0.025013520683769313,0.006461856111379978,0.7263850540467459,-0.0015705097441724273,-0.5262577144801919,0.0017290794640404759,0.8503219165312836,0.04997739407452224,-0.9780591892335498,0.8310055611720619,-0.021044509487956727,-0.9012849370079551,1.0623381045197304,-0.028826785827351736,0.720830992922137,1.0244253157501049,-0.02748956634619612,0.7234970007791763,0.9840752163201052,0.0,0.0,0.0,0.0
0.025126578415236873,0.006547371083991989,0.7263467893373409,-0.0015936595890774813,-0.5262462183944241,0.001770756059897438,0.8503289024240318,0.0521031259607136,-0.9735223563031431,0.833341378957798,-0.021379384313764776,-0.9016684206099742,1.0630318158987573,-0.029065689292627678,0.720932197049373,1.0248174883093337,-0.027708244323759297,0.7237366980582077,0.9839737839623213,0.0,0.0,0.0,0.0
0.025240532980144302,0.006633331811019426,0.7263008468749318,-0.0016197122014717923,-0.526217400939923,0.0018157020913324962,0.850346592106026,0.05402278436259901,-0.9660307708818382,0.8373494217578829,-0.021724136860745983,-0.9021649815733227,1.0638178221216361,-0.029252780104624208,0.7209335407672188,1.0252454172547232,-0.027878971754908072,0.7239107535037888,0.9839139359741801,0.0,0.0,0.0,0.0
0.025373970915731164,0.006727565672426458,0.7262500114294898,-0.0016509022722769474,-0.5261691580642751,0.0018683644449079943,0.8503762701521723,0.055715505787568134,-0.9568217790798784,0.8421245266033471,-0.022111420014392896,-0.9028303754512279,1.064826133481552,-0.029403834925266437,0.7208943097440749,1.0256747906563124,-0.028016105604045282,0.7240966787269459,0.9838155427268453,0.0,0.0,0.0,0.0
0.025531515489453968,0.006828950783662672,0.7261980582508994,-0.001687662520892606,-0.5261053959641327,0.0019297645685400467,0.850415510289734,0.05722734724478367,-0.9468068971471891,0.8470938242831068,-0.022540842049347413,-0.9036509767710091,1.0660737033379333,-0.029498828834916425,0.7208532162760669,1.0260669132078772,-0.028100947359795226,0.7243430576005883,0.9836488052315261,0.0,0.0,0.0,0.0
0.025699950902565206,0.006932266967046761,0.7261494656228265,-0.0017285167800151283,-0.5260309433973552,0.0019974451667226353,0.8504613271813337,0.05862183613028797,-0.9365146838121118,0.8519487099833415,-0.022991733011402202,-0.9045455386625877,1.0674409098140514,-0.029522733024778567,0.7208049557415942,1.0263947899566652,-0.028119725663987388,0.7246367253350376,0.9834168056688798,0.0,0.0,0.0,0.0
0.025849560309780285,0.007033957231339795,0.7261099099195395,-0.001771181847394837,-0.5259492338149113,0.0020672520682541453,0.8505116065247185,0.05993808760164505,-0.9261829815881218,0.8565416185079323,-0.02344271327332176,-0.9053653230244338,1.0686715555074413,-0.029491578853087078,0.7206991001365008,1.0266502152310357,-0.02808765578326584,0.7249049381516243,0.9831266654140431,0.0,0.0,0.0,0.0
0.025936917450021826,0.007136287874071926,0.7260864398256157,-0.0018136764472519256,-0.525861886226769,0.002135115050831538,0.8505653581445044,0.0611765302715209,-0.9158743216377196,0.8608061317081277,-0.02388705479359903,-0.9058945386695113,1.0693815677787972,-0.029465731504893157,0.7204463459919154,1.0268493129736296,-0.028061124269203652,0.7250274585860215,0.9827702762542713,0.0,0.0,0.0,0.0
0.025907976196120536,0.0072494251617447585,0.726086583280894,-0.001855091195308922,-0.5257693585056002,0.0021983416395387153,0.8506223060720325,0.06230783326046721,-0.9055643652811259,0.8647126913039328,-0.024341443386784387,-0.9058548283595715,1.069073112837919,-0.02955208076816655,0.7199240369245246,1.0270421045794458,-0.028139667968734208,0.7248477012379922,0.9823225554472366,0.0,0.0,0.0,0.0
0.02570176134552012,0.007391298929818185,0.7261146514924377,-0.0018957228753330201,-0.5256717922797384,0.0022562329491980916,0.8506823628411879,0.06330014650821024,-0.8951979559450289,0.8682547554411976,-0.02484750182601578,-0.9049259390468274,1.0671628686382153,-0.029897166014510226,0.7189724874662421,1.0273389834694187,-0.02845950860807616,0.7241727851077162,0.9817708948401129,0.0,0.0,0.0,0.0
0.025264605013108832,0.007588964557417679,0.7261809576361661,-0.0019391596273265988,-0.525571611357626,0.0023138275766920575,0.8507440080287568,0.06414697963169405,-0.8846981022054665,0.8714693027993099,-0.025484432008844593,-0.9027487456719039,1.0630611563951455,-0.030650767003908133,0.7174771636950993,1.0278106239090856,-0.029159132415598882,0.7228866759391633,0.9810108233410206,0.0,0.0,0.0,0.0
0.024554934844763916,0.007867522313873127,0.7262873132562462,-0.001990347868556432,-0.5254762658581748,0.002379131376799599,0.8508026047615292,0.06492892677795833,-0.8739881242970976,0.8744634644063614,-0.026333286304749595,-0.8990047279587131,1.0562507892061357,-0.03190889790136281,0.715327323819309,1.0285779264802861,-0.030325653070249325,0.7209056063508976,0.980009603319686,0.0,0.0,0.0,0.0
0.02356168216983954,0.008237972363329548,0.7264245379644122,-0.0020558490973019844,-0.5254032411273774,0.0024633978611566915,0.8508473067291885,0.06585524670815242,-0.8630099315900541,0.8774579045656095,-0.027445527151776946,-0.8934992896416595,1.0464547745531703,-0.033610174447382915,0.7124654888486806,1.029774086599204,-0.031898426760499685,0.7182518766786724,0.9788530982057225,0.0,0.0,0.0,0.0
0.02232803750074455,0.008680300830109759,0.7265656652136492,-0.0021443913611779333,-0.5253855813653426,0.0025809814058705013,0.8508576443883392,0.06724940026873108,-0.8518017887639533,0.8808141967751915,-0.028798917520088552,-0.8862959996318706,1.0338800858887938,-0.035405769022464846,0.7089334179089067,1.0315286342217278,-0.03355128536460772,0.7151200452634507,0.9778486231861291,0.0,0.0,0.0,0.0
0.020980890656212198,0.009127808950187905,0.7266608968466772,-0.002269635472257671,-0.5254762799658093,0.002750467138650805,0.8508007774318478,0.06937305796135992,-0.840679305320427,0.8849907842568189,-0.030261390729295262,-0.877882704767526,1.0195334868877364,-0.0365303592463868,0.7049358052024826,1.033939295686958,-0.03457956633331155,0.7119588639194497,0.9776107515797906,0.0,0.0,0.0,0.0
0.019766430423763,0.009465358479979945,0.726656189800098,-0.002453744916454603,-0.5257254684121819,0.0029914370225745065,0.8506454974331062,0.07200077747701113,-0.8304822708685449,0.8901190544560832,-0.03158294484640205,-0.8694400047560332,1.0056981271721284,-0.03581188817700904,0.7009718268415425,1.0368397711551052,-0.033911090941862794,0.7095851794983338,0.9788280114868072,0.0,0.0,0.0,0.0
0.019088828302914623,0.009551261744412136,0.7265465087701604,-0.002723480622629258,-0.5261415645426566,0.0032992265811077398,0.8503862368464521,0.07408073925492921,-0.8231694162154722,0.8951373324888576,-0.03239373589848652,-0.8631210793745955,0.9964684500473697,-0.0320587826061925,0.6981777223927712,1.0393225152241832,-0.030438859611964936,0.7093687338896667,0.9815544523942409,0.0,0.0,0.0,0.0
0.019095116513905788,0.009552937372271642,0.726543069984426,-0.002721036612662014,-0.5261363905731448,0.0033026459834221726,0.8503894325565928,0.07408597388190521,-0.8231580071993106,0.8951562024131413,-0.03240310156106316,-0.8631284749113941,0.9964365848777247,-0.03206725120803424,0.6981698219141753,1.0393190541008461,-0.030431313774474274,0.7093747031004223,0.9815481570604264,0.0,0.0,0.0,0.0
0.019095116513905788,0.009552937372271642,0.726543069984426,-0.002721036612662014,-0.5261363905731448,0.0033026459834221726,0.8503894325565928,0.07408597388190521,-0.8231580071993106,0.8951562024131413,-0.03240310156106316,-0.8631284749113941,0.9964365848777247,-0.03206725120803424,0.6981698219141753,1.0393190541008461,-0.030431313774474274,0.7093747031004223,0.9815481570604264,0.0,0.0,0.0,0.0
0.01991745757513696,0.009505342887961789,0.727988926738208,-0.002261859227910388,-0.5256922712195531,0.002695901759038736,0.8506675332270337,0.07569666588636378,-0.8235208013061842,0.9021927966521088,-0.03092404265364491,-0.8666997569432833,1.0057470066824952,-0.03973374247311899,0.7086261195915288,1.0252524177851188,-0.02296411012621373,0.6932385731592138,1.0070912398206668,0.0,0.0,0.0,0.0
0.021341927094482422,0.009521731108849104,0.7296975359217888,-0.0020385265946289335,-0.5254445796779886,0.002375384608725342,0.8508220704967081,0.07655997347465353,-0.8259242103049763,0.9145019911627379,-0.030256613723837613,-0.870018422705036,1.0180610021465015,-0.04409694803216152,0.7217035115180833,1.007983429038383,-0.017096577042976353,0.6825003911570772,1.0273518283784404,0.0,0.0,0.0,0.0
0.02278912730191713,0.009775783315490399,0.7312874654071508,-0.0019882340935339702,-0.5253676745959222,0.0022940872426304615,0.8508699022639041,0.07625766824286277,-0.8289784528640333,0.9275287622662675,-0.03075008703740725,-0.8714654920743465,1.028236141332094,-0.04739706908005441,0.7342308178298702,0.9921768696138885,-0.014283258943989127,0.6749426906737835,1.0443865173522977,0.0,0.0,0.0,0.0
0.024111860594683638,0.01028323023569838,0.7326607804213204,-0.002039009564204052,-0.5253189184303457,0.0023816985083632714,0.8508996438425533,0.07490086850821956,-0.8329193707506588,0.9406902742542951,-0.03230586586195001,-0.8717394103881277,1.0360519812429332,-0.0507501270796267,0.7451416930814412,0.978940640497848,-0.013117011822774208,0.669451227853729,1.0595830984106318,0.0,0.0,0.0,0.0
0.025195617719016024,0.01097392767189357,0.7338536404153901,-0.002137422836968399,-0.5252758950779151,0.002550850242868127,0.850925471846242,0.07284998228207265,-0.8368220853349668,0.9525604442314715,-0.03452682832224558,-0.870786194554979,1.0410832240008074,-0.05461691031229839,0.7543741732714618,0.9680777834631494,-0.01282615150119341,0.6650102161919386,1.0738023162847776,0.0,0.0,0.0,0.0
0.02599330691889344,0.011731535588257671,0.7349313826519538,-0.0022467795668726395,-0.5252521495632182,0.0027268558209488096,0.8509393019587991,0.07056603205927509,-0.839736177687628,0.9619990582070219,-0.03691731274269277,-0.868611048884111,1.0433825595278483,-0.05888137605700292,0.7622417491559849,0.9588656989486242,-0.012978444031840194,0.6608733941783449,1.0875389490740077,0.0,0.0,0.0,0.0
0.026519647689835137,0.012480118876625793,0.7359301880540561,-0.0023477630369776272,-0.5252406305601484,0.002875491594595506,0.8509456501831297,0.0683287183268591,-0.8414209724481904,0.9688362153194291,-0.03919354233773893,-0.8654973626748054,1.0434406979614768,-0.0633071655402711,0.7689745538489922,0.9507648576880793,-0.013344529385157847,0.6566710617860689,1.101041224758107,0.0,0.0,0.0,0.0
0.0268243794851611,0.013179662232207262,0.7368685088360831,-0.0024334440279972715,-0.5252331541426906,0.0029873479163573828,0.8509496388693693,0.06627425132895878,-0.8420017329718995,0.9734172747856032,-0.041231012067607244,-0.8617851239732244,1.0418825326356531,-0.06767127034444412,0.7747849844480299,0.9434122807700661,-0.013795870343860374,0.6522974363321701,1.1144611575215428,0.0,0.0,0.0,0.0
0.02696686451247516,0.013812362618537135,0.7377568567517021,-0.0025028785486720553,-0.5252262977412582,0.0030642524463546537,0.8509533959723804,0.06445498653120234,-0.84171492852966,0.9762413987502363,-0.04299307135789876,-0.8577645069745482,1.0392885790762667,-0.07181254188718737,0.7798817387655305,0.9365610411877978,-0.014244304087883424,0.6477678428620252,1.1279037868319728,0.0,0.0,0.0,0.0
0.027001268033606956,0.014371308216552118,0.7386037244001763,-0.0025575576634419075,-0.5252271490640338,0.003112121008277553,0.8509525342154491,0.06288186935632936,-0.8407474122542361,0.9777414847451394,-0.044481069999835046,-0.8536101144261372,1.0360933029106878,-0.07562599726457292,0.7844799776489367,0.9300349461651409,-0.014592615495826288,0.643145798057224,1.141473988753449,0.0,0.0,0.0,0.0
0.0270327070276413,0.014891754232112768,0.739408263198126,-0.0026111443177977115,-0.5252156231487402,0.0031573372972589627,0.850959318855504,0.06142087830855281,-0.8398594008436557,0.9791675292558976,-0.045861891746266766,-0.8497415250008408,1.0331216200921922,-0.07911691911230101,0.7888048698799376,0.9237342192825924,-0.01490831964761936,0.6386802062557007,1.1551606312723055,0.0,0.0,0.0,0.0
0.027122643555438752,0.015387436917587271,0.7401720352894878,-0.0026707972427746163,-0.5251934320597508,0.003213211448415345,0.8509726206145387,0.06001324521591267,-0.839385831170163,0.9811404492670515,-0.04720898849278772,-0.846344082505967,1.030818733988825,-0.082272588570455,0.7930428448750979,0.9175841835147959,-0.015181709554661714,0.6345241128716459,1.168958621428313,0.0,0.0,0.0,0.0
0.027284481873143758,0.01585035621588992,0.7408915767829376,-0.0027353255547863478,-0.5251711685564597,0.0032783339627007425,0.8509859071909363,0.058682074406662815,-0.8393118915853964,0.9836910586055064,-0.04850017754589314,-0.8434525542323889,1.0292903957484387,-0.08507231145096722,0.7972564050992564,0.9115946438425333,-0.015356558736926738,0.63072702722106,1.1827835067907178,0.0,0.0,0.0,0.0
0.027522685936291005,0.016275841429799456,0.7415514268133534,-0.002803415455022351,-0.5251498751491284,0.0033511188757140427,0.8509985425927133,0.0574430277655378,-0.8396831729099142,0.9868509448119693,-0.04972270782149923,-0.8411477933566677,1.028619145038166,-0.08751667069792456,0.8013915986140887,0.9059039965178458,-0.015412357502582196,0.6273701010689555,1.1963631090564713,0.0,0.0,0.0,0.0
0.027823234035150655,0.016660222905443067,0.7421215080016769,-0.0028715690793539206,-0.5251209629270559,0.003426875880102939,0.8510158546744511,0.05631533759431208,-0.8405572463035409,0.9905557682212757,-0.050860149875993486,-0.839538412195627,1.0288021411100818,-0.08964124891730783,0.8052393863773437,0.9008194268283043,-0.015322503356983168,0.6245500830578645,1.209093569458671,0.0,0.0,0.0,0.0
0.0280694421035013,0.016950553047752896,0.7425675446286752,-0.00291760451124412,-0.5251123351892872,0.003472291330034244,0.8510208377054518,0.05549147705838035,-0.8411370184759591,0.993390727605383,-0.05169023894501674,-0.8383018427159505,1.0290234161361338,-0.09142195379434641,0.8083931136002275,0.896798889723834,-0.014726942087852279,0.622185780864524,1.2199840295177329,0.0,0.0,0.0,0.0
0.028208796005129086,0.017151920159925328,0.7428358655934938,-0.0029323806256878813,-0.5251096352631653,0.0034788834783133463,0.8510224259485738,0.05497222615822726,-0.8414357531298059,0.9950564960950408,-0.05221111464282883,-0.8374916584295993,1.0290016746004755,-0.0930216611252419,0.8103951505287207,0.894491215651773,-0.013291591569003443,0.6207062437925145,1.2271356362598496,0.0,0.0,0.0,0.0
0.028213745303897586,0.017289939471527863,0.742881972715435,-0.002910459215403531,-0.5250907882765901,0.0034465317749728832,0.8510342617738423,0.05468893166244724,-0.8416617620264457,0.9955943652744879,-0.05249642717398,-0.8372101245670204,1.0286007805321342,-0.09468357315035582,0.8108844584747574,0.8944584246061592,-0.010539692128498111,0.6212405517785157,1.227614955792266,0.0,0.0,0.0,0.0
0.02808425696765229,0.01736981670188627,0.7427067703688528,-0.002853783528638318,-0.5250543007784703,0.003377270423187652,0.8510572431970084,0.05462437978484347,-0.8418426888123514,0.9950403198751536,-0.05256368349702288,-0.8374442451970585,1.0278033712845454,-0.09641529361963369,0.8098535228116566,0.8967087879014721,-0.0064864822117146285,0.6237797827908269,1.221410345963521,0.0,0.0,0.0,0.0
0.027846154022556583,0.017376719920965907,0.7423576119789015,-0.002771005419491734,-0.5250190312768598,0.003275115716650433,0.8510796742627069,0.05481188070024786,-0.8418153811813283,0.9934104326700124,-0.05237499704750482,-0.8380564488363224,1.0266950436365017,-0.09799777124555131,0.8076524452795969,0.9006845774668074,-0.0016243726986029123,0.6271885962860219,1.2114312701497063,0.0,0.0,0.0,0.0
0.02756149451383166,0.017327610392667243,0.7418918107475635,-0.002676377957878116,-0.5249859165158695,0.003155872427874589,0.8511008547347594,0.05518104519226398,-0.841752620211899,0.9912625408967523,-0.05200762528389988,-0.8390228567617632,1.0256027481855445,-0.09934529660881539,0.8047411334498531,0.9057235190610642,0.003645490942959141,0.6310760641208017,1.1995162229462615,0.0,0.0,0.0,0.0
0.02730278597675658,0.017270882730995096,0.7413557612848382,-0.002587352751320974,-0.5249371459503287,0.003043596090150518,0.8511316202151719,0.05556404957317239,-0.8421159142022098,0.9895036444985841,-0.0516446232048081,-0.8404113133285247,1.0249254092557674,-0.10054429753220065,0.8015003825590049,0.9113277211023775,0.009018654135095183,0.6354217200313902,1.1866654915124828,0.0,0.0,0.0,0.0
0.02706285208270431,0.017227872845415895,0.7407876797201315,-0.0025078535766117583,-0.5248700067603604,0.0029418283407758937,0.8511736205497858,0.05589693165821413,-0.8428305813408428,0.9881234372941724,-0.051344130250483615,-0.8420151681174348,1.0244632026631384,-0.10169695819269946,0.7980931801980626,0.9171816295553882,0.014386236760728982,0.6401122682754238,1.173414003542014,0.0,0.0,0.0,0.0
0.026783682689325572,0.01721078786537754,0.7402138415083768,-0.0024346231053064727,-0.5247797521724112,0.0028461216083624785,0.8512298067572517,0.05614959024099552,-0.8435937298948583,0.9866301481440594,-0.051120280640360276,-0.8435053073161712,1.0236619006291536,-0.10291407788997158,0.7944618539387471,0.9231515566317319,0.019735555158846903,0.6449615969375249,1.159981020623301,0.0,0.0,0.0,0.0
0.026363798709422185,0.017216455296821264,0.739656592113127,-0.002357892062193372,-0.5246713178849716,0.002741762191535587,0.8512972050194663,0.05634794483522116,-0.8437939806199505,0.9840133182984642,-0.05091881736251894,-0.8443861392121663,1.0216268855390431,-0.10428968967354514,0.7904320272730906,0.9291903912342492,0.025119772792792185,0.6496956735417757,1.1464643312848466,0.0,0.0,0.0,0.0
0.02574175594754219,0.01727630437527528,0.7391306184313764,-0.0022770756759485505,-0.5245290352238781,0.0026294915908550353,0.8513854543668498,0.056401333364003596,-0.8432646691441205,0.9798987220459584,-0.050817509671997246,-0.8443440795778582,1.0177553485122126,-0.10601537327968873,0.7858377010385652,0.9353191713432945,0.030514320617404608,0.6541828597439555,1.1328510779166494,0.0,0.0,0.0,0.0
0.024844002224075422,0.017420278019889403,0.7386486363379811,-0.002189089627924705,-0.5243448665722872,0.0025082638483336726,0.8514994876089816,0.056224069805320825,-0.8417290514023471,0.9737418556048774,-0.05088486341615362,-0.8429784118901984,1.0113000422786118,-0.1082968797198598,0.780494138365811,0.9415998418455221,0.035987841371752954,0.6582553644795825,1.1191495296966072,0.0,0.0,0.0,0.0
0.023596830005410227,0.017676865330489865,0.7382179214076514,-0.0020882070907729594,-0.5241154532334662,0.0023755130344329856,0.8516413494017582,0.05573738135228193,-0.8388756187898072,0.9649425323579169,-0.051182303832582,-0.8398720324230929,1.0014765342501795,-0.11135212656631574,0.7742137876909423,0.9481375880418351,0.04173201705647642,0.661730073094839,1.1054112894334236,0.0,0.0,0.0,0.0
0.021950001087928304,0.01807254256900787,0.7378347229856541,-0.0019667429270749485,-0.5238418700927827,0.0022283391083859944,0.8518103436591815,0.05487248650490913,-0.8344795256879022,0.9530520376635023,-0.05176768332990786,-0.8347024539022403,0.9876579214033584,-0.11540317644246958,0.766856907556767,0.9550878768366767,0.04814739896444603,0.6644994234494999,1.0918167675896666,0.0,0.0,0.0,0.0
0.0199158218945509,0.018629751816729365,0.7374733586929871,-0.0018162415717451167,-0.5235251975022446,0.0020641284168271545,0.8520057559786012,0.0535817522616265,-0.8286405974684034,0.9381587529553368,-0.052695990547621585,-0.8274727962355022,0.9697526314189885,-0.12067138547669073,0.7583955730384031,0.9626858078381327,0.05601353436608046,0.6667349884836561,1.078808532382547,0.0,0.0,0.0,0.0
0.0176247627129108,0.019362776130107194,0.7370632570075284,-0.001626729410562281,-0.5231346302405304,0.001879927966824841,0.8522464304796868,0.05186151961805713,-0.8223133588694779,0.9216309305402414,-0.054019962134783335,-0.8190516332506715,0.9489601351696147,-0.12737213873283684,0.7488897014092805,0.97132639957949,0.06684576403475312,0.6692315332627955,1.0671760683638318,0.0,0.0,0.0,0.0
0.015373154985696013,0.02019120259514313,0.7365114048860735,-0.0013695796200294303,-0.5225862614921616,0.0016065297088629481,0.852583803865406,0.05014356054027013,-0.817306334825251,0.906340141722211,-0.055413076208887635,-0.81188790435316,0.9288957530103366,-0.1356883304286219,0.7388158564610837,0.9810645756623194,0.08326203589805602,0.6735589113361135,1.0579129260038196,0.0,0.0,0.0,0.0
0.013558045979372248,0.02093654908399144,0.7358007256772815,-0.0010045826221661148,-0.5217709792896558,0.001154393589457992,0.853084229932959,0.049157015613985625,-0.8156707069910634,0.895971602939536,-0.05627205259384589,-0.8093071214007139,0.91493329592273,-0.14527505616620306,0.7292219065911343,0.9908488633907679,0.10934047276594386,0.6809799343037714,1.0522040600729037,0.0,0.0,0.0,0.0
0.012389295385908342,0.021471050106862625,0.7351851537326545,-0.0006027015483781029,-0.5208077228209232,0.0005578350063112072,0.8536736152775448,0.04917210821668021,-0.8169656425608506,0.8914577240182033,-0.05631332417126017,-0.8112034147404817,0.9087933950192707,-0.1545451399471771,0.7220067534845108,0.9979428396029445,0.14249852189484874,0.688551439805215,1.051448681023891,0.0,0.0,0.0,0.0
0.01239627827995947,0.021477902880071516,0.7351677895917049,-0.0005859006509145075,-0.5208006273040978,0.000546169658409096,0.8536779632969271,0.049185945623075635,-0.8169802316936788,0.8914357844410387,-0.056305171335045284,-0.8112343217533595,0.9087312667763321,-0.15454123507236195,0.7219651063213649,0.9979138689517469,0.1424853156349573,0.6885639589062276,1.051444525450357,0.0,0.0,0.0,0.0
0.01239627827995947,0.021477902880071516,0.7351677895917049,-0.0005859006509145075,-0.5208006273040978,0.000546169658409096,0.8536779632969271,0.049185945623075635,-0.8169802316936788,0.8914357844410387,-0.056305171335045284,-0.8112343217533595,0.9087312667763321,-0.15454123507236195,0.7219651063213649,0.9979138689517469,0.1424853156349573,0.6885639589062276,1.051444525450357,0.0,0.0,0.0,0.0
0.011456717914190097,0.021416841578691316,0.7353144596827345,-0.0005210642782256747,-0.521032306261305,0.0005051863610145313,0.8535366477842555,0.049273258328654077,-0.8099723448273156,0.8801479657092391,-0.05592141298021765,-0.8050442782492309,0.8984525140065714,-0.15401553211857405,0.7203272600349758,0.9978443497141097,0.14153966993866562,0.6865983607180818,1.051738634253303,0.0,0.0,0.0,0.0
0.010105972819095475,0.021279688318103077,0.7354066144945961,-0.00046710408308598225,-0.521232067972484,0.0004969868104959718,0.8534147093500402,0.04942877808964122,-0.8009840183243317,0.8645687755152632,-0.05538795623448095,-0.7972292461774309,0.8845677822005733,-0.15210312106672483,0.716763000239909,0.9984438531123943,0.14111569434238802,0.6830857708379005,1.053115394476282,0.0,0.0,0.0,0.0
0.009060951277110336,0.02115127131257916,0.7354284137680457,-0.0004385425802921165,-0.5213008773567096,0.000501035068384193,0.8533726922695559,0.04959612216945732,-0.7945177852725965,0.8527219399850162,-0.05495728756183827,-0.7917398119506209,0.8742146684335318,-0.15019299255937366,0.7134595108520269,0.9990894789451257,0.1410270810700174,0.6799576141140307,1.054487498014468,0.0,0.0,0.0,0.0
0.008483894682829824,0.021068643827112033,0.7354227941929061,-0.0004276142501162822,-0.5213357757817756,0.0005078174537021212,0.8533513743807418,0.049709154182926235,-0.7909240597159497,0.846035549522053,-0.0547026628749576,-0.7887354999145997,0.8684627927418266,-0.14901111615903945,0.711536180395937,0.9995422958086994,0.14114676735359968,0.678186030806029,1.0554102398488752,0.0,0.0,0.0,0.0
0.008406569255984516,0.021070657572037944,0.7353873751549934,-0.00043470183852963745,-0.521378035303362,0.0005246969897301058,0.8533255416490161,0.04965088331659939,-0.7903520873438535,0.8449636576142403,-0.054737218351513454,-0.7881026334620221,0.8673615076255691,-0.14886963896108454,0.7112098977341887,1.0000101524886515,0.14132547459146005,0.6779763961888111,1.0558749069660875,0.0,0.0,0.0,0.0
0.008851176488053076,0.021181569484083777,0.7353170479470446,-0.00046104574130115597,-0.5214446920091057,0.0005557192840739942,0.8532847776612628,0.049351556337574085,-0.7929364608611678,0.8498043356266629,-0.05513198155193312,-0.7898151524539175,0.8709651262848337,-0.14996242303292123,0.7125887563213603,1.0006259164936977,0.14146650240630554,0.6794268944044846,1.0558777749792223,0.0,0.0,0.0,0.0
0.00983811067215105,0.021409892557334536,0.7352193715856967,-0.0005065913581428042,-0.5215410718762653,0.0005988846102710926,0.8532258171484122,0.04879490402000492,-0.798700755054354,0.8606670007095485,-0.055906241767128856,-0.7938679367449338,0.8793384573709238,-0.15243090400643244,0.7158283159614963,1.0013164855056527,0.14151403902590784,0.6826535948495188,1.0552986030623994,0.0,0.0,0.0,0.0
0.011388090836550728,0.021743163620083387,0.7351314050863393,-0.0005685940576550007,-0.5216643033379518,0.0006432524427008647,0.8531504073432902,0.04803705900384963,-0.807476831552696,0.877428223543527,-0.05700634452220492,-0.8002367685278474,0.8925654365398024,-0.1563609005023775,0.7212347696941165,1.0016377945700914,0.1414594549538989,0.6878760006002036,1.0537691069963508,0.0,0.0,0.0,0.0
0.013530420478627072,0.02213834350429293,0.7351734935182148,-0.000639553297097013,-0.5218076455332898,0.0006632896859293894,0.853062677698056,0.047243923639556956,-0.8187266643721891,0.8996906811444958,-0.0582633703812553,-0.808761123789027,0.910777323546577,-0.16174895982377127,0.7295565437442967,1.0002541090050763,0.14134865865451984,0.6956805980590527,1.0502215596592428,0.0,0.0,0.0,0.0
0.016355051935781278,0.02251351006786531,0.7357545121041931,-0.000675959020823105,-0.5219937384744525,0.0005764683853874467,0.8529488541272962,0.046802592202672036,-0.8308376117427444,0.9267357837350525,-0.059263893932492415,-0.8186895037517207,0.9342952381798343,-0.16900243154945074,0.7433542581614424,0.9930478211322823,0.14078407733712509,0.7080290413706128,1.0410591507687208,0.0,0.0,0.0,0.0
0.018946170569949905,0.023268398337113947,0.7368402049204791,3.0445796887234186e-05,-0.5227421549416857,-0.0002746457362034544,0.8524907994164486,0.04685645971660658,-0.8349128515358634,0.9463274090557532,-0.059561511610412295,-0.8237363212894357,0.9515725707718887,-0.13003271318848283,0.7242038892386556,1.013720187698965,0.12541306149242618,0.7197632899074781,1.0265948169420382,0.0,0.0,0.0,0.0
0.021303877596740912,0.024042948850900414,0.7378812713749571,0.0005752980539860407,-0.523416726843591,-0.0009139390988071528,0.8520761490663932,0.046347222855978795,-0.8388012686803609,0.9643317937043042,-0.06037476445479442,-0.8273630908801656,0.9662349111650073,-0.0985800026775539,0.708499367879521,1.0305085949384385,0.11167043875842882,0.7309913031793437,1.0122929951518964,0.0,0.0,0.0,0.0
0.02327192598436733,0.02467530676140005,0.7387580005661998,0.000892843665383753,-0.5238993860652663,-0.0012825141313950721,0.8517787220094952,0.04559216707096417,-0.8427136854011348,0.97977410052334,-0.06139464106052412,-0.8301980363440542,0.9782937652988533,-0.07850386606764846,0.6973861336666585,1.0452494443576625,0.10214231577871027,0.7408505454536533,0.9999533708938895,0.0,0.0,0.0,0.0
0.024802126182564495,0.025123800318539675,0.7394962452058012,0.0010793545794939628,-0.5242392083987459,-0.00149796784074446,0.8515690479717402,0.044955413495085986,-0.8457405539430707,0.9916713126020141,-0.062237104357467765,-0.8322096930414016,0.9876124454023264,-0.06566534401397744,0.6893428836510633,1.0591166506792562,0.09589471238485094,0.7490446542497025,0.9897569015159571,0.0,0.0,0.0,0.0
0.025929459793057767,0.025397234491211156,0.7401589952485147,0.0012050162967722033,-0.524480372546192,-0.0016405615612930693,0.8514201050640605,0.044587261230397746,-0.8474716012220619,1.0000195329372408,-0.0627449698974115,-0.8333991936141683,0.9944535322808145,-0.05663132557834458,0.6830285537807128,1.0725563270054252,0.09188131773791819,0.7557524825693565,0.9812048393314331,0.0,0.0,0.0,0.0
0.02672589077303612,0.02552451589444759,0.7407975344108222,0.0013072888371756766,-0.5246507977474553,-0.0017523086420358762,0.8513147249010075,0.04450604503088834,-0.8479100961111475,1.0053408784896878,-0.06290553351809895,-0.8338619345087035,0.999282985232767,-0.0494196867554302,0.677578051857567,1.0857440466632347,0.08933455166410455,0.7613106836474014,0.9737085524478583,0.0,0.0,0.0,0.0
0.027270276585978283,0.025541925293171754,0.7414402370160416,0.0014033908849773345,-0.524769028462873,-0.0018527953718290953,0.8512414841920396,0.044664075337256574,-0.8472665656702537,1.0083219237886887,-0.06277789651096674,-0.8337367443663742,1.0025840930790666,-0.0430297148886072,0.6724949274609243,1.0987652810862871,0.08771172630108982,0.7660422490142369,0.9668097908627283,0.0,0.0,0.0,0.0
0.02763162745100059,0.025487712624304163,0.7420967971441004,0.0014995522099548483,-0.5248499365378568,-0.001949184710674515,0.8511912218405104,0.04498150012517215,-0.8458111692297998,1.0096126557501124,-0.06245358822770462,-0.8331432306201754,1.0047405184805451,-0.03700980296211724,0.6675096536556235,1.111679315303504,0.08661804868174541,0.7701978716069975,0.9602128819684983,0.0,0.0,0.0,0.0
0.02787089717433777,0.02539420252675376,0.7427664313340008,0.0015974075270367804,-0.5249070840171725,-0.0020441740048568386,0.8511555808372635,0.04538453120622066,-0.8438119301603487,1.009791218511276,-0.062017726452269724,-0.8322019104195081,1.0060913893096322,-0.031183533482310836,0.6625042871126351,1.1245536906413465,0.08577718343370445,0.773979629383889,0.9537442415303075,0.0,0.0,0.0,0.0
0.028069286097423905,0.025268410379694514,0.7434424274076675,0.001699944363190203,-0.5249435895670433,-0.0021466734592556535,0.8511326158447277,0.045884417757102336,-0.8416285596022591,1.0095694006058624,-0.061479305567218485,-0.8312742600209517,1.0073227428843738,-0.025424162026933164,0.6575425847462345,1.1374437322255626,0.08507664408343543,0.7776076708866011,0.9473106866255354,0.0,0.0,0.0,0.0
0.028265653035654627,0.025130443010912475,0.7441147467573365,0.0018058814271461137,-0.5249690209829846,-0.002256085352466508,0.8511164290972887,0.04643149915261186,-0.8394614193348128,1.0093271886738595,-0.06089610786402951,-0.8304540117788882,1.0086530571055283,-0.01972193645144116,0.6526516424651205,1.1503927499138602,0.08438749711892304,0.7811823602806056,0.9408943105971136,0.0,0.0,0.0,0.0
0.02847944663805629,0.02500098860622438,0.7447694149270626,0.001912545471749922,-0.5249902406878495,-0.002369364825036111,0.8511027995857247,0.0469680837658596,-0.8374618123923382,1.0093044962959643,-0.06033035774738952,-0.829771312610958,1.010146555808159,-0.014093622146691583,0.647871029692254,1.163386241879985,0.08359626050385448,0.7847179497635671,0.934543588161605,0.0,0.0,0.0,0.0
0.028717191788464682,0.024899933358150696,0.745389120830843,0.0020166146787318076,-0.5250122614231438,-0.00248225793201018,0.8510886540285642,0.04743530629636271,-0.8357474346735417,1.0096444172374288,-0.05984328752058884,-0.8292216189706849,1.0117727860404215,-0.008566586570233686,0.6432554199611136,1.1763288880485467,0.0826049990952155,0.7881664226355165,0.9283637512738842,0.0,0.0,0.0,0.0
0.028975271200723976,0.024844605135436387,0.7459516833562908,0.0021144370322010845,-0.5250380171662323,-0.002590215710368022,0.8510722063777912,0.047780181752764196,-0.8344145695317778,1.0104122445993808,-0.05948902210322369,-0.8287908738141623,1.0134431055032054,-0.0031860745737320537,0.6388764165614327,1.1889745583876576,0.08133777809189367,0.7914168877409941,0.9225329518863286,0.0,0.0,0.0,0.0
0.029236380251727243,0.024849366190879067,0.7464270623812297,0.0022016232101841975,-0.5250684368062896,-0.0026877415138271583,0.8510529158463619,0.04795489096810634,-0.8335326681421089,1.0115680908473448,-0.05931466743141469,-0.8284491692773199,1.0149849702472016,0.0019542539900619616,0.6348283079197415,1.2007921728247792,0.07975191632118413,0.794271350183858,0.917340976928782,0.0,0.0,0.0,0.0
0.02946317240588886,0.02492483269255297,0.7467743575720326,0.0022721998982606676,-0.5251020576410036,-0.0027670989855069768,0.8510317322709011,0.04791543127573856,-0.8331305272997283,1.0129180585793784,-0.059360420986589876,-0.8281342006488889,1.0160947062396153,0.0066537255477629965,0.6312797948484308,1.2107420528510038,0.0778602191302985,0.7964123183964787,0.9132344654247359,0.0,0.0,0.0,0.0
0.029598618123102275,0.025075249868711763,0.7469443249056359,0.002317831912284197,-0.5251354857954905,-0.0028174520301690923,0.8510108173094031,0.047626384123481316,-0.833183891744679,1.0141039206419362,-0.05965434292553051,-0.8277455780656557,1.0163422247985487,0.010528772528638626,0.6286578663267526,1.216965164030765,0.0757690968633366,0.7974250358427843,0.9108028128006148,0.0,0.0,0.0,0.0
0.0296210112362233,0.025276848025020573,0.7468972497743634,0.0023327022586529414,-0.5251545420132399,-0.002835225390682343,0.8509989582837459,0.04714625779469768,-0.833768226329698,1.0149981847033185,-0.06014067627702347,-0.8274475825580488,1.0157626627827296,0.013145916401497502,0.6281056952011929,1.2165173338544104,0.07375663421206062,0.7970339724826306,0.9105514191958488,0.0,0.0,0.0,0.0
0.029529578815344106,0.02552737433797124,0.7466319553602914,0.002317131622385106,-0.5251595788104872,-0.002820860964010625,0.8509959403123248,0.046481637335973304,-0.834875787799151,1.0155845624815754,-0.060812397850687566,-0.8272443609501171,1.0143575719137203,0.014515651400641118,0.6296326482198789,1.2094114429426135,0.07183835265974162,0.7952302945874788,0.9125046505043409,0.0,0.0,0.0,0.0
0.029344404346043816,0.025846775441140633,0.7461857373529611,0.002277394291105879,-0.5251647191661395,-0.00277918335157404,0.8509930125202504,0.04558656654072627,-0.836419895502013,1.015962084543494,-0.06171196661519257,-0.8269823426436822,1.0120948461949544,0.015084169304874669,0.6321144285200435,1.1986060572755148,0.06975828656361598,0.7922700220627447,0.9161964064625937,0.0,0.0,0.0,0.0
0.02912098494704459,0.026227792664323638,0.7456061181526856,0.0022218418588346852,-0.525173291542569,-0.0027215576413515048,0.8509880553762802,0.04450512484351505,-0.8384131268658462,1.016461356396717,-0.06280193476725086,-0.826765996638654,1.0094013520629181,0.01524866621141607,0.6351346140172479,1.1859722754390656,0.06743092670118796,0.7885567268632718,0.9210597973338387,0.0,0.0,0.0,0.0
0.028889799252705215,0.026661556520704274,0.7449321457868161,0.002155478843050061,-0.5251875080129234,-0.0026544638043243082,0.8509796643633997,0.04327300276048598,-0.8408034803516129,1.01721971949251,-0.06404834149639,-0.8266192159314942,1.0065066708817323,0.015206805381394035,0.6385148359673484,1.172559288502825,0.06484122616498172,0.7843823377157972,0.9266670471051818,0.0,0.0,0.0,0.0
0.028659233712048465,0.02713930090602134,0.7441903523470945,0.002081220298326561,-0.5252071948455752,-0.0025813156429242605,0.8509679240806103,0.04191797940066474,-0.8435068155148147,1.018222768602804,-0.06542182969264652,-0.8265189410828787,1.0034781693890924,0.015044509476275992,0.6421458845026187,1.1589037978984866,0.0620065848545041,0.7799031354667876,0.9327562563697649,0.0,0.0,0.0,0.0
0.028422001140290646,0.027654292605793822,0.7433965042463224,0.002000771534216689,-0.5252306425271137,-0.002503725672230504,0.8509538767886197,0.04045824407073961,-0.8464247623303217,1.0193569548247354,-0.06690049087187827,-0.8264093846528278,1.0002620227684447,0.014796813825421981,0.645937425121457,1.1452537478676361,0.05894696009107458,0.7751674170903401,0.9391940279912061,0.0,0.0,0.0,0.0
0.02815878168265278,0.02820334526696793,0.742557800551638,0.0019151581900840866,-0.5252550991458765,-0.002422112462167548,0.8509392142577418,0.03889994851433152,-0.8494516235954819,1.0204386815833197,-0.06847275979503778,-0.8262040393805895,0.9967016012623012,0.014481878729642362,0.6498093626783084,1.1316974679333167,0.055665254539410264,0.7701378996202939,0.9459392422035782,0.0,0.0,0.0,0.0
0.027837959376596853,0.028787963443199407,0.7416743634074228,0.0018250750015544814,-0.5252771740533181,-0.002335918129198841,0.850926026753379,0.03723446838558207,-0.852466927370988,1.0212100410356453,-0.07013969674020393,-0.8257733713216918,0.9925239923338983,0.014112549361346292,0.6536914681592115,1.1182265653545331,0.052134262404818575,0.7646986079411412,0.953022062574295,0.0,0.0,0.0,0.0
0.0274138136013701,0.02941434237928662,0.7407409382822441,0.0017311654821631844,-0.5252956432178519,-0.0022436624725610866,0.8509150699459528,0.035437928323383536,-0.8553042646650547,1.0213039245059725,-0.07191401699611093,-0.8249134682382203,0.9873033398818724,0.013680993413787269,0.6575285043770609,1.1047791933082942,0.04829722156909995,0.7586667455496622,0.9605318787079928,0.0,0.0,0.0,0.0
0.026864034068213118,0.030067620296008683,0.7397480121506165,0.0016383427183614319,-0.5253075626517607,-0.00215016189343791,0.850908136791414,0.033558204619848056,-0.8578538304943593,1.0204780978683543,-0.07374440483433664,-0.8236135313377889,0.9809259247651726,0.013277786536842182,0.6614072875795057,1.0912611888082324,0.04420880773729695,0.7519133112028891,0.9686172038534656,0.0,0.0,0.0,0.0
0.02616805448455117,0.03072261828129813,0.7386802612509777,0.0015543707650981147,-0.5253147587287311,-0.0020632845316551278,0.850904066890176,0.031677086411535896,-0.8599689661888181,1.0184404022783602,-0.07554685084144622,-0.8218961430102424,0.9733222994594085,0.01301951591700208,0.6655334451505556,1.0775445316933827,0.03997260233613727,0.7443031066803387,0.9775108503827578,0.0,0.0,0.0,0.0
0.025319530338159108,0.031333759093439724,0.7375132539378311,0.0014929595165792983,-0.5253236611299981,-0.0020022261652911833,0.8508988266646275,0.029958190208747865,-0.8614903178419486,1.0149117925376394,-0.07716158402895011,-0.8199314890017236,0.9646417534288573,0.013061596924653767,0.6703232289691317,1.0634560698758249,0.035733924676007583,0.7357008192353708,0.9875629172370498,0.0,0.0,0.0,0.0
0.024370536332113165,0.031826683861237104,0.7362186333881732,0.0014754902337772758,-0.5253425711594503,-0.001991951867915635,0.850887206381612,0.028655328628857054,-0.8624299994281446,1.0099942723215687,-0.0783565002167811,-0.8182588057944351,0.9556988164822731,0.01392837445808901,0.6765098444828814,1.0486544395832809,0.03178796089853449,0.726158747321949,0.9991506759146277,0.0,0.0,0.0,0.0
0.023367338955707855,0.03214853792190619,0.7347857168194363,0.0015318496219488623,-0.5253998236783505,-0.0020817979208215373,0.8508515410063678,0.02802446114109224,-0.862605936025252,1.003655635557546,-0.0788902536972792,-0.817236126669937,0.9471006428197922,0.01598284673597604,0.6848591760820462,1.03252366218162,0.02796900322327715,0.7157377709726219,1.0124251142456602,0.0,0.0,0.0,0.0
0.022394064479696302,0.032272768083386506,0.7332900388554872,0.0017031606903572245,-0.5255471367209434,-0.0023371769964911867,0.8507595688158717,0.02828735272594371,-0.8616224212294485,0.9960292720187918,-0.0785476127513697,-0.8169760827568586,0.9394931489623851,0.01975912506230329,0.6960483696826062,1.01387766137369,0.02368170311468073,0.7049887946501971,1.0266380614062731,0.0,0.0,0.0,0.0
0.021662074049269908,0.032250610336567107,0.7320873935665737,0.0020066430442285525,-0.5258854327708262,-0.002742708619848225,0.8505486244375218,0.02924760901858672,-0.8588713416358849,0.9881935331770011,-0.07750383434272087,-0.8166429768995078,0.9335903179704885,0.02536260609551515,0.7102004247474178,0.9913907651937822,0.018517017567155368,0.6964721062675904,1.0383365377231275,0.0,0.0,0.0,0.0
0.02167032356021797,0.03225306209518721,0.7320670366364036,0.002007724165637004,-0.5258901543503003,-0.0027437528736999456,0.8505456991962631,0.029245007529473996,-0.8588944910043441,0.9881936621336892,-0.07750805995511917,-0.8166505550493752,0.9335643265241791,0.025368250911325337,0.7102121022085944,0.9913891704569303,0.018504775411337975,0.6964763005520892,1.0383496984571843,0.0,0.0,0.0,0.0
0.02167032356021797,0.03225306209518721,0.7320670366364036,0.002007724165637004,-0.5258901543503003,-0.0027437528736999456,0.8505456991962631,0.029245007529473996,-0.8588944910043441,0.9881936621336892,-0.07750805995511917,-0.8166505550493752,0.9335643265241791,0.025368250911325337,0.7102121022085944,0.9913891704569303,0.018504775411337975,0.6964763005520892,1.0383496984571843,0.0,0.0,0.0,0.0
0.02225181700263146,0.03222032309820094,0.7320974510652574,0.0018958488241665895,-0.5255496994995245,-0.002531179989145075,0.850757023033638,0.028880709960164487,-0.8638578468532783,0.9954221664585614,-0.07474741107582936,-0.8196027346813086,0.9183304470195535,0.028033822543963555,0.7104007371614129,0.9893427630753535,0.021302772098410815,0.6984325683137498,1.0369732607892743,0.0,0.0,0.0,0.0
0.023386715342808093,0.032300529137426814,0.732021519457477,0.0018202267478653143,-0.5253308736655375,-0.002339665263626294,0.8508928756987236,0.02828440988318588,-0.8711937558556457,1.0074262965316496,-0.07087856686892047,-0.8270469072163511,0.9066172465623774,0.029535887858472675,0.7124001228540177,0.988115675469192,0.022861001842109763,0.7018167620933973,1.0356227586651656,0.0,0.0,0.0,0.0
0.024651967731289116,0.03241696000811859,0.7318629432790758,0.001771059579035892,-0.5252518922552976,-0.002199862619851043,0.8509421094496677,0.027715674613283475,-0.8784776968034096,1.0198499813536495,-0.06755294997144194,-0.8364770492353282,0.8986868446980253,0.030281306888331642,0.7150408065661589,0.9878516750542331,0.023601521104153613,0.7054467722305314,1.034870839420062,0.0,0.0,0.0,0.0
0.02581008022052547,0.0325343662017123,0.7316682127459886,0.0017357332630447446,-0.5252693473945584,-0.0020994251131738893,0.8509316613758877,0.027228526369843613,-0.8846854275670817,1.0306703675081075,-0.0652387914823904,-0.8466771619784452,0.8933355848660751,0.030653568827077836,0.7175941810818777,0.9882418432167803,0.02393834005681774,0.708726533128013,1.0346721639021126,0.0,0.0,0.0,0.0
0.02675698549361427,0.032640288120002116,0.7314846168698556,0.0017086403676407542,-0.5253370041033318,-0.002028092664314186,0.8508901218770699,0.026827766994626644,-0.8894931890931554,1.0392033286586446,-0.06373615504015996,-0.8571156955685512,0.8894047865478307,0.03081248805124962,0.7197752550254498,0.9888847682009116,0.024050565569796505,0.711431773090524,1.0347385125747495,0.0,0.0,0.0,0.0
0.02746258675089662,0.032739519475605695,0.7313346216923894,0.0016842865959621213,-0.5254265790807502,-0.001973706572590939,0.8508349885004307,0.02647144258102849,-0.8929289249510994,1.0454106001318544,-0.06269551579182074,-0.8676113319869314,0.8861037041516944,0.030825631017943632,0.7214661406861405,0.9895970085986031,0.024015364137823587,0.7135072399517983,1.0348827982553948,0.0,0.0,0.0,0.0
0.027939246785178375,0.03284330268877313,0.7312262440080911,0.001658149771917955,-0.5255224748789787,-0.001925977809102949,0.8507759220534429,0.02610659442400832,-0.8951815616327868,1.0495685283291372,-0.061836355180407414,-0.878108769251824,0.8829530686299798,0.030707406250929613,0.7226636804260017,0.9903069141151389,0.02384990772655776,0.7149997403609306,1.034980167712476,0.0,0.0,0.0,0.0
0.02822023864393224,0.032962025362521276,0.7311586759306025,0.0016271744051104626,-0.5256169069241852,-0.001877879399717829,0.8507177516825823,0.02569117459229256,-0.8964948543606653,1.0520718866591139,-0.060995418539992685,-0.888592109579045,0.8796911157239102,0.030453819439573367,0.7234265640543728,0.9909977092755953,0.023549617084492092,0.7160026186557773,1.0349587218646978,0.0,0.0,0.0,0.0
0.028345527531125278,0.03310183179237149,0.7311234702688725,0.0015896357056959889,-0.5257066616433831,-0.0018252518114293557,0.8506624756141048,0.025201691470712474,-0.8971161197981167,1.0533236227000717,-0.06010431918485609,-0.8990668084521759,0.8761904497393534,0.030068680245879106,0.7238220001539089,0.9917007714888595,0.023117258096375968,0.7166092849067579,1.0348163492684972,0.0,0.0,0.0,0.0
0.028360061832548546,0.03326049772074657,0.7311163273992822,0.0015464253935715078,-0.525790784767555,-0.0017679458248847353,0.8506106827389255,0.0246461444613048,-0.8972552825536401,1.0537082282501933,-0.0591449563076274,-0.90954390137385,0.8723972762808415,0.029575346433157672,0.7239700421565881,0.9923766684062989,0.022576333312443762,0.7169502829032856,1.0345302119755275,0.0,0.0,0.0,0.0
0.02830472042477965,0.03343101484372199,0.73113031675702,0.0014994582417357618,-0.5258694984621616,-0.0017072981428246175,0.8505622301426201,0.02404840485159252,-0.8970898621289805,1.0535504956512936,-0.05811896601639315,-0.9200451130392516,0.8682926548159642,0.029017476814535488,0.7239711117928674,0.9930009236345864,0.02197199938538672,0.7171350714658236,1.0341209446824229,0.0,0.0,0.0,0.0
0.028214177657202463,0.03360335036245386,0.7311577033672478,0.0014513361721555911,-0.5259432777321005,-0.0016453895265889616,0.8505168163681632,0.023441482738255328,-0.8967622958023327,1.0531099578700294,-0.05702202767965192,-0.9305747000367286,0.8638778177743274,0.02845143439723855,0.7239033534612735,0.9935562147013282,0.021362935361597155,0.7172497535100728,1.0336347371231898,0.0,0.0,0.0,0.0
0.028115893814266137,0.03376611852943152,0.7311916033430618,0.001405047812949559,-0.526011887827261,-0.00158450914683427,0.850474578712267,0.02286170706222148,-0.8963813367764676,1.0525828578171912,-0.055827323063760724,-0.941060518423959,0.8591854585005476,0.027937964405752646,0.7238236495225698,0.9940234411630396,0.020812474663375383,0.7173575956319449,1.0331245262285864,0.0,0.0,0.0,0.0
0.02802828210978854,0.0339091108392338,0.7312266890936241,0.0013635084378832798,-0.526073555242169,-0.0015266526960291522,0.8504366082496391,0.022340895262265688,-0.8960236286878904,1.0520996596981482,-0.05448005586373005,-0.9512574238716465,0.8543253678187454,0.02752801790739055,0.7237627712109999,0.9943853843198488,0.020373716437572537,0.7174926251600625,1.0326375899389868,0.0,0.0,0.0,0.0
0.027957803076343275,0.03402710019053109,0.7312596570200843,0.0013288298201111536,-0.5261245743251197,-0.0014730855736143134,0.8504051954929565,0.021895503787152375,-0.8957317944903176,1.051715765091905,-0.05290993473674535,-0.9606222564303883,0.8495721215418577,0.027239649546781243,0.7237183062770224,0.9946390909763811,0.020065398141496424,0.7176489340237222,1.0322029916331847,0.0,0.0,0.0,0.0
0.02789598342283078,0.03412458954501497,0.7312896649101248,0.0013012338900657589,-0.5261601476704718,-0.001423982737459606,0.8503833124344068,0.02151368583818328,-0.895507919822966,1.0513991299176324,-0.051069179975285914,-0.9682137104786928,0.8454861331834503,0.027029449820446836,0.7236512746776455,0.9948139049854245,0.019841936995455882,0.7177726555924739,1.0318181721960704,0.0,0.0,0.0,0.0
0.027819751654619064,0.03421882100106961,0.7313188690394112,0.0012779409267207763,-0.5261778191416479,-0.0013782404012964507,0.8503724889504147,0.021147442288393378,-0.8953028010999082,1.0510272937153426,-0.048983926878506626,-0.9727510334314132,0.8430057646132822,0.026778543566312877,0.7234998173596636,0.9949817314304908,0.019578333409740908,0.7177750128356447,1.0314395222648691,0.0,0.0,0.0,0.0
0.027701287085766507,0.0343336842945359,0.731353165148281,0.0012535962820548509,-0.5261838349421861,-0.0013339642945299232,0.8503688734197394,0.020729964947287807,-0.8950060741233793,1.0504166511758841,-0.04674896511591243,-0.9730773706823312,0.8433020179396661,0.026340124516423938,0.7232280465036685,0.9952242226253952,0.01911957409682438,0.7175937325012568,1.0309907251845263,0.0,0.0,0.0,0.0
0.027526630466499384,0.034474777843100254,0.7313971938204391,0.0012266348004456062,-0.5261772571860068,-0.0012899529460604954,0.8503730507304862,0.0202435349641138,-0.8945630212818341,1.0494683535777618,-0.04439034725163731,-0.9691690795395281,0.8463400859166543,0.02568636995796086,0.7228090545899052,0.9955371857202943,0.018437909539670498,0.7172006786863657,1.0304325301203445,0.0,0.0,0.0,0.0
0.027295662768074283,0.034629868295095824,0.7314545648082074,0.0011993561092134486,-0.5261501254713711,-0.0012452103236935696,0.8503899437685241,0.01971676426934271,-0.8939748987929566,1.048169396516553,-0.0418468799370281,-0.9621455020480889,0.8509072250314061,0.024908277381128333,0.7222252959902139,0.9958301555889509,0.01763219898911211,0.716604028103133,1.0297600506389506,0.0,0.0,0.0,0.0
0.027001229149090457,0.03479542775945601,0.7315325244507092,0.0011711362104512037,-0.5261034486297324,-0.0011970825144955182,0.850418930159326,0.019151613876613224,-0.8931773242789111,1.0464334311191528,-0.03910718123072548,-0.9532529723276695,0.8560301147317915,0.02406154265004264,0.7214768071104546,0.9960336198989224,0.016762557484588284,0.7158320407265631,1.0289343027481563,0.0,0.0,0.0,0.0
0.02661621123920836,0.034984551172816035,0.7316391044067041,0.0011374525817333574,-0.526040750855868,-0.0011409183153595617,0.850457837253568,0.018502221229586533,-0.8920472586722451,1.044053151734542,-0.03622977179787194,-0.94340351689542,0.8611066524237234,0.02310690980737169,0.7205139858161553,0.9961609618445826,0.015789063749744005,0.7148510686879747,1.0278898272846488,0.0,0.0,0.0,0.0
0.026089145435407295,0.035225900970135664,0.731772443863639,0.0010899310423881658,-0.5259644957752414,-0.0010694464310003122,0.8505051543162746,0.01767661068388762,-0.8904337592210808,1.0406869928420697,-0.03330462252883525,-0.9331346366830552,0.8658164634552582,0.0219247633889892,0.7191607489188183,0.99639950964855,0.014588979791220199,0.7134981645914511,1.0266319391260619,0.0,0.0,0.0,0.0
0.025359774570429167,0.03555032760264783,0.7319334466337445,0.001021115851557275,-0.5258719856053018,-0.0009764031705472056,0.8505625542632379,0.016579949150195103,-0.8881636373811362,1.0359364150293655,-0.030428158028365227,-0.9226877799083899,0.8699696446124499,0.02036430401129246,0.7172188242218066,0.996920638393747,0.013010355500088108,0.7115757938485222,1.0251329312016761,0.0,0.0,0.0,0.0
0.024375664288070264,0.035959810298314465,0.7321543823193016,0.0009300094136562259,-0.5257599491150435,-0.0008648423616456996,0.8506320373914485,0.0152160285008905,-0.884904028931068,1.0293013225247436,-0.027637967468174922,-0.9121685265874147,0.8735274413140857,0.018395886753326967,0.7146725511883794,0.9975005822864197,0.011032067742126877,0.7090532372218319,1.0231533439784657,0.0,0.0,0.0,0.0
0.023077272123537468,0.03645195708396517,0.732456161095191,0.0008167981967284363,-0.5256216680048997,-0.0007383385247178658,0.8507177262880301,0.013602733873152566,-0.8803203589256924,1.020210163976588,-0.024968117595443855,-0.9016376099439931,0.8764690729306988,0.016021894753466076,0.711422627600466,0.9979973962111774,0.008668251321036009,0.7058290129680097,1.0205601270539364,0.0,0.0,0.0,0.0
0.02140657013375764,0.03701745159896441,0.7328552061249536,0.0006833299265285159,-0.5254495857146019,-0.0006023065347508836,0.8508242492779592,0.011782257546915184,-0.8740636152080683,1.0080498182883841,-0.022437228904807358,-0.8911603110323476,0.8788210250676438,0.013286487054425304,0.7073579848148992,0.998267849661035,0.005976280832612847,0.7017987788094645,1.0172600154816744,0.0,0.0,0.0,0.0
0.01931797340217614,0.03763893587002561,0.7333621545720523,0.0005332933817233304,-0.5252365244758602,-0.00046351404444985395,0.8509559883504074,0.009822528717623052,-0.8658076169456966,0.9922382465711543,-0.02003398929283859,-0.8808111706615562,0.8806854533426901,0.010287422322916,0.7023893742709905,0.9981566037346054,0.0030655022610603854,0.696892338544593,1.0131974943526263,0.0,0.0,0.0,0.0
0.01679539437027463,0.03829396344647343,0.7339727219828498,0.00037131460187710304,-0.5249785161538594,-0.0003278090707048115,0.8511153342782466,0.00780314621444879,-0.8553459813811388,0.9723752556467341,-0.017688400529235097,-0.8706341046464111,0.8822969161575401,0.007171979328611869,0.696466943223993,0.9975668514104318,8.829061839188239e-05,0.6910967851677702,1.0084099138584217,0.0,0.0,0.0,0.0
0.013878794075215086,0.03896519706697891,0.7346415597809729,0.00019995663871638444,-0.5246811731659593,-0.00019500440910105208,0.8512987657196595,0.0057755087341557695,-0.8428011168986721,0.9485355950764466,-0.015244654913156002,-0.8605696713091028,0.884097263971385,0.0041056822851515025,0.6895477173547773,0.9967121457217352,-0.002796215923814702,0.6844347078357047,1.0032208916211558,0.0,0.0,0.0,0.0
0.010700816703711803,0.03966018355155034,0.7352072023643722,1.3841093815608772e-05,-0.5243687876349545,-4.856644752940159e-05,0.8514912636098929,0.003686313507433231,-0.8290822301186657,0.921809836413535,-0.012506313815114972,-0.8503867784254054,0.8866757940745803,0.0012198884806592378,0.681342730947718,0.99685816435654,-0.005477069017972312,0.6767406658095219,0.9988710107164052,0.0,0.0,0.0,0.0
0.007768108933539903,0.04040750166942493,0.7355224283518498,-0.00017368234779509593,-0.5239625795057324,0.00010752749866068649,0.8517412597438133,0.0014723860035420343,-0.8175878005096444,0.8976255754047091,-0.009816676895676097,-0.8387758425608791,0.8890288231366731,-0.0018190725193942487,0.6725704682546375,0.9986810483258142,-0.00831192524998639,0.6686054689371356,0.9958426352289815,0.0,0.0,0.0,0.0
0.005281554273403075,0.04096237001553134,0.7354629014765053,-0.000328123524354722,-0.5235733793204088,0.00024828279717845146,0.8519804851976439,-0.000206471361014367,-0.8085872848097726,0.8768730188815198,-0.006815149158565618,-0.8276891104439594,0.8919037660302215,-0.003666990479776598,0.6634673644174771,1.0025812281972797,-0.009990065065560334,0.6602836297945853,0.9961921418336042,0.0,0.0,0.0,0.0
0.003647061162783298,0.041282972907657756,0.7351712861992027,-0.0004429572715908076,-0.523215933141032,0.00036913114602223914,0.8521999500342696,-0.0012563616711640583,-0.8037700222711011,0.8635950624796966,-0.004648249098958768,-0.8197547716915725,0.8940511180103005,-0.0042402708774124,0.6559499831220249,1.0068735820646537,-0.010462735037154156,0.6535510939460705,0.9985390790841318,0.0,0.0,0.0,0.0
0.003653021879491011,0.041304733942272645,0.7351524920772825,-0.0004621676019270857,-0.5232020213201739,0.0003653212587157675,0.8522084826073781,-0.001277165369983152,-0.8037910869630933,0.8634708300158951,-0.00466556167290912,-0.8197712062974758,0.8940578454095837,-0.004239979698237142,0.6558951325180101,1.0069188442319545,-0.010458525155285909,0.6535592306353769,0.9984414417346352,0.0,0.0,0.0,0.0
0.003653021879491011,0.041304733942272645,0.7351524920772825,-0.0004621676019270857,-0.5232020213201739,0.0003653212587157675,0.8522084826073781,-0.001277165369983152,-0.8037910869630933,0.8634708300158951,-0.00466556167290912,-0.8197712062974758,0.8940578454095837,-0.004239979698237142,0.6558951325180101,1.0069188442319545,-0.010458525155285909,0.6535592306353769,0.9984414417346352,0.0,0.0,0.0,0.0
0.003653021879491011,0.041304733942272645,0.7351524920772825,-0.0004621676019270857,-0.5232020213201739,0.0003653212587157675,0.8522084826073781,-0.001277165369983152,-0.8037910869630933,0.8634708300158951,-0.00466556167290912,-0.8197712062974758,0.8940578454095837,-0.004239979698237142,0.6558951325180101,1.0069188442319545,-0.010458525155285909,0.6535592306353769,0.9984414417346352,0.0,0.0,0.0,0.0
0.0032087903706644735,0.0417757699732622,0.7351832217880153,-0.0004801742577755894,-0.5232218892625972,0.0002821442676543524,0.8521963062720778,-0.0022221680168147363,-0.8020952531052249,0.8602451035205242,-0.005619855488118564,-0.8161997049938138,0.8877114833931506,-0.007917196866113939,0.6552382517523407,1.0087041008338098,-0.014040351166544984,0.6520914978814896,0.996809863453531,0.0,0.0,0.0,0.0
0.002475876193184869,0.04257471260776598,0.7351921489234386,-0.00047988600401563326,-0.523195214505384,0.00022606702916440032,0.852212700047228,-0.004081227661647299,-0.8000228544865099,0.8556341233653821,-0.007487478882714064,-0.8106273005839987,0.8774484888638744,-0.013810034312030517,0.6536103419682548,1.011978737083068,-0.019720730778443468,0.649434218130268,0.9944434229292165,0.0,0.0,0.0,0.0
0.001850013776117441,0.04347052462433097,0.7351508333503127,-0.0004585674800986391,-0.5231165536383057,0.00018496635156857824,0.8522610086193645,-0.006236454504981399,-0.7992246770522604,0.8528630823473418,-0.009648436288531386,-0.8057854571766541,0.8681399104996064,-0.020395923549606437,0.6519653770507479,1.0157917522095443,-0.025975042136840973,0.6467242383640694,0.9919732428587714,0.0,0.0,0.0,0.0
0.0016952423296246293,0.04420115785268345,0.7350665157497026,-0.00044080427818240955,-0.523073144244433,0.00016550569673141568,0.8522876650930102,-0.008035047304615097,-0.8005645345134726,0.8542849324137095,-0.011449819053712684,-0.8036943493652221,0.8640344144085059,-0.025715314948090574,0.6514803109206748,1.0190264268661573,-0.030947827826957628,0.6454320605984913,0.9901256468628633,0.0,0.0,0.0,0.0
0.002078224743920362,0.044642881716339185,0.7349469407898731,-0.00042849065045252643,-0.523128176664107,0.00014984187246909158,0.8522538968659882,-0.009121819097576913,-0.8036917529854246,0.8597471582237419,-0.012539021898235476,-0.8047100107684739,0.866075500068454,-0.02909275903085233,0.6525549590851478,1.021321534147149,-0.03407384012012301,0.6458955397746753,0.9893596226328958,0.0,0.0,0.0,0.0
0.003050136329252981,0.044744508933002636,0.7347928933518569,-0.0004122356693867701,-0.5232859007075785,0.00012424575967935427,0.8521570751600919,-0.009338633243948614,-0.8086731676809267,0.8694817084731148,-0.012761415619015459,-0.8092422533024819,0.8749931315500208,-0.03034970148089135,0.6553937691682908,1.0224841537983813,-0.03524257201843224,0.6482276517389796,0.9898006238206143,0.0,0.0,0.0,0.0
0.004651072360642592,0.04451442976590802,0.7346130037679826,-0.00038715779763970245,-0.5235370654189437,9.140458347381407e-05,0.8520028068536878,-0.00871381511976531,-0.8156895951336571,0.8838233035186818,-0.012146933786929685,-0.8174171510048883,0.8910247581778794,-0.029523032842972488,0.6601505287900399,1.0223658197657708,-0.03451520399925349,0.65259686472206,0.9912382073786723,0.0,0.0,0.0,0.0
0.006918319297805016,0.044010324542830784,0.7344459036524508,-0.0004013524594695349,-0.5239339275555212,0.00010945108782457578,0.8517588076990508,-0.007510490311721141,-0.8246506949987555,0.90287828143779,-0.01095704447439281,-0.8284930910848084,0.9134638106852195,-0.02623671509458408,0.6670870643740726,1.0207229399280007,-0.03154322037100543,0.6597165152851712,0.9931603649333401,0.0,0.0,0.0,0.0
0.009878470479998978,0.043345032359768824,0.7343621483693982,-0.0005540647097656388,-0.5245943337390352,0.0002940709119396705,0.8513520961056559,-0.006253557881799647,-0.8351555393167819,0.9264694852001981,-0.009713903976326075,-0.840837830238271,0.9406625232619757,-0.019686170557053177,0.6765562137674228,1.0172192372237245,-0.02554755560071982,0.6708620974711405,0.9947240926760363,0.0,0.0,0.0,0.0
0.013528306758092402,0.042699606921847925,0.7344351686543352,-0.0010151498045205462,-0.5257212911233461,0.0008543942179331469,0.8506558431827743,-0.005857018451948843,-0.8465180541687267,0.954049975507075,-0.009330145379730424,-0.851789679576867,0.9698655461097944,-0.008226874521768126,0.6887054236655781,1.0117204334952088,-0.01488092412053638,0.6879035819025503,0.9950495873826273,0.0,0.0,0.0,0.0
0.017057395700003548,0.04219838563426105,0.7341161438889,-0.001005589419534278,-0.5255683544429136,0.0008481404920533958,0.8507503595390324,0.004273431602977454,-0.8422429052022808,0.9299549170373359,-0.008091902309040023,-0.8714356154333756,1.0050236086583104,-0.004197898440939249,0.6975047662225802,1.007996378870588,-0.011013357074713067,0.6975845838483117,0.9948112395841627,0.0,0.0,0.0,0.0
0.020392010821190767,0.04203240918609221,0.7336494742666819,-0.0011211948398337321,-0.5255182626229211,0.001027637348675824,0.8507809603731135,0.013224598278892665,-0.8448796179520875,0.9127823577718508,-0.008127712693526336,-0.8881579137634855,1.0352425355878672,-0.0004936602677783632,0.7049415185789599,1.006745547373165,-0.007483556345794517,0.7068375727341627,0.9951734408268909,0.0,0.0,0.0,0.0
0.023172485834065455,0.042168217373227276,0.7331643098826189,-0.0013036008831261243,-0.5256052797667818,0.0012888399106793483,0.8507265890976402,0.02061177937089983,-0.8512683018203273,0.9014472757162475,-0.009135629716325502,-0.9003625885192176,1.057960433125378,0.0019970324782623027,0.710921740800946,1.0073773458343642,-0.005134959927302903,0.7148725050439644,0.995515752940103,0.0,0.0,0.0,0.0
0.02525476529582321,0.04260792524761449,0.7327615953978929,-0.0014796062754034909,-0.5257008341907788,0.0015538572948198494,0.8506668144602187,0.026586153564486223,-0.8594228402893855,0.8933956026142864,-0.010969702769157553,-0.908340192824318,1.0732336801869875,0.002015915471571315,0.7154425750828918,1.0091691342582199,-0.005206135349300879,0.7208732025727298,0.9949053719091574,0.0,0.0,0.0,0.0
0.026644187293697438,0.043289264687373964,0.7324676505354888,-0.001625331283429379,-0.5257479319172919,0.0017886682855634021,0.8506369795915728,0.03145834259254656,-0.8683007021597678,0.8868866537099913,-0.013387893630873138,-0.9127483460947313,1.081974382287088,-0.0005462279480868077,0.7185608543718756,1.0117280569013516,-0.007803376761346515,0.7245922779713287,0.9933057782749439,0.0,0.0,0.0,0.0
0.02744673242472385,0.044113231014282446,0.7322799503634217,-0.001740108470514379,-0.5257480735139552,0.001982518894245553,0.8506362353190167,0.035605992745157036,-0.8773857142907691,0.8809818486430205,-0.016090194435679845,-0.9143563138839808,1.0855515830008737,-0.005034106880456079,0.7205233009200058,1.0146655032638114,-0.012235112400407554,0.7263764540456266,0.990995632962835,0.0,0.0,0.0,0.0
0.027813465214568,0.04497393832233013,0.732178609892376,-0.001828327387522067,-0.5257251745772374,0.0021324458295235104,0.8506498402453746,0.039412181550226945,-0.8864534024637963,0.875243101120843,-0.018774703734889438,-0.9139950646022437,1.0855127177608321,-0.010523985659665482,0.7216536835187469,1.0176344326641915,-0.01754286449150566,0.7268178765253851,0.9883585875231081,0.0,0.0,0.0,0.0
0.02789810818363023,0.04577920050585673,0.7321340805888303,-0.0018952652551394468,-0.5257071046470374,0.0022394879709738665,0.8506605861252003,0.04320027123333645,-0.8954242215162411,0.8694978035873513,-0.02119053660009174,-0.9124557766021106,1.0833246716963063,-0.01612542898719895,0.7222544914589027,1.0203968707931528,-0.022846903049182726,0.7264991300849301,0.9858009174194929,0.0,0.0,0.0,0.0
0.02782889094015205,0.04646245499202735,0.7321078094854917,-0.0019417101042996392,-0.5257074580320666,0.0023032945357652147,0.8506600926137391,0.04721984343525994,-0.9043080554594738,0.8636675175015253,-0.023160392292875913,-0.9104782244764855,1.080242164991719,-0.021220376209623276,0.7225156840489095,1.0228980642039995,-0.027581290124802305,0.7257783544080971,0.9837328181870678,0.0,0.0,0.0,0.0
0.02770818532807822,0.04700213240313515,0.732078117071922,-0.0019702691086735747,-0.5257288131967593,0.0023332579493705106,0.8506467474349785,0.05158320920035976,-0.9131670779545991,0.8577377660371902,-0.024656884746449923,-0.9085846187431588,1.0771867814875573,-0.025503757488659823,0.7226163011039678,1.0250996039936398,-0.03150138564917748,0.7249459018178226,0.9822881179821666,0.0,0.0,0.0,0.0
0.027620272767321777,0.0474157947819525,0.7320534142197483,-0.0019925853073537816,-0.5257737905299442,0.0023518020915851705,0.8506188452077048,0.05626625086812688,-0.9220328659530002,0.8517159953235495,-0.025787355820749848,-0.9070047405550562,1.0747442952886919,-0.0288466122597908,0.7228067153951357,1.0268417961437557,-0.0345264883363571,0.7243862238454505,0.9812311318525575,0.0,0.0,0.0,0.0
0.027609954999207362,0.04773094511572196,0.7320285879312983,-0.0020153481910153894,-0.5258351055712992,0.0023730637752852252,0.8505808301912334,0.06121120749442677,-0.9309255970859582,0.8455855685066986,-0.026664943553064206,-0.9058944644115601,1.0732174723956633,-0.0313208621879402,0.7231681596546014,1.0281703697982407,-0.03675014454152532,0.724221191891898,0.9804464162332318,0.0,0.0,0.0,0.0
0.027694450397173814,0.047980777231975094,0.7319990849253057,-0.0020437669686245033,-0.5259035983504504,0.0024069535681016494,0.850538320614155,0.06631685202975848,-0.9397737662136041,0.8393551349443964,-0.027405159357670555,-0.9052940234943356,1.0726710544423939,-0.033093679692483405,0.7237117079477344,1.0291849056471154,-0.038339065399598034,0.724464465989078,0.9798251411950887,0.0,0.0,0.0,0.0
0.027870517315566612,0.04819928189001055,0.7319625851371773,-0.0020813122497622986,-0.525968841120392,0.002459370466740784,0.8504977353330802,0.07144943598113716,-0.9483295165079859,0.8331111571391772,-0.02811385419237267,-0.9051604137316697,1.073001431580302,-0.03438238653029521,0.7244036984785834,1.02999807402328,-0.03949527105549759,0.7250588607031163,0.9792578442009449,0.0,0.0,0.0,0.0
0.028118890294426446,0.04841536102782335,0.7319179304076682,-0.0021282922970531602,-0.526018895892942,0.002530924348030867,0.8504664519882092,0.07646808973284507,-0.9560618209733813,0.8271019170044971,-0.028869536945872028,-0.9054094114663627,1.074000679271005,-0.03542548287777114,0.7251740564270466,1.0307214976456383,-0.04043385699018118,0.7258820257950989,0.9786577428715809,0.0,0.0,0.0,0.0
0.028407983932356,0.04864575922534858,0.7318638432703902,-0.002180929211464528,-0.5260428579647738,0.0026158437432956573,0.850451240515021,0.08126762134053439,-0.962071791647295,0.8218490785112064,-0.029702484056267256,-0.905942270385495,1.0754060010352537,-0.03643972334980484,0.725926806291109,1.0314552807683202,-0.041347379321570475,0.7267586216466511,0.9779968838068576,0.0,0.0,0.0,0.0
0.028700552865829208,0.04888913505382759,0.7317990341608224,-0.002233540465574877,-0.5260394241897807,0.0027041848705656366,0.8504529515965351,0.08581880752326712,-0.9651492659492822,0.8182267909333979,-0.030583427363057556,-0.906635326747226,1.0769319051751418,-0.03753607963660442,0.7265694159368961,1.0322701886872165,-0.04233251243303498,0.7275204810988771,0.9773350602385399,0.0,0.0,0.0,0.0
0.028968053348934163,0.04912957596727993,0.7317252110990468,-0.0022864803766834262,-0.52602956436574,0.0027910458164821603,0.8504586289079129,0.0901352458922191,-0.9641916065094684,0.8173053414771235,-0.03145275565831327,-0.9072888396107602,1.0782949278340872,-0.038614495934519426,0.7270715795466918,1.0331811064476657,-0.043297770831000754,0.7281410702925221,0.9767903108782735,0.0,0.0,0.0,0.0
0.02920791330408506,0.049364503532061635,0.7316417436775482,-0.00233948195142981,-0.5260150904865083,0.0028745758209109003,0.8504671588124489,0.09420884416909997,-0.9592119254189226,0.8190663977350451,-0.03229814075875099,-0.9078940687064057,1.0794781452423916,-0.039669687741627505,0.727430068952103,1.0341942169138143,-0.044238178587372834,0.7286100425153516,0.9763839206225184,0.0,0.0,0.0,0.0
0.02944320941925236,0.04960778543099063,0.7315461814595862,-0.0023929541026914253,-0.5259788902028306,0.0029571778023199688,0.8504891157040791,0.09800441377375763,-0.9513403374010343,0.8224308307140982,-0.03316594500832884,-0.9086154399465219,1.0807090941456374,-0.040800475956223485,0.7276694884698918,1.0353111755850233,-0.04524153017058,0.7289389892075007,0.9760255517144745,0.0,0.0,0.0,0.0
0.029702396772368328,0.04986637345954399,0.731439428503886,-0.0024543463705548893,-0.5259245548474365,0.0030477424958079125,0.8505222219660685,0.10152051811693039,-0.941803932101456,0.8265220128748426,-0.034096451591784274,-0.9095096344721071,1.0821620610606764,-0.0419416622852452,0.7278672098400171,1.0364985068518051,-0.04624939113544187,0.7292682911498661,0.9756535130903782,0.0,0.0,0.0,0.0
0.030002641460018638,0.05013982771032085,0.7313227654033376,-0.002529740118804081,-0.5258623167247878,0.0031525666606795847,0.8505601011023385,0.10481187235136762,-0.9315048671676439,0.8308015764991401,-0.035102770745754186,-0.9105699432533552,1.0839137656106066,-0.042995100068563205,0.7280861190425518,1.037725594661278,-0.04717505569047948,0.729718121021367,0.9752550175638101,0.0,0.0,0.0,0.0
0.030343863220738437,0.050428229177305404,0.731198075479915,-0.0026219468290402084,-0.5257996440172917,0.0032739881795668915,0.8505981076557336,0.10793613610933847,-0.920967537034915,0.8349889000270249,-0.03618950331305191,-0.911738933292612,1.0859159318161031,-0.04392193001425604,0.7283451256145331,1.0389842976702173,-0.04798476318311815,0.730330028816188,0.9748271716530659,0.0,0.0,0.0,0.0
0.030708973941519117,0.05073987172001471,0.7310691770426595,-0.0027319735604131976,-0.5257380410532275,0.0034127427151487578,0.8506352929999672,0.11090783751200166,-0.9104270293900054,0.8389510030619668,-0.03737888269427364,-0.9128993438632997,1.0879807041347895,-0.04477808273165631,0.7286155324490072,1.0402943430646816,-0.048727608357280836,0.7310685354795473,0.9743339233944391,0.0,0.0,0.0,0.0
0.031066653609889253,0.051095866932892114,0.7309427307268325,-0.0028607281857438117,-0.5256725426566791,0.003570605657644405,0.8506746998155915,0.11368734928560167,-0.899939605600664,0.8426169403776601,-0.03872939452119277,-0.9138685653003209,1.0897848758765434,-0.045720401270665005,0.7288271524333791,1.0417026949003239,-0.04953962358414359,0.7318399601929366,0.973679128989615,0.0,0.0,0.0,0.0
0.031375358968756324,0.05153101902733105,0.7308282415787053,-0.00300987284660453,-0.5255921559747663,0.003752131455819245,0.8507230734808964,0.11620414075112964,-0.8894667375283922,0.845925295149903,-0.04034257737249416,-0.9144069650047838,1.0908952440340502,-0.046994901238451306,0.7288773049462595,1.0432793328341445,-0.05063244188108702,0.7325125671755343,0.972699817176018,0.0,0.0,0.0,0.0
0.03158899840275044,0.05209036017620408,0.7307369692933976,-0.0031819168840983908,-0.5254814923943878,0.003965440533949287,0.8507898399941559,0.11841054745646941,-0.878921641218679,0.8487990514156616,-0.04235601813869031,-0.9142420405892503,1.0908186429650242,-0.04889955416518528,0.728642722434213,1.0451081781794869,-0.05225939848291193,0.73294106721305,0.9711824989436929,0.0,0.0,0.0,0.0
0.03166540267504072,0.05281994182846208,0.7306795750388231,-0.0033803721399233233,-0.52532549225519,0.004222435205052892,0.8508841703263594,0.12036277433057474,-0.8681817165045161,0.8511388830522436,-0.044919054241294526,-0.9131045131513301,1.0890797993185997,-0.05169789554263045,0.7279979005604513,1.0472703024336143,-0.05463825251080404,0.7330085543763742,0.9689105720424448,0.0,0.0,0.0,0.0
0.031577853256973376,0.053749979307699015,0.7306616827117469,-0.0036095535886677384,-0.5251172380088263,0.00453759684565483,0.8510101454646346,0.1223211674194986,-0.857082085380918,0.852823589975853,-0.04814418289811647,-0.9107874755975414,1.0853396376156095,-0.055477820145530564,0.7268382564067588,1.049821632736677,-0.05782816047177105,0.7326795115260556,0.9657569492326097,0.0,0.0,0.0,0.0
0.03132853858894276,0.054868170428138414,0.7306761177437607,-0.0038768086112878084,-0.5248741100106116,0.004926379609602079,0.851156783312864,0.12481989909798653,-0.8453982189226465,0.8537019849195188,-0.05202941683724873,-0.9072013469611182,1.0795290839745666,-0.05991431075022255,0.7251050671452045,1.0527808169923047,-0.06153174088679507,0.7320707982908969,0.9618587047948411,0.0,0.0,0.0,0.0
0.03095684246303515,0.05608283209174261,0.730683512374482,-0.004196963200831479,-0.5246605890158065,0.005401078062384689,0.851284018520988,0.1286102230968598,-0.8328536317011663,0.8535246995986091,-0.05634622785147804,-0.9024402945282916,1.0719706035087149,-0.0639691755153551,0.7227582058391028,1.0562151021775787,-0.06485984740814511,0.7314515523143261,0.9579684977858528,0.0,0.0,0.0,0.0
0.030532816485016115,0.05718400689105403,0.7305672829959342,-0.00459677746252566,-0.5246041032146224,0.0059562108884238674,0.8513130611468348,0.13432698366252122,-0.8192055757385908,0.8516495930548599,-0.06049803001050849,-0.8969391555336368,1.0634788979014425,-0.06569636010728645,0.7196064935239965,1.0605746883832263,-0.06619463144905098,0.7309944806163733,0.9560745890693608,0.0,0.0,0.0,0.0
0.030169064251407952,0.05792835208084228,0.7302738284942066,-0.005114001040796691,-0.5248182455612288,0.006549100052568244,0.8511737574713462,0.14144795550406714,-0.80418639188052,0.8462534359246154,-0.0636982276383456,-0.8913510018603122,1.0554120387180108,-0.0631333934982648,0.715891479783997,1.0656250038350332,-0.06391875928937606,0.7311563220451793,0.9576281767095837,0.0,0.0,0.0,0.0
0.029921504517420892,0.05818824497038542,0.7299448242516045,-0.005785216550041477,-0.5253203525593637,0.007072711067949829,0.8508554725771729,0.1475504349953174,-0.788204713799417,0.8338414543893127,-0.06528498915757759,-0.8858588925606222,1.0485810298223055,-0.05577852155511194,0.7125398045919039,1.0697899176112957,-0.05754921040224076,0.732683272572512,0.9616651516950505,0.0,0.0,0.0,0.0
0.029933494888143734,0.05820704272262139,0.7299384024500528,-0.005799200052676119,-0.5253123183131784,0.007075252073278268,0.8508603165709884,0.14756042330694835,-0.7881729375090554,0.8338585473741136,-0.06532454160417657,-0.8858684521755208,1.0485743799655753,-0.05580598559685481,0.7125159441106822,1.0698445692949174,-0.057514731981230596,0.7327152085838403,0.9616137154438004,0.0,0.0,0.0,0.0
0.029933494888143734,0.05820704272262139,0.7299384024500528,-0.005799200052676119,-0.5253123183131784,0.007075252073278268,0.8508603165709884,0.14756042330694835,-0.7881729375090554,0.8338585473741136,-0.06532454160417657,-0.8858684521755208,1.0485743799655753,-0.05580598559685481,0.7125159441106822,1.0698445692949174,-0.057514731981230596,0.7327152085838403,0.9616137154438004,0.0,0.0,0.0,0.0
0.03071824716714562,0.05827169617908497,0.7317108049776193,-0.004812842485180249,-0.524404001730905,0.006026910598967788,0.8514346456801355,0.1499095488720427,-0.7883028244768618,0.8415555977703375,-0.06332363485145387,-0.8919577134930669,1.0599881201579944,-0.07296830273497443,0.7254640743750931,1.0533500390687023,-0.041324443181992535,0.7127655138903246,0.9951574123509215,0.0,0.0,0.0,0.0
0.031807671838320235,0.058474914077771514,0.7338524717902024,-0.004317086347744432,-0.5241261854247291,0.005456216312047198,0.8516121970833583,0.15078391356465415,-0.7874811345210974,0.8504676549097444,-0.06256851056771583,-0.8926493859909324,1.0684546551679561,-0.08361406434907608,0.7407295077267104,1.033641518069916,-0.028765923538890913,0.6997516198567413,1.0206329493558306,0.0,0.0,0.0,0.0
0.03293257965156525,0.05890560759716035,0.7358013088531554,-0.004139724357035409,-0.5240882444940616,0.0052614935227526,0.8516376526148257,0.15024253724041411,-0.7880206567717261,0.8607687051302889,-0.06323627843015367,-0.8909274622395584,1.0743556805815335,-0.09082500700896683,0.7547326939920995,1.0157959604440583,-0.020832425158515546,0.6912701165069718,1.040726434207246,0.0,0.0,0.0,0.0
0.033977340295749434,0.05956452615089228,0.7374586576236568,-0.004130039652054952,-0.5240803756940573,0.005287746432344855,0.8516423793603248,0.14865587556921087,-0.7902551123118466,0.8721319358447571,-0.0650203045106953,-0.8883150300870043,1.0783211728668722,-0.09695937338764245,0.7667095048198229,1.0008915318062237,-0.015619807445457493,0.6855945941321195,1.0577686436988833,0.0,0.0,0.0,0.0
0.034854554753439404,0.060386275119399965,0.7388691829821253,-0.004191576482149337,-0.5240344182606417,0.005409580476238391,0.8516695929783429,0.1464440909541296,-0.7933664035436299,0.8833371135693245,-0.06745492493482025,-0.8852488364224678,1.0804819259108773,-0.10315941384994402,0.7767512745513002,0.9886556205076105,-0.011954189176996418,0.681391135844182,1.0731079595421174,0.0,0.0,0.0,0.0
0.03549743078727626,0.06124727327159667,0.7401123571977364,-0.004266303721013597,-0.52397709136202,0.0055362154186337055,0.8517036789278275,0.14407382985316175,-0.7959742366558233,0.8926560598260931,-0.06997930601405958,-0.8816433589424688,1.080752644602177,-0.10950795463672532,0.7852409612761867,0.9783317643360054,-0.009056612822603439,0.6777011898774062,1.0875804681037886,0.0,0.0,0.0,0.0
0.03591593745232351,0.06208786644358443,0.741237204351391,-0.0043298021077716135,-0.5239110153563833,0.005633566853302706,0.8517433672923204,0.14176567862922504,-0.7977110029719519,0.8997913777913394,-0.07235351964139423,-0.8776404543562852,1.0794685347776296,-0.11591956779574503,0.7924822309651254,0.9693595861136537,-0.006551290129409712,0.6740610483258901,1.1016073694961008,0.0,0.0,0.0,0.0
0.0361513096490626,0.06288184161311697,0.7422741927127579,-0.004376254645058434,-0.5238391926076911,0.005695934619276374,0.8517868894343331,0.1396076531145132,-0.7985981736607197,0.9049874294198854,-0.0744986559942119,-0.8733945144139784,1.077043301583406,-0.12223713322508205,0.7987410888520966,0.9613424629299622,-0.0042304377002134325,0.6703155256152994,1.1154447383728954,0.0,0.0,0.0,0.0
0.03625209248040679,0.06361895786205958,0.7432425687757831,-0.0044061709795102655,-0.5237644008833928,0.00572715668542896,0.8518325174004926,0.1376300725834501,-0.7987902562231499,0.9086482027072158,-0.07640304773941706,-0.8690521317487819,1.0738761131064964,-0.1283323809022972,0.8042484505919674,0.9539998419062856,-0.0019741311379201146,0.666446080723219,1.1292505685296694,0.0,0.0,0.0,0.0
0.03626023916307592,0.06429260935253674,0.7441560653863535,-0.004421607720266856,-0.5236944159359475,0.005732919937784045,0.851875426181353,0.13584643710475286,-0.798405034522674,0.9110997285053004,-0.07806791461276615,-0.8647049458680786,1.0702737925446322,-0.13409852722978485,0.8092075546510725,0.9471246797149028,0.00031281608416718456,0.6624828699449421,1.1431422143913221,0.0,0.0,0.0,0.0
0.03625020089345837,0.06492483141390337,0.7450214060199943,-0.004437222192531925,-0.5236233367550492,0.005737746642920104,0.851919004676022,0.13417164307594656,-0.7979538512801156,0.9132354798866265,-0.07962025272083817,-0.8605445153378856,1.0667315685926202,-0.13943998618521544,0.8138200865057805,0.9405643122732817,0.002640438267108503,0.6586010069545808,1.157158880184747,0.0,0.0,0.0,0.0
0.0362805662561654,0.06553318214550512,0.7458401112896182,-0.004463670721580351,-0.5235513243223638,0.0057578844156994085,0.8519629881696996,0.13254375421199635,-0.7978110262416047,0.9157248992523771,-0.08115246216562957,-0.856713573440542,1.06362720989979,-0.14434650394058898,0.8182621852560226,0.9342459881641394,0.004998012279934806,0.6549698808489531,1.1712975445725187,0.0,0.0,0.0,0.0
0.03637161788714309,0.06611518947797486,0.7466070035868669,-0.004502116368339783,-0.5234836771205088,0.005794694324036401,0.8520041034257334,0.1309707340404893,-0.7980527683246588,0.9187233035573494,-0.08266476139070146,-0.8532861516196235,1.0611209294024693,-0.14882150792803078,0.8225974334834184,0.9281900157950425,0.007404392679129108,0.651674494645167,1.185464334015224,0.0,0.0,0.0,0.0
0.036517423232139364,0.06665820123791717,0.7473079150898622,-0.00454897453393227,-0.5234239398218777,0.0058426004060673975,0.8520402279661026,0.12949456984060947,-0.798618945449194,0.9220990618970345,-0.08411293709485007,-0.8503150403012449,1.0592357193240578,-0.1528513305871405,0.82676052020672,0.9225249512552735,0.009904991373661918,0.6487592940077612,1.1993837884777243,0.0,0.0,0.0,0.0
0.03668628148924284,0.06714428363723339,0.7479181423976415,-0.004595645348929106,-0.5233726971898444,0.0058895523541699635,0.8520711314515483,0.12817848836945916,-0.7993456213937448,0.9254756810401418,-0.08542314434636626,-0.8478330438705147,1.0578502341761244,-0.15644520825794392,0.8305508896911835,0.9175178334662426,0.012604678879637888,0.6462446459452662,1.2124718280132163,0.0,0.0,0.0,0.0
0.036811804388377306,0.06754967508301225,0.7484028958528997,-0.004625441375211096,-0.5233323682233407,0.005913684968578947,0.852095573273284,0.1271111761965285,-0.7998852992671976,0.9281161186116501,-0.086481077764921,-0.8458031722127195,1.0566134842186674,-0.1596870200309158,0.8336333153826054,0.9135987657996083,0.01575132112645412,0.6441632795721376,1.223654451065401,0.0,0.0,0.0,0.0
0.03684034312367892,0.06787953972913006,0.7487178714657206,-0.00462513178522608,-0.5232892146200342,0.005901364865894503,0.8521221625512603,0.126298922565836,-0.8001856322686199,0.9296684776169609,-0.08727382337259657,-0.8442648988633672,1.0552433719493348,-0.16281668120102513,0.8356201361307931,0.9113299476086021,0.019722414961088414,0.6428820031628122,1.2310252364300096,0.0,0.0,0.0,0.0
0.03674382868980501,0.06816117573777308,0.7488269565896734,-0.004586553040940842,-0.5232165669136563,0.005848482080441291,0.8521673444198885,0.12568074778597296,-0.8004499997994245,0.9301975858694208,-0.08787343548698177,-0.8433198729374957,1.053608829186658,-0.16614499612898587,0.8361999346441306,0.9111817327876162,0.02501908999878126,0.6434480713375571,1.2316194596573442,0.0,0.0,0.0,0.0
0.03652033239504924,0.0684007629050152,0.7487332776582981,-0.0045132873441404795,-0.5231151387927404,0.005758368339908587,0.8522306160877249,0.1252340603738357,-0.8006900533078091,0.9297225335830115,-0.088301275874349,-0.8429180750783487,1.0516522142876052,-0.1696562310878916,0.8353683479556371,0.9131472612377197,0.03164030565265378,0.6458573919444309,1.2254209279899286,0.0,0.0,0.0,0.0
0.036191756495389464,0.0685856320715184,0.7484803454611568,-0.0044187691920945064,-0.5230095902315595,0.005640555360557644,0.8522966778885553,0.12497124307107194,-0.8007314036243721,0.9282183298213581,-0.08853224175025282,-0.8428625567408858,1.049380184425053,-0.17305362487586637,0.8334281296913115,0.9167344756620623,0.03909337697570622,0.649056099445983,1.2153550959292632,0.0,0.0,0.0,0.0
0.03580315226827454,0.06873264097955548,0.7481230273228658,-0.004319864309130783,-0.5229055413428418,0.005512749933962727,0.852361861648834,0.12482148097690347,-0.8006819818596409,0.9261095328930112,-0.08864376758879376,-0.8430166312257881,1.0469293829129338,-0.17620352451883578,0.830766750002585,0.9213422264016023,0.04698858893989076,0.652670908085534,1.2032768908415779,0.0,0.0,0.0,0.0
0.03539223131036105,0.06888509601074284,0.7477113857234479,-0.004232293671842228,-0.5227922041292404,0.005394353060729849,0.8524325779479701,0.124644157214484,-0.800804737690441,0.9239782144721688,-0.08879026790330484,-0.8432488778310463,1.0443582253046715,-0.17918620558252915,0.8276941286831183,0.9264880937103424,0.05506540812749225,0.6566127335455343,1.1902035247172276,0.0,0.0,0.0,0.0
0.034946513119722585,0.06908264418666371,0.7472887264343594,-0.004160595246478839,-0.5226576589574019,0.005291037537032709,0.8525160795563594,0.12432230475006183,-0.8011050223669015,0.9219114160542738,-0.08908030490677005,-0.843304981698194,1.0413759003450234,-0.1822103681046585,0.8243512749859528,0.9318528745605237,0.06318883392699359,0.6607736685509767,1.176640042445271,0.0,0.0,0.0,0.0
0.034405499166311394,0.06935691588136098,0.7468924025915143,-0.004099009520220091,-0.5224908817641163,0.005195233216192972,0.8526191917533517,0.1237733576736514,-0.80131157213616,0.9194831231345018,-0.08956531370355605,-0.8428078634617345,1.0373587523732297,-0.18555460101529558,0.8207187993634735,0.9372525517051753,0.07130223615697308,0.6649690589728928,1.162790825047264,0.0,0.0,0.0,0.0
0.0336879781003547,0.06974355130404014,0.7465560115950615,-0.004038592997920024,-0.5222788672245592,0.00509622588785059,0.852749965170875,0.12290620251017015,-0.8010759525049997,0.9160950373429152,-0.09029722043456892,-0.8413117461740588,1.0315076794146751,-0.1895447097971151,0.8166895954981581,0.9425842693750284,0.07939387286871195,0.6689894816012983,1.1487125769605113,0.0,0.0,0.0,0.0
0.03272900961516849,0.07030075396478978,0.7463094674617692,-0.0039753344285569665,-0.5219981077959353,0.004991601824156004,0.8529227726382227,0.12156344813933095,-0.8002815933368996,0.9114775111368272,-0.09140916015328215,-0.838412242355869,1.0230854416822492,-0.19457451089121403,0.8121506401421518,0.9477851867941279,0.08747742358517539,0.6726868763886,1.1343916294320588,0.0,0.0,0.0,0.0
0.031455115635633676,0.0710816483434222,0.7461788496286207,-0.0038997451342609756,-0.5216275009444498,0.004873757707596601,0.8531505076668146,0.11960970537327224,-0.7987253397444434,0.9052141383959773,-0.09300689514525047,-0.83368195194528,1.0112767517743304,-0.20103471632135025,0.8069585170515093,0.9528193592878051,0.09568948745571756,0.6758756485267489,1.1198339063002143,0.0,0.0,0.0,0.0
0.029798260484263185,0.07212681582046838,0.746180787247429,-0.003795251474448912,-0.5211471014169932,0.004727974969075943,0.853445335685657,0.1169606351789736,-0.7961720146693225,0.8968321008974931,-0.09514798879507619,-0.8267686367082328,0.9953336971823926,-0.20927027147552701,0.8009573342768107,0.9576745381139457,0.10437695266594704,0.6783660447867248,1.105118081043246,0.0,0.0,0.0,0.0
0.027721701654706842,0.07345281826536607,0.7463130621409017,-0.0036377015981339774,-0.5205377621073418,0.004531336265708436,0.8538188756047799,0.11362354520481334,-0.7924667409772227,0.8859924252596789,-0.0978160172655227,-0.8175616629815251,0.974843889986009,-0.2195120604885901,0.7940184871063153,0.9623681161613462,0.11428645458464641,0.6800728548200113,1.0905131196862976,0.0,0.0,0.0,0.0
0.025263639676049672,0.07503702245792117,0.746535345729266,-0.0033957799233641684,-0.5197744574706245,0.00425095790861557,0.8542861999334235,0.10975464298060834,-0.7878031302240687,0.8729053051643201,-0.1008925965968309,-0.806531192447562,0.9502542262783,-0.2318231312495268,0.7860795003871713,0.967012618277574,0.12698133450706994,0.6812862695622882,1.0766633387509341,0.0,0.0,0.0,0.0
0.022605264192707083,0.07680217168154099,0.7467250345755958,-0.003026540824749165,-0.5187838484839514,0.0038308147950022785,0.8548915039119426,0.10575553248234745,-0.7834034083347836,0.8592634210651451,-0.10412506917584828,-0.795543372501417,0.9239764408525412,-0.24620207830764215,0.777075662586608,0.9720551363632624,0.14577403892156154,0.6832374495565156,1.0646985301922653,0.0,0.0,0.0,0.0
0.020146564809706512,0.0785309375062082,0.7466367911259412,-0.002441946359164488,-0.5173225795081541,0.0031119658204484335,0.8557813396526831,0.10271386071185924,-0.7823724844786913,0.8493537665507864,-0.10679001848734963,-0.7896512582325017,0.9026928630313187,-0.26265466714558866,0.7667625137438994,0.9782033402645809,0.17748321805748227,0.6888284182867224,1.0555206617423845,0.0,0.0,0.0,0.0
0.01807255485284559,0.08002615882574209,0.7461330151946534,-0.0016291856703940873,-0.5153595580489974,0.002020145243457849,0.8569701224049697,0.10136519298656074,-0.7856731799406169,0.8446057843624467,-0.10829027361429658,-0.7913423211746173,0.8900666671411035,-0.28022356024456907,0.7549924328306025,0.9859199761642776,0.2267861806718609,0.6978755722847219,1.0507193724471753,0.0,0.0,0.0,0.0
0.016512805037203485,0.08105694271474115,0.7449266316524387,-0.0009497117624769113,-0.5131263863816116,0.0009001929426469413,0.8583120640531526,0.10163280710609927,-0.7942355244209053,0.8456470799897432,-0.10871038494678271,-0.8004735315353281,0.8869086134201554,-0.29249548452752905,0.7400774671175445,0.9974272919469143,0.28103641233482884,0.7044663249367791,1.0521864129273382,0.0,0.0,0.0,0.0
0.016527881510021696,0.08108269434536763,0.7448893601525581,-0.00089982311095,-0.5131291383670705,0.0008649734864041229,0.8583105087891587,0.10165829210793634,-0.7942418925228533,0.8456579830499661,-0.10870291867789071,-0.8005349130693621,0.8867907869955658,-0.29249906812411525,0.7400089605782886,0.9973626703503904,0.28103484577146226,0.7044754672006862,1.0521824809069102,0.0,0.0,0.0,0.0
0.016527881510021696,0.08108269434536763,0.7448893601525581,-0.00089982311095,-0.5131291383670705,0.0008649734864041229,0.8583105087891587,0.10165829210793634,-0.7942418925228533,0.8456579830499661,-0.10870291867789071,-0.8005349130693621,0.8867907869955658,-0.29249906812411525,0.7400089605782886,0.9973626703503904,0.28103484577146226,0.7044754672006862,1.0521824809069102,0.0,0.0,0.0,0.0
0.015629079111188764,0.08112358859519841,0.7453259606969151,-0.0007631085054437045,-0.5142215350415485,0.0007675647066006944,0.8576567153642206,0.10122445713308723,-0.7814389325160407,0.829315247710057,-0.10808499786736446,-0.7887284658100191,0.87143135662874,-0.29588708718037543,0.7432293408277149,0.9964987109627315,0.2804698611358758,0.7067035808473737,1.0512712610765205,0.0,0.0,0.0,0.0
0.014337287138825126,0.0810591543205565,0.7455855600473672,-0.0006984984598343332,-0.5149953577607321,0.0007679890515072708,0.8571923376801812,0.10084532873099852,-0.7687739312622154,0.810354788905863,-0.10743851970896168,-0.7772113873299341,0.8541943216866793,-0.29538711435057136,0.7425440304585155,0.9968405169262191,0.2803182027531076,0.705968865481286,1.0520080202009838,0.0,0.0,0.0,0.0
0.013340369671167689,0.08091641385367017,0.7457098512117849,-0.0006705267156069696,-0.5154479926469695,0.0007757362252663642,0.8569202503754023,0.10082324920535574,-0.7596177891976824,0.7958099180142769,-0.10676548154503471,-0.7694476613446779,0.8418785892149805,-0.29357160709180363,0.740992072247565,0.9972867512798739,0.28076335848610995,0.7046757201582312,1.0531859915645965,0.0,0.0,0.0,0.0
