zhuoxili-jackie/tripod-support-walk/examples/trajectory_tripod_lowstep_v0.05.csv
root_pos_x,root_pos_y,root_pos_z,root_rot_x,root_rot_y,root_rot_z,root_rot_w,FL_hip_joint,FL_thigh_joint,FL_calf_joint,FR_hip_joint,FR_thigh_joint,FR_calf_joint,RL_hip_joint,RL_thigh_joint,RL_calf_joint,RR_hip_joint,RR_thigh_joint,RR_calf_joint,FL_foot_joint,FR_foot_joint,RL_foot_joint,RR_foot_joint
0.0,0.0,0.72963,0.0,-0.5231245161092812,0.0,0.852256264656019,0.0,-0.81,0.872,0.0,-0.81,0.872,0.0,0.65,1.0,0.0,0.65,1.0,0.0,0.0,0.0,0.0
3.9969384898660785e-06,-5.020420670214805e-06,0.7296327036854573,-7.941864427644783e-07,-0.5231200284413379,1.276873467498014e-06,0.8522590192196693,9.753161371241471e-06,-0.8100312151233205,0.872047159907611,9.753161371241026e-06,-0.8100491586728628,0.8720803955332795,4.7139215858178666e-05,0.6500064296081826,0.9999438131053838,4.713921585817629e-05,0.6500197292765434,0.9999813654145736,0.0,0.0,0.0,0.0
1.143048899409997e-05,-1.2419474734057667e-05,0.7296343682576029,-6.13697354087389e-07,-0.5231182361160284,1.5345286823132099e-06,0.8522601193533133,2.7691444469219828e-05,-0.8100590309527808,0.8721037012999092,2.7691627215261194e-05,-0.8101123289008338,0.8721932117338482,9.784179692596054e-05,0.6500279183449571,0.9998926530914024,9.784912278434522e-05,0.6500488122718333,0.9999817019014133,0.0,0.0,0.0,0.0
2.2810492442851325e-05,-2.1520168890983163e-05,0.7296341403131408,2.8751905468037734e-07,-0.5231187672680501,1.0313797399558988e-06,0.8522597933322967,5.155730358030488e-05,-0.8100935258445696,0.872181474128413,5.1558190222081505e-05,-0.8101947932734187,0.8723438637157334,0.00015075494090361605,0.6500601726355496,0.9998550944787022,0.0001507772088054226,0.6500843627416018,1.0000055410096709,0.0,0.0,0.0,0.0
3.891287458402065e-05,-3.2539192145015584e-05,0.7296319935635618,1.8826961156543628e-06,-0.523121223574068,-1.4915606356445003e-07,0.8522582856404526,8.168985395724095e-05,-0.8101409988139197,0.8722901301941706,8.169239109120471e-05,-0.810303563155748,0.8725434021614328,0.00020805661854128764,0.650103963416603,0.9998290293240977,0.00020810261252446227,0.6501278546996536,1.0000524465078324,0.0,0.0,0.0,0.0
6.0280104336414446e-05,-4.615593328765912e-05,0.7296280678995383,4.30099182993057e-06,-0.5231252433627541,-2.081779439025146e-06,0.8522558182458052,0.00011993302767673856,-0.8102041627316608,0.8724343106691025,0.00011993886453150402,-0.8104452261293813,0.8728021603550524,0.00027308511116383346,0.6501606795504768,0.9998097084824438,0.0002731670664178322,0.6501805699785256,1.000122148093958,0.0,0.0,0.0,0.0
8.654023655635875e-05,-6.317259312154118e-05,0.7296226757866705,7.643632917144685e-06,-0.5231302206850451,-4.790241392727043e-06,0.8522527630489939,0.00016832154550095891,-0.810281587825769,0.87261006773742,0.0001683335137121733,-0.8106225784938064,0.8731226234489975,0.00035051087753934127,0.6502289798439631,0.9997906268997566,0.0003506479759741539,0.65024151043386,1.0002135811976691,0.0,0.0,0.0,0.0
0.00011518876605640171,-8.395478385099505e-05,0.729616579730518,1.1636853925401633e-05,-0.5231348309837961,-7.859621085255371e-06,0.8522499330679735,0.00022682717926878209,-0.8103656341897199,0.8727977909513812,0.00022684961623372637,-0.8108276715307272,0.8734862969108442,0.0004471692004973368,0.6503000783021874,0.9997625628156082,0.00044739345952404775,0.6503050982516448,1.0003209968549165,0.0,0.0,0.0,0.0
0.00013945773626586078,-0.00010715882246308839,0.7296116044757874,1.4920389194590365e-05,-0.5231362795271279,-9.684612274758897e-06,0.8522490438399477,0.0002885360157872297,-0.8104389470860889,0.8729505631753963,0.00028857346643489155,-0.8110278192575213,0.873828787408026,0.0005726294674918554,0.6503501146502442,0.9997118307214454,0.0005729953441033404,0.6503581564115744,1.000425257152001,0.0,0.0,0.0,0.0
0.00014486315523237303,-0.0001266973288035304,0.7296124361703621,1.4122616780247238e-05,-0.5231304637443744,-7.215997694042738e-06,0.8522526137543239,0.00033186054427792076,-0.8104584572291557,0.8729685128829213,0.0003319114864796199,-0.811131421688475,0.8739877344392992,0.0007259374083268344,0.650338494738151,0.9996173251498346,0.0007265190065492183,0.650379338841752,1.0004708734729266,0.0,0.0,0.0,0.0
0.00010593378147794312,-0.0001223234092439703,0.7296427322687208,1.3867378468047959e-05,-0.5231612389464924,-2.729665773722515e-05,0.8522337221247228,0.0003759875973169622,-0.8099499140564236,0.8723443141912918,0.0003760461321618871,-0.8106581274255782,0.8733643043423572,0.0005701540104709495,0.6505019306023311,0.9994744870602087,0.0005704906578104401,0.6504398512967007,1.0002579065202357,0.0,0.0,0.0,0.0
0.00014438123627133294,-0.00016248357334541744,0.7296403945499322,1.0726723053124002e-05,-0.5231427901399301,-2.5683402748112568e-05,0.8522450471254785,0.00047552926492826133,-0.8101861698571692,0.8727056993297558,-0.0019824911976090583,-0.8109358535920761,0.8719336396668822,0.0008726203234536324,0.650528610048508,0.9992826455755763,0.000873359034205471,0.6505211589145082,1.0003478661310534,0.0,0.0,0.0,0.0
0.00022421220701235675,-0.00024359835463252726,0.7296307136402452,1.9832261183226897e-05,-0.5231372996980831,-4.958261088943984e-05,0.8522484161398272,0.0007409175383525862,-0.8104342568317368,0.873228394843138,-0.004939508729050622,-0.811819772869431,0.8706087886357131,0.0012144816102453936,0.650738285792292,0.999034500395327,0.0012159357928330737,0.6506615004803412,1.0006076777731645,0.0,0.0,0.0,0.0
0.00031947361192065257,-0.00035248672624760237,0.7296192804985102,3.5850217920149696e-05,-0.5231389669499349,-8.53681097668274e-05,0.852247389368605,0.001104917404537682,-0.8106317802715796,0.8737418519980813,-0.007850643787075957,-0.8130036105877388,0.8694200939699325,0.001626495786183945,0.651030658057424,0.9987204471233775,0.0016291341818854127,0.6508317556104536,1.000966403716824,0.0,0.0,0.0,0.0
0.00041729715545439346,-0.0004767822793087771,0.7296078193000849,5.470991435799591e-05,-0.5231431884401115,-0.0001243476749330215,0.8522447922593572,0.0015150094925744655,-0.8107807072528027,0.8741994905773236,-0.010524162385201201,-0.8142896086758847,0.8683373631406435,0.002105486041925068,0.6513422418925916,0.998359556728274,0.002109975694650546,0.6510120812687453,1.001376968215979,0.0,0.0,0.0,0.0
0.0005123887938330463,-0.0006077832503253278,0.729596733975283,7.414330628785132e-05,-0.523147999213224,-0.00016262703264028765,0.8522418312746793,0.0019399163725840518,-0.81089343979082,0.8745981523693088,-0.012967921879292712,-0.8155817036552921,0.8673286793727194,0.002631288116754702,0.6516452523449987,0.9979744088051494,0.0026384256476422343,0.6511925713019155,1.001810691159385,0.0,0.0,0.0,0.0
0.0006031855512698819,-0.0007404213768233349,0.7295860452808962,9.308759934703698e-05,-0.523152767932692,-0.00019899233161153993,0.8522388944076148,0.0023641314889111162,-0.81098108727312,0.8749476911974046,-0.015252715661138973,-0.8168470546880219,0.8663663254511837,0.0031837843329224793,0.651931283560577,0.9975810144018169,0.0031944044902907235,0.6513691877399997,1.002251501022152,0.0,0.0,0.0,0.0
0.0006897500934323507,-0.0008722918015087241,0.729575718846402,0.00011117994608201824,-0.5231574031027967,-0.00023345707193820497,0.8522360381464475,0.002781814185899145,-0.8110510941718695,0.875259214300777,-0.01744918130613248,-0.818083987456367,0.865428892411482,0.003748761131062526,0.6522007164876548,0.9971877613613953,0.0037636739144924014,0.6515410002540183,1.0026913201198202,0.0,0.0,0.0,0.0
0.0007727852483134824,-0.001002638488458493,0.7295657309413065,0.00012842033128525373,-0.523161985061265,-0.0002664592219276066,0.8522332133251193,0.00319223749053083,-0.8111080764370588,0.8755420974159714,-0.01960723550500855,-0.8193023188234113,0.8645014196135028,0.004318255131346623,0.6524571504825099,0.9967975189268502,0.004338224621574607,0.6517086753334277,1.0031269244063996,0.0,0.0,0.0,0.0
0.0008532598320860731,-0.0011316199424799053,0.729556046503714,0.00014497967351196004,-0.5231666261094927,-0.0002984975330371754,0.8522303510233177,0.0035970541258894427,-0.8111553194144202,0.8758044101895001,-0.021755439368882197,-0.8205139617890783,0.8635740398944837,0.004889084443943276,0.6527049826165888,0.9964099989934745,0.004914838985181148,0.6518737533053548,1.0035580489069684,0.0,0.0,0.0,0.0
0.0009323162932091627,-0.001259890977451169,0.7295465820992051,0.00016111134520949602,-0.5231714259752676,-0.00033001503702888085,0.8522273899471988,0.003998974365850671,-0.8111959845700973,0.8760541201148364,-0.023906893032429447,-0.8217295796143141,0.8626399724840563,0.0054613023976809935,0.6529486134886596,0.9960233899338131,0.00549356190970393,0.6520383088253912,1.0039864052708265,0.0,0.0,0.0,0.0
0.0010112701519548644,-0.0013884228472285766,0.729537171851017,0.00017712583127154662,-0.5231764447927968,-0.00036139620050211415,0.8522242930315914,0.004401319458931645,-0.8112338553791734,0.8763000218312204,-0.026065181098037724,-0.8229571318201879,0.861693757700965,0.0060371519117570875,0.6531922487643145,0.9956352241560329,0.006076663915845447,0.6522046776615483,1.0044153222964933,0.0,0.0,0.0,0.0
0.0010915937529795497,-0.0015184545199935636,0.7295275321685596,0.00019339430958278118,-0.5231816527146377,-0.0003929971376422953,0.8522210783679731,0.004807980054174133,-0.8112737335286447,0.8765520660129168,-0.028228078590680366,-0.8241987582901296,0.8607307125861149,0.00662051753020154,0.6534396521227477,0.9952428083664866,0.006668099549422813,0.6523750065102972,1.0048497747774587,0.0,0.0,0.0,0.0
0.0011748185838347295,-0.0016514632687214554,0.7295172192649002,0.00021035040703105037,-0.5231868437476576,-0.00042516356383280325,0.8522178720949323,0.005223391578130245,-0.8113216125209339,0.8768210126441246,-0.03038892652794874,-0.8254430534503908,0.8597488695969224,0.007216592239223596,0.6536934882087315,0.9948436405482216,0.007273179908918971,0.6525504726050191,1.0052965564649428,0.0,0.0,0.0,0.0
0.0012623216743968622,-0.0017890402552614981,0.7295055867931001,0.00022846030981722251,-0.523191535558301,-0.0004582125501569859,0.8522149699267743,0.00565218975702903,-0.8113846510330556,0.8771174285872347,-0.032536708547011794,-0.8266508392096813,0.8587549491515296,0.007831318287470693,0.6539541947323401,0.9944361924376725,0.007898013806590096,0.6527302074703826,1.0057642474154773,0.0,0.0,0.0,0.0
0.0013550194852114366,-0.0019325712541837653,0.7294917804134108,0.00024813800078161497,-0.5231949300526862,-0.0004923736421186644,0.8522128614160277,0.0060982944975740815,-0.8114707923461013,0.8774502102061447,-0.034656467305601145,-0.8277354120676222,0.8577755226720415,0.008470099567416848,0.6542188250389882,0.9940211976492785,0.008548203600300758,0.6529103596373226,1.0062624468921868,0.0,0.0,0.0,0.0
0.0014531142546808295,-0.002082715238787375,0.7294748516251157,0.00026961388072199906,-0.5231960845257719,-0.0005277205379196498,0.8522121249761061,0.006563481015782173,-0.8115876022439944,0.8778251162143444,-0.03673170653362404,-0.8285450780951037,0.8568719978452402,0.00913550163097925,0.6544811685441714,0.993602933729869,0.009226497488434703,0.6530844221327189,1.0067996491806552,0.0,0.0,0.0,0.0
0.0015562353720933362,-0.0022389626080383316,0.7294541035772488,0.00029285341485023856,-0.5231945089291787,-0.0005641982581552686,0.8522130612373636,0.0070463739549646775,-0.8117395030080117,0.8782440627935978,-0.03874891018547554,-0.8288690081361817,0.8561507816386844,0.009824621415329995,0.6547355399092567,0.9931887397875984,0.009930081525172968,0.653246702212692,1.0073797081348665,0.0,0.0,0.0,0.0
0.0016644745891291094,-0.002400190808549519,0.7294295901486441,0.000317784162828422,-0.5231912298360559,-0.0006019403988967301,0.8522150395901361,0.007544559711942903,-0.8119231205782572,0.8787060076327218,-0.0407001366595246,-0.828507446696781,0.8557417254683723,0.010529565182600568,0.6549858821759945,0.9927841347623089,0.010651022841704834,0.6533997893107244,1.008000091852254,0.0,0.0,0.0,0.0
0.0017799560366195996,-0.0025679514009688095,0.7294008208723388,0.0003447116394818728,-0.5231864468349839,-0.0006412012371279078,0.8522179368465813,0.008062539245884239,-0.8121452905955449,0.879225223532001,-0.042581518007290126,-0.8274642981866763,0.8556488686421164,0.011257552032751547,0.6552369954069384,0.9923868645086367,0.01139679606712194,0.6535481202834181,1.0086685207283137,0.0,0.0,0.0,0.0
0.0019070698387905617,-0.002746670661929793,0.7293667249677483,0.0003743952035978452,-0.5231795193094789,-0.0006824306280041222,0.8522221451545201,0.008612423179340726,-0.8124236584154272,0.8798326710161409,-0.044393226688976155,-0.8259468559667055,0.8557509884940867,0.012031353232262766,0.6554952487819655,0.9919862899428006,0.01219089153488528,0.6536983896926055,1.0094035419342784,0.0,0.0,0.0,0.0
0.0020512752788496612,-0.0029406941629365724,0.7293268811011995,0.0004077581681077503,-0.5231712848283184,-0.0007264753764112514,0.8522271485337054,0.009207117119084843,-0.8127697261688508,0.8805600358263684,-0.04614022633699462,-0.8241723066346384,0.8559500660407713,0.01286993826279608,0.655778436991293,0.9915684504453921,0.013053116265281394,0.6538664913057135,1.010218977302049,0.0,0.0,0.0,0.0
0.002218350338092485,-0.003154035434616677,0.7292809800604059,0.00044578740574985603,-0.5231629576581588,-0.0007743955819256203,0.8522321991801525,0.009859262743001897,-0.8131942271551234,0.8814405166530906,-0.04782819746283341,-0.8222967665118299,0.8561916699313011,0.013788504801017875,0.6561076023127221,0.991120046694701,0.013999600771739232,0.6540702686824058,1.0111265548491648,0.0,0.0,0.0,0.0
0.002414446636198162,-0.0033911519747525107,0.7292284787387849,0.0004897650382700797,-0.5231554637314719,-0.0008276021831555379,0.852236725313303,0.010583461281555883,-0.8137099902116853,0.882510154050513,-0.049457551163257236,-0.8204084372091991,0.8564532970273722,0.014801409067267611,0.6565041405931177,0.9906276105625536,0.015045816202570932,0.6543260256464876,1.0121400290277283,0.0,0.0,0.0,0.0
0.002646386445049615,-0.003657814800671871,0.7291685402587007,0.0005415704235488193,-0.5231491503120987,-0.0008881352043606495,0.8522405085684817,0.011399080824540275,-0.8143323062414753,0.883808330672113,-0.0510206592393447,-0.8185433783590196,0.8567267737271953,0.01592443576129386,0.656990416067598,0.9900743891263031,0.016208966137345897,0.6546477709237053,1.0132773642225128,0.0,0.0,0.0,0.0
0.0029217696624652878,-0.003961710750836319,0.7291001800028827,0.000603941085918395,-0.5231436534074774,-0.0009589781742723942,0.8522437641399925,0.012332516609125328,-0.8150772713628617,0.8853760814981709,-0.0525038051773076,-0.8167025593669202,0.8570026236283006,0.017175280460334865,0.6575913982549914,0.9894367596160173,0.01750858158140177,0.6550471662250125,1.0145605708431917,0.0,0.0,0.0,0.0
0.0032486371281873127,-0.004312610349858245,0.7290225800310529,0.0006806481578051066,-0.5231377712353701,-0.0010443591158514967,0.8522472166801204,0.013418369999371781,-0.8159583566910256,0.8872513566029193,-0.053894732702757,-0.8148621344359984,0.8572567410751236,0.01857164646241128,0.6583358904924974,0.9886809813120115,0.0189646709623004,0.6555328932877096,1.0160129774377373,0.0,0.0,0.0,0.0
0.003634534527995512,-0.004721867899324075,0.7289355906288973,0.0007765405116302926,-0.5231292904207829,-0.001149976653956393,0.8522522044807964,0.014698804908929986,-0.8169814135336191,0.8894610430345034,-0.05519738479262996,-0.8129755125152963,0.8574364943052765,0.020125967016972942,0.6592567378421533,0.9877609371904037,0.020592337229500858,0.6561089227088432,1.0176531532205473,0.0,0.0,0.0,0.0
0.004084829773508986,-0.005200781867680147,0.7288404671180024,0.0008973626512278217,-0.5231147897810348,-0.001283012328587849,0.8522607965476182,0.01621953663644101,-0.8181386494350067,0.892010321849385,-0.05645534914462846,-0.8109681658704359,0.8574418156127515,0.02183489787112428,0.6603896087622261,0.9866182138641141,0.02239079909239719,0.6567715801330279,1.0194839439479801,0.0,0.0,0.0,0.0
0.004600044798531009,-0.005756967281324531,0.7287408452765474,0.001049173462297184,-0.5230895055929017,-0.0014516443806543223,0.8522758714771947,0.018019567926602878,-0.8194028228895738,0.8948706464199339,-0.05778238388336174,-0.8087262212707037,0.8570951749994341,0.023660520396328114,0.661769267603608,0.9851877738829727,0.024323351535316326,0.6575050786740557,1.021474731526157,0.0,0.0,0.0,0.0
0.00517168570591733,-0.006387375017383532,0.7286436105462606,0.0012371010076732483,-0.5230474286606611,-0.0016635592074107767,0.8523010556859183,0.0201098755301694,-0.8207240703592984,0.8979675525948394,-0.05938962521138768,-0.8060789030456053,0.8560912367752764,0.025498618046027214,0.6634194126787879,0.9834179344151892,0.026282924660551734,0.6582731043375142,1.023537311654153,0.0,0.0,0.0,0.0
0.005775247595577485,-0.007065885394966152,0.7285575798828423,0.0014630921020066657,-0.5229820033441196,-0.0019226934899038072,0.852340299874068,0.022433726920300358,-0.822034647735019,0.9011664378417503,-0.06158255385785891,-0.8027742056121534,0.8539099964376238,0.02712691280862434,0.6653210771628957,0.9813331763305359,0.028035099323651697,0.6589942037153836,1.0255106525871964,0.0,0.0,0.0,0.0
0.0063562408976643135,-0.007722314949452464,0.7284797072179778,0.0017221840292981527,-0.522888047454739,-0.002222903545385733,0.8523967284140452,0.024797312326012285,-0.8232811241312957,0.9042420355369936,-0.06467933064914759,-0.798451854194589,0.8496525465973672,0.0281240150356224,0.6672949384227579,0.9792512668434743,0.029128526202539834,0.6594438858150239,1.0272432865919965,0.0,0.0,0.0,0.0
0.0067948086473545955,-0.008208569791847017,0.7283244127355646,0.0019947525699383108,-0.5227549746298349,-0.0025297706224422277,0.852476895711868,0.026739389941686266,-0.8246387373982113,0.9068374706339556,-0.06882350861606645,-0.7926641526131935,0.8416309921985201,0.02780461154784244,0.668485233287891,0.9785667476969457,0.02882363207512623,0.6588316601487245,1.0291586005018214,0.0,0.0,0.0,0.0
0.007001579807473792,-0.008435070542316183,0.7281775697123309,0.002278104555297916,-0.5225811682665344,-0.0028123574031008384,0.8525818573360896,0.027938020148882733,-0.8256868401771166,0.9083775076936265,-0.07306873763686042,-0.784971389872802,0.8280598137760941,0.025739096624304875,0.6689943606232778,0.9788886223816197,0.026658976344010023,0.6572818019235871,1.0303261579290341,0.0,0.0,0.0,0.0
0.007011394433259068,-0.00845021970489397,0.7281744052492167,0.0022954027553941875,-0.5225766087058283,-0.0028125901624232856,0.8525846048904967,0.0279697118853811,-0.8256931148792441,0.9083952200397875,-0.0730706560553109,-0.7849558560873274,0.8280600912544589,0.025731384530621203,0.6690176375326379,0.9788444517782157,0.02666070446693761,0.6572719923224681,1.0303767983722867,0.0,0.0,0.0,0.0
0.007011394433259068,-0.00845021970489397,0.7281744052492167,0.0022954027553941875,-0.5225766087058283,-0.0028125901624232856,0.8525846048904967,0.0279697118853811,-0.8256931148792441,0.9083952200397875,-0.0730706560553109,-0.7849558560873274,0.8280600912544589,0.025731384530621203,0.6690176375326379,0.9788444517782157,0.02666070446693761,0.6572719923224681,1.0303767983722867,0.0,0.0,0.0,0.0
0.007050500375922063,-0.008642003842345482,0.7286526770587074,0.0019381069533326075,-0.5225505980354198,-0.002406571171490695,0.8526026768955508,0.027565374476381632,-0.8252786285983839,0.9085218556481073,-0.07343381657363798,-0.7830469168458354,0.8276867107682527,0.019466049805687093,0.6647187131627575,0.9899904822078444,0.03315434161150936,0.6613054685276631,1.02710289872982,0.0,0.0,0.0,0.0
0.007144286841823554,-0.008948116256787719,0.7292183581751074,0.0017090751098547232,-0.5225339912077834,-0.0021405946256806666,0.8526140539243894,0.027751591291586008,-0.8240948896488298,0.9082082762563545,-0.0732140622118507,-0.7819109548216072,0.8286482810670804,0.01377198452418241,0.6619752365005188,0.9982907067460045,0.03870495777167914,0.6654549089669299,1.0231951173924645,0.0,0.0,0.0,0.0
0.007265898307950897,-0.009329053298735377,0.7297559237128043,0.0015839529723686023,-0.522525128108432,-0.0019896721952435293,0.8526200928859251,0.02837806276333091,-0.822554411905888,0.9075726427673234,-0.07256889323935847,-0.7815663215867663,0.8305705099480001,0.009853719467778028,0.6600805473435603,1.004508792251469,0.04334772200923101,0.669177602986669,1.019610603930333,0.0,0.0,0.0,0.0
0.007396728556620225,-0.009745828342130655,0.7302461283768141,0.001522207987133782,-0.5225191904175583,-0.0019067436536642222,0.8526240337082122,0.029241916810618072,-0.820887978556139,0.9067509902327353,-0.07169680108025814,-0.7817293042635897,0.8329940110223352,0.007183993837817439,0.6587070622005241,1.0094850755374678,0.047379957926895096,0.6724713513651347,1.016467552946859,0.0,0.0,0.0,0.0
0.00752742889188137,-0.010173297234523487,0.7306919429069716,0.0014961383234123045,-0.5225128625280647,-0.0018628072645532794,0.8526280549055022,0.03021693295165695,-0.8192116159744722,0.9058400399294965,-0.0707195955757093,-0.7821851201910266,0.8356295780279559,0.00517350328707409,0.6576660890195581,1.0137665062505146,0.05099470842563819,0.6754111963240523,1.0137010242607856,0.0,0.0,0.0,0.0
0.007652675583856426,-0.010595305335338739,0.7310996769379599,0.0014893807308858358,-0.522503181394156,-0.0018411644571335703,0.852634046523751,0.03122663299167934,-0.8175896676603231,0.9049043081328911,-0.06971092472496089,-0.7827981360232471,0.8383044340543157,0.003461878751040361,0.65682384542875,1.0176665739799795,0.05429222013698688,0.6780577047275135,1.0112248400925705,0.0,0.0,0.0,0.0
0.00775101953465136,-0.010988067219748498,0.7314760633090184,0.001487829032715293,-0.5224907336261638,-0.0018264471001124577,0.8526417088851289,0.03217627316158177,-0.8159966815677743,0.9038555722195768,-0.0687582757032615,-0.7833093656738073,0.8406294301937927,0.0018198791380320044,0.6560341628619641,1.021338677165373,0.05728847750269966,0.6804203035319681,1.0089445634303942,0.0,0.0,0.0,0.0
0.007825690559901425,-0.011349457775267763,0.7318262386185466,0.0014871581206060641,-0.5224748600939142,-0.001813883107914514,0.8526514638224929,0.03305049404357006,-0.814457898803225,0.9027447009629144,-0.06787738158487612,-0.783705415947181,0.8426166725837889,0.00017347703641173626,0.6552547533788194,1.0248872451163222,0.060026823514768075,0.6825476528243957,1.0068096235522592,0.0,0.0,0.0,0.0
0.00788364740113549,-0.011683167142063017,0.7321552051530384,0.0014860601293355212,-0.522456365415318,-0.0018019107162446258,0.8526628237351963,0.033855639551839685,-0.8129842260874296,0.9016192067672321,-0.06706308662937402,-0.7840109850265715,0.8443428216290378,-0.001505130009211632,0.654473673973319,1.0283847620277737,0.06255448833168314,0.6844954832346483,1.0047840237952523,0.0,0.0,0.0,0.0
0.007930777665180268,-0.011993818338277465,0.7324669376722641,0.0014841397708564125,-0.5224361158116252,-0.0017899553484855342,0.852675259571106,0.03460245545674373,-0.8115782664776715,0.9005103988910065,-0.06630567005449119,-0.7842527695668963,0.8458798984428253,-0.003224791700494831,0.653688983503705,1.0318718081381326,0.06491363687725261,0.6863086542232144,1.0028436382166515,0.0,0.0,0.0,0.0
0.007971237113461399,-0.012285265546812979,0.7327637896683092,0.001481263813647004,-0.5224148347916047,-0.0017777335051523471,0.8526883287056058,0.035300291544591314,-0.8102406686930534,0.8994376618555322,-0.06559654577396531,-0.7844522780944642,0.8472814549289248,-0.004985871970816382,0.6529042760383819,1.0353651964422428,0.06713721260443051,0.6880170664306007,1.000977497142831,0.0,0.0,0.0,0.0
0.008007721246549719,-0.012560029070638657,0.7330461434289764,0.0014773425298850048,-0.5223931833452696,-0.0017650269984498602,0.8527016266743834,0.03595523700675519,-0.8089744203971079,0.8984142342225188,-0.0649302135898186,-0.7846258947434982,0.8485827729035443,-0.006786111487734752,0.652128192235102,1.0388630030734494,0.0692476807036571,0.6896354774747077,0.9991895693663804,0.0,0.0,0.0,0.0
0.008041706071324583,-0.012819233616464216,0.7333120780265276,0.0014722338510980736,-0.5223718403771793,-0.0017515957878100007,0.8527147382452366,0.036569832628936996,-0.8077872027046517,0.8974502752799766,-0.0643046411762371,-0.7847864890240906,0.8498032061969043,-0.008625427059153283,0.6513752476789508,1.0423422596422753,0.07125789830023038,0.691163174402187,0.9975018570634859,0.0,0.0,0.0,0.0
0.00807333525997181,-0.013062864098431388,0.7335569133310471,0.0014656560303588533,-0.5223514845871882,-0.0017371097582541478,0.8527272488033023,0.03714362254569552,-0.8066920492719294,0.8965518472177958,-0.06372076710387936,-0.7849450026274093,0.8509470046018739,-0.010512065363789284,0.6506684179955589,1.04574639265655,0.07317409259772906,0.6925818438944027,0.9959597890843074,0.0,0.0,0.0,0.0
0.00810082645685042,-0.013290300946420995,0.7337726361933299,0.001457037049228596,-0.5223326033046423,-0.0017210283803072983,0.8527388619204278,0.037674296318314295,-0.80570640871856,0.8957153015948172,-0.06318135844152295,-0.7851114478691071,0.8520014147522569,-0.012472722631912738,0.650046218473546,1.0489577830567034,0.07500145909535756,0.6938512857570708,0.9946397934079346,0.0,0.0,0.0,0.0
0.008119509694305985,-0.013501096427424152,0.7339475428599256,0.0014452500249435133,-0.5223150636614279,-0.001702376132628583,0.8527496628203537,0.038159210767975876,-0.8048497543336051,0.8949183276211403,-0.06268943331799771,-0.7852949680879105,0.8529327902364697,-0.014568528100689876,0.6495807456628834,1.0517483301539667,0.0767526477673544,0.6949048903601617,0.9936556024023292,0.0,0.0,0.0,0.0
0.008121410904897652,-0.013695812044697064,0.7340672853393162,0.0014283299156086656,-0.5222975325405002,-0.0016795035666732148,0.8527604743675253,0.038597013479776156,-0.804140210007783,0.8941148498588429,-0.062246572749596565,-0.7855032700366301,0.8536871929259565,-0.01691221805496508,0.6494191228898128,1.0537010481840485,0.07845660757881075,0.695653164520969,0.9931507158035087,0.0,0.0,0.0,0.0
0.008098457047726007,-0.01387639281405775,0.7341203883135843,0.0014040390159367774,-0.5222777317758697,-0.0016508320298462685,0.8527726979207904,0.03899013988659825,-0.8035884689709162,0.8932535213041186,-0.06185046045647877,-0.7857436340471251,0.8542167893235936,-0.019654633317572844,0.6498532513429256,1.0541342788273909,0.08015218223895847,0.6960182464767191,0.9932444787075569,0.0,0.0,0.0,0.0
0.008050063276260172,-0.014043863653200319,0.7341074518104639,0.00137252759377226,-0.5222555593042886,-0.0016164576746760546,0.8527863941271313,0.039341296719960714,-0.8031872629578255,0.892323986660509,-0.061498291374594935,-0.7860155618733278,0.8545211606668072,-0.022789309056721167,0.6508789257500309,1.0530407638004111,0.08184481264069501,0.6960010770319272,0.9939352437443462,0.0,0.0,0.0,0.0
0.00798305441666828,-0.014198690714828197,0.7340414313306098,0.0013362952695482296,-0.5222329823137499,-0.0015781178451194306,0.8528003494621152,0.03965430564204096,-0.8029098793834564,0.8913549058848877,-0.06118590670989842,-0.7863107435865927,0.8546478535859419,-0.02615496384473017,0.6521972216103761,1.0510880006135348,0.08350976495196755,0.6956827368139558,0.9950986511259781,0.0,0.0,0.0,0.0
0.007904211142855559,-0.014343914435027524,0.7339389183727174,0.0012976187323256885,-0.5222108584435831,-0.0015376613662082057,0.8528140307867621,0.03993984990119423,-0.8027177556231168,0.890364967697072,-0.060902148925599295,-0.7866223515559411,0.8546557552079647,-0.02962967108768498,0.6536558059387737,1.0486801011351403,0.08514039841074576,0.6951600281016989,0.9965822515981615,0.0,0.0,0.0,0.0
0.007817913817403373,-0.014486055346691526,0.7338149638337503,0.0012582945127779682,-0.5221887067599689,-0.0014966472253059822,0.8528277266097494,0.040216975735409305,-0.8025652280226739,0.8893459422233962,-0.06062749100455669,-0.7869521354471856,0.8546036406840014,-0.03314171687590058,0.6551816070359868,1.0460360865364267,0.08675975059552114,0.6945146447032192,0.9982593429679599,0.0,0.0,0.0,0.0
0.00772806721094515,-0.014635738323094305,0.7336819676990451,0.0012203593356891417,-0.5221646605428021,-0.0014572653696865877,0.8528425730349971,0.04051690442032486,-0.8024088429050822,0.888278876962433,-0.06033081005131715,-0.7873290520788994,0.8545771259114933,-0.036649838582774506,0.6567460660932916,1.0432690070721253,0.08841499500033198,0.6938108221504286,1.000038300530809,0.0,0.0,0.0,0.0
0.0076319629168396675,-0.014800857089993793,0.7335507959091114,0.0011843326461905535,-0.5221364553783651,-0.0014192737252827314,0.8528599562549485,0.040857952538629824,-0.8021921473928408,0.8871000820531311,-0.059992568795006314,-0.7877401617236406,0.8545811442091982,-0.040128685461614674,0.6583252056635921,1.0404245087039212,0.09015700833166626,0.693089521662797,1.0018418966464278,0.0,0.0,0.0,0.0
0.007524469384298993,-0.014990820724074632,0.7334311510687175,0.001150604356814546,-0.5221006738129172,-0.0013829615478088027,0.8528819671742797,0.04126374073402905,-0.8018520645079427,0.8857232220991194,-0.0595877781080596,-0.788175236895352,0.8546114963549323,-0.04357810525713243,0.6599045042271598,1.0375219135443439,0.09204253190982997,0.6923744341039326,1.0036084242840624,0.0,0.0,0.0,0.0
0.007399725051744976,-0.015216893236999185,0.7333326586904848,0.001119281784980311,-0.5220527045226876,-0.00134808129272808,0.852911427749483,0.041761328449383094,-0.8013252379822653,0.8840544251163842,-0.05908811522985796,-0.788631273740774,0.8546706400511683,-0.047018892791827034,0.6614797898705843,1.0345757384552228,0.09414598415285914,0.6916857182114099,1.0052816049442823,0.0,0.0,0.0,0.0
0.00725094107836264,-0.015491789638742474,0.7332652693324652,0.0010896238934326712,-0.5219863738600811,-0.0013134093665318788,0.8529521165810016,0.0423793531694378,-0.8005504355626253,0.8819945627908501,-0.05846373985639592,-0.7891094300897797,0.8547637176653797,-0.05052327066920416,0.6630557403040631,1.0316131274868863,0.09656243180254498,0.6910417653465111,1.0068052571180435,0.0,0.0,0.0,0.0
0.00707039447738314,-0.015828991919272235,0.733238991287747,0.001058955853388281,-0.5218932244117601,-0.0012756399382919288,0.853009210775795,0.04314409148111412,-0.7994787916348988,0.8794491104458033,-0.05768738212306756,-0.789614384903764,0.8548966042484657,-0.05427674852202129,0.6646477028059085,1.0286914912031422,0.09941646562035814,0.6904596349079631,1.0081228369787396,0.0,0.0,0.0,0.0
0.006849879307779132,-0.01624140959217762,0.7332627773559482,0.0010206709473945628,-0.5217614468085918,-0.0012273572070899215,0.8530899392498474,0.044072134547340505,-0.7980959623386398,0.8763512100150233,-0.056742102745013324,-0.7901559578512094,0.855076319920181,-0.058701449843432826,0.6662921540327325,1.0259235586249646,0.10287872722092259,0.6899551647733476,1.0091821826269372,0.0,0.0,0.0,0.0
0.006582251271121047,-0.016738721628340475,0.7333422447657282,0.0009607189747674527,-0.521574299783385,-0.0011534099308513064,0.8532045455048014,0.04515674507906479,-0.7964656581655554,0.8727108887310392,-0.055635917022154265,-0.7907544905449406,0.85531714681009,-0.064681724050549,0.6680780039106042,1.0235169547721163,0.1071941691952226,0.6895448612730551,1.0099459136614966,0.0,0.0,0.0,0.0
0.006265493382438701,-0.01732199997167957,0.733475566459993,0.0008523550016717366,-0.52130800265168,-0.0010251847831787466,0.8533675578895811,0.04634345372153476,-0.7948098264617527,0.8687141361413835,-0.0544282002642814,-0.7914549403970973,0.8556614270066011,-0.0739106830459832,0.6702144066433686,1.0218348606382635,0.11271744711738171,0.6892513026435693,1.0104081761906853,0.0,0.0,0.0,0.0
0.0059118577736793874,-0.017973086018998982,0.7336448149080452,0.0006521626295651652,-0.5209304784539569,-0.0007949367647885757,0.8535984883873542,0.04749265781917782,-0.7936386733350496,0.8648992900124869,-0.053270726336170936,-0.7923658146040005,0.8562346662067785,-0.08915854130262713,0.6731106410497092,1.0214635172052466,0.11990442919682609,0.6890993402643343,1.0106331842993068,0.0,0.0,0.0,0.0
0.005563208803832106,-0.018636070381564042,0.7337881407911158,0.00031729573470072316,-0.5204053626606263,-0.00041281196983646376,0.8539191925608396,0.04837029245748534,-0.7938935511406154,0.8623711532396587,-0.05242283082195078,-0.7938133939911964,0.8573926111097425,-0.11323430731209289,0.6771826270236238,1.0231604257209475,0.1289535026389482,0.6889623954227216,1.0109298238289963,0.0,0.0,0.0,0.0
0.005232989803143441,-0.01914455848012126,0.7336994628177652,-6.708378791176739e-05,-0.5197608490177984,4.3542189976886135e-05,0.8543118010610298,0.04871861356920461,-0.7963193718407938,0.8619054105385864,-0.05216193347756423,-0.7961768580121473,0.8589323358652715,-0.14104693316394212,0.6805718308813298,1.0275344655256926,0.13753704992792576,0.6875493839085297,1.0126370778256406,0.0,0.0,0.0,0.0
0.005233725636646475,-0.019148449809986274,0.7336978473790965,-7.132855396371631e-05,-0.5197612542940948,4.795360200708135e-05,0.8543115539118729,0.048717487695343877,-0.7963230974677571,0.8618966981558378,-0.052162141301773254,-0.79617718733236,0.8589386533489605,-0.14105292587688883,0.6805699834604888,1.027532807188382,0.13754593915464902,0.6875370440244752,1.0126269609395526,0.0,0.0,0.0,0.0
0.005233725636646475,-0.019148449809986274,0.7336978473790965,-7.132855396371631e-05,-0.5197612542940948,4.795360200708135e-05,0.8543115539118729,0.048717487695343877,-0.7963230974677571,0.8618966981558378,-0.052162141301773254,-0.79617718733236,0.8589386533489605,-0.14105292587688883,0.6805699834604888,1.027532807188382,0.13754593915464902,0.6875370440244752,1.0126269609395526,0.0,0.0,0.0,0.0
0.005306895897549959,-0.019259226128726267,0.7337661315591755,-6.216576799159909e-05,-0.5201743804048677,4.518503995055452e-05,0.8540600728661546,0.04895482204953414,-0.7936984031687382,0.8596224844261886,-0.05183635165784357,-0.7942007145244517,0.8576671267607737,-0.1410003868985004,0.6823961975250186,1.0273706477274218,0.13896434927842935,0.6894643066650075,1.01310185718889,0.0,0.0,0.0,0.0
0.005377448313464127,-0.019384039315301943,0.7337981645405851,-4.2243316572273165e-05,-0.5204457392533444,2.8815554004541035e-05,0.8538947416855346,0.049274507439186044,-0.791941487482431,0.8581040596678421,-0.051465448202641866,-0.7932498748840738,0.8573438831069669,-0.14079591869272987,0.6836338192918588,1.0272121970265249,0.1401452917835105,0.6907391451240652,1.0136497294761098,0.0,0.0,0.0,0.0
0.005438826602846639,-0.01949805998449697,0.733809042466072,-2.005494546588229e-05,-0.5206174973210899,8.426424166865792e-06,0.8537900333278197,0.04958754951617884,-0.7908182827504249,0.8571453431536991,-0.05112478955682192,-0.7928941640167142,0.8575039328646226,-0.1405557477857127,0.6844443341730001,1.0270835889004049,0.14105563280238043,0.6915511561144967,1.0141606801935465,0.0,0.0,0.0,0.0
0.005490874454250716,-0.0195983099855573,0.7338056788091833,9.73234409200921e-07,-0.5207266729356275,-1.1726166348165517e-05,0.8537234516838236,0.049872911024099874,-0.7901061857896894,0.8565431391031016,-0.050825846831471594,-0.7928688101633465,0.8578951249606855,-0.14030594439816776,0.6849640479490736,1.0270052231726727,0.14177146165777008,0.6920590960988395,1.0146427281971042,0.0,0.0,0.0,0.0
0.005537072615169941,-0.01969198197573215,0.7337895248593725,2.083272127809568e-05,-0.5207974109896354,-3.107855767610261e-05,0.853680300409125,0.0501448457692253,-0.7896558109283887,0.8561588295692608,-0.050549354581393424,-0.7930618689865364,0.8584396637513473,-0.1400296180238731,0.6852824305908791,1.0269886842644005,0.14238993273278247,0.6923643098120251,1.0151503920053695,0.0,0.0,0.0,0.0
0.00558268326676862,-0.0197911251119925,0.7337586562281505,4.117191210972974e-05,-0.5208455825515412,-5.0796202317689545e-05,0.8536509092487192,0.05043459574739709,-0.7893683073968372,0.8558991206551011,-0.050261753923222144,-0.7934497839926619,0.85915730228056,-0.13968577656781359,0.6854560561534719,1.0270439770376625,0.1430152633547183,0.6925305371785024,1.0157630411344636,0.0,0.0,0.0,0.0
0.0056332673875450386,-0.019910161712093203,0.7337088858721545,6.441595082906956e-05,-0.5208818350832841,-7.27193066776356e-05,0.8536287860907444,0.05078138169723178,-0.7891758600526755,0.855695212521606,-0.04992299601864132,-0.7940577108890079,0.8601169693513218,-0.13921777323358298,0.6855163177338383,1.027183893903179,0.14375442343356798,0.6925951727438183,1.016575964354732,0.0,0.0,0.0,0.0
0.005693532130911057,-0.020064274169719693,0.7336362119430545,9.318913974721294e-05,-0.5209139835229477,-9.861017243648164e-05,0.8536091631197924,0.051226201689990786,-0.7890200592397769,0.8554821022729079,-0.04949162839967314,-0.7949245857241276,0.8613981241851484,-0.13855784562083107,0.6854827637941732,1.0274120767202854,0.1447152044288571,0.692585663300633,1.017679726991165,0.0,0.0,0.0,0.0
0.005781874216607819,-0.020275368508199047,0.7335468331946922,0.00013139454523137408,-0.5209464642782204,-0.00013016424550832924,0.8535893316746429,0.051827238790783936,-0.7888818456607881,0.8553077184673961,-0.04891155194453001,-0.7961690153083908,0.8632547708754753,-0.13759628293470505,0.6854513306202117,1.0275998738882701,0.14605389726035856,0.6926148053576432,1.0190710173112263,0.0,0.0,0.0,0.0
0.005917207780685224,-0.020555020983895056,0.7335091177352259,0.00016133312072154425,-0.5209767216360008,-0.0001611780369479538,0.853570854414951,0.05260758420582369,-0.7886668283123693,0.8552649077994836,-0.04815634078258693,-0.7976769703665056,0.8657998349056001,-0.1360538412399269,0.6857294396148866,1.0270651283874705,0.14801343141725237,0.6931012916169337,1.0201428537015917,0.0,0.0,0.0,0.0
0.006187554243321953,-0.0211294038783434,0.7336118882599096,-0.0002768371071065694,-0.5212635520781633,0.00034231327369165356,0.8533956382931043,0.052981545812652714,-0.7880680399270567,0.8550427739756022,-0.0477673542531533,-0.7970277003389574,0.8678434056106284,-0.12542578473621582,0.685523976692094,1.0243046849424609,0.11547141259129524,0.6854107418538784,1.01759736039219,0.0,0.0,0.0,0.0
0.0064911937595721735,-0.021790252534196974,0.7335999739551676,-0.0006357451244289833,-0.5215339515558274,0.0007499488244735301,0.8532299635968379,0.05379125572879559,-0.7875758769422259,0.8547983453632806,-0.04696267793137425,-0.797533567968476,0.8710924281787431,-0.11543763054095842,0.6851445983237285,1.022288562963664,0.08873722031167297,0.6788006793390406,1.016523020551639,0.0,0.0,0.0,0.0
0.006792660968893187,-0.022408458980502644,0.7335696700306557,-0.0008433286131766946,-0.5217319574515255,0.0009923142204986363,0.853108474159727,0.05484643037836087,-0.7871435391877671,0.8547047735572091,-0.04592782246165851,-0.798921933872407,0.8750160594986471,-0.10793558334680653,0.6851368797481799,1.020536870404031,0.07207158447942047,0.6743479721670722,1.0170073657561733,0.0,0.0,0.0,0.0
0.007056530500046456,-0.02294263285535807,0.7335519594891768,-0.0009546461584612608,-0.5218726477838834,0.001127991660767545,0.8530221308855733,0.055914669005483045,-0.7866989145977219,0.8546097613234603,-0.044881916856173154,-0.8005168654193995,0.8787815029608528,-0.102411855959535,0.685379335524949,1.0189312848632142,0.06206367850306511,0.6712961642147964,1.018586575653468,0.0,0.0,0.0,0.0
0.007275164233684322,-0.02338605692318625,0.7335610821578779,-0.001017424248324788,-0.5219734510413265,0.0012077351663785916,0.8529602702539402,0.05687069944266762,-0.7862378079302246,0.8544868622229588,-0.04394384546245954,-0.8019516078342288,0.8820293210268514,-0.09823611789503643,0.6857696982382021,1.0173722378874155,0.05563758197247219,0.6689971271176945,1.0208165377607037,0.0,0.0,0.0,0.0
0.007452935775248898,-0.02374699633620434,0.7336029918055701,-0.00105935675671584,-0.5220467222700145,0.0012612067121609931,0.8529152987770975,0.057672690396980614,-0.7857665220696978,0.8543499541046808,-0.04315357578180898,-0.8030882247010238,0.8846869287432481,-0.09495836338125321,0.6862618338056092,1.015778540847345,0.05094523498055123,0.6670729823778611,1.023395660610574,0.0,0.0,0.0,0.0
0.007597790158873324,-0.024038824235106483,0.7336775809826871,-0.0010943237807909305,-0.5221007165815742,0.0013038178381714507,0.8528821397236048,0.05832202674036366,-0.7852921827202609,0.8542182056838459,-0.042510017863888507,-0.8039097203875827,0.886808728024459,-0.09228554966807968,0.6868342869120891,1.0141057001025402,0.047022480817447754,0.6653271693171016,1.0261409041471503,0.0,0.0,0.0,0.0
0.007717806654778719,-0.024275752362884574,0.7337808284091563,-0.0011285294143326817,-0.5221411572538314,0.001342986181258784,0.8528572768705838,0.05883914797864494,-0.7848207277222772,0.8541050986582923,-0.041993823049735673,-0.8044537203540546,0.8884930275724516,-0.09002609235744194,0.6874722130773347,1.0123426693643094,0.0434062386129131,0.6636609702597228,1.0289483894951514,0.0,0.0,0.0,0.0
0.007820058779731213,-0.024471083305513352,0.7339067547432827,-0.0011643055235865836,-0.5221722047321572,0.0013819624425424285,0.8528381576697968,0.059251025746627335,-0.7843567231882153,0.8540173457521362,-0.04157928112645021,-0.8047777951411136,0.8898449567668303,-0.08804968207154314,0.6881613033993018,1.0105001516082321,0.03988942752048373,0.6620255884084997,1.0317633154206745,0.0,0.0,0.0,0.0
0.007910407666683187,-0.0246365334929632,0.7340487454197121,-0.0012021738644767068,-0.5221969890272168,0.0014219328424689346,0.8528228641024465,0.059585004892439855,-0.7839040209935829,0.8539571437755179,-0.041240245127543346,-0.8049428846056257,0.8909617490205589,-0.08626349445104692,0.6888866480897896,1.0086005298175031,0.036387472494245225,0.6603986080725922,1.0345595983654918,0.0,0.0,0.0,0.0
0.00799366346444676,-0.024782016573522532,0.7342001537365893,-0.0012418840269011867,-0.5222179484684079,0.0014631118151938857,0.8528099033930875,0.05986594903073314,-0.7834670528735155,0.8539252936565317,-0.04095294039506062,-0.8050064896618507,0.8919283770183507,-0.0845992961957066,0.6896327269273809,1.006672798151378,0.03287122017831476,0.6587733111294635,1.0373258750636771,0.0,0.0,0.0,0.0
0.008073883666617968,-0.02491561876167143,0.7343542508538599,-0.0012829316295230539,-0.5222370492924794,0.0015053320370429872,0.8527980724697827,0.0601149500517161,-0.7830533137310118,0.8539249443669581,-0.04069731860892017,-0.8050213925275446,0.8928181315744299,-0.08300631251929444,0.6903824343436048,1.0047528011569389,0.02933523273764764,0.6571544843828265,1.040054330559738,0.0,0.0,0.0,0.0
0.008154603507423763,-0.025043626695133502,0.7345034692482796,-0.0013248211889831487,-0.5222554569353693,0.001548639001742963,0.8527866581198887,0.0603480915780365,-0.7826803992196677,0.8539681899414898,-0.04045853457575856,-0.805039980086176,0.8936971522016499,-0.08144493035679488,0.6911112553655617,1.0028887172178953,0.02578481717068668,0.6555580380140624,1.0427255738543355,0.0,0.0,0.0,0.0
0.008232435620308745,-0.025175738771888945,0.7346390093968993,-0.0013661063040549832,-0.5222744003646136,0.0015913590122860768,0.8527749128895873,0.06059308839615789,-0.7823190134997395,0.853978948896784,-0.04020854946357005,-0.8050961534936268,0.8945819757829968,-0.07986528444904355,0.6917700646321349,1.0011385806530855,0.022244647915117616,0.6539933193713185,1.045282704298578,0.0,0.0,0.0,0.0
0.008305141806348573,-0.025317775388751827,0.734749520209514,-0.0014056582167244363,-0.5222943060423163,0.0016325554333178488,0.852762579363981,0.060866545324895514,-0.7819715405135278,0.8539203645582283,-0.03993126854116498,-0.8052308228460939,0.8954917275020815,-0.07824032801578454,0.6922995034203238,0.9995929360601464,0.018750089577341807,0.6524966737537723,1.047613275715573,0.0,0.0,0.0,0.0
0.008368383237034658,-0.02547297481423345,0.7348207207432261,-0.001442098173510905,-0.5223152147424256,0.0016710697442905856,0.8527496375416066,0.06117893456489486,-0.7816474241579617,0.8537517744523715,-0.0396167325996729,-0.8054799991892346,0.8964214988382847,-0.07656537386188514,0.6926213026506727,0.9983795398841903,0.015369188168705378,0.6511426577976183,1.0495002345680564,0.0,0.0,0.0,0.0
0.008414730717916246,-0.025642280876059183,0.7348361692032971,-0.0014734650654796167,-0.5223362083554465,0.0017052044759094296,0.8527366572507903,0.06153583485300504,-0.7813569410068545,0.8534184298799351,-0.03925968413550026,-0.8058725482809754,0.897336837390599,-0.07485915443648095,0.692638116731483,0.9976555750760021,0.012223296958036776,0.6500857667962484,1.0505436997782438,0.0,0.0,0.0,0.0
0.008436763089337287,-0.025824864561819986,0.7347828222342608,-0.0014976343875443851,-0.5223555896058466,0.0017334427357647022,0.8527246860945514,0.061937678301628704,-0.781108927252698,0.8528725274653509,-0.03885983783554317,-0.8064265391265251,0.8981956105584075,-0.07315191575160816,0.6922672939044897,0.99755079537024,0.009478636058173642,0.6496307876431997,1.0500873606346612,0.0,0.0,0.0,0.0
0.008434628380282968,-0.02602120453484609,0.7346601655990721,-0.0015145254323523517,-0.5223734832128475,0.0017557097565482978,0.8527136493173089,0.06238581659561953,-0.7809029432393699,0.8521124920697244,-0.038415830285681934,-0.8071451006429243,0.8990012818031641,-0.07144132395570103,0.691506971051842,0.9980685549422135,0.00713975176595247,0.6497805831000827,1.0481373823247646,0.0,0.0,0.0,0.0
0.008416117287960658,-0.02623334742264668,0.7344800601808791,-0.0015260937719486297,-0.5223918088268148,0.0017733884559975838,0.8527023655425332,0.06288316347715209,-0.7807296588493451,0.8511830231743382,-0.03792460968048713,-0.8080179181340111,0.899804793868231,-0.06969034716058026,0.69043540463795,0.9990858595930182,0.005048092880343396,0.6502350828384436,1.045360723743669,0.0,0.0,0.0,0.0
0.00838904242478488,-0.026462350936734363,0.7342573947102349,-0.0015340851659189545,-0.5224116615104242,0.001788027985745939,0.8526901579451611,0.0634295104658185,-0.7805777284692573,0.8501333821340648,-0.037386110449497544,-0.8090273057874959,0.9006533368113128,-0.0678679812584906,0.6891434699214926,1.0004526651785175,0.0030894732061109175,0.6508427797783229,1.0421665881217663,0.0,0.0,0.0,0.0
0.008357914148582073,-0.026708399510311964,0.7340042139782328,-0.0015395664072924758,-0.522433139532861,0.001800575486735256,0.8526769625016453,0.06402344636405446,-0.7804339044298686,0.8489915417655738,-0.036801287095440144,-0.8101536805501035,0.9015697519371687,-0.06595727246319076,0.6876984013455673,1.002050308187961,0.0012039725576802282,0.6515310856261153,1.038780087178952,0.0,0.0,0.0,0.0
0.008324153409021666,-0.026971564531922662,0.7337285606303706,-0.0015431466444180526,-0.5224557846537298,0.0018115742060105368,0.852663057707548,0.06466391123181257,-0.7802837892102967,0.8477627277102204,-0.03617062383432051,-0.811379081945308,0.9025564617708631,-0.06394756941820393,0.6861388735005993,1.003800367956404,-0.0006334589240301323,0.6522631883594241,1.0353173062880234,0.0,0.0,0.0,0.0
0.008286843499237861,-0.027252604248968082,0.7334348723907308,-0.0015451979790047478,-0.5224788531202222,0.00182138128993346,0.8526488978328534,0.06535180645045963,-0.7801112687362928,0.8464317399508523,-0.03549256206972763,-0.812689423052761,0.9036033344273776,-0.06182598349365082,0.684478640083422,1.005657790878489,-0.0024299291729298488,0.6530187017772645,1.031832136179177,0.0,0.0,0.0,0.0
0.008243096179332462,-0.02755354269617896,0.733124660065065,-0.0015460349941888649,-0.5225013716668598,0.0018303489866143762,0.8526350779815677,0.06609107770722487,-0.7798967477305794,0.844962969481706,-0.03476238445526209,-0.8140746836124776,0.9046917053478875,-0.0595706651544074,0.6827099730319734,1.0076020584274332,-0.0041852307836973265,0.6537858507128388,1.0283414351535938,0.0,0.0,0.0,0.0
0.008187947115014317,-0.02787788296810521,0.732797118809724,-0.0015461230939964143,-0.522522054905725,0.001839042811375907,0.8526223839203463,0.066888752434284,-0.779615054396992,0.843298200154193,-0.03397208709388034,-0.8155266989810201,0.9057930788683349,-0.057146181275984066,0.6808050103847731,1.0096303278025809,-0.005898553513846009,0.6545584658301387,1.024835027412508,0.0,0.0,0.0,0.0
0.008114119424559193,-0.028230201111105347,0.7324497124938177,-0.0015464204723739628,-0.5225392194312917,0.00184860858000648,0.8526118433297634,0.06775309155139259,-0.7792349569862157,0.8413562809088405,-0.033112140740278,-0.8170343534245941,0.9068637448645865,-0.0545016958161428,0.6787164230681569,1.0117528084627918,-0.007574119835065367,0.6553353209022837,1.0212753813725894,0.0,0.0,0.0,0.0
0.00801274217748757,-0.028614380280312757,0.7320789371366845,-0.001549038381072933,-0.5225510377844842,0.0018614777474423839,0.852604567364642,0.06868772062260221,-0.7787261545446285,0.8390475378728508,-0.03217747166858692,-0.81857653358902,0.9078403192317172,-0.05157551066022835,0.6763825924450388,1.0139902172039255,-0.009229612492399829,0.6561237023775474,1.017592720577964,0.0,0.0,0.0,0.0
0.007878406045209176,-0.0290282901778282,0.73168138154179,-0.0015587140029377192,-0.5225570910892715,0.0018828927897416793,0.8526007926795037,0.06967568292627592,-0.7780939200708711,0.8363440653286305,-0.03118440577230157,-0.8201168441652171,0.9086538038597295,-0.04831702695494306,0.6737508490653743,1.0163772017042212,-0.01092282707173062,0.6569579315010905,1.0136873741943089,0.0,0.0,0.0,0.0
0.0077302813051166016,-0.029447526617422937,0.7312528291915928,-0.0015871178788153869,-0.5225560172799267,0.0019266112199320658,0.8526013007441327,0.0706301502541402,-0.777574546041417,0.8336061390033933,-0.030226526989217156,-0.8216701144561871,0.9093736636185368,-0.044743377649003456,0.6708230000240847,1.018990402074878,-0.01287060329367503,0.657964489990569,1.0094170153239437,0.0,0.0,0.0,0.0
0.007576281220117902,-0.029853039813438332,0.7307903151238584,-0.001650564828658073,-0.5225473737380408,0.0020107821224722216,0.8526062834570706,0.0714671743716052,-0.7773383397724092,0.8310644859457915,-0.029392017420200978,-0.823185032831403,0.909962771955832,-0.04076556862741218,0.6675503854207337,1.0218863622955876,-0.015398715539585923,0.6592608783367888,1.0044972167826596,0.0,0.0,0.0,0.0
0.007425489238653066,-0.03022070042975612,0.7302947380937566,-0.0017755054850168688,-0.52252861509083,0.0021668077305219383,0.8526171467521579,0.07206129540354121,-0.7776205972143817,0.8290314747012011,-0.02881199688617436,-0.8245670474393645,0.9103530457649812,-0.03617192811620415,0.6638523628401887,1.0250833140177642,-0.019003868134332084,0.6609950551748588,0.9984352791827541,0.0,0.0,0.0,0.0
0.0072991102334990544,-0.030515039445477465,0.7297851844406904,-0.0020019348983739685,-0.5224917572393315,0.002451896493370241,0.8526384603553865,0.07219897203049878,-0.7788022109412798,0.8280658793749177,-0.028709176443491715,-0.825667325729701,0.9105092371339275,-0.030567300296460324,0.6596732951382129,1.02842327637934,-0.02402473022340767,0.6634503080827837,0.990503670398544,0.0,0.0,0.0,0.0
0.007231204953009221,-0.030704575929097214,0.7293613887025778,-0.002354700065376361,-0.5224313082283796,0.002893563800016534,0.8526732145780828,0.07174162526819729,-0.7809755703413461,0.8286458748952696,-0.029222063654081105,-0.8262152857175895,0.9104700561685269,-0.02383898641257998,0.6554768298097245,1.0310392330691232,-0.029248277791560584,0.6673083529785888,0.9800619818998227,0.0,0.0,0.0,0.0
0.007231571041052707,-0.030707954513567875,0.7293577475150608,-0.002356170344044927,-0.5224323779253378,0.002894928869902732,0.8526725504807957,0.07174576096138853,-0.7809709162456134,0.8286253242675176,-0.029216929113563946,-0.8262233466319867,0.9104773275423856,-0.023830281594330333,0.6554639325461037,1.0310400826063235,-0.029249727465772955,0.6673058101461763,0.9800573889745781,0.0,0.0,0.0,0.0
0.007231571041052707,-0.030707954513567875,0.7293577475150608,-0.002356170344044927,-0.5224323779253378,0.002894928869902732,0.8526725504807957,0.07174576096138853,-0.7809709162456134,0.8286253242675176,-0.029216929113563946,-0.8262233466319867,0.9104773275423856,-0.023830281594330333,0.6554639325461037,1.0310400826063235,-0.029249727465772955,0.6673058101461763,0.9800573889745781,0.0,0.0,0.0,0.0
0.007037614359146819,-0.030896029231056835,0.7294876121479006,-0.002023990437424349,-0.5227054742611731,0.0025239343915672142,0.8525071966824083,0.0668412481797758,-0.7891277482595573,0.8432598182239802,-0.0279017350893525,-0.8248231090588418,0.9085338971605651,-0.02723742758403383,0.6576015000068294,1.0304039959404525,-0.032492110652230746,0.6666866966145324,0.979826292341905,0.0,0.0,0.0,0.0
0.006594850556578207,-0.03137870760969962,0.7296396559499246,-0.0017386738304408752,-0.5228932314472111,0.0021808348816127515,0.8523936235561735,0.0619033645506494,-0.7952419299165673,0.8518195207898784,-0.02587438422361066,-0.8232000541346373,0.9056358954046586,-0.027950677804840153,0.6584715607293962,1.0286647945061929,-0.03316249901435666,0.6654909807783114,0.9805976291724217,0.0,0.0,0.0,0.0
0.005994875281260813,-0.0320685891943016,0.7297245784056938,-0.0014834990586543976,-0.523005133083922,0.0018789071705506352,0.852326169788454,0.05820319709462553,-0.7997269248560711,0.8562500967531552,-0.023416709125766353,-0.8218127211406516,0.9023940596410114,-0.02661953494392494,0.6580271464098247,1.0268082493522026,-0.031913345663193815,0.6635556943460573,0.9827987622750828,0.0,0.0,0.0,0.0
0.005358924289394468,-0.032806622935672075,0.729817306671274,-0.001263137205676441,-0.5230704264227836,0.0016287844778295603,0.8522869707718239,0.0556743373867774,-0.8030895146809504,0.8584439900789589,-0.020961946647318427,-0.8204409255611717,0.8990801137218891,-0.0243445962753908,0.657167907531255,1.0245969863965916,-0.02976697177549001,0.6616492963169169,0.9850886423377117,0.0,0.0,0.0,0.0
0.004749937996016567,-0.0335033131517678,0.729924262746633,-0.0010787459780118294,-0.5231057219850443,0.0014275154507175942,0.8522659221940405,0.05393531443240964,-0.8057385562744396,0.8594097791553824,-0.018730394958612687,-0.8190736483749382,0.8958705065946521,-0.021823258626528574,0.6562428077053661,1.0222337313272907,-0.027368373795774812,0.6599834025841683,0.9870468739289732,0.0,0.0,0.0,0.0
0.004197603524747436,-0.034120549743036376,0.7300339991571237,-0.0009276767119393564,-0.5231230032786116,0.0012671838365365294,0.8522557463002571,0.05259970328917262,-0.8079625480792515,0.859706952612166,-0.016798605502187335,-0.8177610415166895,0.8928853630113512,-0.019412325788211338,0.6553726156836555,1.0199512631803025,-0.025055452763610958,0.6585753562022651,0.9886317934531345,0.0,0.0,0.0,0.0
0.003713842591043102,-0.034649270415181836,0.7301376431576683,-0.0008053840071385622,-0.5231305865457014,0.0011390780728272791,0.8522513967592517,0.05138985111247886,-0.8099499302236062,0.8596557934216316,-0.015167341992653143,-0.8165516900899688,0.8902035900470205,-0.017261078859739883,0.6546040246408552,1.0178794820123869,-0.022976499515446887,0.6574026743197783,0.9898943196237764,0.0,0.0,0.0,0.0
0.0033000597361402305,-0.03509527601607188,0.7302308081168578,-0.0007066891882814152,-0.5231339098639909,0.0010353517916309465,0.8522495767012574,0.05014890030669122,-0.8118194947821553,0.8594397684113783,-0.013802222652298777,-0.8154768547207291,0.8878645847690808,-0.01540552903934232,0.6539524460379237,1.0160631577035182,-0.02117279071476303,0.656435542416184,0.9909021044673254,0.0,0.0,0.0,0.0
0.002951527127694587,-0.03547062212352248,0.7303122743558846,-0.000626609660545611,-0.5231363309229564,0.0009496206667422761,0.8522482530632666,0.048810839216371533,-0.8136447495629227,0.8591614853667567,-0.012657079136009032,-0.8145485897178022,0.8858727965685796,-0.013826509300919583,0.6534171983069318,1.0144967519837618,-0.01963111258920844,0.655643758540128,0.9917177202177436,0.0,0.0,0.0,0.0
0.0026603739739061655,-0.035788748419175065,0.7303826017590836,-0.0005608034290413843,-0.5231397581662075,0.0008769930638557222,0.8522462729801062,0.04736384195457095,-0.8154705728899049,0.858874651648484,-0.011686220281751526,-0.8137635193419895,0.8842066502454456,-0.0124831473485646,0.6529888987437842,1.0131508582623825,-0.018315346511776912,0.6549985769050682,0.9923924448479425,0.0,0.0,0.0,0.0
0.0024176478434135306,-0.036061989222059054,0.7304431558209544,-0.0005057427613064592,-0.5231451088333723,0.0008138612862893251,0.852243085602802,0.0458212166802178,-0.8173228600384754,0.8586031796407356,-0.01085003807398827,-0.8131084508529596,0.8828290271662085,-0.011330802326392405,0.6526539318081738,1.0119886376634253,-0.017184149625616346,0.6544736101180366,0.9929654538726197,0.0,0.0,0.0,0.0
0.0022146352992355226,-0.03630052547455106,0.7304954933249965,-0.000458724592612751,-0.5231526128626056,0.0007576344968495488,0.852238557691886,0.0442027210193345,-0.8192114625660717,0.8583538128745273,-0.010116863050501577,-0.8125657781414097,0.8816966476942937,-0.010329611100645104,0.6523971396826845,1.010974922438554,-0.01619977983962434,0.654045269805784,0.9934652305030702,0.0,0.0,0.0,0.0
0.0020435520014222015,-0.036512190262289954,0.7305409957471461,-0.00041779186904564863,-0.5231619834313326,0.0007064925263795336,0.8522328704118719,0.042524333598530466,-0.8211259673222059,0.8581264229452399,-0.00946277029409533,-0.8121176841151817,0.8807668141194054,-0.009447407196166813,0.6522030121632728,1.0100805267369235,-0.01533137473810467,0.6536925727396826,0.9939120005322745,0.0,0.0,0.0,0.0
0.0018977043314571066,-0.036702803964245044,0.7305806747979634,-0.0003816047556112818,-0.5231724904844214,0.000659183566922294,0.8522264752136979,0.040793827668085564,-0.8230239589562814,0.8579249530568682,-0.008870206887096475,-0.8117487833074059,0.8800010360843782,-0.00865909603852194,0.6520556247654978,1.0092833837051187,-0.014554629126222478,0.6533962789743153,0.9943206979430117,0.0,0.0,0.0,0.0
0.0017712619798054632,-0.03687686889664359,0.7306151265413718,-0.00034927576900366106,-0.5231830123958835,0.0006148651173169149,0.8522200628286648,0.03901044783757564,-0.8248136809638452,0.8577706263638268,-0.008325861357019572,-0.8114471346852453,0.8793658683460472,-0.007943632711529213,0.6519379316004443,1.008567299452698,-0.01384899976904253,0.6531377808508512,0.9947041017083356,0.0,0.0,0.0,0.0
0.0016588767136418762,-0.037038458544881754,0.730644664428217,-0.00032017780692748424,-0.5231922076724043,0.0005729842153829484,0.8522144583414064,0.037168047171967165,-0.8263391809670066,0.8577159579351309,-0.007818173802860729,-0.8112035258530422,0.8788318589010674,-0.0072797095097942395,0.6518317120849839,1.0079186943027865,-0.013193557113882008,0.652898873465681,0.9950753722208959,0.0,0.0,0.0,0.0
0.0015555419532728145,-0.037191925400846385,0.7306696881492456,-0.00029376444117725566,-0.5231990259938567,0.0005332034668477416,0.8522103077266759,0.035260804709610856,-0.8273878230108551,0.8578511029818328,-0.0073354307821307824,-0.8110086477811195,0.8783717778363337,-0.006642447544655249,0.6517203062104647,1.0073221848619143,-0.01256378071355404,0.6526643157230646,0.9954482676100207,0.0,0.0,0.0,0.0
0.0014572117682412344,-0.03734155451580236,0.7306911742059957,-0.00026953105176611585,-0.5232037050186837,0.0004954024604243301,0.8522074659284185,0.03328795948005977,-0.8277573690962894,0.8582786502455281,-0.006866659361880872,-0.8108480365307779,0.8779591613257386,-0.006006081623546626,0.6515956865872762,1.0067588083396264,-0.011934254155099046,0.6524284038502008,0.9958329278961235,0.0,0.0,0.0,0.0
0.0013620394359874386,-0.0374886730537277,0.7307095363465305,-0.0002471972442593925,-0.5232060493591851,0.00045935497653997056,0.8522060536046913,0.031253380181673285,-0.8274441197793031,0.8589940232286348,-0.006408018139858822,-0.8107158043193644,0.8775815328790324,-0.005364719238013594,0.6514541158929654,1.0062218629074675,-0.0112990303011003,0.6521868078050821,0.9962312116930979,0.0,0.0,0.0,0.0
0.0012701823752857225,-0.03763185914826972,0.7307246776157891,-0.00022666081436377517,-0.52320543038055,0.0004246862910818724,0.8522064573134451,0.029165109305416728,-0.8266435191327589,0.8598861114805518,-0.005962155911975,-0.8106141759494565,0.8772393991540356,-0.004731280435486368,0.6512957699525854,1.0057160496341195,-0.010670738940569583,0.6519361528518952,0.9966371580679881,0.0,0.0,0.0,0.0
0.001182144748436828,-0.03777022896687014,0.730737216488011,-0.00020771674224369065,-0.5232024999211323,0.0003911084238006505,0.852208277338488,0.02703657243163918,-0.8255621438125186,0.8608561882411269,-0.0055306315014280955,-0.8105386022832376,0.8769305183106946,-0.004115017629621992,0.6511282910395628,1.0052400335294944,-0.010058586777516162,0.6516811693399942,0.9970425842750318,0.0,0.0,0.0,0.0
0.0010977731630740888,-0.037904163631767365,0.73074806465086,-0.00018999907429195832,-0.5231981892413349,0.0003583385746021208,0.8522109423543012,0.02488358657220948,-0.8243507480099536,0.8618429174726998,-0.0051119039698334975,-0.8104817530827866,0.8766490104914092,-0.003517376597043535,0.6509590536409436,1.0047867166938869,-0.009464125904847442,0.6514271464056679,0.9974422397539778,0.0,0.0,0.0,0.0
0.001016111173550994,-0.03803498873089766,0.7307581088648792,-0.00017305871233984385,-0.5231932137151489,0.0003260809402705435,0.852214013522611,0.022720123270561592,-0.8230971303702782,0.8628169292056059,-0.004702058502296468,-0.8104358343501237,0.8763858303834212,-0.002933892725825564,0.650792034686218,1.0043462973044774,-0.008883024128738306,0.6511766067087986,0.9978346636111045,0.0,0.0,0.0,0.0
0.0009356416407891117,-0.038164465583196035,0.7307680954109758,-0.00015644340305273732,-0.5231879529475316,0.0002940257485618538,0.8522172580773593,0.020555691621337996,-0.821841594187343,0.8637687143036175,-0.004296047593988662,-0.8103935899209276,0.8761300022314219,-0.0023572491995200212,0.6506278374889272,1.0039085530901055,-0.008308051398903634,0.6509290341743301,0.9982209811473816,0.0,0.0,0.0,0.0
0.0008545913558039183,-0.03829440478497317,0.7307786330028416,-0.0001397455742592433,-0.5231824999258151,0.0002618484853799141,0.8522206191344585,0.018394174845693702,-0.8205953253596056,0.8646986351903456,-0.003888639025369956,-0.8103485995492656,0.8758698762781594,-0.0017796636623904692,0.6504648803963453,1.0034639463291612,-0.0077314443543955325,0.6506818040074243,0.9986033486825664,0.0,0.0,0.0,0.0
0.0007711627603513735,-0.038426425995689566,0.7307902444446538,-0.0001226265364766997,-0.5231767531334233,0.00022920908928835088,0.852224159131091,0.016232997350977198,-0.8193540329184003,0.8656112223464382,-0.0034750063469330275,-0.8102951746083045,0.8755939292136689,-0.0011943947146069913,0.6503006643033916,1.0030039546813048,-0.007146416268748525,0.6504312765275725,0.9989836265547379,0.0,0.0,0.0,0.0
0.0006836843471221874,-0.03856177386992161,0.7308034331637001,-0.0001048378702776796,-0.5231704984786792,0.00019576268332411662,0.8522280095183231,0.014061924066607423,-0.8181058048271508,0.8665132005615278,-0.003051209954070668,-0.8102279624441343,0.8752909854994894,-0.0005967918538457188,0.6501327836063894,1.0025211204573317,-0.006548219355999474,0.6501737467574894,0.9993621837484861,0.0,0.0,0.0,0.0
0.0005907449455115727,-0.0387010705377137,0.7308187564360514,-8.626018277598402e-05,-0.5231634774167816,0.00016120590931562506,0.8522323289273978,0.011861987965661278,-0.8168352369579639,0.867413862507423,-0.0026149254759237003,-0.810141297915955,0.874950046825733,1.456944739055058e-05,0.6499597965176793,1.0020092072801854,-0.005935297058434229,0.649906427329237,0.9997364527119176,0.0,0.0,0.0,0.0
0.0004914298249710342,-0.03884389130657212,0.7308369086923515,-6.697358797347863e-05,-0.523155468112644,0.00012539667028062777,0.8522372533362138,0.009606848561881369,-0.8155272796007013,0.8683262258623907,-0.002166801231185857,-0.8100284104755016,0.8745602905021675,0.0006362303104876802,0.6497823272217489,1.0014637352293512,-0.005310970531623326,0.6496289608171969,1.0000988028900735,0.0,0.0,0.0,0.0
0.0003858333761675303,-0.03898808064538047,0.7308588125729685,-4.7363974433689656e-05,-0.5231464238890046,8.859516935715772e-05,0.8522428111047319,0.007271308191763054,-0.814174977626252,0.8692671719746189,-0.001712783255345855,-0.8098808922671737,0.8741124186765212,0.001257449289248717,0.6496049263743816,1.00088309662591,-0.004685893985390997,0.6493461668173952,1.0004334579811043,0.0,0.0,0.0,0.0
0.0002760862926671947,-0.039128796134839515,0.7308856740870886,-2.8251238577148157e-05,-0.5231367178038709,5.186736578747819e-05,0.8522487729513237,0.004854404990602308,-0.8127955212599186,0.8702541933986545,-0.0012675594290339418,-0.8096894882065997,0.8736035352288448,0.0018571770101832546,0.6494392172045059,1.0002705579207998,-0.004081182141810372,0.649072718366269,1.0007127504883484,0.0,0.0,0.0,0.0
0.00016815856210724227,-0.03925740977964813,0.7309188016235342,-1.0997290922403914e-05,-0.523127525745584,1.764443049843146e-05,0.8522544170463635,0.0024260363513157746,-0.8114579919394896,0.871295483808246,-0.0008588013299390666,-0.8094484487287202,0.8730489254098601,0.0024010037484982014,0.6493082121137563,0.9996383937033004,-0.0035316232033990726,0.6488396205657083,1.0008948138404508,0.0,0.0,0.0,0.0
7.45055869857836e-05,-0.03936063589072486,0.7309583685520565,2.479490323005177e-06,-0.5231212951928522,-9.685369453011859e-06,0.8522582416238628,0.0002030978282046565,-0.8103220311253029,0.872367849201024,-0.0005309719828484816,-0.8091679120961134,0.872504567533055,0.0028393414537459948,0.6492481256933377,0.9990203323177709,-0.0030877052018926086,0.6486983550142792,1.0009311358210065,0.0,0.0,0.0,0.0
1.6435799987750964e-05,-0.039420696572409916,0.730997610581731,9.859710283313343e-06,-0.5231213673955863,-2.3577527759414195e-05,0.8522581969808553,-0.0013500220890042135,-0.8096708317888157,0.8733511937991504,-0.00034552685164871284,-0.8089077052609859,0.8721028805655249,0.003109063660793726,0.6492857931295396,0.9985209696937154,-0.002814142198343058,0.648699223291771,1.0008172623014044,0.0,0.0,0.0,0.0
1.6715328375736825e-05,-0.03942037050253605,0.7309974141753995,9.048359093215887e-06,-0.5231211791521817,-2.3902433095870405e-05,0.8522583125257458,-0.0013530432209103093,-0.8096667425091469,0.8733529136535103,-0.0003450129954767528,-0.8089089149830186,0.8721041261431167,0.003109170306322579,0.6492855056748914,0.9985228870336995,-0.0028136975175847142,0.6486988487663912,1.000816808598211,0.0,0.0,0.0,0.0
1.6715328375736825e-05,-0.03942037050253605,0.7309974141753995,9.048359093215887e-06,-0.5231211791521817,-2.3902433095870405e-05,0.8522583125257458,-0.0013530432209103093,-0.8096667425091469,0.8733529136535103,-0.0003450129954767528,-0.8089089149830186,0.8721041261431167,0.003109170306322579,0.6492855056748914,0.9985228870336995,-0.0028136975175847142,0.6486988487663912,1.000816808598211,0.0,0.0,0.0,0.0
1.6715328375736825e-05,-0.03942037050253605,0.7309974141753995,9.048359093215887e-06,-0.5231211791521817,-2.3902433095870405e-05,0.8522583125257458,-0.0013530432209103093,-0.8096667425091469,0.8733529136535103,-0.0003450129954767528,-0.8089089149830186,0.8721041261431167,0.003109170306322579,0.6492855056748914,0.9985228870336995,-0.0028136975175847142,0.6486988487663912,1.000816808598211,0.0,0.0,0.0,0.0
2.3020825566951617e-05,-0.03943184271629141,0.7309998192769543,6.527833627511662e-06,-0.5231224391699067,-2.0241126927149843e-05,0.8522575392360054,-0.0013323328108587188,-0.8096670072207214,0.8733708624688374,-0.000324318508757786,-0.8089455850152565,0.8721940407347845,0.0032254663987173735,0.6493013919670158,0.9984536678382534,-0.002697275240998457,0.6487504294409316,1.0008357442394378,0.0,0.0,0.0,0.0
3.397148947367499e-05,-0.03944819272050736,0.731000455299554,5.870513933834006e-06,-0.5231251455514182,-1.8347458049642756e-05,0.852255878079298,-0.0012956526058381626,-0.8096718225966718,0.8734074927749922,-0.0002876406574117895,-0.8090211930931615,0.872348947379435,0.003352169747231852,0.6493309203534616,0.998384962359633,-0.0025707119772541745,0.6488060777186531,1.0008843885600536,0.0,0.0,0.0,0.0
4.997527215405703e-05,-0.039467387290856866,0.7309985660535256,6.42320087201161e-06,-0.523129809462286,-1.7594813835258497e-05,0.8522530153077296,-0.0012494436477254215,-0.8096894268202715,0.8734743421485355,-0.00024142101211847177,-0.8091303337263406,0.8725616552495158,0.0034835861553818366,0.6493714412063201,0.9983305296685782,-0.00243974641398835,0.6488662845734919,1.0009640152968262,0.0,0.0,0.0,0.0
7.198309099540631e-05,-0.03948964476992443,0.7309940910127456,8.069816204546167e-06,-0.5231366684552904,-1.777017979641092e-05,0.8522488050661018,-0.0011936599228235037,-0.8097236104011907,0.87357939923896,-0.00018561295664335615,-0.8092768383534956,0.872841000043159,0.0036232933150419392,0.6494253151946198,0.9982895246181215,-0.002300823825141952,0.6489350116468535,1.0010757864268598,0.0,0.0,0.0,0.0
0.00010092332376343255,-0.03951669763845839,0.7309871329246342,1.108916301994797e-05,-0.5231457881229349,-1.9052557038557895e-05,0.8522432070032966,-0.0011236016427830457,-0.8097737675679365,0.8737244829536226,-0.00011551538386588867,-0.8094697617290798,0.8732030961306934,0.0037801679306783886,0.6494960282008043,0.9982545264074847,-0.00214505606076023,0.6490156519065252,1.0012237916681261,0.0,0.0,0.0,0.0
0.00013708431509060881,-0.039551655006471675,0.7309780050121746,1.585632280508281e-05,-0.5231567000068698,-2.1718735827504977e-05,0.852236508555457,-0.001030871318572885,-0.8098348581046195,0.8739022293111204,-2.272803117383309e-05,-0.8097208860012655,0.8736657541217067,0.00397114922010587,0.6495845648866749,0.9982109977297775,-0.0019553895631605808,0.6491096023707913,1.0014142939372728,0.0,0.0,0.0,0.0
0.00017917300452143664,-0.039599078197276094,0.7309674937684137,2.2317490024403894e-05,-0.5231676132703941,-2.564773091819627e-05,0.852229808953596,-0.0009041911455267791,-0.8098976841508435,0.8740917093851794,0.00010403286068191183,-0.8100422695474939,0.874242042357542,0.004228099371654219,0.6496838293638734,0.9981331984288966,-0.0016996068530634972,0.6492147343428666,1.0016534170474543,0.0,0.0,0.0,0.0
0.00022287961370781102,-0.03966476299811505,0.7309571985267812,2.9003752803934468e-05,-0.5231741568492259,-2.9471178255713175e-05,0.8522257916158918,-0.0007316296078637568,-0.8099510749343002,0.8742538202587328,0.0002767104606743268,-0.810441836374064,0.8749292710758121,0.0046077328644344015,0.649769342869112,0.9979794268637766,-0.0013201560407789152,0.6493229536935037,1.0019430623942926,0.0,0.0,0.0,0.0
0.000258867056770051,-0.039754006399228166,0.7309502447931759,3.274195069390556e-05,-0.5231705861830471,-3.182462440591228e-05,0.8522279833871009,-0.0005013692258805333,-0.8099643957858914,0.8743085040899835,0.0005071336911125367,-0.8109002391726668,0.8756743267460783,0.005173623909627823,0.6498034141413727,0.9976969858772188,-0.0007520653518245715,0.6494173332441514,1.002271533341537,0.0,0.0,0.0,0.0
0.000271868554321286,-0.039860771298484074,0.7309674179847423,5.6525507252573284e-05,-0.523221813717376,-9.735341461544824e-05,0.8521965272033671,-6.660468537822049e-05,-0.8092824514120517,0.873616552338031,0.0009419815685283818,-0.8109897334906909,0.8759799335281412,0.00533509335047963,0.6502070037603699,0.997335274281282,-0.0005924051643261649,0.6495261402683176,1.0025062626907157,0.0,0.0,0.0,0.0
0.0003774109715916155,-0.0399976771483874,0.730951611943773,5.692453297923389e-05,-0.5231743499928008,-9.733805324691658e-05,0.8522256665898483,0.0002801081946175108,-0.8098562227444436,0.8744827869400441,-0.0036274301780867655,-0.8103940316636971,0.8730079083917632,0.00625891213564731,0.6502567476312041,0.9968118280312559,0.0003369795918073665,0.6497022972706331,1.0029299727517518,0.0,0.0,0.0,0.0
0.0005461281629083329,-0.040190051755206804,0.7309239341275418,8.613425336875538e-05,-0.5231572210503426,-0.000152724728923369,0.8522361710928084,0.0009006380925693533,-0.8103621797884645,0.8755276546698125,-0.00939344865578575,-0.8105349915667615,0.8705859823937929,0.007031272362554907,0.6506685320148382,0.9962718326917747,0.0011118557675016535,0.6499354104038927,1.0035958282250843,0.0,0.0,0.0,0.0
0.0007384814033933416,-0.04042562101956198,0.7308923370136945,0.00012910352176343353,-0.5231538582736283,-0.00023196434132682984,0.8522382120617694,0.0016875623607449678,-0.8107609480444502,0.8765281063537287,-0.015052527470297172,-0.8111216154500702,0.8685973183633492,0.007862012654500374,0.6512268671527043,0.9956499271096358,0.0019454279184697046,0.6501994143644733,1.0044241021908018,0.0,0.0,0.0,0.0
0.0009352846734123459,-0.04068853143965285,0.7308601350109988,0.0001761536489348426,-0.523152519087382,-0.0003166082620037429,0.8522389984632401,0.0025565365142697235,-0.8110898450420344,0.8774430760254847,-0.020219646447762193,-0.8119057985328034,0.8668621521959637,0.008819797929035932,0.6518083513406518,0.9949422474780861,0.002909048515090862,0.6504759014333482,1.0053429030565288,0.0,0.0,0.0,0.0
0.0011296164349110997,-0.04096600674162913,0.7308281334808457,0.00022325893334025542,-0.523150057835971,-0.0003992671015012246,0.8522404635591122,0.0034575307490552097,-0.8113760371828257,0.8782805229500096,-0.024913165415708552,-0.8127480179008388,0.865274801792159,0.009889572955210188,0.6523699310137075,0.9941769797435877,0.003988814560983601,0.6507584263978736,1.0063087386840432,0.0,0.0,0.0,0.0
0.001320229633434453,-0.04124983905593517,0.7307961527626168,0.0002691814308636964,-0.5231466804200688,-0.0004781688721514296,0.8522424829010516,0.0043656410488347504,-0.8116366237044331,0.8790617622484802,-0.029278536246373475,-0.8135872727510086,0.863773215881214,0.011034588955122005,0.6529050574172214,0.9933838380579115,0.005148225152844087,0.6510452668468306,1.0072986234616206,0.0,0.0,0.0,0.0
0.0015079305268310306,-0.041535749817035984,0.7307638700987091,0.00031382022530766177,-0.5231432423895161,-0.0005537721474654113,0.8522445322766575,0.00527129988583846,-0.8118817568756828,0.8798068039202757,-0.033459722320606365,-0.814406577836062,0.862318918630645,0.012223632346950673,0.653419626982713,0.9925822584361453,0.006355916536777588,0.6513363908506485,1.0083014614741903,0.0,0.0,0.0,0.0
0.0016939894820602738,-0.04182212092097779,0.7307310872866266,0.0003574505875536708,-0.5231403517196395,-0.0006271048877958556,0.8522462386958296,0.006173016193134025,-0.8121172826825255,0.880530353923164,-0.03755733292739152,-0.8152086289208754,0.8608873534556655,0.013437617755497153,0.653921631777916,0.9917809890521905,0.007592576321735002,0.6516324232663574,1.00931257258656,0.0,0.0,0.0,0.0
0.0018796570920777303,-0.04210886247373306,0.7306977176136563,0.0004004334418143131,-0.5231382712625634,-0.0006991193376930677,0.8522474406096078,0.007072928153479301,-0.8123468772962218,0.881242765256925,-0.04162786928459309,-0.8160024651490491,0.8594627081575253,0.014667775813139427,0.6544179168017396,0.9909816238116933,0.00884929187440955,0.651934420658875,1.0103308277690881,0.0,0.0,0.0,0.0
0.002066156325984577,-0.04239667259900606,0.7306636914919594,0.000443142172619963,-0.5231370515782889,-0.0007705463861380024,0.8522481065683023,0.007974574145233672,-0.8125736083038724,0.8819523757240255,-0.04569651698890213,-0.8167976911156608,0.85803448296221,0.015912012801958454,0.6549139133042403,0.990182146398182,0.01012395914213754,0.6522438734395996,1.0113573899356787,0.0,0.0,0.0,0.0
0.0022548002315699576,-0.042686675106147313,0.7306288662442643,0.0004859738999619089,-0.5231366473233066,-0.0008419427789193195,0.8522482638228464,0.008882096537694315,-0.8128009310936476,0.8826674749027892,-0.04977015100483334,-0.8176018791695836,0.8565950977958153,0.017172102570742677,0.6554141448746642,0.9893791969550604,0.011418475751088633,0.6525626324338237,1.012395360246015,0.0,0.0,0.0,0.0
0.002447066568576295,-0.04298031388550473,0.7305929568916483,0.0005293776159560957,-0.5231369365438906,-0.0009137732318486616,0.8522479864460191,0.00980018389463072,-0.813033272847499,0.8833973229796213,-0.05384593429036697,-0.8184171274155738,0.8551389324781093,0.018452288137335092,0.6559224526919553,0.9885691285843121,0.012737345885626502,0.6528925691875557,1.013449912259929,0.0,0.0,0.0,0.0
0.0026445576829166326,-0.04327935350410964,0.7305554791369545,0.0005738555604330927,-0.5231376390932666,-0.0009864505114129752,0.852247445387258,0.010734187451268485,-0.8132764185413673,0.8841522398522289,-0.0579152968299778,-0.8192324503989568,0.8536639053997616,0.019759012406599087,0.6564414930382003,0.9877484280537303,0.014087441521598802,0.6532348839643198,1.0145286217386118,0.0,0.0,0.0,0.0
0.0028488311239907465,-0.043585826564164584,0.7305156995723545,0.0006199064377052757,-0.5231381818360046,-0.0010603046160425878,0.8522469912973873,0.01168994739881722,-0.8135378365015786,0.884943044104387,-0.061964962050681166,-0.8200098998326575,0.852177156376541,0.02110106969158683,0.6569715159936663,0.9869141871549583,0.015478205923982422,0.6535891497964738,1.0156416458152493,0.0,0.0,0.0,0.0
0.003061154949099456,-0.04390177903261072,0.7304726166808653,0.0006679019470053082,-0.5231376389820449,-0.0011354941051420595,0.8522471913948546,0.012672988534481195,-0.8138267507293877,0.8857802005037385,-0.06597735171465878,-0.8206652050256736,0.8507060931787588,0.022489162163012666,0.6575091089654108,0.9860651705822993,0.016921239184527842,0.6539525993458843,1.0168012451277664,0.0,0.0,0.0,0.0
0.0032823572133188384,-0.04422875853347573,0.7304250445314487,0.0007179425879109553,-0.5231349449512537,-0.0012119347653572845,0.8522486991151197,0.01368711413567388,-0.8141534044791758,0.8866732336210229,-0.06993255835625105,-0.8210505932897251,0.8493136121146388,0.02393378828454766,0.6580475303534051,0.9852033613250347,0.018428113336083067,0.6543207390457318,1.0180199858451695,0.0,0.0,0.0,0.0
0.003513115315893027,-0.044567306475092966,0.7303719217126691,0.000769873810681134,-0.5231296494083482,-0.0012894402471100943,0.8522517905807317,0.014733464536449673,-0.8145261152981529,0.8876306909567527,-0.07381235155436605,-0.8209605153909775,0.8481089408317312,0.025440992249770755,0.6585815694337153,0.9843343946660946,0.020005863198427946,0.6546910349507086,1.0193073892999556,0.0,0.0,0.0,0.0
0.0037551322421888814,-0.04491745319187956,0.7303128182614662,0.0008238056073842841,-0.5231231611640523,-0.0013683461025589688,0.8522555997040993,0.015813101998453483,-0.814945432717029,0.8886607882633918,-0.0776026480542421,-0.8202010673706167,0.8472266661473494,0.02700899588786535,0.6591187397340751,0.9834633351195661,0.021653285731208408,0.6550701879898018,1.0206677180850006,0.0,0.0,0.0,0.0
0.004012711450171765,-0.04528228771201087,0.7302467014616552,0.0008803362108011681,-0.523115674015031,-0.0014492729372342708,0.8522600050547422,0.01693547047335991,-0.8154258360380696,0.8897926825680665,-0.08129634213770058,-0.8187813546303243,0.8466753061997349,0.028652144134622772,0.6596683038590109,0.9825850985751229,0.023386208642467998,0.6554672699524721,1.0221153969599264,0.0,0.0,0.0,0.0
0.004293191789646762,-0.04566829787766481,0.7301718667543045,0.0009407437273057336,-0.5231061346535631,-0.0015333313757590612,0.8522656486002119,0.018119787437536127,-0.8159966415712698,0.8910788126550242,-0.08489340143069178,-0.8169126174651715,0.8463375717221494,0.030400806745105084,0.6602428581649901,0.9816834009300545,0.0252378058447291,0.6558943191230613,1.0236757934388676,0.0,0.0,0.0,0.0
0.0046061079624128715,-0.04608238484989758,0.7300870533464724,0.00100708314980275,-0.5230952328439835,-0.0016227164268567576,0.8522720985406163,0.019388905166765787,-0.8166822105101056,0.8925780498579345,-0.088396485112613,-0.814815086557392,0.8461204475978888,0.03227757831880922,0.6608718083689444,0.9807386017685539,0.02723361015928292,0.6563739876238764,1.0253712575905283,0.0,0.0,0.0,0.0
0.004962603229916081,-0.046531939776235175,0.7299908817871675,0.0010819965457470747,-0.5230840537274545,-0.0017204418129825722,0.8522786763139722,0.020768980861782662,-0.8175090194748807,0.8943582862199335,-0.09180540761256996,-0.8126468350049936,0.8459739797525129,0.03430055169395567,0.6615924991678702,0.9797299177516142,0.029394993145138743,0.6569326420619421,1.0272244236933774,0.0,0.0,0.0,0.0
0.005375554256147881,-0.04702602227346462,0.7298815780864724,0.0011690873600324404,-0.5230731583831733,-0.0018306311076148683,0.8522850186431439,0.022293139500148704,-0.8185083449903969,0.8964973197464651,-0.09511024683295242,-0.8104956098840141,0.8458770294679259,0.036487073538687145,0.6624477728088561,0.97863185878211,0.03174329446857456,0.6575966241740486,1.029262019469515,0.0,0.0,0.0,0.0
0.00585984352246837,-0.047576627580082784,0.7297570542964161,0.0012734980866168978,-0.5230620885355647,-0.001959103062108364,0.8522913772030247,0.024006060012989362,-0.8197147945742054,0.8990809419937362,-0.09828881574651327,-0.8083921997091861,0.8458160961212167,0.038855027874678545,0.6634878847748841,0.9774079810574562,0.03430145311856921,0.6583909124631847,1.0315160008005375,0.0,0.0,0.0,0.0
0.006432279364344687,-0.0481996309833277,0.729615299470619,0.0014024644275010864,-0.5230490320852702,-0.0021140322949438533,0.8522988173144719,0.025967987256774083,-0.8211614627125656,0.9021969360639247,-0.10131137463992558,-0.8063241987949727,0.8457641789938144,0.041421511674705924,0.6647737306107254,0.9760035005542099,0.03709293267719149,0.6593383274975497,1.0340212903130883,0.0,0.0,0.0,0.0
0.0071108083637018435,-0.04891509128351918,0.7294551047577671,0.0015657002633416833,-0.5230304986412022,-0.002306520758990032,0.852309407454716,0.028256993415608972,-0.8228719621736079,0.9059239561187301,-0.10415566652654291,-0.8042422597148491,0.845658599559986,0.04419848455370372,0.666379620719537,0.9743375523553526,0.040137381100414676,0.6604581836751474,1.0368091777593946,0.0,0.0,0.0,0.0
0.007912729352969038,-0.04974629873953825,0.7292771960976296,0.0017754353809383242,-0.5230010447154282,-0.0025508511865608634,0.8523263742334873,0.030967365469224666,-0.8248496352218714,0.9103152280582113,-0.10683660295488559,-0.8020572607779635,0.8453731317493902,0.047183527235129336,0.6683946618436606,0.9722968486656455,0.043440770493995445,0.6617640742163217,1.0398945553532368,0.0,0.0,0.0,0.0
0.00885154012342101,-0.05071631312251004,0.7290857890824678,0.0020457916861761245,-0.5229533255191732,-0.0028639792468609566,0.8523540530129999,0.03419977563691393,-0.8270650865064785,0.9153783651073036,-0.10945391836977385,-0.7996282619340339,0.8446781907641576,0.050341676553623246,0.6709213349233455,0.9697358971223164,0.04697508561078339,0.663260605955842,1.0432546608110882,0.0,0.0,0.0,0.0
0.00993167933885503,-0.05183968349692535,0.7288900962957281,0.002390980239267208,-0.522879122074722,-0.003263473447704962,0.8523972411105749,0.03803519858373507,-0.8294448873617,0.9210533216401682,-0.11225349460059415,-0.7967392658092675,0.8431818914667585,0.053570692185838764,0.6740663299702945,0.9664985373549657,0.05063801442512945,0.6649364760221689,1.0467998472450066,0.0,0.0,0.0,0.0
0.011139234273829667,-0.05310539263769521,0.7287029101975122,0.0028215897692770325,-0.5227728500316037,-0.003762617425899618,0.8524590480551629,0.04247882093145299,-0.8318677520397512,0.9271867284585134,-0.11567855763150453,-0.7930592610680977,0.840242409445472,0.05663603034383782,0.6779037844247964,0.9625076607398259,0.0541752352507033,0.6667387348433775,1.0503569698601707,0.0,0.0,0.0,0.0
0.01242228317373422,-0.05444428866033641,0.7285219401824145,0.0033380121486311265,-0.522640203900025,-0.004360500339912141,0.8525356655172976,0.04735081770077231,-0.8341939773602061,0.9334837041156966,-0.12035380798864345,-0.78808182929971,0.8348169028702505,0.05905252090721757,0.6823204599559158,0.9580961811625789,0.057036297054725085,0.6684514074675194,1.053786108940017,0.0,0.0,0.0,0.0
0.013634712791778268,-0.05566812786365628,0.7282221943048888,0.003913917512345194,-0.5224980717201894,-0.005011816940154266,0.8526167532891603,0.0520587504707133,-0.8365847413636226,0.9394505404396206,-0.12697179547144824,-0.7811050895879847,0.8250049412927806,0.059971571855299846,0.6862202871891553,0.9552938267977757,0.058230396157600325,0.6690778200010795,1.0578378088959537,0.0,0.0,0.0,0.0
0.014620348820191982,-0.05659640715280025,0.7278100964512836,0.004526276640315064,-0.5223420909224479,-0.005656451731752753,0.8527052582366001,0.05597272308398745,-0.8389214899640186,0.944498783696935,-0.13541996987437052,-0.7709078617190264,0.8077358875145253,0.058606699945827644,0.6890280621257603,0.9548850604806272,0.056822735612640056,0.6681224604939695,1.0621416478292969,0.0,0.0,0.0,0.0
0.015166428294844759,-0.05700764417118923,0.7274128219181036,0.005120080017630544,-0.5221304153364087,-0.006144507100729121,0.8528281533777667,0.0581125073295706,-0.8410109266385527,0.947935148152831,-0.14382386665778923,-0.7559104237594796,0.7791197319334306,0.05458801783323477,0.6902379146581396,0.9565868738114213,0.052386265199523406,0.6655643761610321,1.0652567260046613,0.0,0.0,0.0,0.0
0.015192309870997664,-0.05704148091760537,0.7274019180097067,0.005159403505519676,-0.5221189035611814,-0.006143820537726701,0.852834969128692,0.058187905030413205,-0.8410278539697398,0.9479731516386697,-0.1438284891998111,-0.755878524961625,0.7791173771214159,0.0545612115904519,0.6902915711600546,0.9564964406071936,0.052397285677297,0.6655513018440257,1.0653733552434916,0.0,0.0,0.0,0.0
0.015192309870997664,-0.05704148091760537,0.7274019180097067,0.005159403505519676,-0.5221189035611814,-0.006143820537726701,0.852834969128692,0.058187905030413205,-0.8410278539697398,0.9479731516386697,-0.1438284891998111,-0.755878524961625,0.7791173771214159,0.0545612115904519,0.6902915711600546,0.9564964406071936,0.052397285677297,0.6655513018440257,1.0653733552434916,0.0,0.0,0.0,0.0
0.015148566302323621,-0.05744519940970195,0.7283068262170909,0.00433278427465118,-0.5218555551517253,-0.005338854154877116,0.8530061565862388,0.05752556788531078,-0.841183709764317,0.9484312415151862,-0.1443773506760759,-0.7524990907988057,0.7782087364888778,0.04031392329228206,0.6820938241065241,0.9760088468363157,0.0671245174601661,0.6727395128893092,1.0591933315751185,0.0,0.0,0.0,0.0
0.015175862194591218,-0.05802725859190022,0.7293371881998849,0.003793998522414508,-0.5216831899731178,-0.004784454169027859,0.8531174385001096,0.057797721348881545,-0.8393880317750093,0.9474119767265373,-0.14398070202803473,-0.7502857209099629,0.7793292786074099,0.027677431355983367,0.677281652085401,0.9894549747790766,0.07944616707632862,0.6799392323001111,1.052150097723491,0.0,0.0,0.0,0.0
0.015269131827711986,-0.05872237223188038,0.7302671442851655,0.0034986486946632454,-0.521595860866368,-0.004473658982423002,0.8531737828600295,0.05887005315112715,-0.8366090448912525,0.9455248779621808,-0.1428276669373885,-0.7496091006642326,0.7823033572018985,0.01861950845519973,0.6745152225978006,0.998794846434919,0.08923959030413255,0.6861894096376154,1.046052970566057,0.0,0.0,0.0,0.0
0.015402681205800661,-0.05945654195150435,0.7310691473441177,0.003350398120621196,-0.5215544985236161,-0.004302919430936524,0.8532005419516466,0.060334727372438404,-0.8335615679994725,0.9433447101561857,-0.14132351005425783,-0.7499725399761683,0.7863331486100308,0.012150867266572073,0.6730095027741768,1.005718162716506,0.09735601267981195,0.6915586156102467,1.041037128767533,0.0,0.0,0.0,0.0
0.015561486216038522,-0.06019241330005375,0.731756065314268,0.0032859871661339714,-0.5215291261102516,-0.0042156059468132666,0.8532167377481072,0.06198309727542051,-0.8306043193479875,0.9411974263465517,-0.13967020841513542,-0.7510542114874194,0.7909787881929423,0.007053402374098409,0.6722988865749443,1.011294740176189,0.10433976295787911,0.6961893436257747,1.0369293996818296,0.0,0.0,0.0,0.0
0.015681333246297596,-0.060869212381476065,0.7323481319156059,0.0032485490575261643,-0.5215068738559349,-0.004156315417772969,0.8532307732918327,0.06353880941745205,-0.8277924533831555,0.9389382864557592,-0.13810488853734149,-0.7520802911648217,0.7950554174637563,0.0024998180932099857,0.6718936568590288,1.0160475208371487,0.11046577450584182,0.7001012852405089,1.0334925756915698,0.0,0.0,0.0,0.0
0.015756329481049314,-0.06147973180095818,0.7328641789469049,0.003218211757285474,-0.5214801029093531,-0.00410588735407643,0.8532474946179283,0.06494410811703362,-0.8251716246085874,0.9366209741795829,-0.13668057165755182,-0.7529149871203422,0.7984278763859639,-0.0018750768773958988,0.6715882942340888,1.0203184186592522,0.11593259570756814,0.703407746996908,1.0305593864304863,0.0,0.0,0.0,0.0
0.015796718427462473,-0.06203371029682664,0.7333226881221255,0.003189322457106621,-0.5214474557915056,-0.004058823986013623,0.8532677803706646,0.06621329774847497,-0.822736588565607,0.9343051780478611,-0.1353854852343155,-0.7535846435129273,0.8012347024893192,-0.006227234857054707,0.6712974648400485,1.024341148909715,0.12089144074338791,0.7062520189226446,1.0279901310760675,0.0,0.0,0.0,0.0
0.015812574414099546,-0.0625431227621871,0.7337392960477976,0.0031601539705903288,-0.5214091046511834,-0.004013316218292551,0.8532915400416585,0.06737354384253982,-0.8204611748475436,0.9320218404938684,-0.13419499532354057,-0.7541324221502907,0.8036258492515016,-0.010618020914479345,0.6709824698357811,1.0282522607712452,0.12546280786057606,0.7087566267578554,1.0256733198216739,0.0,0.0,0.0,0.0
0.015811199819360466,-0.06301839299414587,0.7341255789560809,0.0031301109593819313,-0.5213653993017618,-0.0039685398426639274,0.8533185650786075,0.06844974830940027,-0.8183173424028695,0.9297821629978392,-0.13308596622674296,-0.7545941889731825,0.8057175289634916,-0.015065221004859998,0.6706289630492388,1.03212100708532,0.12974151096482747,0.7110122268140977,1.023530061082731,0.0,0.0,0.0,0.0
0.015797523888869836,-0.06346745438536587,0.7344889849976463,0.0030989829974270443,-0.5213168331928614,-0.003923991471586605,0.8533485559987073,0.0694609946448605,-0.816282872646539,0.9275884125311676,-0.13204051156734756,-0.7549966654344205,0.8075915623951829,-0.019568185695529625,0.6702374828429131,1.0359757666475495,0.13379837333813993,0.7130800231641737,1.0215130559000885,0.0,0.0,0.0,0.0
0.015774844237573606,-0.06389568291600024,0.7348331483699381,0.003066735811852872,-0.5212641750138804,-0.0038793293671636397,0.8533810437209278,0.07042020046784368,-0.8143442895575912,0.9254411492318436,-0.13104661646141558,-0.7553595997292952,0.8093023445117499,-0.02412066477217479,0.6698184177384461,1.0398184928867664,0.1376823805673258,0.714996499635422,1.0196037901232284,0.0,0.0,0.0,0.0
0.015745238720204346,-0.0643061758222897,0.7351581559805854,0.0030334238211751343,-0.52120849531108,-0.0038343434588143277,0.8534153739918919,0.07133487862828057,-0.8124974849638249,0.9233420006977595,-0.13009756911642595,-0.7556981867796244,0.8108827151643911,-0.02871865662904307,0.6693895858965928,1.0436268576047794,0.14142385537837945,0.7167764559839048,1.0178110309408364,0.0,0.0,0.0,0.0
0.015709465738885896,-0.06470025645701614,0.7354606053584138,0.002999085970091922,-0.521151034663273,-0.0037888906359643793,0.8534507887748963,0.07220835042610461,-0.8107468584248564,0.9212917490009676,-0.12919082540787788,-0.7560247905965142,0.812346540492897,-0.03336779403988769,0.668976516208106,1.0473433796665803,0.1450395181173413,0.7184132827419181,1.01617209205485,0.0,0.0,0.0,0.0
0.015666299982287937,-0.06507820472209376,0.7357334714713859,0.0029635095367694176,-0.5210928352348856,-0.003742701485744589,0.853486653008518,0.07304123990853391,-0.8091034729707118,0.9192839383851074,-0.1283264847979655,-0.7563497931345615,0.8136876902191779,-0.0380937003238238,0.6686175316978931,1.0508479267152753,0.1485406089909978,0.7198764811020887,1.0147567354590767,0.0,0.0,0.0,0.0
0.015611449280151768,-0.06544016449168455,0.7359660984814812,0.0029257853421132147,-0.5210340638386689,-0.0036949834222708344,0.8535228709281333,0.07383297907984836,-0.8075827153469405,0.9172957138507023,-0.12750566900941168,-0.7566813575050744,0.8148764075348831,-0.04295726403503178,0.6683797636129326,1.0539070254205196,0.15194446912218124,0.7211083211246518,1.0136703980949906,0.0,0.0,0.0,0.0
0.015537002124839378,-0.06578702461351599,0.7361453889552206,0.002883821649300273,-0.520973175602335,-0.0036439886355518446,0.8535603992819357,0.0745831512573375,-0.8062017197487641,0.9152828413281938,-0.12672908216147877,-0.7570248308718253,0.8158598556081671,-0.048070011195928776,0.6683992353350581,1.056094083388748,0.15528569507522505,0.7220271992131976,1.0130452223987751,0.0,0.0,0.0,0.0
0.01543464696814057,-0.06612093941577038,0.7362610545103533,0.00283502664232404,-0.5209074134662595,-0.003587786114572409,0.8536009354555704,0.07529423836874755,-0.804971141018434,0.9131950677211049,-0.125994324709639,-0.7573846068574072,0.8165894601716894,-0.05357873736492004,0.6689539850897092,1.0567155653935376,0.15860951129189507,0.7225609361314134,1.0129894735989362,0.0,0.0,0.0,0.0
0.015303291736874716,-0.06644384062958103,0.7363145228105026,0.002779954645638818,-0.5208368826202551,-0.0035268582890972573,0.853644407716229,0.07597172617350212,-0.8038732101575107,0.9110094589446261,-0.12529530289964064,-0.7577589982383689,0.8170645487407724,-0.05947453012924893,0.6700386458246089,1.0557587731166984,0.16192132555381306,0.722711867384014,1.0134973436339303,0.0,0.0,0.0,0.0
0.0151486223226306,-0.06675810319827478,0.736319520791718,0.002722091361594515,-0.5207640787156756,-0.003463897076156657,0.8536892677989331,0.07662533731196525,-0.8028593780365507,0.9087256407719138,-0.12462088456418104,-0.7581397940114918,0.817331899062085,-0.06559655946732494,0.6713658572241196,1.0538916515984489,0.16519459061673059,0.7225583376145667,1.0144452280146319,0.0,0.0,0.0,0.0
0.014975069651704104,-0.06706935262459615,0.7362941622914223,0.0026642405840287594,-0.5206894389218628,-0.0034011838813385225,0.8537352294274563,0.07727205383772782,-0.801865510017121,0.906323119482312,-0.12395215994891888,-0.7585182848263188,0.8174450575534085,-0.07181906165286309,0.6727919325533929,1.0515138931069452,0.16843010592246102,0.7221925767072155,1.0156762017961014,0.0,0.0,0.0,0.0
0.01478255428273433,-0.06738740789322602,0.7362566963264611,0.002608099538194705,-0.5206106924156049,-0.003340033569505271,0.8537836663552998,0.07793734408870076,-0.8008124179734787,0.9037372588472261,-0.12326105265777687,-0.7588868084515092,0.8174447625357278,-0.07806227457160926,0.6742436985147182,1.0488306152689566,0.17166850601506642,0.7216908855804952,1.0170450850564567,0.0,0.0,0.0,0.0
0.014567951340678427,-0.06772770334189693,0.7362253353056997,0.0025552091478178193,-0.5205234129942913,-0.003281707270621553,0.8538372665961443,0.07866064076148363,-0.799602790255916,0.9008608412560712,-0.12250536150001336,-0.7592521016704662,0.8173819314034568,-0.08427785743137454,0.6756816414564917,1.0459380506422757,0.17498972829127873,0.721116795332985,1.018422555658569,0.0,0.0,0.0,0.0
0.014330249200995406,-0.0681149871498904,0.7362184142523279,0.0025086867582092354,-0.5204198412254367,-0.003229462041891834,0.8539007354046256,0.07950994543436132,-0.7981352382636243,0.897577194841004,-0.12161713080157341,-0.7596883381963412,0.8174036620690922,-0.09044184036926556,0.6771017191661086,1.042880109417759,0.17851744788728469,0.72053079795001,1.0196937968108961,0.0,0.0,0.0,0.0
0.014055812868922789,-0.06856883505763532,0.7362560819958494,0.0024674746287508026,-0.5202906727029512,-0.0031812388030852687,0.853979746356402,0.08052659244251101,-0.7962792969361127,0.8936877630127377,-0.12054901154941562,-0.7601703179053965,0.8174878549172667,-0.09654630468283013,0.6784822474195765,1.0396594443923535,0.18238204702371155,0.7199665419441446,1.0207277380426694,0.0,0.0,0.0,0.0
0.013730064674607346,-0.06911396558391128,0.7363602872202909,0.002429726618338742,-0.52012198938434,-0.0031340617776490134,0.8540827771616815,0.08176308983119217,-0.7939068205378981,0.8889827001277499,-0.11924366327782272,-0.760701907332043,0.8176497268620312,-0.10263338912623968,0.6798176895938267,1.0362796271929198,0.18675100427506441,0.7194532148997174,1.0213822020179382,0.0,0.0,0.0,0.0
0.013336497900132744,-0.06977854731943745,0.7365552667479461,0.0023908468636433047,-0.5198944389819314,-0.003081723261698144,0.8542216100922966,0.08327379147600637,-0.7909015110498935,0.8832467810252069,-0.11764258246446542,-0.7612998177533027,0.8179183551006233,-0.10885584581856217,0.6811076352225162,1.0327709570182817,0.19184032671852827,0.7190183433865444,1.0214940768526501,0.0,0.0,0.0,0.0
0.012856321052204649,-0.07059099344802851,0.7368659273848559,0.002340433930113878,-0.5195810515551772,-0.003011563715450703,0.8544126542355415,0.08510077623107393,-0.7871939502653568,0.8762919205006282,-0.11570107433973863,-0.7619868358628837,0.8183196357644299,-0.11560662973116788,0.6823519886860017,1.0292144648401145,0.19792458732537205,0.7186806405443568,1.0208805437141169,0.0,0.0,0.0,0.0
0.012269273778258746,-0.071573972139916,0.737312923260412,0.0022574180546917656,-0.5191445935710456,-0.002899418512004527,0.8546785292740028,0.08725008111878486,-0.7828310525584454,0.8680286635231599,-0.1134144553420538,-0.7627891795436031,0.8188591053974231,-0.12377228429115458,0.6835643483067032,1.0257804461717568,0.20534981720951132,0.7184346429066755,1.0193601847026008,0.0,0.0,0.0,0.0
0.011557675236461515,-0.07273366102940482,0.7379009941321646,0.0021031508735068795,-0.5185348035706392,-0.0027024884670033083,0.8550496656910916,0.0896540680674051,-0.7781084112954395,0.8586152495211322,-0.11086156409986421,-0.763751860332019,0.8195202117705616,-0.13518504602446743,0.6848400780795122,1.0227969574875089,0.21454135623159648,0.7182186125326523,1.0168187531863933,0.0,0.0,0.0,0.0
0.010719020202022825,-0.07404165232124382,0.7385914945733795,0.0018149266194743647,-0.5176858249849391,-0.0023529315484564907,0.8555656353338167,0.09212178278668354,-0.7738232511823276,0.8487645722433512,-0.10826842626472656,-0.7650312583860583,0.8203450256058676,-0.1532815480295562,0.6865460155779762,1.0208485617690768,0.22596154484180575,0.7178302909730158,1.0133913934435188,0.0,0.0,0.0,0.0
0.009762666810964089,-0.07537659727143661,0.7392438439429884,0.0013024004751158232,-0.5165287917279612,-0.001751583252130767,0.8562670395531792,0.09418544160638956,-0.771586311469222,0.8400689438428741,-0.10616946191090958,-0.7667961629234422,0.8211195129139113,-0.1833727589537679,0.6895104737064794,1.0208198716564207,0.23976307028468904,0.7166570573704945,1.0098813469594996,0.0,0.0,0.0,0.0
0.008757657745958072,-0.07648245854624591,0.739474306819262,0.0005164775888077056,-0.5150023428295261,-0.0007860146764258725,0.8571882537178914,0.09501617170571197,-0.7744624292776053,0.8357634833131781,-0.10554273147411389,-0.7699151527653942,0.8220136697736811,-0.22899238932624705,0.6946982742667072,1.02334935527336,0.2550947083125738,0.7130752429072478,1.0089513626967337,0.0,0.0,0.0,0.0
0.007811412525115618,-0.07724598692448699,0.7387527024875983,-0.0001835713877243217,-0.5133189237611593,0.00012151063020171179,0.8581978991149987,0.09522814511587166,-0.7824174574559991,0.835946540747217,-0.10584982882724774,-0.7765364227681586,0.8245088162701656,-0.27677429455279984,0.6974827945312877,1.0300609325583385,0.26635413025920446,0.7041438886137303,1.0152944310232326,0.0,0.0,0.0,0.0
0.007815512074591227,-0.07726640113168956,0.7387410344962467,-0.0002096261279454508,-0.5133202324486235,0.00014484914477699934,0.8581971067502516,0.09522518640886747,-0.7824485782258361,0.8358930669632746,-0.10585490582661576,-0.776536378912508,0.8245377016141551,-0.27679177716271647,0.6974812798188135,1.0300603351254094,0.2663773293982276,0.7041020905471997,1.015244021359692,0.0,0.0,0.0,0.0
0.007815512074591227,-0.07726640113168956,0.7387410344962467,-0.0002096261279454508,-0.5133202324486235,0.00014484914477699934,0.8581971067502516,0.09522518640886747,-0.7824485782258361,0.8358930669632746,-0.10585490582661576,-0.776536378912508,0.8245377016141551,-0.27679177716271647,0.6974812798188135,1.0300603351254094,0.2663773293982276,0.7041020905471997,1.015244021359692,0.0,0.0,0.0,0.0
0.007899853554345668,-0.07751048116065423,0.738994632579682,-0.00022530867114042564,-0.5143206267505237,0.00017228579932568325,0.8575979316979224,0.0955388534503852,-0.7754836428265725,0.8293315765857061,-0.10505762180722358,-0.7709348548003374,0.8202514237473402,-0.27781828692413457,0.7023240858234026,1.0292100511470401,0.27150551354375685,0.7094095355183708,1.0155510896021869,0.0,0.0,0.0,0.0
0.007969321519977104,-0.0777707521741945,0.7391584132997927,-0.00019078722029602986,-0.5149763981033665,0.00014228147936888399,0.8572043238065824,0.09609444093110567,-0.7704922945035406,0.8244699969901238,-0.10419712165684375,-0.7678148864606665,0.818209752220947,-0.2784447799590627,0.7056662480642799,1.0284091921768177,0.27522151239948284,0.7129079740359785,1.0159835089806013,0.0,0.0,0.0,0.0
