zhuoxili-jackie/tripod-support-walk/examples/trajectory_trot_sideways_left_v0.05.csv
root_pos_x,root_pos_y,root_pos_z,root_rot_x,root_rot_y,root_rot_z,root_rot_w,FL_hip_joint,FL_thigh_joint,FL_calf_joint,FR_hip_joint,FR_thigh_joint,FR_calf_joint,RL_hip_joint,RL_thigh_joint,RL_calf_joint,RR_hip_joint,RR_thigh_joint,RR_calf_joint,FL_foot_joint,FR_foot_joint,RL_foot_joint,RR_foot_joint
0.0,0.0,0.745913,0.00590261038931276,-0.5534150365010598,0.008528410562500121,0.8328410549308913,-2.4067e-06,0.349062,-0.872669,9.86e-07,0.349071,-0.872662,3.27e-06,0.610866,0.872669,-2.38753e-06,0.610854,0.872668,0.0,0.0,0.0,0.0
0.0009003186163408215,0.00015647280670693585,0.7459155706203044,0.0058909323771067276,-0.5537257492946687,0.008412543309246923,0.8326357670667627,-5.566379086669335e-05,0.35466806285069,-0.8801716407448634,-5.2267659596106574e-05,0.35404394971303615,-0.8792777554515951,-0.0011224803637617786,0.6133413795377926,0.8750453619501786,-0.0011281430708796564,0.6131147780817509,0.8737399874255138,0.0,0.0,0.0,0.0
0.002568140126155658,0.0004340598441956597,0.7458772249627807,0.005881203174785384,-0.5540065106340338,0.008355512135656133,0.832449627930285,-0.0005051398332742975,0.3651269536434738,-0.8959648898761023,-0.0005015817310177063,0.36350605626451277,-0.8933139790598789,-0.0025830598586421474,0.6169003790127237,0.8786843695758906,-0.002584016324150367,0.6167002783319915,0.8754241084225739,0.0,0.0,0.0,0.0
0.0049364787956505535,0.0009544370204875208,0.7457972273305293,0.005845555728563231,-0.5542835784270462,0.008375768298222792,0.8322652165444302,-0.0016756988610618084,0.3800604680131253,-0.9193673968956269,-0.00167125170494553,0.37662168327073564,-0.9130999223173824,-0.004817948382360769,0.6214429022352151,0.8839335208389514,-0.004805616990085069,0.6217045245711386,0.8772010486944819,0.0,0.0,0.0,0.0
0.00799041116192181,0.0018729077559602727,0.7459104480408097,0.005745908113462644,-0.5546311145807411,0.00851242168256288,0.8320329620609839,-0.004024594660354644,0.39955995805270084,-0.9493059724036061,-0.004015832942919839,0.3929585485754578,-0.9363583611309605,-0.00833000631515049,0.6284353853239918,0.8889593699476486,-0.008282160715040463,0.6298722198765774,0.8761791756679075,0.0,0.0,0.0,0.0
0.011880524246260607,0.003552880653415356,0.747110051527664,0.00545600866662804,-0.5554227802463475,0.008944299882081067,0.8315021146410072,-0.008784467788432214,0.42546962005487393,-0.9837923306869907,-0.008756730645372551,0.41314287888590506,-0.9579622239172108,-0.013653796511821635,0.6437667162984287,0.8867524880532717,-0.013514373209141561,0.6482006589516988,0.8630131073341959,0.0,0.0,0.0,0.0
0.015184429575120739,0.004992903960773254,0.7479233186154173,0.005148564939361906,-0.5551387204593121,0.00906451622063334,0.8316924478865663,-0.006651141652159227,0.40070468341103266,-0.9544326899280636,-0.012246093309593715,0.4302208424155996,-0.9816046425609196,-0.01941426292133388,0.6542945942036082,0.8838837543935514,-0.014310089914041325,0.6376443636521183,0.8839453391894179,0.0,0.0,0.0,0.0
0.018577524245848402,0.006540948038183316,0.7488346490479849,0.004851110059997789,-0.5549341484120658,0.009232714206344186,0.8318288974577315,-0.005955023880397071,0.3814835416571867,-0.941327121298509,-0.016171057340150934,0.447334737083381,-1.0041716874243303,-0.02579222154363386,0.665833601085292,0.8803646998402342,-0.016096994661341225,0.6292876325596062,0.9013766236803985,0.0,0.0,0.0,0.0
0.02178851665143575,0.008141168009411821,0.7498223943872558,0.0045467504704470975,-0.5548783662048922,0.009438263531328041,0.8318655209584432,-0.006014002938770812,0.3675511626164672,-0.9387179286973772,-0.020358158776539955,0.463042238460815,-1.023193915806282,-0.03248822182592776,0.677888666197469,0.8762287398990044,-0.019115284160802774,0.6227414167140443,0.9168544187535702,0.0,0.0,0.0,0.0
0.024640356168252595,0.009750456808312937,0.7508384939312198,0.004246967225510378,-0.5549037120173004,0.009653332757219272,0.8318477305525842,-0.006416579452611294,0.35717093648657544,-0.9417781515683922,-0.02463531782323668,0.47654554747925626,-1.0380926653412594,-0.03945882592104437,0.6896929265920397,0.871624668266185,-0.023019177165179122,0.6172219210405762,0.9311085105018065,0.0,0.0,0.0,0.0
0.0270559173316614,0.011334353833624541,0.7518501091388213,0.003961062691436718,-0.5549628068667524,0.009860946827709615,0.8318072821901665,-0.007011599130666162,0.34899126255299057,-0.9477460132973308,-0.028870022500362885,0.4875755645512227,-1.0489469491259154,-0.04660249952441547,0.700759401540158,0.8667268916244396,-0.027430754634249113,0.6121975115097488,0.9445236109588099,0.0,0.0,0.0,0.0
0.029026838649213075,0.012862869227441441,0.7528404779628759,0.0036942696401349355,-0.5550300141037654,0.010052734730676723,0.8317613710315204,-0.007734640181050064,0.342029221046464,-0.9550915292347797,-0.03295712367828833,0.49620508664047325,-1.0561650327663556,-0.053754068447866364,0.7108655633192732,0.8616391895466463,-0.0320674650814195,0.6073129908647824,0.9573531311059743,0.0,0.0,0.0,0.0
0.030586876970832476,0.014311021906460008,0.7538025864625443,0.003449022901648099,-0.5550934789041737,0.010225454071094452,0.8317179654234513,-0.008535736545591146,0.3356036531167144,-0.9629821574875447,-0.03681602427176171,0.5027009943336223,-1.0603146814803832,-0.06072783677086928,0.71996964269848,0.856402798658637,-0.03674226280704945,0.6023410610108193,0.9697840395415764,0.0,0.0,0.0,0.0
0.03179161988150373,0.01565997714695462,0.7547337641579297,0.0032260690430282145,-0.5551489480905881,0.010378724314219517,0.8316799384342828,-0.009360906884847474,0.32926830153444314,-0.9709772530653219,-0.04039058990757636,0.5074175725428309,-1.0620143372523885,-0.06735541426891943,0.7281329237318229,0.8510292565925502,-0.04133525310474068,0.5971506234847058,0.9819615783542839,0.0,0.0,0.0,0.0
0.032704275126040946,0.01689734542237802,0.7556326003991045,0.003025105843313126,-0.5551960043139824,0.010513677254093383,0.8316475864926332,-0.010154537382324611,0.3227460701101625,-0.9788565349723523,-0.043647489084514726,0.5107260928542918,-1.0618626598918646,-0.07350672315532497,0.7354639365502058,0.8455263042726012,-0.04577004815695372,0.5916836381156342,0.9939988434948447,0.0,0.0,0.0,0.0
0.03338661261822179,0.01801646606016312,0.7564974269961582,0.00284520282366889,-0.5552359579737608,0.010632080682443805,0.8316200422393716,-0.010866141247775747,0.31587197677427936,-0.9865237018812655,-0.0465720935758633,0.512972976744796,-1.0603981322060936,-0.07909584919101147,0.7420823178572542,0.8399128212321089,-0.04999983424753946,0.5859387123264492,1.0059789974266358,0.0,0.0,0.0,0.0
0.03389386815823783,0.019014901167970506,0.7573253825469982,0.00268514058909649,-0.5552706551491849,0.01073575220346864,0.8315960757331875,-0.011454977684711504,0.3085548097305225,-0.9939481265864378,-0.049162677311882085,0.5144586552603498,-1.0580826200043754,-0.08407582461641637,0.7480955432392083,0.8342273934133946,-0.053998843649575946,0.579961954439357,1.017951432838133,0.0,0.0,0.0,0.0
0.03427237242929184,0.019892479961436064,0.7581112677428866,0.002543768305707554,-0.5553016656621069,0.010826141603621782,0.8315746412762205,-0.01189084526016122,0.3007683203145199,-1.0011202273395743,-0.051423969221018766,0.5154298536843793,-1.0553031518194147,-0.08842748569141147,0.7535815477034408,0.8285373398060709,-0.05775407649698443,0.5738449671168177,1.0299190182786075,0.0,0.0,0.0,0.0
0.0345587100483933,0.020649258741371333,0.758845664373726,0.00242044298277553,-0.5553296314627272,0.010903985416422426,0.8315553168474585,-0.012151324683159034,0.2925831861462014,-1.0080031369924511,-0.053361025087745276,0.5160785680789974,-1.0523849976273039,-0.09214733789656615,0.7585715407963369,0.8229548530091716,-0.06125132300528724,0.567729498755344,1.0418089994226334,0.0,0.0,0.0,0.0
0.034779271857106664,0.02128377226448986,0.759512135279289,0.002315578749559482,-0.5553536535803094,0.010969045671199457,0.8315387168299017,-0.012216337928177098,0.2842468669205922,-1.0144695368181893,-0.05497444430997987,0.5165414409230603,-1.0496078901804335,-0.09523789847861029,0.7630288401433442,0.8176640067054544,-0.06444550339627653,0.561819451606234,1.0534141755535864,0.0,0.0,0.0,0.0
0.034949296930436566,0.021792159740626038,0.7600837609637273,0.002231373491503469,-0.5553710393730426,0.01101985976386402,0.8315266636066655,-0.012061350392424453,0.2763029499491704,-1.0202238544968676,-0.05625813874802468,0.5168938879016495,-1.0472144380134725,-0.09770577920410527,0.7668239652834526,0.8129594218526203,-0.06720301520596611,0.5564082425612513,1.0642845728929287,0.0,0.0,0.0,0.0
0.03507125275904789,0.02216893480199702,0.7605205772882159,0.0021726032609186326,-0.5553778345162791,0.011053617620538952,0.8315218327022917,-0.01165258680112079,0.26969801657780224,-1.024730986582924,-0.05720147068373707,0.5171375889530238,-1.045399798053098,-0.0995713472943848,0.7697159728077239,0.809282500762253,-0.06920839747311763,0.5519452266264797,1.0735441771133176,0.0,0.0,0.0,0.0
0.03513447711532142,0.022410089453172074,0.760772656030275,0.002146646169208088,-0.5553713428773065,0.011066700349568763,0.8315260618671277,-0.010951326725270048,0.26573731680424867,-1.0272022386944981,-0.057797487763328166,0.5171929359006625,-1.044273488459536,-0.10088633346053731,0.771375714949329,0.8072042321541888,-0.06987264239560452,0.549189833965561,1.0796115016247703,0.0,0.0,0.0,0.0
0.03512195336687225,0.022517090854482957,0.7608004726248846,0.0021592533933996335,-0.5553571399913617,0.011058805116777534,0.831535620111843,-0.009935911434349697,0.26562510079355356,-1.026739893894126,-0.05805640598485276,0.5169381517850412,-1.043790552003589,-0.10171004104411391,0.7715345011091791,0.8072156522582972,-0.06843375586350936,0.5494556693196684,1.0799389366849494,0.0,0.0,0.0,0.0
0.03502041379739241,0.022491478308235446,0.760603563894032,0.00221043665198899,-0.5553362001857824,0.011029416851593424,0.8315498606198777,-0.008619748285782084,0.26934157021337385,-1.0233119372329527,-0.05797994842569016,0.5162988384650897,-1.0438352033806446,-0.10205103027287135,0.7701577453459454,0.8093359291981956,-0.06490859477117861,0.5527175528681869,1.0745046658228736,0.0,0.0,0.0,0.0
0.03482202484580293,0.022335343080218967,0.7602215427339316,0.0022943744807586686,-0.5553041752856728,0.010977899556757294,0.8315717013447262,-0.007057410155239116,0.2756610132942021,-1.017787974613876,-0.0575629286278063,0.5152570566296324,-1.0442329215290667,-0.10186831255480026,0.7674558471547281,0.8130947173036729,-0.060085635551467405,0.5576211044654701,1.0658087488554333,0.0,0.0,0.0,0.0
0.034514757307210334,0.022057144278883604,0.7597065108895986,0.00240379090313134,-0.5552638852140032,0.0109068181937928,0.8315992309299184,-0.00532166156276611,0.2832674004656667,-1.0109439296347245,-0.05681978779788054,0.5137640873311012,-1.0446677413627388,-0.10113582646123967,0.7637188449444191,0.8179112176155932,-0.054575676024746556,0.5633752492614701,1.0553908034706216,0.0,0.0,0.0,0.0
0.03407508070107938,0.021668127478555947,0.7591025527093771,0.0025340458682673143,-0.5552188083068903,0.010818114067465035,0.8316300992158938,-0.003474867990647663,0.2912070442495208,-1.0033007190010221,-0.055772813589881794,0.5116978344278136,-1.0447426351299096,-0.0998674963038114,0.7591634830129724,0.823313721806152,-0.04871415582967231,0.5695060855623844,1.0440922980422418,0.0,0.0,0.0,0.0
0.03346871686841868,0.021180077312649388,0.758442109478245,0.00268276995752166,-0.5551710076838919,0.01071302743978257,0.8316629040757327,-0.0015645155228797328,0.29893444795809204,-0.9951460295529568,-0.05444703996082764,0.508870106930222,-1.0440148807765863,-0.09810100392306723,0.7539066984325826,0.8289688560260848,-0.0426547608835913,0.5757006139317136,1.03233502765673,0.0,0.0,0.0,0.0
0.03265379728262724,0.02060548631793238,0.7577481861493627,0.002848790596536431,-0.5551208128020082,0.010592592878480503,0.8316973996366019,0.0003716984875083741,0.3062072935430722,-0.9866168472479463,-0.05287131900753034,0.5050439492983532,-1.0420114866503716,-0.09589041315159388,0.7479863882610497,0.8346513928235876,-0.03646282496222986,0.5817369881574782,1.0203058093749786,0.0,0.0,0.0,0.0
0.031584569165554396,0.019959031133754468,0.7570377464542117,0.003031254655312154,-0.5550672759412423,0.01045811055152641,0.831734187465007,0.002302183848980475,0.31296864833629134,-0.9777858164484449,-0.05108256558031858,0.49995072012195024,-1.0382349363048087,-0.09330919422803514,0.7413938396444544,0.8402062452734674,-0.030170863247367896,0.5874533396595396,1.0080698953503753,0.0,0.0,0.0,0.0
0.030216029977826412,0.01925919118972374,0.7563246296486119,0.0032290483543992317,-0.555008957560855,0.010311496640324231,0.831774190096672,0.004202359649825492,0.31926995502281574,-0.9687301640467418,-0.04913026942854064,0.4933104661722907,-1.032174519007033,-0.09045663079919648,0.7341065723663484,0.8455181219521066,-0.023803331660998947,0.5927321677911893,0.9956404992471602,0.0,0.0,0.0,0.0
0.028510817391516466,0.018529037149036635,0.7556214543755557,0.0034404513302411757,-0.5549449182207474,0.010155467391426845,0.8318179894169601,0.006058411560935373,0.3252463047728865,-0.9595817476948886,-0.047078670888141445,0.48486444223026987,-1.0233404920968316,-0.08746072066323106,0.72612062605198,0.8504918179897073,-0.0173824832086273,0.5974960060642114,0.9830288603598207,0.0,0.0,0.0,0.0
0.026450070824118155,0.017795245680154812,0.7549402045971705,0.0036630002962624647,-0.5548759918185521,0.00999347808820341,0.8318649809481754,0.007869706179338118,0.33113988973231784,-0.9505656176735647,-0.045003951093010225,0.4744313662485391,-1.0113414749014018,-0.08447185208511397,0.7174840602896516,0.8550446686043087,-0.01091989188018885,0.6017215465025952,0.9702964317116399,0.0,0.0,0.0,0.0
0.02405019974797272,0.017084415417149907,0.7542906119945584,0.0038936995171829896,-0.5548064648158125,0.009829228951678341,0.8319122621772478,0.009643899436286721,0.337362574394476,-0.9420399153064372,-0.04298380992962997,0.46200162019681434,-0.9960332005616279,-0.08164445725611752,0.7083304743452086,0.8591208337152572,-0.004384341565885828,0.6054889383650451,0.9576294986913158,0.0,0.0,0.0,0.0
0.02138746130846708,0.016416217907998673,0.7536733165757673,0.004130101766258715,-0.5547456504014038,0.009665245280232231,0.8319535976566221,0.011377750766382465,0.3445772760645495,-0.9345565241102669,-0.04107794188506304,0.4478853092345811,-0.9777833428215432,-0.07911217778037549,0.6988975048171866,0.8627620672153962,0.0023879902767564593,0.6090947602883333,0.9454497400331723,0.0,0.0,0.0,0.0
0.018630170286135596,0.015794070243324618,0.7530584085670207,0.004373699587092242,-0.5546971843536346,0.009498773677993481,0.8319865850605321,0.013031744744093752,0.35368068508647105,-0.9289251655829491,-0.039299910471016185,0.43292524999306786,-0.957973915991606,-0.07697518408555551,0.6894468565166219,0.8663107738659581,0.009918328395308295,0.6132451643562044,0.9345006034539796,0.0,0.0,0.0,0.0
0.016217609853471256,0.01513792689813018,0.7523961716694384,0.004635885716107066,-0.5546024933357819,0.00932303328813994,0.8320502773268389,0.01494296891628755,0.3654743573640172,-0.926145110449532,-0.037468551762785705,0.41976787364148344,-0.941301593016354,-0.07493846021068802,0.6805836272808349,0.8699988524649392,0.019680175687219054,0.6193774219286516,0.9257838602590583,0.0,0.0,0.0,0.0
0.014369395728741656,0.01455213145962376,0.751815770791819,0.004896405926966276,-0.5545592141301726,0.009154363986323875,0.8320795039251536,0.016545676515107403,0.38062227364192586,-0.9293916341473445,-0.035849092178901226,0.40963232317677467,-0.9286685499486865,-0.07349551873769589,0.6736850025322152,0.8732533685546778,0.031969055234284824,0.6269552136191396,0.9206644542124972,0.0,0.0,0.0,0.0
0.01338609371374852,0.01416576670949762,0.7514797372200057,0.005100071619827672,-0.5546191803077796,0.009021834068606134,0.8320397590345294,0.01693082094539383,0.39843335605383956,-0.9429866788280618,-0.034767117742398976,0.40422074512368156,-0.9217608297388139,-0.07296920310833671,0.6702819358696946,0.8751930292674658,0.044903472171308315,0.6340909525729298,0.9200924575643825,0.0,0.0,0.0,0.0
0.013344448739172924,0.014067332492202073,0.7514469937392009,0.005202887985853508,-0.5546352681287452,0.00903308993395172,0.8320282763167407,0.016950712505683703,0.3984520261558411,-0.942995744052838,-0.034649312837596216,0.4040935866791607,-0.921724740814807,-0.07295992961605025,0.6702032802936762,0.8751385680916656,0.04489535460386368,0.6341183292311056,0.9201025482292594,0.0,0.0,0.0,0.0
0.013344448739172924,0.014067332492202073,0.7514469937392009,0.005202887985853508,-0.5546352681287452,0.00903308993395172,0.8320282763167407,0.016950712505683703,0.3984520261558411,-0.942995744052838,-0.034649312837596216,0.4040935866791607,-0.921724740814807,-0.07295992961605025,0.6702032802936762,0.8751385680916656,0.04489535460386368,0.6341183292311056,0.9201025482292594,0.0,0.0,0.0,0.0
0.01348775804835566,0.013897919768641853,0.7512655515888266,0.005358468954286151,-0.5544172420432687,0.008934226822561784,0.8321736526270731,0.017491472240813977,0.39888572494109376,-0.9450042335207948,-0.034171378042524236,0.4052932150547987,-0.92581016843493,-0.07335144682027898,0.6693516629992768,0.8759803598529035,0.044445360621547775,0.632495659582056,0.9218574222716992,0.0,0.0,0.0,0.0
0.014076439323692541,0.013657184204908968,0.7511022664845731,0.005465301829016822,-0.5543176001005243,0.008863710214673966,0.8322400875564353,0.018218888535236163,0.4016635433446574,-0.9501669966556269,-0.03354196656022645,0.4091782806448991,-0.9334843975699872,-0.07307214596247585,0.6697711982140822,0.8769044955512668,0.045043006817373984,0.6323520495831999,0.9242996930838898,0.0,0.0,0.0,0.0
0.015216246933853596,0.01327540766264961,0.7509872466664205,0.005540306720494294,-0.5543307968464769,0.008805451981931216,0.8322314201497002,0.019339707639435898,0.4072479822035756,-0.9590250008050352,-0.032569712304397605,0.41648171441170967,-0.9458807502426677,-0.07191821083563886,0.6719283532157371,0.8773812459742606,0.04695376731995973,0.6340330371804611,0.9273810119548668,0.0,0.0,0.0,0.0
0.016988054721788968,0.01259693067470895,0.7510567501431432,0.005608226809259167,-0.5544874701046142,0.008732507163870022,0.8321273560024772,0.02129017519239128,0.4158237271160915,-0.9709794228809957,-0.030822414899181153,0.4279699508912461,-0.9636440525117074,-0.06925038252915768,0.676978995697381,0.8755412451367316,0.050888143306911535,0.6385060119769835,0.9303300231599837,0.0,0.0,0.0,0.0
0.019601912690010978,0.011365343386346408,0.7520992967719063,0.00573325930478622,-0.5551300852462552,0.008584626451180553,0.8316994784060665,0.024794744523090457,0.4284945728478992,-0.982594583420923,-0.027532714766085556,0.4456332078448992,-0.9853682822095892,-0.06428084017708939,0.6910237213793072,0.8632444291655237,0.05799884694007062,0.6513355122721551,0.9271123031598273,0.0,0.0,0.0,0.0
0.02175051430608513,0.0105002678475273,0.7530029377173295,0.006312403210856109,-0.5548702797634736,0.008178700345203117,0.8318727276822888,0.0276389683497392,0.4395011876317938,-0.995505731148234,-0.025349985098161523,0.4180861357903794,-0.9536197996579482,-0.046569954052836565,0.6713903150874385,0.8847607101186695,0.05846361903275639,0.6592355463237626,0.9207126850921237,0.0,0.0,0.0,0.0
0.024225562426585974,0.009664925742973571,0.7540428770924921,0.006790737881733041,-0.5546929244276214,0.007848659706771807,0.8319904110083012,0.030360076770933112,0.452337830157544,-1.0104918033191703,-0.021151176527485722,0.3968429111373564,-0.9390948043222549,-0.030499412558728577,0.6562554766448273,0.9014055648796526,0.05984681047231818,0.6691671325722813,0.9131607838583115,0.0,0.0,0.0,0.0
0.02666233014175018,0.008824389041433905,0.7550956108054208,0.007160167308717335,-0.5546628351493365,0.007611246695564086,0.832009579411169,0.03297303743598573,0.46473736481445094,-1.0241928137632899,-0.016756969293449442,0.38148215375211086,-0.9356318021824729,-0.01767286481247968,0.6452327034274019,0.915783594393988,0.062492939405254896,0.6798796914642574,0.9057477816521747,0.0,0.0,0.0,0.0
0.028879212376674526,0.008005701180301746,0.7561024334647232,0.007460103275503295,-0.5547067378237354,0.007425526497331079,0.8319793527656236,0.03545364776693084,0.4757977564879464,-1.0357287140790796,-0.012867044084869569,0.3701481719626136,-0.9382095784091714,-0.007198011277217847,0.6368708811758383,0.9289665865953588,0.06573077605517952,0.6903145953348264,0.8986791976754936,0.0,0.0,0.0,0.0
0.030783355515112947,0.0072299435886064075,0.7570511308787742,0.007720527860461343,-0.5547820038529543,0.007264494873575666,0.8319282113047304,0.037772387831402014,0.48512589592181765,-1.044722179748681,-0.009486613193623265,0.3613569727085994,-0.9439569820075354,0.0019413663592219507,0.629966239202967,0.9414202372497699,0.06903880776814865,0.6999503718326854,0.8919012263000224,0.0,0.0,0.0,0.0
0.03234595120582949,0.006514259678525889,0.757947840819307,0.007956883065426416,-0.5548663682091131,0.007116624919927344,0.831870996664784,0.0398908905354622,0.49266369694603057,-1.051180086596413,-0.006425735194378962,0.35400179441439816,-0.9512817523513829,0.010372439291510297,0.6237037660323851,0.9533809765919123,0.07209117911051406,0.7086073403487947,0.8852859754523403,0.0,0.0,0.0,0.0
0.03357958527461787,0.005872223518656804,0.7588021722564222,0.008175138035925126,-0.5549492803399585,0.006979130790993429,0.831814736045027,0.04177272719128147,0.4985493601423486,-1.0553543400656196,-0.003510490110470678,0.3473080823311183,-0.9593101071318506,0.018408949290328065,0.6175882356224206,0.964995726993472,0.07470757062757954,0.7162909881476318,0.8787172539936233,0.0,0.0,0.0,0.0
0.03452013336505237,0.005313708085858865,0.759621413053799,0.008376657020140555,-0.5550265940346611,0.006852710125092834,0.8317621967217504,0.043391171503685516,0.5030183880891489,-1.0576221518553086,-0.0006418535528721706,0.34077120800092014,-0.967567694979315,0.02618908042263849,0.6113468613409704,0.9763721467479836,0.07680221461385761,0.7230936361878011,0.8721195426762699,0.0,0.0,0.0,0.0
0.035213505024520184,0.004844966957276741,0.7604092488162217,0.00856117248291143,-0.5550975226156968,0.0067387920746916855,0.8317139143918466,0.0447315793272177,0.5063376968893438,-1.058398668544522,0.0022117086046858454,0.3340832603158098,-0.9758035604888368,0.033769088857997814,0.6048506701718342,0.9875941068211697,0.07834710858025049,0.7291373817831621,0.8654604583921878,0.0,0.0,0.0,0.0
0.03570679496198922,0.004469269132742058,0.7611661030849011,0.008728133091757129,-0.55516297783875,0.006638603441276809,0.8316692952576124,0.04578939040724948,0.5087653662811638,-1.0580821912864455,0.0050402382808481545,0.3270647198363883,-0.9838936268559655,0.04117299355652498,0.5980624994695244,0.9987233459012969,0.07934790406392578,0.7345425812788574,0.8587443503435737,0.0,0.0,0.0,0.0
0.03604295596591109,0.0041881548627392415,0.7618894652155218,0.008877182320028036,-0.5552244515199921,0.006552947811591309,0.831627358222034,0.04656588535310611,0.5105290161645295,-1.0570276495547801,0.007815803870243181,0.3196150659568666,-0.9917840243485719,0.04841337099628807,0.5910079625542214,1.009794110125952,0.07982470770473311,0.7394082243826431,0.8520065365212405,0.0,0.0,0.0,0.0
0.036258016475225016,0.0040030732831461465,0.7625734433222822,0.009008035766816736,-0.5552832450239794,0.006482473682884614,0.8315872477510786,0.04706276435956409,0.5118163588241024,-1.0555411712183826,0.010506542277775083,0.3116963381251149,-0.9994482344449513,0.055496929007126564,0.583764201554222,1.0207998058433319,0.07979847650055315,0.7437975182632309,0.8453150050126074,0.0,0.0,0.0,0.0
0.03637976047771473,0.0039171593890426955,0.7632071230922491,0.009120236977600905,-0.555339613515748,0.00642776694458366,0.8315488071964015,0.04727730754905944,0.512771972724279,-1.0538885188031812,0.01308222865901861,0.3033602366541696,-1.0068396171517606,0.06241514953908834,0.5764612315772304,1.0316649117916017,0.07927781249481079,0.7477205773589262,0.8387831930959497,0.0,0.0,0.0,0.0
0.03642692913450275,0.0039366424478780365,0.7637717656823166,0.009212449034112917,-0.5553923401122876,0.006389886836974286,0.8315128674131276,0.047198093383823116,0.5134943562000458,-1.0523071936966115,0.015512371790088911,0.29482995881648605,-1.0138262755437624,0.06911918666294273,0.5692944155549323,1.0421887281671152,0.07825586271858471,0.7511149415945892,0.8325979326565792,0.0,0.0,0.0,0.0
0.036407948609425936,0.00407150912041853,0.7642372028574301,0.00928191971046345,-0.5554383210933247,0.00637027018078329,0.8314815314156659,0.04680394794726729,0.5140280557600719,-1.0510121372987071,0.017761137632125105,0.28662556081774504,-1.0201053028183067,0.07545926337209566,0.5625526835544996,1.0519409398010482,0.07670796017905693,0.753818791313141,0.8270583708480219,0.0,0.0,0.0,0.0
0.03631908016285522,0.004334430177210074,0.7645594152674501,0.009323315290685872,-0.5554737367642145,0.006371433300918094,0.831457400228588,0.04606565807938039,0.5143487657066689,-1.0501795829166471,0.01978029545268044,0.2796856949327798,-1.0251138739162933,0.08108864240657901,0.5566863022443428,1.0600819708713647,0.07461124104562215,0.7555568100777462,0.8226128457354521,0.0,0.0,0.0,0.0
0.03614354446283578,0.004737533949370337,0.7646844021459517,0.009327812746965845,-0.5554974476855027,0.0063977539686218155,0.8314413065685434,0.04495215950283917,0.5143521849165327,-1.049899474610221,0.02150698345072636,0.27533567788485097,-1.0279874171469736,0.0853671296045917,0.5524596658397445,1.065083625445297,0.07197841877955029,0.7559730726428356,0.8198371768747121,0.0,0.0,0.0,0.0
0.03585695676815465,0.005288940004844112,0.7645699993406507,0.009285767890041735,-0.555517779049652,0.006453349708855771,0.8314277635200603,0.04344029860755911,0.5138877445087556,-1.050098829888963,0.02287505893387299,0.27480690343773845,-1.0276805393685517,0.08747089961416768,0.5511851683179705,1.0644559264561566,0.06885372068356682,0.7547889329644242,0.8192128401106321,0.0,0.0,0.0,0.0
0.035435482816850654,0.00599956055231181,0.7642140641270377,0.009195597204688485,-0.5555355638933095,0.006539124494222291,0.8314162123104413,0.04149776260712759,0.512843904039362,-1.0506222605821003,0.023861151936137887,0.27806657852023386,-1.0241445607557862,0.0873557864608832,0.5528535001652091,1.0582104674415618,0.06517575827069544,0.7519376323827596,0.8207236241279338,0.0,0.0,0.0,0.0
0.03485718512572431,0.00688306812447612,0.7636547471837188,0.009064444718669377,-0.5555427630430653,0.006652008363814786,0.8314119466649168,0.03908506898533435,0.5111560492569146,-1.0512464734717737,0.024498373510740003,0.283829877607522,-1.018359983797204,0.08576374839982834,0.5561288190185352,1.048840420933837,0.060774697580437825,0.7475692870468525,0.8238406949761293,0.0,0.0,0.0,0.0
0.034094012469052505,0.007947901214788316,0.7629430815597311,0.008899152294704941,-0.5555392712341211,0.006788224296229768,0.8314149645129087,0.03617603497378541,0.5087198398303607,-1.051593839385154,0.024829817282078656,0.29072561667960817,-1.0111390410668473,0.0832735267544875,0.5602115424339879,1.037859038720426,0.055525406731542506,0.7419253291599247,0.8279179923712663,0.0,0.0,0.0,0.0
0.03310594061161862,0.009198847637053361,0.7621214587043239,0.00870413745114294,-0.5555263261778426,0.0069444737936002745,0.8314243881426084,0.03275522105510383,0.505350989884799,-1.051191956233057,0.02488931235079546,0.297770389624168,-1.0029927907802798,0.080184022722168,0.5646098129763143,1.0260778962725288,0.04935739322844919,0.735177736784499,0.8324213749709478,0.0,0.0,0.0,0.0
0.03184289262710968,0.010637635451518891,0.7612197410386722,0.00848244416031567,-0.5555040310421363,0.007117107271172889,0.8314401159561012,0.028819209192825546,0.5007939673178254,-1.0495094419886823,0.024699741379450812,0.3044040688558933,-0.9941851616429447,0.07661259788673974,0.5689918488494484,1.0138886805322365,0.04224310417137455,0.727402613069009,0.8369618639609736,0.0,0.0,0.0,0.0
0.030249015767147596,0.012261249146536481,0.760257781411324,0.00823723708554778,-0.5554707339913464,0.007301232577264569,0.8314632304601112,0.02438302157301084,0.494740740718402,-1.0459702175731487,0.024279598575902613,0.31036887974704247,-0.9848357412003776,0.07259590430715879,0.5731180724612087,1.0014449473441354,0.034198765124879654,0.7186056020204638,0.8412644249755709,0.0,0.0,0.0,0.0
0.028267857964051842,0.014058745473495145,0.75924938996115,0.00797272121100875,-0.5554237206991448,0.0074905946331479826,0.8314955304710011,0.019488778136447584,0.4868506029182242,-1.0399582847715552,0.023649028111184505,0.3155813038044571,-0.9750149608765302,0.0681569362561186,0.576808270929811,0.9887696667696448,0.025301473968794896,0.7087637563699508,0.8451300812773136,0.0,0.0,0.0,0.0
0.025849069427715907,0.016007882718332592,0.7582058996407086,0.0076947717066606835,-0.5553601695841758,0.007677675477425401,0.8315388901471061,0.014214263090836779,0.47677670632574104,-1.0308337422834637,0.022835619927486533,0.32004894573612863,-0.964811538340808,0.06334317719217938,0.5799232470843695,0.9758177766371543,0.015705443091925356,0.6978674830635959,0.8484070410700241,0.0,0.0,0.0,0.0
0.02295834108601995,0.0180727882877521,0.7571385173545938,0.007411123859740212,-0.5552782361669084,0.007854343579009968,0.8315945315894313,0.008677338493450617,0.46421073898030224,-1.0179838847923612,0.021882733308878834,0.3238450316021891,-0.9543684618360451,0.0582549044886351,0.5823610949062564,0.9625191621736036,0.005649864732443026,0.6859600491962925,0.8509779527286283,0.0,0.0,0.0,0.0
0.019592841396127006,0.020204157871801756,0.75605836974995,0.0071310546874910775,-0.555177983170966,0.008013085074357386,0.8316623987705911,0.003031868533138792,0.44896177340980314,-1.0009430514803497,0.020863511996051017,0.3271383791373211,-0.943886994545241,0.05307574134433895,0.5840828475701221,0.9488241515573598,-0.004551951363894309,0.6731700286693317,0.8527727567646963,0.0,0.0,0.0,0.0
0.015804999383231932,0.022343436141809603,0.7549711735354042,0.006864019758143771,-0.5550618078893444,0.008149092021376158,0.8317408652667003,-0.0025492317880352984,0.4310907290095845,-0.9796348120030045,0.019898689901332763,0.33027175645286255,-0.933598892822569,0.04810785512280865,0.5851982679023343,0.9347710435189462,-0.014545229233710396,0.6597215228796414,0.853840333900156,0.0,0.0,0.0,0.0
0.011736919049111453,0.0244321140210765,0.7538573003393394,0.006618511696543249,-0.554926267058994,0.008254307457264734,0.8318322546278749,-0.00788706328700757,0.4111291621378209,-0.9548506980061552,0.019188267990517285,0.3338335056323939,-0.9237337564424599,0.04372139519960504,0.5861568717191855,0.9205844719456115,-0.024040418306417115,0.6458314891389493,0.8545480830551729,0.0,0.0,0.0,0.0
0.007671052458650775,0.026453551364327556,0.7526401664400465,0.006392788302012143,-0.5547007014231333,0.008360802345383835,0.831983389907846,-0.01300153240185065,0.3905169894288701,-0.9295024048211311,0.019191227732044215,0.3382181984982686,-0.9140161961016263,0.040425440981692574,0.5881585749918982,0.9061958299502648,-0.03280099231871836,0.6315527703361032,0.8557159030443631,0.0,0.0,0.0,0.0
0.004036046246913341,0.028306261503543102,0.7513741341703367,0.006188628078911342,-0.554400608129655,0.008450243693769644,0.832184030109618,-0.01760670545791515,0.3716199978881698,-0.9070077000572555,0.019569668204871844,0.3437844428505418,-0.9049367777572476,0.03891621408114887,0.5914434634865993,0.8919969484027908,-0.0404793711529119,0.6179613639730764,0.8575432022163645,0.0,0.0,0.0,0.0
0.0011303815875902774,0.029784000684098505,0.7502096146985661,0.006008638013839052,-0.5540752245673484,0.008534778793544145,0.832401164908367,-0.021256055331614086,0.3560900252229258,-0.889195553379937,0.0204451624914043,0.3498701047727726,-0.8975013263730252,0.040332334057762,0.5954665853025628,0.8779073825056108,-0.04615863514947628,0.6063724961573077,0.8599007408588446,0.0,0.0,0.0,0.0
-0.0006295120479960174,0.030667918179659796,0.7493746671720053,0.005873021732932494,-0.5537839964923933,0.008607563498397808,0.8325951613450912,-0.023447821718465763,0.34640835230304423,-0.8788633999454358,0.02137645792558016,0.35435787500549587,-0.8928953400474428,0.04425410648067262,0.5995845593755654,0.8645075269719965,-0.04913342112569395,0.5986537450897883,0.8621570141455225,0.0,0.0,0.0,0.0
-0.0006636954742710938,0.03079560251864461,0.7493064426735971,0.005766485403354357,-0.55379876404848,0.008584627258252308,0.8325863203051715,-0.02359017025453515,0.346221979960048,-0.8788014671501104,0.021361862736322068,0.3543730702023272,-0.8929133982238229,0.04427100319290631,0.5996243252715585,0.8645190488759303,-0.04915802023242926,0.5985579282293413,0.8620725046857154,0.0,0.0,0.0,0.0
-0.0006636954742710938,0.03079560251864461,0.7493064426735971,0.005766485403354357,-0.55379876404848,0.008584627258252308,0.8325863203051715,-0.02359017025453515,0.346221979960048,-0.8788014671501104,0.021361862736322068,0.3543730702023272,-0.8929133982238229,0.04427100319290631,0.5996243252715585,0.8645190488759303,-0.04915802023242926,0.5985579282293413,0.8620725046857154,0.0,0.0,0.0,0.0
-0.0006636954742710938,0.03079560251864461,0.7493064426735971,0.005766485403354357,-0.55379876404848,0.008584627258252308,0.8325863203051715,-0.02359017025453515,0.346221979960048,-0.8788014671501104,0.021361862736322068,0.3543730702023272,-0.8929133982238229,0.04427100319290631,0.5996243252715585,0.8645190488759303,-0.04915802023242926,0.5985579282293413,0.8620725046857154,0.0,0.0,0.0,0.0
0.00017385740718596867,0.031052220610108844,0.7492683582779174,0.005746528070760388,-0.5540800547750534,0.008468840058194753,0.8324004739689151,-0.02389796556291489,0.3515093786367036,-0.8861062796520718,0.021098791191476205,0.35874898121919285,-0.8987956010035374,0.042993157070204374,0.6014859604273586,0.8676428961840398,-0.05091301880130853,0.6004390313002106,0.8628562685876909,0.0,0.0,0.0,0.0
0.0017679970836088526,0.0314698638726793,0.7491760256865726,0.00572512994313583,-0.5543403466882779,0.008414688894990531,0.832227850970787,-0.024756693660351343,0.3616897880836274,-0.9018605203919667,0.020373158273504652,0.3674242000308906,-0.9117879677779627,0.04136610141882287,0.6042465412409551,0.8723774927604051,-0.053380330282172116,0.6034773137611276,0.8643253917030234,0.0,0.0,0.0,0.0
0.004070411809675398,0.032164541402421185,0.7490568984852953,0.005676501305677119,-0.5546039073773138,0.008437389666665128,0.8320523383239514,-0.026467543592556278,0.37646438619963357,-0.9253729508382981,0.018873345658731562,0.3797572771712375,-0.9304517525802393,0.038964466960180126,0.6080099718034468,0.8787876023137261,-0.056967088935264566,0.6079856152385221,0.8656349763814587,0.0,0.0,0.0,0.0
0.007080195180579844,0.033317667821822154,0.7491739872328775,0.005558415612071981,-0.5549546710081221,0.008582205003895033,0.8318177462037111,-0.029557265572665067,0.3960419619655024,-0.9555990526711513,0.016057165416956256,0.3954316009209142,-0.95251235497712,0.03522126455108358,0.6144246794272694,0.884907934179916,-0.06224525056723209,0.615983285857226,0.8634843352327136,0.0,0.0,0.0,0.0
0.010986318738571092,0.035366449400747554,0.7505744486374617,0.005243245864503499,-0.5558078353167007,0.009055343814266266,0.831244945441338,-0.03547947454160992,0.4227043081935572,-0.9904303198225495,0.010423919469103609,0.4154270913077027,-0.9724987864940637,0.029448446254834882,0.630322480770476,0.8826305283753059,-0.07008563694335154,0.6356816720730163,0.8466912922461501,0.0,0.0,0.0,0.0
0.014247802703626192,0.0371970943932951,0.7516100969634331,0.005040451657663438,-0.5554578929295788,0.00905639208754705,0.8314800687879872,-0.03215801478878207,0.39729694498984036,-0.9587389367326057,0.006276374800605616,0.4319366509922557,-0.9948104202860591,0.02112340255843325,0.6418462814346167,0.8792864183096948,-0.06198118829921993,0.6256077837502111,0.8717508891339093,0.0,0.0,0.0,0.0
0.017641101654388765,0.039136403979614175,0.7526988123655757,0.00483757380401623,-0.5552101763074113,0.009129277048176537,0.8316459068046698,-0.030013605542961685,0.3778713289351665,-0.9440951368781786,0.001632791848894189,0.44870535274063444,-1.0164338752088358,0.012296131530638792,0.654211664706915,0.8757825718405478,-0.05620926334135947,0.6182152059096079,0.8920904625721285,0.0,0.0,0.0,0.0
0.020891815438160825,0.041123109848576776,0.7538295667021646,0.004588708418995916,-0.5551272290058653,0.009285370741310105,0.8317009590360658,-0.0287524142107467,0.3639628613091683,-0.9405477697920913,-0.0033609059963431547,0.46427564318994663,-1.0347863887428486,0.0035329048844737077,0.6669159198571669,0.8719469595806074,-0.054409864489339536,0.6123862897303401,0.9093464698978,0.0,0.0,0.0,0.0
0.023808972950844894,0.043106354133806236,0.7549720005047531,0.004313395633684739,-0.5551365028305573,0.009478618012352256,0.8316940625276472,-0.028128602595071515,0.35368869464635677,-0.9429910901714698,-0.008478706934090722,0.47777874736755205,-1.0491585929372345,-0.005239250903101587,0.6793222472890783,0.8677135744488557,-0.05551459187600264,0.6073119102448826,0.9246100866473874,0.0,0.0,0.0,0.0
0.026305256746429573,0.04504791645992747,0.7560985060630782,0.004033097272098157,-0.5551850626883554,0.00967962253113908,0.8316607392451415,-0.02796640389942806,0.3456375306760887,-0.9485262989287158,-0.01355654728598517,0.4888916120742166,-1.0595815023831519,-0.014035562515615631,0.6909856504032508,0.8631849910288701,-0.05825858245212352,0.6025759016578667,0.938570760216291,0.0,0.0,0.0,0.0
0.02836509426443942,0.04691596711017141,0.757192845950229,0.0037619445684807045,-0.5552438822176003,0.009872501156389392,0.8316204739867269,-0.028106286295677775,0.33880432137419464,-0.9555488620711743,-0.01847001853481529,0.4976477917462682,-1.0664397949510356,-0.022766129847793692,0.7016863534215171,0.8584549492104224,-0.061767363879750604,0.5979184016905235,0.9516855411519344,0.0,0.0,0.0,0.0
0.030017157072614684,0.04868488559955708,0.7582480147949647,0.0035076552591576386,-0.5552993990927987,0.010050142333325504,0.8315823881978498,-0.028403333353948235,0.3325017482954361,-0.9631828132225436,-0.023127673178905343,0.5042873112954533,-1.0702828357770506,-0.03128120678427991,0.7113739211830313,0.853568170968061,-0.06553193873363007,0.5931644732113251,0.9642669044540229,0.0,0.0,0.0,0.0
0.031313499784920415,0.050336150279018665,0.759262037136729,0.0032738321239887997,-0.5553466728103689,0.010210319694636448,0.8315498207524371,-0.02873583876090521,0.3262830737734952,-0.9709607993775696,-0.027468016313350888,0.5091467944624171,-1.0717113993366327,-0.039424285797992564,0.7201012852193875,0.8485377816939562,-0.06927725260315773,0.5882047500479205,0.9765337946263095,0.0,0.0,0.0,0.0
0.03231500487005864,0.051858401119369575,0.760234808044521,0.0030616567523147325,-0.5553851140456096,0.010353273200956902,0.8315231873426635,-0.02901027056602873,0.31987194318039813,-0.9786457044269904,-0.03145588035961499,0.512586435228958,-1.071308009332006,-0.0470659253122185,0.7279720750533631,0.8433695347304014,-0.0728587852205104,0.5829867228417279,0.9886409703947344,0.0,0.0,0.0,0.0
0.03308210583415227,0.053246438699657575,0.7611662091499081,0.002870946023746758,-0.555416060601344,0.010480309648262295,0.8315016057739693,-0.029160651498747376,0.3131039423889724,-0.9861306720127104,-0.03507701238767313,0.5149464761852072,-1.0695983069891442,-0.05411689530236283,0.7351043009232422,0.8380784839768676,-0.07620255177263925,0.5775078310421058,1.0006943538856734,0.0,0.0,0.0,0.0
0.033669521717665164,0.05449946698712599,0.762054857834538,0.0027008376885291696,-0.555441427583488,0.010592987385286506,0.8314838029799811,-0.029144097964454926,0.30588824712634083,-0.9933787728480973,-0.038331375923687586,0.516524961573203,-1.0670357768072873,-0.06052652402609714,0.7416060761782727,0.8326994698345153,-0.07927383525865686,0.5718113331427375,1.0127554827438732,0.0,0.0,0.0,0.0
0.03412373352476595,0.05561897298817541,0.7628967840922737,0.0025503141063989913,-0.555462848006912,0.010692619658247056,0.8314686934977484,-0.028934386818299726,0.298199141996531,-1.000377113484127,-0.04122614703513875,0.5175691772404959,-1.064003652984071,-0.06627294941592006,0.7475573083315279,0.8272973694380109,-0.08205860591281984,0.5659867456505209,1.0248338644832435,0.0,0.0,0.0,0.0
0.03448200352366377,0.05660662632156565,0.7636834828688448,0.0024187304232747885,-0.5554810070422807,0.010779902528411343,0.8314558282073146,-0.0285144686701661,0.2901080969273564,-1.0070878183926943,-0.04376931676918419,0.5182738795518997,-1.060827468105934,-0.07135158771834474,0.7529918436068879,0.8219838441418928,-0.08454498509876279,0.5601756566213743,1.0368611048449434,0.0,0.0,0.0,0.0
0.034771801797660665,0.057462568092535325,0.76439913047907,0.002306410125263481,-0.555495034516816,0.010854649977551662,0.8314458032087,-0.027868354976964344,0.2818633835068141,-1.0133845319390198,-0.045964906557619034,0.5187799481466605,-1.057790210979486,-0.07576588756070732,0.7578759649384281,0.8169445044084902,-0.08669089758362034,0.5545846185028304,1.0486343379511862,0.0,0.0,0.0,0.0
0.03500972210256804,0.05818466015024346,0.7650171955610812,0.002215405453185804,-0.5555022801034052,0.010915536414735328,0.8314404126835395,-0.02697313673771045,0.27400894816258364,-1.0189744464760853,-0.04781096550263883,0.5191677257944773,-1.0551391668089865,-0.07952603095527327,0.7620834904780055,0.8124775120806438,-0.08836367200776264,0.5495134831205669,1.0597097248927843,0.0,0.0,0.0,0.0
0.035199697766796274,0.05876942343892611,0.7654980149206448,0.0021503276155779355,-0.5554988790800007,0.010959951603383084,0.8314422715335441,-0.025794376780913085,0.2674908611721629,-1.0233266502817673,-0.049302066091780755,0.5194435849419754,-1.05307351582797,-0.08265940574273173,0.7653774487243117,0.8090292806365854,-0.08924316050008481,0.5454225173930674,1.069220590965614,0.0,0.0,0.0,0.0
0.03533240067965837,0.059215255726819245,0.7657920798921392,0.002118396146774107,-0.5554823037524013,0.010984490878279065,0.8314531036539795,-0.024292283347506667,0.2636132137789214,-1.0256568629507137,-0.050437745914952516,0.5195313785324581,-1.0517037656070687,-0.0852284903516144,0.7674338863209301,0.8071758636747516,-0.08872764103791357,0.5430853696541396,1.075598014108011,0.0,0.0,0.0,0.0
0.03539171956816454,0.05952625516507723,0.7658605545901911,0.0021251665347109894,-0.5554582583980384,0.010988992816722613,0.8314690907553278,-0.022447252461678387,0.2635794150563067,-1.0250694475818518,-0.05123541503844545,0.5193111341597689,-1.0509824756804187,-0.08730501439589147,0.7679900550674296,0.8074111479810793,-0.08604116229989976,0.5438263367733183,1.0763048476770518,0.0,0.0,0.0,0.0
0.03536495802283852,0.059705754563819026,0.7657033809388691,0.002170362866235099,-0.555427558843817,0.01097296644508668,0.8314896935075154,-0.020280865184935524,0.26736949282145495,-1.021531661925129,-0.05170167509487823,0.5187105636089975,-1.050794920961071,-0.08890703148670774,0.7670149585991959,0.8097571021285623,-0.08121438344617629,0.5476116938884614,1.0713052402957206,0.0,0.0,0.0,0.0
0.03524457710963361,0.05975699119629785,0.7653604486233572,0.0022478277230365343,-0.5553855147380123,0.010935693155710618,0.8315180622842325,-0.017860438449616826,0.2737592332160238,-1.0159103699274121,-0.051834348237309605,0.5177140782114475,-1.0509699060974402,-0.09000021310063225,0.7647207482542768,0.8137458708783523,-0.07507203650393413,0.5530634112825367,1.0630667306501247,0.0,0.0,0.0,0.0
0.03501855527010224,0.05968997055331292,0.7648846050503693,0.0023499803030163466,-0.5553346830999417,0.010879614576288782,0.831552464565847,-0.015271529101764224,0.28143522135308047,-1.0089773069774752,-0.05165185467788867,0.5162738021556733,-1.051190177325762,-0.09056620605056126,0.7614004796675382,0.8187964604278941,-0.06825245787694542,0.5593700026602795,1.0531026595531887,0.0,0.0,0.0,0.0
0.03466333944484509,0.0595178469944742,0.7643209504386597,0.002471950444756104,-0.555278415497206,0.010806574627051079,0.8315906376870418,-0.012586566531065302,0.28944588921506015,-1.0012494346275251,-0.051181315587943,0.5142676325586517,-1.0510543726606254,-0.09062838234979659,0.7572751306090344,0.8244361359778626,-0.06110601041074959,0.5660448319865148,1.0422378925565723,0.0,0.0,0.0,0.0
0.034144696824211646,0.05925439284829241,0.7637030037347481,0.0026112119580768743,-0.5552187267434422,0.01071772412376698,0.831631214803237,-0.009859746309036459,0.29724677213254946,-0.9930107695596306,-0.0504526244198455,0.5115073985156677,-1.0501151073176331,-0.0902338997776424,0.7524659678497029,0.8303307031147418,-0.05379340565036994,0.5727684221302718,1.030885267578793,0.0,0.0,0.0,0.0
0.03342083532800498,0.058913858394779306,0.7630547949228957,0.0027665155450359844,-0.5551559346341096,0.010613978784653142,0.8316739614095334,-0.007132426893420447,0.3045954868708103,-0.9843940970595476,-0.04949861405195844,0.5077566302546263,-1.047896048810401,-0.08944407474174358,0.7470143286080649,0.8362544729342547,-0.04638272252552059,0.5793162773575605,1.019227914080544,0.0,0.0,0.0,0.0
0.032446005354960096,0.05851214702152214,0.7623941849944271,0.0029370327579215827,-0.5550890904342531,0.010496457551284836,0.8317194838996658,-0.004436898047824343,0.31143381165654743,-0.975466160949306,-0.0483584359699491,0.5027476974678841,-1.0438984921412784,-0.08833522562702041,0.7409131751062406,0.8420520477665876,-0.03890606170758142,0.5855257856919457,1.0073310527989046,0.0,0.0,0.0,0.0
0.0311750063233409,0.058068112248767276,0.7617356935782582,0.0031218007185301925,-0.5550167358187784,0.010366814437910198,0.8317687217488717,-0.0017948099127449136,0.31781000630068335,-0.9662951872761376,-0.047081189241623946,0.4962020290806188,-1.0376132212026656,-0.08700297377439603,0.7341390169007064,0.8476076747380812,-0.03138365356441663,0.5912794031558002,0.995210713865058,0.0,0.0,0.0,0.0
0.029569939604867333,0.057603971736780446,0.7610922736218687,0.0033193948634403386,-0.5549378502644298,0.010227420869499727,0.8318223150553199,0.0007880184826540193,0.3238525104614936,-0.9569991406930407,-0.04572713941509734,0.4878623484789504,-1.028555173946488,-0.08556309288412668,0.7266832108439061,0.8528251376423838,-0.023828026798784034,0.5964996701928144,0.9828835765179332,0.0,0.0,0.0,0.0
0.027610911704635446,0.057143876637669934,0.7604757390196284,0.003527791630060414,-0.5548530507210571,0.010081311234293506,0.8318798073974077,0.003325753826331526,0.3297903735112949,-0.9477816800231333,-0.044363858965739425,0.47754848365074926,-1.0163412452608342,-0.0841433214655198,0.7185845988971318,0.8576193778071347,-0.016233208293376003,0.601162890922622,0.9704192512194924,0.0,0.0,0.0,0.0
0.025312581624172548,0.056709703944080356,0.7598950386490255,0.003744536230712815,-0.5547661591224191,0.00993169133827043,0.8319386087014695,0.0058485862705810335,0.3360105849830971,-0.9389677789303434,-0.043054684440592635,0.4652508273582835,-1.0008388059785533,-0.08286353403207805,0.7099628682504212,0.8619285072673936,-0.00854013503903561,0.6053474322920253,0.9580151315744946,0.0,0.0,0.0,0.0
0.02274838856328048,0.05631358672170962,0.7593495974727835,0.003967686417620654,-0.5546857308515923,0.00978051565710556,0.83199299213852,0.008381466619530055,0.34313190327512705,-0.9310571866015531,-0.04183800492933977,0.4512771415957601,-0.9824277406791315,-0.08180974147168826,0.7010393348091708,0.8657784105672478,-0.0005455776165721772,0.6093434826362273,0.9461084134107804,0.0,0.0,0.0,0.0
0.020082401640463494,0.05594789125514424,0.7588089855779977,0.00419884569249414,-0.5546167046318686,0.009624385156178878,0.8320396936736267,0.010908095428607299,0.35198874805897284,-0.9247797255864302,-0.04069781935148465,0.43646311301466356,-0.9624825547812164,-0.08102142115250106,0.6920716683570303,0.8694753217196469,0.008317783983437127,0.6138421650601986,0.9354790361165947,0.0,0.0,0.0,0.0
0.017748362128782492,0.055513741812509565,0.7582163352487672,0.00445047339769332,-0.5544933659309308,0.00945371617774471,0.8321225436650265,0.013771868126164457,0.36326474616974663,-0.9209648589004981,-0.03940391701731864,0.4234479900458593,-0.9457622768529362,-0.08012004100885298,0.6836132713577947,0.8732278626655031,0.01963302818081926,0.6203083972704383,0.9271482908723144,0.0,0.0,0.0,0.0
0.015954715270577187,0.05509496180891093,0.757697127051199,0.0047001431320685275,-0.5544108732968352,0.009283732809855363,0.8321780485748791,0.0163491923585928,0.3774492634355229,-0.92253021988791,-0.03817083027023095,0.413420197415468,-0.9331545359224702,-0.07949980055712956,0.677007855506235,0.8764047960543258,0.03375307847264407,0.6281599086561922,0.9225157610396093,0.0,0.0,0.0,0.0
0.01498565988301474,0.054796680132498776,0.7574047954188673,0.004884699803158616,-0.5544203791934204,0.009146344263062255,0.8321721740297968,0.017570490791058282,0.39365327077665563,-0.9334962162726893,-0.03726942566491048,0.40801294912322805,-0.926268585123462,-0.07931614661578291,0.6737044482221413,0.878102571661565,0.048582906605143236,0.635360820830097,0.9225338679918549,0.0,0.0,0.0,0.0
0.014947624268712536,0.054709699798555965,0.7573757148357595,0.004978113275141204,-0.5544330667135012,0.009155864961674781,0.8321630627825809,0.01759151814057491,0.3936716532831741,-0.9335040836953779,-0.037164999586236355,0.4078917976751124,-0.9262320602392363,-0.07930981340528732,0.6736287297372163,0.8780495400205327,0.04857539024219194,0.6353878856228478,0.9225442000947255,0.0,0.0,0.0,0.0
0.014947624268712536,0.054709699798555965,0.7573757148357595,0.004978113275141204,-0.5544330667135012,0.009155864961674781,0.8321630627825809,0.01759151814057491,0.3936716532831741,-0.9335040836953779,-0.037164999586236355,0.4078917976751124,-0.9262320602392363,-0.07930981340528732,0.6736287297372163,0.8780495400205327,0.04857539024219194,0.6353878856228478,0.9225442000947255,0.0,0.0,0.0,0.0
0.015128580485429933,0.05458321276095891,0.7572148050820374,0.005156627097220406,-0.5542435900177909,0.009049201706034427,0.832289351169204,0.01802667676683471,0.39441651924085547,-0.9357775662103613,-0.03679336177246435,0.40922564389701727,-0.9303237448501176,-0.080147602329797,0.6730892216156753,0.8789332459300266,0.04772748145830075,0.6339986017360981,0.9240322307809044,0.0,0.0,0.0,0.0
0.015752107787901037,0.054383088701901956,0.7570615427304833,0.0052762434684399525,-0.5541670902822222,0.008974480506303166,0.8323403486571097,0.01865434461788462,0.3974958269658805,-0.941278993710658,-0.03626751665329214,0.4132161397218596,-0.9380025348111888,-0.08024007258043458,0.673739378952206,0.8799628517072183,0.04803183514789859,0.634041299539886,0.9262969899185285,0.0,0.0,0.0,0.0
0.016922700221209307,0.054034260363102105,0.7569429594946587,0.005359529583050273,-0.5541987178564597,0.008913961487425934,0.8323194085562977,0.019692852781485727,0.4033483204550237,-0.9505077649869714,-0.03538444740883159,0.4205967302177103,-0.9504231586800761,-0.07939601307940483,0.6760402728979481,0.8806232167563524,0.049744399335292074,0.6358358889591686,0.9293326333681269,0.0,0.0,0.0,0.0
0.018721236019890317,0.05338574561976482,0.7569916403146595,0.005433681515152765,-0.5543687612801899,0.008841444204790008,0.8322064530428933,0.021562297455571353,0.4121570149515094,-0.9628800496940074,-0.033726909502888806,0.43212330441811764,-0.9682288437432218,-0.07700971281524073,0.6811236528148331,0.8791015382220831,0.05354434134417768,0.6403313664608798,0.932383243972922,0.0,0.0,0.0,0.0
0.021356928747317823,0.052192461137647916,0.7579835226156196,0.005561524476701284,-0.5550084214725661,0.008702260857374862,0.8317806154245214,0.0249470422642701,0.42501204774140666,-0.9750632174594216,-0.030564237054226378,0.4497603174314209,-0.9900615152878122,-0.07232481556996594,0.6949629622274758,0.8674047520537299,0.060567564287000726,0.6530087597706187,0.9294737270603235,0.0,0.0,0.0,0.0
0.02351379694538212,0.05137006345716692,0.7588202849769073,0.0061744034041757555,-0.5547558262104411,0.008261866652156917,0.8319492722441648,0.02773393102936214,0.4361235735357733,-0.9883296350543076,-0.028535196797674137,0.4212545772309005,-0.9569160152771432,-0.053062076122723345,0.6752424815613245,0.8881366462577255,0.06042898103325829,0.6604979767160526,0.9235389485310818,0.0,0.0,0.0,0.0
0.025984890127574913,0.05056679929167583,0.7598086071854769,0.006679476369071467,-0.5545912733865764,0.007907991809934482,0.8320585122119866,0.030403155391412924,0.4489884149856776,-1.0034836522294273,-0.02437631390215583,0.3993968069493958,-0.9415275876636764,-0.035861431822189614,0.660002022105761,0.9043042287123727,0.061366328887072004,0.6701160520865593,0.9163624235501975,0.0,0.0,0.0,0.0
0.028421900649034472,0.04975638563585839,0.7608228303549124,0.007063941198990538,-0.554570770686343,0.007657826026389591,0.8320713423352846,0.03295313574913308,0.46144471994210395,-1.017390164572269,-0.02001902488955181,0.38366806702708806,-0.9375696476084432,-0.022446389432270217,0.6489474783777218,0.9184615648051198,0.06370757405248795,0.6806238797842085,0.9092133609620804,0.0,0.0,0.0,0.0
0.030640873487172753,0.048965061058549,0.7618008631030706,0.007371296349488435,-0.5546219840430663,0.0074658763408790565,0.8320362849640174,0.035368872407851956,0.47256955058361283,-1.0291303954370585,-0.01617831300210023,0.3721152290096577,-0.9398760928008205,-0.011716648627426593,0.6406069110245679,0.9315778868055161,0.06673525469580141,0.6909253859263793,0.9023303701066386,0.0,0.0,0.0,0.0
0.03254841723439948,0.04821414801440876,0.7627280053550086,0.007634708449166557,-0.5547024823167718,0.007301882087496212,0.8319817004336623,0.0376254372471209,0.48196444269273375,-1.038317845984372,-0.012860000624887572,0.36319529748827073,-0.9454868935654401,-0.002497744363229224,0.6337534617469651,0.9440496835190012,0.06988884105461264,0.7004725930275308,0.8956807177257765,0.0,0.0,0.0,0.0
0.03411583880758561,0.04752127948068863,0.7636085724875992,0.007871538156594613,-0.5547903142418477,0.00715255610560809,0.8319222241601899,0.03968604945110188,0.48957157820972147,-1.0449605878776813,-0.00986957543020997,0.35576672983381885,-0.952755740187976,0.0059280223318536485,0.6275579589049439,0.9560743195487571,0.07281781977092089,0.7090698215986407,0.8891520504815187,0.0,0.0,0.0,0.0
0.03535587039121166,0.04690042597458187,0.7644507965357288,0.008088858877522828,-0.5548753301524831,0.007014248754423287,0.8318646155863606,0.04151461567205573,0.4955302291452578,-1.0493135329863075,-0.0070278248882386,0.3490338730119785,-0.960776130065176,0.013920253930263927,0.6215178945672918,0.9677777483676705,0.07532781400106968,0.7167128672943459,0.8826402859072426,0.0,0.0,0.0,0.0
0.03630434013539436,0.046361682161185455,0.7652609179024972,0.008288683554631691,-0.554953792311616,0.006887260395663177,0.8318113679002767,0.04308435650920916,0.5000760501012846,-1.0517555382801798,-0.004231588251604168,0.34247888515268166,-0.9690539010221386,0.02163876509330807,0.6153569330760126,0.9792566636655683,0.07732571060294519,0.7234878968264791,0.8760793521173159,0.0,0.0,0.0,0.0
0.037006892700408904,0.04591137276608076,0.7660418279360648,0.008471146408503324,-0.5550252579135617,0.006772844225302943,0.8317627854969287,0.04438052678007958,0.5034749121361537,-1.0527015052720021,-0.0014467944398308227,0.33578533909055736,-0.9773260403118893,0.029149555373362217,0.6089443163401792,0.9905892887752046,0.07878001885607779,0.7295127211437461,0.8694440813556953,0.0,0.0,0.0,0.0
0.03751019765706667,0.04555272744237039,0.7667933506602211,0.008635945270198273,-0.5550908872327327,0.00667216576298632,0.8317181070317629,0.045398515790353,0.5059828924093653,-1.0525479983570953,0.001317754011538583,0.3287681279146505,-0.9854610625511531,0.03648105691414817,0.6022419041859068,1.0018344274682962,0.0796952152665384,0.7349044468259991,0.8627442581302773,0.0,0.0,0.0,0.0
0.037856687858200185,0.04528716286924536,0.7675125243765861,0.00878288259451885,-0.5551523197924572,0.006586017186633189,0.8316762514223919,0.04613967156075342,0.507824960940497,-1.0516471804350425,0.004034401723732716,0.32132293836050513,-0.9934004416009122,0.04364796403178253,0.5952746403977656,1.0130246535169671,0.08009149685445473,0.7397593635527107,0.8560192700076196,0.0,0.0,0.0,0.0
0.03808182519961903,0.045115918056248344,0.7681931321855802,0.008911769779071151,-0.5552109402724766,0.006515068043919944,0.8316363063560538,0.04660593099669428,0.5091857386152264,-1.0503015240569762,0.006671224001033584,0.3134091908473473,-1.0011145743338892,0.05065830050370555,0.5881189154926997,1.0241520348573219,0.07999088099250089,0.7441384854735361,0.8493401402951242,0.0,0.0,0.0,0.0
0.03821280366905857,0.04504181254388901,0.7688240682882439,0.009022196340987113,-0.5552670948913015,0.006459972111156454,0.8315980531870443,0.04679499622223905,0.5102063478579131,-1.0487719888680094,0.009198096242058258,0.30507692980024387,-1.0085544471275139,0.05750508309873347,0.5809033811886946,1.035139253981961,0.07940412114582691,0.748050555237428,0.8428224229797702,0.0,0.0,0.0,0.0
0.03826773099835007,0.04507067269074639,0.7693865471757754,0.009112957819099952,-0.555319595363723,0.006421710589500324,0.831562302318932,0.04669634556690449,0.5109815074872501,-1.0472899770813318,0.01158569952975013,0.2965479828143719,-1.015585846692427,0.06414069836128704,0.5738204881182872,1.045782479927034,0.07832530759221784,0.7514318673771215,0.8366534276163726,0.0,0.0,0.0,0.0
0.038254393190270575,0.04521195449370174,0.7698505779360494,0.009181346011215103,-0.5553655714559916,0.006401819839130508,0.8315309985980857,0.04628967744174309,0.5115516946293343,-1.0460622759113338,0.013800406938241104,0.28834286095537176,-1.021903041708932,0.07041959838208123,0.5671541119212691,1.0556456313081901,0.07673318254712143,0.7541218376960191,0.8311312450330588,0.0,0.0,0.0,0.0
0.038168394571240466,0.045477805324356975,0.7701725277950268,0.009222223728093327,-0.5554013639316785,0.006402719338557911,0.8315066329966417,0.04554696889596895,0.5118886567302827,-1.045256005806179,0.015798034799996072,0.28140147638736474,-1.026939549762467,0.07600130110689905,0.5613462870331049,1.0638793409996177,0.07460584815488472,0.7558470253620293,0.8267000035794739,0.0,0.0,0.0,0.0
0.03799240985002401,0.04587992327172275,0.7702989339512292,0.009226959858129106,-0.5554259270749705,0.00642872934892736,0.8314899723891107,0.0444380903018519,0.5118850013890388,-1.0449529746252106,0.017520512877050642,0.2770517955252413,-1.0298266873334334,0.08025579413566723,0.5571509583128645,1.068940350170798,0.07195685468567807,0.7562548138970164,0.8239288130647633,0.0,0.0,0.0,0.0
0.03770184999208517,0.04642623574645581,0.7701880713065398,0.00918598776472702,-0.555447367599671,0.006484005019737055,0.8314756744092314,0.04294027591254047,0.5113891964178704,-1.0450774515905858,0.018905017056935106,0.27652736680263257,-1.029516007659434,0.08236868997756011,0.5558719462614876,1.0683206693598513,0.06883124585053277,0.7550694235042712,0.8232925244328865,0.0,0.0,0.0,0.0
0.03727335874103709,0.047127747438991154,0.7698378708295096,0.009097655541785113,-0.5554664750868828,0.006569463959242415,0.8314632101671634,0.04102126320714378,0.5102923874880453,-1.045477946510799,0.0199277085200829,0.2797959041767498,-1.025959606985806,0.08229560621037951,0.557500589394115,1.0620318079357425,0.06516739151891972,0.7522251655736222,0.8247745139502657,0.0,0.0,0.0,0.0
0.036686128120693384,0.04799849182094351,0.7692861662419609,0.008968905117326939,-0.5554753890183217,0.006682032035827081,0.8314577568246102,0.038641259751825315,0.5085360182521513,-1.045941186185756,0.020617685235398732,0.2855714646563005,-1.020142500161845,0.08076901018636443,0.5607108510360224,1.0525850730978115,0.0607941296234718,0.747871192712507,0.8278523744722172,0.0,0.0,0.0,0.0
0.03591351519164414,0.049047528867378135,0.7685835161842347,0.008806289116938116,-0.555473905305254,0.006817981979169723,0.8314593826030531,0.03577315255414919,0.5060234472823423,-1.0461042424679834,0.021013029404543023,0.2924811025438093,-1.012882361958625,0.07835735096975156,0.5647146727798168,1.0415092823617333,0.05558429666878708,0.7422468640537071,0.8318873584499427,0.0,0.0,0.0,0.0
0.03491695468263855,0.05028047496720804,0.7677719264839976,0.008613943055107369,-0.5554630836791119,0.006974058754640686,0.8314673325869286,0.032400004568053996,0.5025785951629544,-1.0455102192077552,0.021143492302803938,0.2995408906863432,-1.0046951656425078,0.07535260755094321,0.569029429959665,1.0296265394211925,0.049464006140440005,0.7355228017381112,0.8363503780080914,0.0,0.0,0.0,0.0
0.03364778174177161,0.05170007203682504,0.7668810543204239,0.008394648896486003,-0.5554428288239951,0.007146613273962587,0.8314816412264405,0.028516383067807096,0.4979541660046938,-1.0436426544435173,0.021029112395759574,0.3061917106507526,-0.995849051125035,0.07186797631035592,0.5733297628933698,1.017335117832767,0.04240069016266882,0.7277748855505859,0.8408542707331113,0.0,0.0,0.0,0.0
0.03205146280728726,0.053304497059859374,0.7659307301168287,0.008151295230959562,-0.5554112538720238,0.007330731636922622,0.8315035513045218,0.024134730304039002,0.49185018124051527,-1.0399397051779158,0.020686057718217993,0.31217814092068336,-0.9864675155198295,0.06793752724627422,0.5773806853974485,1.004792663811621,0.03440442913188048,0.7190095252481161,0.845122751755025,0.0,0.0,0.0,0.0
0.03007271453685731,0.05508416588997518,0.7649349134823716,0.007887764539542997,-0.5553653035751647,0.007520127352736323,0.8315350927291238,0.01929402007385826,0.4839335510722288,-1.0337990718981587,0.020131573973764152,0.31742016981956367,-0.9766253851549409,0.06358247530666425,0.5810058584691995,0.9920248684177277,0.02554571900073676,0.7092052154254824,0.8489527072496191,0.0,0.0,0.0,0.0
0.027662092419396055,0.057018298032048845,0.7639052857420549,0.007609541896230571,-0.5553016521555365,0.007707258722404785,0.8315784798492846,0.014068447548207802,0.4738640410040206,-1.0245934647834594,0.019388574363090723,0.32193005789570417,-0.9664172961135047,0.05884892777175964,0.5840698228251973,0.9789887725613818,0.01597278245878831,0.6983544306449336,0.852185157547342,0.0,0.0,0.0,0.0
0.02478573138767988,0.05907242421723796,0.762853705712622,0.007323900875422382,-0.5552177894524052,0.007884006897282391,0.8316353823562315,0.00857219593541289,0.46133790221125204,-1.0117197877767037,0.018492928548316752,0.325786992528606,-0.9559949539027955,0.05383544990520604,0.5864739319899984,0.965616312711007,0.005921033444906854,0.6865036730396378,0.8546917500431627,0.0,0.0,0.0,0.0
0.021440503964193378,0.061198322463259756,0.7617924873970598,0.007039619517444476,-0.5551130895198458,0.008042953717785524,0.8317062056377088,0.002955953100357832,0.44616528092496655,-0.9947151880656742,0.01750708695140883,0.3291674237315646,-0.9455722971431277,0.04872126307891993,0.5881806301594672,0.9518607731343114,-0.004295984196507582,0.6737875395845853,0.8563858328742896,0.0,0.0,0.0,0.0
0.01767753348715157,0.063337927713984,0.7607295110853672,0.00676573255415714,-0.5549895881797718,0.0081795103236905,0.8317895632225241,-0.0026094088657042016,0.42840359339095213,-0.9734938807858787,0.016538778443669182,0.3324242351570872,-0.9353976685465057,0.043794849472169495,0.5892977012017016,0.9377668462190792,-0.014318500688833398,0.660442471565031,0.857290072092315,0.0,0.0,0.0,0.0
0.013636511595753006,0.06543281275517053,0.7596490517905996,0.006510976684844089,-0.5548430121215784,0.008284695332930346,0.8318883355990178,-0.007943698759578658,0.4085787696621537,-0.9488277847574453,0.015777704280972984,0.3361574592662309,-0.9257239510506656,0.039375515892578206,0.5902705984426609,0.9235715577242906,-0.023859104284579935,0.6467046707743958,0.8577214496492548,0.0,0.0,0.0,0.0
0.009573593511114815,0.06745788420090847,0.7584846833648727,0.006274185311664315,-0.5546144349446107,0.008395368558049222,0.8320414538570297,-0.013058395333068965,0.38797166615562007,-0.9232834098847243,0.015783719770052083,0.3407927008110575,-0.9163314660029627,0.035971709947961464,0.5922424279009111,0.9092214665460938,-0.03261180063182551,0.6326731863175552,0.8584384033844651,0.0,0.0,0.0,0.0
0.005943179103422411,0.06932074014495102,0.7572845036844126,0.006057705392233951,-0.5543139485629462,0.008492267151328795,0.832242291663051,-0.01768648750431189,0.36911242547571305,-0.9005910661035592,0.01614355476703505,0.3467418830472106,-0.9076877053545329,0.03408896154846303,0.5955509474955212,0.8951996459608333,-0.0402865311313044,0.6194393922676055,0.8596556314529891,0.0,0.0,0.0,0.0
0.0030447961893245177,0.07081374503883926,0.7561977602290444,0.005864114197666207,-0.5539949885218942,0.008591790667759322,0.832455011391261,-0.02138846685432381,0.3536591333719625,-0.8825826203208937,0.017003074478970547,0.353436309173765,-0.9009107230378457,0.03479614476120296,0.5996416065551137,0.8815334342957603,-0.04593683417560278,0.6083332640961092,0.8612757848433571,0.0,0.0,0.0,0.0
0.0012970036618361622,0.07171400156548827,0.7554379427390521,0.0057174055770242115,-0.553715362279094,0.008685754469574378,0.8326410790484059,-0.023654026904455627,0.3440982490463665,-0.8721255448971915,0.017947373124928702,0.35882241611234245,-0.8973813345026422,0.037816943545986866,0.6037976287827427,0.8688626383828274,-0.04886313811965127,0.6011307014004562,0.8628215537334443,0.0,0.0,0.0,0.0
0.0012624142936223971,0.07184250117481168,0.7553701426098672,0.00561004172634166,-0.5537297436684098,0.008663126422282123,0.832632481139991,-0.023797256075230793,0.3439106636014061,-0.8720638595953785,0.017932340371008788,0.3588377248642532,-0.8973999669182446,0.03783335842702028,0.6038376897466823,0.8688743954415662,-0.04888752657925377,0.6010356217521844,0.8627368852202479,0.0,0.0,0.0,0.0
0.0012624142936223971,0.07184250117481168,0.7553701426098672,0.00561004172634166,-0.5537297436684098,0.008663126422282123,0.832632481139991,-0.023797256075230793,0.3439106636014061,-0.8720638595953785,0.017932340371008788,0.3588377248642532,-0.8973999669182446,0.03783335842702028,0.6038376897466823,0.8688743954415662,-0.04888752657925377,0.6010356217521844,0.8627368852202479,0.0,0.0,0.0,0.0
0.0012624142936223971,0.07184250117481168,0.7553701426098672,0.00561004172634166,-0.5537297436684098,0.008663126422282123,0.832632481139991,-0.023797256075230793,0.3439106636014061,-0.8720638595953785,0.017932340371008788,0.3588377248642532,-0.8973999669182446,0.03783335842702028,0.6038376897466823,0.8688743954415662,-0.04888752657925377,0.6010356217521844,0.8627368852202479,0.0,0.0,0.0,0.0
0.00208678537367285,0.07207555216358076,0.7553320300887761,0.005597874100279808,-0.554010034729964,0.008544613111004138,0.8324473165377162,-0.024047493388666893,0.349095089078155,-0.8791849155364203,0.017719953446568116,0.3631541322680677,-0.9032054357304753,0.03655778335884729,0.6057584923747326,0.8718274826492743,-0.05058415067689207,0.6028783653555223,0.8635679169857216,0.0,0.0,0.0,0.0
0.003657501092020719,0.07243964384550283,0.7552468268569061,0.005585117504498303,-0.5542702057631891,0.008484165061673463,0.8322748130328703,-0.02476730958496332,0.35909285176387595,-0.8945750655533506,0.017118499797033847,0.37174238414077765,-0.9160511014992156,0.03503747277779653,0.6086574499140393,0.8761563446397836,-0.052861012848826425,0.6058937060455962,0.8650959362706683,0.0,0.0,0.0,0.0
0.005924025461846944,0.07307387665251742,0.755125519983372,0.0055430571155018335,-0.5545341979395485,0.008503214957905545,0.8320990284627999,-0.02632398859245747,0.37362685248113453,-0.9176727543145569,0.015749659174134407,0.3839011116695723,-0.934447328922032,0.03277096660182975,0.6125081928931414,0.8821809958536054,-0.05619876400137605,0.6103156287462157,0.8665649036493501,0.0,0.0,0.0,0.0
0.008886626328729892,0.07415821351839409,0.7552329142028188,0.005429519280651672,-0.5548837422341022,0.008647402749048445,0.8318652386957609,-0.029238659671388313,0.39291024074306663,-0.9474473648782253,0.013076292002981387,0.3993329210885358,-0.9561575099021409,0.029195756765735815,0.6189632926096995,0.8879092038731027,-0.061157649705143355,0.618168051304408,0.8646633684233909,0.0,0.0,0.0,0.0
0.012732049486173017,0.07612130925744486,0.756595032524336,0.005113350334028945,-0.5557315855381021,0.009127233065420034,0.8312959473618514,-0.034945565877583365,0.419157200102236,-0.9817942378451501,0.007617380797502881,0.4190003039219366,-0.9757762014902805,0.02369624435808311,0.6347107792885572,0.8853916770828075,-0.06852132088319873,0.6375256318258259,0.8484716064340272,0.0,0.0,0.0,0.0
0.015967814131581954,0.07787424112912181,0.7576134509592084,0.004922467170265987,-0.555384401222348,0.009127517347800283,0.8315290882602467,-0.03175428505793481,0.3950557224533076,-0.9523566539991075,0.0036320824446985523,0.43541150381789034,-0.9979948753427864,0.015559371074800809,0.6462478667100637,0.8817599063620647,-0.060476168986218645,0.6274883481493334,0.8733807329526201,0.0,0.0,0.0,0.0
0.019315608004416007,0.07973891405185314,0.7586888735288089,0.004725303572214954,-0.5551449067021594,0.009204025203183412,0.8316892989505518,-0.02963238429854797,0.37640418984824603,-0.9390902633975062,-0.0008610300769913105,0.45196922531159855,-1.0192918634614454,0.006952649000580841,0.6586081581793363,0.8779362323497271,-0.05471739346814406,0.6200188892867242,0.8936340490904019,0.0,0.0,0.0,0.0
0.022511332338791903,0.0816548982927628,0.7598055326418972,0.004480350856786368,-0.5550672437780264,0.009363139128301785,0.8317407125820697,-0.028337318464927912,0.3628950833812889,-0.9363040876701119,-0.00570649423643118,0.467284652240876,-1.0372730534907717,-0.0015937110251668194,0.6712641584200196,0.873807141076516,-0.052864002506055816,0.6140875350496017,0.9108345898847385,0.0,0.0,0.0,0.0
0.02537236740747073,0.0835728733785756,0.7609326985092678,0.004208777518370956,-0.5550785826461152,0.009558642862726001,0.8317323401347356,-0.027649537740400288,0.35281363662214454,-0.9391460470115321,-0.010682656347458528,0.48053318371509585,-1.0513046014182958,-0.01016308982298031,0.683586559980813,0.8693309003736989,-0.0538618935141757,0.6089252919094653,0.926074649635886,0.0,0.0,0.0,0.0
0.0278158411090779,0.08545549384359201,0.7620441189823867,0.003932410656734137,-0.555127053679835,0.009761025525451683,0.8316989917030463,-0.027410392681660813,0.3448459815905371,-0.9448678870151344,-0.01562837355325035,0.4914121962814399,-1.0614374980054193,-0.01877638533090719,0.6951487399904751,0.864606432683067,-0.05647334640790107,0.6041245111250458,0.9400381866789432,0.0,0.0,0.0,0.0
0.02982830188963627,0.08727139746423825,0.7631248012434957,0.0036652606625185457,-0.5551845360669959,0.00995461618708367,0.8316595471663378,-0.02747156633376573,0.33804059896768235,-0.9519554941534842,-0.020421780163818445,0.4999634134669491,-1.0680565164001334,-0.027345600874043762,0.7057460132124438,0.8597164704630192,-0.05984427960549936,0.599421706840629,0.9531742501416325,0.0,0.0,0.0,0.0
0.03143923317885191,0.08899509460836924,0.7641684185756461,0.00341483105261614,-0.5552381541569915,0.010132556670612866,0.8316226682772275,-0.027694653792921384,0.3317393903175731,-0.9595875448643839,-0.024973104567998707,0.5064286537391609,-1.0717045892883943,-0.03572140111244996,0.7153377128372228,0.8546961788061033,-0.06347738982996777,0.5946362979052789,0.9657881374110067,0.0,0.0,0.0,0.0
0.03270077140492818,0.09060788952436442,0.765173157866309,0.0031845384549439677,-0.5552834580643171,0.010292833107190043,0.8315913644943592,-0.027961093035868835,0.32551164727927545,-0.9673294683236499,-0.029221534639878997,0.5111431607894551,-1.0729748971400561,-0.04374679458591583,0.7239819129032673,0.8495523632504185,-0.06710293357325674,0.589654761164069,0.9780936094273012,0.0,0.0,0.0,0.0
0.033673480122452526,0.09209799647167873,0.76613874243884,0.0029754574789391426,-0.5553200987484059,0.01043583975886084,0.8315658890475119,-0.028178305137939622,0.3190896921789044,-0.9749636063820339,-0.03313170928935312,0.5144643719953075,-1.0724436294045225,-0.051291237238775086,0.7317839210991265,0.8442868714493014,-0.07057799092773008,0.5844220388818098,0.990242127876825,0.0,0.0,0.0,0.0
0.03441727664059535,0.09345963700186341,0.7670647188471138,0.002787362662817821,-0.5553495446058442,0.010562968891237454,0.8315452709285708,-0.028280096526947393,0.31231385751774243,-0.98239431773433,-0.036688531227471524,0.5167293130506321,-1.0706312892672645,-0.058264069908703135,0.7388614972583615,0.8389126060226733,-0.07382858232715522,0.578934434948954,1.0023377742457535,0.0,0.0,0.0,0.0
0.034986283531490935,0.09469135007515579,0.7679493710243878,0.002619369434188875,-0.5553737275286683,0.010675862777461981,0.8315282241924423,-0.0282229428542202,0.3050956126325291,-0.9895908059550765,-0.03989078716928055,0.5182329391431065,-1.0679873667874558,-0.06461239950377297,0.7453215284740001,0.8334624792748183,-0.0768188557766864,0.5732347977959928,1.0144410773107575,0.0,0.0,0.0,0.0
0.03542638304285553,0.0957939589614577,0.7687884454173053,0.002470459367339475,-0.5553942433573971,0.010775898560841568,0.8315136867702089,-0.027979914474936637,0.2974099962988226,-0.996543401444494,-0.042744355792497586,0.5192197728025496,-1.0648919536739048,-0.07031190840871032,0.7512424052832029,0.8279995598410371,-0.07953326219766008,0.5674124463682768,1.0265609270268907,0.0,0.0,0.0,0.0
0.03577427881823772,0.09676853801432496,0.769573199836715,0.0023400101629455668,-0.5554117066065919,0.01086380111527146,0.8315012557670122,-0.027533378649311,0.28932806650463194,-1.0032159954612128,-0.045255980713485314,0.5198821636259588,-1.061668168207073,-0.07535584996429992,0.7566564110052088,0.822634053915763,-0.08195844004832527,0.5616085280328234,1.03862829998472,0.0,0.0,0.0,0.0
0.03605694199151324,0.09761475502228183,0.7702875930154096,0.0022283915356076127,-0.555425222957361,0.0109393479936964,0.8314915433360719,-0.026867023566884096,0.281096863175509,-1.0094833729366066,-0.04742857584450617,0.5203588404560918,-1.0585968693607,-0.07974643426777907,0.7615284580991017,0.8175511126638074,-0.08405154732805611,0.5560287404966155,1.0504393165929276,0.0,0.0,0.0,0.0
0.036290515917569884,0.09833011970955133,0.7709049089691006,0.0021377142241665024,-0.5554321022914835,0.011001136000491485,0.831486370861638,-0.025957976576322022,0.2732581705758774,-1.0150535974374018,-0.04925928808016923,0.5207282170699562,-1.0559236015242888,-0.08349337330990626,0.7657310840574195,0.8130490549125027,-0.08568019613569619,0.5509711161895797,1.0615481403964395,0.0,0.0,0.0,0.0
0.0364785153638677,0.0989109117059694,0.7713853397898277,0.0020726373667105543,-0.5554284148251029,0.011046453566583148,0.8314883980205743,-0.024772244544914144,0.2667549438039024,-1.0193961657314545,-0.05074199407314542,0.5209948820799114,-1.0538460426469838,-0.08662418675840694,0.769026109267806,0.8095748774045924,-0.08652635428487755,0.5468928830487441,1.071084444053432,0.0,0.0,0.0,0.0
0.036611224767028015,0.09935537836400965,0.7716792655638168,0.0020403941061684925,-0.5554114642226456,0.011071823835128735,0.8314994629697077,-0.02327079079297376,0.2628869327179119,-1.0217261222987588,-0.05187578906180864,0.5210810801845531,-1.0524737693641577,-0.0892016723222849,0.7710881643247633,0.8077052664626698,-0.08599244781145449,0.5445635325066658,1.077473413884592,0.0,0.0,0.0,0.0
0.03667226838894012,0.09966757903931503,0.7717477556335549,0.0020465020372218614,-0.5553867303031695,0.011077072886334279,0.8315158988791717,-0.021434682189993358,0.26285230172769947,-1.021145064527261,-0.052677956326588594,0.5208656867669782,-1.0517591389229843,-0.0912979314276533,0.7716531076942802,0.8079347799194057,-0.08330680547597785,0.5453040160805993,1.078170691879122,0.0,0.0,0.0,0.0
0.03664907198870021,0.09985103225066491,0.7715908232151916,0.002090657388001157,-0.5553550192247058,0.011061742557499366,0.8315371727260329,-0.0192857233846141,0.2666313245921096,-1.0176206273890278,-0.05315558339350859,0.5202768051128955,-1.05158766003326,-0.09293186525179956,0.7706903641682998,0.8102855163751677,-0.07850036054060104,0.5490805572079915,1.0731407022581112,0.0,0.0,0.0,0.0
0.03653459253095146,0.09990938326943921,0.7712485856131452,0.0021666968009012018,-0.5553118521996452,0.011025171470096786,0.8315662919007885,-0.01689097013660459,0.2730053927690185,-1.0120229688643023,-0.05330754930034735,0.5193006845182583,-1.0517887103724866,-0.09407072061806798,0.7684143587479005,0.8142892539630303,-0.07239407231599368,0.5545185282632511,1.0648585549532663,0.0,0.0,0.0,0.0
0.03631739195737298,0.09985313519581303,0.770774125481603,0.0022669987404344933,-0.555259926156377,0.010969895335196742,0.8316014288815649,-0.014335639649797217,0.280665607370853,-1.0051247645662944,-0.05315355216502823,0.5178915891281546,-1.052046284807604,-0.09469794000625469,0.7651203771686145,0.8193645697126819,-0.06562252269806607,0.5608107030725036,1.0548436501445075,0.0,0.0,0.0,0.0
0.0359744743382635,0.09969599238439111,0.7702127889411337,0.0023866370791959493,-0.5552026417477723,0.010897839291897806,0.831640287419095,-0.011692126527831193,0.28866366280700595,-0.99744256211087,-0.05272205367515844,0.5159294905910984,-1.0519606490985418,-0.09483901509328585,0.7610312685305897,0.8250385215109061,-0.05853445277052619,0.5674736534524757,1.0439246517385905,0.0,0.0,0.0,0.0
0.035472102843031546,0.09945230911850374,0.7695983636375984,0.002523026649837596,-0.5551420036684335,0.010810199913123975,0.831681507355646,-0.009014997939080022,0.2964572767624587,-0.9892590812139566,-0.052044251774954,0.5132281329322534,-1.0510861680154449,-0.0945433522396413,0.756269808340578,0.8309769682490197,-0.05129054033958199,0.5741899406705455,1.0325166149529612,0.0,0.0,0.0,0.0
0.03476889929706246,0.09913692168757342,0.7689551595042851,0.002674862413444772,-0.555078276495738,0.010707902260598319,0.8317248901546517,-0.00634632581730683,0.30380524166680806,-0.9807048565264721,-0.05115416448458682,0.5095527485834884,-1.0489483118770107,-0.09387437279609226,0.7508783478408355,0.8369546022965494,-0.04395938379842695,0.5807364158134588,1.0208040932151519,0.0,0.0,0.0,0.0
0.03381940695073369,0.09876627663499206,0.7683012934447124,0.0028412620404103636,-0.5550104091267525,0.010592046471748422,0.8317711112695084,-0.003719272201728476,0.31064941825952264,-0.9718429184768022,-0.050091890679116485,0.5046370649212013,-1.0450502340142336,-0.09290997478203543,0.74485002106019,0.84281686443607,-0.036573289839152937,0.5869516395268708,1.0088535694377134,0.0,0.0,0.0,0.0
0.032578522087758105,0.0983596610142114,0.7676514561359742,0.0030212060671009366,-0.5549367667252231,0.010464251335904635,0.8318212288072687,-0.0011561899526336735,0.3170366850599771,-0.9627354550126459,-0.04890708212687626,0.4982032200131831,-1.0388845574795007,-0.09174637044989699,0.7381600876626888,0.8484495088292099,-0.0291516295492151,0.5927194310240507,0.9966826073531223,0.0,0.0,0.0,0.0
0.031008119579007343,0.09793953397523233,0.7670186005988348,0.0032131998235188203,-0.5548560371854583,0.010326852827073203,0.831876078184985,0.0013371255019520084,0.32309169237753166,-0.953490871529584,-0.04765998867525017,0.48999340998804786,-1.0299676655166912,-0.09049840990074595,0.7307964380358773,0.8537587343953112,-0.021704067042592656,0.5979639468856885,0.9843098823981584,0.0,0.0,0.0,0.0
0.029087551865231175,0.09753000543744662,0.766414272596786,0.0034151128083499344,-0.554768372329801,0.010182875057567481,0.8319355138005657,0.003776454530793607,0.3290352702387859,-0.9442981232564996,-0.04641744971249702,0.47982465934420226,-1.0179164509093408,-0.0892908391095847,0.722791316188767,0.8586628218384754,-0.014218363599740193,0.6026627606556323,0.9718072780331682,0.0,0.0,0.0,0.0
0.02682987623106169,0.09715253262806564,0.7658468350145847,0.0036242931224459165,-0.5546768777730611,0.010035582147800924,0.8319974235863029,0.006196337065701571,0.33523796605857004,-0.9354599752780366,-0.0452412641385187,0.46768053539400084,-1.0025943626658878,-0.08823784092424264,0.7142539916139319,0.863103154962145,-0.006623925444999923,0.6068931084664455,0.9593739945122765,0.0,0.0,0.0,0.0
0.02430560355791234,0.09681832946767249,0.7653149869768909,0.0038383821775961604,-0.5545891679627784,0.009887143609088,0.8320567083990521,0.008629821052299416,0.3422883489584128,-0.9274430851318819,-0.044167450671982425,0.4538551817702407,-0.9843675550672862,-0.08741603333783779,0.7053924528654832,0.8671049592832646,0.0013008966876687823,0.6109367330459682,0.9474482621754375,0.0,0.0,0.0,0.0
0.021674090146655552,0.09651822112233867,0.764788352157459,0.0040580017160070005,-0.5545116191155149,0.009734732916414142,0.8321091466045839,0.011070132734460955,0.3509810048293137,-0.9209317797479727,-0.0431768373279759,0.439159445905918,-0.9645626038055016,-0.08685108313226507,0.6964601526419153,0.8709644861794013,0.010146083962306549,0.6154633473803227,0.9368255854566768,0.0,0.0,0.0,0.0
0.019367466735804282,0.09614515801751884,0.7642034463965273,0.004295748393857721,-0.5543718968783922,0.00956785679067878,0.83220298161784,0.01388955319655734,0.3619186115511012,-0.9166386674651706,-0.04202065099760018,0.4262330700368407,-0.9479974527164972,-0.08612381467535321,0.6879646931079673,0.8749002758325582,0.021598829385432214,0.6219714180751565,0.9285227574958959,0.0,0.0,0.0,0.0
0.017587971248690028,0.09577608756543436,0.7636833355003003,0.004526742147127247,-0.5542631372007473,0.0094027576285136,0.8322760788914327,0.016486447811099113,0.3754717830333601,-0.9173134562305388,-0.04089781960770137,0.41623599311204307,-0.9355307219046975,-0.08558289894374409,0.6812248035149489,0.8782586452068553,0.03609352294021931,0.6298550932787628,0.9239517925374968,0.0,0.0,0.0,0.0
0.016612417251470914,0.09550538743940974,0.7633821411556136,0.004683329181553287,-0.5542354685414617,0.009273275598487158,0.8322950908169999,0.017817933233483563,0.3906164187023507,-0.9267625367810585,-0.04005483204667826,0.41077099959460023,-0.9287182020175077,-0.08529670768803922,0.6776788703921636,0.8800667628976798,0.051567672281997316,0.637019377891015,0.9240739485486795,0.0,0.0,0.0,0.0
0.016575715381056944,0.09542278353933493,0.7633543500406706,0.00477250025253832,-0.5542470064594803,0.00928208625573133,0.8322868026989166,0.017838712492555104,0.3906347079090211,-0.9267695660126176,-0.03995506575541279,0.41065299600493743,-0.9286824791902922,-0.08529138329280773,0.6776043765299077,0.8800147094619761,0.0515604178877795,0.637046228914981,0.9240843018305739,0.0,0.0,0.0,0.0
0.016575715381056944,0.09542278353933493,0.7633543500406706,0.00477250025253832,-0.5542470064594803,0.00928208625573133,0.8322868026989166,0.017838712492555104,0.3906347079090211,-0.9267695660126176,-0.03995506575541279,0.41065299600493743,-0.9286824791902922,-0.08529138329280773,0.6776043765299077,0.8800147094619761,0.0515604178877795,0.637046228914981,0.9240843018305739,0.0,0.0,0.0,0.0
0.016771192237584207,0.09530344179886836,0.7631996755715915,0.004973985785869885,-0.5540827574847196,0.009163693897746005,0.8323962902594412,0.01826340315476295,0.3914704635656052,-0.9290025224096752,-0.03959515564862166,0.4120483625663967,-0.9327673228205995,-0.08639740248463294,0.677250993579173,0.8809446686976798,0.050491991375894545,0.6357394429902895,0.9255448888960339,0.0,0.0,0.0,0.0
0.017409109098250188,0.0951055499419475,0.7630517262074443,0.005108435652285031,-0.5540255938743929,0.009080446401900507,0.8324344362833958,0.01889224241712589,0.3946466586629505,-0.9345191887551239,-0.039071903033644315,0.4161051332094403,-0.9404612429760032,-0.08667413064991428,0.678066791382142,0.8819768013512991,0.05068001007935786,0.6358715299963467,0.927784378167151,0.0,0.0,0.0,0.0
0.018592878478996214,0.09475634424328554,0.7629371489074864,0.0052025839349957095,-0.5540721636500988,0.009013660674086616,0.8324035827107844,0.019936141996766774,0.40059860971458966,-0.9438031319296866,-0.038189726386318956,0.4235451985463675,-0.9528991221774901,-0.08597587001672714,0.680521128101436,0.8826101972699406,0.05234088347132445,0.6377579537727606,0.930791243245832,0.0,0.0,0.0,0.0
0.020403382983937533,0.09411076949503434,0.7629870006794277,0.005285881356061524,-0.554252819377151,0.008937038672291401,0.8322836061166522,0.021798340920872565,0.4095147295561852,-0.9562860233299502,-0.03654748299796982,0.43511318871531324,-0.9707111108539408,-0.08374205625129567,0.6857372516528585,0.881069764289056,0.056112390738044325,0.6423398646792686,0.9338014938638116,0.0,0.0,0.0,0.0
0.0230506959092141,0.09293255047522625,0.7639710470757779,0.005421324443815505,-0.55489371997102,0.008798252666013674,0.8318570547443972,0.02513539001923735,0.4224824616642292,-0.9686910184695067,-0.03343931389944947,0.45276066234741164,-0.9925604311477514,-0.07926275958527496,0.6996336992008507,0.8694393832595344,0.06310356554725402,0.6550605933168222,0.9308570996147209,0.0,0.0,0.0,0.0
0.025210590825398775,0.0921324194993048,0.7647968928613795,0.006064409231242687,-0.5546488510739449,0.008328786569046816,0.8320207366750639,0.027904045857224825,0.4336723058210752,-0.9820355932222122,-0.03145824222350376,0.4236879730942548,-0.9585578774406416,-0.05862392049901906,0.6795318758826538,0.8899874610821408,0.06251899562384929,0.6624483970659425,0.9249035901456603,0.0,0.0,0.0,0.0
0.027674766708144255,0.09134409085150855,0.7657806621224469,0.006593842696095552,-0.554497077469728,0.007953457677656357,0.8321215384948278,0.030558620079075706,0.44655036210369653,-0.997131772850195,-0.0272788503964771,0.40145449043373016,-0.9426402390793059,-0.040445959196030085,0.6639972934038925,0.9060203589960055,0.06313055661317706,0.6720148695450472,0.9176817182536792,0.0,0.0,0.0,0.0
0.030108087818130465,0.09054811219058466,0.7667905606594282,0.006992836925255553,-0.5544855768604409,0.0076905691721766015,0.8321284158297256,0.033083528758724015,0.4590365129749763,-1.0110490474123657,-0.022917181447206107,0.38549298391969394,-0.9383765707918947,-0.02652549084322478,0.6527893242406007,0.9201205531530413,0.06525821364985289,0.6825016420130894,0.9104868342039619,0.0,0.0,0.0,0.0
0.03232539406571991,0.08977060480032349,0.7677630364067985,0.007307977202243265,-0.5545430142378658,0.007491523826435498,0.8320892475569863,0.035468828876259656,0.47019552644602486,-1.0228401702786127,-0.019095327387774676,0.3738018801046306,-0.9405147274005765,-0.015573862925256428,0.6443938064486102,0.9332363010360278,0.06814691844112468,0.6927908779926377,0.9035761529334784,0.0,0.0,0.0,0.0
0.03423301951568684,0.08903326120581011,0.7686836813800979,0.0075751358116915935,-0.5546274431960707,0.007323425259443864,0.8320320811204897,0.03769267094622601,0.47962700302237127,-1.0321041993419033,-0.015814582061879703,0.36480419950272674,-0.9460419516377158,-0.006280909080395403,0.6375451548087018,0.9457428954846695,0.07120125648171863,0.7023257162881409,0.8969140733744493,0.0,0.0,0.0,0.0
0.03580231349519263,0.08835389271553844,0.7695574188450326,0.007813180733122484,-0.5547176601571208,0.007171809361793382,0.8319710553060837,0.03971942636345479,0.48727396171078524,-1.0388407300954572,-0.012873608896523867,0.35733656136405995,-0.9532796153385574,0.0021490204264901103,0.6313885884838283,0.9578240942689357,0.07405301719895212,0.7109103517284849,0.8903832853754231,0.0,0.0,0.0,0.0
0.03704597484680127,0.0877464931835475,0.7703928813349102,0.008030255037050547,-0.5548039778016208,0.00703213888337839,0.8319126217591986,0.04151421624622307,0.4932765392242398,-1.0432995536535747,-0.010086630514286102,0.35058778175449024,-0.9613016251824643,0.010112975382651658,0.6254059136761506,0.9695978679674717,0.07649557037650538,0.7185404206648727,0.8838756145088237,0.0,0.0,0.0,0.0
0.03799967406747409,0.08722101703099457,0.7711965525604776,0.008228990017114912,-0.5548830807612471,0.00690429206319217,0.8318589911513319,0.043051122147335974,0.4978704224750675,-1.0458552932508445,-0.007346050477187802,0.3440302004709543,-0.9696015842915895,0.017788584014633554,0.6193119602406296,0.9811562892302386,0.07843044011887322,0.7253028133270675,0.8773227185007614,0.0,0.0,0.0,0.0
0.038708762807315014,0.08678357068487724,0.7719714362982941,0.008409932898692872,-0.5549548273154618,0.006789267401790023,0.8318102659357196,0.04431617256791583,0.5013206196448728,-1.046918882582036,-0.00461518602307206,0.33734120002803275,-0.9779086254983094,0.025249664675455516,0.6129712676557078,0.9925749549720662,0.07982376401914498,0.7313156396198325,0.8706983212679639,0.0,0.0,0.0,0.0
0.039219529941767396,0.08643712660413272,0.7727174041424428,0.008573033516065497,-0.5550205859983129,0.0066881164619635395,0.8317655446774727,0.04530538061959688,0.5038816736637807,-1.046883005784393,-0.0019016339916776534,0.33033202190986233,-0.9860860709899566,0.03252831185925447,0.6063434060994517,1.00391107817916,0.08067985991683287,0.7366961220222641,0.8640117621532456,0.0,0.0,0.0,0.0
0.03957397763902368,0.08618283469626914,0.7734315087777358,0.00871827512973716,-0.5550820919528132,0.006601548518833071,0.8317236815368456,0.046020694428201045,0.5057765978946662,-1.0460960642373094,0.0007674113943410654,0.322896052341,-0.9940718550800174,0.0396408697129434,0.5994522524794244,1.0151961203831275,0.08101937967604653,0.7415401981290898,0.8573021959317455,0.0,0.0,0.0,0.0
0.03980712212238691,0.0860216466553223,0.7741075566665524,0.00884558494522414,-0.5551407685740561,0.00653019489980903,0.8316837375159825,0.04646463698893498,0.5071878065680254,-1.0448567080705926,0.0033601879268752555,0.3149912628548478,-1.00183384062492,0.04659635406527955,0.5923735625759348,1.0264210564200997,0.08086547548236017,0.7459084965355299,0.8506404300234969,0.0,0.0,0.0,0.0
0.03994571142573586,0.08595605465634114,0.7747345147375543,0.008954617026535725,-0.5551970044913092,0.006474723873174025,0.831645464719523,0.04663551288761684,0.5082540498694283,-1.0434216744861882,0.005846850475148657,0.30666685956074324,-1.0093209637108138,0.05338882916985013,0.5852350563500328,1.03750702755387,0.08023077875773447,0.7498097531032921,0.8441416185449584,0.0,0.0,0.0,0.0
0.04000740149171155,0.08599151509623576,0.775293754835771,0.009044229753981491,-0.5552496761773602,0.006436129537411586,0.8316096291227462,0.046523516146278435,0.5090675631337157,-1.0420174375564515,0.008198997217087018,0.29814427110391106,-1.016396964122849,0.05997215075296917,0.5782270812390847,1.048247597510792,0.07911133067319842,0.753180711060571,0.8379920698728561,0.0,0.0,0.0,0.0
0.03999951098655751,0.08613709126132166,0.7757555595822012,0.00911182724856885,-0.5552959912228705,0.0064159035083666835,0.831578121957386,0.04610921426134527,0.509666311115888,-1.0408450375173814,0.01038508065791077,0.2899440557765654,-1.0227535878713707,0.06620324105744688,0.5716292634106879,1.0582021094183278,0.07748706869564756,0.7558616828451019,0.832487723453986,0.0,0.0,0.0,0.0
0.03991719396163089,0.08640453388814225,0.7760766892663117,0.009152350673457293,-0.5553324646738049,0.006416516111921654,0.8315533154749927,0.04536528969064624,0.5100196671747365,-1.040065245489086,0.012364084468750525,0.2830074195170527,-1.0278211006361315,0.071747421367897,0.5658766671468042,1.0665134367707825,0.07533813210009217,0.7575814291002015,0.8280696350548697,0.0,0.0,0.0,0.0
0.039742739505404516,0.0868052565094559,0.7762040693106704,0.009157304369995426,-0.5553580887962548,0.006442272072263864,0.8315359487814061,0.04426220564151051,0.5100184574947829,-1.0397548453295884,0.014081950182175649,0.27866385395276505,-1.0307269468889184,0.07598317159099663,0.561713810619115,1.071626477127027,0.07267867933604753,0.7579891716189135,0.825303134465248,0.0,0.0,0.0,0.0
0.039451418544656586,0.08734710579821638,0.7760961426604602,0.009117190342715648,-0.5553807446980327,0.006497352201065098,0.8315208293682658,0.042777366252208945,0.5095107029169362,-1.0398374189939448,0.015478712574880074,0.2781473318131882,-1.0304192046789384,0.0781038769707298,0.5604361945346552,1.0710192006090349,0.06955391696282681,0.7568096486818604,0.8246606319984918,0.0,0.0,0.0,0.0
0.039020267191617754,0.08804124711640028,0.7757507637748117,0.009030342516681836,-0.5554011408719527,0.00658262108518018,0.8315074832686797,0.0408784468010851,0.5083898052655069,-1.040165468209014,0.016530134510122682,0.2814254086772159,-1.0268506366833297,0.07806437825335845,0.5620353610785103,1.064703338420728,0.06590059905652054,0.75397685750318,0.8261262844794848,0.0,0.0,0.0,0.0
0.0384294189327178,0.08890205317191129,0.7752054722419512,0.0089034021525646,-0.5554117420627993,0.0066952061040388075,0.8315008721727841,0.03852488916199633,0.5066019488536929,-1.040533536416932,0.017261219271162243,0.28721276280929753,-1.021011165035461,0.07659038206994874,0.5651943107104793,1.055204864353498,0.0615480755236083,0.7496406378828508,0.8291826867186544,0.0,0.0,0.0,0.0
0.037653341452988834,0.08993921562331869,0.7745103256306315,0.008742719044790175,-0.5554122550826457,0.006831358604162255,0.831501127063178,0.035688558951216524,0.5040563577519148,-1.0405906212659042,0.017705566003602298,0.2941350526559665,-1.0137235168383838,0.07424095569993178,0.5691349535680263,1.0440653773752762,0.056365636204902474,0.7440383317463839,0.8331963190053905,0.0,0.0,0.0,0.0
0.03665460222736287,0.09115917337130992,0.7737068291936897,0.008552177846177927,-0.5554036128094456,0.006987875967964594,0.8315075806760628,0.03235083838590138,0.5005831017881712,-1.0398926228680847,0.01788912301973077,0.30120784815797363,-1.0055080307917463,0.07130223634337218,0.5733823224453465,1.0321157816430984,0.05027548758600429,0.7373388003343317,0.8376426404252587,0.0,0.0,0.0,0.0
0.03538559231481121,0.09256567981051386,0.7728242149828571,0.00833436224354723,-0.5553855054708865,0.007161065866139934,0.8315204133720964,0.02850420307663926,0.49594096345338196,-1.0379357779449825,0.017829401672358622,0.30787219735499455,-0.9966364194349279,0.0678833617695618,0.5776160649184127,1.0197600776815912,0.04323898261857445,0.7296159986822041,0.8421371579033415,0.0,0.0,0.0,0.0
0.03379273553456874,0.09415804196362111,0.7718819586274082,0.008091852674177016,-0.5553558954233389,0.007346107352044216,0.8315409707558691,0.024158331186538862,0.48983562697145694,-1.0341702459928501,0.0175404621506561,0.31387431016625755,-0.9872354696583414,0.0640166953675921,0.5816047783769479,1.0071596889682806,0.03526112308863094,0.72087527600768,0.84640536090239,0.0,0.0,0.0,0.0
0.031821545460069274,0.09592790237802283,0.7708937297258633,0.007828091987046655,-0.5553115705077112,0.007536937894128332,0.8315713891201895,0.019348820133271504,0.4819389427017778,-1.0280049712675554,0.017037032364597398,0.31913723783966574,-0.9773835452510955,0.059724013398802685,0.5851751470749712,0.9943430195737936,0.02640871379888702,0.7110946180178017,0.850244988169201,0.0,0.0,0.0,0.0
0.02942298239122449,0.09785591519843728,0.7698710172752798,0.007548649771709265,-0.5552482327702959,0.007725346019349133,0.8316145362612228,0.014147423725307699,0.4719145460937258,-1.018823983774918,0.016339976036257146,0.3236738071330522,-0.967179221108447,0.055045884963928135,0.5881939957988881,0.9812692325968418,0.016817126153021084,0.7002613399117075,0.853492819996073,0.0,0.0,0.0,0.0
0.026563230065310157,0.09990858371418178,0.768825511545172,0.007260108727300003,-0.5551631183931454,0.00790370391561305,0.8316722517083761,0.008664838580841983,0.4594594463943954,-1.0060301676317225,0.015479893601978819,0.32756915931196734,-0.9567811809095804,0.0500840193740249,0.5905659982948124,0.9678719777535764,0.006725415911311731,0.6884221084544436,0.8560203231615072,0.0,0.0,0.0,0.0
0.02323832119888883,0.1020382741381479,0.7677696142070981,0.006971082470056922,-0.5550546834089183,0.008064306679429312,0.8317455556796208,0.0030505039007624503,0.44438029809525426,-0.9891603827465483,0.01451388609148242,0.3310035243343614,-0.9464132828666382,0.04501212960810692,0.5922546436753332,0.9541059055248996,-0.003553623160344287,0.6757081207058067,0.8577356099950595,0.0,0.0,0.0,0.0
0.019497421608475014,0.10418643075452119,0.7667117727550242,0.006690317990631315,-0.5549246000430086,0.008202714254485599,0.8318333026461194,-0.0025241526386929596,0.42672414205656234,-0.968113717765404,0.013543595309333033,0.3343362137948435,-0.93633844323175,0.04010898847862366,0.5933649801741464,0.940017538901342,-0.01365005470413937,0.6623567084629987,0.858654560651967,0.0,0.0,0.0,0.0
0.015476870439180081,0.10629280643630658,0.7656379394295316,0.006426638107884958,-0.5547692146606482,0.008310334670810184,0.8319379514874273,-0.007875837659482516,0.4069986568218879,-0.9436243343712047,0.01275447327031015,0.338176217006398,-0.9268272048789882,0.03566579924420354,0.594334863051265,0.9258477025467472,-0.023260526214353053,0.6486125342022697,0.8590795881931,0.0,0.0,0.0,0.0
0.011423308183805093,0.10832593764974335,0.7644848792386703,0.006179586088062107,-0.554535874958211,0.008423792053537826,0.8320942349443063,-0.013000428075664355,0.3864229716797332,-0.9181133771794378,0.012718084354518124,0.3429825880820238,-0.9177050040477792,0.032142794352273275,0.59628276576829,0.9115697021209848,-0.03204643168583954,0.6345907623908669,0.8597637253946779,0.0,0.0,0.0,0.0
0.00779960441821977,0.1101980062694751,0.7632948962482786,0.005952070377160331,-0.5542331040893196,0.00852700295958392,0.8322965393477676,-0.017649712472618723,0.36758489555824514,-0.8954386765408825,0.013032988969970417,0.349191819343648,-0.9094103669691008,0.029928255181129633,0.5996302185140402,0.8977019966229424,-0.03973183687389728,0.6213777233526458,0.8609541946500554,0.0,0.0,0.0,0.0
0.004906036187479354,0.11169914541548372,0.7622179991654471,0.005747368070436767,-0.5539183571309204,0.008638279623879504,0.8325063372243989,-0.02138417171757269,0.3521423786114151,-0.8774103589135209,0.013865771052260943,0.35629963711630985,-0.9031483800385035,0.030025819908717003,0.6038235794591773,0.8843420672642258,-0.04535208216161945,0.6103247409131386,0.8625600465114046,0.0,0.0,0.0,0.0
0.003163987971860809,0.11260447130404105,0.7614680770640682,0.0055934398037062495,-0.5536490504234247,0.008747888913896322,0.8326853648503453,-0.023688955163477035,0.34260049855288977,-0.8669195257860689,0.014822040815078822,0.3622942786714599,-0.900428823776973,0.03228593992435463,0.6080839566141516,0.8721618273528766,-0.04822406046804259,0.6032125022151222,0.8640952196576764,0.0,0.0,0.0,0.0
0.0031290754859010384,0.1127337182920816,0.7614003780312789,0.005485189933843527,-0.5536634303634652,0.008725620006853728,0.8326767572864311,-0.023833510323534562,0.342412638278779,-0.8668585331713875,0.014806860608660712,0.36230986126110964,-0.9004477493690476,0.03230184602308605,0.6081243076035631,0.872173722225235,-0.04824829616876215,0.6031171085300917,0.8640105449487445,0.0,0.0,0.0,0.0
0.0031290754859010384,0.1127337182920816,0.7614003780312789,0.005485189933843527,-0.5536634303634652,0.008725620006853728,0.8326767572864311,-0.023833510323534562,0.342412638278779,-0.8668585331713875,0.014806860608660712,0.36230986126110964,-0.9004477493690476,0.03230184602308605,0.6081243076035631,0.872173722225235,-0.04824829616876215,0.6031171085300917,0.8640105449487445,0.0,0.0,0.0,0.0
0.0031290754859010384,0.1127337182920816,0.7614003780312789,0.005485189933843524,-0.5536634303634649,0.008725620006853722,0.8326767572864312,-0.023833510323534562,0.342412638278779,-0.8668585331713875,0.014806860608660712,0.36230986126110964,-0.9004477493690476,0.03230184602308605,0.6081243076035631,0.872173722225235,-0.04824829616876215,0.6031171085300917,0.8640105449487445,0.0,0.0,0.0,0.0
0.003942001411002776,0.11294840261380149,0.7613610846049507,0.005479243817747983,-0.5539429442009594,0.008605388554317759,0.8324921259357277,-0.024040208529923057,0.34750778024666146,-0.8738255215877014,0.01463235868791779,0.36657346259970996,-0.9061876828586529,0.03102369490347167,0.6100865489323815,0.8749988097852676,-0.049898227905282526,0.604924523308932,0.8648839900212119,0.0,0.0,0.0,0.0
0.005492627527242498,0.1132687211630064,0.7612813123259586,0.0054738448867287254,-0.55420289702495,0.008539539570895734,0.8323198076552221,-0.02464628807482675,0.35734611459718807,-0.8889008093962752,0.01413218931057043,0.3750900388850989,-0.9189166605494749,0.02958657432572646,0.6130977478934525,0.8789954070753913,-0.052019015937905685,0.6079211019334648,0.8664563229589526,0.0,0.0,0.0,0.0
