zhuoxili-jackie/tripod-support-walk/examples/trajectory_tripod_lowstep_p2_v0.10.csv
root_pos_x,root_pos_y,root_pos_z,root_rot_x,root_rot_y,root_rot_z,root_rot_w,FL_hip_joint,FL_thigh_joint,FL_calf_joint,FR_hip_joint,FR_thigh_joint,FR_calf_joint,RL_hip_joint,RL_thigh_joint,RL_calf_joint,RR_hip_joint,RR_thigh_joint,RR_calf_joint,FL_foot_joint,FR_foot_joint,RL_foot_joint,RR_foot_joint
0.0,0.0,0.745913,-0.00590261038931276,-0.5534150365010598,-0.008528410562500121,0.8328410549308913,-9.86e-07,0.349071,-0.872662,2.4067e-06,0.349062,-0.872669,2.38753e-06,0.610854,0.872668,-3.27e-06,0.610866,0.872669,0.0,0.0,0.0,0.0
1.0757933123402803e-05,-3.552598646053336e-05,0.7459143004391381,-0.005902497865695088,-0.5534096261970789,-0.00852711677144245,0.8328446640466162,8.111992075174646e-05,0.3490773710337748,-0.8726749876163578,8.451298314383835e-05,0.34920925244730094,-0.8729472452092825,0.00018997419359825435,0.6108852710578144,0.8725130171236966,0.0001843212054433486,0.6108713490211684,0.8727846512450815,0.0,0.0,0.0,0.0
2.4903421096792312e-05,-8.928678607611196e-05,0.7459146347090264,-0.005899989972959002,-0.5534075226392053,-0.008527752777043077,0.8328460730754693,0.00020967216315387007,0.34906675064998416,-0.8726322857115383,0.00021307669794430693,0.349412294992007,-0.873320035395784,0.00044991931078815434,0.6109383677605412,0.8723152668250039,0.00044437954701108016,0.6108712614347104,0.8729896855906667,0.0,0.0,0.0,0.0
4.337294377878169e-05,-0.00016035604577638725,0.7459137360516562,-0.005895886158851448,-0.5534076895818035,-0.00852952725666462,0.8328459730363771,0.0003811857872119546,0.34904744485324357,-0.8725560619255133,0.00038462750474409517,0.3496754539772364,-0.8737977661109168,0.0007850880688846569,0.6110087613286102,0.8720775748795414,0.0007798693751449638,0.6108664809881931,0.8732819161734068,0.0,0.0,0.0,0.0
6.871836867910434e-05,-0.0002554530457079629,0.7459114372735143,-0.005889912299907283,-0.5534092018765819,-0.008532484536357425,0.8328449801247894,0.0006116360496169751,0.34902336878376605,-0.8724536315212796,0.0006151643403584156,0.35002918251640214,-0.8744391450875525,0.0012283001973649897,0.6111019003923178,0.871775914414227,0.0012237848925567675,0.6108561503639992,0.8736875979678403,0.0,0.0,0.0,0.0
0.00010594857764428955,-0.00038694082780693954,0.7459082354508455,-0.005880841517055286,-0.5534116403007048,-0.008537553679728298,0.8328433719853333,0.0009318050692940325,0.3490030774210745,-0.8723290960389452,0.0009355200197211668,0.35053086563968455,-0.8753470297134011,0.0018323017650087009,0.6112380292063591,0.8713630376897484,0.0018292381949620838,0.6108444986397371,0.8742496730492733,0.0,0.0,0.0,0.0
0.0001677514007728998,-0.0005739600936430852,0.7459100744767507,-0.005864946908267593,-0.5534180816359955,-0.008548868079965298,0.832839087801869,0.0013939563101812626,0.3490310554163128,-0.8721944628689637,0.001398073604752531,0.3512998491601293,-0.8766972237044774,0.0026566702240928674,0.6115026551258754,0.8707316200144232,0.002656520717984528,0.610879424837422,0.8749926871898996,0.0,0.0,0.0,0.0
0.000283154420522184,-0.0008447712742882442,0.7459548994277131,-0.005823475075251134,-0.5534833184040617,-0.008623978243030983,0.8327952511786674,0.0021849398626084546,0.34922437240683846,-0.8716980007293434,0.00219001522472541,0.35254146519383595,-0.8785266688955614,0.003492548462231254,0.6124162717348111,0.8696470130831746,0.0034967141514076357,0.6112286660089187,0.8757495364688188,0.0,0.0,0.0,0.0
0.0004763182502598074,-0.0011020187952020656,0.745936121279891,-0.005795296157267579,-0.5534443343232923,-0.00864109001654437,0.8328211782316918,0.0028138945401971482,0.3499569047126685,-0.8729478806207317,-0.0020867657188952116,0.3494986276379503,-0.8760832680319225,0.004580788468130263,0.6127702002292502,0.8689532971091032,0.004592242530135215,0.6112548641838754,0.8769237730619711,0.0,0.0,0.0,0.0
0.0007048276003521006,-0.0014053775989449117,0.7459230676222691,-0.005762395444551394,-0.5534252366139132,-0.008688444580935567,0.8328336047544784,0.003620679677066532,0.35081385542725757,-0.8742021430348378,-0.007627008092258383,0.34646203564328215,-0.8749626796901043,0.005747089327200805,0.6133427337378848,0.8681530741165003,0.005768772291057493,0.6113557656268344,0.8782610400611747,0.0,0.0,0.0,0.0
0.0009401501452190833,-0.0017417311644660732,0.7459180956735324,-0.0057253614781987835,-0.5534196493751883,-0.008749120197600107,0.8328369377117921,0.0045355934274266835,0.351644680298344,-0.8752706906350343,-0.01311251540449812,0.34362639301069237,-0.874603902366317,0.007004150519774113,0.6140471856360257,0.8672032362248671,0.007039440360788052,0.6115115500332774,0.8796637523307441,0.0,0.0,0.0,0.0
0.0011708202193980101,-0.00209413638175063,0.7459174208681685,-0.005686838537936537,-0.5534201647290165,-0.00881220206381913,0.8328361941183501,0.005494618978780502,0.3524115446965154,-0.8761722771401608,-0.018125157463393965,0.3409980189336161,-0.874617880763299,0.008327456960460215,0.6147958146208709,0.8661596917826349,0.008380045219302707,0.6116898605520513,0.8810882378715748,0.0,0.0,0.0,0.0
0.0013950471724259285,-0.0024503440581107685,0.745918268827492,-0.005648550080064819,-0.5534233056422064,-0.008873053008222909,0.8328337214500618,0.006458651384605534,0.3531267877374222,-0.8769710568970267,-0.022662614152471575,0.3385334089131846,-0.8748090572119607,0.00968325906897899,0.6155463482118209,0.8650797036371689,0.009756816156192649,0.6118774944281962,0.8825108915318239,0.0,0.0,0.0,0.0
0.001615116236589502,-0.002804443607780707,0.7459192765245103,-0.0056112071036566605,-0.5534277688919994,-0.008930650637285879,0.8328303923688534,0.007411431846942183,0.35381595661172033,-0.8777262054927966,-0.02686252086463327,0.3361729485862689,-0.8750880571707594,0.011049025039312056,0.6162869284372131,0.8639970810130698,0.011147031245424212,0.6120724603452141,0.883923033180641,0.0,0.0,0.0,0.0
0.0018345967766479013,-0.003155814480333516,0.7459198620161563,-0.005574754339296061,-0.5534331015827824,-0.008985629006468161,0.832826502134674,0.008352741604332367,0.35450255145052223,-0.8784798335555775,-0.03086830344687698,0.33386550056525527,-0.8754162688553287,0.012418241986649852,0.6170205819151647,0.862923210847158,0.012544061186478795,0.6122762905379896,0.8853291971010562,0.0,0.0,0.0,0.0
0.002057225598241338,-0.003507503073745611,0.745919593968463,-0.005538631511151531,-0.5534389505853067,-0.009039174164671466,0.8328222768793104,0.009292144882313561,0.3552040357561231,-0.8792595431695174,-0.03478074230595279,0.3315878821977399,-0.8757717628937443,0.013798343860005145,0.617755055533643,0.8618548400930097,0.013955480933288937,0.6124894518810228,0.8867454855542701,0.0,0.0,0.0,0.0
0.002286555368464965,-0.003864927694571267,0.7459177560945922,-0.005501960713181202,-0.5534446561230514,-0.00909252235599393,0.832818147661513,0.01024485179643333,0.355932003860399,-0.88008412760084,-0.03865123080858634,0.32936516200179516,-0.8761242924100484,0.015207210518711264,0.6184971245873965,0.8607812395795812,0.015399676442317626,0.6127088292001229,0.8881981774659141,0.0,0.0,0.0,0.0
0.002525808492517642,-0.004235137100544337,0.7459131771006703,-0.005463647748184345,-0.5534490532781203,-0.00914681367632053,0.8328148832594233,0.011229679103128823,0.3566926903279539,-0.8809668033613556,-0.0424891705715175,0.3272946622219974,-0.8764115750459052,0.01667049160280988,0.6192502097597313,0.8596878291234787,0.01690323802757377,0.6129266914985273,0.8897220908171404,0.0,0.0,0.0,0.0
0.00277765651570762,-0.004626661188955618,0.7459044655005014,-0.005422396484519277,-0.5534506589927518,-0.009203150837286202,0.8328134651238053,0.012268849306301033,0.35748590833786675,-0.8819116416639899,-0.04626965220191651,0.3255660555479267,-0.8765162737892245,0.018220627560009098,0.6200157790383923,0.8585546814139041,0.01850006789715755,0.6131320524287275,0.8913578590470741,0.0,0.0,0.0,0.0
0.003045145762973944,-0.00504970326664838,0.745890783724765,-0.005376430012704645,-0.553449442715404,-0.00926295744666618,0.8328139083718935,0.013389008756666841,0.3583093760929628,-0.8829078844438532,-0.049939042467805506,0.3244519476411378,-0.8762507550959808,0.019894814326251693,0.6208043658749811,0.8573543161179297,0.02022942797878693,0.6133199133845718,0.8931500826325692,0.0,0.0,0.0,0.0
0.003351536033937663,-0.00550922988709927,0.7458728864003142,-0.0053219102815180155,-0.5534462134442115,-0.009329105699195962,0.8328156662083591,0.014605370963780187,0.35929454970377467,-0.8841489915487889,-0.05347108219942398,0.3242049302044632,-0.8753340210951324,0.02168580909010049,0.621678151540197,0.856085354536793,0.022085394175855044,0.6135339127223388,0.8951222563189463,0.0,0.0,0.0,0.0
0.0037121017077150252,-0.006018843591802871,0.7458501731484677,-0.005255408842009317,-0.5534411453016516,-0.009404309780785524,0.832818610696619,0.015954526224180168,0.36050602806629267,-0.8857237819233283,-0.056834020427616504,0.32482445390790554,-0.8737690936506312,0.02363479994370514,0.6226788225953068,0.8547161433791265,0.024112216243442185,0.6137922777792191,0.8973343873826306,0.0,0.0,0.0,0.0
0.004138814047038548,-0.006598740169203645,0.7458208335917667,-0.005173364976724663,-0.5534324646270281,-0.009491603952181838,0.8328239026625531,0.017490087188025107,0.36197516279810793,-0.8876763518636326,-0.060011383873210554,0.32605336298410614,-0.8718214666385126,0.025815472841526556,0.62383526121031,0.8531914863296074,0.02638880728559838,0.6140948262725973,0.8998721035579519,0.0,0.0,0.0,0.0
0.0046489593966271905,-0.007268795665280572,0.7457850751603071,-0.005070478632382564,-0.5534196140243506,-0.009595876995952605,0.8328318799159022,0.019268023261328288,0.3637652097046961,-0.8900828116202057,-0.06301262536667962,0.32759764554630966,-0.8696631864704039,0.028283293562210213,0.6252066259575616,0.851444844756137,0.028976875001119985,0.6144636879986737,0.9028014583516185,0.0,0.0,0.0,0.0
0.005264404968430312,-0.008046292657644937,0.7457444235560376,-0.004939597054667222,-0.5534019957845219,-0.009724085817049475,0.8328428865024112,0.0213417889783747,0.36597102461419245,-0.8930600767145619,-0.0658836564588869,0.329222546279402,-0.8673243706013768,0.03106267511774917,0.6268738599708251,0.8494095812690882,0.031907471315325696,0.6149357428703582,0.9061627449977523,0.0,0.0,0.0,0.0
0.0060052083954847775,-0.008942879590156579,0.7457017331921423,-0.004772274127707089,-0.5533773934816246,-0.009885018847318473,0.8328583145922969,0.023755171449821765,0.3686867248518906,-0.8967234547064185,-0.06873597006527808,0.33074128777210077,-0.864679016048331,0.03413522452068553,0.6289222742319629,0.8470195118521041,0.03516812258122643,0.6155481222526531,0.9099507200451562,0.0,0.0,0.0,0.0
0.006872935677543777,-0.009960624932987217,0.7456623703456037,-0.004560592254723098,-0.5533394192744421,-0.010088035126226446,0.8328822963796273,0.026531432462780342,0.37191559527496715,-0.9010550266901666,-0.07177397063946588,0.33194966045751084,-0.8614392606010322,0.037432686963571236,0.6314060358102034,0.8441887439685913,0.03869396852112595,0.6163085726506996,0.9140734792546833,0.0,0.0,0.0,0.0
0.007804309639363147,-0.011095540355546257,0.7456345046217752,-0.004300833470771191,-0.5532821009369375,-0.01034049276962303,0.8329186597883053,0.02967789464585697,0.37528389160108483,-0.905426991890969,-0.075227544295859,0.33254223730371973,-0.8572007936155228,0.04088101753848538,0.6342641157989145,0.8407692467576126,0.04241203064600111,0.6171140277968604,0.9183545626951028,0.0,0.0,0.0,0.0
0.008737102958024377,-0.012287030138722475,0.7456227629539064,-0.00399079261517836,-0.5531977614405992,-0.010647675850219756,0.8329723508679031,0.03305893143712566,0.37854099452178347,-0.9094758568319499,-0.07946382713507759,0.33204587850328054,-0.8512051309303568,0.04412359782881113,0.6373752037050776,0.8368813314491803,0.04594418374006481,0.6178416138264569,0.9224660013848328,0.0,0.0,0.0,0.0
0.009599599843140974,-0.013371931825641238,0.7455769450279257,-0.003634056825025608,-0.5530785749139129,-0.011004441786955428,0.8330484895029492,0.036269326655363844,0.3815443345207397,-0.9133276944710721,-0.08491220753038874,0.3296397759271822,-0.8422851426076503,0.04634694478299443,0.6401760453802274,0.8336507284788409,0.04840732020363174,0.6180574992840783,0.9262993128350462,0.0,0.0,0.0,0.0
0.010265073249571502,-0.014146163750508717,0.745416068573819,-0.0032338219868948614,-0.5529020927416852,-0.011394054283706016,0.833162045321438,0.03877555247596939,0.3839006481726817,-0.9169550581405321,-0.09148929768646584,0.3238167437201214,-0.8286128229591695,0.046563235542858385,0.6417197977645398,0.8326461436750036,0.048709217401737614,0.6170056500857994,0.9298756888713331,0.0,0.0,0.0,0.0
0.01058258870819795,-0.014492984160169005,0.745198605242406,-0.0027651673733347184,-0.5526473147209046,-0.011803049628503048,0.8333270590834297,0.04023016001976638,0.3850202801862906,-0.9193634652938772,-0.0975708320749844,0.3124964094956673,-0.807554672867995,0.04404939831652375,0.6419504050707567,0.8335957404550254,0.0460519007032511,0.6145979197007663,0.932129168781917,0.0,0.0,0.0,0.0
0.010597461298676326,-0.014513913853941384,0.7451952480741694,-0.0027459159995546134,-0.5526419625914497,-0.011807248011930314,0.8333306126758928,0.04028110642727064,0.3850434338556082,-0.9193835451762961,-0.09758415905534533,0.312496953284448,-0.807543154180754,0.04403765426600106,0.6419937832347009,0.8335366494127323,0.04605431218044558,0.6145790358130164,0.9322020571067903,0.0,0.0,0.0,0.0
0.010597461298676326,-0.014513913853941384,0.7451952480741694,-0.0027459159995546134,-0.5526419625914497,-0.011807248011930314,0.8333306126758928,0.04028110642727064,0.3850434338556082,-0.9193835451762961,-0.09758415905534533,0.312496953284448,-0.807543154180754,0.04403765426600106,0.6419937832347009,0.8335366494127323,0.04605431218044558,0.6145790358130164,0.9322020571067903,0.0,0.0,0.0,0.0
0.010679122248448747,-0.014842424676885138,0.7460215983777381,-0.003303488860785791,-0.5526120600725553,-0.011237570554795151,0.8333562953693571,0.04017950637167635,0.3856346599894263,-0.9185051598593347,-0.09762309543835686,0.3143497380446946,-0.8058366811696862,0.033661274097255084,0.6343883544863466,0.8524902216363558,0.05367576842637496,0.6209434668477204,0.925793889024748,0.0,0.0,0.0,0.0
0.010787592544794252,-0.015431093098393514,0.7469967495718067,-0.003678465040924451,-0.5526044874735889,-0.010838020514811059,0.8333650380417428,0.04095156644449328,0.3859477729555535,-0.9158115901457629,-0.09679179050109503,0.3172196129094033,-0.8058349376301244,0.023634772008456772,0.6294105507096708,0.8660643771393378,0.06094291920267392,0.6277335784071614,0.918556431610207,0.0,0.0,0.0,0.0
0.010892530289278432,-0.01619680956781304,0.7479101185453888,-0.0038959646622485607,-0.5525967074412053,-0.01059242471831845,0.8333723663063686,0.04238636750541764,0.38579468512325377,-0.9120725920544014,-0.09532069744959044,0.3205562445153417,-0.8074599830204038,0.016461947430251613,0.6257276695999158,0.8757733595793419,0.06760730119179831,0.6337314553667873,0.9122363763661604,0.0,0.0,0.0,0.0
0.011000146119907399,-0.017059590261453917,0.7487236608774652,-0.004010183981608851,-0.5525792107743771,-0.010457770246761405,0.833385126628659,0.04423268922674892,0.38534881684427535,-0.9079497404143602,-0.09346128368946398,0.32414082153329554,-0.8103356132130209,0.011284624996217671,0.6228774791374343,0.8832344209127926,0.0737208284454576,0.6388495013178283,0.907013747164332,0.0,0.0,0.0,0.0
0.011102210950589546,-0.01794573275136061,0.7494515457513058,-0.004067549001223007,-0.5525570633791596,-0.010377878379289041,0.8334005317944468,0.046215913641773916,0.38471919562258783,-0.9037287130749077,-0.0914742107162568,0.3277031883827496,-0.8137215861069074,0.007269958589502005,0.6206136200704127,0.8893967091396158,0.07939560718561904,0.6433105030970944,0.9026032627182503,0.0,0.0,0.0,0.0
0.011191955035429921,-0.018809673037525315,0.7501057838741378,-0.004096054674422973,-0.5525306972438393,-0.010327583679673992,0.833418497487715,0.04818934915755759,0.3839754617496421,-0.899573328407544,-0.08949828826084284,0.3310721430055142,-0.8171739902088293,0.0037521741750216374,0.6187330782820187,0.8948368585488746,0.08464806595064775,0.6472430412022261,0.8987761035113527,0.0,0.0,0.0,0.0
0.011266197830951518,-0.01962318809668115,0.7506954996817353,-0.004112325725432319,-0.5525013476921299,-0.010290333233922358,0.8334383352218945,0.05005999173424509,0.3831705769910835,-0.8955906776167171,-0.08762252462989167,0.3341524598292526,-0.8204258887929753,0.0003758023987933453,0.6170889864975505,0.8998626934523498,0.08948852091658566,0.6507413855537797,0.89537811755828,0.0,0.0,0.0,0.0
0.01132346340031481,-0.02037250908625972,0.7512257824495042,-0.004125298044556903,-0.5524701678293772,-0.01025819579754923,0.8334593361368042,0.05178406181999477,0.3823349897646187,-0.8918363557336256,-0.08588940997572116,0.33690119068570024,-0.8233486296083774,-0.0030451859259079507,0.6155912166668668,0.9046234810603238,0.09392501150934031,0.6538563576076766,0.8923323742011127,0.0,0.0,0.0,0.0
0.011363344699922206,-0.021053125812406835,0.7516978471042414,-0.004139814941761576,-0.5524380841371401,-0.010226860688177814,0.8334809154669341,0.05334544594541732,0.3814826266974163,-0.8883394458331313,-0.08431534595357952,0.33930679555920823,-0.8258995282415124,-0.006604468809891384,0.6142135392618904,0.9091488707671932,0.09797893721132984,0.6566073529891313,0.8896266417110924,0.0,0.0,0.0,0.0
0.011385647351924683,-0.021666950067509877,0.752108122806019,-0.004158679116161437,-0.5524057144398716,-0.010193882257658186,0.8335026795438037,0.0547463878118167,0.3806110048875599,-0.8851136664196225,-0.08289936561298283,0.34137387666109387,-0.8280928160551511,-0.01037082838902237,0.6130022246294667,0.9133532939907528,0.10168941655682806,0.6589804165448018,0.8873155509814463,0.0,0.0,0.0,0.0
0.011389763269721824,-0.022221188033920817,0.7524472146844173,-0.00418390592200606,-0.5523732596972023,-0.010157706371464075,0.8335245034814478,0.0560035683822901,0.3796993609311873,-0.8821627387949795,-0.0816268237237748,0.34311486718209383,-0.8299864996774641,-0.014441932989255137,0.6120974804138377,0.9170014214123708,0.1051189531346575,0.6609236366006324,0.8855286671648515,0.0,0.0,0.0,0.0
0.011374682381195786,-0.02272813843674793,0.7527004768989971,-0.004217362311153969,-0.5523404710112207,-0.010117240921855038,0.8335465550131969,0.05714712412572893,0.37870973423160786,-0.8794814817197534,-0.08047024457737552,0.34454958535060054,-0.831677721812641,-0.01897981130042057,0.6117775934995641,0.9196286457983662,0.1083580142135027,0.6623517823352625,0.8844644675033186,0.0,0.0,0.0,0.0
0.01134040655512224,-0.023204044087662596,0.7528552336168713,-0.0042600521882238725,-0.5523073632499698,-0.010072825767219391,0.8335688133779255,0.05821904453706371,0.37760211397972776,-0.8770459887364622,-0.07939018961141617,0.3457146843861287,-0.8332876563533821,-0.024179728573814424,0.6125113759976872,0.920438260655557,0.11150864698690878,0.6631905134949652,0.8843126038138038,0.0,0.0,0.0,0.0
0.011286111942737391,-0.02366159509429012,0.7529176868038192,-0.004311072965221478,-0.5522723947911978,-0.010024821186234531,0.8335922981659967,0.059249848109704496,0.37635131189391374,-0.8747877510193142,-0.07835605351710688,0.3466454167565514,-0.8348669194484983,-0.030004524379253557,0.6142911946680758,0.9194171558558877,0.11463496843114293,0.6634671176999486,0.8850465308804587,0.0,0.0,0.0,0.0
0.011209860961539005,-0.024109677259727173,0.7529132375667826,-0.004367778376761335,-0.5522321984075182,-0.009973763842713299,0.8336192449727037,0.06025845655735158,0.3749460082630849,-0.87259235880091,-0.07734620939551005,0.3473739262868747,-0.8363927652889704,-0.036200096131992016,0.6166345046936316,0.9173470897404773,0.11775999076357609,0.663310978392944,0.88641754609271,0.0,0.0,0.0,0.0
0.011110236968411059,-0.024559332140305413,0.7528701691118311,-0.004427434375869398,-0.5521830711348312,-0.00992101893730646,0.8336521019947103,0.06127056303265884,0.3733745348945244,-0.8703319041901437,-0.0763320910557719,0.34794294991249947,-0.8378523778817063,-0.04257641844446287,0.6192509850963452,0.914703901630996,0.12091221665695061,0.6628666532351764,0.8881509966511845,0.0,0.0,0.0,0.0
0.010984877714973315,-0.025022563366997475,0.752812969491224,-0.004488986482972229,-0.5521199196974782,-0.009865941017123325,0.8336942523979954,0.062311208630962636,0.3716154823868169,-0.867889294510835,-0.07528623743607762,0.34839038225261754,-0.8392416013735429,-0.04906309940241092,0.6219876729962761,0.911773894398249,0.12414381077804137,0.662255770768243,0.8900126700769464,0.0,0.0,0.0,0.0
0.010829660356768961,-0.0255115249917009,0.7527614986585238,-0.004553731799563004,-0.5520353515269982,-0.00980640715970359,0.8337506033399792,0.0634047529629681,0.36963544324419495,-0.8651627375344699,-0.07418237761571433,0.34874208197374257,-0.8405604965112545,-0.05576644853750636,0.6247784574854335,0.9087640538667228,0.12752578282162674,0.6615677589236664,0.8918115904350148,0.0,0.0,0.0,0.0
0.010639292125323026,-0.026035497059731273,0.7527322715882767,-0.004627171079676346,-0.5519186129791754,-0.009736561946753458,0.8338282996495139,0.06456411484519334,0.36740151682433725,-0.8620937770781547,-0.07300642340417629,0.3490090026205548,-0.84180026104999,-0.06307170275338757,0.6276274991368354,0.9058817056389078,0.13115087098497585,0.6608720007843706,0.8933758071531938,0.0,0.0,0.0,0.0
0.010408954643889653,-0.026596710153641213,0.7527397788399438,-0.004722146511761245,-0.5517538721145102,-0.009643877041942481,0.8339378643367659,0.06577702129662372,0.36490432180955806,-0.8587188587811234,-0.07177098947256899,0.3491882018180034,-0.8429357091454611,-0.07185872619251842,0.630622806951106,0.9034102470201737,0.1351399487480947,0.6602334629149372,0.8945233208469866,0.0,0.0,0.0,0.0
0.01013789574633611,-0.027183872613140005,0.7527976753379293,-0.0048627336254799735,-0.5515178529044568,-0.009505351061464468,0.834094754839367,0.06698581476547572,0.3621998170863785,-0.8552589919814506,-0.07053721163974308,0.34927058945252576,-0.8439282409811267,-0.08379963153657526,0.6339660104905215,0.9017895754764081,0.13964343532631718,0.6597323866604139,0.8950270621420661,0.0,0.0,0.0,0.0
0.009835727344863715,-0.027762524338208357,0.7529165887933023,-0.005083559226343603,-0.5511779163608856,-0.009287765268312344,0.8343205615097745,0.06806558841438758,0.3594728446068449,-0.8522458980980243,-0.0694394043754951,0.34925635993292004,-0.8447634095144505,-0.10142538464310932,0.6379363417186779,0.9016800271644644,0.14477915057668764,0.6594595846487865,0.8946037982145352,0.0,0.0,0.0,0.0
0.009528231146469852,-0.028266105722567204,0.753076577771409,-0.0054029633467261185,-0.5506979284659915,-0.008972443262767677,0.834638900862065,0.06883824190448515,0.3570666522468293,-0.8505838275963775,-0.06867462136099588,0.34915296357439174,-0.8456014038047874,-0.1266409058148884,0.6424597502416407,0.9038857632147718,0.15031567430242143,0.6593158493437876,0.8931681887015607,0.0,0.0,0.0,0.0
0.00923959911848553,-0.02861972527757872,0.7530685524256533,-0.005681945059943105,-0.550101997272818,-0.008679263782540424,0.8350330403504913,0.06929205288123237,0.35511644476992665,-0.8508915153641964,-0.06828152820828597,0.3488032753553159,-0.8472484130342525,-0.1533287767926425,0.6451794892026773,0.9089795580349087,0.15449526851705012,0.6578686286236952,0.8926235804158561,0.0,0.0,0.0,0.0
0.00923807486129159,-0.02862328536390324,0.7530673435111858,-0.00568561627440061,-0.550098569346675,-0.008674035620812039,0.8350353279211428,0.06929075194531217,0.35509809398442876,-0.8508928487682726,-0.06828264276886235,0.34880169281402323,-0.8472564144598909,-0.15334322505069625,0.6451864732688776,0.9089839959209702,0.15451476620761911,0.6578562376462578,0.8926082351467831,0.0,0.0,0.0,0.0
0.00923807486129159,-0.02862328536390324,0.7530673435111858,-0.00568561627440061,-0.550098569346675,-0.008674035620812039,0.8350353279211428,0.06929075194531217,0.35509809398442876,-0.8508928487682726,-0.06828264276886235,0.34880169281402323,-0.8472564144598909,-0.15334322505069625,0.6451864732688776,0.9089839959209702,0.15451476620761911,0.6578562376462578,0.8926082351467831,0.0,0.0,0.0,0.0
0.009297621915815445,-0.028758891600027668,0.7531545504120023,-0.005716882068287701,-0.5505378781116379,-0.008655301591533188,0.8347457384006893,0.06954943588132625,0.35478423131520814,-0.8479399680334821,-0.0679258437173015,0.34911643457591296,-0.8453741775382722,-0.15295935564979443,0.6469214935874839,0.9090197304565131,0.156131040042791,0.659681067735139,0.8934630441503838,0.0,0.0,0.0,0.0
0.009369348630738758,-0.028939577509128067,0.7532126841823764,-0.005720892641919215,-0.5508308867380443,-0.008656057832951244,0.8345523819782387,0.0699569964281803,0.35455367149433176,-0.8458303744658194,-0.06746337245795522,0.3497539713930288,-0.8449140942144779,-0.1523741522962273,0.6482055423610636,0.9088014052270822,0.15761322557159302,0.6609377651342456,0.8943116739320115,0.0,0.0,0.0,0.0
0.009426092626449356,-0.02913425605484678,0.7532328072988965,-0.005709457022616726,-0.5510142205584247,-0.008668963153467749,0.8344312913120782,0.07042565850760134,0.3542773619960902,-0.8442680245879015,-0.06696630572828619,0.3504265902553352,-0.8452273652569101,-0.15169363085110504,0.6489913253312856,0.9086005218461846,0.15889900288256778,0.6616266237567509,0.895252322072798,0.0,0.0,0.0,0.0
0.009471081364841465,-0.029353477815119447,0.7532155358803271,-0.005687405977919702,-0.5511294031641567,-0.008690447944873645,0.8343551465027829,0.07097227787886919,0.35391338851054127,-0.8429911790028085,-0.06640855279832789,0.35113802086231893,-0.8461174869950832,-0.15087627812942228,0.6493886378644791,0.9085036457759254,0.16014329196091467,0.6618740814373091,0.8964388658722129,0.0,0.0,0.0,0.0
0.009519665821100275,-0.02962365301946768,0.7531573749405438,-0.005654710047015139,-0.5512062604782926,-0.008720324423091435,0.8343042841828014,0.07165803095628784,0.353464144279283,-0.8418582481160448,-0.06572677870944799,0.3520161138207165,-0.8476818667512798,-0.1498284135438395,0.6494948172671137,0.9085661484769282,0.16155119954701527,0.6617735703351525,0.8980830081875114,0.0,0.0,0.0,0.0
0.00960798389809803,-0.029973910743804663,0.7530562861710525,-0.005610654038816568,-0.5512711885799267,-0.008756456817956535,0.8342613029902123,0.07254799824010368,0.3530580734775035,-0.8409412167632208,-0.06486049451367971,0.3533267469352204,-0.8502489889762034,-0.14844686668866008,0.6494518589682142,0.9088221763507686,0.16336578633054083,0.6614718223626532,0.900390443182884,0.0,0.0,0.0,0.0
0.00984792895780445,-0.03041137320287865,0.7529621912159589,-0.0056200778419098285,-0.5513696025878391,-0.0087413688105126,0.8341963585023,0.07358780240220172,0.3533802460330888,-0.8411016849879622,-0.06388108710031411,0.35573623682637573,-0.8542969141481769,-0.1461747084336159,0.6497462837406056,0.9089093199705467,0.16644061979344923,0.661809050874774,0.9031069761694581,0.0,0.0,0.0,0.0
0.010063682337977116,-0.030956421412138894,0.753030360236591,-0.0059990733621457,-0.5515619886177188,-0.008375559850468157,0.8340702811082854,0.07437898230085532,0.35339998838659653,-0.8406678187021132,-0.06310500280495618,0.35817265169763557,-0.8562910173387728,-0.13941216833103565,0.6501389208508717,0.9069869774853933,0.13353187757724658,0.6543340458601634,0.899340817081667,0.0,0.0,0.0,0.0
0.01029808614829573,-0.03159794974103046,0.7530110897751058,-0.00638464948330743,-0.551771570448414,-0.008007207703548187,0.833932404287457,0.0754071460638641,0.3532380362794473,-0.8401589192703733,-0.06210274677634511,0.36088252162196793,-0.8590471503138932,-0.13209001987775992,0.6501173363244568,0.9056859656457388,0.10399330243425116,0.646838197280482,0.8973976246398023,0.0,0.0,0.0,0.0
0.010533506515198186,-0.03226455343310283,0.7530129215343833,-0.006639576618640432,-0.5519357216616909,-0.0077603705720790265,0.8338241132425337,0.0766640762694334,0.35304031426465826,-0.8393381039081477,-0.060876062998355365,0.36374480832964573,-0.8625695949363569,-0.12590500216016817,0.6504439794926702,0.9040256571768756,0.08403852921949334,0.6410695441729689,0.8974254593365897,0.0,0.0,0.0,0.0
0.010745608986018226,-0.03289870036133959,0.7530419298684395,-0.006796415775711551,-0.5520554646870682,-0.0076073928329132776,0.8337449851219704,0.07797402745722443,0.3528012122049112,-0.8382926915486885,-0.059593419586366624,0.36645830745390395,-0.8662143219025014,-0.12085469382347379,0.6510207604921268,0.9020986391667766,0.07098047039822414,0.6366606548056375,0.8988490358894068,0.0,0.0,0.0,0.0
0.010925406487195121,-0.03347646235356197,0.7530956631027951,-0.006900005001322923,-0.5521434005372288,-0.007506776225459503,0.833686813788528,0.07922120130758371,0.3525201446817585,-0.8371140067818748,-0.058366286076479174,0.36888544182788713,-0.8695659745511204,-0.11662805835125695,0.6517273375165309,0.9000099505842872,0.06171050896801363,0.6330311878249357,0.9011112926627954,0.0,0.0,0.0,0.0
0.011073600652345233,-0.033995834798353025,0.7531716999142056,-0.0069796523156337685,-0.5522097883296143,-0.007431310017837873,0.8336428550392153,0.08036284996337585,0.3522042266262522,-0.8358589120500151,-0.057236370976430216,0.3710107862772166,-0.8724768787728421,-0.11294901651041701,0.6525000095830817,0.8978029902703939,0.054216207662084445,0.629779759743126,0.9038145473324299,0.0,0.0,0.0,0.0
0.01119447930465526,-0.03446588626458425,0.7532649070633287,-0.007050512164884962,-0.5522615540601111,-0.007366530063907007,0.8336085414750387,0.08140064471380562,0.35185418344140995,-0.8345539279769593,-0.056202879043139545,0.3728724852340284,-0.8749594336765139,-0.1096201524948544,0.6532969834380247,0.8955146931275138,0.04743896119788819,0.6266903045808948,0.906700373392195,0.0,0.0,0.0,0.0
0.011292628682227529,-0.03490062324434182,0.7533660795509357,-0.007119016221316019,-0.5523033472652642,-0.007305791228564621,0.8335808044947713,0.08235897951042816,0.35145758123336507,-0.8332037506554991,-0.05524309490205263,0.37452268622292473,-0.8771030504958244,-0.1065025296400143,0.6540716246457735,0.8932070007805891,0.04090149146790628,0.6236716182341879,0.9095950255349842,0.0,0.0,0.0,0.0
0.011371427530878874,-0.035315624360011365,0.7534615055877788,-0.007187002969377916,-0.5523383656168132,-0.007246006016196029,0.8335575398572549,0.08327045640047959,0.3509874288731949,-0.8318014442287428,-0.054326366222899214,0.3760082638130529,-0.8790262671519934,-0.10349050975189371,0.6547563885430778,0.8909808521729489,0.03444118906056702,0.6207142261842107,0.9123563556593327,0.0,0.0,0.0,0.0
0.011433072500597925,-0.03572734871894514,0.7535329916894878,-0.007253611427198796,-0.5523691073289998,-0.007187414574269491,0.8335370990313297,0.08417525537664738,0.3504042322719097,-0.8303312799620307,-0.053414594661994184,0.37736806779462917,-0.8808654135803996,-0.10050494901198397,0.655262148660286,0.888981030603673,0.028050752056588236,0.6178823783981724,0.9148124765631682,0.0,0.0,0.0,0.0
0.011478192509447387,-0.036150203722961946,0.7535568414174817,-0.007316448318699658,-0.5523975436747686,-0.007131323836800502,0.8335181866920581,0.08510994742213027,0.3496600589062132,-0.8287858664216987,-0.05247350952189482,0.37862291722780445,-0.8827547005483656,-0.09749210380190944,0.6554661117014458,0.8874148048920171,0.021836638737564397,0.6153298512041818,0.916696136761251,0.0,0.0,0.0,0.0
0.01150628390648852,-0.03659444053200395,0.7535046611123238,-0.007372081650978804,-0.5524253651692459,-0.0070794669316613995,0.8334996997466286,0.08610143362031435,0.3487068125569566,-0.8271782254558514,-0.05147879304436486,0.3797734843413029,-0.8848154198672087,-0.09442980944134034,0.6552159678298805,0.8865509022966658,0.016007487108945655,0.6133470480495224,0.9175459007985035,0.0,0.0,0.0,0.0
0.011517511101600384,-0.037066486223996324,0.7533510856858339,-0.007417430215200386,-0.5524547277662993,-0.007032558684474545,0.8334802328885887,0.0871653213150358,0.34751082190428595,-0.8255349196029255,-0.05041714334733932,0.38081610374127595,-0.8871428812481211,-0.09131001868950978,0.6543764371273006,0.8866393764260007,0.010821295578920793,0.6124190195927269,0.9165905407410133,0.0,0.0,0.0,0.0
0.011510939637195535,-0.037576223499282066,0.7530907434531638,-0.007451935725834283,-0.5524858812683248,-0.006990800197584365,0.8334596261161653,0.08832528862045748,0.34603712467856346,-0.8238110370719308,-0.04926458233196134,0.3817620748793392,-0.8897834430883892,-0.08808013601980128,0.652917561584788,0.8877017497147509,0.006310025289691263,0.6125545234460819,0.913839641950974,0.0,0.0,0.0,0.0
0.011484764413185472,-0.03813674567424424,0.7527379451061965,-0.007477799871767738,-0.5525171534478711,-0.006953615208912259,0.8334389749048612,0.08961208217336099,0.3442509101274591,-0.8218947376204151,-0.047987527275293464,0.3826383483105886,-0.892735918400787,-0.08464339877134901,0.6509135991679631,0.8895337549645163,0.0022717673832834875,0.6132858864986579,0.9100719782161839,0.0,0.0,0.0,0.0
0.011438428352318333,-0.03875616677941958,0.7523095354393153,-0.007498274952626519,-0.5525472646260206,-0.006918701226898576,0.8334191189313874,0.09104142101304671,0.3421377313485302,-0.8197025560437722,-0.04656742044042684,0.3834683971943441,-0.8959738677371065,-0.0809187669788718,0.6484531019630055,0.8919195915204909,-0.001467457327392787,0.6143416276709704,0.9057329800559197,0.0,0.0,0.0,0.0
0.011371293786185357,-0.03943580090015914,0.7518173150244115,-0.0075169592079600955,-0.552574707287566,-0.00688306406149344,0.8334010508869376,0.09261184685091448,0.339696328552519,-0.8171997196412336,-0.04500372718139561,0.38425587540117734,-0.8994542543025461,-0.07686072216109588,0.645592248069387,0.8947166961300869,-0.005026622756747413,0.6155938845371326,0.9010359672584787,0.0,0.0,0.0,0.0
0.011282635236439824,-0.04016936568429118,0.7512674236867785,-0.007538710388661305,-0.552597649651672,-0.006842319681381314,0.8333859778676994,0.09430213746388424,0.3369411851915838,-0.8144103562545647,-0.043316837072946215,0.38498260069198226,-0.903114449856922,-0.07245497790717575,0.6423485168630824,0.897864107178954,-0.008509487895923287,0.6170127021030741,0.8960361645541366,0.0,0.0,0.0,0.0
0.011172188882354434,-0.04094111840886546,0.7506613985994611,-0.007571297418798402,-0.5526138531297784,-0.006789195462542424,0.8333753725719444,0.09606498507342141,0.33391271373054093,-0.8114365767735682,-0.041554818571927686,0.3856086148646601,-0.9068628655038034,-0.06771206990016408,0.6387031488770739,0.9013759344195685,-0.012062698808033052,0.618640027968864,0.890655909406018,0.0,0.0,0.0,0.0
0.011040680330567187,-0.04172203511038552,0.7499967437054209,-0.007628078203788991,-0.5526203193620428,-0.006709593876574114,0.8333712116464799,0.09781139510213198,0.3306928653000454,-0.8084968852649778,-0.03980987965760191,0.3860681660251866,-0.9105598211675986,-0.06265412183711913,0.6345943483959904,0.9053429798746093,-0.01593130475995356,0.620573442328626,0.8846704492733968,0.0,0.0,0.0,0.0
0.010891073519774877,-0.0424670809008539,0.7492677844817539,-0.007731418879099418,-0.5526117122610316,-0.006577361291836031,0.833377020892995,0.09939555189296673,0.3274248941913648,-0.8059789021168973,-0.03823498176612335,0.3862742679586497,-0.914014464962542,-0.0572848856941606,0.6299077646986149,0.9099232059852465,-0.020511735785174148,0.6229590160481535,0.8776491730737709,0.0,0.0,0.0,0.0
0.010725985788120005,-0.04311621663734034,0.7484738677159419,-0.007916158079094885,-0.5525790220515078,-0.0063484692479631585,0.8333987375608831,0.10060566557233057,0.32430267925009465,-0.8044109753379262,-0.03705200895267047,0.3861151613764556,-0.9169394207854958,-0.05153453271128007,0.6245004286511607,0.9152425269733985,-0.026338971698691944,0.6260056608870694,0.8688480247335755,0.0,0.0,0.0,0.0
0.010541932762872812,-0.043604725698129065,0.7476582310405193,-0.008225093114008172,-0.5525233389059453,-0.005984662712416661,0.8334353553933925,0.1012320438602551,0.3215151504256665,-0.8040971127611811,-0.036471908473887496,0.3854610752597676,-0.9187899102879267,-0.045345939094317556,0.6184883487993148,0.9210298855761934,-0.03383781620925723,0.6301408697968757,0.8570420548554705,0.0,0.0,0.0,0.0
0.010396113234106908,-0.043872098401864804,0.7469978260421629,-0.008680280220508181,-0.5524618217804026,-0.0054676394197924905,0.833475070490742,0.10109886737197045,0.31968528968048326,-0.8053717127540301,-0.0366666137868601,0.3846538505051708,-0.919217358091577,-0.03886592999134571,0.6129597009375912,0.9257893785903101,-0.040899177862255776,0.6365238522056512,0.8411662239289157,0.0,0.0,0.0,0.0
0.010397414557348566,-0.043877423003776415,0.7469907197577939,-0.008681733213230637,-0.5524638144610208,-0.005465862711562198,0.8334737461758537,0.10110654225612693,0.3196585675441468,-0.8053462866542074,-0.036657663965954566,0.38465630330344763,-0.919239348714602,-0.03884934834796778,0.6129404258794273,0.9257909170149825,-0.0409029847843578,0.636522836454947,0.8411608037709021,0.0,0.0,0.0,0.0
0.010397414557348566,-0.043877423003776415,0.7469907197577939,-0.008681733213230637,-0.5524638144610208,-0.005465862711562198,0.8334737461758537,0.10110654225612693,0.3196585675441468,-0.8053462866542074,-0.036657663965954566,0.38465630330344763,-0.919239348714602,-0.03884934834796778,0.6129404258794273,0.9257909170149825,-0.0409029847843578,0.636522836454947,0.8411608037709021,0.0,0.0,0.0,0.0
0.010069794873722454,-0.04416144559649271,0.7472126456881654,-0.008234597225261268,-0.5528310169353593,-0.005900264563797268,0.8332318074826665,0.0936239672995176,0.3314779578920026,-0.8273227297155185,-0.03524261416699054,0.38332484342483925,-0.9159582346034459,-0.04186533678640559,0.6156869789554665,0.9239123222607853,-0.04375862998832495,0.6365337761924351,0.8402151041196749,0.0,0.0,0.0,0.0
0.009374255353611865,-0.04490286104126351,0.7473738429711714,-0.007868458529441392,-0.553063522611403,-0.006300222078210448,0.8330781082940554,0.0853276262947767,0.3372176142159909,-0.8413574174633861,-0.03269946977040795,0.380871831032339,-0.9119035201328451,-0.04156485549387367,0.616906012777028,0.9204118488447897,-0.043492797992296744,0.6351221911119479,0.8412785299066992,0.0,0.0,0.0,0.0
0.008467889452105064,-0.04598425487191534,0.7474332767606149,-0.007548617671650029,-0.5531998328901413,-0.006646158823141134,0.8329878701604632,0.07847009225715243,0.3393432590072779,-0.8503330734846591,-0.029412589379027698,0.37788958556417795,-0.9079230062367937,-0.03876007769635176,0.6168079246347327,0.9162607014756375,-0.040886730852059225,0.6324860355725105,0.8444923157178945,0.0,0.0,0.0,0.0
0.007477766795165098,-0.04722618957334659,0.7474342465157344,-0.007264692022512078,-0.5532834564301357,-0.00693946488092739,0.8329324611982095,0.07340860348275895,0.3395337776403176,-0.8562943404022456,-0.025835843663207066,0.3747187316430632,-0.9040712468291024,-0.034614442414867365,0.616028029940065,0.9118145093198546,-0.03700001864984165,0.6293095359357846,0.8487971511031923,0.0,0.0,0.0,0.0
0.0064880430726140855,-0.04842991218082044,0.7474526267260097,-0.007023315692958013,-0.5533338988239708,-0.007178033143626803,0.8328990006532183,0.06957338342458311,0.33868920384092815,-0.8604110158927968,-0.02245665844340871,0.3714604393456711,-0.8999730423549078,-0.03023667818099191,0.6151823321743852,0.9070937352498024,-0.03285039443483523,0.6263657609344805,0.8526584778982962,0.0,0.0,0.0,0.0
0.005547873885652251,-0.049506032246436495,0.7474843959359452,-0.006823572289187297,-0.5533666882039603,-0.007369957941283325,0.8328772004127253,0.06639164337005805,0.33728036375177145,-0.8635233954916384,-0.019476815845335914,0.36820023079685715,-0.8956718524346725,-0.026179269411187013,0.6143775060414253,0.9025440529421876,-0.028963397960329818,0.6237725572336309,0.8558375548785419,0.0,0.0,0.0,0.0
0.0047425766623726195,-0.050448028778341904,0.7475196935594338,-0.006661216389247091,-0.5533859709267654,-0.007523946030469354,0.8328643260542423,0.06353302487594233,0.33558789890641433,-0.8660367677911956,-0.0169006685048065,0.36543197502731406,-0.8920037680682199,-0.022546767107884294,0.6137425360752174,0.8983976589573143,-0.025453554092257323,0.621616152429607,0.8584947183635264,0.0,0.0,0.0,0.0
0.004078702828411768,-0.05125528666396758,0.7475529812677479,-0.006530679192658457,-0.5534001253827523,-0.007649136680635819,0.8328548145767529,0.06070963264918333,0.3337792488071777,-0.868261929906778,-0.014709222333378943,0.36319810224223,-0.8890494125040769,-0.019397042189667715,0.6132775576418241,0.8947782855816753,-0.022389139686837124,0.6198631452303143,0.860727032253935,0.0,0.0,0.0,0.0
0.0035372135504516742,-0.051939519184567955,0.7475822336267942,-0.00642590214410709,-0.5534124246069512,-0.007753139805598095,0.8328464953972279,0.05776421251683868,0.3319752862162006,-0.8703670519909991,-0.012856665910436472,0.36141763885865474,-0.8867039832423045,-0.01671340144170194,0.6129451269859458,0.8916883551539825,-0.019764120614172265,0.618441334207058,0.8626062742107105,0.0,0.0,0.0,0.0
0.003093253174434463,-0.052519557692611504,0.747606653112082,-0.006341260910714135,-0.5534235065216374,-0.007841775481966963,0.8328389504559977,0.05463567537493078,0.33031810907619535,-0.872387540249581,-0.011284657285276157,0.35998836419223434,-0.8848343042887,-0.014435223170103784,0.6127027868964894,0.8890702300520248,-0.017526576281302865,0.6172720778444867,0.8642027776155644,0.0,0.0,0.0,0.0
0.002724158191223248,-0.053016634351367865,0.7476257196513841,-0.006272088909634733,-0.5534328214508156,-0.007919222946724404,0.8328325515670117,0.0513123495300351,0.3290130005640333,-0.8742372937161635,-0.009933198145057923,0.35882404337292134,-0.8833333409953683,-0.012482330924019467,0.6125139695909881,0.8868449126822359,-0.015602587638878973,0.6162845374900112,0.8655882107966724,0.0,0.0,0.0,0.0
0.002412725823860785,-0.05345199851796204,0.7476395267052841,-0.006214824754641158,-0.5534397628998032,-0.00798829747075476,0.8328277084116482,0.047802796570681046,0.328327330707458,-0.8757205949221631,-0.008745456877764414,0.3578697019958698,-0.882137685664892,-0.01076720297420036,0.6123565431461935,0.8849256865227892,-0.013908887806072098,0.6154263650012273,0.8668300536342077,0.0,0.0,0.0,0.0
0.002146731079735023,-0.05384529190692895,0.7476497035143808,-0.006166930522518278,-0.5534447932348824,-0.00805071766101426,0.8328241205406285,0.04412823129154131,0.32849456812834743,-0.8765776769268889,-0.007670807256934499,0.35709596690964907,-0.8812093912574438,-0.009203769791032646,0.6122281238917908,0.8832194855690979,-0.012362161852101303,0.6146702802360262,0.8679798239779691,0.0,0.0,0.0,0.0
0.001910091727389059,-0.054207972620342916,0.7476567575748725,-0.006126068797051007,-0.5534476936643753,-0.008108156267102167,0.8328219374275787,0.04031331202323503,0.3295091742451179,-0.8768009418578789,-0.006678309883024627,0.3564314837066011,-0.8804449500099158,-0.007748366170339242,0.612108701397609,0.8816674250959352,-0.010919737345712268,0.6139776065574846,0.8690626193184965,0.0,0.0,0.0,0.0
0.0016867012106134916,-0.05454474461162233,0.7476599943831967,-0.006090017422556318,-0.5534476836769472,-0.008162385811441557,0.8328216787393805,0.036384605088808676,0.33113210359904605,-0.8766352713436378,-0.005753201539090663,0.3557892908694129,-0.8797188847199982,-0.006393198301881188,0.611968104408031,0.8802453119955868,-0.009574014533572412,0.6133042309566208,0.8700872132045362,0.0,0.0,0.0,0.0
0.0014744211465239042,-0.05486227583955242,0.7476601251159607,-0.006057286015043903,-0.5534445959027139,-0.008214508915035277,0.8328234569195914,0.03237731679147109,0.33310185676122267,-0.8762608768477609,-0.0048778737154471915,0.3551716548901647,-0.8790402948822201,-0.00511567491364969,0.6118119508368516,0.8789206672980691,-0.008303020500652836,0.6126435678847683,0.8710685822122586,0.0,0.0,0.0,0.0
0.0012707223530411475,-0.05516414879291558,0.7476585319603816,-0.0060269870027727405,-0.5534394290704473,-0.008265362276005498,0.8328266071423824,0.028296446729799165,0.3352346626308596,-0.8757939497872989,-0.004042230643011541,0.3545712328958406,-0.8783914711674704,-0.003905067522208431,0.6116492238489275,0.8776681478718724,-0.00709639330959202,0.6119970419022955,0.8720064230945953,0.0,0.0,0.0,0.0
0.0010729999730576493,-0.05545118917427891,0.7476566685536049,-0.005998776254231318,-0.5534328502062015,-0.008315464626974913,0.8328306838992721,0.024119947296773307,0.33743559887844626,-0.8752926402513237,-0.0032431482165835783,0.35397456171311886,-0.8777433350330537,-0.0027606490504901438,0.6114862277578197,0.8764703100005977,-0.00595364842187689,0.611367938000914,0.8728885148483924,0.0,0.0,0.0,0.0
0.0008789581202948248,-0.05572094721478233,0.7476560150654766,-0.005972860254917975,-0.5534250802161691,-0.008364906133199925,0.8328355383108269,0.019807101917209448,0.3396768636488743,-0.8747762768089024,-0.002486007460447862,0.35336341905713475,-0.877057909700501,-0.0016938629257689949,0.6113263596315704,0.8753199822301003,-0.004886435272521908,0.6107619821522504,0.873689355726429,0.0,0.0,0.0,0.0
0.0006871665421524455,-0.0559669577790134,0.747658484958716,-0.0059500207437086765,-0.5534161290833979,-0.008413082366166072,0.8328411645497582,0.01532017452218474,0.34196487451122265,-0.8742470856965456,-0.0017871060297252417,0.3527168722137334,-0.8762880314639526,-0.000730869171271932,0.6111731920215199,0.874219896339929,-0.003921186853103597,0.6101919917330532,0.8743647009369394,0.0,0.0,0.0,0.0
0.0004980392380992031,-0.05617829407427403,0.747667089444173,-0.005931568295837899,-0.5534062326836597,-0.00845825850371807,0.83284741458896,0.010671632900040098,0.344301197046096,-0.873713604884812,-0.0011758320549016931,0.35201663213670537,-0.875380412076928,8.677680516500379e-05,0.6110362053904889,0.873179404672208,-0.0030999085705834865,0.6096853526079258,0.8748457202238382,0.0,0.0,0.0,0.0
0.00031556460756487846,-0.05634023041468354,0.7476865285403814,-0.005919072423272834,-0.5533964395371482,-0.008497044368572725,0.8328536159051324,0.0060111869588296,0.34663361856512676,-0.8732202926160673,-0.0006945827979446455,0.35125925465745994,-0.8742901397415546,0.0007062978303532245,0.6109384323080186,0.87220886264976,-0.0024760719009051186,0.6092923040099546,0.8750392105313973,0.0,0.0,0.0,0.0
0.00015003790500881038,-0.056437391590071995,0.7477224175213095,-0.005913611581084254,-0.5533893505395951,-0.008524113118777472,0.8328580883937979,0.001760173242850058,0.34879527435233915,-0.8728899161427941,-0.00039254231940730124,0.35047862498904736,-0.8730189656958253,0.0010769100134898311,0.6109203577510757,0.8713204594770558,-0.0021013579552824338,0.6090865695151283,0.8748520605004482,0.0,0.0,0.0,0.0
2.1312118696071176e-05,-0.05646126182442623,0.7477725035882066,-0.005913893582097759,-0.553392378440682,-0.00853369654522063,0.8328559763667056,-0.001222835480518554,0.35043593957040386,-0.8729697113254804,-0.0003057116357256321,0.34977231486416205,-0.8716864666226423,0.001171391702324001,0.6110087747774229,0.8706059274500804,-0.00200400726375947,0.6091189828404732,0.8743203979752707,0.0,0.0,0.0,0.0
2.119454163287594e-05,-0.0564614568299068,0.747772275507822,-0.005914234075704904,-0.5533919241377905,-0.008534162685966785,0.8328562710345772,-0.00122718667007662,0.35044003959851683,-0.8729672469099978,-0.00030401235675492436,0.3497707269609318,-0.8716869904097234,0.0011714882039421122,0.611007857323043,0.8706050762984933,-0.0020036077853636636,0.6091164537150344,0.874320478968033,0.0,0.0,0.0,0.0
2.119454163287594e-05,-0.0564614568299068,0.747772275507822,-0.005914234075704904,-0.5533919241377905,-0.008534162685966785,0.8328562710345772,-0.00122718667007662,0.35044003959851683,-0.8729672469099978,-0.00030401235675492436,0.3497707269609318,-0.8716869904097234,0.0011714882039421122,0.611007857323043,0.8706050762984933,-0.0020036077853636636,0.6091164537150344,0.874320478968033,0.0,0.0,0.0,0.0
2.119454163287594e-05,-0.0564614568299068,0.747772275507822,-0.005914234075704904,-0.5533919241377905,-0.008534162685966785,0.8328562710345772,-0.00122718667007662,0.35044003959851683,-0.8729672469099978,-0.00030401235675492436,0.3497707269609318,-0.8716869904097234,0.0011714882039421122,0.611007857323043,0.8706050762984933,-0.0020036077853636636,0.6091164537150344,0.874320478968033,0.0,0.0,0.0,0.0
5.30414620109928e-05,-0.05651794632999816,0.747776478280177,-0.005916686010921735,-0.553405245174374,-0.0085290350371963,0.8328474548207934,-0.0011022627296395516,0.3505237460128984,-0.8729992845017908,-0.00017918046437118788,0.3500763128853241,-0.8721224888220037,0.0014927721072495045,0.6111366683826881,0.8704126864744829,-0.0016825983260006679,0.6092183018906028,0.8745649513626158,0.0,0.0,0.0,0.0
9.335171625142531e-05,-0.05660264933202338,0.7477792796952624,-0.00591515846842375,-0.5534199969557697,-0.008527012906527758,0.8328376840181171,-0.0009056515980577168,0.3506046758398216,-0.8730005325048263,1.7405940193508158e-05,0.3504919255590088,-0.8727606146973376,0.001924167720479908,0.6112985425414845,0.8701452010405383,-0.0012512899742411834,0.6093105449198335,0.8749379834453085,0.0,0.0,0.0,0.0
0.0001392799400500038,-0.05671622735127251,0.7477798909130285,-0.005912024106830411,-0.5534345671601655,-0.008526056429333994,0.8328280339931913,-0.0006384185565192712,0.35066503608668026,-0.8729583569017333,0.0002846913531091259,0.3510015397106019,-0.8735807725453569,0.0024907817634571357,0.611474719085763,0.8697973369355021,-0.0006841661632089077,0.6093858828140558,0.8754455609766791,0.0,0.0,0.0,0.0
0.0001913765689082412,-0.05687455096864555,0.7477778289623551,-0.0059075573566717355,-0.5534467895208858,-0.008525803651525186,0.8328199460911089,-0.00026288829055858573,0.35068030865158345,-0.87283725289874,0.0006603974263804496,0.3516431324086079,-0.8746650441280304,0.0032773454058712508,0.6116657115555795,0.8693069447874173,0.00010424039560026795,0.6094332799458739,0.8761469236517653,0.0,0.0,0.0,0.0
0.00025035884214615864,-0.05711111914794128,0.7477728094313104,-0.005900733723117279,-0.5534525600461941,-0.008527544180979322,0.8328161418404929,0.000303967373526255,0.35059601661555845,-0.872547802545715,0.0012276944405647805,0.352494327538525,-0.8761823154849494,0.004445234966286716,0.6118822039135374,0.8685388414539027,0.0012770610329355656,0.6094287508842486,0.8771577224881654,0.0,0.0,0.0,0.0
0.0003409267928371198,-0.05747688924402431,0.7477710631017409,-0.005882153530748381,-0.5534510827842529,-0.008541332892671682,0.8328171136973562,0.00119974879722126,0.35047473196948564,-0.8721157733965862,0.0021246226581224524,0.3538175387387839,-0.8785908017308487,0.006160625115800081,0.6122580114954618,0.8672673787597063,0.00300366852865498,0.6094100316525443,0.878608087967699,0.0,0.0,0.0,0.0
0.00048748901099074403,-0.0580290802723492,0.7478175341325407,-0.005804112253627826,-0.5535335567871239,-0.00869498161959391,0.8327612569555443,0.0028222912667432596,0.35033105263487974,-0.8706652338406193,0.003750130541053131,0.35580886466154554,-0.8818606019095755,0.007907877669470884,0.6135823486653094,0.865265416419001,0.004766109952634845,0.6095968261460224,0.8803828682322044,0.0,0.0,0.0,0.0
0.0008960253004505218,-0.058476028223494216,0.7477826608181387,-0.005747550416423099,-0.5534684505051222,-0.008719591708236529,0.8328046641800894,0.0038930900217217955,0.35204570180125516,-0.8735465256811152,-0.004640713507871303,0.35123181676651943,-0.8762814320411065,0.009773599269953725,0.6143325783701054,0.8641400143006651,0.0066544931646503255,0.6097868586530893,0.8824999668057255,0.0,0.0,0.0,0.0
0.0013613610684488277,-0.05902328649676056,0.7477523874036072,-0.005674918474148819,-0.5534410696105927,-0.008815490918058758,0.8328223489367156,0.0053606773533651855,0.35389874083361933,-0.8762642298391085,-0.015522312225821712,0.34714324105809335,-0.8727915703191169,0.011762105512303085,0.6154789312669913,0.8628290767478817,0.008672441890426815,0.6100349610330926,0.8850036414378184,0.0,0.0,0.0,0.0
0.001836515060150905,-0.05965758128115157,0.7477302325410263,-0.005593401320033372,-0.5534285233038574,-0.00894060071198268,0.8328299040706293,0.007102468025912627,0.3556356000894909,-0.8785786167809797,-0.026300074002935714,0.34354780966618376,-0.870557318430073,0.014030589524526625,0.616827473190825,0.8611738146532649,0.010982421551603137,0.610310189328935,0.8877458826655913,0.0,0.0,0.0,0.0
0.0023049019857644144,-0.060348150525487025,0.7477113564240865,-0.005509318603600669,-0.5534196210666699,-0.009071333223647882,0.8328349664492318,0.008994607858304063,0.35721281540477695,-0.8805525633052332,-0.0361202992142112,0.34031434656022563,-0.8689720142338999,0.016557521142565746,0.6182364965120385,0.8592593026398653,0.013566748377604257,0.6105876781726738,0.8906395918651794,0.0,0.0,0.0,0.0
0.0027671176052109967,-0.061069039747693954,0.7476921229388862,-0.005425212901622787,-0.5534118339388476,-0.009198585602512806,0.8328392973103075,0.010954896201609738,0.3586806055106728,-0.8823260828866653,-0.04496401932724618,0.3373287631553575,-0.8677179998486185,0.019261767711706693,0.6196504339319983,0.8572030097611968,0.016345963795815602,0.6108695811998527,0.8936273916269029,0.0,0.0,0.0,0.0
0.0032300457276018433,-0.06180533327406032,0.7476707601216418,-0.005341565879055571,-0.5534057335294617,-0.009320623930908722,0.8328425347808652,0.012943241838503101,0.36010733961307384,-0.8840263897879057,-0.05309887019572136,0.3344964427272732,-0.8666381815183267,0.022076167034632853,0.621062121011161,0.8550864181571488,0.019253299880974798,0.6111690376219656,0.8966801578506954,0.0,0.0,0.0,0.0
0.003701375113898047,-0.0625527021205554,0.7476464440949707,-0.005257882535580067,-0.5534020999275509,-0.009438786708011628,0.8328441509505242,0.014951687754649046,0.3615471792002777,-0.885740734284515,-0.06080896690095689,0.33174929883899407,-0.8656589601590966,0.024970154641092077,0.6224831949838895,0.8529455985882509,0.02225853828953799,0.6114974999346038,0.899795809513769,0.0,0.0,0.0,0.0
0.004187483685973022,-0.0633150267387995,0.7476184263525953,-0.005173305804907544,-0.5534007848946297,-0.00955519835385328,0.8328442269533212,0.016993907101873016,0.3630311324414594,-0.8875163055829716,-0.06829585743036355,0.32905557449474193,-0.8647450118533643,0.027950606360470812,0.6239274177195516,0.8507801706435476,0.025369971149086897,0.6118589553818239,0.9029962205489415,0.0,0.0,0.0,0.0
0.004692880513219572,-0.06410242462308902,0.7475854403180262,-0.00508695276659371,-0.5534004125187975,-0.009671799632596798,0.8328436603753685,0.01909846642197836,0.36456681492372034,-0.8893666333316036,-0.07566278096437101,0.3264346530820711,-0.8638700917823178,0.031057374819395255,0.6254028256866028,0.8485638036045435,0.028630850294238386,0.6122477644492487,0.9063251288755187,0.0,0.0,0.0,0.0
0.00522249515549897,-0.06492943061961397,0.7475454342402611,-0.004997505169283448,-0.5533990866428495,-0.009790514482848857,0.8328436958223938,0.021304436663622868,0.36615479301265325,-0.8912959552264023,-0.08293101065710977,0.3239809297342621,-0.8629879297923645,0.03435093568570162,0.626915856812925,0.8462581299421894,0.03210743061506566,0.612653443162843,0.9098469567200465,0.0,0.0,0.0,0.0
0.0057925292886870155,-0.0658102880317107,0.7474959450492793,-0.004901126272442303,-0.5533952027185846,-0.009914563142869716,0.8328453818128575,0.023651262658494935,0.3678625002894534,-0.8934113022278519,-0.09007938194598622,0.3218882214192416,-0.8619814265442084,0.037872104737941954,0.6284977530118431,0.8438411309201463,0.035847247105726336,0.6130837406370431,0.91363330347777,0.0,0.0,0.0,0.0
0.006421783822869884,-0.06676259023062252,0.7474348320364768,-0.0047927867601146815,-0.5533878863016131,-0.010048194993070728,0.8328492722378319,0.026188403853312982,0.3697642424839906,-0.8958198526293218,-0.09704571348050536,0.3204320413893067,-0.8606650933229866,0.04166952951275604,0.6301937552050669,0.8412771481155457,0.03990796365601075,0.6135544439509047,0.9177635075640832,0.0,0.0,0.0,0.0
0.0071346538360015505,-0.06780695445768434,0.7473614851503512,-0.004665229169034276,-0.5533774678626936,-0.01019772466909468,0.8328551015094086,0.028976185962947158,0.371959790440754,-0.8986487198998382,-0.1037577102419413,0.31985975006196987,-0.8587930808525402,0.045788727361970476,0.6320801143514163,0.8385097307310884,0.04434644131371808,0.6141016495533442,0.9223122954781385,0.0,0.0,0.0,0.0
0.007955964117434045,-0.06897357913925295,0.7472737402292253,-0.0045103730364033055,-0.5533610378561712,-0.010370637324284377,0.832864735836079,0.03210135005154886,0.3745307550693859,-0.9020066104136529,-0.11015502921353768,0.32015965206508207,-0.8563756996104277,0.050316672205258095,0.6342283139599784,0.835446149984918,0.049267292532557315,0.61474739057797,0.9273868480733072,0.0,0.0,0.0,0.0
0.00891402510410708,-0.07030126490718612,0.7471682754798271,-0.004317852292001553,-0.5533327832226116,-0.010577015535169338,0.8328819327522188,0.03567724924836103,0.3775591278775965,-0.9060059991784142,-0.11620937912962484,0.32105482315192047,-0.8536532824374011,0.05536306994403499,0.6367186348204965,0.8319599995219461,0.05480554948646725,0.6155073640529432,0.9331175664313653,0.0,0.0,0.0,0.0
0.010052179324376319,-0.07182650986919684,0.7470446434992847,-0.004071238114401147,-0.5532875177549256,-0.01083258733836949,0.832909960781095,0.039821865933328454,0.3812153804277992,-0.9108674166255777,-0.12195756184833219,0.32221117539534105,-0.8507151015938222,0.060973660078368214,0.6396979544015429,0.8279148570385101,0.0610348430648052,0.6164402161479993,0.939590799859029,0.0,0.0,0.0,0.0
0.011409836849455682,-0.07358429162604686,0.7469064526649699,-0.0037511723158909884,-0.5532182283963916,-0.01115711437858105,0.8329532035324418,0.04465916065966495,0.3856438584329862,-0.9167453473627053,-0.12751477675824333,0.32329940650949013,-0.8474669002236999,0.06715592554503226,0.643342700895277,0.823119190520521,0.0679939064510225,0.6176160104606482,0.9468226006928003,0.0,0.0,0.0,0.0
0.012996599441106557,-0.07560601909089235,0.7467637395086328,-0.0033398687580951133,-0.5531172474070891,-0.01157211614727975,0.8330163515954279,0.05031155688474895,0.39081469947649883,-0.9234845097222386,-0.13309642764018462,0.3239585237035349,-0.8436320245324497,0.07389605266487499,0.6478189911325739,0.8172867624928389,0.07570367004140888,0.6190828368045268,0.9547230186503106,0.0,0.0,0.0,0.0
0.014824096255849793,-0.0778782327746299,0.7466335589865104,-0.002817522648342572,-0.5529791598399149,-0.012100760844174692,0.8331024438422084,0.05679547609053466,0.39679712068773637,-0.9310654329340402,-0.13916678539084673,0.32375554467916934,-0.8385667009273833,0.08092977915588569,0.653330797984246,0.8102439724743233,0.08390648801537544,0.6209326925717724,0.9629890460614531,0.0,0.0,0.0,0.0
0.01687962221254743,-0.08029933841827849,0.7465263071902236,-0.0021728874814919293,-0.5528000400141172,-0.012756654591185888,0.8332134552946348,0.06389631774088525,0.40368837206567815,-0.9396133376636766,-0.14649271131869412,0.32208840157037305,-0.8311821911816317,0.08761801126512386,0.6599170692439879,0.8022484903257117,0.09189662070983311,0.6231761415935102,0.9711178167502624,0.0,0.0,0.0,0.0
0.01896015045159629,-0.08264930616382116,0.7463257272204197,-0.0014285867691068684,-0.5526242216134137,-0.013522151095607088,0.8333196147072017,0.0710521029729256,0.4106006428403893,-0.9481577268156921,-0.15584751990428394,0.3180436096760384,-0.8204447155973241,0.0930197010237429,0.6663481471720372,0.7955059895518001,0.09855656856567718,0.6248732529516329,0.9795800270861926,0.0,0.0,0.0,0.0
0.020918425500051175,-0.08462821678504517,0.745937814413339,-0.0005999336802742166,-0.5524185180671526,-0.014345923573443636,0.8334432286922098,0.07741792965664704,0.41726201238160243,-0.9571337870195037,-0.16748180260406637,0.3100273849758679,-0.8036289801725061,0.09583036841843011,0.6713221274473915,0.7922689460248795,0.10227183315690179,0.6250986058671117,0.9883020198306146,0.0,0.0,0.0,0.0
0.0225506600181442,-0.08600423978285564,0.7454073700777026,0.00031411923900336367,-0.5521046185820143,-0.015150361044289969,0.8336371261104797,0.08221889238363883,0.4231197469424159,-0.9661984120250445,-0.18036487418535074,0.29522608725324195,-0.7760153182069818,0.0949984461510043,0.674219865456354,0.792840539736306,0.10168175996796025,0.6233494236734655,0.9960592018861042,0.0,0.0,0.0,0.0
0.023431884748059607,-0.08661157728333475,0.744819454023801,0.0013286600199913668,-0.5516645192145128,-0.015890016920581684,0.8339136647547127,0.08485117726948335,0.42627054868641256,-0.9723532511101897,-0.19210397254738454,0.27000738546024516,-0.7325110099325433,0.08952367582504038,0.674477191963674,0.7968771493577086,0.09553078155128764,0.6188246437498649,1.0015762475042838,0.0,0.0,0.0,0.0
0.023477439074787238,-0.08666302935370498,0.7448031077425461,0.0013794612896503766,-0.5516472507812026,-0.015897841233327083,0.8339248565885364,0.08498740899570825,0.42631786273149275,-0.9723984220616259,-0.192137061818656,0.27000224915857657,-0.7324866118966217,0.08947744835301417,0.674576702821677,0.796753424133587,0.09555236822887728,0.6187959513587362,1.0017569532115629,0.0,0.0,0.0,0.0
0.023477439074787238,-0.08666302935370498,0.7448031077425461,0.0013794612896503766,-0.5516472507812026,-0.015897841233327083,0.8339248565885364,0.08498740899570825,0.42631786273149275,-0.9723984220616259,-0.192137061818656,0.27000224915857657,-0.7324866118966217,0.08947744835301417,0.674576702821677,0.796753424133587,0.09555236822887728,0.6187959513587362,1.0017569532115629,0.0,0.0,0.0,0.0
0.023542906122071997,-0.08736570179540423,0.7464083705174335,0.0001110984167189082,-0.5514583250617563,-0.014741738118603374,0.834072169859699,0.08496171663381054,0.4268823180893666,-0.9708221922580058,-0.19192969303526217,0.27330398928876587,-0.7285591067930312,0.06755826252130996,0.6613514785320802,0.8302376997488127,0.11336741098947879,0.6308932609659135,0.9895291344276611,0.0,0.0,0.0,0.0
0.023614117002937397,-0.08850015351980836,0.748239015795597,-0.0007493409580224193,-0.5513285677124555,-0.013926796053403542,0.8341716209893189,0.0864192125689681,0.4266690550006029,-0.9653870953245501,-0.19023190800173373,0.2784258975134339,-0.7281918781907749,0.04610168226903878,0.6535672111776551,0.8530988776386397,0.12962783071843245,0.6432862266673961,0.9758699176665814,0.0,0.0,0.0,0.0
0.023663589491821894,-0.0898975814674859,0.7498906002201197,-0.0012648058783433064,-0.5512367105566568,-0.01341628685918618,0.8342400688337134,0.08895057658037303,0.4254707301529372,-0.9577782534552111,-0.18753535706087032,0.2843693056594055,-0.731109623313154,0.03032070471509415,0.6485046748954735,0.8684454596167677,0.14387807036465328,0.6539104940982334,0.9641086654831751,0.0,0.0,0.0,0.0
0.023714181005225436,-0.09141875107447271,0.7513042497375921,-0.001557519243338918,-0.5511573994938189,-0.013120770154743677,0.8342966741558807,0.0921090599386248,0.42367307391008024,-0.9493722702471926,-0.18429307829666586,0.2907163666312179,-0.7364552024034693,0.018398591235205458,0.6451902323377008,0.8794349163335327,0.15645301080475685,0.6627116818196175,0.9545937739004756,0.0,0.0,0.0,0.0
0.02376401208208124,-0.09294579600458537,0.7525130399784283,-0.0017241689300390361,-0.5510846561046739,-0.012939540920992112,0.8343472282738451,0.09544570829569773,0.4215664055320617,-0.9409047496508022,-0.18091575654663827,0.29698504458849695,-0.7428641081623317,0.008636431728544426,0.643070647808898,0.8879319025309172,0.167736309912565,0.670099236573633,0.9468602557042993,0.0,0.0,0.0,0.0
0.02381634313586095,-0.09441069883843044,0.7535518247689855,-0.0018232807619740724,-0.5510083810675541,-0.01281869677016634,0.834399257342485,0.09871872440569805,0.41938211298159966,-0.9328635124049995,-0.17762791596652602,0.302948262723323,-0.7496123825316949,-0.00015740857235677433,0.6417352857337276,0.8950403834047984,0.17793385941827727,0.6763784500144323,0.9404643621379797,0.0,0.0,0.0,0.0
0.023812025620075214,-0.09573940483800533,0.7544391093627668,-0.0019018852131138988,-0.5509326307111752,-0.012719193120945455,0.8344506224916199,0.10168964133022801,0.416992452422411,-0.9251428785755872,-0.17461562879984033,0.30794857954752064,-0.7553317562655028,-0.008786389392880163,0.6407504183479291,0.9012925197615294,0.18702812796771415,0.6816075944258019,0.9350872965084245,0.0,0.0,0.0,0.0
0.023753593002835045,-0.09692605176944767,0.755198289112256,-0.0019776522582539637,-0.5508553878303307,-0.012625273481097193,0.8345028658185476,0.10432465679566559,0.4144700703583337,-0.9178281326353802,-0.17191266559176716,0.3120134845954057,-0.7599319918549491,-0.0175460869273195,0.6399183497023948,0.9070003111216047,0.19515665559892834,0.6859530285845176,0.9305201857950772,0.0,0.0,0.0,0.0
0.02365699032526353,-0.09798904367526085,0.7558508366089849,-0.002055215802128316,-0.5507751827544027,-0.012532722030061567,0.8345570112511056,0.10666590880235262,0.4119002451871423,-0.9109731770300182,-0.16948788440300908,0.31533865646735065,-0.7636602851180958,-0.026544231610935883,0.6391691138826029,0.9123157777105939,0.20248565204329383,0.6895802613020852,0.926624298525119,0.0,0.0,0.0,0.0
0.023531150746877075,-0.09895107708046674,0.7564101719570413,-0.002136579429872949,-0.5506912606674619,-0.012439573488403452,0.8346135797267187,0.10876769491031654,0.4093054176723914,-0.9045513550483371,-0.16729454638961927,0.3180767773117165,-0.7667307915169053,-0.03583090346687194,0.6385161212118025,0.917210455746422,0.20918386848075995,0.6925922982903715,0.9233435826266048,0.0,0.0,0.0,0.0
0.023376682941781447,-0.09983544770144556,0.75688002785963,-0.002223534217331988,-0.5506024388987987,-0.012344237832125507,0.8346733672321305,0.11068551313478839,0.40664722902067035,-0.8984794299723098,-0.16528128233759581,0.3203199478025066,-0.7692993244487174,-0.045473422070810454,0.6380658073906146,0.9214547069857365,0.21541882800212758,0.6950175246672169,0.92071288336586,0.0,0.0,0.0,0.0
0.02319099035151442,-0.10066863072479981,0.7572566035782312,-0.0023173720618867963,-0.5505066846534934,-0.012245936699507683,0.8347377174735173,0.11248382687507337,0.4038529605357139,-0.8926488138028813,-0.16338762451888722,0.3221451592719161,-0.7715347955433477,-0.055597547549308284,0.6380645483991675,0.9245658544209421,0.2213704796262158,0.6968318253026696,0.918845318101384,0.0,0.0,0.0,0.0
0.022980778586936732,-0.10148681329037035,0.7575376215821888,-0.0024160345424281927,-0.5503995683297049,-0.012146861583146295,0.8348095182215186,0.11425567484803142,0.4008803290216464,-0.8869852258432023,-0.16153100765205858,0.3237238253752096,-0.7737811421030346,-0.06634355767885647,0.6389768460966192,0.92572575506104,0.22724811041437556,0.6980297970340082,0.9178556762027784,0.0,0.0,0.0,0.0
0.022736504154080992,-0.10231219530393487,0.7577361789321694,-0.002519402812267687,-0.5502769257441535,-0.012047011004865785,0.8348915062023816,0.11605153573209295,0.39763204233959415,-0.8812829806259296,-0.15965549088626071,0.3250797922195194,-0.7760628072279536,-0.07765511651591088,0.6407775222404071,0.9248989710148899,0.2331655703715222,0.6986491466566412,0.9176578316978561,0.0,0.0,0.0,0.0
0.022448744933295534,-0.10316403718522008,0.7578844015968714,-0.002626366180076399,-0.550131156953439,-0.01194526383241829,0.8349886963436887,0.1179090903849115,0.39402897647798457,-0.875307593005382,-0.1577140785540168,0.3262401792979702,-0.7783465071499092,-0.08926161515927435,0.6429937359128187,0.9228648653111236,0.23919347209416658,0.6988199476544795,0.9179498009908488,0.0,0.0,0.0,0.0
0.02210848651186714,-0.10406334336031597,0.7580184800951083,-0.00273670180618745,-0.5499517675419262,-0.011839370290444422,0.8351080128653184,0.11986810034180448,0.3899911478390175,-0.8688215434743748,-0.15565798200550846,0.32724431644552665,-0.7806133992299324,-0.10097865368903118,0.6453525055074465,0.920102728533666,0.24541057627683924,0.6986892097167635,0.9183813230806908,0.0,0.0,0.0,0.0
0.021704260778992346,-0.10503348614066003,0.7581721331209887,-0.002853448701730561,-0.5497229863553958,-0.011724763918597099,0.8352598553827815,0.12197210992183896,0.38541791534435216,-0.8615945870000479,-0.15343590220033734,0.32812601843797734,-0.782861917922746,-0.11282344083043533,0.6477085685322338,0.9169167640379982,0.2519229133387149,0.6983748729859268,0.9186161683607357,0.0,0.0,0.0,0.0
0.02122233797234398,-0.10609619021041752,0.7583762465777293,-0.0029855729928956088,-0.5494218138865513,-0.011591420140161065,0.8354593920464657,0.12425461260615696,0.3802011600872219,-0.8534474267701945,-0.15100863142937776,0.32890203628152725,-0.7850863668242192,-0.12512876045098018,0.6499998035504443,0.9135515336383759,0.2588647268615135,0.6979653199330521,0.9183201084931247,0.0,0.0,0.0,0.0
0.02064984651730511,-0.10726451558771308,0.7586586338997893,-0.003152017170571647,-0.549015526580926,-0.01141997335051676,0.8357281858173137,0.12671862783282156,0.3742664193180975,-0.8443479432998152,-0.14837231678483767,0.3295696522917549,-0.7872666267837853,-0.1387985988821105,0.6522538255533696,0.9102997140337276,0.2663931063808672,0.6975279346267348,0.9171377490234764,0.0,0.0,0.0,0.0
0.019982976734426852,-0.1085308781754191,0.7590400759248997,-0.0033873191670371955,-0.5484588423240282,-0.011176111872122177,0.8360959985963748,0.12930431199391335,0.36766121264239937,-0.8346094415663552,-0.1455981244059367,0.3301193521832002,-0.7893891856611086,-0.15576673322518347,0.6546628234633038,0.9076257926585474,0.27467728559163096,0.6971138016103989,0.9146950203447674,0.0,0.0,0.0,0.0
0.019243761872836482,-0.10984750006214734,0.7595178793310756,-0.0037455619423150998,-0.5476913055755667,-0.010804494647146558,0.836602335317137,0.13184065531385752,0.36071888136448776,-0.8252650475966646,-0.14289655190004746,0.33057473635158374,-0.7915561125883159,-0.1795577494780684,0.6577331111511147,0.9062950071180718,0.2838543686359088,0.6967156968866424,0.9107152168640392,0.0,0.0,0.0,0.0
0.0184922823401686,-0.11109449810821455,0.7600030729966221,-0.004289581041811167,-0.5466289121639175,-0.010238939077599846,0.8373013770486366,0.13399872087333833,0.3542217997881124,-0.8186141594105812,-0.1406922372815765,0.3309616397965406,-0.7942317666767033,-0.21523493368602564,0.6623411431128973,0.9072856596481884,0.2937427877197673,0.6958966342030094,0.9055661149468526,0.0,0.0,0.0,0.0
0.017741094001385786,-0.11198593580236699,0.760153663627478,-0.005005986019441193,-0.5452279524580124,-0.009465567480951865,0.8382194360635407,0.1351214513268399,0.3489603719960626,-0.8177349304586009,-0.13975586032227125,0.33038035631287066,-0.7972887093462075,-0.26491648669340306,0.6683044061740425,0.9112623476880749,0.30258306440930155,0.6926339453008612,0.9019262207460518,0.0,0.0,0.0,0.0
0.01705985204205669,-0.11250432555869384,0.7595145902820868,-0.005487331095404088,-0.5436575428380463,-0.008890965416758094,0.839242108122981,0.13574962159175183,0.3448761842388084,-0.8222599632028583,-0.13963269124906508,0.3290196083121132,-0.803418810810955,-0.31426286119505675,0.6705699559891004,0.9192242535590479,0.30650971622812434,0.6840475090956509,0.904912357248938,0.0,0.0,0.0,0.0
0.017058247992035484,-0.11251712129022959,0.7595042098184661,-0.005503697407670137,-0.5436473823941079,-0.008872853033167689,0.8392487744464875,0.13575098337704086,0.3447987820871091,-0.8222660531750834,-0.13963821362468765,0.32901162503572073,-0.8034474753144492,-0.3142996677666966,0.6705841792057609,0.9192337843773428,0.30655520618335086,0.6840090307992182,0.9048515339533003,0.0,0.0,0.0,0.0
0.017058247992035484,-0.11251712129022959,0.7595042098184661,-0.005503697407670137,-0.5436473823941079,-0.008872853033167689,0.8392487744464875,0.13575098337704086,0.3447987820871091,-0.8222660531750834,-0.13963821362468765,0.32901162503572073,-0.8034474753144492,-0.3142996677666966,0.6705841792057609,0.9192337843773428,0.30655520618335086,0.6840090307992182,0.9048515339533003,0.0,0.0,0.0,0.0
0.01709043635276444,-0.11271837293091405,0.7597680936948739,-0.005631882922198475,-0.5447679016225412,-0.008770801744004674,0.8385220857516463,0.13582836285491098,0.3434145159574527,-0.8140744814369182,-0.1389868844357183,0.3286087039402804,-0.7964460119872808,-0.315118501675275,0.6752634234227891,0.9194328895554155,0.3120173791165292,0.6892587087007186,0.9059011549229246,0.0,0.0,0.0,0.0
0.017132079793421514,-0.1129758018278856,0.7599676308707148,-0.005668981001576569,-0.5455059284632506,-0.0087461983115315,0.8380421520907799,0.13623204133536315,0.34222086287237224,-0.8078707417543283,-0.13821841026605314,0.32884283770239997,-0.7927865903510763,-0.31546333575675745,0.6786778814681155,0.9190023917482275,0.31605236865474384,0.6928782102403388,0.9065953237060256,0.0,0.0,0.0,0.0
0.017171708335602803,-0.11323877348325495,0.760089862643073,-0.005654676566189439,-0.5459687414520803,-0.008769245582956015,0.8377405674324653,0.13678063410650013,0.3412285701261757,-0.8033906548715235,-0.1374532525067186,0.32939268820935996,-0.7913619598046673,-0.3155344590936576,0.6809433104410646,0.918533095665338,0.31887110887219466,0.6951110819104691,0.9072842912662805,0.0,0.0,0.0,0.0
0.017269999468487184,-0.11362389390513536,0.7601377186683391,-0.005599176839948945,-0.5462584733959366,-0.008827764469688328,0.8375514312782968,0.13772118271072556,0.34040981432806383,-0.8000509656736859,-0.1364317081711254,0.33089107055714134,-0.7927705678645262,-0.31492736797291626,0.6825078261955235,0.9180781363701151,0.3216612527104886,0.6964770973200195,0.9085491509932244,0.0,0.0,0.0,0.0
0.017456444759375623,-0.11420082027605565,0.7600855326687053,-0.005504699719782966,-0.5464477041642103,-0.008918278653415044,0.8374276501289641,0.13920568621565438,0.33966646282443835,-0.7974142091242062,-0.13499114243938212,0.33363341123988816,-0.7973027243421525,-0.3134864660807784,0.683524948086251,0.9179706648421124,0.3251787018690711,0.6971659485119464,0.9110388396225192,0.0,0.0,0.0,0.0
0.017781569614014236,-0.11505623616376406,0.7597923439545263,-0.005366814759894666,-0.5466011814206996,-0.009032540273270663,0.8373271517065718,0.14143231819187457,0.3389293889681831,-0.7955646898374331,-0.13296774376261267,0.3380329143832134,-0.8059388224784347,-0.31107059269437415,0.6835590855250804,0.9196655797158164,0.33042007780880833,0.6967986787285294,0.9166126900101942,0.0,0.0,0.0,0.0
0.018257573725804974,-0.11622406778626276,0.7589740854936501,-0.0054050331456508924,-0.5469819784433325,-0.0089749178920699,0.8370788204964589,0.14422512186125647,0.3378329642011487,-0.7944810115568185,-0.13049543892684023,0.34364421377149057,-0.8172152141909704,-0.3061390678630852,0.6814121458605286,0.9266994494469593,0.3412463258522489,0.6953564947575935,0.9290317233652409,0.0,0.0,0.0,0.0
0.018789587061880716,-0.11742532505913786,0.7592790600410895,-0.006197092298213447,-0.5476236925789415,-0.00816110216862816,0.8366619889684517,0.14588406679324983,0.3375091426253523,-0.7914733965789154,-0.12878657455947534,0.3495582949950538,-0.8208164038871629,-0.2921819425911221,0.6842504861183077,0.9226470412272537,0.27561411809225844,0.6852862111798947,0.9174532548367139,0.0,0.0,0.0,0.0
0.019491440601359322,-0.11885667922609254,0.7590308882637752,-0.007081944116253702,-0.5484003857129189,-0.007250008773641206,0.8361544716081103,0.14803974382066146,0.3372221349004265,-0.7902420009362429,-0.12675704638576504,0.35670979206565184,-0.8278424664404083,-0.2765508877172464,0.6846060810041822,0.9239762447930119,0.2154533788772762,0.6753741701778089,0.9105292703574432,0.0,0.0,0.0,0.0
0.02024471577292965,-0.12035039198301185,0.7587027043888804,-0.007668836683219223,-0.5490329481131422,-0.00662487400175029,0.8357392666822463,0.15077148888933672,0.3370458514231428,-0.789167699961307,-0.12425185261512504,0.3645523416026801,-0.8379555046158553,-0.26326807908234934,0.6848777256373448,0.925472099138573,0.17467696837148342,0.6682061993513138,0.9079328592758358,0.0,0.0,0.0,0.0
0.02094506439758969,-0.12177389665628273,0.7584145219501307,-0.008017521314674725,-0.5494965774631181,-0.006247134791554402,0.835434141039965,0.15369977854648778,0.336804717845816,-0.7878615206946848,-0.12157289508433948,0.3720748744712807,-0.8488950181381228,-0.2524486576789282,0.6853271282639696,0.9261899029914074,0.14823894437705815,0.6632528061558628,0.9080792892786002,0.0,0.0,0.0,0.0
0.021542905899064144,-0.12305658529894865,0.7581926631727928,-0.008233740746871025,-0.5498347928472421,-0.006011725800029172,0.8352112099588037,0.15649146580238454,0.3364052154350728,-0.7862678848706812,-0.11900109952726032,0.37870056102501065,-0.85903262576018,-0.24348011500397096,0.6858629200530205,0.9261779528029367,0.12991110858372684,0.6595454082985086,0.9097813365214963,0.0,0.0,0.0,0.0
0.02203302824133587,-0.12418259941623229,0.7580392535696194,-0.008389158871639607,-0.5500884718858714,-0.005846438390400361,0.8350437798521946,0.1589996933150433,0.3358594278419723,-0.7844600515617728,-0.11666518612276613,0.38431915281885265,-0.8677574596692478,-0.2357993143078088,0.6864271347080839,0.925584106624544,0.11552427767949153,0.656393633153885,0.9122512792096709,0.0,0.0,0.0,0.0
0.022430340165289598,-0.12516633967963617,0.7579446185128151,-0.008521957943196878,-0.5502854347396594,-0.0057093548489061145,0.8349136002086729,0.16119665096400426,0.3352113872666134,-0.7825429026396339,-0.11459508774963335,0.38904822727346805,-0.875056579631191,-0.22898320120732582,0.6869819698034586,0.9245579532374005,0.10283676657997225,0.6534194559412818,0.9150159544500921,0.0,0.0,0.0,0.0
0.022753607383077565,-0.12604040903000474,0.7578930551501237,-0.008649138496013998,-0.5504450775421414,-0.005584389979635323,0.8348078962261066,0.16314040304014407,0.3344690646189756,-0.7805320811028276,-0.11274067802176141,0.3930784466121956,-0.8811849788685656,-0.22273394551487172,0.6875025623798112,0.9232391070224684,0.09072969170228795,0.6504646844974739,0.9177677450903825,0.0,0.0,0.0,0.0
0.023020474817028107,-0.1268397485925915,0.7578621108449523,-0.00877662776200684,-0.5505796494092685,-0.005463490742928977,0.8347186176972429,0.16490489891634802,0.3336221140673081,-0.7784397887049429,-0.11103875402691102,0.3965949081309086,-0.8864773903232864,-0.21682464313154845,0.68792699391191,0.9218046226273476,0.07876804931516379,0.6474890423805364,0.9203022932543259,0.0,0.0,0.0,0.0
0.023244882490458342,-0.12759659280921998,0.7578242263324876,-0.008904899385955388,-0.5506974307399148,-0.005343395572866359,0.8346403361131876,0.16656416989746556,0.3326417193504537,-0.7762716092715907,-0.10942596451153132,0.3997473564257138,-0.891263292655217,-0.21108837249475104,0.6881577957251174,0.9204765698605064,0.06686118420864212,0.6445351432124784,0.9224254504764239,0.0,0.0,0.0,0.0
0.023437119119322655,-0.12833985169127196,0.7577471266486405,-0.009031408413332278,-0.5508042108137423,-0.005224910609840591,0.8345692633454944,0.16819100806467693,0.33148354881011494,-0.7740282652483873,-0.10783972283844746,0.40264970652697274,-0.8958535425007732,-0.20540969867833211,0.688065075683857,0.9195261828193486,0.05509025536137339,0.6417407313779048,0.9238605521200475,0.0,0.0,0.0,0.0
0.023604601368318413,-0.12909289787138473,0.7575947046770581,-0.009151941751928488,-0.5509042153813798,-0.0051105553713459905,0.8345026480850687,0.16984757548618293,0.33009992632118945,-0.7717257695368971,-0.10622778993339732,0.4053798095973972,-0.9005248470216262,-0.1997206420075801,0.6874909871549261,0.9192730006800953,0.043663348431591274,0.639384187228115,0.9241450262342603,0.0,0.0,0.0,0.0
0.02375432111656214,-0.12987285504944765,0.7573344970757361,-0.009262518587488246,-0.5510012926691849,-0.005001524016126104,0.8344379940917239,0.17157816574155485,0.32846065848101447,-0.7694032343690482,-0.10455481867897479,0.40799606379337966,-0.9055024034793387,-0.19397757514032654,0.6862930924198604,0.9200121762900912,0.032863658334433624,0.6379488167271565,0.9225168530800105,0.0,0.0,0.0,0.0
0.023892371804548597,-0.13069776008280706,0.7569538913420617,-0.009361925488042619,-0.5510961184551153,-0.004898329490887172,0.8343748731493899,0.17342822952708883,0.32653957067434425,-0.7670462893056784,-0.10277979507170727,0.41056567808009137,-0.9109561843075606,-0.18808855734018726,0.6844206920668594,0.9218204474315207,0.0227401697932519,0.6374654918715996,0.919006440365681,0.0,0.0,0.0,0.0
0.02400420297379127,-0.13160074463332813,0.7564558757252053,-0.009451371489925845,-0.5511880645193837,-0.00480173108000473,0.8343136894999208,0.17547264947564026,0.32413701044418136,-0.7642951793431547,-0.1008147728101207,0.41308370307705233,-0.9168961724492996,-0.18181489340395832,0.6818472769063465,0.9245564997407363,0.01314968784987435,0.6374679766644422,0.9143933416723661,0.0,0.0,0.0,0.0
0.024085039787931205,-0.13260313511697394,0.7558459673675927,-0.0095340591171818,-0.5512743598429166,-0.004709372737235672,0.8342562578158789,0.177756642341716,0.32115439114083577,-0.7609700897075237,-0.09860794622218462,0.4155716891961332,-0.9233553871546416,-0.17497327015322045,0.6785742416238604,0.9280771617338436,0.0039374807906509685,0.6377203316168331,0.9091121216617144,0.0,0.0,0.0,0.0
0.024122216938361966,-0.13372232004234688,0.7551220836637003,-0.009614427966954624,-0.5513511552795899,-0.004617500298368259,0.8342050977054289,0.1803126336512728,0.3174499913764081,-0.7568631010551624,-0.09611774094869885,0.4179888649692598,-0.9302969467547947,-0.16738619650883435,0.6745360312566078,0.932316334827226,-0.004996834232957133,0.638126787190575,0.9033234268342555,0.0,0.0,0.0,0.0
0.024094223007041816,-0.13496933716932957,0.7542745934123153,-0.009700153734958571,-0.5514141520334777,-0.004519304181696665,0.8341630031621111,0.18315203591876605,0.3128396431092846,-0.7517438438834799,-0.09332059365906233,0.4202203916913004,-0.9375855217407928,-0.15887876512629437,0.6695956942447421,0.9372900644757663,-0.0137472389446003,0.6386903074633926,0.8969721260890182,0.0,0.0,0.0,0.0
0.023997207071683083,-0.13632603016955136,0.7532933715689242,-0.009806995595883137,-0.5514596480226737,-0.004399939060754627,0.8341323156288531,0.18621328650664346,0.3073478970661987,-0.7457692675336339,-0.09027994568006774,0.4221757278327272,-0.9450748638146894,-0.14939578912689655,0.6636434702581794,0.9430985429102446,-0.022565773643603917,0.6395514123142457,0.8898375507591557,0.0,0.0,0.0,0.0
0.023869241934242395,-0.13772092650680912,0.7521719495258665,-0.009964707480877109,-0.551480061230695,-0.004229667153033535,0.8341178313557287,0.18930630964786835,0.3014684700194582,-0.7399575706760294,-0.0872229421845786,0.4238752722841213,-0.9527080355577626,-0.13908888811532477,0.6566504232866618,0.94994802330571,-0.032093260024326664,0.6410193265585066,0.8814772657621093,0.0,0.0,0.0,0.0
0.0236974563027511,-0.1390823010157521,0.750893371654268,-0.010220276207713638,-0.5514660711739375,-0.003953596963141688,0.8341253427209082,0.19218451302711825,0.29538981947969295,-0.7349686504283711,-0.08441220098108596,0.42505357138847416,-0.9599656327331911,-0.12781412763482786,0.6483288191901162,0.9581018447193249,-0.04310652266010518,0.643365827949574,0.8709844335298664,0.0,0.0,0.0,0.0
0.02347252751097493,-0.14030575484264057,0.7494527548044145,-0.010647723526863427,-0.5513941241445974,-0.0034762484683772783,0.8341696839007601,0.19446075242087926,0.28948914552772753,-0.731945953486757,-0.08226866061735817,0.42542164430233237,-0.9661755882262827,-0.11524128980640683,0.6383222872165083,0.9677203234969515,-0.05672808911985871,0.646979254482075,0.8568226331167522,0.0,0.0,0.0,0.0
0.02317823107533643,-0.14127576707511524,0.747929446243993,-0.011342819498911616,-0.5512511280870142,-0.0027032397087307664,0.8342578898180625,0.1957222169967505,0.2841807754577881,-0.7317633588642999,-0.08121398749477216,0.424703708721447,-0.9702627996209603,-0.10100726750259707,0.6267120642867903,0.978198435335261,-0.0738867896967893,0.6527067352697132,0.8364956771760608,0.0,0.0,0.0,0.0
0.022904489387996153,-0.14186500917889894,0.7466680513590894,-0.01235427968170006,-0.5510603384748424,-0.0015936559477218361,0.8343724200824586,0.1955907937647544,0.28065768703182814,-0.7351811102681783,-0.08160511282271202,0.4234292745001205,-0.9713191750624867,-0.08547361964851516,0.6154791460278869,0.9866521213672773,-0.08996564742397593,0.6630440090031814,0.8076998963086253,0.0,0.0,0.0,0.0
0.02291325549246888,-0.14187647393797162,0.7466464021105261,-0.012368120275343298,-0.5510703600408445,-0.001586365634618966,0.8343656101070932,0.1956054737659067,0.2805962712178339,-0.7351403948602289,-0.08158765224137987,0.4234437124707754,-0.9713602374757756,-0.08545067741737412,0.6154318014940202,0.9866503856273173,-0.08997420080950241,0.6630419855326666,0.8076905034768737,0.0,0.0,0.0,0.0
0.02291325549246888,-0.14187647393797162,0.7466464021105261,-0.012368120275343298,-0.5510703600408445,-0.001586365634618966,0.8343656101070932,0.1956054737659067,0.2805962712178339,-0.7351403948602289,-0.08158765224137987,0.4234437124707754,-0.9713602374757756,-0.08545067741737412,0.6154318014940202,0.9866503856273173,-0.08997420080950241,0.6630419855326666,0.8076905034768737,0.0,0.0,0.0,0.0
0.022065449690489364,-0.14230790627854623,0.7472340920515878,-0.011355614647240447,-0.5519101679339732,-0.0025463315162559553,0.8338223628224936,0.1814189451189489,0.3074135116341668,-0.7802099194784367,-0.07874927936713208,0.41987077686319224,-0.9630283422238782,-0.09406968175413753,0.6217762758830261,0.9824421631089213,-0.0975495021347082,0.6633062812263673,0.8037460098004826,0.0,0.0,0.0,0.0
0.020403978885732855,-0.14355098571120864,0.7477605679777739,-0.010553635362559642,-0.5524809595770364,-0.003383840673974496,0.8334518340658712,0.16550937571716134,0.3221345766527002,-0.8081966035510528,-0.07392866248437771,0.41367374252231337,-0.9521333937105607,-0.09516015517502517,0.6244514149300683,0.9752223021095197,-0.09853683147732988,0.6610264054336641,0.8034397999448449,0.0,0.0,0.0,0.0
0.018375767380040087,-0.1454805304638551,0.7481664630732192,-0.009864473097343293,-0.552792760817237,-0.004134680092285396,0.8332501186193154,0.1514316872149992,0.3294002285166706,-0.8248065387197779,-0.06755811846003255,0.40691800121111693,-0.9421429675561936,-0.0904456288893669,0.6245611669548825,0.9660651895797366,-0.09458403497163076,0.6566926972031879,0.8068628403316975,0.0,0.0,0.0,0.0
0.01619994282810735,-0.1478679080971631,0.748420695561293,-0.00924562099855014,-0.5529608985311789,-0.004798005883830761,0.833142090118775,0.14036678630901178,0.3325339858748352,-0.8348749487138403,-0.06027220721053302,0.4001761470955931,-0.933413054871491,-0.08207084111739181,0.6230471018824747,0.956196749125722,-0.08741850135275168,0.6508890836912629,0.8135158191641549,0.0,0.0,0.0,0.0
0.014017684119707437,-0.15046665321981625,0.7485024842408284,-0.008684326614133913,-0.5530976548884663,-0.005369237841316152,0.8330538625522009,0.13230025544638072,0.33337907472317396,-0.8416551204306417,-0.05270420027261877,0.39357108076045444,-0.9255271876917115,-0.07196789590780732,0.6205636582547598,0.9468440520194411,-0.07857176057162966,0.6441536104105852,0.8227225786689532,0.0,0.0,0.0,0.0
0.012009443730719334,-0.15292853814883337,0.7486004844380343,-0.008208364248220851,-0.5531865174906024,-0.005835347622028106,0.832996547616566,0.1259382091502555,0.3329023496423246,-0.8462417896876954,-0.0457205473330379,0.3875155027609953,-0.9181665804947018,-0.062045142505425505,0.6184366066581112,0.9373236494510608,-0.06965255065385409,0.638272539119221,0.8308722633139524,0.0,0.0,0.0,0.0
0.010260687972401464,-0.15511785769337397,0.7487103418713633,-0.007818273974052844,-0.5532427954518999,-0.006209496057483842,0.8329602187567818,0.12035449262011681,0.33168841363356194,-0.8496410001409345,-0.03961874971070762,0.3822334421707288,-0.9116034205635996,-0.053124849500634196,0.6168282372305847,0.9282845992441452,-0.061445338106454535,0.6334148913594644,0.8376065734720015,0.0,0.0,0.0,0.0
0.008762838248025892,-0.1569899398793989,0.7488155605339395,-0.007504479224088928,-0.5532825036205061,-0.006510835668332397,0.8329344289906018,0.11488293765043901,0.3301089239656563,-0.852558466288528,-0.03445323330312628,0.3776113171072496,-0.9057027315441972,-0.04549820006997388,0.6156154656400294,0.9201933559843868,-0.054293623136562066,0.6294242115124421,0.8430549517922306,0.0,0.0,0.0,0.0
0.0075048224522559085,-0.1585664594668557,0.7489072350386263,-0.007253811493637988,-0.5533122936040863,-0.006756897594150207,0.8329149009954753,0.10919319526044326,0.32843398273071944,-0.8553303908635537,-0.03012774738262054,0.3736703433968009,-0.9005922804175519,-0.039099031217523283,0.6147049661318671,0.9131887658116988,-0.048206412841073826,0.6261475843723632,0.8474902873268372,0.0,0.0,0.0,0.0
0.006475238541205221,-0.15989778391233553,0.7489817183624138,-0.007053218995601832,-0.5533348922891614,-0.006961792484689905,0.8328999234737282,0.10316969080100384,0.32690401574985944,-0.8580402320329582,-0.026487596507990763,0.37048719608459335,-0.8964892025768207,-0.0337141920169775,0.6140445214939977,0.9072220759044292,-0.04303188096782146,0.6234613384861748,0.8512076756164543,0.0,0.0,0.0,0.0
0.005644763047171092,-0.16103660793732902,0.7490390471887429,-0.0068911182730616765,-0.553351214554023,-0.0071364867310158234,0.8328889580236205,0.09679332970858567,0.32576693536696055,-0.8606233519574907,-0.02337940369379538,0.3680297182974356,-0.8934171321326119,-0.02911774286247933,0.6135778213864124,0.9021516102513738,-0.03858341825009029,0.6212419038722028,0.854432485742078,0.0,0.0,0.0,0.0
0.004953059391364801,-0.1620219861041654,0.749083063761549,-0.006757947430348688,-0.5533657219464474,-0.007289685886464121,0.8328790839016743,0.0900476956758786,0.3252937664931112,-0.8629468544928501,-0.02068570491277859,0.3660392847728825,-0.8909828616789371,-0.02515058486974228,0.6132245794837208,0.8978057473289444,-0.034722481162888494,0.6193550324351113,0.8572674269501336,0.0,0.0,0.0,0.0
0.004362494486305374,-0.16289670927421804,0.7491177706884908,-0.006646163582081649,-0.5533789914870618,-0.007427196477435193,0.8328699520590762,0.08298366052724086,0.3257061126551956,-0.8647511485646925,-0.018290150974623446,0.3643950427992597,-0.8890226280733977,-0.021628000608101633,0.612950694954567,0.893986405171643,-0.03127941687514383,0.6177119830872959,0.8598238278191458,0.0,0.0,0.0,0.0
0.003843102529213595,-0.16369406768888578,0.7491450991341274,-0.006549606099294868,-0.5533907089733954,-0.007553620189611046,0.8328617944796711,0.07567011419984608,0.3269901105897469,-0.8659997493647827,-0.016102979362453022,0.3629958226569246,-0.8874050162260279,-0.018413462662133256,0.6127253880382103,0.8905427598546588,-0.028125629049872557,0.616234554762555,0.862192978326851,0.0,0.0,0.0,0.0
0.0033678631253270886,-0.16443601954804407,0.749165328766176,-0.006463186545426764,-0.5533995125639948,-0.007672923003115389,0.8328555294684669,0.06817000731152455,0.328898376026055,-0.8669054829323731,-0.014063369609113967,0.3617305008266467,-0.885983584885615,-0.015426997574849536,0.612510301729889,0.8873746455165152,-0.02518447857227882,0.6148468434973844,0.8644335277184105,0.0,0.0,0.0,0.0
0.0029142314525211757,-0.16513738900351108,0.7491799336118388,-0.006383318819928706,-0.5534061929291635,-0.007788133849546613,0.8328506371730973,0.060512352758373904,0.33115994567832974,-0.8676480259328798,-0.012129330218138265,0.36049685499690426,-0.8846026116358362,-0.012617696908623837,0.6122842286010014,0.8844017785321447,-0.022406821268139757,0.6134998965193121,0.8665721566172964,0.0,0.0,0.0,0.0
0.002476929737295174,-0.16581194788352757,0.7491905428359894,-0.00630779435394298,-0.5534109475030636,-0.007901203217513576,0.8328469882888844,0.052702296974910606,0.33358469757704595,-0.8683175366527598,-0.010264416804970743,0.35929417303124045,-0.8832676403502494,-0.009932054388706429,0.612057006242008,0.8815567921114734,-0.019741183107323635,0.612181580545983,0.8686411205637896,0.0,0.0,0.0,0.0
0.0020526506333977627,-0.16646621637728223,0.7491986319932218,-0.006235608489999469,-0.553414389877605,-0.008013504535195805,0.8328441715040227,0.044691191488136925,0.33607524175620634,-0.8689556772154177,-0.008450174573864508,0.35811717903932194,-0.8819686477308325,-0.00734636885058464,0.6118376358486199,0.8788018880072057,-0.017164818611056818,0.6108891201172267,0.8706488981197933,0.0,0.0,0.0,0.0
0.0016382308458341086,-0.16709832600212746,0.7492057739435302,-0.006166918939798467,-0.5534166738476953,-0.008125598546234744,0.8328420791881309,0.036392425650792044,0.3386041695564511,-0.8695759304074773,-0.006689387738121009,0.35694377910476827,-0.8806625809538109,-0.004870810588068837,0.6116289569233546,0.8761267210739362,-0.014688286232862766,0.6096258836394871,0.8725701314454919,0.0,0.0,0.0,0.0
0.0012315691757151886,-0.16769656851496975,0.7492142296020499,-0.006103143968313507,-0.5534175326724823,-0.008236590422569084,0.8328408880107981,0.027727597348838756,0.341183812812852,-0.8701823631882787,-0.005011080650262764,0.3557383239884601,-0.8792742291415697,-0.0025532414631944883,0.6114307154447909,0.8735486918324749,-0.012359977480312562,0.6084081225685004,0.8743362397565688,0.0,0.0,0.0,0.0
0.0008331157604465316,-0.168237260561423,0.7492277312373363,-0.006047061664675353,-0.5534166961055935,-0.008343041724467795,0.8328407934122684,0.018724288465030093,0.3438303713047868,-0.8707926307862891,-0.003478204551562244,0.35445695751199285,-0.8776968887764023,-0.00048459874723372426,0.6112444772844777,0.8711151186956019,-0.010272227323600152,0.6072756636503043,0.875823694688696,0.0,0.0,0.0,0.0
0.000448397528299217,-0.168683183477195,0.7492517936449308,-0.006002736634369075,-0.5534144441624338,-0.008437384255219378,0.8328416600364158,0.009693545744542904,0.34651719389946983,-0.8714722467514187,-0.0021952579291665652,0.3530602567383936,-0.8758059293277545,0.001199940007254981,0.6110774982804917,0.8689090803050462,-0.008563145524907468,0.6063025200477062,0.8768511692798729,0.0,0.0,0.0,0.0
9.168207580025978e-05,-0.1689845398106151,0.7492908000551262,-0.005975557937580051,-0.5534118449919241,-0.0085022797637802,0.8328429226263423,0.0014840594257068233,0.3491177878280529,-0.8724138078206297,-0.0013192415691553351,0.3515370028526939,-0.8735002389849239,0.0023505710822541376,0.6109235336382433,0.8670743790104462,-0.007387244776221779,0.6055960618628906,0.8772237055253813,0.0,0.0,0.0,0.0
-0.00018557257908748066,-0.16910915841917867,0.7493446186090126,-0.005965515300744054,-0.5534235070119585,-0.008529262848180393,0.8328349693601056,-0.004292215492083964,0.35131447564067986,-0.8738489090322985,-0.0009496346524260567,0.3501246949280587,-0.8710641934760578,0.0028381517386313823,0.6108738113610472,0.865826641237891,-0.006881100505435113,0.6053079379683088,0.8769197286903411,0.0,0.0,0.0,0.0
-0.00018541041217349786,-0.16911016745280422,0.749343936302421,-0.005966180391946346,-0.5534229269934617,-0.008530430141819385,0.8328353380657642,-0.004301456600728545,0.35131828422542777,-0.873846410754456,-0.0009448239748071856,0.35012201782758934,-0.8710648891282092,0.0028373046238977253,0.6108759199106575,0.865822777849765,-0.006879708153780098,0.6053028620948666,0.8769228972937496,0.0,0.0,0.0,0.0
-0.00018541041217349786,-0.16911016745280422,0.749343936302421,-0.005966180391946346,-0.5534229269934617,-0.008530430141819385,0.8328353380657642,-0.004301456600728545,0.35131828422542777,-0.873846410754456,-0.0009448239748071856,0.35012201782758934,-0.8710648891282092,0.0028373046238977253,0.6108759199106575,0.865822777849765,-0.006879708153780098,0.6053028620948666,0.8769228972937496,0.0,0.0,0.0,0.0
-0.00018541041217349786,-0.16911016745280422,0.749343936302421,-0.005966180391946346,-0.5534229269934617,-0.008530430141819385,0.8328353380657642,-0.004301456600728545,0.35131828422542777,-0.873846410754456,-0.0009448239748071856,0.35012201782758934,-0.8710648891282092,0.0028373046238977253,0.6108759199106575,0.865822777849765,-0.006879708153780098,0.6053028620948666,0.8769228972937496,0.0,0.0,0.0,0.0
-0.00015514140846244944,-0.169172297509678,0.7493484208654809,-0.005967366436730696,-0.5534354589223535,-0.008525959171849977,0.8328270476908238,-0.00416246076073725,0.35138351740689966,-0.8738458516506524,-0.0008062691553270596,0.3504294298680749,-0.8715109691395349,0.0031746201054079423,0.6110097656914671,0.865600160284717,-0.006542351173950197,0.6053965821747659,0.8771807261513971,0.0,0.0,0.0,0.0
-0.00011683928447009975,-0.16926404481274995,0.7493515655269063,-0.005964831508449764,-0.5534493257553921,-0.00852455482751802,0.8328178651848015,-0.003948289323061299,0.3514414804159965,-0.8738071963832927,-0.0005922587378204535,0.3508484342925146,-0.872163292727014,0.00363110128299695,0.6111756498050863,0.8652966958155096,-0.006086113590155173,0.6054793880331789,0.8775726075093481,0.0,0.0,0.0,0.0
-7.29304095641334e-05,-0.16938518166426034,0.7493524957354615,-0.00596082032874304,-0.5534631305293365,-0.008524201449834238,0.832808723390502,-0.003662220102794378,0.3514782878115066,-0.8737237405547961,-0.0003061554772298756,0.35136294027045795,-0.8729999192454101,0.004225800994302533,0.6113559477928021,0.8649116971656392,-0.00549111082928957,0.6055450426357959,0.87810245587682,0.0,0.0,0.0,0.0
-2.2723509893809988e-05,-0.16955173263593987,0.7493505764229075,-0.00595548980426686,-0.5534748191156051,-0.008524602194783864,0.8328009893747486,-0.003266174557241013,0.3514700286176713,-0.8735608110825408,9.012315561161735e-05,0.3520117387540053,-0.874104537905421,0.0050425068737932725,0.611551754763895,0.8643838498726687,-0.004672395270067838,0.6055818052329279,0.8788320005173349,0.0,0.0,0.0,0.0
3.500937633343506e-05,-0.16979749048088477,0.749345232583936,-0.005947578588136717,-0.5534805731817445,-0.008527204659352925,0.8327971951201824,-0.0026762957555828346,0.3513648825405889,-0.8732326439844413,0.0006805591404545328,0.352875786811767,-0.8756518520161607,0.0062408927791986184,0.611775216341482,0.8635804309459305,-0.0034678880401638034,0.6055647912624873,0.8798823683913317,0.0,0.0,0.0,0.0
0.00012513532394571955,-0.17017502292635955,0.7493423991609344,-0.005927544175652566,-0.5534795717264833,-0.008542132748300865,0.8327978505433504,-0.0017512175126540386,0.3512241313450605,-0.8727634744850353,0.001607041015978897,0.35422188232901275,-0.8781096334741516,0.007993312511086056,0.6121605141288536,0.8622720165728076,-0.001702011038465134,0.6055288889762667,0.8813935959722534,0.0,0.0,0.0,0.0
0.0002704002456796424,-0.170740487124909,0.7493880783779774,-0.005848523545170387,-0.5535632824925227,-0.00869628180086624,0.8327411733133441,-9.665438018527004e-05,0.35105580044407203,-0.8712654887010649,0.0032644780398160067,0.3562340552388435,-0.8814202510127763,0.009792429753501149,0.6134956357516002,0.8602232300909303,0.0001103333073845809,0.6056984686090667,0.8832367325207452,0.0,0.0,0.0,0.0
0.0006800647379613077,-0.1711993332264626,0.7493513847221922,-0.0057912155408825,-0.5534977632295972,-0.008721319606371942,0.8327848620782653,0.0010000430482876392,0.35276250804960635,-0.8741380213247298,-0.005096470248872169,0.35166841511201063,-0.8759083731659156,0.011703134405259993,0.6142453818933351,0.8590724038735333,0.002040273290029553,0.6058685117379561,0.8854229691005615,0.0,0.0,0.0,0.0
0.0011462992922929359,-0.17175707401726992,0.749319265480738,-0.005718209938228185,-0.553470337176148,-0.008817156366226812,0.8328025850673356,0.002489161643413213,0.3546103107050949,-0.8768527397758543,-0.01595275587269346,0.3475802801872047,-0.8724645692546805,0.013734217824857953,0.6153887281747262,0.8577425468470007,0.0040945557599859584,0.6060974609870786,0.8879926647569324,0.0,0.0,0.0,0.0
0.0016221680767004032,-0.1724000481876458,0.7492952949479004,-0.005636480943927734,-0.5534583064688345,-0.008941900975339614,0.8328098075131953,0.004247651768878581,0.3563449823774246,-0.8791685931548224,-0.02670823680546304,0.34398310014123373,-0.8702594676680586,0.01603694263549337,0.6167350733706556,0.8560742556174492,0.006432549980201952,0.6063554621758076,0.8907964061920802,0.0,0.0,0.0,0.0
0.0020911899724978325,-0.17309763003228673,0.7492745570447455,-0.005552231745901871,-0.5534502659526016,-0.009072237247729186,0.8328143072443913,0.0061525540857659804,0.357923046211816,-0.8811488096151322,-0.03651057438377775,0.3407488263076934,-0.8686921007201972,0.018588365034309735,0.6181428205786025,0.8541525986774121,0.009035983069791769,0.6066167654041417,0.8937471565332364,0.0,0.0,0.0,0.0
