zhuoxili-jackie/tripod-support-walk/examples/trajectory_tripod_lowstep_p2_left_v0.10.csv
root_pos_x,root_pos_y,root_pos_z,root_rot_x,root_rot_y,root_rot_z,root_rot_w,FL_hip_joint,FL_thigh_joint,FL_calf_joint,FR_hip_joint,FR_thigh_joint,FR_calf_joint,RL_hip_joint,RL_thigh_joint,RL_calf_joint,RR_hip_joint,RR_thigh_joint,RR_calf_joint,FL_foot_joint,FR_foot_joint,RL_foot_joint,RR_foot_joint
0.0,0.0,0.745913,0.00590261038931276,-0.5534150365010598,0.008528410562500118,0.8328410549308913,-2.4067e-06,0.349062,-0.872669,9.86e-07,0.349071,-0.872662,3.27e-06,0.610866,0.872669,-2.38753e-06,0.610854,0.872668,0.0,0.0,0.0,0.0
1.1887083467353529e-05,4.179534842213044e-05,0.7459144024151716,0.005902156633561875,-0.553410229291181,0.008527297333887449,0.8328442638711843,-9.974613399036838e-05,0.3492290190724225,-0.8729802476171858,-9.635300617292176e-05,0.34907219384743016,-0.8726590163270884,-0.000213904939696895,0.6108722113675472,0.8728099484576767,-0.00021955727183428503,0.6108928374050855,0.8724915474902007,0.0,0.0,0.0,0.0
2.729229801792726e-05,0.0001050872725179972,0.745914842435732,0.005898917813943649,-0.5534086919305108,0.008528458166887732,0.832845296478092,-0.0002519042222928827,0.3494595772785156,-0.8734016132657173,-0.000248495105172231,0.34905112696754653,-0.8725891549615292,-0.000516839670905667,0.6108709331792995,0.8730521388942107,-0.000522340500045646,0.6109562052976955,0.8722604440142683,0.0,0.0,0.0,0.0
4.7034194516660094e-05,0.00018872993352388298,0.7459140450013388,0.005893789716529707,-0.5534093559219239,0.008531020496967532,0.8328448653321572,-0.0004547803730572602,0.3497567909725033,-0.8739413490785704,-0.00045131932067238724,0.34901579851223835,-0.8724746206930277,-0.0009082727955534488,0.6108629248319989,0.8733925148405265,-0.0009133396314569486,0.6110389113655011,0.8719780677146292,0.0,0.0,0.0,0.0
7.368459182198588e-05,0.00030039097607149673,0.7459118337166011,0.005886431471582055,-0.553411254619785,0.008535100105709969,0.8328436139221284,-0.0007267834390218522,0.35015322213970107,-0.8746625353433337,-0.0007232016933080248,0.34896848455397067,-0.8723195782503949,-0.0014254773123311825,0.6108467116728096,0.8738607631327593,-0.0014295914178076837,0.6111469545838428,0.8716168402820155,0.0,0.0,0.0,0.0
0.00011228196133793514,0.000453913255815485,0.74590865845119,0.005875478112541592,-0.5534138743765242,0.008541775878127163,0.8328418820336556,-0.0011025726059404881,0.3507095147425704,-0.8756751656061267,-0.0010987323048497863,0.34891516112610227,-0.8721233568673638,-0.002127917273915556,0.6108252182929981,0.8745053480554236,-0.002130071336194364,0.6113012912806689,0.8711242415936725,0.0,0.0,0.0,0.0
0.00017559611567752355,0.0006698428212033622,0.7459102127302875,0.005856971908306027,-0.5534201350845324,0.0085554553498152,0.8328377117703307,-0.0016384029430674032,0.35154822587315515,-0.8771634337393606,-0.0016340134190212887,0.3488980434454627,-0.8718945540839036,-0.003080909803168208,0.610843612181539,0.8753577223010063,-0.003079161420067464,0.6115872266624519,0.8703899533121523,0.0,0.0,0.0,0.0
0.00029291051854477647,0.0009759017768172046,0.7459529857912294,0.0058099170965464336,-0.5534833719917558,0.008637354766983876,0.8327951716326147,-0.00252693968455122,0.35287472666843317,-0.8791847821949474,-0.0025212816416620085,0.34903696423023456,-0.8712912131302892,-0.004045328564964193,0.6111505549364908,0.8762544625983361,-0.004037814547167733,0.6125223692776122,0.8691964698078286,0.0,0.0,0.0,0.0
0.0004895311663707279,0.001261662010743769,0.7459342600446366,0.005778158061491937,-0.5534429430453024,0.008655333074936898,0.8328220739702644,0.0016641653987350229,0.3497215968001175,-0.8765533269150998,-0.003218063177421451,0.34973724237295756,-0.8724736424908162,-0.005266973197470409,0.6111658958891186,0.8775307958052949,-0.005250007258097817,0.6128996424091299,0.8683929216277357,0.0,0.0,0.0,0.0
0.000724072799101697,0.0015883413091928563,0.7459205984240035,0.00574224553763026,-0.5534223256643819,0.008704266263119107,0.8328355130643944,0.007178366689767684,0.3466299829134548,-0.8753170067499655,-0.004082255690759358,0.3505874475821446,-0.8737073034804398,-0.006543092595648522,0.611258909676764,0.878957629464545,-0.006513327204980894,0.6134945526513768,0.8675117235225754,0.0,0.0,0.0,0.0
0.0009665160997315136,0.001942858880243412,0.7459147676739264,0.005702757029668673,-0.5534158605632308,0.008766660438118702,0.832839426002445,0.012684648999550942,0.34376545421260024,-0.8749000577271704,-0.005042924729391865,0.3514270771720963,-0.8747815869598895,-0.00788939675665215,0.6114115918329724,0.8804351161542386,-0.00784320905733948,0.6142205999704826,0.8665055924582128,0.0,0.0,0.0,0.0
0.0012041318504253762,0.002309044655794921,0.7459132392640442,0.005662334148397031,-0.5534160279435352,0.008831361251439308,0.8328389070196222,0.017736761770522323,0.34111811621366867,-0.8748925861778687,-0.006037386914548602,0.3522093081935142,-0.8757001238993782,-0.009286636880379227,0.6115903516973676,0.8819190314866091,-0.009220209129304368,0.6149888820098002,0.865423203646628,0.0,0.0,0.0,0.0
0.0014343987765539235,0.0026754862446900607,0.7459133334723166,0.0056226360132471415,-0.5534191581436995,0.00889356270582233,0.8328364340650444,0.02231120773456111,0.338638903486348,-0.8750828341366083,-0.007028123179621217,0.35294067915729227,-0.8765179691617552,-0.01070567891763094,0.6117804594412056,0.8833871988918955,-0.010615312196411522,0.6157560408469707,0.864316386918339,0.0,0.0,0.0,0.0
0.0016593527205283729,0.0030369983155637274,0.7459136837924156,0.005584289026490297,-0.5534237768696334,0.008952172533521515,0.8328329949745921,0.02653611305549825,0.3362670679453139,-0.8753706332347228,-0.008000391928821456,0.3536440315145969,-0.8772903936731054,-0.012127334435181696,0.6119786966715339,0.8848332220636684,-0.012009584851659132,0.61650964531833,0.8632155527605093,0.0,0.0,0.0,0.0
0.0018826541499778137,0.003393561906934387,0.7459136677043574,0.0055471506749167525,-0.5534293064855104,0.009007840060989014,0.8328289684321701,0.030554117109797288,0.3339519588298865,-0.8757105229344567,-0.008955382152765355,0.35434241041876674,-0.878059099142073,-0.013547503987657444,0.6121858648926927,0.8862640663912977,-0.013399072002480982,0.6172527736380903,0.862130041176449,0.0,0.0,0.0,0.0
0.0021083387593500147,0.003748702440274397,0.745912817620301,0.00551057863464943,-0.5534353264824268,0.009061813813525048,0.832824625269216,0.03446936646220236,0.3316717952797271,-0.8760755520657777,-0.009903881911171829,0.35505426848697885,-0.8788533108674398,-0.014975502916236071,0.6124022707253388,0.8876979731266363,-0.014792945266837982,0.617993794996282,0.8610553412695642,0.0,0.0,0.0,0.0
0.00234037715474077,0.0041081685067015684,0.7459104097810527,0.005473623108318898,-0.5534411596378626,0.009115406821084304,0.8328204077874485,0.038337422101612485,0.3294535207535368,-0.8764307517891534,-0.010862007944936131,0.35579316080352275,-0.8796947227796265,-0.016430696575674263,0.6126252211153751,0.8891626843261844,-0.016210044096212496,0.6187405613848626,0.8599799728856647,0.0,0.0,0.0,0.0
0.002582490937894116,0.004479140193793559,0.7459053044568045,0.005435128511230231,-0.5534456814553639,0.009169829816122459,0.832817057508801,0.04217127103666348,0.3273953992453181,-0.8767094214922858,-0.011848997860012395,0.35656811828510093,-0.880600493282231,-0.017939711872723033,0.61284802945658,0.8906935513347729,-0.017676036826366814,0.6194979651124216,0.8588891800218491,0.0,0.0,0.0,0.0
0.0028379372105172378,0.004870006190080968,0.7458961653230277,0.005393744746545095,-0.5534474350429558,0.00922624200906467,0.8328155381717925,0.04594950120094797,0.3256842959221157,-0.87679241481372,-0.012886809758257081,0.35738280897960617,-0.881580503780253,-0.019535160900632585,0.6130611615007496,0.8923305152774733,-0.019222083667247137,0.6202690594920497,0.8577636693902482,0.0,0.0,0.0,0.0
0.0031091887588932574,0.005291000013905751,0.7458821585381521,0.005347717471359441,-0.553446220469161,0.009286060236211138,0.8328159773032316,0.04962074239188827,0.3245835854279215,-0.8765011346533764,-0.014002189703217715,0.3582314851328154,-0.8826191883519154,-0.021256654619814342,0.6132582061558118,0.8941172924999321,-0.020885705419927982,0.6210629698596549,0.8565747086579604,0.0,0.0,0.0,0.0
0.003414922988801707,0.005748664550502225,0.7458639422645418,0.005293443673725709,-0.5534430633191546,0.009352097558285269,0.832817683163154,0.053150700018453755,0.3243335691356388,-0.8755859946217754,-0.015214347127330574,0.3592143006116425,-0.8838581235784052,-0.023108338344428794,0.6134735514144478,0.8960815516652407,-0.022669472369680695,0.621933513177292,0.8553121567096496,0.0,0.0,0.0,0.0
0.0037732420111748675,0.006255385164085055,0.7458409313105471,0.005227311354133631,-0.5534379202597237,0.009427205378407865,0.8328206718335899,0.05651396473451248,0.3249346017088789,-0.8740423878092201,-0.01655701813562373,0.3604157586286383,-0.8854196498960483,-0.025126344703565753,0.6137305716958937,0.8982799038048584,-0.02460661362254508,0.6229271862841983,0.8539510417581001,0.0,0.0,0.0,0.0
0.00419710715757951,0.00683085696105036,0.7458114446440731,0.005145799362482515,-0.5534292098333525,0.009514385739432075,0.8328259763697056,0.05969681628807656,0.32614156291078555,-0.8721103751708185,-0.018082534224069535,0.36187417231804575,-0.8873580544155497,-0.027387297284784926,0.6140324788063308,0.9007961290228614,-0.02676854665045419,0.6240755774182377,0.8524381687077414,0.0,0.0,0.0,0.0
0.004703951205495587,0.007494708349363365,0.7457756720437617,0.005043653963054604,-0.5534163917163877,0.009618524099317103,0.8328339227772038,0.06271152378006747,0.32767099392498145,-0.8699521912232552,-0.019846293858920453,0.3636541601452101,-0.8897518373227562,-0.02995184826874412,0.6144017466341565,0.9036957576580408,-0.029209734888557732,0.625437874978135,0.8507083144704162,0.0,0.0,0.0,0.0
0.005315440555835715,0.008263978507243289,0.7457350800144877,0.004913776275233722,-0.5533988594188214,0.009746585107817162,0.8328448602683458,0.06560878308109369,0.3292924598035545,-0.867597175660059,-0.02190122510052156,0.3658498480950653,-0.892717221053944,-0.0328499144247341,0.6148745135047141,0.9070187793976066,-0.03195361045747482,0.6270940753032871,0.8486962918037091,0.0,0.0,0.0,0.0
0.006051280935896246,0.009150071483178448,0.7456924833834725,0.004747782288143417,-0.5533743861787757,0.009907339599103669,0.8328601874904789,0.06850519497223886,0.3308191545631022,-0.8649223058621953,-0.024290517244479663,0.36855379330178406,-0.896367492493704,-0.036067856651473024,0.6154868735633475,0.9107595441888249,-0.03498089783699783,0.6291282837855635,0.8463371449294504,0.0,0.0,0.0,0.0
0.006912355865572417,0.01015516086129382,0.7456531954221999,0.004537815470843913,-0.5533364942197512,0.010110050222358585,0.8328840971466853,0.0716052302215013,0.3320450619669964,-0.8616457335380683,-0.027037460561871486,0.371765171353725,-0.9006790018926948,-0.039541589205543515,0.6162444298349672,0.9148269866869325,-0.03822443100564296,0.6315926358947171,0.843544513093938,0.0,0.0,0.0,0.0
0.007833440779267621,0.01127678303482577,0.7456250778052591,0.004280044706048687,-0.5532793430636691,0.010361790014543423,0.8329203341641046,0.07512561207114495,0.33266774006550637,-0.8573801513638101,-0.030152159091773083,0.37509528351612237,-0.9050000060052023,-0.04320630166765511,0.6170380478374843,0.9190531681945084,-0.041618178707766455,0.6344212667200908,0.8401664053491645,0.0,0.0,0.0,0.0
0.008757492601157962,0.012454600601501588,0.7456131460504963,0.003971500579314642,-0.5531947958517276,0.01066788404996668,0.832974154026168,0.07941393601791506,0.33221291180683826,-0.8513710671845172,-0.033498993198252135,0.37832500596004254,-0.9090174109156084,-0.04668034830354821,0.6177552230238598,0.9231095478088115,-0.04480263270760054,0.6375050486971781,0.8363217466869803,0.0,0.0,0.0,0.0
0.009611939820881741,0.013531012667773405,0.7455713182679513,0.003614834840980624,-0.5530743644620372,0.011023476226192128,0.8330511168685129,0.08484254393052129,0.32984969912512035,-0.8424679195434475,-0.036686076955385165,0.381299588734425,-0.912819172136043,-0.04910365397233327,0.6179794007525374,0.9268633129140004,-0.04698648666988069,0.6403072571092572,0.8330681507546857,0.0,0.0,0.0,0.0
0.010270671843757535,0.014297828758811812,0.7454127830143167,0.0032128196003137544,-0.5528987561766568,0.011412440504366158,0.8331640891266593,0.09131436557937143,0.3240605567984298,-0.8289144749243417,-0.039171083294678645,0.383630361203689,-0.9163947516093253,-0.04935723392902386,0.616929334998181,0.9303882367007711,-0.04715755151684654,0.6418515345437381,0.8320649952433223,0.0,0.0,0.0,0.0
0.010583354787648453,0.014641017938900583,0.7451981967978736,0.002739700369810086,-0.5526496488767334,0.011821906867285887,0.8333253279220115,0.09722758940344943,0.31277421275669387,-0.8081503043088945,-0.04061351886739118,0.38472527173167775,-0.9187204523195507,-0.046651209974072745,0.6145345725049621,0.9326127463805846,-0.04460034712154546,0.6421052758004225,0.8330151611800227,0.0,0.0,0.0,0.0
0.01059813311200464,0.014661964011234239,0.7451948544781595,0.00272060055614905,-0.5526442567601296,0.0118262705799167,0.8333289045309952,0.09724125107154723,0.312775969140509,-0.8081379167621348,-0.04066488709191182,0.3847483932698832,-0.9187406613556109,-0.046653495708968616,0.6145150328998874,0.9326855784611919,-0.04458850600926843,0.6421485869325277,0.8329559655517621,0.0,0.0,0.0,0.0
0.01059813311200464,0.014661964011234239,0.7451948544781595,0.00272060055614905,-0.5526442567601296,0.0118262705799167,0.8333289045309952,0.09724125107154723,0.312775969140509,-0.8081379167621348,-0.04066488709191182,0.3847483932698832,-0.9187406613556109,-0.046653495708968616,0.6145150328998874,0.9326855784611919,-0.04458850600926843,0.6421485869325277,0.8329559655517621,0.0,0.0,0.0,0.0
0.010682560216308215,0.014992451044287886,0.7460254042131177,0.003283058602509029,-0.5526148643439279,0.01125280486985764,0.8333543109715792,0.09728089860746027,0.31465272068087974,-0.8064394894306641,-0.0405628994038316,0.38535528757340787,-0.9178799758444828,-0.054333757360207936,0.6209211174163193,0.9262508556026262,-0.03417758135755702,0.6343534556185345,0.8520298854077428,0.0,0.0,0.0,0.0
0.010788459976980585,0.01558633979662315,0.7470065767425992,0.0036616550798909057,-0.5526061392333583,0.010849962856347997,0.8333638613893057,0.09644104973027567,0.31752440831324136,-0.8064146060209116,-0.04134226561129441,0.3856471363618747,-0.9151405538929578,-0.06166790403141898,0.6277453999875277,0.918970031401726,-0.0240347412270375,0.6293209703494266,0.8657034817387674,0.0,0.0,0.0,0.0
0.010891238409607122,0.016359163778301152,0.7479252055081257,0.0038815259990815478,-0.5525962705063932,0.010602383521533644,0.8333725967668999,0.094955122253025,0.32087038286769787,-0.808041212018364,-0.04279100297896548,0.3854702067609955,-0.9113537636728654,-0.068396087753557,0.6337686864723476,0.9126144159837907,-0.016767805870751114,0.6256531957441975,0.8754835895526024,0.0,0.0,0.0,0.0
0.010997274298747596,0.017230250968950138,0.7487430257818416,0.003997155300500637,-0.5525764755420804,0.010466767670415976,0.8333868898666031,0.09307662987499668,0.32447027994752325,-0.8109366933119548,-0.04465575741572081,0.3849999216271767,-0.9071831933141721,-0.07456958102712168,0.6389049158481923,0.9073671101428261,-0.011549175505195571,0.6228297233828672,0.882985944902279,0.0,0.0,0.0,0.0
0.011098267140704944,0.018124648589982004,0.7494745374276308,0.004055042036893181,-0.5525525716036076,0.010386802000126172,0.8334034596715623,0.09106932878270763,0.3280497091676718,-0.8143479439135051,-0.04665854556318279,0.3843473491623074,-0.902914147531442,-0.08029483642667386,0.6433805086250939,0.9029382769139735,-0.0075281852925375235,0.6205864709400772,0.8891679328400507,0.0,0.0,0.0,0.0
0.011187579718678693,0.018995594105663392,0.7501319015642143,0.004083671330598108,-0.552525021484963,0.010336611300149118,0.8334222091643193,0.08907613827092203,0.3314351727502302,-0.8178238791368319,-0.048648546420743954,0.38358568716533553,-0.8987179960893669,-0.08558783726466906,0.6473270227189326,0.8990950008084603,-0.004022348463320797,0.6187181201118269,0.894615361479312,0.0,0.0,0.0,0.0
0.011261933790202686,0.019814616643241845,0.7507240967165899,0.004099840580088378,-0.5524949315088307,0.01029969645281594,0.8334425344420875,0.08718641190492028,0.3345303720792986,-0.8210967874232616,-0.05053248393178553,0.3827682054711064,-0.8947038826038919,-0.09045817540142977,0.6508374180098951,0.895683689344621,-0.0006611270791171825,0.6170801119422672,0.8996434909845334,0.0,0.0,0.0,0.0
0.011319734602333445,0.020567950222210328,0.7512561835753154,0.0041126619397543595,-0.5524633441809051,0.010267936363946403,0.8334638017520892,0.0854429275490902,0.33729187651041637,-0.8240373725989419,-0.05226633591524857,0.3819249752919524,-0.890928009194601,-0.09491579376426403,0.6539623060483641,0.8926278052299722,0.0027470816471162193,0.6155848325317639,0.904404902896815,0.0,0.0,0.0,0.0
0.011360429694581464,0.021251222408917053,0.7517294134606518,0.004127064281951073,-0.5524310889527343,0.010236912961344569,0.8334854917225197,0.08386192084235082,0.33970785552951055,-0.8266026420490253,-0.05383417292468213,0.3810690658296802,-0.8874186225524882,-0.09898383193624925,0.6567209772911706,0.8899151263089763,0.006297507326700197,0.6142073769739618,0.9089302568841415,0.0,0.0,0.0,0.0
0.01138366756239729,0.021866541823243657,0.7521402976188503,0.0041458763449802784,-0.5523986942416129,0.010204149217235883,0.8335072703031723,0.0824419804004704,0.34178268003697315,-0.8288066342447677,-0.055238676928255216,0.38019689640137366,-0.8841877480212458,-0.10270275606584882,0.6590994410160108,0.887599865262261,0.010059039832986566,0.6129942390443957,0.9131338967712366,0.0,0.0,0.0,0.0
0.01138868577048522,0.022421326687346803,0.7524795554901788,0.0041711128614724995,-0.5523662851935079,0.010168100270371664,0.8335290628021993,0.08116790003095704,0.34352856394677167,-0.8307070919055933,-0.0564970632371028,0.3792865380784484,-0.8812369859821951,-0.10613615027723072,0.6610458970997224,0.8858108032180705,0.014128956870016456,0.6120856217365964,0.9167803832858238,0.0,0.0,0.0,0.0
0.011374330522764008,0.022928068114671827,0.7527326865282343,0.004204620015706543,-0.5523335518294515,0.010127716292858635,0.8335510770532766,0.08001162425675114,0.34496507673865495,-0.8324007102538743,-0.05764000412542331,0.37829892416529187,-0.8785588555479025,-0.10937517694686372,0.6624754105851925,0.8847451880569719,0.01866830265824707,0.6117607887996014,0.9194062086156533,0.0,0.0,0.0,0.0
0.011340459878616186,0.023403124963264566,0.7528871903908398,0.0042473497751775715,-0.5523004490353133,0.010083420878286065,0.833573331290457,0.07893324429653618,0.34612840925645155,-0.8340077883292343,-0.05870989859688445,0.3771930633425734,-0.8761271619195392,-0.11252172707108368,0.6633140186550422,0.8845907982235326,0.023870993436765717,0.612492077416344,0.9202183080255237,0.0,0.0,0.0,0.0
0.011286181993903743,0.023859102477457927,0.7529493059230357,0.004298411675194592,-0.55226541467527,0.0100355754374499,0.83359685858109,0.07790232858483886,0.347053170531262,-0.835577767346937,-0.05973705595262212,0.3759435171639522,-0.8738730039945686,-0.11563938653776296,0.6635890276455522,0.8853202888744429,0.029699985602168074,0.6142724128888908,0.919204296354204,0.0,0.0,0.0,0.0
0.011209590184374686,0.024304583717359596,0.7529443829603891,0.004355273745491059,-0.5522251012011644,0.009984412082139422,0.833623884440303,0.07689859333929877,0.3477708540243691,-0.8370860645875072,-0.0607390505409447,0.37453964689614105,-0.8716840240360628,-0.11875154284637833,0.6634302479935219,0.8866848996649109,0.03590098722029702,0.616616993919559,0.9171429218092537,0.0,0.0,0.0,0.0
0.011109146481212917,0.02475071239964369,0.7529005281804168,0.004415190724149005,-0.5521757321584388,0.009931628593372608,0.8336569016445823,0.07589247525824676,0.3483236218868397,-0.838520618853965,-0.06174256966266244,0.37296876308217664,-0.869431097643453,-0.12188529753852469,0.6629800932316959,0.888411593748585,0.042289110917983354,0.6192353903454004,0.9145116104518876,0.0,0.0,0.0,0.0
0.010982583065569072,0.02520905525279804,0.7528421654131293,0.004477163850472644,-0.5521122246506186,0.00987636144915008,0.8336992886405307,0.07485804266398924,0.34874876934742133,-0.8398757499995264,-0.06277114406564091,0.37121083491120793,-0.8670002739079554,-0.12509165539846218,0.6623604535463262,0.890265719691528,0.04879414609287579,0.621978358128709,0.9115987252962681,0.0,0.0,0.0,0.0
0.010825975581898425,0.025691256178064437,0.7527890540843806,0.004542555324067877,-0.5520271937191922,0.009816426486504682,0.833755947718921,0.07377038210012116,0.34907196697695764,-0.8411510297462464,-0.06384783910600923,0.36923471044863543,-0.8642942776472707,-0.12843935476384233,0.6616607844487149,0.8920559284770642,0.05552563417714276,0.6247855800006423,0.9086155041867348,0.0,0.0,0.0,0.0
0.01063442488599275,0.02620601385925479,0.7527576225590159,0.004616947715700481,-0.5519099320037789,0.00974589687953274,0.8338339932165083,0.07261697705094718,0.34930499331038833,-0.8423384893742042,-0.0649841281322392,0.367011170450285,-0.8612613269957907,-0.13201875801491786,0.660951156103298,0.8936097959046587,0.06287491839554332,0.627667704137443,0.9057740196011025,0.0,0.0,0.0,0.0
0.01040377480589914,0.026754955761593445,0.7527623467250446,0.004713234097736808,-0.5517447506716745,0.00965221041564076,0.8339438532447395,0.07141204385013153,0.3494473312967858,-0.8434157229810569,-0.06616633416661698,0.3645363157912316,-0.8579466427077929,-0.13594815942797728,0.6602983893676587,0.8947445055974043,0.07172939011741152,0.6307158979588517,0.903360434592015,0.0,0.0,0.0,0.0
0.010134193730223813,0.027326338855849567,0.7528169752179567,0.004855336622881324,-0.5515087064110105,0.009512530793810587,0.8341007638271465,0.07021769321349618,0.3494942917430467,-0.8443494996215337,-0.06733606705965794,0.361872886422211,-0.8545801353344706,-0.14037455395705334,0.6597856988693257,0.8952321641651412,0.08376115369901027,0.6341229656438608,0.9018092797908085,0.0,0.0,0.0,0.0
0.009836236731530034,0.027885798223716216,0.7529321812212127,0.005077137691449832,-0.5511697957401862,0.009294469712767553,0.8343258906262839,0.06916684292091925,0.34945186380424514,-0.8451340312812397,-0.06837000911317612,0.35921114196031456,-0.8516968153514998,-0.1454093602746637,0.6595056550393185,0.8947914088347778,0.10146921209195504,0.6381352446926338,0.9017546550619923,0.0,0.0,0.0,0.0
0.009536253607238462,0.02836757956813618,0.7530878551456227,0.0053954725853478085,-0.5506927981326574,0.008979833896521685,0.8346422548275375,0.06845481334466146,0.34933280029506947,-0.8459377554804401,-0.06909180671036676,0.3568948611322156,-0.8501949778272274,-0.1508170711145287,0.659359381660166,0.8933443271143919,0.1266481125940216,0.6426268913879536,0.9039274801001176,0.0,0.0,0.0,0.0
0.00925387029585753,0.028701178900908134,0.7530745127810765,0.005669926227329724,-0.5501023595715634,0.008687986122221363,0.8350327926659619,0.06811122380447626,0.3489630139684481,-0.8475425205049938,-0.06949727247603471,0.35501899707367324,-0.8506235207838795,-0.15485929316790034,0.6579028257322344,0.8928119523301881,0.15306314933876813,0.6452461147572818,0.9087984484130525,0.0,0.0,0.0,0.0
0.009252222733472463,0.028704677734608164,0.7530733741363748,0.0056734877263907866,-0.5500987404709828,0.008682779962586831,0.8350352068035084,0.06811254598693167,0.34896103464444567,-0.8475505857288761,-0.06949581246665341,0.3550003797363245,-0.8506250566604356,-0.15487884791019857,0.657890147423677,0.8927962857532621,0.15307739392701175,0.6452539129312201,0.9088034257377535,0.0,0.0,0.0,0.0
0.009252222733472463,0.028704677734608164,0.7530733741363748,0.0056734877263907866,-0.5500987404709828,0.008682779962586831,0.8350352068035084,0.06811254598693167,0.34896103464444567,-0.8475505857288761,-0.06949581246665341,0.3550003797363245,-0.8506250566604356,-0.15487884791019857,0.657890147423677,0.8927962857532621,0.15307739392701175,0.6452539129312201,0.9088034257377535,0.0,0.0,0.0,0.0
0.009309096621472987,0.02883037073022092,0.7531601186828635,0.005707257415031,-0.5505376299071737,0.008662925823503562,0.8347458888698804,0.06777952053889078,0.34923364265894297,-0.845591968550842,-0.06972998512673972,0.3546932036626539,-0.8476988158950427,-0.15645841505610902,0.6597113882570308,0.8936237176624574,0.1527265217684238,0.6469730833821153,0.9088690883402747,0.0,0.0,0.0,0.0
0.009378630521420435,0.029002668572819294,0.75321788167384,0.005712858943956792,-0.5508301246245966,0.008662617669790658,0.8345528719642902,0.06733783982304042,0.3498359965914061,-0.8450692319946549,-0.07011617641850608,0.3544687384792233,-0.8456125649951679,-0.15790588492425098,0.6609641036547345,0.8944485722941113,0.15217196215578624,0.6482441167401741,0.9086754146015599,0.0,0.0,0.0,0.0
0.009433578938670936,0.0291943876943338,0.7532377471807191,0.005702250867993477,-0.5510131516422326,0.008675052185613447,0.8344319831609459,0.06684790408523267,0.3504897230595375,-0.8453505214627742,-0.07057722208044738,0.3541882505946234,-0.8440498232551501,-0.15918077024667437,0.6616487260136569,0.8953811502703956,0.15149918019114408,0.6490214984677386,0.9084832599351186,0.0,0.0,0.0,0.0
0.009477130347236263,0.029417395386987705,0.75322022585562,0.005680186805086902,-0.5511282565475987,0.008696818482909058,0.8343558866940047,0.06628020190120787,0.3512016250717543,-0.8462458051678389,-0.07113337261685966,0.3538062466259836,-0.8427421442595107,-0.16044518015236925,0.6618910005998574,0.8965801750096647,0.150660012638403,0.6494148269300479,0.9083763170780403,0.0,0.0,0.0,0.0
0.009524771677077307,0.029699253333031854,0.753161700051745,0.005646524664931628,-0.5512053218757521,0.008727888900679453,0.8343048806344082,0.06556838973112883,0.3521030582752532,-0.8478594848276308,-0.07184881259120765,0.3533229602705684,-0.8415434356270577,-0.16191018674843807,0.661783980904527,0.8982619764205844,0.14955568802082206,0.6495217259398851,0.9084079710247411,0.0,0.0,0.0,0.0
0.009613623053203768,0.03007079839019309,0.7530600730465651,0.005600325248710011,-0.5512704327684911,0.008766299042236398,0.8342617684596672,0.06464787492595327,0.3534702603655586,-0.8505400346865981,-0.07279303000695231,0.3528690223614928,-0.8405290653947131,-0.16382755216115966,0.6614753222447085,0.9006371076361365,0.1480756788405426,0.6494860147034344,0.9086075394479304,0.0,0.0,0.0,0.0
0.009854936539230273,0.030533228419596707,0.7529660513873373,0.005607696566012003,-0.5513645634316798,0.008751024488375997,0.834199671242695,0.06361156002908165,0.3559551332775928,-0.8547481815342158,-0.07389086570627422,0.35314414870848343,-0.8406138217923731,-0.1670361373692035,0.661804427418447,0.9034143307282202,0.14566431675310573,0.6497771806050394,0.9086057024598253,0.0,0.0,0.0,0.0
0.010076894853651732,0.031095439740993994,0.7530221408062032,0.00599202084941929,-0.5515647506373971,0.008382210193027342,0.8340684384945434,0.0627975152617904,0.35845332018951714,-0.8568526575409822,-0.07472141250026326,0.3531478726004773,-0.8401656894600095,-0.1336996570462842,0.6541530282872751,0.8993662720192486,0.13877751868910146,0.6501280544169369,0.906776689604077,0.0,0.0,0.0,0.0
0.010318052503273759,0.031754974349322826,0.7529958631806031,0.006378337788463057,-0.5517780392226215,0.00801284626202222,0.8339281183252406,0.06175489561032149,0.3612389574244305,-0.8597505220382544,-0.07579167839808369,0.35297648040310786,-0.8396425729855614,-0.10407648661277677,0.6466142243201354,0.8973721143531797,0.1313535703749641,0.6500911262676724,0.9055032409372183,0.0,0.0,0.0,0.0
0.010557898680958583,0.032437381393291255,0.7529930331965984,0.006631790319850672,-0.5519431568940056,0.007766927367964989,0.8338191924837742,0.060490187955380206,0.36416118347742127,-0.8633970468220991,-0.07708781924789783,0.35276300216781153,-0.8387962269245588,-0.08418294591972764,0.6409083714086804,0.897453178688214,0.12509494435512955,0.650408690932724,0.903844199465895,0.0,0.0,0.0,0.0
0.010771648587952043,0.03308363435949977,0.7530185409941578,0.006786962871799875,-0.5520626816415696,0.007615202592669887,0.8337402121543427,0.05917721462129506,0.3669098135972447,-0.8671249671297911,-0.07842846470353161,0.3525010520630081,-0.8377163466128148,-0.07120288689588881,0.6365882630415283,0.8989481192477429,0.11999143532281716,0.6509742619543297,0.9019127193036746,0.0,0.0,0.0,0.0
0.010951090418913784,0.03366992992040676,0.7530696741168141,0.006889367898514064,-0.552150030772168,0.00751552494264945,0.8336824317526964,0.05792821390227607,0.36935180660556177,-0.8705217521540525,-0.07969721545325938,0.3521940386947866,-0.8364998197007858,-0.06198921264617227,0.6330301067283525,0.9012674549522668,0.11572622576074021,0.6516680271886144,0.8998189925356526,0.0,0.0,0.0,0.0
0.011097918204343245,0.034195009333090456,0.7531439120471168,0.006968332848769215,-0.5522158311326564,0.0074405813429886496,0.8336388642170282,0.05678353919322904,0.37147961944029784,-0.8734514952772878,-0.08085296805915711,0.3518532320932996,-0.835208631953675,-0.054528856290233116,0.6298219433430031,0.9040079141437506,0.11201952785803013,0.6524287120646685,0.8976069399662298,0.0,0.0,0.0,0.0
0.01121719880904516,0.034668765957674076,0.7532359665868201,0.007038855671692211,-0.552267146051463,0.0073760008345308955,0.8336048515422005,0.05574049872796465,0.37333809142204855,-0.8759382726155207,-0.08189953662145133,0.35148205125761445,-0.8338727377106911,-0.04777109666258195,0.6267527716062146,0.906915265093418,0.1086711936280033,0.6532161178899267,0.8953135056042206,0.0,0.0,0.0,0.0
0.01131399463361072,0.035105899747685035,0.7533364564680962,0.007107219641095683,-0.5523086493961467,0.007315257067214156,0.833577309099293,0.05477465659152965,0.3749837974974797,-0.8780800377662993,-0.08286319103587493,0.35106921778458466,-0.8324984276643811,-0.04124493937891042,0.6237404811794579,0.9098218160278697,0.10554001698077294,0.6539841531821725,0.8930006798178105,0.0,0.0,0.0,0.0
0.011391925876582,0.03552250641816761,0.7534315597788616,0.007175157171814413,-0.5523435319507899,0.007255521387257794,0.8335541357590912,0.053853643418776284,0.3764661235739433,-0.880000716649469,-0.08377831783160884,0.3505879331669341,-0.8310786043864388,-0.0347897188761909,0.6207836222964083,0.9125897656380828,0.10251936896714411,0.6546657706445751,0.8907691824040851,0.0,0.0,0.0,0.0
0.011453110107602329,0.035934971112722536,0.7535028923764328,0.0072418293530400624,-0.5523741982253246,0.007196683490903716,0.8335337478406516,0.05294031585651468,0.3778231717339762,-0.8818359672038828,-0.0846841549001116,0.3499982707731825,-0.8295987016915694,-0.02840314063964699,0.6179506721195118,0.9150516353717026,0.09952840530149583,0.655169666276452,0.8887652793955392,0.0,0.0,0.0,0.0
0.011498192231821441,0.036357995793225885,0.7535267730455188,0.007304767443084123,-0.5524026030320363,0.0071403120767363475,0.8335148591833741,0.05199913432613689,0.3790764365313228,-0.8837218128663376,-0.0856185234725819,0.3492517041462462,-0.828049610807074,-0.02219028502953907,0.6153981208510336,0.9169411402643273,0.09651334698511695,0.6553736675699043,0.8871953035562377,0.0,0.0,0.0,0.0
0.011526618711774139,0.03680201436184382,0.7534747489842376,0.00736050473602561,-0.5524304145527238,0.0070881817031427695,0.8334963813522407,0.051005250513221634,0.38022660373785233,-0.8857801402368026,-0.08660883466294521,0.34829934477967694,-0.8264431480754858,-0.016360417452726525,0.6134162635038344,0.9177963372291489,0.0934512471027849,0.6551250497041887,0.8863279354971754,0.0,0.0,0.0,0.0
0.011538499815475167,0.037273531601191304,0.7533213616642472,0.007405894698177573,-0.5524597865308306,0.007041085835716438,0.833476910358219,0.049945029651108704,0.3812697344939405,-0.8881064731498695,-0.0876710127043144,0.34710692153246664,-0.8248050025394212,-0.011172815331955861,0.6124868743384346,0.9168427448163832,0.0903342691529067,0.6542880437230122,0.8864139897848745,0.0,0.0,0.0,0.0
0.011532787160158969,0.03778233363094838,0.7530613006444705,0.00744038430755719,-0.5524909413723355,0.006999211751688042,0.8334563044441631,0.04879472581379466,0.3822162418504367,-0.8907455357350793,-0.08882846094540536,0.3456390224520498,-0.8230895094633571,-0.0066593859118932435,0.6126185445744448,0.9140899270918256,0.08711015030618251,0.6528326762884449,0.8874744771696976,0.0,0.0,0.0,0.0
0.011507502634257514,0.038341260871357946,0.7527090849081192,0.007466247046615149,-0.5525221478763482,0.006961883366456298,0.8334356984441798,0.04752150330658394,0.3830916452286674,-0.8936928597501688,-0.09011111584543237,0.3438605124104724,-0.8211841928304229,-0.002616529159668069,0.6133467090714736,0.9103198086214225,0.08368254587445852,0.6508336255907496,0.889303361683266,0.0,0.0,0.0,0.0
0.011461928618608957,0.03895814359746827,0.752281719989007,0.0074867606363629435,-0.5525520750826726,0.006926759581818948,0.8334159662129722,0.04610754005132385,0.38391802236798644,-0.8969190864084116,-0.09153391823734344,0.341756772487036,-0.8190052268953673,0.0011309362015682924,0.6144008787163467,0.9059787357693103,0.07997161884066563,0.6483797795837307,0.8916838143709557,0.0,0.0,0.0,0.0
0.011395270601894046,0.03963404698257588,0.7517911109294472,0.007505511093241002,-0.5525791557970388,0.0068908591287248164,0.8333981401121131,0.0445528800790351,0.3846977687573932,-0.9003789143993073,-0.09309481088371864,0.33932633478232815,-0.8165175361151723,0.004702132466512346,0.6156536280161878,0.9012801178788981,0.07593332483801576,0.6455274280898372,0.8944728252498062,0.0,0.0,0.0,0.0
0.011306663225601003,0.04036252667252805,0.7512434436159019,0.007527298908891923,-0.552601488325283,0.0068498624644643515,0.8333834737118538,0.04287821615637499,0.38541177577977515,-0.9040084789346121,-0.09477227306275145,0.336583391053464,-0.8137448962037294,0.008199419571694292,0.6170759284686779,0.8962799032001878,0.07155487076808413,0.6422939708610458,0.8976094163111714,0.0,0.0,0.0,0.0
0.01119573246331868,0.04112782584574932,0.7506402260895502,0.0075597688647817095,-0.5526167567291526,0.0067966181509365245,0.8333734913342121,0.04113150362466986,0.3860196848278448,-0.9077164227542699,-0.09651914083377326,0.33356788186023495,-0.8107888331777326,0.011764726745007151,0.6187114073393383,0.8909030924608364,0.06684811554810284,0.6386603661344741,0.9011080906799527,0.0,0.0,0.0,0.0
0.011063107285876133,0.041901138486917726,0.7499787999949585,0.007616144414334076,-0.5526218826592166,0.0067169321751105035,0.8333702250336269,0.03940480386452605,0.38645594999559385,-0.9113646494798018,-0.09824662584424503,0.33036072967685637,-0.8078671297165212,0.01563073938625997,0.6206589761452173,0.8849313009592131,0.06183419224081841,0.6345634512716187,0.9050604731445329,0.0,0.0,0.0,0.0
0.010911906882432102,0.0426385731794658,0.7492536571918016,0.007718416144384701,-0.5526117442046933,0.006585492675212976,0.8333770560229585,0.037846690628525234,0.3866371929081512,-0.9147690670135035,-0.09981325275354198,0.32710336052391553,-0.8053600827671247,0.020181633282718343,0.6230639405587821,0.877940935618113,0.05651688409881929,0.6298926954371558,0.9096208745556934,0.0,0.0,0.0,0.0
0.01074485936210147,0.043280876202698576,0.7484641386062101,0.007901275375382743,-0.5525775740660968,0.006358038390286989,0.8333997659193919,0.03667782054390378,0.38645418457660397,-0.917645649107322,-0.10100845405771552,0.32398822951945627,-0.8037923647917141,0.025930487981947095,0.6261207594499194,0.8691981635458386,0.050821841202596446,0.6245057031849381,0.9149135072540512,0.0,0.0,0.0,0.0
0.010558541802194756,0.04376429140704615,0.7476535917802886,0.008206892793185145,-0.5525212797970527,0.005997562343099366,0.8334368071593963,0.03610437808535882,0.38577919858678156,-0.919452109038054,-0.10162705504349484,0.32120138938963155,-0.8034553917075901,0.0333254947861817,0.6302136562377272,0.8574786394183352,0.044696559601575335,0.6185242069900062,0.9206668858411435,0.0,0.0,0.0,0.0
0.010415157029558713,0.04402962677958651,0.7469968495475132,0.008656542031708988,-0.5524601691416502,0.005485363013506756,0.8334762963543969,0.03629743315095954,0.3849848136018919,-0.9198979023458255,-0.1014958134925861,0.319392772045255,-0.8047339919467187,0.040332676648949656,0.6364485532808619,0.841720953987928,0.0382844929474655,0.6130361261047469,0.9254052597707076,0.0,0.0,0.0,0.0
0.01041635786644385,0.04403491734740118,0.746989819714606,0.008657932422955393,-0.5524619989163732,0.005483623643950964,0.8334750805100392,0.03628852377503316,0.3849869208711926,-0.9199199224068124,-0.10150348340727658,0.31936586720462606,-0.8047086167472799,0.040336612006007494,0.6364481649278625,0.8417159657613664,0.03826809780858811,0.613016653369227,0.9254064070397434,0.0,0.0,0.0,0.0
0.01041635786644385,0.04403491734740118,0.746989819714606,0.008657932422955393,-0.5524619989163732,0.005483623643950964,0.8334750805100392,0.03628852377503316,0.3849869208711926,-0.9199199224068124,-0.10150348340727658,0.31936586720462606,-0.8047086167472799,0.040336612006007494,0.6364481649278625,0.8417159657613664,0.03826809780858811,0.613016653369227,0.9254064070397434,0.0,0.0,0.0,0.0
0.01008278925561967,0.044322196886449554,0.7472146334218867,0.008214736152585368,-0.5528360351617913,0.005917312996224478,0.8332285531253948,0.03486262008951057,0.38362444650229127,-0.9165404517093249,-0.0938046745091871,0.33122401008325375,-0.8270231870434231,0.043152829485636285,0.6364825893857887,0.8407727706712386,0.04124018030642853,0.6157779400010979,0.9235020266901308,0.0,0.0,0.0,0.0
0.009379165432746443,0.04507128316528998,0.7473782281924857,0.007850302098992469,-0.5530693643340727,0.006318074631286564,0.8330742661521917,0.032296677635065635,0.38114077421681175,-0.9124262564983607,-0.08537592522047222,0.33700245101554105,-0.8412006028268326,0.04284009486259406,0.6350691680754142,0.8418380710861582,0.04089036970074214,0.6169977395879015,0.9199468758945593,0.0,0.0,0.0,0.0
0.008463635587401788,0.04616183059138337,0.747441757675864,0.007530448972184974,-0.5532038479257437,0.006665187710564626,0.8329852161060308,0.028984138235200123,0.3781273914531758,-0.9083945444059016,-0.07850286173852532,0.33917616253432115,-0.8502012416798594,0.040188207389099714,0.6324320956959428,0.8450293763957005,0.03804011414410309,0.6169060267873548,0.9157089520619822,0.0,0.0,0.0,0.0
0.007463620285924209,0.04741854409074498,0.7474423149008235,0.007244874765108977,-0.5532867564012621,0.00695948585534573,0.8329302747152595,0.02537009533389018,0.37492839681287987,-0.9045143192395768,-0.07351768515612327,0.3394125155759937,-0.8561516879126088,0.036235423333772235,0.6292243751287759,0.8493831330023126,0.03382938193473635,0.616113070065607,0.911201576216219,0.0,0.0,0.0,0.0
0.006462554262287937,0.048636618563079576,0.7474601858624883,0.007001503309909344,-0.5533369857325647,0.007198560386196361,0.832896956351845,0.021956132140559564,0.37163146253883345,-0.9003678668288733,-0.06977552814009862,0.338601757082563,-0.8602422142440878,0.03202205173634948,0.6262479564841597,0.8532918509381084,0.029390587620994297,0.6152531371419986,0.9064198584306165,0.0,0.0,0.0,0.0
0.005514692830452022,0.04972628055791533,0.747491809098432,0.006799884933074507,-0.5533694631317683,0.0073906092281948,0.8328753674670608,0.018944855435636208,0.3683524240227663,-0.8960477105023369,-0.06667433927174055,0.3372122325346865,-0.8633179227999328,0.028074786893525782,0.6236323357943836,0.8565128311981767,0.025276483957265644,0.6144436465370353,0.9018092285328944,0.0,0.0,0.0,0.0
0.004703580340946298,0.05067939909954458,0.7475269945900073,0.006636051114552322,-0.5533886105793022,0.007544685830098698,0.8328625854379818,0.01634307181834087,0.3655708655554963,-0.8923664826871619,-0.06386976645070012,0.3355306112946289,-0.8657998138743354,0.024515601293311984,0.6214592437146296,0.8592035491492369,0.021598902128940226,0.6138076151657944,0.8976115188257395,0.0,0.0,0.0,0.0
0.004035178368491387,0.051495305594185165,0.7475601794866468,0.006504401754563292,-0.5534027327303684,0.00767001956324008,0.8328530956683028,0.01413159478214373,0.3633259223241563,-0.889400246034326,-0.06107569960461439,0.3337241067282313,-0.8680033836852652,0.021413156138671594,0.6196935745639636,0.8614610324574383,0.018415529571364945,0.6133431120387025,0.8939511574498236,0.0,0.0,0.0,0.0
0.0034901402100707907,0.05218604901737929,0.747589338519466,0.006398816418327626,-0.5534150658247216,0.007774208558579591,0.8328447524886924,0.012263823776832938,0.36153572237833786,-0.8870432540199252,-0.05814303545490429,0.3319129038571602,-0.8700995287702316,0.018759784986617286,0.6182621939059127,0.8633584094295497,0.015707660593404067,0.6130117774768216,0.890829472439766,0.0,0.0,0.0,0.0
0.0030433535114907095,0.05277073849174264,0.7476136407846773,0.006313626709998894,-0.5534262182916831,0.007863015769483452,0.8328371581576688,0.010680892668826407,0.3600971890410375,-0.8851613800944782,-0.05501839038310186,0.3302394468570755,-0.8721259708694489,0.016502052141355528,0.6170856097165676,0.864967349690066,0.013413013316974521,0.6127703126122773,0.8881879837201319,0.0,0.0,0.0,0.0
0.002672005425614092,0.053270710794898556,0.7476325020296279,0.006244148128093128,-0.5534356029611692,0.007940560897305146,0.8328307099776026,0.00932270154866537,0.35892341283310386,-0.8836469284795828,-0.05169449518620002,0.32891301468719847,-0.8739961403313705,0.014565322354364776,0.616092281307754,0.8663604143861453,0.011450703371356754,0.6125813687121856,0.8859476780899066,0.0,0.0,0.0,0.0
0.002359098816977239,0.05370722626654418,0.7476459891177937,0.006186802330345921,-0.5534426089097194,0.00800964102471013,0.8328258207877466,0.008132470059667095,0.3579606504358745,-0.8824385896891199,-0.048181229617368156,0.32821094254023325,-0.8755051969717139,0.012866331793107415,0.615230121288196,0.8676054710859918,0.009733291388589787,0.6124231034276423,0.8840221607715046,0.0,0.0,0.0,0.0
0.002093421158142883,0.05410010053236887,0.7476558389053714,0.00613897474894769,-0.5534478474815345,0.008072047809685534,0.832822090936141,0.007059111032272424,0.35718596924236906,-0.8815079525659686,-0.044500960407828735,0.3283781388946724,-0.8763689767755549,0.011321767635893884,0.6144744823174775,0.8687546147623576,0.008174790123853859,0.6122963897815537,0.8823179920191847,0.0,0.0,0.0,0.0
0.0018615824011141903,0.054461596395269395,0.7476625187067264,0.006098364747203741,-0.5534508217207805,0.008129362337943249,0.83281985528203,0.00607010870691433,0.35654630191357617,-0.8807828277882809,-0.04068294351802885,0.329409628757743,-0.8765741406803745,0.009884593776878333,0.6137909149102105,0.8698377795232782,0.006727113723586564,0.6121857616012635,0.8807752065993472,0.0,0.0,0.0,0.0
0.0016447652248812827,0.05479510022489784,0.7476652568705245,0.006062860531208919,-0.5534509146161853,0.008183231381077532,0.8328195252014994,0.005153902446233146,0.35593528580959877,-0.8801048647889845,-0.036748630483586106,0.33105456756488094,-0.8763936087684475,0.008552487349007246,0.6131308310423808,0.8708580742502395,0.005387861053065324,0.6120548065028458,0.8793731762308356,0.0,0.0,0.0,0.0
0.0014385622495598866,0.05510616694156332,0.7476648088455772,0.006031027114835208,-0.5534479995027559,0.0082347105616841,0.832821186150006,0.004295496896925264,0.35533903066396827,-0.879455901923228,-0.032731543366533666,0.33304153264401987,-0.8760207790853513,0.007308388321453363,0.6124842208447013,0.8718241972658483,0.004139422344642169,0.6119044903699256,0.8780810972723658,0.0,0.0,0.0,0.0
0.0012410550507639053,0.055398085514782064,0.7476626085860698,0.006002034541968162,-0.5534429256312596,0.008284557355033782,0.8328242730369355,0.0034856961623332084,0.35475344993642394,-0.878823631620678,-0.02863971673735003,0.3351837953051484,-0.8755703165846239,0.0061428993789850814,0.6118539689217203,0.8727343521503275,0.0029719726555751465,0.6117446227867579,0.8768742344489867,0.0,0.0,0.0,0.0
0.001050029577368406,0.05567092630470963,0.7476601347028231,0.005975625389470802,-0.5534363413418435,0.008333212390566292,0.8328283529963499,0.002723341387812732,0.35416590757533517,-0.8781796441524813,-0.024452165935683758,0.33738805066233934,-0.8750965867142131,0.005058712048209658,0.6112447035270656,0.8735735973288568,0.0018879015685942396,0.6115817689397495,0.8757379792065224,0.0,0.0,0.0,0.0
0.000863314730669832,0.05592122599940491,0.7476588661476306,0.005952112501009967,-0.5534283968631621,0.008380686541917249,0.8328333242584207,0.002016369922091853,0.35355688844016864,-0.8774833990036918,-0.02012751233805131,0.3396297791999002,-0.8746151222003207,0.004071827255117298,0.6106628324318791,0.8743126802191677,0.0009029239186063083,0.6114186354090547,0.87466887501487,0.0,0.0,0.0,0.0
0.0006792689458008839,0.056141515337224425,0.7476607071446864,0.005932368582675502,-0.5534189981096379,0.008426330339361137,0.8328392500905176,0.001383523551035627,0.352902172872401,-0.8766822219286946,-0.015624667775948177,0.34191910785138835,-0.8741245296842411,0.0032131576635088155,0.6101210091729091,0.8749033492477193,4.7580114376181244e-05,0.6112573918150915,0.873673081269777,0.0,0.0,0.0,0.0
0.0004976894185148654,0.05632034000909759,0.7476686812995748,0.005917714563643411,-0.5534082935104078,0.008468453909871377,0.8328460401638577,0.0008553130098363066,0.3521787118536638,-0.8757152695617547,-0.010949031087813466,0.3442612494077816,-0.8736292199217666,0.0025274762073486433,0.6096454333689943,0.8752739592535846,-0.0006338956350493726,0.611105953553597,0.8727611457497197,0.0,0.0,0.0,0.0
0.0003215357499357759,0.05644380653405203,0.7476875547499977,0.0059095276712874895,-0.553397356324176,0.008503878366989966,0.8328530047666483,0.0004717232831397775,0.3513785644513066,-0.8745309997043774,-0.006240638076116744,0.34660653328935215,-0.8731689247426346,0.002065713854294647,0.6092839513256504,0.8753327966193735,-0.0010912831116090577,0.610986717984672,0.8719390430193329,0.0,0.0,0.0,0.0
0.00015983274862404803,0.056500427731556654,0.7477230855716905,0.0059082598619157765,-0.553389094776589,0.008527764224797845,0.832858258940306,0.000271837389775993,0.3505358672304363,-0.8731332011150739,-0.0019155519990758842,0.3487870675073703,-0.8728631899930147,0.001864678446876104,0.6091064524468315,0.8749991258229499,-0.0012885390829964344,0.6109425690506481,0.8712031217175195,0.0,0.0,0.0,0.0
3.145576688233197e-05,0.0564918382336894,0.7477732486991325,0.00591111933179035,-0.5533918722228087,0.008535256354799856,0.8328563164345563,0.0002661752502174107,0.3497630622087143,-0.8716689698477852,0.0011508789714977001,0.3504453771762121,-0.8729618879086212,0.001912002275944677,0.6091582924915337,0.8743457006135716,-0.0012387499486865422,0.6110098355275754,0.8706074371264121,0.0,0.0,0.0,0.0
3.140269587371416e-05,0.05649190780953462,0.7477730337093955,0.005911480783402518,-0.5533914101107154,0.008535663491084528,0.8328566167470776,0.00026484794169609737,0.3497615783299686,-0.871669467426515,0.001154844049519254,0.3504492215974104,-0.8729596095096088,0.001911691770456938,0.6091562127111868,0.8743453017708372,-0.0012388672849706133,0.6110086664810686,0.8706071549806439,0.0,0.0,0.0,0.0
3.140269587371416e-05,0.05649190780953462,0.7477730337093955,0.005911480783402518,-0.5533914101107154,0.008535663491084528,0.8328566167470776,0.00026484794169609737,0.3497615783299686,-0.871669467426515,0.001154844049519254,0.3504492215974104,-0.8729596095096088,0.001911691770456938,0.6091562127111868,0.8743453017708372,-0.0012388672849706133,0.6110086664810686,0.8706071549806439,0.0,0.0,0.0,0.0
3.140269587371416e-05,0.05649190780953462,0.7477730337093955,0.005911480783402518,-0.5533914101107154,0.008535663491084528,0.8328566167470776,0.00026484794169609737,0.3497615783299686,-0.871669467426515,0.001154844049519254,0.3504492215974104,-0.8729596095096088,0.001911691770456938,0.6091562127111868,0.8743453017708372,-0.0012388672849706133,0.6110086664810686,0.8706071549806439,0.0,0.0,0.0,0.0
6.563988050874401e-05,0.05655258523155195,0.7477774644620379,0.005913666020978769,-0.5534060749472769,0.008530593080959822,0.8328469089498551,0.00013006904874854713,0.3500897041297803,-0.8721368833659566,0.001020002184165645,0.35053884933296764,-0.8729910218692098,0.0015710218692710208,0.6092647587700216,0.8746092204551598,-0.0015798705115724172,0.6111483506666865,0.8704032465161645,0.0,0.0,0.0,0.0
0.00010852146609951336,0.05664447499872,0.7477804801341796,0.00591140419482742,-0.5534221628930683,0.008529033175800962,0.8328362507193653,-8.424650520003749e-05,0.3505353429747867,-0.8728220185774269,0.0008056772414230998,0.3506211808273401,-0.8729815850734611,0.001108802968648801,0.6093616223722252,0.8750127546813995,-0.0020421399383223657,0.6113240028472192,0.8701136242746917,0.0,0.0,0.0,0.0
0.00015661981321508778,0.05676877418467497,0.7477812503239696,0.0059072158097261684,-0.5534377846398335,0.008528837006910683,0.8328259015386349,-0.0003782517984391926,0.3510801729511456,-0.8737020269571465,0.0005117405971640455,0.35067404405771035,-0.8729130876240299,0.0004953482225501717,0.6094377754884932,0.8755631507969645,-0.0026548921569501563,0.6115148463112746,0.8697298322216989,0.0,0.0,0.0,0.0
0.00020982767968501828,0.056943022329825434,0.7477792257856548,0.005901420875565865,-0.5534503289334431,0.008529631412079897,0.8328175982909386,-0.0007937573102755075,0.351761923111356,-0.8748618796126801,9.64451337495002e-05,0.3506660705188278,-0.8727404495903788,-0.0003639231463095135,0.6094791366242298,0.8763247212873704,-0.00351182202103531,0.6117195871786689,0.8691819857371672,0.0,0.0,0.0,0.0
0.00026711943638724276,0.05720362227150083,0.7477738866180074,0.005893150014204202,-0.5534551056314132,0.008532679151129543,0.8328144512554613,-0.0014211253501680667,0.3526537889249137,-0.8764684871292467,-0.0005303959378309199,0.35052687275627326,-0.8723507658230589,-0.0016484840407109506,0.6094550657945309,0.8774232281020028,-0.00479028092518433,0.6119442907992075,0.8683225641787008,0.0,0.0,0.0,0.0
0.0003573325296160874,0.05759759815235777,0.7477713835295456,0.005872498131610485,-0.5534523151251927,0.008548439654142523,0.8328162899630014,-0.0023892847122628453,0.3540339612839628,-0.8789999064705891,-0.0014971969107592763,0.35035068098339334,-0.8718176171997226,-0.003502724516223315,0.6094133319018825,0.8789798684895203,-0.006631124951856544,0.6123317413515684,0.8669487559930404,0.0,0.0,0.0,0.0
0.0005054643393856311,0.058183022276885016,0.7478143246366094,0.005789470216083561,-0.553530373323832,0.008709151159950183,0.8327633268394264,-0.004107777133884908,0.3561035085068624,-0.8824664263217322,-0.0032122072924661168,0.3501548438156205,-0.8702826957705461,-0.005382187628542729,0.6095457386849035,0.880892526192601,-0.008492338610838297,0.613663003433041,0.8648513767552038,0.0,0.0,0.0,0.0
0.0009172952990802946,0.058656004212345535,0.7477798680964419,0.005728869721920574,-0.5534647147297544,0.008735235882003601,0.8328071116740697,0.004129050529848131,0.351416899046228,-0.8767318121427313,-0.004346055479229549,0.35183967468953825,-0.8730943831449162,-0.00738031883625357,0.6097295071800081,0.8830982993708929,-0.010463875004232077,0.6144414506485636,0.863623047995547,0.0,0.0,0.0,0.0
0.0013859992228969214,0.05922226068860965,0.7477496686033375,0.005653947884933432,-0.5534366865460102,0.008830848088997546,0.832825241560507,0.01493471730579426,0.34727504277882704,-0.8731346415818413,-0.005857172868918613,0.3536762201448384,-0.875774281882374,-0.009489743799205488,0.6099777892234725,0.8856685898494816,-0.012539337432396096,0.615605922372059,0.8622360147305838,0.0,0.0,0.0,0.0
0.0018664237625440217,0.059871046198824295,0.7477265693760738,0.005570407049581242,-0.5534233464695688,0.008957188728569184,0.832833320009356,0.02574228864497039,0.3436547227220379,-0.870841873816954,-0.0076353772145865174,0.355416235373762,-0.8780879355261763,-0.011863363798956406,0.6102509238802308,0.8884691975468527,-0.01486658972386225,0.6169700232085104,0.8605346602790568,0.0,0.0,0.0,0.0
0.0023407055486983326,0.06057260026260434,0.7477066081241194,0.005484651995744894,-0.5534141355124004,0.009089527906448663,0.8328385760097727,0.03564275042709494,0.34040650100710806,-0.8692303779001249,-0.009556665502751622,0.3570062116084025,-0.8800765420429384,-0.014493894823934948,0.6105293916691316,0.8914102728009001,-0.017434527167928072,0.6183947162726712,0.8585906548759412,0.0,0.0,0.0,0.0
0.0028084671272502046,0.06130177464312751,0.7476863769083023,0.005399254227322505,-0.5534063497102886,0.009218359088717584,0.8328428915526829,0.04456949369514177,0.33740946309032216,-0.8679707810509585,-0.011539887839852516,0.3584892282094407,-0.8818687201494468,-0.017307882748398083,0.6108146263384054,0.8944346159022892,-0.020168100184521972,0.6198232173559818,0.8565143238157703,0.0,0.0,0.0,0.0
0.003276225641026116,0.062044130878426786,0.7476641205027169,0.005314657367747238,-0.553400391958332,0.009341699368656016,0.8328460201323733,0.05276605586436255,0.33456742458145566,-0.8668965135026643,-0.01354549378989375,0.3599307328812433,-0.8835878329803222,-0.020241845498424796,0.6111188278875358,0.8975144677323292,-0.023003522509880473,0.6212471929607002,0.8543842270512999,0.0,0.0,0.0,0.0
0.003751841075614224,0.06279557956409695,0.7476389713612865,0.005230266060960569,-0.5533969752288561,0.009460829157448732,0.8328474799362353,0.0605117791449616,0.3318130057952293,-0.8659268238379045,-0.015565874370985826,0.36138556404005623,-0.8853226127068671,-0.02326644934534175,0.6114531812631981,0.9006492305206407,-0.025911206890224785,0.6226782626779697,0.852236035526672,0.0,0.0,0.0,0.0
0.0042422388634929704,0.0635600644462039,0.7476101440196016,0.005145061516446549,-0.5533959995422749,0.009577967454184572,0.8328473200845669,0.06801394572027578,0.3291165370431445,-0.8650201687703681,-0.017614926948913298,0.3628879081195555,-0.8871249602410716,-0.026388958611381873,0.611822232141482,0.9038618819630441,-0.028897114414827698,0.6241314145920126,0.8500704034582839,0.0,0.0,0.0,0.0
0.004752717354465036,0.06434754918883713,0.7475763830700501,0.0050579717006991095,-0.5533960941614764,0.00969520240964452,0.8328464341877998,0.07538553517273887,0.32649999004624525,-0.8641433002935827,-0.01972102329570682,0.3644504679285888,-0.8890161976194044,-0.02965007054963053,0.6122215601092328,0.9071958941260176,-0.03199870160266093,0.625616599681958,0.8478624807526435,0.0,0.0,0.0,0.0
0.005286739978632116,0.06517315823292032,0.7475356711522753,0.004967954245757274,-0.5533950447320557,0.009814320516090541,0.8328462781386644,0.0826535770482893,0.32405786095900313,-0.863248237239053,-0.021924611676110206,0.3660640653648709,-0.8909863738719459,-0.03312125999264229,0.6126376319012399,0.9107157260316151,-0.035281464203615984,0.6271368577010676,0.8455686942907308,0.0,0.0,0.0,0.0
0.005856774318086994,0.0660526399874273,0.747485588488442,0.004871852673670108,-0.5533910060936952,0.00993823025167772,0.832848059975887,0.0897951308092816,0.32197882097048763,-0.862224852421991,-0.024268663525840378,0.3677709637665428,-0.8931032637482215,-0.036863198160328056,0.6130712573596596,0.9144951900066165,-0.03879864638438351,0.6287157496267178,0.8431560039573414,0.0,0.0,0.0,0.0
0.006484527086572941,0.06700249370270274,0.747424095735215,0.004764043406354375,-0.5533833053269781,0.010071588175815813,0.8328521984046314,0.0967556483532218,0.3205307143520598,-0.8608882170560254,-0.026800375267879428,0.3696651692847492,-0.8955038543833364,-0.04092259878479123,0.6135439257322463,0.9186107688940816,-0.04258833910779347,0.6304057675708427,0.8405958655742449,0.0,0.0,0.0,0.0
0.0071951010935039665,0.06804329263845296,0.7473504561531602,0.004636985181999753,-0.5533725187400135,0.010220989575957556,0.8328582623975364,0.10346365197239346,0.31995198524632346,-0.8590134208484657,-0.0295803792201405,0.3718505119944855,-0.8983203785640619,-0.0453532997039704,0.6140922027194435,0.9231391721886928,-0.046693226066109574,0.6322849812355226,0.8378351193907088,0.0,0.0,0.0,0.0
0.008013417753202782,0.06920526538962274,0.747262547250948,0.004482608877304904,-0.5533557705764758,0.01039397807358978,0.8328680943625909,0.10986042472926819,0.32023161894741503,-0.8566097151943297,-0.032695637145288045,0.3744091469534457,-0.9016619566075476,-0.05025986260438142,0.6147385499285227,0.9281873771250629,-0.0512002495744588,0.6344255150874136,0.8347806919021752,0.0,0.0,0.0,0.0
0.00896764968286246,0.07052714448881585,0.7471572669810722,0.004290731932057472,-0.5533272387831345,0.010600565298856415,0.8328854569840105,0.11592239653762865,0.32110344507131566,-0.85389351038667,-0.03625931254790669,0.3774226095233008,-0.9056398228364007,-0.05577820211121208,0.6154998941327748,0.9338834132008289,-0.05621995042327906,0.636908412351332,0.8313037947131295,0.0,0.0,0.0,0.0
0.010100242278768861,0.07204572892304822,0.7470342472713776,0.004045163647898324,-0.5532818771486814,0.010856459249320913,0.8329135239401874,0.12169196095999714,0.3222426435917486,-0.8509459642107238,-0.04039022683000262,0.38105553033412376,-0.91046425621086,-0.06198483932545254,0.6164338769765546,0.9403140212955022,-0.06180085278757655,0.6398795276890823,0.8272655461399067,0.0,0.0,0.0,0.0
0.011452197559234175,0.07379526140664665,0.7468970419626475,0.003726421955225548,-0.5532126930612838,0.011181533373058784,0.8329566635346166,0.12729707650863767,0.32332489101390965,-0.847667092279648,-0.045210689122914274,0.38546336612840926,-0.9163079006069329,-0.0689130787554856,0.6176131156020329,0.947494561864714,-0.06794567189297974,0.6435179062572033,0.822479692638456,0.0,0.0,0.0,0.0
0.013033571605820846,0.0758069574006876,0.7467556481953234,0.003316587984564399,-0.5531122336215836,0.011597264230567285,0.8330194239780065,0.13296253142745162,0.32399467244213387,-0.843783671531384,-0.05084235439529578,0.3906191827512336,-0.923019371714496,-0.07658178112215774,0.6190864471389493,0.9553362481820324,-0.07463915078501741,0.647990675003346,0.8166624346421224,0.0,0.0,0.0,0.0
0.014855939187939905,0.07806718475745829,0.7466271334458863,0.0027958733269628036,-0.5529744735084517,0.012126675258734971,0.8331052505461475,0.13915115794340818,0.3238181213122163,-0.8386557618064019,-0.05730086069474958,0.3965929175690813,-0.930583666816287,-0.08473183243457895,0.6209438948416727,0.9635347046553427,-0.0816166320180185,0.6535000979398861,0.809639273320782,0.0,0.0,0.0,0.0
0.01690286859431754,0.08047613651424201,0.7465219276516353,0.002153246325563892,-0.5527954208312347,0.012782951158648742,0.833216167868792,0.14659435004982294,0.32218819044931024,-0.8312101075802001,-0.06437485079002556,0.40345697549649795,-0.9390865886495563,-0.09266871874721255,0.6231876307746218,0.9715922975220799,-0.0882502300344107,0.6600778839892962,0.8016575460720439,0.0,0.0,0.0,0.0
0.018976619243582363,0.08281299311024506,0.7463246497858997,0.0014104940062834963,-0.552617834453731,0.013546473750163416,0.8333234861680445,0.15601844703621728,0.31820829620673163,-0.8204227728585433,-0.07149531122525558,0.4103578335076153,-0.9476194896660635,-0.09927463499403835,0.6248919438358974,0.979969708823704,-0.09359909453959031,0.6665029965828977,0.7949154774701143,0.0,0.0,0.0,0.0
0.020928938973548753,0.08477551842352823,0.7459362451170926,0.0005827955821764064,-0.5524094007579793,0.014365296544099154,0.8334489501815452,0.16761355549845036,0.3102456876684639,-0.8035851478344196,-0.07781066846550862,0.4170176743603655,-0.9566272037997711,-0.10292437961343098,0.6251046120204357,0.9886376900822025,-0.09635046174587564,0.6714373563290142,0.7917352379035252,0.0,0.0,0.0,0.0
0.022554855203400333,0.08613896106086859,0.7454042571996363,-0.0003326638383458345,-0.5520968229290066,0.015167021725422508,0.8336419788485032,0.1803516433553545,0.29544499470492597,-0.7760743789075104,-0.08257304748533634,0.42286210431910615,-0.9656817281532546,-0.10226426357184103,0.6233377973131373,0.9963739168603863,-0.09545917741387643,0.6743022796396272,0.7923797683561556,0.0,0.0,0.0,0.0
0.023429423538885642,0.08674056130430721,0.744816045282416,-0.0013535323743148182,-0.5516658614825081,0.015905754429360076,0.833912436770736,0.1918390615470509,0.2701685683489173,-0.7329189660598329,-0.0851815726660846,0.4259797307529755,-0.9717402356380205,-0.09604726417314867,0.6188122158967733,1.001898101832432,-0.08993046994294976,0.6745613281557585,0.7964743371688835,0.0,0.0,0.0,0.0
0.023474821763055643,0.08679217018916631,0.7447996966614946,-0.0014040187005320201,-0.551648532238392,0.015913956066579357,0.8339236605427545,0.19187324445466322,0.27016603424380065,-0.7328927332074079,-0.08531903537377923,0.4260269854704998,-0.9717856540602073,-0.09606853910286006,0.6187819720928099,1.0020790995706694,-0.08988414252433231,0.6746610783859925,0.796350106624113,0.0,0.0,0.0,0.0
0.023474821763055643,0.08679217018916631,0.7447996966614946,-0.0014040187005320201,-0.551648532238392,0.015913956066579357,0.8339236605427545,0.19187324445466322,0.27016603424380065,-0.7328927332074079,-0.08531903537377923,0.4260269854704998,-0.9717856540602073,-0.09606853910286006,0.6187819720928099,1.0020790995706694,-0.08988414252433231,0.6746610783859925,0.796350106624113,0.0,0.0,0.0,0.0
0.023546705260596993,0.08749487598733172,0.7464063096238551,-0.00013372452304610135,-0.5514628700123763,0.014757028406159105,0.8340688911763132,0.1916685101687569,0.2735056834765034,-0.7290032892136027,-0.08529271073683631,0.4266260772177134,-0.9702497843901595,-0.1139068080468025,0.6309128494882816,0.9898490571549523,-0.06806925893297391,0.6611633510421314,0.829827890242895,0.0,0.0,0.0,0.0
0.02361605211215579,0.08863288252828204,0.748241286447862,0.0007300965965263115,-0.5513312623311749,0.013939550995664561,0.8341696440492857,0.1899648889076337,0.278630015667685,-0.7286234335964413,-0.08675465383640116,0.4263973204362283,-0.9647889529051851,-0.13022479344746088,0.6433274259908192,0.9761560551930488,-0.04649882074061333,0.6533193840628757,0.8527444175077826,0.0,0.0,0.0,0.0
0.023663202587097407,0.09003632302298548,0.749897476007827,0.0012493440360159822,-0.5512362092762514,0.01342622628722836,0.8342402634552665,0.18725696598364194,0.2845813956465087,-0.7315429378474293,-0.08929619538750505,0.42517513759946696,-0.9571445349007134,-0.14454877244646241,0.653972248514107,0.9643591345906185,-0.03058622750716453,0.6483092999239448,0.868160401346687,0.0,0.0,0.0,0.0
0.023711433604597744,0.09156471868210737,0.75131574677743,0.0015450220663285933,-0.5511533216201917,0.013128435617644069,0.8342992707368726,0.18399987965714865,0.29094014217559244,-0.7369010690084102,-0.09246835233509433,0.42334966479370273,-0.9486948739147087,-0.1571949696996144,0.662791544878899,0.9548077049135577,-0.01860372272191857,0.6450608956911563,0.8791977636474162,0.0,0.0,0.0,0.0
0.0237596057890041,0.09309909811006205,0.7525291631712476,0.0017130264242710576,-0.5510773439228098,0.01294690937567729,0.8343519665543246,0.18060451705316674,0.2972251276525408,-0.7433349086649603,-0.09582208131950358,0.42121774154230973,-0.9401800247280655,-0.16852845366415703,0.6701943210393099,0.947035445150331,-0.008825916920611103,0.6429906285845192,0.8877236641563269,0.0,0.0,0.0,0.0
0.02381171382730426,0.09457061734053622,0.7535721018834515,0.0018122798099268755,-0.5509983069240346,0.012827186647073425,0.834405803366359,0.17729862951079328,0.303210665740898,-0.7501215462556736,-0.09911277355319083,0.4190165905757227,-0.9321005333541006,-0.1787567395668601,0.6764869732296312,0.9406028353308881,-3.800835113588856e-05,0.641684626696943,0.8948487188597417,0.0,0.0,0.0,0.0
0.023807233419729772,0.0959040995703401,0.7544622099170551,0.001891691881345573,-0.5509222422397163,0.012727210890844465,0.8344573821414305,0.17427502865340064,0.30822280309660066,-0.755850602424673,-0.10209353883577794,0.41661141053845624,-0.9243429177127984,-0.18788721006197315,0.6817332742658763,0.9352045344114209,0.008572166322907242,0.640718212904261,0.9011108616406962,0.0,0.0,0.0,0.0
0.023748686041154966,0.09709325124422537,0.7552231748252599,0.001967594046554894,-0.5508444371928886,0.012633614922487185,0.8345099917684078,0.17156507734233797,0.31229273324732876,-0.7604556390619259,-0.1047343373570077,0.4140784718143652,-0.9170037481605682,-0.1960283341207065,0.6860865704194166,0.9306192006473912,0.017324476575051366,0.6398934032647187,0.9068254501158751,0.0,0.0,0.0,0.0
0.023652480446617056,0.09815718169587935,0.7558766629928556,0.002045071987501621,-0.5507638491802833,0.012541527923196393,0.8345643834923916,0.16913713320493073,0.31562088920836456,-0.7641874609007804,-0.10707793976774795,0.41150428475202877,-0.9101373628896657,-0.20335849402200964,0.6897179116263117,0.9267102082113952,0.026320952022526826,0.6391448808445647,0.9121458812149703,0.0,0.0,0.0,0.0
0.023527750238029336,0.0991191600883581,0.7564362117173047,0.002126342065251127,-0.5506798633964467,0.012448695086438777,0.8346209898569154,0.16694361205006003,0.3183629015527565,-0.767263449815974,-0.10917957936484865,0.40891128220824735,-0.9037163543519509,-0.21005385432355525,0.6927329078716458,0.9234226555412717,0.03560834457394963,0.6384890226938084,0.9170439588150116,0.0,0.0,0.0,0.0
0.02337466981162267,0.10000250939728204,0.7569056235598036,0.002213282193341002,-0.5505910838625939,0.012353467726065267,0.8346807483032586,0.16493298627495098,0.3206083837305952,-0.7698358470304627,-0.11109472664422397,0.406258825298203,-0.8976548126017616,-0.21628230730915954,0.6951587779009454,0.9207901317384218,0.045253357556134695,0.6380331073095019,0.921288798855023,0.0,0.0,0.0,0.0
0.023188443844383906,0.10083240327391564,0.7572810523230415,0.0023075948711761703,-0.5504956311064596,0.012254847040237441,0.8347449034661019,0.16304697290190442,0.32241547888284283,-0.7720405402049576,-0.11288414024154991,0.40346438444656396,-0.8918302050313943,-0.22221706087053913,0.6969663354495432,0.9189226594891261,0.05538540470679823,0.6380213699474097,0.9243970671211726,0.0,0.0,0.0,0.0
0.02297777035123463,0.10164678722759214,0.7575608608784828,0.0024067105609762766,-0.550388657345474,0.012155555507698396,0.8348166122448818,0.16119905812121507,0.32397524732325117,-0.7742557814988109,-0.11464620500633328,0.4004937189037072,-0.886177131376664,-0.22807342578024994,0.6981565350309974,0.9179322085390521,0.06614038591875136,0.638926912769319,0.9255586787457927,0.0,0.0,0.0,0.0
0.022733451349891305,0.10246818705607792,0.7577584456849018,0.002510471451041876,-0.5502660633473396,0.012055409390949044,0.8348985711843875,0.15933307641064318,0.32531481100184817,-0.776509738120479,-0.11643172443064642,0.39725074798864196,-0.8804903286471841,-0.2339685091551425,0.6987701973738181,0.9177307519753294,0.07745993925841255,0.6407267735026532,0.9247405827866133,0.0,0.0,0.0,0.0
0.022445625110042004,0.10331590061637023,0.7579058249637749,0.0026178761591370988,-0.5501201508085866,0.011953429295272398,0.8349958574309434,0.1574013828090934,0.3264585620825934,-0.7787657151252042,-0.11827881647598398,0.39365361870662263,-0.8745317469737424,-0.23997215274606407,0.6989351847463499,0.9180169245729054,0.08907858109604268,0.6429439170593793,0.9227197997407952,0.0,0.0,0.0,0.0
0.022105061717300336,0.10421058433364591,0.7580390939210027,0.0027288156251473188,-0.549940378996094,0.011847091225719223,0.8351154288745992,0.15535646126504965,0.32744324853322815,-0.7810002918987323,-0.12022584486612109,0.38962177877875814,-0.8680644952169484,-0.24616264646536543,0.6987977503047718,0.9184404280239464,0.10081250271436426,0.6453070099753832,0.9199759103700209,0.0,0.0,0.0,0.0
0.02170024600274805,0.10517527094762202,0.7581918776187326,0.00284644469925853,-0.5497109206628176,0.0117316715371393,0.8352677231520179,0.15314807107156617,0.32830124917590536,-0.7832094662629948,-0.12231529534635632,0.38505510962020556,-0.8608605064219527,-0.2526450572849275,0.6984752750985674,0.9186649552857304,0.11268250535720685,0.6476771809431829,0.9168178712050723,0.0,0.0,0.0,0.0
0.02121764776416686,0.10623134651227235,0.7583949969162267,0.0029798574311421942,-0.5494086910544466,0.011596987137098688,0.8354679649949911,0.15073815450346234,0.32904953074278753,-0.7853877888058965,-0.12457968991945184,0.3798476735509687,-0.8527453518933312,-0.25955297482483675,0.698056314153327,0.9183559224570321,0.12502935541557259,0.6500026762025501,0.9134977089392378,0.0,0.0,0.0,0.0
0.02064497013432206,0.10739154190972384,0.7586762569515665,0.0031481218583641495,-0.5490009441861996,0.011423541221087229,0.8357377311797023,0.148124042525787,0.32968799453286224,-0.7875188354742317,-0.12702125699844324,0.3739296556023932,-0.8436951809704482,-0.2670433971633722,0.697609881249507,0.9171573379009612,0.13877175187256707,0.6523226665218295,0.9103167610442017,0.0,0.0,0.0,0.0
0.01997946942877557,0.10864805261829165,0.7590565482421257,0.0033857596501121576,-0.5484425927811235,0.011177120761372786,0.8361066505097278,0.1453775370585154,0.3302131152755711,-0.7895975128615993,-0.12958011344903728,0.3673561660813832,-0.8340341859226986,-0.2752853074268149,0.6971907964356503,0.9146943411315325,0.1558634621432745,0.6548333665615372,0.9077448986232923,0.0,0.0,0.0,0.0
0.019244629470277948,0.10995340213566335,0.7595334194104852,0.0037462786235669438,-0.5476738912495562,0.010803188091407581,0.8366137492099359,0.14270742444664725,0.33065833326190325,-0.7917402068854028,-0.1320875476723892,0.3604689972280325,-0.8248025012480852,-0.28441371791322423,0.696797259554489,0.9106908430445673,0.17983540391007882,0.6580180390854152,0.9065365022898508,0.0,0.0,0.0,0.0
0.018502069928392508,0.11119027230213323,0.7600180799503435,0.004291406600876813,-0.5466127786025298,0.01023752536135503,0.8373119174908973,0.14052887100399766,0.3310656448760656,-0.7944350914174083,-0.1342242009365182,0.35405210588023167,-0.8182853981225168,-0.294254061522143,0.6959995897582674,0.905524970251303,0.21567271832141427,0.6626742178532667,0.9076212520132588,0.0,0.0,0.0,0.0
0.01775698283912658,0.11207969592983834,0.7601613241467243,0.005004121091984098,-0.5452164457898707,0.009469725342690895,0.838226884747973,0.1395897221182851,0.3305082831361158,-0.7975535550657945,-0.13535307748728181,0.3488250166489039,-0.8174550826475754,-0.30304794586601513,0.692710827051157,0.9019673012159606,0.2652089856311006,0.6685111216902203,0.9115332235428846,0.0,0.0,0.0,0.0
0.01707952280976076,0.11260354057349342,0.7595187920040987,0.005474444046951601,-0.5436564143847643,0.008901000973027097,0.8392428169143639,0.1394495682032929,0.3291788025047047,-0.8037331688150563,-0.13599687920618106,0.3447322458731738,-0.8219015015751333,-0.30694290939873226,0.6841241918910879,0.9050339284849042,0.3139879848152516,0.6706140645323164,0.9191228281522211,0.0,0.0,0.0,0.0
0.01707773972249262,0.11261634033105279,0.759508551777213,0.005490538703483819,-0.543645919710648,0.008882772609014636,0.8392497031977347,0.13945547799421346,0.3291700772545504,-0.803761867317324,-0.1359979223282632,0.34465459782541247,-0.8219080372171359,-0.30698832943027743,0.6840848352578851,0.9049722551861984,0.31402425787552884,0.6706300688609694,0.9191335873648251,0.0,0.0,0.0,0.0
0.01707773972249262,0.11261634033105279,0.759508551777213,0.005490538703483819,-0.543645919710648,0.008882772609014636,0.8392497031977347,0.13945547799421346,0.3291700772545504,-0.803761867317324,-0.1359979223282632,0.34465459782541247,-0.8219080372171359,-0.30698832943027743,0.6840848352578851,0.9049722551861984,0.31402425787552884,0.6706300688609694,0.9191335873648251,0.0,0.0,0.0,0.0
0.01710676077963636,0.11280410848975744,0.7597723447397885,0.005621883777959476,-0.5447662686459989,0.008779654635375573,0.8385231211080504,0.13883458930653586,0.3287058332143084,-0.7966447001050458,-0.13604267669126813,0.34328747611260724,-0.8137629260657147,-0.3123948425514305,0.6893309092505051,0.9059876489951793,0.31488980337979794,0.6752950080134518,0.9193612580671512,0.0,0.0,0.0,0.0
0.017146321958733696,0.11304951257827621,0.7599719694970369,0.0056606294143587395,-0.5455036305621738,0.008753813068524241,0.8380436248041518,0.13809510467367483,0.3288895855667298,-0.7928918504476549,-0.13641604795323972,0.3421144144579949,-0.8076094527727248,-0.31637052871943083,0.6929463594504351,0.9066493134613302,0.3152830617774116,0.6786991177269507,0.9189534256195422,0.0,0.0,0.0,0.0
0.01718433216280602,0.11330944475651221,0.7600944255293698,0.005647086575854421,-0.545966190392354,0.008776569732783531,0.83774220449097,0.13733649886567906,0.3294192969961266,-0.7914307251931488,-0.13695704416435334,0.3411205989740312,-0.8031312394927671,-0.3191741317989825,0.6951765438580847,0.9073270171795352,0.3153621725281903,0.6809596689099692,0.9184868974129548,0.0,0.0,0.0,0.0
0.017284907205975746,0.11369437296906332,0.760142992717181,0.0055923782203112764,-0.5462558541133822,0.00883495906716851,0.8375531091524774,0.1363156491030218,0.3309308694318207,-0.7928561460768204,-0.13789798460133093,0.3403170386655839,-0.7998146687244273,-0.32197267495355236,0.6965536678313943,0.908584435649958,0.3147543408744604,0.6825328287438025,0.9180261936336889,0.0,0.0,0.0,0.0
0.01747205464818308,0.11427693718029652,0.7600914386677916,0.005498317406778349,-0.5464453704694348,0.008926295031053907,0.8374291294522989,0.13485963317481073,0.33369394648585027,-0.7974231035474257,-0.139397972586665,0.33956172820922476,-0.797148963602069,-0.32552614702246524,0.6972495305738315,0.9110806226790586,0.3132827266388489,0.683556787360236,0.9179004258348875,0.0,0.0,0.0,0.0
0.01779653748588603,0.11514506730406006,0.7597971986272941,0.005359729256395979,-0.5465987542461185,0.009042953118255563,0.8373286691364332,0.13280134865336304,0.3381268578470152,-0.8061329736337497,-0.14165923332022767,0.3387827647904854,-0.7952202338874597,-0.33083140563848107,0.6968737058539712,0.9166917368840299,0.310805312584262,0.683587173361621,0.9195759381894418,0.0,0.0,0.0,0.0
0.018263010018594022,0.11633254604003566,0.7589805321732233,0.005392054004008259,-0.5469650792943911,0.008984385808508556,0.8370898449973827,0.13029002749688082,0.3437566625153139,-0.817521076671908,-0.14449120049008965,0.3375821001786234,-0.794006031372483,-0.3416928796391828,0.6953701425822925,0.9290913495015548,0.30571442213691175,0.6813805139087588,0.9264954784650248,0.0,0.0,0.0,0.0
0.01880311392150472,0.11754733407834152,0.7592732901184754,0.006195616800767835,-0.5476263817814141,0.008164486541524768,0.836660206696224,0.12855219456285658,0.34972445601877317,-0.8211497433895407,-0.1461777772452723,0.3372452325263506,-0.7909529707655591,-0.2755402853483079,0.6849657402031859,0.9171324350551328,0.29165743229964053,0.6842131240079584,0.9225941209348948,0.0,0.0,0.0,0.0
0.019522687066637956,0.1189949685815545,0.7590171703416255,0.007083359324995617,-0.5484112764918737,0.007249337280728133,0.8361473225133338,0.12649550261638237,0.3570154476515515,-0.8283937708845075,-0.14836891599328902,0.33700927593627816,-0.7897965776937095,-0.2153046833261539,0.6749841253422029,0.9102016841992513,0.27593706707374155,0.6845829725324046,0.923991337006485,0.0,0.0,0.0,0.0
0.020288411175393747,0.1205030566043232,0.7586842684423255,0.007668085368584756,-0.5490457756798632,0.006624615838582529,0.835730848503194,0.12396087456413594,0.364966774556977,-0.838704288275563,-0.151136884574302,0.33686131644010897,-0.7887624765833193,-0.17463898210061257,0.6679267754631957,0.9077463234920149,0.26259493514890875,0.6848655143195527,0.9255024794799716,0.0,0.0,0.0,0.0
0.020994782208039728,0.1219365025955656,0.7583930571211362,0.008013747798792893,-0.5495084716602766,0.006249113842674933,0.8354263390604737,0.12125755159939623,0.37254710509685807,-0.8497663979992106,-0.15409313230659524,0.3366235043656602,-0.78746123457787,-0.14832617279822924,0.6631302416825443,0.9080415435442859,0.2517400566971242,0.685314619133532,0.9262179889355037,0.0,0.0,0.0,0.0
0.021593908139119884,0.12322518720368955,0.7581693058048051,0.008227700382905908,-0.5498450397734632,0.006015893093809047,0.8352044936500352,0.11866852449693463,0.37919083779078855,-0.8599575243642485,-0.1569027984549936,0.33621030328661133,-0.7858479513488393,-0.13008528135394123,0.6595509173963148,0.9098538540611261,0.2427488275876128,0.6858421346650846,0.9261990374029185,0.0,0.0,0.0,0.0
0.022082736505351606,0.12435456402570534,0.758014969857656,0.008381782236264054,-0.5500973037053299,0.005852395800967056,0.8350379941332362,0.11632077671814192,0.3848053526282036,-0.8686919692080244,-0.15942180470394127,0.3356430328721778,-0.7840071349734175,-0.11574411151253211,0.6564783593211311,0.9123908595856608,0.23505305098615556,0.686396514880564,0.9255959437566126,0.0,0.0,0.0,0.0
0.022478020476578313,0.12533967860324127,0.7579199311189845,0.00851400197269976,-0.5502932255167146,0.005715995655961946,0.8349085010433659,0.11424519316917195,0.38952154765752894,-0.8759786633232552,-0.16162263128686769,0.3349752434421637,-0.7820608351216746,-0.10308400225099919,0.6535413845356509,0.915192935592297,0.2282253246247493,0.6869414286261712,0.9245617500034456,0.0,0.0,0.0,0.0
0.02279949261228432,0.12621418036070034,0.7578683244386261,0.008640988000459426,-0.5504522258890738,0.005591231924371036,0.834803221403528,0.11238839082431899,0.39353859102758126,-0.8820890854196278,-0.16356718669329248,0.33421769622950814,-0.7800271807765242,-0.09099192749232783,0.6505978376913004,0.9179634334635167,0.2219679413591722,0.6874549629962804,0.9232355010446212,0.0,0.0,0.0,0.0
0.023065200199209674,0.1270137107525206,0.7578374805883217,0.008768450622340137,-0.5505864580869746,0.005470263200483813,0.8347141682429029,0.1106853380663906,0.39704552756289146,-0.8873666516211449,-0.16533153368570563,0.33336033262427356,-0.7779188405897137,-0.07903856886556727,0.6476217783432525,0.9205077321197268,0.21605196718457617,0.6878752073536893,0.9217942927782876,0.0,0.0,0.0,0.0
0.023289130748103883,0.12777091852801936,0.7577996810329284,0.00889674593332527,-0.5507041001213292,0.005350089121244517,0.8346359796748218,0.10907120590189485,0.40019312387787465,-0.8921444268685585,-0.1669912346921521,0.332373283503989,-0.775739762301868,-0.06713504607719249,0.6446650265996244,0.9226374334680778,0.21030955171334273,0.6881041202559373,0.9204603315633259,0.0,0.0,0.0,0.0
0.02348131137118028,0.12851459824930547,0.757722493816254,0.009023302983224712,-0.5508108474294395,0.0052313020356587695,0.8345649308689812,0.10748410913681897,0.4030931825645635,-0.8967304683503333,-0.1686182794123495,0.33121080984762546,-0.7734898987404883,-0.05536765751730727,0.6418685807340339,0.9240800247755484,0.20462407798035367,0.6880095990494911,0.9195060269172252,0.0,0.0,0.0,0.0
0.02364888176202303,0.12926832813086403,0.757569760803474,0.00914381566614517,-0.5509108345470017,0.0051167125295043725,0.8344983296967586,0.10587064067596703,0.40582229234017114,-0.9014009063181122,-0.17027583523205103,0.3298228051321535,-0.7711810571655546,-0.0439434655396243,0.6395105922696961,0.924371620485352,0.19892776709668733,0.6874331017481295,0.9192505642733234,0.0,0.0,0.0,0.0
0.023798433870546903,0.13004933286323755,0.7573089251023387,0.009254228657603341,-0.5510078312471811,0.0050076515170477095,0.834433731690249,0.10419484713772097,0.40843662895900484,-0.9063785894376826,-0.17200858206569922,0.32817613551623526,-0.768847845360044,-0.03314597685947147,0.6380700035318472,0.9227450209422285,0.19317682043627263,0.6862307211513492,0.9199893706977536,0.0,0.0,0.0,0.0
0.023935516301722023,0.13087563075224762,0.7569275667372976,0.009353381276848548,-0.5511026093356699,0.004904629364088723,0.8343706447694015,0.10241549723122376,0.4110001050042867,-0.9118270097593183,-0.17386173826075446,0.32624104242648416,-0.7664689754766701,-0.023026221214539157,0.6375770622830274,0.9192311406961702,0.18727846237454362,0.6843516290012792,0.9217972161026917,0.0,0.0,0.0,0.0
0.02404813042190505,0.13177804276111743,0.7564295477063284,0.009442660770593525,-0.5511943314972877,0.004807998693409476,0.8343096117337938,0.1004516068229565,0.41351720604682074,-0.9177655257243433,-0.17590480022124233,0.32384215817407463,-0.7637242315834749,-0.013432159814121606,0.6375750566233009,0.9146174637259866,0.18100768015953253,0.6817794483971314,0.9245304468321606,0.0,0.0,0.0,0.0
0.024129402595644302,0.13277878058204212,0.7558204001903379,0.009525223781968831,-0.5512803225605791,0.0047154695980359766,0.8342523841235799,0.09824853881145798,0.41599971993690876,-0.9242122687643672,-0.17818444494333951,0.3208644613889169,-0.7604059391262227,-0.0042135403586248555,0.6378260090739764,0.9093371896873721,0.17417375292136866,0.6785105379633567,0.9280428400008117,0.0,0.0,0.0,0.0
0.024166195333402654,0.13389511368890575,0.7550981568107212,0.009605472546276828,-0.5513565578175791,0.00462327815383808,0.8342015981450919,0.0957649875839175,0.41840432571755987,-0.9311266814949981,-0.18073261795527504,0.31716377605718593,-0.7563026194866643,0.004730684631397747,0.6382351922161664,0.9035491683016108,0.1665994402193984,0.6744782799175727,0.9322669569972701,0.0,0.0,0.0,0.0
0.024137148901655588,0.1351376814967921,0.7542533355173487,0.00969098946452254,-0.5514187124847528,0.004524603496013293,0.8341600662990646,0.09297854622375508,0.42061653476561267,-0.938373359520686,-0.183559711362234,0.31255825097662115,-0.7511873940352547,0.013494283134386924,0.638808579265864,0.8971992967145719,0.1581133275966593,0.6695470046046178,0.9372187282338229,0.0,0.0,0.0,0.0
0.02403988601528341,0.13648735741903537,0.7532759027806478,0.009797412348463203,-0.5514628191254662,0.004404720918835934,0.8341303065271604,0.08995532815043951,0.42255242361970163,-0.9458169161222669,-0.18660267670228775,0.30708587233963114,-0.7452402966288186,0.022328873572848705,0.6396946181500155,0.8900714372004543,0.14866913082875097,0.6636109257906384,0.943000624253724,0.0,0.0,0.0,0.0
0.023910350448691848,0.13787469518193252,0.7521586192599896,0.009954315083076464,-0.5514812617185768,0.004234251977059632,0.8341171384731932,0.08691649813278693,0.42422521027215837,-0.9533950307319274,-0.18967627045418672,0.3012203126893288,-0.739447878338394,0.03185000485488711,0.6412045432139466,0.8817276474759297,0.13840677306044896,0.6566318918844055,0.9498207648004692,0.0,0.0,0.0,0.0
0.02373647709384286,0.13922899667514155,0.750884198267853,0.010208412520605876,-0.5514648483585082,0.003958854928050727,0.8341262714999422,0.08412141365415146,0.42537639728808435,-0.9606022034611535,-0.19253760604368078,0.29515174626195295,-0.7344711992801661,0.042817309417093344,0.6436081657769719,0.8712677242641588,0.12718226299506669,0.6483240384663884,0.9579442510021878,0.0,0.0,0.0,0.0
0.023509761554629343,0.14044678847590567,0.7494477089378452,0.010633934929887739,-0.5513907116698296,0.0034825240025799196,0.8341720892829712,0.08198988242593658,0.4257234544338267,-0.9667731789485984,-0.19480086123698445,0.2892593094078062,-0.7314546649956858,0.05633109696309323,0.6472682112162277,0.8571605865221753,0.11465732642259877,0.6383332697258437,0.9675311587856175,0.0,0.0,0.0,0.0
0.02321457123876353,0.14141346756706558,0.7479285047965506,0.011326554650153114,-0.5512471963273988,0.0027123351469830153,0.8342606792477935,0.08093791628774707,0.42499486200307757,-0.970836514823537,-0.19605844593958827,0.2839564304764329,-0.7312604195031432,0.07338945355466393,0.6529531214811194,0.8368865057801448,0.10047400007001295,0.6267490561166151,0.9779789565789465,0.0,0.0,0.0,0.0
0.022947407557312595,0.14200262129949465,0.7466692805204208,0.01233348973193704,-0.5510586822054564,0.0016076388632362984,0.8343737947073263,0.08132240316561384,0.42375672322011854,-0.9719470833356078,-0.1959361028527462,0.2804736286327034,-0.7347090994833168,0.08952770396136754,0.6630621439707939,0.8081201570367174,0.08500310993803445,0.6155637723027568,0.9864247161193379,0.0,0.0,0.0,0.0
0.022956007267656932,0.14201399159321776,0.7466477872967275,0.01234716638682388,-0.5510684312183601,0.0016004438630628887,0.834367167484551,0.08130507086610572,0.4237705070824727,-0.9719881239754842,-0.19595073614708938,0.28041203109306495,-0.7346684210544682,0.0895365354770415,0.6630611478411287,0.808111446301764,0.0849803145979535,0.615516119339874,0.9864222299700901,0.0,0.0,0.0,0.0
0.022956007267656932,0.14201399159321776,0.7466477872967275,0.01234716638682388,-0.5510684312183601,0.0016004438630628887,0.834367167484551,0.08130507086610572,0.4237705070824727,-0.9719881239754842,-0.19595073614708938,0.28041203109306495,-0.7346684210544682,0.0895365354770415,0.6630611478411287,0.808111446301764,0.0849803145979535,0.615516119339874,0.9864222299700901,0.0,0.0,0.0,0.0
0.022099638511532436,0.1424509436426186,0.74723571166505,0.011339565461127516,-0.5519213473937431,0.0025608078161830344,0.8338151370714952,0.07844408324937785,0.4201553348620731,-0.9635263248403945,-0.1814241062822437,0.3071738429682714,-0.7801238085600729,0.09706829288176708,0.6633337021486678,0.8042293060639218,0.0935450714132093,0.6218714719440894,0.9822260782240398,0.0,0.0,0.0,0.0
0.02043031939156334,0.143708290435417,0.7477606286641371,0.010538307832110757,-0.5524929388200932,0.0034006847211731413,0.8334440184951833,0.07358162855729669,0.41394438700630554,-0.9526245624739579,-0.16532649086935247,0.3218924848431547,-0.8082340377403651,0.09798837086522073,0.6610163743758698,0.8040033501972463,0.09455689812142078,0.6245252083807045,0.9749782507030732,0.0,0.0,0.0,0.0
0.018395865843462533,0.14565730807234106,0.7481659577069547,0.009847960460225262,-0.5528003119512923,0.004156171716282829,0.8332451974166983,0.06715413421524019,0.4071978984562086,-0.942693210225237,-0.15122437253097548,0.32921594752821787,-0.8248290996328587,0.09395636211743977,0.6566381853646501,0.8074957643902608,0.08975501578573428,0.6246167306869397,0.9657537147010051,0.0,0.0,0.0,0.0
0.016211522073326864,0.14805979015378606,0.7484227114302876,0.009227164359865475,-0.5529654954666178,0.004822330112907449,0.8331391032675852,0.05982593720526655,0.4004426931480147,-0.9339611247771519,-0.14026762969565615,0.3324285927912686,-0.8348541304870049,0.08672904143599729,0.6508159170499144,0.8141624447694026,0.08131916004541238,0.6231018325563948,0.9557970467221565,0.0,0.0,0.0,0.0
0.014018877547739814,0.1506717955193772,0.7485064647151006,0.008664102220769158,-0.5531014842665012,0.0053929584257903515,0.8330513774277785,0.052227731364856866,0.39380589884848183,-0.9260277914871176,-0.13236148251535076,0.33332025680118615,-0.8415801047513082,0.07781504413723767,0.6440682415295129,0.8233852251731393,0.07115303241547946,0.6206136931579451,0.9463635589107506,0.0,0.0,0.0,0.0
0.012004464963747971,0.1531467472535811,0.7486059821819929,0.008186527063582532,-0.5531895697712035,0.005857752109320709,0.8329945782603951,0.04521705867694806,0.3877406398522715,-0.9186545101404735,-0.1261491062980462,0.3328714064356665,-0.8461070450516639,0.06882863825410271,0.6381820720888204,0.831555651829895,0.06116996033585241,0.6184907725666116,0.9367653522887706,0.0,0.0,0.0,0.0
0.010249318493943164,0.15534670511299561,0.7487169060848394,0.007795015352695697,-0.5532456441231435,0.006230816082505378,0.8329583854703458,0.039093492260714104,0.3824408700989852,-0.9120635693417353,-0.12066664408844682,0.33167069453061904,-0.8494576459089623,0.0605675363681031,0.6333180492020791,0.8383059152332021,0.05220530842883025,0.6168865692062234,0.9276604818016333,0.0,0.0,0.0,0.0
0.008744794730604096,0.1572274008626279,0.748822860660729,0.007479897304975425,-0.5532853103430054,0.006531518864211211,0.8329326237795452,0.03391003834762257,0.37779434839456905,-0.9061243993391918,-0.11524955951579255,0.33008997307239146,-0.8523392059198066,0.05337426071469487,0.6293185772318097,0.8437655953416511,0.04454715796496208,0.6156765976422989,0.9195136791001175,0.0,0.0,0.0,0.0
0.0074802210869818545,0.15881087002710279,0.7489150013668385,0.007228072052763219,-0.5533151366349692,0.006777336345839566,0.8329130700481778,0.029569622817504353,0.3738257050731601,-0.9009704417625887,-0.10958170770830336,0.3284022424656158,-0.855090557677493,0.04725530930404047,0.626031708178754,0.8482090535766587,0.03812568881663518,0.6147675834485898,0.9124629819890206,0.0,0.0,0.0,0.0
0.006444713486624656,0.1601475879841964,0.7489896629790604,0.007026613893012091,-0.5533379257416392,0.006982230140432486,0.8328979619949881,0.025917501209912056,0.37061489730189473,-0.8968234769364698,-0.10356158564473977,0.32685203385320705,-0.8577984590727662,0.0420569147850425,0.6233352758926458,0.8519329183889016,0.032725451521982696,0.6141076202916793,0.9064604344257025,0.0,0.0,0.0,0.0
0.005610912717053098,0.16129096927773406,0.7490467335003391,0.006864019653719359,-0.5533542179762027,0.007156965652414971,0.8328870106591822,0.022799135537206763,0.3681433424065262,-0.8937313663647354,-0.09718332693132588,0.32569279677492124,-0.8603941574781772,0.03758770101470636,0.6211080330683633,0.8551675181672168,0.02811550573637615,0.6136422226275048,0.9013639183788297,0.0,0.0,0.0,0.0
0.0049170840136380945,0.16227938474581452,0.7490902331659838,0.006730572062118847,-0.5533687144605557,0.00731021991357655,0.8328771373622905,0.020098727606460844,0.36614280927177756,-0.8912834220426447,-0.09043211073310724,0.3252021042088743,-0.8627373409129284,0.033712917152794106,0.6192148004952792,0.858010648951917,0.02414099801559782,0.613289673505412,0.8970021064015594,0.0,0.0,0.0,0.0
0.004325380579681194,0.16315545326152192,0.7491243921789742,0.006618638929866684,-0.5533819686051938,0.007447811796638847,0.8328680090751464,0.017700376622299542,0.3644909969666978,-0.8893127491241831,-0.08336134333953485,0.3256115413893858,-0.864545053164933,0.030264212673934702,0.6175677508193848,0.8605701867802297,0.020618754237280795,0.6130168346154399,0.893174930908233,0.0,0.0,0.0,0.0
0.0038060592615405267,0.1639521290333495,0.7491511586000388,0.006522110086437684,-0.5533937034873593,0.00757425319403598,0.8328598331706948,0.015515334898674685,0.363087289117605,-0.8876881403404484,-0.07604030623906101,0.32690793742345775,-0.8657801782515209,0.027114153225821305,0.6160896607147374,0.8629362090417165,0.017413544004219853,0.6127933234940568,0.8897327044114473,0.0,0.0,0.0,0.0
0.0033330786644378036,0.16469102749865144,0.7491706296539751,0.006436080148790164,-0.553402680671467,0.007693298022863642,0.8328534463298354,0.013484046683474936,0.3618254538120055,-0.8862704076284335,-0.06853254466854107,0.3288349557476881,-0.8666768125686307,0.02418630108850105,0.6147063415542618,0.8651692851434142,0.014445556664967593,0.6125812710463012,0.8865793355328984,0.0,0.0,0.0,0.0
0.0028874838481660566,0.16538794831575984,0.7491842641902111,0.006357048910392731,-0.5534091475087631,0.007807739916017814,0.8328486912880266,0.011562936344464196,0.3606275893194262,-0.884945836500388,-0.06087661033828656,0.33111272213560444,-0.8674148078248674,0.021425631704133228,0.613374557222792,0.8673015061835164,0.011657700101319548,0.6123650115658347,0.8836325934902277,0.0,0.0,0.0,0.0
0.002457120671617982,0.1660534506874917,0.7491939038115024,0.006282803355409312,-0.5534139855170507,0.007919644435347786,0.8328449833241169,0.0097224475541633,0.3594442679832217,-0.8836356606183876,-0.0530684171676199,0.3335467957452969,-0.8680981800416715,0.018796236127790873,0.612072854893274,0.8693472128541397,0.00901271409910679,0.6121424730474936,0.8808308107481096,0.0,0.0,0.0,0.0
0.0020394194851655464,0.16669387171546451,0.7492010815094677,0.00621238974317038,-0.5534173154405404,0.008030273611778617,0.8328422394967635,0.007944893361404401,0.3582747617555528,-0.882338969287934,-0.04506560549945947,0.3360408502395674,-0.8687625886623292,0.016275695907792525,0.6107994434803244,0.8713129861615226,0.006486984423451851,0.6119229481630359,0.8781355205618515,0.0,0.0,0.0,0.0
0.0016316452194767253,0.1673066821947874,0.7492073617261215,0.006146045800152998,-0.5534192103227933,0.00814012679877724,0.8328404061417879,0.00623477531886083,0.35709828704380414,-0.8810146973451236,-0.036782095317126735,0.338571095265874,-0.8694168441524414,0.013877442152577893,0.6095586279137826,0.8731714237449467,0.0040933207195156555,0.6117092633280956,0.875539237401029,0.0,0.0,0.0,0.0
0.0012317586303724239,0.16787948011148984,0.7492149887368952,0.0060852650771485856,-0.5534193117302075,0.008248319213023459,0.8328397205844377,0.004622713670039712,0.3558782598866796,-0.8795862102813866,-0.02813239574591639,0.3411536407916792,-0.870061625434177,0.011653155627464613,0.6083666859373641,0.8748515547592812,0.0018826068639286775,0.6115003975999992,0.8730622515220883,0.0,0.0,0.0,0.0
0.0008398895970351016,0.16838843439391935,0.7492277030328022,0.006032830954923229,-0.5534173032090086,0.008351544146659957,0.8328404079833686,0.003171675428071287,0.35456870721946415,-0.8779437491316626,-0.019126535929333437,0.343808140875629,-0.8707117725549417,0.009696468911910752,0.6072624850197692,0.8762290167625396,-5.31979552619629e-05,0.6112971511806348,0.8707524368879775,0.0,0.0,0.0,0.0
0.0004609757262379839,0.16879774052553895,0.7492511482976186,0.005992604222546994,-0.5534136395010374,0.008442564062714496,0.8328422152009914,0.001982081924974384,0.3531295956545013,-0.8759619399044035,-0.010048625875365588,0.3465099996587829,-0.8714303025873541,0.008140648040580022,0.6063186316646826,0.8771264358899494,-0.0015839329999219913,0.6111080305169686,0.8686868542463109,0.0,0.0,0.0,0.0
0.00010889670455722597,0.16906248380944308,0.7492904681985301,0.005969113005108376,-0.5534106668862098,0.008505844231527343,0.8328437152794045,0.0011955582280798961,0.3515567579629715,-0.8735483440097678,-0.0017263719490491214,0.34912992314705427,-0.8724006948769046,0.007127401523085521,0.6056431398174306,0.8773608089174805,-0.002572514068177275,0.6109394281129347,0.8669886627939986,0.0,0.0,0.0,0.0
-0.00016552326314598536,0.16915785620055787,0.749344766739088,0.005961454505937061,-0.5534227307492827,0.008531403513738512,0.8328354923418347,0.0008980707266244495,0.3500994731059045,-0.8710136968505451,0.004179431389392793,0.35134658443474015,-0.8738692348299062,0.006753255753196462,0.6053803487063298,0.8769462070087128,-0.0029292197398104185,0.6108788181966125,0.8658497899977196,0.0,0.0,0.0,0.0
-0.000165329839326685,0.16915872860427986,0.7493441328374038,0.00596207510993251,-0.5534221380955302,0.008532468416815608,0.8328358708106126,0.0008937784614589523,0.3500968755403869,-0.8710142719030698,0.004187927529842546,0.3513501800074635,-0.8738669508430049,0.006752106092436998,0.6053757600799236,0.8769488318401765,-0.002928549453056144,0.6108804945450413,0.8658464934894128,0.0,0.0,0.0,0.0
-0.000165329839326685,0.16915872860427986,0.7493441328374038,0.00596207510993251,-0.5534221380955302,0.008532468416815608,0.8328358708106126,0.0008937784614589523,0.3500968755403869,-0.8710142719030698,0.004187927529842546,0.3513501800074635,-0.8738669508430049,0.006752106092436998,0.6053757600799236,0.8769488318401765,-0.002928549453056144,0.6108804945450413,0.8658464934894128,0.0,0.0,0.0,0.0
-0.000165329839326685,0.16915872860427986,0.7493441328374038,0.00596207510993251,-0.5534221380955302,0.008532468416815608,0.8328358708106126,0.0008937784614589523,0.3500968755403869,-0.8710142719030698,0.004187927529842546,0.3513501800074635,-0.8738669508430049,0.006752106092436998,0.6053757600799236,0.8769488318401765,-0.002928549453056144,0.6108804945450413,0.8658464934894128,0.0,0.0,0.0,0.0
-0.00013278283621259834,0.16922496045250865,0.7493488885439805,0.0059630355368595215,-0.5534359641807596,0.008528015184001599,0.8328267219028941,0.0007455246940856511,0.35042612285596775,-0.8714910646070507,0.004039278946074655,0.35142093684606224,-0.8738653536357561,0.0063952449888396426,0.6054761708843547,0.877225371624023,-0.003285649519057475,0.6110248672776091,0.8656121121105605,0.0,0.0,0.0,0.0
-9.201370856411931e-05,0.16932380198730687,0.7493522698283962,0.005959804129855512,-0.5534511318597161,0.008527031907242359,0.8328166755683905,0.0005140681295353797,0.35087444262575734,-0.8721891836190985,0.003807681402255375,0.35147998016188303,-0.8738157626326447,0.005908349101708074,0.6055635227626205,0.8776472068637025,-0.0037728677468259887,0.6112042366540943,0.8652863888071767,0.0,0.0,0.0,0.0
-4.602650793762043e-05,0.16945557675239137,0.7493533498823824,0.005954766521662858,-0.5534659694925591,0.008527403826906772,0.8328068472060655,0.00020150766530819826,0.35142351615181877,-0.8730846165647571,0.003495166472220653,0.3515090416979059,-0.8737058968306861,0.005267339506621006,0.6056297691228503,0.8782197313513145,-0.004413387436128606,0.6113989340877185,0.8648655510742295,0.0,0.0,0.0,0.0
5.198865880880953e-06,0.169637978093612,0.7493514090282924,0.005948124557413004,-0.5534779828377638,0.008528824245186755,0.8327988961838773,-0.00023433258847205057,0.3521117998738401,-0.8742638585126762,0.003059578494638962,0.3514772802674006,-0.8734914359028922,0.004378159299052442,0.6056599976810011,0.8790099739492492,-0.005299906228564696,0.6116081696157788,0.8642806976443804,0.0,0.0,0.0,0.0
6.111777168464288e-05,0.1699076876490357,0.7493456181536676,0.005938769333437416,-0.5534827898115353,0.008532719161555753,0.8327957283181477,-0.000884603149058698,0.35301558771113445,-0.8758992296329504,0.0024099172147343806,0.3513168103364371,-0.8730628569113634,0.003062490986597599,0.6056225587429099,0.8801493701671597,-0.006607852821275293,0.61183945996339,0.8633869449486323,0.0,0.0,0.0,0.0
0.00015066181433240447,0.17031332262497154,0.7493418622214628,0.005916701014441093,-0.5534805279548999,0.008549575429817064,0.8327972157637421,-0.0018819824403542053,0.3544170130482212,-0.8784775549152263,0.0014141192447344692,0.35112013389968433,-0.8724916500135974,0.0011693891584056383,0.6055624610015485,0.881768453027732,-0.008484831951722652,0.6122355739664832,0.861977446144452,0.0,0.0,0.0,0.0
0.00029725045538504195,0.17091188606740307,0.7493838035242744,0.005832688116311161,-0.5535598425293777,0.008710810377688541,0.8327434192299283,-0.00363209047997471,0.3565056392450922,-0.8819827323922541,-0.0003326148390435282,0.35089862322281823,-0.8709086379513746,-0.0007590624798957063,0.6056760603568212,0.8837510057023623,-0.010396421381448522,0.6135765637046512,0.8598350067620533,0.0,0.0,0.0,0.0
0.0007098815098925394,0.17139657709545345,0.7493474289825061,0.005771461124910658,-0.5534939140448644,0.008737236786148213,0.8327873906616998,0.004574394887937188,0.3518379404313452,-0.8763271071872302,-0.0014918495518447996,0.3525738738995002,-0.8737090661264785,-0.0027985488574661065,0.6058392950672975,0.8860266187023061,-0.012412364731113968,0.614353852412193,0.8585822395420052,0.0,0.0,0.0,0.0
0.0011791461996212413,0.17197305972741367,0.7493153131325273,0.005696270310156782,-0.5534659212476055,0.008832723207124369,0.8328055052188592,0.015355110622182533,0.34770113770055056,-0.8727835490106755,-0.003023864003979757,0.35440355697714865,-0.876383609007419,-0.004943667667893888,0.6060679276970482,0.8886627624339806,-0.014529443422212495,0.6155145486395542,0.8571772148125306,0.0,0.0,0.0,0.0
0.0016599838952374533,0.1726302819931843,0.7492903570081426,0.005612603398002059,-0.5534531212509031,0.00895864803036186,0.8328132346968304,0.026140907715407224,0.34408150835509005,-0.8705245447386024,-0.0048181587698710275,0.356139968780188,-0.8786967979544654,-0.007344666795253893,0.606323440615177,0.8915241964798323,-0.016890117884937116,0.6168756455710964,0.8554635206265772,0.0,0.0,0.0,0.0
0.002134668705469824,0.17333864989304384,0.7492685157687892,0.0055267468968382945,-0.5534447723680599,0.00909055133106224,0.8328179278111765,0.03602380410358644,0.3408336759285961,-0.8689338152557643,-0.0067517071227688585,0.3577297150505958,-0.8806902352087789,-0.009993773845395562,0.6065854904822099,0.8945214965273673,-0.01948193843852223,0.6182984026518321,0.853512810246288,0.0,0.0,0.0,0.0
0.002602799839330519,0.1740732855515046,0.7492464410934169,0.005441285268300011,-0.5534379728882419,0.0092189368922558,0.8328215978122561,0.04493701962511477,0.3378375114297764,-0.8676865439794474,-0.00874402099476353,0.35921506371271833,-0.8824915681760827,-0.012819145773855012,0.6068554295472883,0.8975969852081127,-0.022231630448955552,0.6197255941009419,0.8514337847148087,0.0,0.0,0.0,0.0
0.0030707897042733102,0.17482005558577635,0.7492224449910627,0.00535670110141203,-0.5534329785390382,0.00934178933422497,0.832824096067563,0.053123282084421825,0.3349965643135419,-0.866619310163558,-0.01075619699514223,0.3606602482138552,-0.8842224595972562,-0.015759218218826383,0.6071452875274265,0.9007227754722442,-0.025077766618404898,0.6211483062110312,0.8493032159998043,0.0,0.0,0.0,0.0
