zhuoxili-jackie/tripod-support-walk/examples/trajectory_tripod_reorder_left_v0.15.csv
root_pos_x,root_pos_y,root_pos_z,root_rot_x,root_rot_y,root_rot_z,root_rot_w,FL_hip_joint,FL_thigh_joint,FL_calf_joint,FR_hip_joint,FR_thigh_joint,FR_calf_joint,RL_hip_joint,RL_thigh_joint,RL_calf_joint,RR_hip_joint,RR_thigh_joint,RR_calf_joint,FL_foot_joint,FR_foot_joint,RL_foot_joint,RR_foot_joint
0.0,0.0,0.72963,0.0,-0.5231245161092812,0.0,0.852256264656019,0.0,-0.81,0.872,0.0,-0.81,0.872,0.0,0.65,1.0,0.0,0.65,1.0,0.0,0.0,0.0,0.0
0.0004609793826038974,0.00027267293894300994,0.7295255763548141,6.364368015078067e-05,-0.5233157058287754,-0.00014422618410555237,0.8521388661369814,-0.00033785698622739704,-0.8119867170255409,0.8765647208677572,-0.00033785698622739666,-0.8112894830310049,0.8749559704689012,-0.003164538369866304,0.6519346446436114,1.002040416392388,-0.0031645383698663053,0.6507814639752534,0.9998417397240977,0.0,0.0,0.0,0.0
0.0013972282947248527,0.0005869719788783703,0.7293763176856312,7.584901200947703e-05,-0.5235566121662629,-0.0001985467691196254,0.8519908618542179,-0.0009961050647753203,-0.8166398096152188,0.8860522349583898,-0.0009957426981601234,-0.8146399776743485,0.8822172952155825,-0.005791015356379809,0.6549499675747994,1.0041873820978897,-0.00576220603838367,0.6531515739280633,0.9997103811115994,0.0,0.0,0.0,0.0
0.0028363008304744556,0.0008534049830114921,0.7292029175139785,5.393163482645923e-05,-0.5238633452444195,-0.00019453604177484415,0.8518022979285941,-0.0016755725229564132,-0.823579312427443,0.9000808902347425,-0.0016743373937227512,-0.820261531575099,0.8942259033144481,-0.007583564153863864,0.6593582115651362,1.0059515160435761,-0.007518817296850095,0.6572883656489896,0.9996619314040209,0.0,0.0,0.0,0.0
0.004804553148631928,0.0010593161312164984,0.7290264225784566,-2.961135138252479e-06,-0.5242520407090001,-0.0001354737177809489,0.8515631388514608,-0.0023362273109020022,-0.8326355074275924,0.9185372151792537,-0.002333699831319293,-0.8280564637750731,0.9109797943863215,-0.00844993315134685,0.6654107119856163,1.0070499193913427,-0.00835891448304918,0.6634534676402274,0.999490964877173,0.0,0.0,0.0,0.0
0.007322245571191749,0.0012523248053666718,0.7288835550017216,-0.00011793909427187367,-0.524749558959732,1.156579971487158e-05,0.8512566512680938,-0.003175974491324204,-0.8436881341285956,0.9413946456108149,-0.003171364864601828,-0.8375129005511933,0.9319720977893462,-0.008311551002630174,0.6733552130381896,1.0072194728477177,-0.008213645731831443,0.6721153824111414,0.9986775189951073,0.0,0.0,0.0,0.0
0.010402579059308494,0.0015286659086430603,0.7288364296970253,-0.00037481905068831626,-0.5254814342645541,0.0004194604539306872,0.8508048811607006,-0.004865112717783614,-0.8562915484473799,0.9683097061710972,-0.004855181093005095,-0.8469950241542432,0.9556308353217429,-0.006038241602502457,0.6833709159814165,1.0061465174455972,-0.005975572678081688,0.6845747999157712,0.9966198519968711,0.0,0.0,0.0,0.0
0.013482434403479224,0.001788338490572619,0.7285580903609195,-0.0005304286447782011,-0.5253703095877419,0.000523617780770454,0.8508733644165579,0.005907370759007022,-0.8531695744339263,0.9358412427453201,-0.0057540645121130765,-0.8623251757359638,0.9839207837724099,-0.006240913275471712,0.691083309214712,1.0054463711933603,-0.006162152833566113,0.6929443013631499,0.9943888342743202,0.0,0.0,0.0,0.0
0.01644132971656414,0.0022937277928644206,0.7281287644601259,-0.000740426096894072,-0.5253546371351191,0.0007726852741621778,0.85088269459855,0.016913531626939458,-0.8607504496304297,0.9114605036107851,-0.0076699185545909855,-0.8756593955521653,1.008786292868182,-0.006933632049681479,0.6977931418914205,1.006928257939089,-0.006833044021490908,0.7008758750534521,0.9929653018248977,0.0,0.0,0.0,0.0
0.019032587372430503,0.0029462728270676416,0.7276866326950453,-0.0009641643229342176,-0.5254438308484688,0.0010688824946409967,0.8508270732062166,0.02718857912920352,-0.8740194751072405,0.8938975474897326,-0.010115822998541288,-0.8859766868962481,1.0286450618677363,-0.008373945202272071,0.7036811632178324,1.009442170385907,-0.008235234419460866,0.7080063804012015,0.991661334855274,0.0,0.0,0.0,0.0
0.021174549979355667,0.0037010111846836422,0.727306315475262,-0.0011763861170257864,-0.5255746452835613,0.001363112738971683,0.8507455849279637,0.03656316914482144,-0.8898103259655548,0.8803585130984785,-0.012850322451929606,-0.8934345839488417,1.0436186052171703,-0.01079754631982522,0.7087872213997298,1.0122707182026942,-0.0105895295408697,0.7140569935380351,0.9899597718442152,0.0,0.0,0.0,0.0
0.022881592520538094,0.0045058704717233925,0.7269972330436977,-0.0013689160037859342,-0.525707500701518,0.0016346225095189636,0.850662728573663,0.04515481544717895,-0.90650424045541,0.8688558561260968,-0.015675854433093588,-0.8985786232355305,1.0544698363843346,-0.01404736465943172,0.7130825886176856,1.0151623763579727,-0.013723736261949842,0.7189229007349339,0.9879231526181114,0.0,0.0,0.0,0.0
0.024217918896556494,0.005313418082109531,0.726750232913817,-0.0015429977219552208,-0.5258223984991067,0.0018804878122100522,0.8505909052889438,0.05312361294833401,-0.9231588665458497,0.8582255360536895,-0.018450799251212555,-0.9020138185677471,1.0621518040066464,-0.01775777294826891,0.7165971234632107,1.01797666394013,-0.017264161714025714,0.7227181507301985,0.9857326270863258,0.0,0.0,0.0,0.0
0.025257206799409727,0.0060887181103527355,0.726545530102014,-0.001699668716987243,-0.5259124507037772,0.002098244242625498,0.8505344218149539,0.06058108406193228,-0.9388524812805108,0.8480307155635606,-0.02107052609768468,-0.9042797570035768,1.0675282113977067,-0.021630889720790726,0.7193950057888812,1.0206952033118144,-0.02091519515217802,0.7255866646615126,0.9836076713972359,0.0,0.0,0.0,0.0
0.026052545208005137,0.006808395180032611,0.7263551886505824,-0.0018405401246006617,-0.525966457404878,0.002288102547870165,0.850500242612395,0.06756428987060999,-0.9522600314213444,0.8385072955565872,-0.023470913577496942,-0.905824399956903,1.0712385270547042,-0.025424098167389685,0.7214335652741711,1.0234132184052687,-0.024446684687215194,0.7275643224360481,0.9818104520011448,0.0,0.0,0.0,0.0
0.02664185240992946,0.007480754940490667,0.726190902126651,-0.0019710135567234765,-0.5259789818682302,0.002460437740029166,0.8504917236425917,0.07403342071036415,-0.9614437868173152,0.8307464570360249,-0.02569772588924023,-0.906769924326873,1.073579066732846,-0.029043805095428935,0.7228192592694485,1.025990370499236,-0.027778329740879064,0.7288525043728915,0.9801634786892321,0.0,0.0,0.0,0.0
0.02703001268926638,0.00810425901168713,0.726060877822546,-0.002092270153032546,-0.5259559823833319,0.00261943566159868,0.8505051825577583,0.08003989266036293,-0.9640984517580865,0.8265433921320294,-0.02775493105814256,-0.9070774341077075,1.0745562744302217,-0.03239796795207998,0.723586526900507,1.028355473606106,-0.03083418639233353,0.7295443594224155,0.9786123189088227,0.0,0.0,0.0,0.0
0.027209107383548235,0.008678748693827718,0.7259696064515312,-0.0022089100354103267,-0.5259284980165507,0.0027745178235275662,0.8505213917012067,0.08561603480678846,-0.9587155219487408,0.827705357350038,-0.029659985449779793,-0.9065089314375601,1.0739361755921673,-0.035346361668587206,0.7237683543867552,1.030526772881064,-0.033495591014415974,0.7297638001838237,0.9771965104450158,0.0,0.0,0.0,0.0
0.02720331773091678,0.00927229579415317,0.7259108779329667,-0.002331311115970169,-0.5258579663429627,0.002938206610954949,0.8505641252510214,0.0906225194953906,-0.9467724103839347,0.8322715412644153,-0.03162406015680157,-0.9052069379455887,1.0718490269104448,-0.0382714870526735,0.7233198928465978,1.0326694825284168,-0.036122890172517186,0.7294515115414412,0.9756392726087729,0.0,0.0,0.0,0.0
0.027042642527843084,0.009953918274826619,0.7258857889087421,-0.0024760373713541973,-0.5257329567013883,0.0031326125250835373,0.850640296609395,0.09502795909302444,-0.9305138725904731,0.8383753536244973,-0.033882306619964275,-0.9031319933528408,1.0683009107491193,-0.04145306629565031,0.7222956369236543,1.0349056992306864,-0.03896739702331503,0.7287217281719618,0.9736340331631236,0.0,0.0,0.0,0.0
0.02673965937290997,0.01076283801402472,0.7258954889577506,-0.0026547451296491708,-0.5255615798199278,0.003377482517140983,0.8507447153860697,0.09913469757753386,-0.9117500919921051,0.8448375603082608,-0.036583645668578496,-0.9001363022676567,1.0631613314423882,-0.044969944586025004,0.7207321184861681,1.0373163619472408,-0.04209182970775821,0.7277034172822131,0.9710323310920848,0.0,0.0,0.0,0.0
0.026295441221498107,0.01169517577580562,0.7259343109318674,-0.002871484101869459,-0.5253682978974105,0.0036851701408323213,0.8508621073149654,0.1035623647894949,-0.8915899635304397,0.8511072037070422,-0.039743242921189456,-0.8960733566223117,1.0562931553585473,-0.04864563072517303,0.7186298218030016,1.0399529361928666,-0.04533046996674797,0.726505304796975,0.9679388552842493,0.0,0.0,0.0,0.0
0.025720581622235717,0.01268711929187484,0.7259745145700497,-0.0031255840489398264,-0.5251985849440912,0.004060696131929083,0.8509642694285121,0.10908917394190888,-0.8706839794015672,0.8569841535900269,-0.04319873884750332,-0.8909503336840185,1.0477859347724232,-0.05189576522415726,0.7159449562406298,1.0428983700922099,-0.048163770613292765,0.725230480733706,0.9648984167656419,0.0,0.0,0.0,0.0
0.02506608036372956,0.013595590712717074,0.72594473763636,-0.0034173427035177157,-0.5251301427177776,0.0044982359960095124,0.8510031849828633,0.11628425362855148,-0.8497350716744968,0.8621990891404081,-0.04655185478892983,-0.8851217697561473,1.038271081517879,-0.05358888323036944,0.7126150878239774,1.0463792163300543,-0.04960588833050086,0.7239919968803827,0.963153707631399,0.0,0.0,0.0,0.0
0.024463174390029374,0.014236633743681405,0.7257893120014552,-0.0037633721803133407,-0.5252779628999955,0.0049875309421063534,0.850907764247433,0.12454246481778963,-0.8301591382427489,0.8659655388715535,-0.04928163081826758,-0.8791405503829178,1.0290296951108682,-0.0522393873167297,0.7089725662068832,1.0503187194846242,-0.04836470019381048,0.723338994308571,0.9639279256232292,0.0,0.0,0.0,0.0
0.02405254339034877,0.014467623850589511,0.7255859256174988,-0.004180296195798611,-0.5256121670102983,0.005421008321874534,0.8506967660002168,0.1307316815686033,-0.8142749044078587,0.8650596898847096,-0.05072346997260686,-0.874079996266785,1.021989099444047,-0.04744389296149121,0.7058614887330044,1.0534515017685404,-0.04405412821524108,0.7238045704722759,0.9666943822143594,0.0,0.0,0.0,0.0
0.02406407345706071,0.014485820724341422,0.7255808599662388,-0.004194840772905831,-0.525603693542925,0.0054253684275980775,0.8507019019740991,0.13074539393147097,-0.81424712749021,0.8650774208308063,-0.050766623386606854,-0.8740857898592932,1.0219794616841256,-0.047459752752368314,0.7058371793953893,1.0535000082455674,-0.044035957755433605,0.7238308929571096,0.9666410174019843,0.0,0.0,0.0,0.0
0.02406407345706071,0.014485820724341422,0.7255808599662388,-0.004194840772905831,-0.525603693542925,0.0054253684275980775,0.8507019019740991,0.13074539393147097,-0.81424712749021,0.8650774208308063,-0.050766623386606854,-0.8740857898592932,1.0219794616841256,-0.047459752752368314,0.7058371793953893,1.0535000082455674,-0.044035957755433605,0.7238308929571096,0.9666410174019843,0.0,0.0,0.0,0.0
0.02497775091745192,0.014655934893536397,0.7275496341606,-0.0035213927624424394,-0.5250727558179936,0.004590967420830099,0.8510376747881677,0.1323692839120513,-0.8137457492353941,0.8732698855135751,-0.04935220275556534,-0.877016188271852,1.0314783329751398,-0.06076542051346114,0.7200184868971797,1.0356181516500362,-0.02791087525918479,0.7030360262660316,1.0078957941657962,0.0,0.0,0.0,0.0
0.026153782235441382,0.015133616108060318,0.7300208288129455,-0.0031577421801491537,-0.5248416328149937,0.004118766079682911,0.8511840722748493,0.13233677670338848,-0.8134481523132842,0.8841808435108256,-0.04949148720764324,-0.8758633546310856,1.0389098462740858,-0.07153678911313147,0.7370321029656013,1.0135032420004093,-0.015203812175794258,0.6873318938499776,1.042496415881359,0.0,0.0,0.0,0.0
0.02731298511749927,0.015943798278042955,0.7324006308725702,-0.0030284718537967373,-0.5247211712081912,0.0039475300707412855,0.8512596183600368,0.13076105028853482,-0.8145491928660341,0.8965845080687131,-0.0511761980406789,-0.87245842639284,1.0436052931060007,-0.08105333079803978,0.7532294596113488,0.9925033262925654,-0.00707106203726713,0.6754122292263721,1.0722348384173688,0.0,0.0,0.0,0.0
0.028393050346409703,0.017027276678762044,0.7345410127030815,-0.003049054360141174,-0.524622493541377,0.003987832560353104,0.8513201746284457,0.1280167312669624,-0.8171821857714008,0.9099786596819432,-0.054062125657797694,-0.8679648144322396,1.0461597574324388,-0.09011775940209986,0.7677561957915855,0.9739843006177469,-0.0013946011238458109,0.6663379915209362,1.0993606263436615,0.0,0.0,0.0,0.0
0.029371231396048587,0.018279226755069263,0.7364373369558754,-0.003155671715734046,-0.5245093400587766,0.00413072961422559,0.851388824803323,0.1246266214212439,-0.8208183378511109,0.9235921504013344,-0.057611284008946835,-0.8630726195230249,1.047213031502421,-0.09918243971122824,0.7806442038962123,0.9579375879644704,0.002662325007737525,0.6592486079958984,1.1249836813345089,0.0,0.0,0.0,0.0
0.03015872934918961,0.01954311665858371,0.7381160905277696,-0.0032879940074640036,-0.5244007124445618,0.004294715627076224,0.8514544246762275,0.12112852346968264,-0.8241369177090316,0.9355362791182407,-0.061214832781772824,-0.8578578910737915,1.0466905219096752,-0.10797398340282192,0.7918733088227263,0.9440206562799652,0.006030733220379095,0.6532699582293953,1.149562451060085,0.0,0.0,0.0,0.0
0.030722013935396694,0.020724641047103923,0.7395853706099642,-0.0034141010370850296,-0.5242956690379059,0.004433177894639753,0.8515179048475479,0.1178578572883796,-0.8266076942641428,0.9450498286341985,-0.06451702084181116,-0.8525553145656144,1.0448081129475462,-0.11624726152712395,0.8013954675029635,0.9320654050598667,0.00916723740359188,0.6479471503071335,1.1727894095904692,0.0,0.0,0.0,0.0
0.031027375587677045,0.021791634216771126,0.7408284359206285,-0.003516193747357586,-0.524185280044323,0.0045263575587366055,0.8515849579775562,0.11493628981486677,-0.8280879972046485,0.9518058309170592,-0.06739352479266059,-0.8473004233471753,1.041568186337453,-0.12395991200722009,0.8089909683597729,0.9222823944942911,0.01252913540302952,0.6431711875368796,1.1935696530779802,0.0,0.0,0.0,0.0
0.03101734911681681,0.02276077947696615,0.7418067970039128,-0.0035808200851021365,-0.524050076527956,0.004564052691499629,0.8516676960185767,0.11233628760092,-0.8286089622467925,0.9555713862691124,-0.06987128604372685,-0.8421047942767461,1.0366420719540197,-0.13136913782096812,0.8142378548854867,0.9152583368858408,0.016731702008914436,0.6392249219320066,1.2096147425462993,0.0,0.0,0.0,0.0
0.03061226682006236,0.023691678544326904,0.7424694851664261,-0.0035931043025818074,-0.5238533516858971,0.0045377577268537325,0.851788802628759,0.10991399054297972,-0.828340808261634,0.9561847558195917,-0.07209426387657178,-0.836899139466211,1.029430221490719,-0.1390736059883684,0.8165627109926017,0.9118371737632727,0.022689637378343622,0.6371929414413299,1.2168307040523605,0.0,0.0,0.0,0.0
0.029755521403185468,0.024666797342430987,0.742801150845048,-0.003541434650427696,-0.5235479450542865,0.004444839318096133,0.8519772595988034,0.10745869614106189,-0.8275591564659308,0.9537697759160888,-0.07427779173139859,-0.831552190663678,1.0193842534801185,-0.14774896188824502,0.8156142831278249,0.9124779519293401,0.03147889207604819,0.6396434279864515,1.2091659855877106,0.0,0.0,0.0,0.0
0.028431514541506886,0.025699239969879585,0.7428729616845049,-0.0034328337617556145,-0.5231509567486086,0.004289731072201627,0.8522223244627589,0.10491936923749905,-0.8259102583187239,0.9480381154902534,-0.07644513596542385,-0.8255679341729147,1.0060278130038838,-0.1572548358238281,0.8116954719557817,0.9165155463519147,0.042323549270980795,0.6437885611978243,1.1927097598469367,0.0,0.0,0.0,0.0
0.026658668557314705,0.026811508881054207,0.7427895293844787,-0.0032706479941716177,-0.522665714887859,0.004076250387829877,0.8525216932871781,0.10223180735323074,-0.8231538317145712,0.9390177423996713,-0.07864630003260281,-0.8185089622917023,0.9891008983544942,-0.16753450877020445,0.8053859067637908,0.9228382050339068,0.054803617357727555,0.6483339584539124,1.1716837259235502,0.0,0.0,0.0,0.0
0.02446476877848349,0.028037275257052727,0.74263472622504,-0.003046331313756402,-0.522079567745939,0.0037973293975285907,0.8528828906111242,0.09933415425305091,-0.8192176729724143,0.9269131756106969,-0.08094485554601952,-0.8101181789578523,0.9684743873547224,-0.17879497388890378,0.7972112556914425,0.9305219173392604,0.06917412017371799,0.6527997946632106,1.1487541241313166,0.0,0.0,0.0,0.0
0.021915088436357855,0.02940008906769023,0.7424495091146627,-0.002740462672350746,-0.5213675479421631,0.0034358494092007826,0.8533209037378346,0.09622655188241604,-0.8143366888546957,0.912304390218623,-0.08337224567333924,-0.8005580226692071,0.9445160465602567,-0.19133596944345205,0.7876066337533861,0.9389641051912644,0.08665465416148975,0.6572436676582498,1.125863768579455,0.0,0.0,0.0,0.0
0.019181894042618913,0.030892619507853176,0.7421982211503847,-0.0023184132217128747,-0.5204717446861915,0.0029532955404772514,0.85387063773671,0.09307179093614627,-0.8095526530935535,0.8968963182555642,-0.08587101829918084,-0.7910746596691667,0.9190674887525206,-0.20557899963180945,0.7769524605377106,0.9480312555675696,0.11004877708642431,0.6625903721185692,1.1048611218068056,0.0,0.0,0.0,0.0
0.016620872790691195,0.03237171758283569,0.7417507320522195,-0.0017045743671021986,-0.5192323781949562,0.0022254560246689867,0.8546285036234863,0.09064197319255694,-0.8071553946799793,0.884193809750526,-0.08791486917256892,-0.7853854064249985,0.8973908895261924,-0.22188752203114298,0.7656332186149505,0.9577633820860402,0.1449596040505918,0.6711576271939403,1.087401731427337,0.0,0.0,0.0,0.0
0.014489375412421806,0.03366572344839375,0.7410474327714254,-0.0008630132918456355,-0.5176129639281632,0.0011758366229894914,0.8556136348783814,0.08961401320957786,-0.8082494445901464,0.8762505049045258,-0.08896442264126514,-0.7860206184450581,0.8835571233861536,-0.23980772743177284,0.7541759577258585,0.9678627990445724,0.19628458669869875,0.683097213619686,1.0758190435201742,0.0,0.0,0.0,0.0
0.012964625091453647,0.034567903825113364,0.7399480594564991,-6.923430003930863e-05,-0.5158160008561521,5.266497517407148e-05,0.8566993905062488,0.09003782713542632,-0.8134575633447014,0.8739579569259225,-0.0889661800738229,-0.7930537474277463,0.8789577121444831,-0.2544344560305592,0.7419548958556338,0.9791869067000196,0.2523632806301091,0.6926904375122005,1.0731255943350413,0.0,0.0,0.0,0.0
0.01297892838937503,0.034591258654698816,0.7399148166317346,-2.2547193056047625e-05,-0.5158154722316274,2.0337472738104398e-05,0.8566997126674402,0.09006252764885493,-0.8134617528293098,0.8739655469625908,-0.08895491478277652,-0.7931095004177735,0.8788498168820083,-0.2544469645804331,0.7418809988196994,0.9791236051220953,0.2523661063656138,0.6927033334616765,1.0731250115492854,0.0,0.0,0.0,0.0
0.01297892838937503,0.034591258654698816,0.7399148166317346,-2.2547193056047625e-05,-0.5158154722316274,2.0337472738104398e-05,0.8566997126674402,0.09006252764885493,-0.8134617528293098,0.8739655469625908,-0.08895491478277652,-0.7931095004177735,0.8788498168820083,-0.2544469645804331,0.7418809988196994,0.9791236051220953,0.2523661063656138,0.6927033334616765,1.0731250115492854,0.0,0.0,0.0,0.0
0.01241183805681955,0.034736747467316094,0.7401209806815793,-2.0286938663729452e-05,-0.5167046612627406,4.979897190422906e-05,0.8561637052210628,0.08929615751489224,-0.8051995109883621,0.863703206219578,-0.08907756940119113,-0.7838911126520153,0.8670669252258171,-0.2566660420523546,0.7440365034365402,0.9798506035342774,0.25298353736600926,0.6948244052222127,1.073285700705769,0.0,0.0,0.0,0.0
0.012217256713286917,0.03494731153288328,0.7401436163284273,-6.823228998901068e-05,-0.5172125034935214,0.00012523563226617989,0.8558570008420537,0.08845233010154109,-0.8019509247042449,0.8599013850787696,-0.08962377504440328,-0.7789452764536119,0.8608571422555559,-0.2585602422486832,0.7452154364522273,0.9813499055851388,0.2534624863891545,0.6962369929513258,1.0737836229793403,0.0,0.0,0.0,0.0
0.012532274298950527,0.035252646700266066,0.7401063291520312,-0.0001475761898466184,-0.5175362816406877,0.00022125040726742352,0.8556612217782551,0.0874812544289913,-0.8029893186916071,0.8629140805277731,-0.09058310979817046,-0.7775045640708083,0.8603907051579535,-0.2614081450402297,0.7473103374695859,0.9827607303450745,0.25398769933633275,0.698581453722501,1.0736915769953532,0.0,0.0,0.0,0.0
0.013426602827090316,0.035698246198985706,0.7400452790068652,-0.0002585190256569259,-0.5177627635588788,0.00033322491213134145,0.855524133383123,0.0862685952836211,-0.8081653390291037,0.8730761766912442,-0.09205125331889731,-0.7791811317379144,0.8656233035820778,-0.26603333033105503,0.7511382078911211,0.9839328138171693,0.254526945604401,0.7025477886941313,1.0726558892924027,0.0,0.0,0.0,0.0
0.014947947573542309,0.03633120368925957,0.740025484603355,-0.0004039451858572259,-0.5179624763312747,0.00045195985845073827,0.8554031246572267,0.08470409845746545,-0.8171110989150473,0.8903507723380523,-0.09411428311237555,-0.7833932014722418,0.876177773089272,-0.2732918647022065,0.7575645596729352,0.9844234289456301,0.2548852829700496,0.7087996991716783,1.070024339529649,0.0,0.0,0.0,0.0
0.017190619152140693,0.037198168930782274,0.7403214253226267,-0.0004988214658466636,-0.518400066300398,0.0004610827067398112,0.855137947842116,0.08285736101937889,-0.8274682348845457,0.913317860629073,-0.09658501229969503,-0.7882791601004864,0.8908851981106554,-0.2864353272841456,0.7698302461497014,0.9821884431758807,0.2537905503750133,0.7193421844598372,1.0635187651440046,0.0,0.0,0.0,0.0
0.019859001657559446,0.03866825123774151,0.7420192301313799,0.0006335763323042941,-0.519664738406671,-0.0009377243681042455,0.8543695212908562,0.08223799024639239,-0.8274367576740477,0.9320485468408127,-0.09749232446020151,-0.7887612670796785,0.903732133085655,-0.21838565551067315,0.7402617086350898,1.0123781463530703,0.22696738075882802,0.7333178739530722,1.0429968034266863,0.0,0.0,0.0,0.0
0.02267840773548571,0.04024908420688411,0.7434663190155886,0.0015846817541858586,-0.5208767174943145,-0.002107188479863817,0.8536278426297941,0.0808284640559141,-0.8298175425440983,0.9532513331213978,-0.09928820809646938,-0.789781781300821,0.9171745477730282,-0.15983466617820546,0.7167711197524205,1.0390175636187846,0.20109894131343217,0.7470806588467491,1.0232739405871596,0.0,0.0,0.0,0.0
0.025297152395810353,0.041678746833300404,0.7446161179621574,0.0021593023887532675,-0.5217885699624102,-0.0028198117606312648,0.8530674500480084,0.07883427558571425,-0.8345229951329847,0.974514959317289,-0.10173327356854119,-0.791228812142903,0.9299012838486517,-0.12028155197849752,0.7003390478483857,1.0638116005162517,0.1814254230985098,0.7597259972561461,1.0058837698361176,0.0,0.0,0.0,0.0
0.027535687379356275,0.0428575739708038,0.7455497442495769,0.0025023194729947465,-0.5224570953083904,-0.0032514320794532836,0.8526557043429707,0.07686318272999738,-0.8394522267015009,0.9931067651430313,-0.10413057327140851,-0.7926057347291092,0.9408607852952406,-0.09349852666050909,0.6884400467871763,1.0878557351341174,0.16684777609804874,0.7707192915603944,0.9910184990534903,0.0,0.0,0.0,0.0
0.029362220985364153,0.04379744792672122,0.7463501282922927,0.0027290502288208657,-0.5229572201973927,-0.0035375320630284257,0.8523472203246558,0.07515789318967209,-0.8435486609020363,1.0082054986173061,-0.10618833508036875,-0.7935805219696992,0.9497010961801959,-0.07379218575883498,0.6790837738689244,1.1114795362094492,0.1557001921345394,0.7800241823657784,0.9782612578709431,0.0,0.0,0.0,0.0
0.03081580719929651,0.04455989303729942,0.7470600516145091,0.0029007881922192406,-0.5233418946131381,-0.0037503110462361257,0.852109606762916,0.0737139037495112,-0.8466118876875306,1.0200930840687077,-0.10790005304085747,-0.794032445586446,0.9564662391717652,-0.05777535032775337,0.6711135916106102,1.1345831787682101,0.1466303203608393,0.7877607664112094,0.9671813368800175,0.0,0.0,0.0,0.0
0.03195021309929759,0.04522180392294263,0.7476737189549751,0.0030431988366869077,-0.5236467819577599,-0.003921707678357805,0.8519210097743852,0.07240901363249343,-0.8488709392655768,1.0294114363410753,-0.10939514696079704,-0.7939573139788609,0.9612742067917419,-0.04376276390888968,0.6639603688596901,1.156643784384677,0.1386531187052769,0.7939688560854271,0.9576452042955732,0.0,0.0,0.0,0.0
0.0328007888195349,0.045854819639951715,0.7481399640595966,0.003161848619383713,-0.5238952104179112,-0.004060989672964505,0.8517671745127049,0.07108842517906647,-0.8507126273057838,1.0367466807402597,-0.11084005619596986,-0.7934070946588968,0.9641466516644457,-0.03112287782196692,0.6574522613532798,1.1764780706407212,0.13112084997134496,0.7984782743869868,0.9499516270813388,0.0,0.0,0.0,0.0
0.03336851323317014,0.04650972940628958,0.7483697965364966,0.003251239999599222,-0.5240989163918582,-0.004164522825489763,0.8516410112394665,0.06962358511735675,-0.8525336556826342,1.0424246441120035,-0.11237285898928039,-0.7924772995507036,0.9649659867202603,-0.019911100153202972,0.6518527711843324,1.1917863404519262,0.12373804067200227,0.8008639603766186,0.9448650433212736,0.0,0.0,0.0,0.0
0.03362570646318308,0.04720572439894799,0.7482555635598322,0.003299578122083216,-0.524255215754283,-0.004220873467994317,0.851544341632198,0.0679509393397278,-0.8546850372886091,1.0465087061095646,-0.1140653382756489,-0.7913338071302336,0.9635767599256745,-0.010692391219129085,0.6482705630780081,1.1984854148041668,0.11659171509134199,0.8005389789653065,0.9434584912586544,0.0,0.0,0.0,0.0
0.03356092411277795,0.04793914309205977,0.7477292366730891,0.0032959962347859236,-0.5243503766922727,-0.004221460314238209,0.8514857592140384,0.06607271044210128,-0.8574439658473769,1.0490873858397423,-0.11592787288235659,-0.7901973878530455,0.9600428197918868,-0.00424976787819205,0.6493551029094203,1.1904647979538254,0.10992528486396312,0.7971521921782982,0.9464217443928987,0.0,0.0,0.0,0.0
0.033199380469016014,0.04876482684978037,0.7468096890298879,0.0032514288023033303,-0.5244145631401395,-0.004174426946639754,0.8514466327004573,0.06385570497083207,-0.8607857124058671,1.0503635306987953,-0.1180828115475456,-0.7887997761948183,0.9541340175187143,0.00044947621710589476,0.6525348728572326,1.173812700835462,0.10312771207599306,0.7908842840501753,0.9533541494271157,0.0,0.0,0.0,0.0
0.032590472562310055,0.04971006646153092,0.745558279949904,0.0031819571375775856,-0.5244664230257527,-0.004097408238826516,0.8514153260971236,0.06126048467732553,-0.8646006922419875,1.0505888498155354,-0.1205663911411749,-0.7869836470169299,0.945935272695739,0.004301487701905959,0.6567790961050038,1.1525354194276816,0.09569270730012817,0.7821783033900449,0.9634077886405766,0.0,0.0,0.0,0.0
0.031771653225570094,0.05075487383557464,0.7440293329568247,0.003107638281017163,-0.5245137357338303,-0.004012588990500738,0.8513868584494649,0.058381738947404165,-0.8686729001102662,1.0497774132946764,-0.12328626574005747,-0.784764777491335,0.9357117907300488,0.007956348777126837,0.6619192803890497,1.1287908581983386,0.08747405361771388,0.7714115695834145,0.9759397604278076,0.0,0.0,0.0,0.0
0.030775595004039882,0.05182352605854595,0.7422586428635624,0.0030579212927238524,-0.5245624495361056,-0.0039559679812822416,0.8513572904318016,0.05549441155633858,-0.8726608938029592,1.0477003055356224,-0.12598177537841407,-0.7824193651326774,0.9240303893534387,0.01193656989222911,0.668282092736027,1.103546715254076,0.07865339435644417,0.7588609239088571,0.9906629335518722,0.0,0.0,0.0,0.0
0.029691041468298904,0.052765271378062376,0.7402669687951117,0.0030806075556873307,-0.524607920249375,-0.003986003523726395,0.8513290501589982,0.05313228851503361,-0.876324206206076,1.0443527270729256,-0.12818053146242672,-0.7809107218212037,0.9125114219893855,0.01710417441295555,0.6766695257488761,1.0768826936754399,0.06977508646795219,0.7448836093140037,1.007550677886295,0.0,0.0,0.0,0.0
0.028552024560473215,0.05348474076493182,0.7381018685668633,0.0032345789070159065,-0.5246664921934794,-0.004203151204480236,0.8512913384903175,0.05178433202330742,-0.8790517040774197,1.0393013807092955,-0.12942263891236433,-0.7807394025677622,0.9020180199643691,0.023873108500485865,0.6878138771598986,1.0481521481808151,0.06035065832667462,0.7295821414104439,1.0262534213785517,0.0,0.0,0.0,0.0
0.027418256627681246,0.053932651846286275,0.7359186652249222,0.003592341035972935,-0.52478004661035,-0.004679582221371616,0.8512174218586891,0.051728813435891086,-0.8800053932583178,1.0322623086814575,-0.1294296244461961,-0.7818924699412503,0.893144800962588,0.03377604870062427,0.7023316728292948,1.015655757921776,0.04966322558748933,0.7136994427020995,1.0453641331944865,0.0,0.0,0.0,0.0
0.02656083752464356,0.054121931823278194,0.7342031219545754,0.004201263925009077,-0.5250335939998471,-0.005449187025482609,0.8510536886200527,0.05297828441126303,-0.8782802770539246,1.02449732445022,-0.1281675412619021,-0.7837766118468149,0.8873697692099264,0.045761578544462354,0.720748043334677,0.9782746370952783,0.03700838252963712,0.7003011847366603,1.0603030379321592,0.0,0.0,0.0,0.0
0.026575751474662002,0.05412802857698707,0.7341648537970908,0.004210660554160282,-0.5250450683899306,-0.005453428083723301,0.8510465361067199,0.0529749064051853,-0.8783163022595458,1.0245036659198399,-0.1281753586001686,-0.7837911406007377,0.887314415248069,0.0457661885616585,0.720757700496737,0.9782698374765111,0.03699422370686287,0.7002983276065384,1.060313016959756,0.0,0.0,0.0,0.0
0.026575751474662002,0.05412802857698707,0.7341648537970908,0.004210660554160282,-0.5250450683899306,-0.005453428083723301,0.8510465361067199,0.0529749064051853,-0.8783163022595458,1.0245036659198399,-0.1281753586001686,-0.7837911406007377,0.887314415248069,0.0457661885616585,0.720757700496737,0.9782698374765111,0.03699422370686287,0.7002983276065384,1.060313016959756,0.0,0.0,0.0,0.0
0.026930320070566043,0.05427145555100333,0.7343056573877285,0.0038101006487999967,-0.524992709713129,-0.004946165586983094,0.851083822738453,0.0515024600907339,-0.8815758041500511,1.0293311415416084,-0.1198422442800051,-0.7995786359493335,0.8871233601881137,0.051446356526460665,0.7202504761480552,0.9762511457878678,0.04323494607586193,0.7042410140882519,1.0584406153659274,0.0,0.0,0.0,0.0
0.02742889350727788,0.05485344410331096,0.7344054913205263,0.0034624065807776438,-0.525007474847947,-0.004398883598517848,0.8510792048437903,0.04873914576705567,-0.886306695301495,1.0367361708015213,-0.10944104584242638,-0.8195195644736547,0.882832569858225,0.05366137754621113,0.7205251785152968,0.9761076571283266,0.04570249788190153,0.7081140514230132,1.0555429906382248,0.0,0.0,0.0,0.0
0.027936351941863675,0.05573522966689244,0.7344100413147961,0.0031371102650543953,-0.5251361181862736,-0.0038996430900825876,0.8510035303682394,0.04528733821686256,-0.8913321852500434,1.0447413805637946,-0.10072081618590215,-0.8406564339081675,0.877568363523695,0.053104778368190296,0.7211082972422257,0.9781840786866425,0.04501500392141507,0.7113415657703028,1.052677381873924,0.0,0.0,0.0,0.0
0.028293629321053157,0.056725666537213386,0.7343763918302694,0.0028375015381067003,-0.5253090115078796,-0.003467064156208874,0.8508997417321105,0.04168490991593686,-0.8956349120115851,1.051496964316288,-0.09429531727231515,-0.8615282579824582,0.8718983386686471,0.050965060895532016,0.7215185818293518,0.9813744222519952,0.04252465936159305,0.7136035802646004,1.0500216536961078,0.0,0.0,0.0,0.0
0.028453008588781935,0.05768448259126083,0.7343786267655441,0.0025694256727415315,-0.52549078608357,-0.003102836024489219,0.8507897532302495,0.03830294283958831,-0.8986286893837481,1.056182710160293,-0.0895353608276654,-0.8817154255037472,0.8658720023783586,0.048208962508739614,0.7217723935872453,0.9844950894270781,0.03936810271443345,0.7151245387771651,1.0473786838809716,0.0,0.0,0.0,0.0
0.028398797104063924,0.05855672028055079,0.7344335130733373,0.002332595801441294,-0.5256580711120151,-0.002792929179502117,0.8506881630881089,0.035257235173739285,-0.9002312729796643,1.0586113368114491,-0.08556909800289693,-0.9010548823581465,0.8593137063024967,0.04537023957671088,0.721731780592561,0.9871718976212916,0.03616989229045224,0.7159820317349066,1.044778064494,0.0,0.0,0.0,0.0
0.028129194741505964,0.05933659729194272,0.7345502701656357,0.002123217278499748,-0.5257951827902164,-0.0025210045701563174,0.8506048214294041,0.03252828544371538,-0.9005234158660543,1.0588568149015714,-0.08164341983816122,-0.9190730834084722,0.8522512998917963,0.042664001917333806,0.7213117785794204,0.989269699274489,0.033174501643667496,0.7162404785142042,1.0421546354731097,0.0,0.0,0.0,0.0
0.027625707081007294,0.06005429007657819,0.7347323360584201,0.0019329364642167283,-0.5258889204597633,-0.0022704028593863845,0.8505480306044721,0.029999770813424465,-0.8996006530199299,1.0569634795359097,-0.07725603776237111,-0.9346380882831481,0.8451770541897572,0.04005014593715906,0.7203822247786463,0.9908597131102183,0.030335570347412466,0.7158518880296051,1.0394036159109694,0.0,0.0,0.0,0.0
0.026836057752466613,0.060770041813939496,0.7349772899895418,0.0017480564793647805,-0.525928450408112,-0.0020252778608204434,0.8505246072862639,0.027478165408761843,-0.8974828076478282,1.0527789857582404,-0.07220047069767345,-0.9458312452784009,0.8392791504952974,0.037267717042632244,0.7187129158074117,0.9922204644742917,0.027369055590565246,0.7146082772459281,1.0364200445981469,0.0,0.0,0.0,0.0
0.025682548882969013,0.061561818873496654,0.7352839158259245,0.0015515596680400119,-0.5259098977158155,-0.0017727958312573136,0.8505370240865929,0.02473266769116538,-0.8940620069858075,1.0459380265487068,-0.06658601482895292,-0.9502701642082468,0.8364670101014967,0.03391495104848531,0.7160437614324442,0.9937198443491169,0.023850403648570336,0.7122314613651884,1.0330628949698746,0.0,0.0,0.0,0.0
0.024108424401996943,0.06247062495747266,0.7356886012267078,0.001333160896285648,-0.5258520563844346,-0.0015138309572545654,0.8505736568893485,0.02166600033515214,-0.8889365343342586,1.0359042272705519,-0.060620377477240084,-0.9464140396891049,0.8387976221338475,0.029763575024148798,0.7124423925183986,0.995250149833623,0.019558210282331723,0.7087685514252975,1.0289500595866774,0.0,0.0,0.0,0.0
0.022095518277269983,0.06346346469772818,0.7361886999150633,0.001101259648196032,-0.5257252749999604,-0.0012522596757328214,0.8506527812798286,0.018383933060179047,-0.882035855107248,1.0224180507070295,-0.05426834991996835,-0.9358967238128206,0.8441986537655782,0.02504417033420169,0.7077577325963558,0.9966383667461706,0.014776167179770601,0.7041525152629556,1.0241174684646337,0.0,0.0,0.0,0.0
0.019650197550925497,0.06449164600569748,0.7367821680040066,0.0008657691826997688,-0.5255228264968427,-0.0009940836966887585,0.8507784794363898,0.01503726076563169,-0.8732091717618214,1.0052198868074582,-0.04744303193295531,-0.9211972307461022,0.8508252875610216,0.02011029753828307,0.7019846373996917,0.9976361042702923,0.009892286744778128,0.6984876226931226,1.018629064716395,0.0,0.0,0.0,0.0
0.016791091189328918,0.06551483122966907,0.737459978228777,0.0006332507104681223,-0.5252507312959821,-0.0007442225717698257,0.8509469515776746,0.011751408119467694,-0.8623179630604814,0.9840952328475977,-0.04011612498880486,-0.9043179021032933,0.8576761837096115,0.015273240547280846,0.6951722344818564,0.998079517278019,0.005218945666091975,0.6919155831234483,1.0125789002511785,0.0,0.0,0.0,0.0
0.013566512008168928,0.06650945625332724,0.7381693984897054,0.000405510885190269,-0.5249217675402162,-0.0005015946612463557,0.851150234639087,0.008592501677915915,-0.8494933863955285,0.9591435961375142,-0.032273304551149226,-0.8864494534695981,0.8645148762140304,0.010768500393118099,0.6872806029581592,0.9982211133368731,0.0009665881558439783,0.6844822156842462,1.0063743260498221,0.0,0.0,0.0,0.0
0.01012294270583599,0.06743924121996031,0.7388048017754,0.00018452208330908,-0.5245666484627656,-0.00026311295350442214,0.8513693252893927,0.005651186310107902,-0.8353634318845858,0.9312884718092417,-0.023837631956764187,-0.8681348687333413,0.8717412288261124,0.006906533825216214,0.6783657591088982,0.9986740938924932,-0.002596321853196386,0.6763188692785685,1.000884315354278,0.0,0.0,0.0,0.0
0.006918536990465834,0.06830602815796757,0.739211405961673,-1.3165702212899411e-05,-0.5241217480198163,-4.533426058883312e-05,0.8516433473139571,0.0029608492123784328,-0.822915095993687,0.9052531262394001,-0.015339581711361584,-0.8488724661674736,0.8783858744250918,0.0034175169309978194,0.6690340771466572,1.0001967749961267,-0.005793493658206853,0.6678267379096403,0.9968353478181352,0.0,0.0,0.0,0.0
0.004217403407312232,0.06892522019246791,0.7392850214053478,-0.00016157010186366,-0.5236763359567895,0.00012174627702649951,0.8519172813318309,0.0010404724235954115,-0.8129365484351356,0.8828348330791549,-0.0072723835627517795,-0.8309639832083829,0.8845844766867782,0.0012000524987305383,0.6597987398797425,1.0031196327615075,-0.007766584496284491,0.6594263890860673,0.9957961378829712,0.0,0.0,0.0,0.0
0.002457223974127693,0.0692631087645319,0.7391292443359243,-0.00025704941061453535,-0.523271842439328,0.00023139040019730408,0.8521657463746324,-3.317695262602125e-05,-0.8072973209764561,0.8683792386107207,-0.0016933514853602703,-0.8183228760677552,0.8884386158120559,0.0002837948084187731,0.6525419581028679,1.0062087610329327,-0.008528661673133694,0.6528386748850746,0.9967772630517924,0.0,0.0,0.0,0.0
0.0024675557895605157,0.06928471532168484,0.7391060757646322,-0.0002720232092476222,-0.5232553194574915,0.00022773488170251408,0.852175888417195,-5.276363014859839e-05,-0.8073297948625584,0.8682509061320826,-0.0017035356090182776,-0.8183303618320946,0.8884481577004119,0.0002827513801945547,0.6524862875519541,1.0062571421359985,-0.008525030642164989,0.6528564723392061,0.9966791154279112,0.0,0.0,0.0,0.0
0.0024675557895605157,0.06928471532168484,0.7391060757646322,-0.0002720232092476223,-0.5232553194574918,0.00022773488170251422,0.852175888417195,-5.276363014859839e-05,-0.8073297948625584,0.8682509061320826,-0.0017035356090182776,-0.8183303618320946,0.8884481577004119,0.0002827513801945547,0.6524862875519541,1.0062571421359985,-0.008525030642164989,0.6528564723392061,0.9966791154279112,0.0,0.0,0.0,0.0
0.0024675557895605157,0.06928471532168484,0.7391060757646322,-0.0002720232092476223,-0.5232553194574918,0.00022773488170251422,0.852175888417195,-5.276363014859839e-05,-0.8073297948625584,0.8682509061320826,-0.0017035356090182776,-0.8183303618320946,0.8884481577004119,0.0002827513801945547,0.6524862875519541,1.0062571421359985,-0.008525030642164989,0.6528564723392061,0.9966791154279112,0.0,0.0,0.0,0.0
0.002816569131982105,0.06975296985297974,0.7389802474364477,-1.5103768243163779e-05,-0.5232224564089729,-6.042321811703074e-05,0.8521961377700977,-0.0006121241271378205,-0.809980378222898,0.8730989173101539,-0.0022751311341928197,-0.8204623159119344,0.8912503029298012,-0.006405563076553266,0.6542324941007823,1.0088607446137936,-0.015133154284350987,0.6519453762934293,0.9953568660762618,0.0,0.0,0.0,0.0
0.003650155605599152,0.0702593765935509,0.7388193907303825,9.76927843373374e-05,-0.5233161072863713,-0.00019120132766553763,0.8521386071249273,-0.001610822447553254,-0.8151576683427811,0.882826785980692,-0.003284755876364503,-0.8239323828790852,0.8977154084415297,-0.011570010100947725,0.6570303405073843,1.0115467903552506,-0.02016323974272348,0.6531696586931572,0.9942504139836552,0.0,0.0,0.0,0.0
0.005009048045971357,0.07066553036058408,0.7386305085035599,0.00010859906327417299,-0.5235546263446049,-0.00021020106558453493,0.8519920758169741,-0.002603992551849986,-0.8223717943524763,0.8968966582891945,-0.0042875434489956345,-0.8292342135191774,0.908676688483725,-0.014823928751033928,0.6612343383396019,1.013786856482169,-0.023336404755949378,0.6566218211259304,0.993679601903423,0.0,0.0,0.0,0.0
0.006926788456605568,0.07094899721367222,0.7384272005650231,3.094341447849148e-05,-0.5239403389478562,-0.00013069176017026652,0.8517549548933511,-0.003508186299350102,-0.8315271210536906,0.9152717248695291,-0.00520088577407127,-0.8364860420384288,0.9243860634828943,-0.016137793544300852,0.6670884927366368,1.0153036619103086,-0.024688752102459337,0.662473306779528,0.9934852618515858,0.0,0.0,0.0,0.0
0.00943592073649619,0.07117554432256466,0.7382518314813604,-0.0001976863421201182,-0.5245500604639456,0.00011897404743175724,0.8513795750618858,-0.004646903693818989,-0.842405481915401,0.937910855564961,-0.006349105494381859,-0.8447742921407542,0.9440272728357731,-0.014994045170056675,0.6748803357312974,1.0158721242846702,-0.023766211721846186,0.6715577484066783,0.9931526409341858,0.0,0.0,0.0,0.0
0.012583548703064336,0.07149180129429514,0.7382046728715526,-0.000838440628801025,-0.5257387856415819,0.0009097735135029725,0.8506451660954648,-0.007245606071453843,-0.853921710785319,0.9640921811372783,-0.00895441381492079,-0.8505014015633552,0.9644526157655724,-0.007921755372674805,0.6848856496827849,1.0151474000878038,-0.01730489559701248,0.6868950249698927,0.9921804099243389,0.0,0.0,0.0,0.0
0.015828612248924005,0.071790943957584,0.7378595048483793,-0.0009649502443074113,-0.5255817838043119,0.0009618331783361678,0.850741989254698,0.010544984661952464,-0.849412059219649,0.9298497613737353,-0.009866112883022816,-0.8669915402532756,0.9943363034459212,-0.008891897291969167,0.6929840695628667,1.0147585467719835,-0.01839072060543124,0.6951765996714014,0.9899143364301568,0.0,0.0,0.0,0.0
0.01903831708330767,0.07242743384974357,0.7374043734380463,-0.0012602847747915473,-0.5256112571557097,0.001315383846054706,0.8507229206967557,0.03036981475993116,-0.8551711025554702,0.9039460677405897,-0.012393688816517036,-0.8805513113261346,1.0202696639627513,-0.009250094676656218,0.700303005526474,1.0163552137090597,-0.01892619839943971,0.7042404317871865,0.9879991530317664,0.0,0.0,0.0,0.0
0.02190736046631681,0.07328859091212235,0.7369096609934004,-0.0015924368934727784,-0.5257460351689107,0.0017663529948421122,0.8506382607466045,0.04941007937880773,-0.8666730349307744,0.8849703698159871,-0.01578979659589525,-0.8909755356462559,1.0410679287214313,-0.010453084109819629,0.7066858218889275,1.0193586602806841,-0.020277182676763154,0.7126001753583365,0.9861498184147333,0.0,0.0,0.0,0.0
0.024331433114059824,0.07433479358482466,0.7364588371473999,-0.0018899115942564602,-0.5258590673339192,0.002212385828143447,0.8505667374673276,0.06685207464364154,-0.8808349956481198,0.8699581609634935,-0.01971238787160614,-0.8987985688680212,1.0570840205429335,-0.01354442691361326,0.7122085065905559,1.0229821363239058,-0.023397456972003957,0.7195352016779041,0.9836046178875579,0.0,0.0,0.0,0.0
0.026326376901065627,0.07551164232397437,0.7360710522946333,-0.002146401287421991,-0.5259145134132938,0.002625783723410824,0.8505306712885842,0.08272995433839796,-0.8959875210572554,0.8569267535533993,-0.02393784243523251,-0.9045342850895456,1.0690723103446869,-0.018468463394958116,0.7169350983223971,1.0269073364357713,-0.028175074401887684,0.7249607945098078,0.9803612838326571,0.0,0.0,0.0,0.0
0.027970218263758378,0.07675715091445703,0.7357263532673245,-0.0023802968913660505,-0.5259260725683191,0.003010444033275205,0.8505216267716503,0.09737325545378314,-0.9111178574288004,0.8447697444104321,-0.02829347573502435,-0.9086896706434644,1.0779653670592861,-0.02460633759507945,0.7209322536484232,1.031070388360525,-0.03396278337931619,0.7291339866092763,0.9768067532060689,0.0,0.0,0.0,0.0
0.02935901834058657,0.07803282640869441,0.7353946060838339,-0.0026129922542721977,-0.5259105092270941,0.0033815406619237833,0.8505291727734736,0.11107207404298113,-0.9252962424226546,0.8330774170507127,-0.03270121651632697,-0.9117495614249521,1.0846738355331054,-0.03134892483710193,0.7242712296981126,1.035507492874351,-0.04015280959022453,0.7323864279516515,0.9732938241779708,0.0,0.0,0.0,0.0
0.03058653704033317,0.07934408447994606,0.735073975956829,-0.0028660645053204597,-0.5258711404885578,0.003763526319747843,0.8505510949644092,0.12392300482125004,-0.9372157912110207,0.8221279574095884,-0.03722904149939142,-0.914031334019571,1.089913964175372,-0.03835007354440081,0.7271326704890791,1.0400990384294178,-0.04641394313225202,0.7351410349558182,0.9697249907620568,0.0,0.0,0.0,0.0
0.03171020566207434,0.08070823362821616,0.7347624321442375,-0.0031486709631187953,-0.5257937408069018,0.004170895316213875,0.8505960449189214,0.13593105548254986,-0.9449760646539324,0.8129064668551111,-0.041960340498047505,-0.9157831890581574,1.0941429687737776,-0.045540508444294414,0.7296019475177006,1.0447946733959794,-0.05268111999549138,0.7375927590308589,0.9659600292563765,0.0,0.0,0.0,0.0
0.032746685652775956,0.0821371777822001,0.7344533125424787,-0.003463610535264106,-0.525674203791612,0.004613901400030033,0.8506664133395567,0.14709177930889164,-0.9463294549539076,0.8071258347553022,-0.04695527231040694,-0.917060827866395,1.097458970857722,-0.052892617233204375,0.7316615285036125,1.0496481888931974,-0.05892784945726915,0.739790497166951,0.9619915782144326,0.0,0.0,0.0,0.0
0.03370852693256942,0.08365154233739347,0.7341549571845386,-0.003828025007473591,-0.5255420176181459,0.0051200638511891845,0.8507436270043699,0.15735293070343934,-0.9397754029668015,0.8065200509980041,-0.05233054582699168,-0.917598866076695,1.099678680304838,-0.06020183542642346,0.7333783242104908,1.0546476963829006,-0.06497769632792713,0.742004020581572,0.9577234118129111,0.0,0.0,0.0,0.0
0.03463705968664903,0.08535487924552172,0.7338659986209605,-0.004252035678814834,-0.5253185790927721,0.005714252734819548,0.8508758181827825,0.1667831092596618,-0.9267343682989041,0.8089059092974746,-0.0584382928172381,-0.9176748244470957,1.1010802134614706,-0.06808053292831531,0.7346928812380492,1.0599108996711044,-0.0713440547060415,0.7441722201576607,0.9525938224551338,0.0,0.0,0.0,0.0
0.03558410608509347,0.08732990800375336,0.7335996819773947,-0.0047600184567270195,-0.5249701933882074,0.006431432187079396,0.8510830012156645,0.17555371301886077,-0.9093471509944576,0.8121233631792507,-0.06559379951073614,-0.9173022288272664,1.101806244402916,-0.07678063349302935,0.73570137482355,1.0653911375867728,-0.07819444798007258,0.7465535208644833,0.9460337222400156,0.0,0.0,0.0,0.0
0.03659753780413438,0.08959114462311375,0.7333650373141576,-0.005375906521740743,-0.5245123263632775,0.0073068536169216755,0.8513545260420438,0.18436047477925546,-0.889231075782195,0.8145821525217978,-0.07392585279046085,-0.9163671561469954,1.1019596948202048,-0.08593012962182177,0.7365187261348269,1.0709394424460845,-0.0851798212515592,0.7495765473673248,0.9378388238650927,0.0,0.0,0.0,0.0
0.03771639693459434,0.09203875282236726,0.7331361732167072,-0.00612154134617882,-0.5240307613209334,0.008366589178544754,0.8516362416586482,0.19445967290663857,-0.8671325076614932,0.8151592580903433,-0.0832222357767391,-0.9147451660619355,1.1017086148708661,-0.09419103895285244,0.7371520847003661,1.07649150861089,-0.09122946707695903,0.7537025815924214,0.9286930715108215,0.0,0.0,0.0,0.0
0.03892103501902175,0.09437694049182353,0.7327065510460204,-0.0070067016889696935,-0.5237074164313393,0.009598969029690086,0.8518153015177765,0.20738281703006745,-0.8431196490029519,0.8126878267612164,-0.09264213953695301,-0.912738677733932,1.1013410893959916,-0.09887286226065509,0.7367888002590484,1.0832436953470146,-0.09433415823703782,0.7584876984144173,0.9220376471015262,0.0,0.0,0.0,0.0
0.040164888652120305,0.09628829122134802,0.7320136860969341,-0.00799983908941048,-0.523607999263062,0.010877981433038843,0.851852296587982,0.22319791581882742,-0.8163627796036192,0.804443891155576,-0.10099604565926279,-0.9111383143574838,1.101702669931029,-0.09826007696337287,0.7351398285633541,1.0910907930991116,-0.0933342420184463,0.7633269668501491,0.9198988895372262,0.0,0.0,0.0,0.0
0.04129004320732926,0.09754939887468718,0.731146808631879,-0.009052824166754396,-0.5237142422587948,0.012013779489196082,0.8517611801040754,0.24060456019714485,-0.7862477189535323,0.785685089356477,-0.10715437424274572,-0.9102593461454127,1.1028243427927757,-0.09198688538155966,0.7321929520822701,1.0990397738787514,-0.08802141091633083,0.7675819353057792,0.9224706678536928,0.0,0.0,0.0,0.0
0.04194574162658112,0.09804991279005365,0.730389146496056,-0.010100841321211407,-0.5239945915068499,0.012751054799746567,0.8515662344631022,0.2560374975752778,-0.7538786753278393,0.7503787373504869,-0.11003192462765214,-0.9090279702240445,1.1027810321819012,-0.0814521735957805,0.7284236283882685,1.1051812837263386,-0.07937509134537883,0.7706830576877712,0.9278533795930908,0.0,0.0,0.0,0.0
0.041986800081150584,0.09810927849286155,0.7303635468153021,-0.010156121503725387,-0.5239712492642452,0.012751298529636003,0.8515799360754549,0.25607027504478974,-0.7538212090714765,0.7503892722849542,-0.1101804154168188,-0.9090526421348573,1.1028067237196204,-0.08152048499883391,0.7283876167812923,1.105374333110692,-0.07928028794643296,0.77077993174716,0.9276985877882147,0.0,0.0,0.0,0.0
0.041986800081150584,0.09810927849286155,0.7303635468153021,-0.010156121503725387,-0.5239712492642452,0.012751298529636003,0.8515799360754549,0.25607027504478974,-0.7538212090714765,0.7503892722849542,-0.1101804154168188,-0.9090526421348573,1.1028067237196204,-0.08152048499883391,0.7283876167812923,1.105374333110692,-0.07928028794643296,0.77077993174716,0.9276985877882147,0.0,0.0,0.0,0.0
0.04222560385839868,0.09877973850155715,0.7332560442540151,-0.008626525439359019,-0.5227284464121448,0.0113122396339987,0.8523805415451788,0.2574339402088372,-0.7495650545929528,0.7550660032685276,-0.10887646255229755,-0.9111319043685014,1.1087561002123127,-0.11462183715406739,0.7469692501220303,1.082507255875591,-0.04603925304286451,0.7411995870095094,0.9841666966309404,0.0,0.0,0.0,0.0
0.042591693083637895,0.09987639319281713,0.7367361913634553,-0.007690767546361342,-0.5219881676638755,0.010390644652289475,0.8528547586882349,0.2564066589104037,-0.7457261037373237,0.7626408674130816,-0.10951213067446788,-0.9059735250510839,1.1092902394819943,-0.14120992716451813,0.7673938052455316,1.0548183186130018,-0.018769942581333562,0.7202088800066506,1.0278285675327785,0.0,0.0,0.0,0.0
0.042981076530654756,0.10130912739775798,0.7400038820454716,-0.007228836572409798,-0.5215318832056989,0.009928186270510755,0.8531434052016722,0.25356833576795523,-0.7444091855628093,0.772997747246744,-0.11196383799698294,-0.897336757505147,1.1060085754362554,-0.16253333049510216,0.786091384264915,1.0287736979214555,0.0006895596407145606,0.7058098909995165,1.0626809406894522,0.0,0.0,0.0,0.0
0.04334307613675445,0.10298473670721528,0.7428903390406373,-0.00706710702128273,-0.5211908187047162,0.009782747786867945,0.8533548408147668,0.24953435822381503,-0.7456352584174742,0.7854396698389001,-0.11573786799887745,-0.88728213739347,1.1003013736432885,-0.18064564352372914,0.8023732904332431,1.0059370118645854,0.01575816816653669,0.6959062146754993,1.0926815395793832,0.0,0.0,0.0,0.0
0.04363567178554028,0.10479985555173299,0.7454069532448577,-0.00706967810200668,-0.5208540018640404,0.009799529005619456,0.8535602483861442,0.2449031333696076,-0.7486543342647148,0.7988331435741871,-0.1202237794802239,-0.8770207010394709,1.0931876252466408,-0.19708982371526934,0.8163117112750236,0.9862981753243854,0.028130358913500977,0.6886735459196316,1.119831403526792,0.0,0.0,0.0,0.0
0.04372159817901035,0.10657625598733692,0.7476165309338845,-0.0071159294965611065,-0.5205266743473634,0.009839720988773401,0.853759055431412,0.24028057962198549,-0.7512566236890205,0.8100049765773083,-0.12460714192523334,-0.8667758948269743,1.0846277388415144,-0.21227142162427273,0.8279903737872134,0.969390410511279,0.03911471963339595,0.6826273396106968,1.1450145069005375,0.0,0.0,0.0,0.0
0.04356536250018617,0.10828762999967921,0.7495623827788896,-0.007164813135044304,-0.520190398545077,0.009859938133957722,0.8539633460133101,0.23579683692656297,-0.7530535643698234,0.8184903228179888,-0.12872318037459218,-0.8566225907125199,1.0746484728262022,-0.22652363501886616,0.8374962879951114,0.9549587489503487,0.04949173245276664,0.6770915387244091,1.1682058334098209,0.0,0.0,0.0,0.0
0.04313001527721171,0.10996580487325923,0.7512734543178498,-0.007197423454980802,-0.5198233584607314,0.00984425788881044,0.8541867264719315,0.23139120021228976,-0.7540301736628663,0.8242832693799536,-0.13262108221936358,-0.8464265783031096,1.0629582390760677,-0.2402787386813026,0.8448062306311467,0.9429642172301377,0.059937775998699594,0.6717980370172051,1.1884809454170024,0.0,0.0,0.0,0.0
0.042354391523236536,0.1116817790037055,0.7527610674976899,-0.007194434207329784,-0.5193856952996391,0.009778014041139475,0.8544537027106607,0.22690403347982577,-0.7543246778167964,0.8274552975200941,-0.1364549141167697,-0.8359770699270266,1.048972491651919,-0.25424821449184926,0.8497139511218734,0.9336187205300553,0.07126590683857326,0.6668708969338866,1.2036145691249494,0.0,0.0,0.0,0.0
0.04115958712442114,0.11353768095260372,0.7540221511607296,-0.0071283030975114806,-0.5188140666355965,0.009638309608870485,0.8548030501489032,0.22212054857181937,-0.754213197970881,0.8281612659892319,-0.140444203436361,-0.8250748148248038,1.0319293156054958,-0.2694324129421778,0.8518576121215299,0.9273137957030037,0.08458633500693771,0.6632219754927206,1.2095211411894384,0.0,0.0,0.0,0.0
0.039499310123001154,0.11564591583096892,0.7550727158358768,-0.006975093820863193,-0.5180416072315711,0.009405178999546572,0.8552752678822808,0.21681144568032348,-0.7541120132582175,0.8268820221245466,-0.14483954821864067,-0.8135179221550538,1.0111835574771897,-0.2867088711364317,0.8510279553860516,0.9241380912965791,0.10112132932786977,0.6632966232768313,1.2002002459516266,0.0,0.0,0.0,0.0
0.03737269900654794,0.11804278684502338,0.7559944261855521,-0.006732624873332945,-0.5170780596050265,0.009071833962396464,0.8558636888348368,0.21089091500774998,-0.7537874678557698,0.8235597504585477,-0.14968024795321708,-0.8007684496882829,0.9861771691790766,-0.3059026907980825,0.8475480375568891,0.9232636492277855,0.12026381068027453,0.6645083022588999,1.1818010126321445,0.0,0.0,0.0,0.0
0.03481424993587941,0.12074423487127328,0.7568838162156435,-0.00638482603173434,-0.5159147517950894,0.008617787348539255,0.8565727853591726,0.20437508946192148,-0.7530724549619544,0.8183359781344997,-0.15493790780112152,-0.7865414198536693,0.9567478171307182,-0.326783562044141,0.8419164704023296,0.9234972012888015,0.14181592701656198,0.6657165513211715,1.1587022736305486,0.0,0.0,0.0,0.0
0.03186697190085467,0.12371628965347135,0.7577979468404316,-0.005887793571999735,-0.5145225928480572,0.007992236751519294,0.8574193603409439,0.19748187714875556,-0.7517619742817437,0.8111751755265806,-0.16042097206558392,-0.7710601592628533,0.9232403339485598,-0.3490655380046843,0.834470563800675,0.9238282897433212,0.16652484401677659,0.6666087402795666,1.1338299434498502,0.0,0.0,0.0,0.0
0.028614972811341816,0.12680807750438816,0.7587087716564822,-0.005167221034231362,-0.5128617608966534,0.007106576611225432,0.8584262406320278,0.1908286366155792,-0.7496237123490965,0.8018238095604171,-0.16561972650997356,-0.7555825568929718,0.8872864608276989,-0.37208680308360575,0.8252949222138811,0.9237180152265149,0.19695015684920314,0.6677950699164322,1.1095526647534717,0.0,0.0,0.0,0.0
0.02529231663451334,0.12967522855913438,0.7593955744517613,-0.004083615976621645,-0.5107582907837833,0.005715732171628411,0.8596956571263611,0.1860189120451916,-0.7474167583477901,0.791125260842575,-0.16936476510667925,-0.7446737528306576,0.8546704730172381,-0.39558738171020147,0.8140002618968312,0.9237180297299575,0.23929019260135154,0.6720375690924032,1.087476737335079,0.0,0.0,0.0,0.0
0.022222469695452253,0.13224160470191276,0.7594137592515489,-0.0026408404231280666,-0.5080104629477309,0.0037928655974242198,0.8613384988888233,0.18361050082238367,-0.7491701738524207,0.7839844833619187,-0.17171570027558253,-0.7430590887231635,0.8314735149795469,-0.41919206124027564,0.7988905193123107,0.9271154524649113,0.3013107317699618,0.6813629889553781,1.0694812003381322,0.0,0.0,0.0,0.0
0.01945603049407777,0.13428851616747273,0.7582390280674989,-0.001105170845829829,-0.5047048144428111,0.0016023844465206719,0.863289789838693,0.18375325190279534,-0.756806021091487,0.781335229795938,-0.17270120154628668,-0.7523740579912915,0.8198316481659162,-0.438086803155473,0.7768994533492211,0.9387373593967017,0.37936632923346814,0.6928871449501712,1.057674302254121,0.0,0.0,0.0,0.0
0.017386043738969823,0.13555405814638438,0.7562262347452341,4.4191915996771344e-05,-0.5011657313577653,-0.00035574382550495855,0.8653512473013726,0.1861502979240098,-0.7704461117812677,0.7851075049915971,-0.1725147925116236,-0.7705890705066157,0.8210437661945897,-0.446428780357939,0.7511372722210715,0.9546653288307883,0.4607415099655168,0.6997642233219181,1.0558209945795218,0.0,0.0,0.0,0.0
0.017414258184924526,0.13559900156262691,0.7561346420228807,0.00014194124028670655,-0.5011719979527576,-0.0004136311698097433,0.8653475817438798,0.186221644873348,-0.7704887281608431,0.7851333742814527,-0.17251886897261082,-0.7707539115004697,0.8207966312726769,-0.44647282862554183,0.7510157786160281,0.9544918277751303,0.46078208465191123,0.6997689053761402,1.0558194196866812,0.0,0.0,0.0,0.0
0.017414258184924526,0.13559900156262691,0.7561346420228807,0.00014194124028670655,-0.5011719979527576,-0.0004136311698097433,0.8653475817438798,0.186221644873348,-0.7704887281608431,0.7851333742814527,-0.17251886897261082,-0.7707539115004697,0.8207966312726769,-0.44647282862554183,0.7510157786160281,0.9544918277751303,0.46078208465191123,0.6997689053761402,1.0558194196866812,0.0,0.0,0.0,0.0
0.016725334507350077,0.13593191420819542,0.756873061085631,0.0002675885666644156,-0.5030826396527756,-0.0004186740956350356,0.8642381678613577,0.18408877029883444,-0.7544394389098608,0.7672136771238344,-0.1722460340048972,-0.7529431676784292,0.7997798863290868,-0.4559573246125751,0.7596850229512738,0.9526244999324102,0.4646330804080164,0.707851702701142,1.0534790927421072,0.0,0.0,0.0,0.0
0.016386151628701915,0.13639663188092366,0.7573290746776679,0.00022014672406680744,-0.5042617296759069,-0.00026168504160203394,0.8635508039719617,0.18186786715638623,-0.746344805458402,0.7587026516046415,-0.17308302729393657,-0.7405486308212347,0.7850138690822078,-0.4625370713446244,0.7652109797366035,0.9519166129739799,0.4675594008390833,0.7135667955454706,1.0514506713262757,0.0,0.0,0.0,0.0
0.0165443357198271,0.13714240420460802,0.7574995816025425,4.714661309748825e-05,-0.5049552635491198,2.3904211008302126e-05,0.8631455143947772,0.17918291136071626,-0.7463403616922916,0.7612124961574603,-0.1752671191172414,-0.7328701958124986,0.77651679887118,-0.4691957532596433,0.7692321700228942,0.9530382270461475,0.46957624865578373,0.7182454685216472,1.0499354029072172,0.0,0.0,0.0,0.0
0.017299320931637316,0.13825271995186383,0.7574327629606556,-0.00023344145751280496,-0.5053173343728545,0.0004050804504886465,0.8629334696239491,0.17584800898213754,-0.7541513143278076,0.7752942596679713,-0.17888874236650396,-0.7293045105655707,0.7741953505354274,-0.47802127418440304,0.7731521886764169,0.9558656578287489,0.4707513795978346,0.722987580031244,1.048571847352483,0.0,0.0,0.0,0.0
0.01867917903466666,0.13980898555091514,0.7570551054047112,-0.000615285632702275,-0.5055022857365843,0.0008238968250542359,0.8628246529467621,0.1717471573518554,-0.7691204971740997,0.8002346620166929,-0.18397752224300892,-0.729153121847013,0.7771642490444302,-0.49154031526046604,0.7777169337439446,0.9615508059578259,0.47107568614046086,0.728128151317507,1.0481272891630806,0.0,0.0,0.0,0.0
0.020707570671047334,0.14198332133042943,0.756148952687794,-0.0006868404681811293,-0.5063640552912171,0.0006874582232018115,0.8623192559373796,0.16741458562457712,-0.7850798496137977,0.8296968229930819,-0.18946911819315898,-0.7297432559955067,0.7817222587194825,-0.5258175172671401,0.7881306956329607,0.974505797512486,0.46715077604590854,0.7348270891031349,1.051932404412635,0.0,0.0,0.0,0.0
0.024079433979870533,0.14492675086581377,0.7580833715856171,0.001330114302229868,-0.5088411650172732,-0.0019322540416421457,0.860857227404246,0.16553200790308126,-0.7821730646081301,0.8537140951072475,-0.1912739446459063,-0.7257979405550982,0.7898689273739062,-0.41986113356743426,0.7552288463466412,1.0005618513478054,0.4287483351722773,0.7558621843941882,1.0297397961431085,0.0,0.0,0.0,0.0
0.02780330704679988,0.14814128459442866,0.7589574061672618,0.003298367429170672,-0.5116436990559178,-0.004545072447703558,0.8591793691105046,0.16305588968432946,-0.7827546820440427,0.8813051951022296,-0.19409375627762893,-0.7239196722915914,0.799395556565803,-0.32161842417776365,0.7299644234533739,1.0261321945624584,0.38726827799117414,0.7737514857090085,1.0148522040888612,0.0,0.0,0.0,0.0
0.03175948374026321,0.15145551736958518,0.7592325904776883,0.004519189861717754,-0.5139026087147326,-0.006216227815430089,0.8578141081789998,0.15869935766323445,-0.792459614573816,0.9173445999583298,-0.19953234769478026,-0.724035674215691,0.8111127560222161,-0.2512796617164401,0.7149182674189463,1.0520828748000148,0.3515615692457373,0.7894659297007224,1.0023530863048777,0.0,0.0,0.0,0.0
0.03551997858370157,0.1545802041809694,0.7592675224432759,0.005189272564681106,-0.5156315897526248,-0.00714167788697329,0.8567649219805797,0.15336317344576716,-0.8060258222697805,0.9543909389884245,-0.20624088824347983,-0.7245373002278219,0.8223279083656106,-0.20199810257986872,0.7063868136730691,1.0782797993019366,0.32228677133263367,0.8033427975013503,0.9908234653321245,0.0,0.0,0.0,0.0
0.0387937417026601,0.15725220986614097,0.7591851513260284,0.0055749691099762685,-0.5169745378605617,-0.007685896242133149,0.8559481140362636,0.14829879951256236,-0.8190344297309298,0.9867306985226807,-0.21261887302463356,-0.7251318328438662,0.8320312977992234,-0.16559679460044024,0.7007413898983796,1.1043928896430222,0.29849266837896915,0.8149142597308926,0.9809320214228351,0.0,0.0,0.0,0.0
0.04147430468293408,0.15939780480707708,0.7589609557020037,0.005823479908466909,-0.5180199539880646,-0.00804507972461674,0.8553108739190586,0.14407162204292928,-0.8301538924612396,1.0128549166640688,-0.21799545615220609,-0.7260483957221345,0.8401291455376915,-0.13711838311666538,0.6962211239826827,1.1297179256313532,0.27944295932561536,0.8236559900851382,0.9738435562491651,0.0,0.0,0.0,0.0
0.04364285048279444,0.1611495598026122,0.7587256250775218,0.006017691631038353,-0.518865359335868,-0.008315030976405999,0.8547943533555634,0.14053406631622514,-0.8391773558487884,1.0337126663515233,-0.22246360244096142,-0.7267310130558517,0.8464044345134241,-0.11270130301855548,0.6920204026869691,1.153702617386917,0.2633523265718899,0.8303497195784773,0.96831737161629,0.0,0.0,0.0,0.0
0.045376209253662994,0.16263709096441645,0.7584617887242712,0.0061868289211646065,-0.5195694125565428,-0.008537316232008669,0.85436319145613,0.13747160465882935,-0.8465753107321032,1.050471989645165,-0.22625581351808988,-0.7270337095265635,0.8507917453615843,-0.09077695391319202,0.6879914283232595,1.1751653832559712,0.24898323126481317,0.8351353571214856,0.9642723738527245,0.0,0.0,0.0,0.0
0.046712717950468566,0.163963964889205,0.7580756629313744,0.006333442703981484,-0.5201649121273503,-0.008721267049059074,0.8539978285663965,0.13467239565827047,-0.8529875554344122,1.0640167970552326,-0.2296157443215469,-0.7269565814939971,0.8531183726784892,-0.07098895399628646,0.6843930394951033,1.1917879047422122,0.23562519968973028,0.8377200009717973,0.9623763721214122,0.0,0.0,0.0,0.0
0.04765202430958703,0.16519533405255435,0.7574416182369255,0.006447302336685977,-0.5206604159890144,-0.008858724760632972,0.8536935553876117,0.13198308873796713,-0.8590364884739152,1.0748702545095596,-0.2327292909035053,-0.726609952299161,0.8531718382432527,-0.05367605106717395,0.6822292347281256,1.1994419625288504,0.22307453516838863,0.8375623615327418,0.9637089948777977,0.0,0.0,0.0,0.0
0.04820067387704726,0.16636692438467274,0.7564661559576192,0.006516564952728574,-0.5210487365017402,-0.008939596644583683,0.8534552315048454,0.12931905777154407,-0.8652514367961445,1.0834713327528562,-0.23572090721065542,-0.7261910904495509,0.8509635296040564,-0.039433178280208855,0.6840189169510283,1.1919792862481333,0.21138654010487978,0.8342989671398456,0.9690494278973951,0.0,0.0,0.0,0.0
0.0483937020129764,0.16756196513880806,0.7551352371754126,0.00655204901553799,-0.5213706259350769,-0.00897128143749517,0.853258024969665,0.12647481029415747,-0.8718036037386132,1.090252977002398,-0.23878143706157132,-0.7253889027061171,0.8461084364763918,-0.0270104562985148,0.6873363737595826,1.1754617081556848,0.19975478459117993,0.8280165472376694,0.978234180420714,0.0,0.0,0.0,0.0
0.0482818518378378,0.16883892866850309,0.7534710180192594,0.00656888337421675,-0.5216516304060694,-0.008969892127403829,0.8530861429545836,0.12332855716253802,-0.8787701961590554,1.0956339313511534,-0.2420309555542384,-0.7240187171165993,0.838513999037342,-0.015278279865849294,0.6913206157160389,1.1538544726478908,0.1873773316725562,0.8189571693148675,0.9907030145411784,0.0,0.0,0.0,0.0
0.047892306687018465,0.17021674089775277,0.7514909282892035,0.006588582274221854,-0.521898880880874,-0.008959046805381364,0.8529348651563295,0.11987700376661979,-0.8860990509628807,1.0997318153923077,-0.24547718089605072,-0.7220615040745718,0.8282151068086571,-0.0033400639077347024,0.6959539271518773,1.129164756497892,0.17364787739946855,0.8072074883034016,1.0060373126106206,0.0,0.0,0.0,0.0
0.04723796481278286,0.1716629256504732,0.7492030190217134,0.0066488007663004335,-0.5221104735992461,-0.00898205031827583,0.8528046491303978,0.1162964313617018,-0.8935456670701387,1.1023328776647587,-0.24896533033793783,-0.7197774254732807,0.815555796863229,0.00965904725471017,0.7016851460102584,1.1020306624842702,0.15816598636474602,0.7927217155937675,1.0240396079475063,0.0,0.0,0.0,0.0
0.04635807616641714,0.1730583747640982,0.7466142881207631,0.006818083570619241,-0.5222765473164871,-0.009130107428669643,0.8527000428039946,0.11311587348989773,-0.9006284506462162,1.1030043569507002,-0.25205380095753765,-0.7181292180929877,0.8019165697491903,0.024737357977674145,0.709391767393543,1.0720757964533218,0.1407593140684846,0.7754596617721197,1.0446610946091262,0.0,0.0,0.0,0.0
0.04535554090516103,0.17421971964676417,0.7437727707421573,0.007208452724144323,-0.5223733776625067,-0.009579970301908861,0.852632580123351,0.11126352594460664,-0.9066514656533688,1.1014120097293119,-0.2539939909060842,-0.7189652692902543,0.7901188039261324,0.04321004436022283,0.7202791623394251,1.0378804289630554,0.12067893396884305,0.7554389594822906,1.0674655292153994,0.0,0.0,0.0,0.0
0.04428875823542703,0.17508809763681898,0.7408698381950968,0.007959984094979191,-0.5223961418969503,-0.010526529751789235,0.8526007868608695,0.11134352355541109,-0.9104701740951978,1.0970991757362734,-0.25422990756746766,-0.7230860750581654,0.7816750017351072,0.0670407682471006,0.735235360093242,0.9964865732919166,0.09538378607444611,0.732730301667166,1.0905511606777345,0.0,0.0,0.0,0.0
0.04339889471673672,0.17563432725913666,0.7385081054412952,0.009167033546729122,-0.5224199593798068,-0.012039270108228676,0.8525540496137564,0.11350865146938457,-0.9104018897685595,1.0906437822237411,-0.25251388089218296,-0.7299739139638701,0.7783122885740594,0.09404042001564908,0.7554053200585301,0.9455206798415603,0.06428666918821953,0.7105551025635055,1.1085100669606236,0.0,0.0,0.0,0.0
0.043430470284758486,0.1756599032450537,0.7384359787124962,0.009211695656376822,-0.5224518392195734,-0.012064451543006558,0.8525336763836288,0.11350342116248237,-0.9104323924022908,1.0906857688887672,-0.25253375828159585,-0.7300292369084672,0.778195012444447,0.09404482720180732,0.7554180548587571,0.9455158851700589,0.0642896515525954,0.7105150305623399,1.1085008841309583,0.0,0.0,0.0,0.0
0.043430470284758486,0.1756599032450537,0.7384359787124962,0.009211695656376822,-0.5224518392195734,-0.012064451543006558,0.8525336763836288,0.11350342116248237,-0.9104323924022908,1.0906857688887672,-0.25253375828159585,-0.7300292369084672,0.778195012444447,0.09404482720180732,0.7554180548587571,0.9455158851700589,0.0642896515525954,0.7105150305623399,1.1085008841309583,0.0,0.0,0.0,0.0
0.04297333545203134,0.17586238033211407,0.7391053239937687,0.008200887978341611,-0.5232014486394436,-0.010762771561211384,0.8521016091560181,0.10958587350214104,-0.9074241489545444,1.086914749913912,-0.23370514961660677,-0.7621926189599515,0.8156873676339715,0.1107173110374462,0.752945601672294,0.9404181129811013,0.08447209414201691,0.7211047737744245,1.1051808803894136,0.0,0.0,0.0,0.0
0.04204591243455489,0.1770137025440247,0.7398970828250845,0.007333994025755081,-0.5237881876149023,-0.009527891862897491,0.8517636798569044,0.10318780848076319,-0.9051391810445776,1.0834779694192633,-0.212426138772325,-0.7930723183507516,0.8351603854172893,0.11709168582934824,0.7505502644882655,0.9388049721669554,0.09309855538876437,0.7274583178435284,1.0986695678956746,0.0,0.0,0.0,0.0
0.04093513893483099,0.1789944776517226,0.7405815890461704,0.0065136275125210015,-0.5242040016269373,-0.008361566202507486,0.8515267591482814,0.09482184100337694,-0.905210078568202,1.082485139878539,-0.19373387572461154,-0.8203086851623506,0.8433632162262962,0.11556194086063265,0.747664542468629,0.9417621050812796,0.09130257357705576,0.7298875694286702,1.0906760460804379,0.0,0.0,0.0,0.0
0.039745548670863586,0.18150012853533984,0.7410810834785317,0.005704149987540341,-0.5245568078261543,-0.007259841885439394,0.8513253859318146,0.0852990842909413,-0.9068891413361979,1.0830745300306632,-0.17905344297449258,-0.8444072291711994,0.8455914894826279,0.1092799219120445,0.7441644758323127,0.9486137431866478,0.08312026133615921,0.7297756645803141,1.082615952146168,0.0,0.0,0.0,0.0
0.038420856521633254,0.1841470962851674,0.7414131263035041,0.004935067225598186,-0.5248870400551559,-0.006267197644723767,0.8511345149430248,0.07570058197936144,-0.9084742575450062,1.0828785518371922,-0.16793825904740795,-0.8665121522820041,0.8444765162868643,0.1007062876072261,0.7399978039666352,0.95774505803595,0.07226049066522347,0.7278474228518321,1.075502717206936,0.0,0.0,0.0,0.0
0.037024566277758256,0.18661344990215073,0.741772832994567,0.004251254646304158,-0.5251721450998781,-0.005413962423738904,0.8509681744084201,0.06692830141808848,-0.9087965295234239,1.080962463181873,-0.15885573525961416,-0.8871051902272971,0.8412521222596199,0.09173996364523183,0.7362027766879393,0.9659125505242023,0.061430434331962824,0.7255044055939299,1.0684532412872518,0.0,0.0,0.0,0.0
0.0355753769731843,0.18878607314501972,0.7421928392762119,0.003662816066289289,-0.5253984848533333,-0.004684610334108838,0.8508355130801157,0.059245943780693346,-0.9077000925421675,1.0771630724203993,-0.1503997583855209,-0.9060982552090001,0.8366293171187913,0.08336913924804451,0.7327771857625393,0.972362216082495,0.051810059302802094,0.7231356727120765,1.0615046196752105,0.0,0.0,0.0,0.0
0.03404879217168507,0.19067841497452898,0.7426626603439831,0.003158798628508623,-0.5255596690368429,-0.0040510427081609825,0.8507412328822939,0.052550689996937267,-0.9053149814849265,1.0714939528455973,-0.14157013069722396,-0.9225868833708946,0.8314974450387708,0.07583171489400105,0.7294222331762943,0.9773040194364445,0.043534284026605835,0.7206545564149529,1.054783698050087,0.0,0.0,0.0,0.0
0.032380683832951326,0.19237428972493906,0.7431773971831588,0.002717486076590487,-0.5256507103739281,-0.0034853197861781714,0.8506890139756105,0.04655088748211453,-0.9017366552760219,1.0638600407666787,-0.13183612254420662,-0.9347646477661204,0.8272580600855752,0.06883912731544657,0.7258147162701147,0.9811988750016473,0.03615525088539051,0.7177825980611725,1.0482044168201587,0.0,0.0,0.0,0.0
0.03047552315342668,0.19399311037187794,0.7437427456797115,0.0023114771434478323,-0.5256733640568652,-0.0029646358500276786,0.85067818963979,0.04087582335804877,-0.896901475259752,1.0539349392609816,-0.12111647949887473,-0.9403109960054572,0.8259575570017161,0.06180369310584914,0.7216594356767776,0.9845695570037687,0.028966999006771,0.7141846969673089,1.0415018191772913,0.0,0.0,0.0,0.0
0.02824162983584011,0.19564218416730267,0.7443714612158664,0.0019147957642719072,-0.5256489317668965,-0.002473404707560583,0.850695842448201,0.03521138370056319,-0.8905423659715705,1.041198085102665,-0.10959056992919278,-0.9377083271624008,0.8296938729757869,0.05420983253318098,0.7167818820048892,0.9878168522034597,0.021411629115167516,0.7096829727088152,1.0343652694849046,0.0,0.0,0.0,0.0
0.025637615412058973,0.19733333855940155,0.7450549199171669,0.0015250370098806162,-0.5255514199543118,-0.0020037009474734024,0.8507581115855659,0.02952077838388278,-0.8826169261078527,1.0253515215260107,-0.09733937173935954,-0.9285691200419154,0.8364710469790589,0.046103989270194816,0.7109219604452593,0.9910035899897822,0.013597059595224316,0.7041358899341583,1.0267806135147317,0.0,0.0,0.0,0.0
0.022661892968214054,0.19904105627381488,0.7457989354796786,0.0011463868171935037,-0.5253751137404219,-0.001554601403673815,0.850868532074127,0.023880290763161553,-0.8729711690968834,1.0061319629764878,-0.08436773931853495,-0.9153336981219031,0.8445128402221295,0.03777585440630041,0.7040707201187091,0.993884434939484,0.0058434485937634666,0.697681475097532,1.0186758536864755,0.0,0.0,0.0,0.0
0.019333762135901923,0.20072931405185476,0.746598341998227,0.0007833687415334321,-0.5251263014465286,-0.0011270475681315645,0.8510231980541326,0.018396885939161715,-0.8614690767732791,0.9833370782206023,-0.07066393876982874,-0.899979481375112,0.8528776403048106,0.029583676680458325,0.6962732259228446,0.9962623505307745,-0.0015152966352498893,0.6905016547801198,1.0100929381487498,0.0,0.0,0.0,0.0
0.015712330955652738,0.20234818125506635,0.7474010508441569,0.0004396118934971489,-0.524820162028411,-0.0007188267221351606,0.8512127158108007,0.013203453796344251,-0.8482156204771778,0.9570574051291321,-0.05616182668657696,-0.8837038456743532,0.8614268218879548,0.021998288135391283,0.6874955704516589,0.9982790574704521,-0.00808389093062693,0.6827032401155644,1.0015166313099715,0.0,0.0,0.0,0.0
0.011975911872490735,0.203798918510401,0.7481162893128576,0.00012898677037148624,-0.5244762398180437,-0.0003359258939865956,0.8514250080791218,0.008569068410037461,-0.8338471223504328,0.9283249565354773,-0.04077873876291967,-0.8669486845672105,0.8704726441053445,0.01566459730422057,0.6779223800385689,1.0001544803317126,-0.013346444754211744,0.6745145751275857,0.9938539575857822,0.0,0.0,0.0,0.0
0.008532436390274352,0.20497539470111553,0.7484675801809716,-0.00011420284574845093,-0.5240775644414853,-2.0189673958354178e-05,0.8516705307800475,0.0048532965416331845,-0.8209398333035441,0.9009180621212564,-0.025040494887573612,-0.849748679305606,0.8793674336775162,0.010784924495345715,0.6675859311477798,1.0035687746665558,-0.017274110991254237,0.6656123340149309,0.9894916724681824,0.0,0.0,0.0,0.0
0.00565752123647745,0.205792043226911,0.7485262708297015,-0.0002999834070073964,-0.5236789073318514,0.00023291492792025295,0.8519156400585154,0.002229308409068625,-0.8103506544575684,0.8771784109277849,-0.010467836975419802,-0.8339541308947669,0.888483523103626,0.00790886717801322,0.6577116833644647,1.0075149036036282,-0.01941665976349831,0.6571581674337442,0.9881088873201052,0.0,0.0,0.0,0.0
0.003810000565449168,0.20621670114383325,0.7483584484272847,-0.0004240284541088706,-0.5233276209390535,0.0004045945136330594,0.8521313617426716,0.0007951166269643173,-0.8041852079020373,0.8617658991453406,-0.0002612532126994461,-0.8235150945301197,0.8960616306597075,0.006936955796227914,0.6501269440614216,1.011129894676722,-0.019960332878952478,0.6506956836092411,0.9890618700988676,0.0,0.0,0.0,0.0
0.0038235953457101883,0.20624364080793472,0.7483320329290511,-0.00043986515580018206,-0.5233095692932478,0.0004014897693991513,0.8521424411509646,0.0007695276720907696,-0.8042207949180907,0.861626455336481,-0.0002657827357943829,-0.8235259692820358,0.8960710309117628,0.006938724915585745,0.6500599966307252,1.011192661416538,-0.0199599408637636,0.6507267992141336,0.9889459350069242,0.0,0.0,0.0,0.0
0.0038235953457101883,0.20624364080793472,0.7483320329290511,-0.00043986515580018206,-0.5233095692932478,0.0004014897693991513,0.8521424411509646,0.0007695276720907696,-0.8042207949180907,0.861626455336481,-0.0002657827357943829,-0.8235259692820358,0.8960710309117628,0.006938724915585745,0.6500599966307252,1.011192661416538,-0.0199599408637636,0.6507267992141336,0.9889459350069242,0.0,0.0,0.0,0.0
0.0038235953457101883,0.20624364080793472,0.7483320329290511,-0.00043986515580018206,-0.5233095692932478,0.0004014897693991513,0.8521424411509646,0.0007695276720907696,-0.8042207949180907,0.861626455336481,-0.0002657827357943829,-0.8235259692820358,0.8960710309117628,0.006938724915585745,0.6500599966307252,1.011192661416538,-0.0199599408637636,0.6507267992141336,0.9889459350069242,0.0,0.0,0.0,0.0
0.004140038169357979,0.2067323512800206,0.7482060511001651,-0.0001783926172587851,-0.5232617056888916,0.00010777473855658435,0.8521720154524153,0.0001768654800553619,-0.8068151902355216,0.8662861609301203,-0.0008764724791262643,-0.8255356351507607,0.8985501124722858,5.9128228162470126e-05,0.6517211927294759,1.013857892736332,-0.02665440480467507,0.6496915496653577,0.9875056601527081,0.0,0.0,0.0,0.0
0.004943323503044875,0.20725133900915466,0.7480446414500724,-5.882018570029917e-05,-0.5233394818711695,-2.9018512430798066e-05,0.8521242763898511,-0.0008363599005826557,-0.8119647592427437,0.8758780473994763,-0.00190515344890559,-0.8289139145929653,0.9047319898554913,-0.005234073871384993,0.6544304874838563,1.0165700756142118,-0.03180814971811958,0.6507553643965017,0.9863302951624457,0.0,0.0,0.0,0.0
0.006278720498030488,0.2076547604424966,0.7478565706009914,-4.137836858343862e-05,-0.523568159640637,-5.3849977974164425e-05,0.8519837895162835,-0.001805931628058094,-0.8191359279592038,0.8898311590060666,-0.0028870004915093938,-0.8341428200454213,0.9154732056372541,-0.008475475534176553,0.6585708011011492,1.0187668134133527,-0.035091479281923105,0.6540487567572629,0.9857697085588134,0.0,0.0,0.0,0.0
0.008181043607782039,0.2079170621436007,0.7476558685800287,-0.00011107425813938198,-0.5239494049289416,1.792817113625457e-05,0.8517493812241356,-0.0026349571348688343,-0.8282265505320691,0.9081040263771407,-0.0037261953551424604,-0.8413636315914164,0.9310585776570124,-0.009630961248441226,0.6643938273414215,1.0201566576558576,-0.03655047186118538,0.6597384655406718,0.985667611425288,0.0,0.0,0.0,0.0
0.010683223052056833,0.20810304012435385,0.7474864797154328,-0.0003321779944199186,-0.5245652071014888,0.00025994569259528774,0.8513701695411867,-0.0036472867336212298,-0.838986194238478,0.9306258375666953,-0.004749043498032797,-0.8496289018675218,0.9506498840102202,-0.008134319814829824,0.6721943139117454,1.0205028122686828,-0.0357249276692266,0.6686839266025093,0.9855079892798124,0.0,0.0,0.0,0.0
0.013834504432598583,0.20835925734639119,0.7474546508701916,-0.0009807457042324314,-0.5257954620431127,0.0010555595812379581,0.8506098142078444,-0.006090433409161029,-0.8502134013651662,0.956578559229907,-0.007204939316946843,-0.8551570941289295,0.9709656495857591,-0.0002797501596344884,0.682270730509429,1.019426203410574,-0.029298160884958215,0.6840259156964392,0.9848032046272958,0.0,0.0,0.0,0.0
0.017105388887511803,0.20860764977473065,0.7471132260334219,-0.0010963296573826093,-0.5256590963393739,0.0011035408630405872,0.8506938901241261,0.011536687084124942,-0.846807978461254,0.9245699125298017,-0.00796712254082514,-0.8717120538978167,1.0010229705787665,-0.0007696211497876162,0.6904870235505858,1.0187805356513764,-0.0303438184649031,0.6923370544100262,0.982744023664162,0.0,0.0,0.0,0.0
0.020335129469458698,0.20919959552599288,0.7466647465649405,-0.001384291026917404,-0.5257124922124283,0.0014535514117838208,0.8506599476044723,0.031273242293731025,-0.8532531032484449,0.9000954114813304,-0.010361823004008733,-0.885272092333829,1.027048252541598,-0.0006330464119847565,0.6979180086432303,1.0201143587728574,-0.03089618807956475,0.7014307902428085,0.9809942103663086,0.0,0.0,0.0,0.0
0.0232137964025074,0.21003104737251252,0.7461751037980939,-0.0017096000579508264,-0.5258642850550143,0.0018993113277269629,0.8505646498577877,0.05026283568698653,-0.8651642351943807,0.8819537998224981,-0.013661115945101917,-0.8956772299164164,1.04786466003094,-0.0014553864391845422,0.704366327729791,1.0229230566256886,-0.03235464353878797,0.709765586020464,0.9792529256881497,0.0,0.0,0.0,0.0
0.025633280836314623,0.2110611806074798,0.7457245240898123,-0.0019980695133525648,-0.5259834014072261,0.0023360423536296165,0.8504892780443659,0.06766416481552234,-0.8795669132860674,0.8674021516133997,-0.017515666971276593,-0.9034879899052672,1.0638272710259975,-0.004345319066153635,0.70988957109868,1.0264599637650877,-0.03565517867960465,0.7165887987938308,0.9767831315068939,0.0,0.0,0.0,0.0
0.027612350334685648,0.21223410209466523,0.7453357759181921,-0.00224509170532879,-0.5260376968810591,0.0027384434940758273,0.8504538799667712,0.08349009413621322,-0.8948535948587663,0.8546207558695561,-0.021703481516982145,-0.9091946199882287,1.0756898483298203,-0.009223474658728218,0.7145817409141549,1.0303730656271717,-0.040642045705379284,0.7218617565803858,0.9735660340652726,0.0,0.0,0.0,0.0
0.0292333538324214,0.21348375857383392,0.7449883658623755,-0.0024702843123949564,-0.5260445231583657,0.003111654540985506,0.8504477496921966,0.09807201030576773,-0.9100528951529196,0.8425959739522713,-0.026043349618998256,-0.913306687980213,1.0844092676780415,-0.015418634546302034,0.7185213058635154,1.0345843082959836,-0.046636863743986144,0.7258622513048777,0.9700171775728879,0.0,0.0,0.0,0.0
0.03059874942017943,0.21476977063548772,0.7446527845308633,-0.002696775188097131,-0.5260247596874409,0.003473223967722793,0.8504578862675242,0.11170277496826679,-0.9242696932914852,0.8309838225973968,-0.030457093936845543,-0.9163067176866493,1.090924503207473,-0.022265636968749815,0.7218008939087048,1.0391068786680562,-0.05301031330792159,0.7289584117113727,0.9664960757134422,0.0,0.0,0.0,0.0
0.03180972287495387,0.21609675702152653,0.7443310318374061,-0.0029466991407605366,-0.5259820034569104,0.003848609283631727,0.850481885292221,0.12448447091401463,-0.9362090284818715,0.8200851389926698,-0.035012913678572996,-0.9185269930493477,1.096003824442411,-0.029391942801577545,0.7246371379525702,1.0437690284381138,-0.05942992620796087,0.7316157461450903,0.9628635440181162,0.0,0.0,0.0,0.0
0.032924040624736466,0.2174792154367305,0.7440163874197013,-0.003228416351248203,-0.5259023362230345,0.004251609507032931,0.8505282087618359,0.13642783829236624,-0.9439897490707917,0.8108993474059981,-0.03978550489270803,-0.9202368567274188,1.1001186677907908,-0.03671446510615379,0.727097330475802,1.0485511848212534,-0.06582641845029484,0.7340064431695118,0.9590304247276803,0.0,0.0,0.0,0.0
0.03395948297109143,0.21892840989670823,0.7437016377322782,-0.003544579675718763,-0.5257816347419371,0.004692437560114461,0.8505992532049175,0.14753173046618717,-0.9453745708887173,0.8051496198263302,-0.044833658588951164,-0.9214992148629939,1.1033776364724135,-0.044201849949722344,0.7291659462939941,1.0535066154427726,-0.07217375854350136,0.7361797816447909,0.9549939595589654,0.0,0.0,0.0,0.0
0.03492793902338043,0.22046664744022107,0.7433925675910042,-0.003913451643228144,-0.5256497283975116,0.005200221507646809,0.8506762049264867,0.15774712365960347,-0.9388565790628307,0.8045602053057518,-0.050283141687145504,-0.9220430908200928,1.1055838775525015,-0.051639352288236184,0.730892177756733,1.0586491821872122,-0.0783011130112488,0.7383942906418606,0.9506780013849216,0.0,0.0,0.0,0.0
0.03587075633993582,0.22219802206441222,0.7430903193675917,-0.004343443051040612,-0.5254252553556105,0.005799181999545828,0.8508089121683493,0.16713149948102024,-0.9258689237096619,0.8069579093207564,-0.05648754599598429,-0.9221548885217301,1.107025720031678,-0.059671487558223914,0.7322301474872434,1.0640741133245244,-0.0847202871218634,0.7405996620577098,0.9454821920478477,0.0,0.0,0.0,0.0
0.03683841083641375,0.22420580864747666,0.742808159678626,-0.004858338038667263,-0.5250732324114946,0.006524302222481971,0.8510181729181558,0.1758397498676444,-0.9085525244654015,0.8101752784577011,-0.06376510239754264,-0.9218477398636735,1.1078384602295543,-0.0685633346650832,0.7332717447654189,1.0697366816151912,-0.09160011118566397,0.743051211786808,0.9388288521825718,0.0,0.0,0.0,0.0
0.03788005566742266,0.22650435821944745,0.7425562716500999,-0.005482505704123555,-0.5246095170384094,0.007412105412322837,0.851293050281328,0.18457124117315551,-0.8885222647119311,0.8126183080466699,-0.07224836859275344,-0.9210022926624564,1.108128164911059,-0.07792300980723299,0.7341359020110464,1.0754728269702944,-0.09859397584896233,0.7461894329761478,0.9305021167750966,0.0,0.0,0.0,0.0
0.03903784354058505,0.22899074069509673,0.7423099033265643,-0.006239911972851789,-0.5241246938740689,0.008489687962931475,0.851576358272279,0.19459520630546992,-0.8665162152639784,0.8131612926766549,-0.081718216419195,-0.9194759236659871,1.108066238143038,-0.0863428788648794,0.7348419529228409,1.0811940865047809,-0.1046383004854514,0.7504920039858228,0.9212005514380803,0.0,0.0,0.0,0.0
0.040296715165513974,0.23136224025600452,0.7418584324500492,-0.007145105500710681,-0.5238127863162244,0.009748575861984887,0.8517476607703013,0.207494851534893,-0.8425916834137296,0.8106496156681547,-0.09131865543330972,-0.9175371141463214,1.1079324901905467,-0.09096747275092432,0.7345719008079609,1.0881019269598688,-0.1077225224780643,0.7555092327811178,0.9144835648164849,0.0,0.0,0.0,0.0
0.041601880348567884,0.2332994585200151,0.7411437922500561,-0.008164320583019528,-0.5237363346124083,0.01105639002844636,0.8517695415520069,0.22331784966355267,-0.8158738692114532,0.8023078129839823,-0.09983400561897576,-0.9159636685585956,1.1085271606609717,-0.09010348645765855,0.733028452282678,1.0960561608556432,-0.10675880664121144,0.7605762555641339,0.9123710846231761,0.0,0.0,0.0,0.0
0.04278808346133301,0.23457770818130022,0.7402618403423386,-0.00925264347062167,-0.5238861894294877,0.012222916921154445,0.8516503093499086,0.24074015387447123,-0.7857021168171747,0.7833722921806655,-0.10611950409920307,-0.9149746640637123,1.109776944280736,-0.08333652390444235,0.7302121718847833,1.1040345199306887,-0.10148122954859908,0.7651023922749336,0.9150310200407576,0.0,0.0,0.0,0.0
0.04348920607878348,0.23508389776308,0.7395011023785063,-0.010346852642676986,-0.5242331502175409,0.012985798034144487,0.8514128939021304,0.2561505362213716,-0.7530771090463128,0.7477063808470437,-0.10905308034654468,-0.9134351876906205,1.1096544070843366,-0.07210679072134907,0.7265845516941535,1.110131124967291,-0.09277969933754888,0.768532107705789,0.9205283525803869,0.0,0.0,0.0,0.0
0.04353149833112647,0.23514342332921837,0.7394740510722462,-0.010401159116231582,-0.524211365297403,0.012985592983555243,0.8514256484021003,0.25618285429443494,-0.7530192652981783,0.7477174347783798,-0.1092016973616349,-0.9134600281215519,1.10968153616926,-0.07217073349188471,0.7265522563551178,1.1103297049954002,-0.09268672525526982,0.7686356664672537,0.9203765451691629,0.0,0.0,0.0,0.0
0.04353149833112647,0.23514342332921837,0.7394740510722462,-0.010401159116231582,-0.524211365297403,0.012985592983555243,0.8514256484021003,0.25618285429443494,-0.7530192652981783,0.7477174347783798,-0.1092016973616349,-0.9134600281215519,1.10968153616926,-0.07217073349188471,0.7265522563551178,1.1103297049954002,-0.09268672525526982,0.7686356664672537,0.9203765451691629,0.0,0.0,0.0,0.0
0.04373454495853903,0.2358439586225822,0.7424541908713054,-0.00879728483966872,-0.5228642290503303,0.011503167746601073,0.8522929560255951,0.25756292171305506,-0.7487876879898965,0.7525219077046245,-0.10790351448017087,-0.9157883064310288,1.1157753570342983,-0.1070042531896387,0.7455503844671082,1.086981546065541,-0.056026855100822545,0.738777494710388,0.9787033153386939,0.0,0.0,0.0,0.0
0.04407208554949421,0.23696834064213423,0.7460284059437278,-0.007820759842787609,-0.5220768702432158,0.010556367255293684,0.8527972445915273,0.25650030163101945,-0.74477887603074,0.7600568813719278,-0.10855682394588984,-0.9105114141406078,1.1162083612563791,-0.13467390325819398,0.7663851463417142,1.0587399552013002,-0.02635355454968193,0.7177810007851614,1.0235915282713839,0.0,0.0,0.0,0.0
0.04444547515450556,0.23842238383551015,0.7493772506864649,-0.007339482724342197,-0.5216058237051486,0.010081597482828948,0.8530954565946338,0.2536133816181829,-0.7432614318661086,0.7703527711907551,-0.11103353508720516,-0.9016363250098742,1.1127762821061171,-0.15664794191921314,0.7854630734523534,1.032183168708189,-0.005529333996912838,0.7034478201937223,1.0591831643809573,0.0,0.0,0.0,0.0
0.044800826476782685,0.24011134786813743,0.7523278875457691,-0.007170590178950204,-0.5212659560179665,0.009933931987692473,0.8533063358070329,0.24953271724088705,-0.7443099230368095,0.7827445091858157,-0.11483519384727557,-0.8913326266300121,1.106938153102643,-0.1751228122966238,0.8020692605793414,1.0089156710819385,0.010315461809366135,0.693642882625674,1.0896309781570968,0.0,0.0,0.0,0.0
0.0450919567239807,0.2419281928416697,0.7548917899572272,-0.00717252682511731,-0.5209406362279178,0.00995390842077333,0.853504732319948,0.24487539655067075,-0.7471466439897058,0.7960452422693235,-0.11933052288580422,-0.8808533896832254,1.0997348614685276,-0.191725739014411,0.8162727636636042,0.9889425469909076,0.023139285587880386,0.6865325048541844,1.1170585397250394,0.0,0.0,0.0,0.0
0.045179473946170126,0.24369453926808965,0.7571336125059919,-0.007220749430500916,-0.5206270989193459,0.009998678492064423,0.8536950925692965,0.2402580849775638,-0.7495707885453055,0.8070845315980419,-0.12369659967935921,-0.8704672990880072,1.091162356078475,-0.206931398200589,0.8281485162243657,0.9717924975500035,0.03441680714454399,0.6806095157103746,1.1424067809004803,0.0,0.0,0.0,0.0
0.0450283771990115,0.24539032766093655,0.7590994820643648,-0.0072727631541861975,-0.5203033918094118,0.010024754509607792,0.8538916744439817,0.23579616290292096,-0.7512315584854868,0.815459785394563,-0.12778697254620136,-0.8602481227431444,1.0812461209185085,-0.22115164774240711,0.8377981767980781,0.9572063531499806,0.04500956159603517,0.6751918985662504,1.1657007428658381,0.0,0.0,0.0,0.0
0.04460100916140297,0.24705054071611027,0.7608215784657845,-0.007309510493453223,-0.5199473233446004,0.010016251190738993,0.8541083225886607,0.23141975075445975,-0.7521151798337231,0.8211760671249985,-0.1316592304776592,-0.850044036879129,1.069678796349194,-0.23485745154311877,0.8452142247529215,0.9451313744093006,0.05561954846537076,0.6700120660345742,1.1860481986693938,0.0,0.0,0.0,0.0
0.043834667445206185,0.24874757563062108,0.7623136999805948,-0.007312073651492198,-0.519519413902723,0.009958692550142,0.8543693209612445,0.22696381134712157,-0.7523492432626531,0.8242943037664714,-0.13547083643240407,-0.8396261216245865,1.0558576035175995,-0.24878012695165197,0.8502002131147566,0.9357691712887352,0.0670648295846056,0.6652001237895231,1.2012429760344092,0.0,0.0,0.0,0.0
0.042648264863517873,0.25058418139551686,0.7635745454548467,-0.007252964114595787,-0.5189562361790458,0.009828961727983546,0.8547135256644652,0.22221104357760685,-0.7521962146580962,0.8249502243038291,-0.13944193060094728,-0.8287835813454371,1.039005669265661,-0.2639436350897924,0.8524002149423914,0.929506332574308,0.0804570051332275,0.6616711238348814,1.2072130511685562,0.0,0.0,0.0,0.0
0.04099343343057831,0.2526730256647614,0.7646214627017289,-0.0071082399271579135,-0.51819139026092,0.00960697998699306,0.8551811866032382,0.21693025355302692,-0.7520568784674612,0.8236031560332769,-0.14382296710951134,-0.8173027954192046,1.018463085652279,-0.28124551895573474,0.8516104499399725,0.9264297201648922,0.0970248175447725,0.6618726507337335,1.1979676668845443,0.0,0.0,0.0,0.0
0.038869411569181146,0.25505098173738067,0.7655356573840806,-0.006877155289105518,-0.5172359036424877,0.009286539630183124,0.855764853741941,0.21103357049949115,-0.7516983754659389,0.8201968110876463,-0.14865487421759915,-0.8046388499644184,0.9936682835981193,-0.3005053057916172,0.848152169300326,0.925722473878113,0.11614191213600222,0.6632092072216841,1.179645889269502,0.0,0.0,0.0,0.0
0.03631180768052135,0.2577350563055964,0.7664125421005177,-0.006545417098633502,-0.5160826278049411,0.008848549594827356,0.8564680857819628,0.2045324799651102,-0.7509644905714228,0.8148891196751864,-0.1539139435610984,-0.7904999513193196,0.9644577428069253,-0.32148620833076813,0.8425217502657633,0.9262090629048058,0.13759519746694787,0.6645346918436631,1.1566130597164335,0.0,0.0,0.0,0.0
0.03336587344728763,0.26069347898121664,0.7673073280269317,-0.006071507881773678,-0.5147037512037842,0.00824460189790982,0.8573069530969287,0.1976358551472136,-0.7496775986181676,0.8076839359147427,-0.15941826052009717,-0.7751027472147956,0.9311757166304415,-0.3438979899675284,0.8350527200113429,0.9269046178404813,0.16211286395482274,0.6655374046129745,1.131774930411786,0.0,0.0,0.0,0.0
0.0301186218400057,0.2637792127631379,0.7681905589123967,-0.0053837457454918745,-0.5130606489346631,0.007390038533881322,0.858303660208296,0.19094381524884002,-0.7476451539330794,0.7983866906560041,-0.16467482768331895,-0.7596860513642717,0.8954368735793747,-0.36706967071892443,0.8258262592168423,0.9272915744707486,0.19221721325911212,0.666829540200466,1.1074650522729532,0.0,0.0,0.0,0.0
0.026804630344927888,0.26665200275313733,0.7688469637017676,-0.0043430915320528205,-0.5109833243065887,0.006049113464544283,0.8595583680372293,0.18602156314510854,-0.7456290086915679,0.7878615563401977,-0.16854248617915663,-0.7487185933531375,0.8629125150054081,-0.3907017387309038,0.8144769036510685,0.9278753655413867,0.23401886946236627,0.6711390911303373,1.0852647105082494,0.0,0.0,0.0,0.0
0.023750114015817284,0.26922407158773876,0.7688563382550223,-0.002943669862571484,-0.5082759828485216,0.0041889319413940624,0.8611790248933725,0.18345659120344493,-0.747494370464881,0.7808829155783179,-0.17103831178561005,-0.7468589884672736,0.8396513867253382,-0.4144491701223636,0.7994856000642883,0.9316638212999476,0.29533418347787666,0.6805499064822675,1.0670065599916099,0.0,0.0,0.0,0.0
0.020996759793521398,0.2712809165559408,0.7676841731605285,-0.001444428334994088,-0.505023294654356,0.002070157723886489,0.8631020217391701,0.18338753314586184,-0.7551572989285655,0.7783262024209668,-0.17220236495249372,-0.7557367767518284,0.827697729930492,-0.4335262388448142,0.7777096408194052,0.9435680074373758,0.3725393280498589,0.6922894640802061,1.0546476265999323,0.0,0.0,0.0,0.0
0.018936588857553893,0.27255803256031236,0.7656839028765123,-0.0003174708036463129,-0.5015468345677603,0.00018648541195883693,0.8651304162786901,0.18553297742285338,-0.7687257445774957,0.7820967117070807,-0.17221490356772567,-0.7733658044075973,0.8283910476736783,-0.4420036741002083,0.7522067901678167,0.9596507473957798,0.45310557195133366,0.6996378671177073,1.0518086953955643,0.0,0.0,0.0,0.0
0.01896448717738415,0.2726026228173405,0.7655942155350252,-0.00022157167693206983,-0.5015531792219411,0.00012850988310256366,0.865126778457103,0.18560249387475794,-0.7687671066959594,0.7821219066480545,-0.17221974533183565,-0.7735256687848991,0.8281486661679175,-0.4420466297378285,0.7520863503105917,0.9594803928527647,0.45314546117780663,0.6996425074160691,1.0518074219338158,0.0,0.0,0.0,0.0
0.01896448717738415,0.2726026228173405,0.7655942155350252,-0.00022157167693206983,-0.5015531792219411,0.00012850988310256366,0.865126778457103,0.18560249387475794,-0.7687671066959594,0.7821219066480545,-0.17221974533183565,-0.7735256687848991,0.8281486661679175,-0.4420466297378285,0.7520863503105917,0.9594803928527647,0.45314546117780663,0.6996425074160691,1.0518074219338158,0.0,0.0,0.0,0.0
0.018304329670313264,0.2729256657080655,0.7663084291245347,-0.00011056079969410838,-0.5034503068627872,0.00012853922503977677,0.8640241661977647,0.1835221004384831,-0.7529859417927679,0.764529880614472,-0.17194589657348236,-0.7560951218206001,0.8077232445461006,-0.451460927118024,0.7607134633388881,0.9577846281527884,0.4571209701383606,0.7076807129402892,1.0496281417866498,0.0,0.0,0.0,0.0
0.017993748847715645,0.2733769240527961,0.7667566043487034,-0.00014486630788326945,-0.5046209619486843,0.0002637164685935136,0.8633409490052939,0.18140343830262218,-0.7449731585267411,0.7562106381730112,-0.17271822802947873,-0.7441201878217683,0.7936051110627478,-0.45831655422125056,0.7663678669105987,0.9570854204238048,0.4598577065377266,0.7133678947292718,1.047629868894274,0.0,0.0,0.0,0.0
0.018173496788788532,0.2741007812474273,0.7669279456867255,-0.000292632307995234,-0.5053139108140027,0.0005211979025264508,0.8629353940225982,0.17883786368434781,-0.7448876616743763,0.7587206973820539,-0.17480510815911562,-0.7367996818908239,0.7856712417098568,-0.46534518606629394,0.7705989806451214,0.9581226438985663,0.46163358238814545,0.7180392981475039,1.0461059857375883,0.0,0.0,0.0,0.0
0.01893952159321961,0.2751787400663053,0.7668629167304637,-0.0005400135426049672,-0.5056897695350144,0.0008740588672451863,0.8627147856586754,0.1756313777020374,-0.7524347662852384,0.7725516307985686,-0.1783029234231214,-0.7334740515808376,0.7837377849838166,-0.474611823505685,0.7747861037266438,0.9608623010253702,0.462632161197777,0.722793054527026,1.044786237136597,0.0,0.0,0.0,0.0
0.02031874737751589,0.27668978833784325,0.76648404431484,-0.0008810736714942543,-0.5059113462829886,0.0012686707935974611,0.8625840967034674,0.17166232044727917,-0.766924830757615,0.7969470057249782,-0.18324318821213237,-0.7334028302374226,0.7868700347110119,-0.48869465162262393,0.7797056099291333,0.9665046701563482,0.46293948125968676,0.7279860870113486,1.0445006458974875,0.0,0.0,0.0,0.0
0.02232692372594473,0.2787900682378238,0.7655560006465307,-0.000947744232108466,-0.5068156792146347,0.0011603556628490012,0.8620531437549629,0.16741883181938788,-0.7824513238129707,0.8257243389361063,-0.18862069216620386,-0.7339130061519866,0.7913732978619189,-0.5230300945349661,0.7903602007561731,0.9795427846763959,0.45980765190811795,0.7347384129175939,1.0487462282248552,0.0,0.0,0.0,0.0
0.02565481729695418,0.2816569284238955,0.7674430895277494,0.001040778249967508,-0.5092297613833924,-0.0014578385307201856,0.8606287478401277,0.16578085421730307,-0.779695342009866,0.8494987617695343,-0.1902403163219137,-0.7304311239495466,0.7998586772953351,-0.4155958685693474,0.7571685147666869,1.0046859127766747,0.4215789136177466,0.7551503087368899,1.0269183267945274,0.0,0.0,0.0,0.0
0.029323037095573375,0.2847858335591625,0.7682604593573005,0.0029598030991413015,-0.5119561034469307,-0.004037829706942687,0.8589970219042133,0.1635076110557956,-0.7805775386804537,0.8769094299213496,-0.19291834930432952,-0.7289767956391969,0.8096432931382308,-0.31599488310884805,0.7314772569031937,1.0297302620033997,0.3808198257216409,0.7723959191889931,1.012585002676266,0.0,0.0,0.0,0.0
0.03319268968315225,0.288025902268791,0.7684973004160344,0.004152231154166314,-0.5141681597479886,-0.0056826164210828705,0.8576605216217079,0.15930469352240026,-0.7902338028853407,0.9123565960506487,-0.19821347417983362,-0.729143925566785,0.8210806185466927,-0.2450260466812438,0.7160424445145713,1.055306845392205,0.3458315954600997,0.7875664245522856,1.000645348555506,0.0,0.0,0.0,0.0
0.03686192601757998,0.2910710735794903,0.7685018820692388,0.0048193372175914405,-0.5158747329036237,-0.006609248410008591,0.8566249773242972,0.1541787258125687,-0.8034814654076188,0.9485650479669411,-0.20470056408174736,-0.729666186260024,0.8319901808946988,-0.19551434384994687,0.7071654304141991,1.0812591107735579,0.3171340503916227,0.8009582581621019,0.989723232985991,0.0,0.0,0.0,0.0
