zhuoxili-jackie/tripod-support-walk/examples/trajectory_single_leg_acc_f005.csv
root_pos_x,root_pos_y,root_pos_z,root_rot_x,root_rot_y,root_rot_z,root_rot_w,FL_hip_joint,FL_thigh_joint,FL_calf_joint,FR_hip_joint,FR_thigh_joint,FR_calf_joint,RL_hip_joint,RL_thigh_joint,RL_calf_joint,RR_hip_joint,RR_thigh_joint,RR_calf_joint,FL_foot_joint,FR_foot_joint,RL_foot_joint,RR_foot_joint
0.0,0.0,0.72963,0.0,-0.5231245161092812,0.0,0.852256264656019,0.0,-0.81,0.872,0.0,-0.81,0.872,0.0,0.65,1.0,0.0,0.65,1.0,0.0,0.0,0.0,0.0
0.0005489483602676161,-0.00022874137839043568,0.7295158344546625,-0.0006435719036283812,-0.5227293108765466,0.0004770860312957253,0.8524983435495075,-0.0003034514101083075,-0.8168588304136611,0.8807564589713729,-0.00030345141010830744,-0.8145501587776105,0.8795200340117956,0.008605347753414812,0.6478032667538882,0.9983298800179994,0.00860534775341481,0.6522645992630642,1.0011487934293284,0.0,0.0,0.0,0.0
0.001800559897492302,-0.00026149907461573416,0.7293810409126618,-0.000938216949787475,-0.52271214391714,0.0006935356254554124,0.8525084476759385,-0.0006251385615758272,-0.8247143449864907,0.8943075968603352,-0.000622049709199376,-0.8210149261589657,0.891995239668458,0.01204801087914646,0.6498125939247611,0.9979985998543422,0.012167227002171732,0.6562851944539156,1.0016081845593388,0.0,0.0,0.0,0.0
0.003786522671502727,5.7612185451411894e-05,0.7292395723643653,-0.0009146057113805877,-0.523156017544269,0.000666551469708872,0.852236176486748,-0.0013835509549376948,-0.8335155654416772,0.9129151032053153,-0.0013783944946753597,-0.8284648840772751,0.9083933541190352,0.009780275088433989,0.6563755930288689,0.9995033496642058,0.009894751708875953,0.6625070747087268,1.000846820919108,0.0,0.0,0.0,0.0
0.006533545856541116,0.0007601317671514241,0.729166863400423,-0.0004622598955626152,-0.5242841042187212,0.0003140195322048104,0.8515432260144492,-0.0025117839577456814,-0.8414462914395995,0.9350445354697015,-0.0025068097670539057,-0.8355650565063587,0.9275128902843736,3.15236943159037e-05,0.6691401308173164,1.0026327589144113,4.200172752395065e-07,0.6715447202076864,0.9982248309355501,0.0,0.0,0.0,0.0
0.009997498884216704,0.0016586639496538325,0.7292563639049963,0.0005213516762756737,-0.526177739020456,-0.0004456884885616172,0.8503743390492929,-0.003386826406619803,-0.8466450067519615,0.9585315737465077,-0.0033837297582966566,-0.8419319151588328,0.9490717299778249,-0.018367146207394998,0.6895405559029529,1.0058353314900612,-0.01827782484362308,0.6834877069099342,0.9932629918332908,0.0,0.0,0.0,0.0
0.012866430216214428,0.0019780482574649418,0.728878573998671,-0.00010554772724549101,-0.5253536206907018,-3.074416686675237e-05,0.8508839880627932,-0.005873588186362785,-0.8471829956675586,0.9355592437902384,-0.004977555443599996,-0.8595283999782172,0.9784341838889781,-0.01487067255857313,0.6931504989577129,1.0044816294661678,-0.014491645876451607,0.690109785022833,0.9907904872801921,0.0,0.0,0.0,0.0
0.015606139004435929,0.002394405577600819,0.7284258371743133,-0.0003537330033791763,-0.5251030321491957,0.00011353045451621718,0.8510385817408743,-0.010757687600330173,-0.8524968565784101,0.9197971077716092,-0.006355669918248142,-0.8736117208996343,1.0030259591257638,-0.01612753928923481,0.6988365351684572,1.0057620174562891,-0.015471369843823126,0.6962363237837106,0.9895915233358867,0.0,0.0,0.0,0.0
0.01802535193330096,0.0028821421078051293,0.7279946752305239,-0.0003183152542638097,-0.5254152465760767,4.430754702159985e-05,0.8508458822710729,-0.01619615083952669,-0.8605747192060714,0.9112259542649703,-0.007519509561961904,-0.8832071619572806,1.0215627586407976,-0.02141140201702073,0.7063678031366242,1.0087074999818118,-0.02042413588471701,0.7019506159378259,0.9890295731527341,0.0,0.0,0.0,0.0
0.019945079571674008,0.0033118839595735004,0.7276178561310606,-0.0002780144546330272,-0.5258177562535804,-2.133565165566067e-05,0.8505972075319805,-0.02141712171032239,-0.8704235639140352,0.9062380471719528,-0.00854069869448421,-0.8898596251150559,1.0351506971215614,-0.026426977224065763,0.7129291428693043,1.0116240908719167,-0.02507075928315922,0.7066688324516553,0.9888556564237561,0.0,0.0,0.0,0.0
0.021301792977648424,0.003601239129480569,0.7273263583499113,-0.00033791488265052117,-0.5260737320340825,-1.3677989448774584e-06,0.8504388950861747,-0.02624213463967299,-0.8812337936290499,0.902441433385007,-0.009358898491044744,-0.8945357171451818,1.0446706025264938,-0.028884778450890745,0.7171376211482536,1.0136162509399043,-0.027265732131485882,0.7101736160950217,0.9889432230037035,0.0,0.0,0.0,0.0
0.02213740724323705,0.0037317576957870066,0.7271394329318593,-0.0004451737512911867,-0.5262218699489394,5.983500967419578e-05,0.8503471889925575,-0.03069298127502468,-0.8922384054277512,0.8989267429817772,-0.009831407773529368,-0.8973859972392707,1.050548282686765,-0.029123626429863044,0.7193825314837229,1.0146220399477868,-0.027410648965362584,0.7125977915072121,0.9892383875529793,0.0,0.0,0.0,0.0
0.022525698861208653,0.0036966232856558293,0.7270524192989642,-0.0005775375252001344,-0.5262685971959083,0.0001395431774474101,0.8503181819669384,-0.034881164826847055,-0.9032428921151513,0.8952025807928582,-0.009889527217399902,-0.8988257424357007,1.053515195293865,-0.027374518322924955,0.7199494960479159,1.0146411563492226,-0.02573733383656539,0.7140662249296257,0.9897289658929915,0.0,0.0,0.0,0.0
0.022569948547689307,0.0035155925633443847,0.7270510050079464,-0.0006717935733592565,-0.5263113375616963,0.00018445820685975597,0.8502916503309808,-0.038863314597720966,-0.9140019636038567,0.8912792749961126,-0.00947731974464031,-0.8989492431859266,1.054067956985183,-0.024811788961525486,0.7197236227947028,1.01395778991189,-0.023318272792552858,0.7148026595409752,0.9904300954333694,0.0,0.0,0.0,0.0
0.0223541543043167,0.0031990877068206526,0.7271113704739998,-0.0007293028380512329,-0.526342920492533,0.00019081092594845723,0.850272051614042,-0.042702645500211876,-0.9245859134193757,0.8870314779434062,-0.008614807494841253,-0.89821693226033,1.0529435421326587,-0.021616223868008114,0.718900809053443,1.0126795121981433,-0.02029925743500515,0.7149167966388026,0.9913729676075854,0.0,0.0,0.0,0.0
0.021947165261967848,0.0027570066758713374,0.7271934649530276,-0.0007686060542496377,-0.5263293160940176,0.00016650190303680391,0.8502804434666561,-0.046431847270058356,-0.9351373404626435,0.8823060379979063,-0.007343744137560342,-0.8971764105687045,1.0508612250944385,-0.01772073650286725,0.7174019012077368,1.0110159698165542,-0.016595263142549787,0.714390210869376,0.9927276752171758,0.0,0.0,0.0,0.0
0.02143908805934016,0.002241616903530151,0.7272866550703526,-0.0007956639246012798,-0.5262798804644097,0.00012276393522392474,0.8503110250174944,-0.05013575454430648,-0.9457315564632348,0.8771564687042874,-0.0058337148105051875,-0.896056460803645,1.0483483542419545,-0.013493256436269562,0.7155405400855396,1.0090997800742374,-0.012533730234726481,0.7134785755448922,0.9942910471940106,0.0,0.0,0.0,0.0
0.020932487133647707,0.0017257939015124625,0.7273917703386745,-0.0007960815564859574,-0.5262463434368041,5.820264774248659e-05,0.8503317875311969,-0.05389587646016247,-0.9563361993957549,0.8717876921228411,-0.004284559844966778,-0.8948781171556698,1.0457962288791969,-0.009704102710478755,0.7139331271148043,1.0071094438573436,-0.008847573174139891,0.7125562245505335,0.9957290843997969,0.0,0.0,0.0,0.0
0.020499921053611484,0.0012633986296224885,0.7274907088324408,-0.0007636345540028386,-0.5262564388339799,-2.8447162412697105e-05,0.8503255709660885,-0.05778697610782576,-0.9669016750353299,0.866365149494362,-0.002839768488436714,-0.8937591804128984,1.0435437575849644,-0.0068382498644875955,0.7128766595114339,1.0053422257720122,-0.00602697676490775,0.7117839095597146,0.9969642046260894,0.0,0.0,0.0,0.0
0.02018413465183868,0.0008885995849899433,0.7275692626111456,-0.0006985764637084695,-0.5263205833563407,-0.00013558078013367484,0.8502859149393324,-0.06189013854012382,-0.9771907718939368,0.8610824584666381,-0.0015933504645656894,-0.8928030156591812,1.041815995028879,-0.005122244181557517,0.7124848893624738,1.0040088103749223,-0.004320429897889546,0.7112375280932259,0.9979751987287921,0.0,0.0,0.0,0.0
0.019995884028259803,0.0006141081013627749,0.7276215697749211,-0.0006065384892281602,-0.5264344306874921,-0.00025812561969213235,0.8502154760229678,-0.06626920732421475,-0.9866424881906753,0.8562537064634892,-0.0005882067144827481,-0.892061763999428,1.040688150068982,-0.004547975220470532,0.7127245362727294,1.0031856375244466,-0.003739071280546515,0.7109271871835531,0.9987628440264599,0.0,0.0,0.0,0.0
0.019912059629169514,0.0004279201686322411,0.7276496140912906,-0.0005052117896590532,-0.5265678487498785,-0.0003824428517543293,0.8501328714744759,-0.07093109597672417,-0.9943225786061581,0.852389812811416,0.00018189179890913372,-0.8915785938712283,1.040117809669276,-0.0047699560467805045,0.7133520335285279,1.0027800904336888,-0.003948563939680272,0.7107872600806716,0.999351625237679,0.0,0.0,0.0,0.0
0.01988337612496441,0.0002968032722040794,0.7276609612444805,-0.0004220455997783183,-0.5266704297066164,-0.0004886121033777361,0.8500693157668804,-0.0757782182503659,-0.9990188266627865,0.8502781137396858,0.0007677478363962891,-0.8913965649326482,1.0399788610871168,-0.005160428373667065,0.7139556535075405,1.0025646180787922,-0.004327794804520681,0.7106933384100846,0.9997947249483341,0.0,0.0,0.0,0.0
0.019860241060213453,0.00018521139640723317,0.7276674264036742,-0.000366598991787833,-0.5267216765513549,-0.00057030600466581,0.850037537881222,-0.08060729359575157,-0.9996060764485998,0.8509247227354964,0.0012522151074360354,-0.8914253216879154,1.0400287321003339,-0.0053088669683799454,0.7142997404968214,1.0023342107594304,-0.004470564203382578,0.71055463060252,1.0001489747714927,0.0,0.0,0.0,0.0
0.019817883265056034,7.713056959880846e-05,0.7276764069127364,-0.00033523212852577675,-0.526721919711434,-0.0006303487429194167,0.8500373577528131,-0.08535361952851546,-0.9960534135764367,0.8542883468503699,0.0016831536464527678,-0.8915723558956858,1.0401014684066818,-0.005131806744451282,0.7143387238820837,1.0020050969477132,-0.004294569525929268,0.7103281134609768,1.0004336972144907,0.0,0.0,0.0,0.0
0.019756772328829025,-2.4239715357622445e-05,0.7276911579876716,-0.0003069943150405071,-0.526699660778577,-0.0006845938546968534,0.8500511187107964,-0.09011336696088379,-0.989414626500418,0.8593300763224334,0.0020825733135189286,-0.8917157777827449,1.0400853498775282,-0.00493720111542066,0.7142621233093654,1.0016274620665755,-0.004102247747407894,0.7100219103277394,1.0006361064528684,0.0,0.0,0.0,0.0
0.019672064670753206,-0.00012331033443456572,0.7277186928557721,-0.0002435320771711819,-0.5267122020264751,-0.0007637406671325018,0.8500433010316253,-0.09490779256340064,-0.9808233060285427,0.8652402707849702,0.002522355817343856,-0.8915990110565987,1.0397348790930339,-0.005216632978342215,0.7144119845355807,1.0012671498298762,-0.0043771433561837995,0.7096572309372149,1.0007742286796686,0.0,0.0,0.0,0.0
0.019519164493278743,-0.0002585632060828375,0.7277643717963347,-0.00013146134249311992,-0.5267673738187423,-0.0008835405029772789,0.850009021101659,-0.09967532320566719,-0.9711787624679462,0.8713891698148697,0.003138645674350203,-0.8910847366478342,1.0387740764430515,-0.005876300967099773,0.7147255927239349,1.0008363851584876,-0.00502638749940677,0.7091048724320809,1.000988400021844,0.0,0.0,0.0,0.0
0.01920607446977973,-0.000506445059549812,0.727809833913149,6.758702370661914e-06,-0.5268001799141508,-0.001039125051274254,0.8499885238142137,-0.10428750366893018,-0.9611506470995451,0.8771759687726473,0.004133398901481724,-0.8903046152432432,1.0369650862191786,-0.006080247579341074,0.7145015167642318,1.000240187185164,-0.005227045841026453,0.7079325708846695,1.001730892567018,0.0,0.0,0.0,0.0
0.018669550352227032,-0.0008974077600659809,0.7278953275799176,0.00016671487265131548,-0.5268008580269845,-0.0012227375192307847,0.8499878429137344,-0.10865514120493974,-0.9509864038196156,0.8824055104816569,0.005566391417504001,-0.88894076348189,1.0338324106497914,-0.0054814444977183,0.7136360038165577,0.9990658194371931,-0.004639843663745468,0.7061625382361107,1.0028153598104457,0.0,0.0,0.0,0.0
0.01784785453535317,-0.0014452189358674346,0.7280469335320569,0.00037699051287344234,-0.5268197775851977,-0.0014512655584167273,0.8499756900356121,-0.11264557904124398,-0.9406613536790318,0.8871763021949062,0.007497845617362393,-0.8864255457702684,1.0286229851092197,-0.0043234897478289175,0.7123006359977682,0.9972104767720158,-0.0035008363954077398,0.7037761659373583,1.0041874824573256,0.0,0.0,0.0,0.0
0.016660562136000517,-0.0021746830143091174,0.7282897214476021,0.0006121970208741209,-0.5268208234676666,-0.001699176348940079,0.8499744454837407,-0.11622234478642587,-0.9302593726862505,0.8914223782644909,0.009930873022973212,-0.8824651435528621,1.0207553988557292,-0.0020407962301530465,0.7101287839009022,0.9943510467697695,-0.0012455900898971617,0.7006834663167718,1.005759458945317,0.0,0.0,0.0,0.0
0.015031402446244247,-0.003105672400384356,0.7286529406430126,0.0008274976533623321,-0.5267470585548738,-0.0019233959058202017,0.8500195010113659,-0.11944165142219476,-0.9198609026045446,0.8951053753726074,0.012816106795026705,-0.8768047882401335,1.0096873234296346,0.0021116410263564106,0.7066828785139845,0.9900518741829435,0.002886239018954477,0.696846842742959,1.0073459020257043,0.0,0.0,0.0,0.0
0.01291099110671059,-0.004243422673342177,0.729162652059175,0.0009651512554418697,-0.526539087269822,-0.0020710772116604866,0.8501478510819752,-0.1225239566401832,-0.909585592349956,0.8983037361305489,0.016044712094586758,-0.8692502207670376,0.9950064666568473,0.008805257459547302,0.7016230844439573,0.9838579513191494,0.009626094865265286,0.6923161743109151,1.0086768189698694,0.0,0.0,0.0,0.0
0.010290571244491457,-0.005585479547143059,0.7298192708703373,0.0009014577315426638,-0.5260507319503284,-0.002046243949614161,0.8504502499700853,-0.12602964516212894,-0.8999478226097537,0.9010605317643614,0.01941596557085751,-0.8601865040122593,0.9769500894353274,0.019226822321618334,0.6942526816784497,0.9752432335557217,0.020299631582814816,0.6871049780090573,1.0094903899708332,0.0,0.0,0.0,0.0
0.007267578876163472,-0.007072225438941562,0.7305137700815868,0.0005996788963918892,-0.5252935981066769,-0.0018413543728972629,0.8509188478271212,-0.13072802960979688,-0.8915435130948619,0.9042217083726666,0.022776125741439085,-0.8500755868931333,0.9560444309000253,0.032597254325469296,0.6847043309295437,0.9650733540209426,0.03435213862042855,0.6809883553062228,1.0103019560862034,0.0,0.0,0.0,0.0
0.00409703481414847,-0.008512800591836655,0.7309022418919376,0.00025993950266546556,-0.524633406825353,-0.0016475670083850073,0.851326615581371,-0.13744010555033573,-0.8848082303614584,0.9100192792346804,0.02602873912871796,-0.8391696558991786,0.9327945827546178,0.04461468800403096,0.6742115695986521,0.9577104052101084,0.04741666663264883,0.673123600984909,1.0135982443110878,0.0,0.0,0.0,0.0
0.001426460132044229,-0.009593009528277248,0.7308948883201544,0.000327157606102229,-0.5246835280043086,-0.0018157464159403657,0.8512953608905699,-0.14617269906454763,-0.87949704275059,0.9222794510800834,0.029043021989772363,-0.8277197239078159,0.9098995370368582,0.049022668260779105,0.6671343718535888,0.9563759454702783,0.052470831087655385,0.6651014544943532,1.019363750335669,0.0,0.0,0.0,0.0
-0.000400615058072928,-0.01014681643825295,0.7306700963343153,0.0010718804046373001,-0.5257777856322091,-0.002510531643584599,0.8506175806077343,-0.1561127645742903,-0.8774616617763992,0.9458820180462796,0.0316719122322981,-0.8152103394446891,0.8886810435758935,0.04344166741972174,0.6663431498295668,0.9611033467635515,0.04652804330544412,0.659009071293558,1.0259779811340004,0.0,0.0,0.0,0.0
-0.0011257196781558434,-0.010203790958540968,0.7303932839927917,0.0023442439752846423,-0.5274822853538239,-0.003389335729160891,0.8495560343858469,-0.16499227247530635,-0.8819104177968579,0.9811948092072489,0.03319444840146085,-0.8046436150803099,0.8739058428477514,0.030865061921680242,0.6712231548125612,0.9688350216453754,0.03308936888887072,0.6562140870936681,1.0314773870577245,0.0,0.0,0.0,0.0
-0.0011132950212182557,-0.010227735453847699,0.7303765738053989,0.0023444747478798406,-0.5274683068068258,-0.0033747766807197535,0.8495647707119524,-0.1649839504542968,-0.8819528001746854,0.9811874479899861,0.033190247096159385,-0.8046510526638807,0.8738012797382843,0.030761577484746543,0.6712761060542577,0.9687270750127138,0.03317233999563518,0.6561385697736876,1.0315545149807623,0.0,0.0,0.0,0.0
-0.0011132950212182557,-0.010227735453847699,0.7303765738053989,0.0023444747478798406,-0.5274683068068258,-0.0033747766807197535,0.8495647707119524,-0.1649839504542968,-0.8819528001746854,0.9811874479899861,0.033190247096159385,-0.8046510526638807,0.8738012797382843,0.030761577484746543,0.6712761060542577,0.9687270750127138,0.03317233999563518,0.6561385697736876,1.0315545149807623,0.0,0.0,0.0,0.0
-0.001977535595849676,-0.010518211751178673,0.7301478419261035,0.0013081746600214327,-0.5258295186068854,-0.0022303733862046936,0.8505860517756378,-0.16711644997469483,-0.8898351495895441,0.9830179283922907,0.0315591291805137,-0.8083147669452059,0.8733410176984608,0.04578000191342646,0.6590215982874841,0.9657199368647539,0.049182749927645354,0.6525922577570552,1.0332998313310007,0.0,0.0,0.0,0.0
-0.0022743693762183517,-0.010670982703463129,0.7298624112841131,0.0007811840028121343,-0.5249749935390099,-0.0015373542695158136,0.8511159042410853,-0.16863040025687617,-0.8952779284492421,0.9855939723728507,0.030438125111335042,-0.8114625679928251,0.874863585598481,0.053312188118880215,0.6523839677830846,0.9652568141192598,0.057688525220923936,0.6505053007062997,1.0354719814701712,0.0,0.0,0.0,0.0
-0.0017832535087311079,-0.01061161552419178,0.7297801606497768,0.0008732181024706089,-0.5251176657758851,-0.001440401588653594,0.8510279665342935,-0.16927678634244653,-0.8972127513786737,0.98963043257435,0.029975252008435514,-0.8133517724615357,0.8790205422928705,0.052825357085652516,0.6537640829145949,0.9659411101822719,0.057403273478762,0.6520508758295188,1.035883271704552,0.0,0.0,0.0,0.0
-0.0004589307476365926,-0.010641746210801788,0.7301457108269646,0.0013841768202841856,-0.5258454667935304,-0.0018687428270511386,0.8505769435550617,-0.16847549357880975,-0.8974927748285794,0.997192157761702,0.03090347404229034,-0.8162336833453693,0.8890200553518657,0.047864070704176816,0.6629418391844818,0.9633503528834519,0.05209252861210513,0.6580369876269853,1.032562419472644,0.0,0.0,0.0,0.0
0.0018537920213114716,-0.011249274958826922,0.7318161523302574,0.002334990471402374,-0.5270627585248067,-0.0029384375193393297,0.8498180758142678,-0.1646195530169214,-0.893953888146336,1.0081185887488906,0.03472939642921068,-0.8198985796599821,0.9073672784055389,0.040154407180666526,0.6848706666304633,0.9472356922158265,0.04380201604451093,0.6725676069751512,1.0187756996471644,0.0,0.0,0.0,0.0
0.0037054024923128996,-0.012087309528644645,0.7336381005539289,0.001954625450826752,-0.5264557491972729,-0.0027677367455739487,0.8501957793413186,-0.16335297761770123,-0.9003545505736087,1.025152190013181,0.036726194393805076,-0.8282181300549022,0.9286117934234964,0.025611070790200877,0.6694326501716011,0.9804399388544632,0.05341053833671615,0.6867310131155018,1.002062920096782,0.0,0.0,0.0,0.0
0.005402407612327227,-0.01297295591720077,0.7354573261928553,0.0019294540720926454,-0.5263563594668235,-0.002854703710739575,0.8502570850763548,-0.16117703244976797,-0.9020663692215193,1.0371019355268665,0.03928483721320873,-0.8332720108824431,0.945695874328377,0.013101414793299026,0.6595805931566928,1.005901240614794,0.05962770305379755,0.7008615275636662,0.9859942598607423,0.0,0.0,0.0,0.0
0.006833588538876166,-0.01389847140356715,0.7370855630225903,0.002110547013148831,-0.5265179819665773,-0.003080087848025169,0.8501557935555086,-0.15845896158173065,-0.9010097143361537,1.0449205674323407,0.04216269214064945,-0.8363791875273524,0.9592048029125814,0.004861976573745775,0.653251379567948,1.0261111759293677,0.06401393473632254,0.7135228221958448,0.972129802838604,0.0,0.0,0.0,0.0
0.007899336812063203,-0.014894776216399192,0.7385047569084234,0.002288480967249186,-0.5266423744473563,-0.003275996582574542,0.8500775494845774,-0.15554644353398397,-0.8989445817520519,1.0496313409640634,0.04513132157616354,-0.8385513290762476,0.9697559994803706,-0.00016269182888143264,0.6480628066110585,1.043178402125572,0.06915128756845473,0.7241686121838478,0.9605913826787484,0.0,0.0,0.0,0.0
0.008573638709921363,-0.015973724846103297,0.7397608484096785,0.002404938910910751,-0.5266522864150887,-0.0033992037747362907,0.8500706034773182,-0.15250391979493627,-0.896201729852723,1.0514767004696912,0.048143592593680055,-0.8399397285298036,0.9775125060236716,-0.0033274706313193864,0.6429795001303621,1.058329482927835,0.07575341226654414,0.7328637025199306,0.9510309631566076,0.0,0.0,0.0,0.0
0.008892678643824724,-0.01712531997322429,0.7409081789850986,0.00247777078177676,-0.5265824208134163,-0.003466150345578675,0.8501134045196658,-0.14931665390616014,-0.8925853859572008,1.0505646614929924,0.051200565040673614,-0.8404151884280142,0.9826216861315022,-0.005573612491884881,0.6377401707123137,1.0723122046561866,0.08348618360260661,0.7399609060705492,0.9429740047405917,0.0,0.0,0.0,0.0
0.008919708897876182,-0.018337647885690492,0.74197819176217,0.002478108729580719,-0.5263983009238601,-0.003454881744430131,0.8502274704770069,-0.14609110053572297,-0.8885710934284733,1.047669488670504,0.054236959998017066,-0.8403159640303035,0.9857546892903217,-0.007315707486989101,0.6319018963894679,1.0855181291451894,0.09256020081576698,0.7457765565000859,0.9359820955880076,0.0,0.0,0.0,0.0
0.008744021854983571,-0.019581714805594577,0.7429802622551731,0.0023461855873622406,-0.5260220918034768,-0.0033186468989350243,0.8504611930774058,-0.14304935020064163,-0.8851540143153452,1.044126423130774,0.057110952571242025,-0.8403118533858664,0.9879579092549043,-0.008393552920233312,0.6248807236256965,1.0983364124768047,0.10342004476149448,0.7505788178501998,0.9296506596186491,0.0,0.0,0.0,0.0
0.008586609272109236,-0.020756899744468236,0.7439694525335837,0.00241963483902338,-0.5259417910159483,-0.003349145877117796,0.8505105296538521,-0.13978027397402484,-0.8798245321350385,1.0390298481689595,0.06007878319405844,-0.8390377849982387,0.9888997353156213,-0.009755515410962645,0.6198191425117767,1.1114796586677407,0.11124768313686824,0.7554221436416805,0.9235384111496459,0.0,0.0,0.0,0.0
0.008474339250326443,-0.021876634854451352,0.7449200249430227,0.0025035564142759114,-0.5258657412631321,-0.003397352659932899,0.8505571188144634,-0.13664757766873387,-0.8748305263314431,1.0344082897551572,0.06294458218594615,-0.8379849307674909,0.9901147542323763,-0.011016253113045577,0.6150336325840007,1.1248717091664562,0.1184599222009361,0.7601399266900518,0.917506591640259,0.0,0.0,0.0,0.0
0.008415617592881454,-0.022932929900249994,0.745822209699564,0.002554757625803167,-0.5257413453595368,-0.003426452138626703,0.8506337463437242,-0.13376009640656175,-0.8706532347277062,1.030727365164676,0.06563101869714061,-0.8374201261527611,0.9918813549956034,-0.012407164809413902,0.6101962559417238,1.1384051076012878,0.125529473099017,0.7647112134177759,0.91154627136395,0.0,0.0,0.0,0.0
0.008433517745967354,-0.02389967331148956,0.7466730465832369,0.002605085178720602,-0.5256249571413174,-0.0034624366221494875,0.8507053717322098,-0.1311207752888245,-0.8670649238350315,1.0279354209704832,0.06811770549826025,-0.837162534962281,0.9941031726629338,-0.014095503675834703,0.6056316812458128,1.1521214959513941,0.1319217617094884,0.7692319106847705,0.9056733302446276,0.0,0.0,0.0,0.0
0.008547523642311802,-0.024753897905504186,0.7474649580239965,0.002675208214229134,-0.5255517248099859,-0.003522500940943088,0.8507501512179593,-0.12875006429854588,-0.8639749828285166,1.026069827892144,0.070377336365281,-0.8371327694725764,0.9967604368486813,-0.016095132389414173,0.6016181082030162,1.1660028251765704,0.13726634758809425,0.7737479557290152,0.8999394223926764,0.0,0.0,0.0,0.0
0.008764550163115462,-0.02548511400982704,0.7481827813664512,0.002772344764685184,-0.5255314616014058,-0.0036130722503150505,0.8507619776885365,-0.12666215176813123,-0.8614142577962057,1.0251890249036975,0.07239714245557673,-0.8373578243693794,0.99987826293678,-0.018402311884683997,0.5983744645847924,1.1798183106799047,0.1414303838783168,0.7782057843831413,0.8944883086357868,0.0,0.0,0.0,0.0
0.00904311114261968,-0.026087680885353334,0.7488015736388889,0.002886285805751238,-0.5255591695765336,-0.0037194032341671683,0.8507440241740482,-0.12489521548520596,-0.8593372498190851,1.025018793706606,0.07412787361355418,-0.8377189272871445,1.0031114175212255,-0.02108854368725431,0.5959400502287598,1.1929821117028971,0.14453790638230515,0.7823760395793595,0.8896249344700177,0.0,0.0,0.0,0.0
0.009282343615421672,-0.026559242929492122,0.7492847498372459,0.0029835929129618244,-0.5256140881853758,-0.0037990664787769823,0.8507094072409659,-0.12352617614306834,-0.8576011594502809,1.0248764651314572,0.07546474312391804,-0.8379000855296849,1.0056438529850047,-0.02437329841112123,0.5941531363063832,1.2043627086315276,0.1470338361402894,0.7858247071969182,0.8858496019249308,0.0,0.0,0.0,0.0
0.009408434103175727,-0.026928591859597017,0.7495851143198929,0.0030242383372123672,-0.5256428904889473,-0.0038164197996646693,0.8506913897535445,-0.12254704945814054,-0.8563784656228416,1.0244580071672786,0.0764168863458443,-0.8379996325896782,1.007193438685382,-0.028616069569359606,0.5931659537382862,1.211970455678235,0.14957379050428657,0.7880578692782915,0.8837683496514402,0.0,0.0,0.0,0.0
0.009388260093847968,-0.02723673616843131,0.7496638560575213,0.0029735968195081794,-0.525585375858166,-0.003750097048587431,0.85072739886412,-0.12189597687394843,-0.8560065473668265,1.0238139688364192,0.07706687950400751,-0.83836020434834,1.0079190273183956,-0.034249245474985805,0.5938499718347442,1.2127766120731593,0.15278011191833035,0.7887008235939409,0.8838607480311647,0.0,0.0,0.0,0.0
0.00922879479068784,-0.027484979123167646,0.7495252565880931,0.002844038504308407,-0.525454251258598,-0.0036106898758032397,0.8508094405904726,-0.12154734570183455,-0.8564043479930744,1.0229144568640989,0.07743621514839023,-0.8389598167719541,1.007839643779645,-0.041251963024611926,0.5962784916334466,1.2067731444203753,0.15650601038449896,0.7877870890997425,0.8860981052624105,0.0,0.0,0.0,0.0
0.008970774888770223,-0.02763951518072323,0.7492181444388829,0.002692103819098206,-0.5253324379599958,-0.0034396230456991287,0.8508858626145682,-0.12150036286714869,-0.8570506194884357,1.0215951748485617,0.07749469345973782,-0.8393959306387203,1.006797675110359,-0.04917605799708302,0.5996957654810747,1.1970014062482257,0.15989836151602285,0.7857528091970648,0.8899455076072483,0.0,0.0,0.0,0.0
0.008745805484112202,-0.027720282346704924,0.7487987362865148,0.002579231020691355,-0.5252561143747019,-0.003309601004624135,0.8509338449142343,-0.12157202787171661,-0.857985494689392,1.0206196411959996,0.07745453118488252,-0.8400688884512049,1.0058731072461298,-0.057584443259144816,0.6042178708840611,1.1853822283506503,0.16227296443183836,0.7831867414638176,0.8947238164280196,0.0,0.0,0.0,0.0
0.008577034900428068,-0.02774888251522123,0.7483176022997517,0.0025250413675428217,-0.525238747689827,-0.003243696867410463,0.8509449809017895,-0.121654036434469,-0.8589897807007278,1.0199611850186991,0.07741587782612097,-0.8409223491054207,1.0052132960376328,-0.06626222342656031,0.6096920854091311,1.172990268808893,0.16350965394512973,0.7804043551676857,0.8999528095218535,0.0,0.0,0.0,0.0
0.008430362049735605,-0.02776755283545709,0.7478140132276323,0.002522308405460291,-0.5252590220676335,-0.0032339054406690503,0.8509325117495874,-0.12164407085814971,-0.859848582156708,1.0192720936590265,0.07746565509116286,-0.8418428443130929,1.0046555890026942,-0.07500051675228045,0.6158184045713544,1.16027803175669,0.16396220246529575,0.7774875825790835,0.9053572848722775,0.0,0.0,0.0,0.0
0.008234178232262022,-0.027840672450286416,0.7473188950160082,0.0025526860339411435,-0.5252773352032943,-0.003259304423141817,0.8509210197488457,-0.12140525145030656,-0.8602964631632318,1.0179386173434684,0.0777186862786633,-0.842686378535355,1.0038463908421869,-0.08359125340844642,0.6222463204500134,1.14734717915996,0.16426601534448437,0.7743513122342938,0.9108342547170815,0.0,0.0,0.0,0.0
0.007856005904768905,-0.02803961111885536,0.7468568502921515,0.0025880666404126994,-0.5252562921430954,-0.0032884538581185426,0.8509337903423362,-0.12078767780210418,-0.8597950342898765,1.0147811864917464,0.07827569509915171,-0.8430173063147461,1.0018708778742993,-0.0919651623663385,0.6284636539108388,1.1341746789014584,0.1652070079141225,0.7707262497041601,0.9164521496517413,0.0,0.0,0.0,0.0
0.007190592154127358,-0.028445562776993696,0.7464528706730315,0.002608827984934404,-0.5251562823436199,-0.0032985020621067954,0.8509954130403521,-0.11960867209857036,-0.8579032399890122,1.0088287114875552,0.07928377172381683,-0.8425704208322139,0.9981085904382262,-0.10001622011260419,0.6340909726187046,1.1206656766118441,0.1675404236868127,0.7664019684151792,0.9222544781696284,0.0,0.0,0.0,0.0
0.0061403710802185926,-0.0291329148684639,0.7461275821736205,0.0025944311842361384,-0.5249429663359765,-0.0032660405021786012,0.8511271843858909,-0.11770902616457848,-0.8541913094597888,0.9991393004956299,0.08086993341238566,-0.8410740706116284,0.9919460639952217,-0.10774435652600395,0.6387528553708421,1.1067543148608856,0.17196641295941395,0.761183055288212,0.928291331159754,0.0,0.0,0.0,0.0
0.004623268939282601,-0.03015411072580612,0.7458918245361383,0.0025172622004492012,-0.5245874537361652,-0.0031592025072704785,0.8513469834404414,-0.11501461705772155,-0.8483185523518875,0.9848976242808641,0.08308530082756169,-0.8382529207323257,0.9827860631910154,-0.11531819365326326,0.6420535418938068,1.0924520139685374,0.17908901586404216,0.7549006574885212,0.9346076286952933,0.0,0.0,0.0,0.0
0.0026038263400325074,-0.031519515098878896,0.745742050238299,0.0023495921610202472,-0.5240791650570709,-0.0029437989227829517,0.8516612250288624,-0.11158333726207115,-0.8401267968309406,0.9656549336235061,0.08586772327852973,-0.8338902267980389,0.9702168041512236,-0.12322818010337958,0.6437633688201582,1.0779720308175638,0.18918746344840373,0.747487214336992,0.9412017906176814,0.0,0.0,0.0,0.0
0.00013701566224092387,-0.03317305478904348,0.7456523990720436,0.002072184953127698,-0.5234356315173159,-0.0025937656052620064,0.8520587527204763,-0.1076523365152803,-0.8298467223470519,0.9417572821564462,0.08901053202502213,-0.8279932691544654,0.9543393951118816,-0.13266136761574407,0.6441843331210688,1.063944412084298,0.2019759083137683,0.739060393840659,0.9480094250964299,0.0,0.0,0.0,0.0
-0.0025754346982876596,-0.03497118304107433,0.7455539188681655,0.0016660425430203318,-0.5226769022024567,-0.0020875019357675328,0.8525266696954158,-0.1037086803114553,-0.8187093170396793,0.9152415549971205,0.09213033726167096,-0.8212781710079134,0.9364774693200365,-0.14627849920311273,0.6447081940851644,1.0516432994176281,0.2166713027921131,0.7299507121649182,0.9550003976254577,0.0,0.0,0.0,0.0
-0.0049529516747833955,-0.036654527355128454,0.7452687719461825,0.0010029003937374716,-0.5215600848309777,-0.0013365460601832892,0.8532129193504588,-0.10078627422576358,-0.8124319292818705,0.8943981835539494,0.09460312514871845,-0.8180102793517875,0.9230104430496721,-0.16974625747623842,0.6488194048194635,1.0421911190505766,0.23296065689259676,0.7205940376320683,0.9621071527309465,0.0,0.0,0.0,0.0
-0.006869704323666438,-0.03803155025464471,0.7448033302041817,0.00010471010023421465,-0.5202134731953484,-0.0003502021443114144,0.8540361869969478,-0.09933203366055297,-0.8114639409896831,0.8808006529332314,0.09596877519864709,-0.8179378167063112,0.9142925339867386,-0.20577230850014017,0.6558803079921944,1.037688660136448,0.2495841440984587,0.7116252088767598,0.9689652072213721,0.0,0.0,0.0,0.0
-0.00813506091263908,-0.03887506744829902,0.7440060037110028,-0.000616231098556078,-0.5190425915886693,0.0004890853839988622,0.85474801501474,-0.09911355063164569,-0.8145385496318571,0.8745661165923897,0.09638218508413514,-0.8207327345337001,0.9104808523959478,-0.24634353746387297,0.6629479668100531,1.0398134050627184,0.26109918964073053,0.7027982398695439,0.9771396302306861,0.0,0.0,0.0,0.0
-0.008114883027113757,-0.03888799370543618,0.7439795499496306,-0.0006518157943276951,-0.5190540373982249,0.0005029817526159927,0.8547410300237896,-0.0991232304058778,-0.8145354394029166,0.8744990112706064,0.09639197469502496,-0.8207306859605839,0.9104982577278027,-0.24632413325992064,0.6629192038431838,1.0397963473928375,0.261068604978512,0.7027762994597949,0.9771189985198724,0.0,0.0,0.0,0.0
-0.008114883027113757,-0.03888799370543618,0.7439795499496306,-0.0006518157943276951,-0.5190540373982249,0.0005029817526159927,0.8547410300237896,-0.0991232304058778,-0.8145354394029166,0.8744990112706064,0.09639197469502496,-0.8207306859605839,0.9104982577278027,-0.24632413325992064,0.6629192038431838,1.0397963473928375,0.261068604978512,0.7027762994597949,0.9771189985198724,0.0,0.0,0.0,0.0
-0.008330430777106813,-0.039123445775955216,0.744062351971621,-0.00033699789218018836,-0.5197275878955739,0.0003706740049484905,0.8543318930096495,-0.09816847719395397,-0.8078121468844431,0.8667138222971609,0.0969274983902222,-0.8161053645910271,0.9053068312102287,-0.2489940178640764,0.6654750239037903,1.0401643411976322,0.26108381683754983,0.7041591084636355,0.978458497106976,0.0,0.0,0.0,0.0
-0.008112595637098416,-0.039449168172025484,0.7440885893453497,-0.00011599742664367547,-0.5201784799692599,0.0002167145826926875,0.8540575440544138,-0.09702344577028603,-0.8050179176869691,0.8648214432159417,0.09796123892915014,-0.8153766216851568,0.9060431832606994,-0.2507439422095275,0.6683370395804192,1.0400706236751516,0.26249219585955896,0.7061030669094799,0.9798197022934215,0.0,0.0,0.0,0.0
-0.007380873014472389,-0.03980988516600892,0.744123116454203,4.4129628695199095e-05,-0.5204736558101634,6.158750135202385e-05,0.8538777241895699,-0.09589297448207894,-0.806071700508728,0.8693618274170517,0.0992755123812077,-0.8182806380220375,0.912939672865529,-0.25229268511121716,0.6723263997469969,1.0391449583982686,0.26507587619161327,0.7093943309670651,0.9805084177622274,0.0,0.0,0.0,0.0
-0.006104842606837819,-0.04020746293122765,0.7441937717512928,0.00017067466970610668,-0.520644194695924,-0.00010783652531643845,0.8537737298434952,-0.09474551365425504,-0.8107471346219961,0.8802817814395127,0.10089585173790601,-0.8246804563170373,0.9260042491813845,-0.25402421665595737,0.6778594415433055,1.037158730868255,0.26871404103725155,0.7143328351628984,0.9802634518357158,0.0,0.0,0.0,0.0
-0.004297548952525652,-0.040675682639412084,0.7443104631266527,0.0002991735914622525,-0.5207206731186188,-0.0003883012353683031,0.8537269705849788,-0.09324170577767438,-0.8184076973362553,0.8968100256101074,0.10314322961326806,-0.8343497479168547,0.944840040730253,-0.2567179445867731,0.6853306700485158,1.0340195390218023,0.27281771512877434,0.7208184691592121,0.9790433559890105,0.0,0.0,0.0,0.0
-0.0023067464105820433,-0.04092139076061337,0.7442568982185545,0.00041973384593318216,-0.5204219897185494,-0.0004560723253531572,0.8539089930659582,-0.09300008776389007,-0.8303064016546751,0.9180327914519572,0.09294533977877512,-0.8295730116318292,0.9196562718854356,-0.25892579546108757,0.6910513617601437,1.0317985317230935,0.2763275015036039,0.7262655081299295,0.9779018466415691,0.0,0.0,0.0,0.0
-0.0003535439294273363,-0.04127332083703626,0.744081202308518,0.0005342458224443469,-0.5201224465604635,-0.0006027494497326194,0.854091325244824,-0.09227220248040235,-0.8418407670332778,0.9381650875209575,0.08275873240062766,-0.8320482660282262,0.9020259963517251,-0.26095664392267764,0.6962615144380584,1.0304125030414428,0.28023147906397977,0.7309791338722099,0.978104693829308,0.0,0.0,0.0,0.0
0.0013048654056795677,-0.04173414653041195,0.7439187613088941,0.0006616205981916843,-0.5199373528701788,-0.0007947664822326062,0.8542037694220119,-0.0910528796594198,-0.8506300113300286,0.9539292215845668,0.0744417532881815,-0.8383421758324985,0.8903945419945256,-0.26241436216642117,0.7010178693976266,1.0290568904154298,0.2844419807014953,0.7351637459679918,0.9788680655136569,0.0,0.0,0.0,0.0
0.002595760950895528,-0.04224701326299097,0.743793187742996,0.0007939610059031604,-0.5198625221257908,-0.0009980587712716846,0.85424898688475,-0.08955626929000979,-0.856557027479982,0.9650934531469485,0.06790233754223729,-0.8463576623978587,0.8823284847610653,-0.2632254847183405,0.7050754790828976,1.0277214538141592,0.2886410633747594,0.7386887698876732,0.9799224191005117,0.0,0.0,0.0,0.0
0.0035386088061207855,-0.042751177576230454,0.7436976570307894,0.0009174402660610392,-0.5198696045566438,-0.0011859760202013647,0.8542443128416815,-0.08801736655660353,-0.8601681535693609,0.9724072366247684,0.06253117558902908,-0.8550913601842521,0.8762059583542539,-0.26349310975390267,0.7083049613662458,1.0265645428668861,0.2925686229132127,0.7414975128639214,0.9811422550824103,0.0,0.0,0.0,0.0
0.004192171109100139,-0.043204774392888126,0.7436248894534788,0.0010220236142405473,-0.5199292017400486,-0.0013441017327958152,0.8542076878817116,-0.08660181759003424,-0.8621062504461634,0.9768288031423068,0.05774668483439574,-0.8641029058853668,0.8710442608107409,-0.263379062398358,0.7107410487766024,1.025663155041938,0.29606086689078875,0.7436488520066028,0.9824011001711641,0.0,0.0,0.0,0.0
0.004623283733519982,-0.04358770185992851,0.7435704725509124,0.0011033000897575334,-0.5200177239055581,-0.0014682687928226545,0.854153495420903,-0.08539326936475326,-0.8629198139917812,0.9792208071469501,0.05315476547464603,-0.8732109857143056,0.8662728677412219,-0.2630345176416677,0.7125066938421657,1.0250127470710688,0.2990474445990918,0.7452565111831874,0.9835908256704796,0.0,0.0,0.0,0.0
0.004891924513546895,-0.0438967867118837,0.7435315977194853,0.0011614744575845814,-0.5201187842240366,-0.0015608565272987492,0.8540917193143226,-0.08441144242386496,-0.8630167659811335,0.9802554055814934,0.04854418130222784,-0.8823423538104255,0.8615765947048472,-0.262573213169874,0.7137492282161934,1.024567539712617,0.3015303910573793,0.7464422939336931,0.9846430305937401,0.0,0.0,0.0,0.0
0.0050456081866196755,-0.044139415194605965,0.7435046157886878,0.00119957171374178,-0.5202221913569683,-0.0016273417521018548,0.8540285618211368,-0.08363682192138737,-0.862678226763103,0.9804110418519623,0.04383066022175394,-0.8914654898511323,0.8567881077517394,-0.2620664434492973,0.71459681418843,1.0242833585783109,0.3035603175348399,0.747305593399756,0.9855438138254585,0.0,0.0,0.0,0.0
0.005120474206221173,-0.04432902772716642,0.7434825896945854,0.001221764445575615,-0.5203209602959864,-0.0016741647069013095,0.853968267994096,-0.08302888761943136,-0.862106623521742,0.9800262966607508,0.03899950565263848,-0.900569771623714,0.8518023376069218,-0.2615430556645367,0.7151345009303344,1.0241455465371443,0.30522056820141596,0.7479071626364381,0.9863410515365316,0.0,0.0,0.0,0.0
0.005160973990469251,-0.04448740547655694,0.7434719938471752,0.0012349517786746748,-0.5204097434342354,-0.0017120571413074364,0.8539140721953014,-0.08251530202977121,-0.8614686122639328,0.9794617473065498,0.03407908916767083,-0.9097007048075132,0.8466008329306225,-0.26102563109606636,0.7155497342328503,1.0239920829680764,0.3066234035701834,0.7483994286461293,0.986967905396404,0.0,0.0,0.0,0.0
0.005197492591076461,-0.044633959417674327,0.7434707393662322,0.0012447275481853553,-0.5204841339220223,-0.0017489850852809422,0.8538686421458189,-0.08203433686311509,-0.86089398220999,0.978964119141373,0.02911159002987459,-0.9188678861491079,0.8411561113809538,-0.26050728275954893,0.7159386340121106,1.0237581415178685,0.3078793696795444,0.7488570168046496,0.9874497743066976,0.0,0.0,0.0,0.0
0.005251861611836187,-0.04478532424711297,0.7434750446998686,0.0012559273954281002,-0.5205408966625442,-0.0017911292815345138,0.8538339354956728,-0.0815341253320813,-0.8604777341330277,0.9787064096530843,0.02415498060480591,-0.9280055689428892,0.8354793154257074,-0.2599720246278045,0.7163601055394508,1.023410786383682,0.30908487439248444,0.7493239882680391,0.9878327066214714,0.0,0.0,0.0,0.0
0.005338462779051376,-0.044954525492208124,0.7434804569426201,0.0012724620720476975,-0.5205771665348711,-0.0018429550797877479,0.853811687691949,-0.08097478359869638,-0.8602880743397848,0.9788027393460326,0.019280234841572777,-0.9368848614395944,0.8296621492755255,-0.2593998044028022,0.716841942298425,1.0229392290596127,0.31031273821513483,0.7498181136549421,0.9881688321195381,0.0,0.0,0.0,0.0
0.005462021870281693,-0.04514922571962114,0.7434821164406425,0.001296974087237782,-0.5205908624656744,-0.0019067959072889737,0.8538031599290495,-0.08033328794342992,-0.8603558864125167,0.9792895405306704,0.014558486209977826,-0.9449865485292558,0.8239609653469196,-0.2587721452718336,0.7173756445733469,1.0223596933243306,0.3115988184234092,0.750325174319901,0.9885127411166037,0.0,0.0,0.0,0.0
0.005613539602256269,-0.045369029142608264,0.7434757306515488,0.0013302272636463084,-0.5205824642302668,-0.0019820482086918664,0.8538080580061707,-0.07961105687568415,-0.8606474818620562,0.9800843564514198,0.01002835955082497,-0.9513847781507663,0.8189144039329845,-0.2580807031968677,0.7179121386233582,1.0217207840311404,0.3129260879581972,0.7507953480202728,0.9889138260953455,0.0,0.0,0.0,0.0
0.005768993507458619,-0.04560362254564516,0.7434600080211244,0.0013706017260233785,-0.5205574838217168,-0.0020647663974363148,0.8538230286352293,-0.07883876532267735,-0.8610406423201576,0.9809632855575013,0.005654294299608203,-0.9547806829189294,0.81542494095787,-0.2573393854679253,0.7183768237195244,1.0210926732204584,0.3142190471559549,0.7511585172018015,0.9893956417801465,0.0,0.0,0.0,0.0
0.005900323651420704,-0.045837361274291964,0.7434393890041231,0.0014150794358896795,-0.5205269955428057,-0.002149844992808233,0.8538413334032717,-0.07806115931704916,-0.8613553786156642,0.9816441235604835,0.0013441307280076132,-0.9539621981204082,0.8145909864873401,-0.2565923351819249,0.71872608360778,1.0205225296654918,0.31538155155388925,0.7513762189460943,0.9899310213515812,0.0,0.0,0.0,0.0
0.006005761791891564,-0.046069648617650484,0.7434137269443928,0.0014634323073094448,-0.5204910021532233,-0.0022367330507555997,0.8538629703112056,-0.07728097490541763,-0.8615860554394981,0.9821135878140136,-0.0028817186950696695,-0.9489389851080442,0.8163904688540504,-0.2558356102842502,0.7189516674751789,1.0200150672651338,0.3164089485129615,0.7514417208954055,0.9905221754981465,0.0,0.0,0.0,0.0
0.006110843098681182,-0.04631650023760797,0.7433781200802645,0.0015186862986114294,-0.5204385809488594,-0.0023295438990570457,0.85389457796445,-0.07645456581525432,-0.8619007644265075,0.9826287089561283,-0.006893557615465901,-0.9409458124928536,0.8197094700565958,-0.25501063442610944,0.7190839608758106,1.0195284806192322,0.31740219814121245,0.7513852025952135,0.9912046701460787,0.0,0.0,0.0,0.0
0.006237699111985731,-0.04659137949351333,0.7433330709432346,0.0015831783046253644,-0.5203650091481874,-0.0024317444326701354,0.8539390127050507,-0.0755436818955089,-0.8624016824444752,0.9833792879450503,-0.010628325247178008,-0.9312940203385065,0.8236419976963507,-0.2540783532142746,0.7191878651748259,1.0189933104235385,0.31846325104921747,0.7512737126992349,0.9919728679375452,0.0,0.0,0.0,0.0
0.006392899412678244,-0.04690077093636061,0.7432818882255009,0.0016575427743076568,-0.5202709458659227,-0.002544451870185764,0.853995855496038,-0.07452923046926126,-0.8630907538259396,0.9843969523975804,-0.014103080820402784,-0.9209112659214339,0.8276409795814393,-0.25301076792118987,0.71930243199167,1.0183569654092606,0.31964860780297955,0.7511521578078226,0.9928049983607105,0.0,0.0,0.0,0.0
0.006568208455871961,-0.047246597359001934,0.7432284890183228,0.0017413759215039767,-0.5201593809058798,-0.002667324424659673,0.854063271336454,-0.07340408611796528,-0.863892995787957,0.9855750109696478,-0.01736367168970865,-0.9103136903681801,0.8314340729049193,-0.2517767722845335,0.7194236343865453,1.0175911676355207,0.32096837820701873,0.7510227913685132,0.9936824963270687,0.0,0.0,0.0,0.0
0.006744556383843613,-0.04763006040506289,0.7431765786176484,0.0018342006602583905,-0.5200333130719412,-0.0028000179993741803,0.8541394200612459,-0.0721611678665277,-0.8646830490148183,0.9867079799684633,-0.0204462989916678,-0.8997237518817799,0.8349028676737317,-0.2503306230157709,0.7195082853163658,1.0166817226680975,0.3223997029720939,0.7508452728577244,0.99459777812364,0.0,0.0,0.0,0.0
0.006894534116569021,-0.04805479639161342,0.7431295213617027,0.0019362501776259348,-0.51989472411269,-0.002943449295167905,0.8542230755963494,-0.07078309671193093,-0.8652960240335054,0.9875110065192618,-0.023367211739536042,-0.8891936975568414,0.8379909482996877,-0.24860429759444902,0.7194805868797226,1.0156176052545622,0.32389828874641796,0.7505396468951676,0.9955579484981799,0.0,0.0,0.0,0.0
0.006982398888059131,-0.04852870846388983,0.7430901108562757,0.00204900922126943,-0.5197443874539222,-0.0031007356841672574,0.8543137355266948,-0.06923541596052406,-0.8655241791850473,0.9876148198433443,-0.026133201555498732,-0.8786849163547374,0.8406502003608768,-0.24650506452733945,0.7192327499946733,1.0143881714815022,0.32540078881143525,0.7499829828464251,0.996590360300322,0.0,0.0,0.0,0.0
0.006962190476013675,-0.04906404290070532,0.7430586342295906,0.00217542077403984,-0.5195814434662396,-0.0032776695948364357,0.8544118725954256,-0.06746531848157082,-0.8651147596263455,0.986550947452007,-0.028765622250781102,-0.8680969042793631,0.8428072881139571,-0.24391963936128813,0.7186108863344068,1.0130014704904098,0.326815455944032,0.7489908458741494,0.997761196897405,0.0,0.0,0.0,0.0
0.006780476854621272,-0.04967647686878951,0.743032444469347,0.002320260096337163,-0.5194017116450017,-0.003483588844603569,0.8545199488262926,-0.06540297401019121,-0.8637925074119444,0.9837845933432654,-0.03133261472893008,-0.8572675942855259,0.8443361972992656,-0.2407357606804576,0.7174224085745291,1.0114840234257736,0.32800467030278285,0.7473160385322155,0.9991691367864138,0.0,0.0,0.0,0.0
0.006392219618110538,-0.050383238002406114,0.7430162339574385,0.002491785653048408,-0.5191964789480662,-0.0037338683011622674,0.8546431217061886,-0.0629632519658234,-0.8613041107207418,0.9788483503733862,-0.0339734359911307,-0.8459735302312447,0.8450592588575301,-0.23691100311578847,0.7155470946194623,1.0097732104584565,0.32875885500164537,0.7447392233617727,1.0008220499217393,0.0,0.0,0.0,0.0
0.005757169625045121,-0.05118535327697219,0.7430090057218797,0.0026991230635304017,-0.5189478308877701,-0.004044892068891922,0.8547920813857118,-0.06010501618706683,-0.8575088671497716,0.9714021985837561,-0.03691111951168905,-0.8338879982386178,0.8446302502188321,-0.2325505273256938,0.7128498092422997,1.0078743319678534,0.32870359181801334,0.7409829658147941,1.002711698848769,0.0,0.0,0.0,0.0
0.004859737122934122,-0.052044424507891,0.7430025845906838,0.002951096274320946,-0.5186229402137145,-0.004429826126539052,0.8549864990485816,-0.05690533920602245,-0.8525634081057804,0.9615232316571516,-0.04040682251122761,-0.8206227494184773,0.8423633532488205,-0.2280650812650296,0.7092280947089502,1.0059048012767442,0.3271947255018998,0.7357539950819969,1.0047421695672987,0.0,0.0,0.0,0.0
0.0037378896603742044,-0.052845750912960156,0.7429609174396886,0.0032528561488206287,-0.5181639829123671,-0.004886991265436462,0.8552611431929074,-0.05368726821264901,-0.8472921826891571,0.9502091214300854,-0.044635725822647604,-0.805889901644473,0.8368296907315275,-0.22435534666232615,0.7045657655544638,1.0043373070055108,0.3232326063622207,0.7287327569502108,1.0067982322856406,0.0,0.0,0.0,0.0
0.002519521219199828,-0.05335759381684501,0.7427565658192327,0.0035956067063692213,-0.5174761873925566,-0.005352753852588085,0.8556733109781269,-0.05124712780986675,-0.8438369387562684,0.9401301009761078,-0.04954786254708795,-0.7898258523547885,0.8250856166610733,-0.2227042413507404,0.6983933519428907,1.004625912933042,0.3157863181331105,0.7194966367373238,1.0092215927460613,0.0,0.0,0.0,0.0
0.0014431600599184322,-0.05346438281818043,0.7424133982049685,0.004002558517520337,-0.5164836884214674,-0.005795184655560065,0.856268062556743,-0.05000865251162903,-0.8440473988938242,0.9344081094237973,-0.05439453528042054,-0.7735774577158423,0.8033747361143604,-0.22394915602780477,0.6913641963812943,1.0064667771477058,0.30458340280196106,0.7087803931253398,1.011140431446413,0.0,0.0,0.0,0.0
0.0014354974629560897,-0.053469345304092634,0.7424042328298655,0.004016400018093249,-0.5164583450439864,-0.005809356046396952,0.8562831878226078,-0.04996884472363998,-0.8440878935177342,0.9343595381555874,-0.054410160498640066,-0.7735676994946685,0.8033805144195582,-0.22404956600864553,0.6913042361971019,1.006419529784108,0.3046794454816565,0.7087151030884788,1.0110951706779836,0.0,0.0,0.0,0.0
0.0014354974629560897,-0.053469345304092634,0.7424042328298655,0.004016400018093249,-0.5164583450439864,-0.005809356046396952,0.8562831878226078,-0.04996884472363998,-0.8440878935177342,0.9343595381555874,-0.054410160498640066,-0.7735676994946685,0.8033805144195582,-0.22404956600864553,0.6913042361971019,1.006419529784108,0.3046794454816565,0.7087151030884788,1.0110951706779836,0.0,0.0,0.0,0.0
0.001426484029518425,-0.053346220672106065,0.7424461400098896,0.0036387268778735834,-0.517250614158409,-0.005228427598121955,0.855810274163794,-0.051549985918051794,-0.8406495003662535,0.9310348303427051,-0.05594970872100835,-0.7665186691446371,0.7963492017531046,-0.2202326169721636,0.692366864982964,1.007723315676281,0.31378572807976507,0.7137141986526199,1.012445439175191,0.0,0.0,0.0,0.0
0.0018762866011145574,-0.05328601314606192,0.7423948750219382,0.003431508310995192,-0.5177515361688939,-0.004894467353248972,0.8555101494048976,-0.052487464266241256,-0.8409104886181995,0.9333809499217118,-0.056863567943188066,-0.7650154715185247,0.7971159718169553,-0.21882546106608125,0.6943222617313269,1.0088624493863327,0.3205799945611198,0.7181520477916928,1.0136667144638791,0.0,0.0,0.0,0.0
0.002867191047415475,-0.053463934333298144,0.7422552070728483,0.0033685275143950258,-0.5180955727453178,-0.0047807643585059695,0.8553027386932853,-0.0523968624130294,-0.8441988802275114,0.9409660037960281,-0.05678365139822805,-0.7691388330746805,0.8065799637505412,-0.21867752944220756,0.6977694923117485,1.0094961800244886,0.32743125462625583,0.7231000547724615,1.0153472729011328,0.0,0.0,0.0,0.0
0.004424481003750138,-0.05397588884415581,0.7419859206174277,0.00342280964424939,-0.5183948684965725,-0.004827003310971931,0.8551208948035338,-0.051170246708535636,-0.8499618160524255,0.9531309259439199,-0.055608284309802275,-0.778468843878014,0.8244660365570521,-0.218820521233242,0.7027866772783834,1.0098723060909547,0.3364758849588249,0.7292554678797578,1.0183008008789958,0.0,0.0,0.0,0.0
0.006509746662272833,-0.05485894873030904,0.7414451983086372,0.003449256465184593,-0.5189151930582214,-0.004846564276243446,0.8548050279788383,-0.04908523887298819,-0.8571341221975239,0.9682525329717993,-0.05360356179193773,-0.7908998469025997,0.8481362728012605,-0.21729540013904164,0.7088735893599398,1.0115945323543034,0.35225820063184654,0.737847011635541,1.0245428130023688,0.0,0.0,0.0,0.0
0.009050221441297022,-0.05625552671457743,0.7425715951995375,0.002262067074037237,-0.5202636192311768,-0.0033124954909780698,0.8539962979607416,-0.049028858300832874,-0.8586840076263207,0.9815517277247566,-0.05357205593768518,-0.7917734903628173,0.8665595865448813,-0.1925639694833121,0.7207209969499893,0.9965638245211371,0.2815491791236323,0.7183595621985508,1.031169588045947,0.0,0.0,0.0,0.0
0.01156279791513487,-0.05784515240366541,0.7430825114825239,0.0012148798090754794,-0.5215713011039347,-0.0019978815149459222,0.8532044950662475,-0.04794060150734594,-0.8613099854554974,0.9944961615001817,-0.05251920707127147,-0.7954744757747229,0.8866519686496854,-0.1675534020338768,0.7297432356817705,0.9859523898424118,0.21905903829129225,0.7012625877501515,1.0394728816036054,0.0,0.0,0.0,0.0
0.01387301886766155,-0.059352372973065115,0.7433137428525756,0.0006093408712161681,-0.522553590068092,-0.00124606133261456,0.8526053140473653,-0.04581206839705745,-0.8645152435021596,1.0067746175648546,-0.0504500910402539,-0.8021140026292609,0.9075694887147236,-0.14870714400884777,0.7375800917058867,0.9776233235047821,0.17895190885139345,0.6897265164507352,1.0498546635861128,0.0,0.0,0.0,0.0
0.01581163884380811,-0.060622768703997465,0.7434594437625869,0.0002882926082785191,-0.5232670209568677,-0.0008451994543758801,0.8521683092583174,-0.04349949268349725,-0.8673423831660316,1.0171146123221113,-0.04820177155138174,-0.808923658011371,0.9259419159325382,-0.1351733547265064,0.7443365126595973,0.9707170119959427,0.1543313212412336,0.6818892608002102,1.0618230469988168,0.0,0.0,0.0,0.0
0.01734209420793806,-0.06161078037017067,0.7436260834734575,0.00011034838229813757,-0.5237882811087766,-0.0006200545108683355,0.8518482493547493,-0.04150130705220707,-0.8693817321477363,1.0251698052717748,-0.04625732844493967,-0.8144348585967298,0.9404486249312455,-0.1254864051563021,0.7501120249623313,0.9646486062220289,0.1382615063067229,0.6759979718942798,1.0747064071660162,0.0,0.0,0.0,0.0
0.01850581453142269,-0.062332371493887845,0.7438648008917895,-7.3764021009858504e-06,-0.5241710452778341,-0.00047141151865561984,0.8516128774326464,-0.03999817501926729,-0.8706043702394515,1.0311775213717649,-0.04479256631792961,-0.8182369440216763,0.9511498611165107,-0.1184695508043298,0.7550906603180291,0.9589694956260382,0.12644626252596092,0.6709900353873425,1.0880167209351965,0.0,0.0,0.0,0.0
0.019370790080339213,-0.06283508370177494,0.7441915016318119,-0.00010595941332014267,-0.5244531826890687,-0.0003517657295551658,0.8514392075778403,-0.03897662420975109,-0.8711063014156974,1.035522032160762,-0.043795272594088476,-0.8204307468728833,0.9586533071117399,-0.11325408893682921,0.7594742850745424,0.9533703324065125,0.116591718248519,0.6663038370504639,1.1014710375926753,0.0,0.0,0.0,0.0
0.02000695438332123,-0.06317481545306265,0.7446000400434838,-0.00020300372986259142,-0.524662035982717,-0.00024047345501717167,0.8513105478968725,-0.038342015671064385,-0.8710247336008692,1.038584343474482,-0.04317399053466942,-0.8213180143622201,0.9636960622083495,-0.1092065047311358,0.7634264649059903,0.9476849184511337,0.1075873829621382,0.6616688598273872,1.1149282815187826,0.0,0.0,0.0,0.0
0.02047442533404531,-0.06340383106921275,0.7450728039783611,-0.00030442843828905195,-0.5248190156186701,-0.00012831993653721706,0.8512137755595652,-0.037983663445845924,-0.8704898315669778,1.040674772427181,-0.04282124925265616,-0.8212301193603412,0.9669458307217693,-0.10585675835716404,0.7670548913100768,0.9418619450580891,0.09896963741416878,0.6569640144774395,1.1283448549183996,0.0,0.0,0.0,0.0
0.020845447492862056,-0.06355888813492148,0.7455900430723605,-0.0004125441469286247,-0.5249395812308031,-1.1577856968095539e-05,0.8511393926558147,-0.03781966725356536,-0.8697411823523661,1.0422745051140723,-0.04265762983352829,-0.8205612971451635,0.9691474719429383,-0.1029284624445589,0.7705149960387833,0.9358916726697027,0.09049254754345254,0.6522063696612861,1.1417273409161464,0.0,0.0,0.0,0.0
0.02117199752791431,-0.06367086842421746,0.746130517905111,-0.0005267221015215125,-0.5250366584090417,0.0001112548520118242,0.8510794425392103,-0.03777759941060939,-0.8689481805262734,1.0437096948803812,-0.04261280893267179,-0.8196200488815746,0.9708528045519751,-0.10021124777970361,0.7738930211114766,0.9298219779211322,0.08208474773503519,0.6474383188717103,1.155097598780782,0.0,0.0,0.0,0.0
0.021485940967846725,-0.06376782600554005,0.7466722426746688,-0.000644446756382567,-0.5251196630932534,0.00023916096997407513,0.8510281234619904,-0.037785552153677605,-0.8682117345270784,1.045153128001512,-0.0426168411857527,-0.8186438908635856,0.9724448652028508,-0.09753336181963522,0.7772028839054362,0.9237435306677283,0.073748956357624,0.6427110170992687,1.1684384715208553,0.0,0.0,0.0,0.0
0.021797222296153267,-0.06388077953080626,0.7471926559494279,-0.0007612422270931704,-0.5251967517063308,0.000367066564359343,0.8509804097448587,-0.037752646754321204,-0.8675306621951204,1.046579456534277,-0.04258107330316388,-0.8177961461285196,0.9741358523369128,-0.09473007896018198,0.7803872698748066,0.9177791236569692,0.06551909694020067,0.6380601007063662,1.1816496679737083,0.0,0.0,0.0,0.0
0.022106166153983038,-0.06403532747551503,0.7476658200848474,-0.0008725093203647231,-0.5252724518146104,0.0004902052872859382,0.850933516669152,-0.03760300694286823,-0.8669049498847394,1.0479213442098771,-0.042431563052378087,-0.8172152617453754,0.9760564381132482,-0.09167233621052945,0.7833301735380175,0.9121139879210853,0.05745855487449295,0.633545840919162,1.1944774828426175,0.0,0.0,0.0,0.0
0.022400758685575985,-0.06425121981859497,0.7480595971699381,-0.0009732428060201372,-0.5253487069582816,0.0006033745660946971,0.8508862584592815,-0.03727479559784818,-0.8663265461454093,1.0490450351347673,-0.042108039053632494,-0.8170063337006597,0.9782292543176402,-0.0882791897168028,0.7858393298208365,0.9070332319610779,0.049681296672247015,0.6292636402480145,1.2063861898885522,0.0,0.0,0.0,0.0
0.022652002526062476,-0.06454095220111673,0.7483323306973296,-0.0010574002138613306,-0.5254241257455666,0.0007001241513133297,0.8508395147238211,-0.036721936786890834,-0.8657748424587187,1.0497216283835054,-0.04156548079428346,-0.8172343830691907,0.9805328588178386,-0.0845389667171666,0.7876155199424784,0.9029676206707837,0.0424000135614091,0.625408067135596,1.2163362345966493,0.0,0.0,0.0,0.0
0.02281184422736164,-0.06490824087299879,0.7484344479993301,-0.0011170937643242267,-0.5254946040277081,0.0007717446108588054,0.8507958495723517,-0.03591566015440497,-0.8651986896865909,1.049605619990126,-0.04077552480857378,-0.8179058850156767,0.9826743100904515,-0.08053715183389935,0.7882614964954056,0.9004887993334569,0.03599594555346895,0.6224544779024774,1.2224793106580143,0.0,0.0,0.0,0.0
0.02286078139902807,-0.0653319055794352,0.7483257224974756,-0.001147107510952992,-0.5255492420126014,0.0008142309847236292,0.8507620204218345,-0.03490595907803341,-0.8647379277726193,1.0487014293499033,-0.03978694380261425,-0.8190927605814531,0.984534504215875,-0.07651982905648468,0.7875070145708416,0.9001006168973243,0.030911291292551882,0.6215931652048563,1.2219222815690451,0.0,0.0,0.0,0.0
0.022796897403648802,-0.06580882221138683,0.7480051394684173,-0.0011474133899379152,-0.5255882819729006,0.0008273577706015703,0.850737889584334,-0.033700545420852,-0.8643887804544792,1.0469979338880975,-0.03860673995538959,-0.8207811371858663,0.986083614867913,-0.07251910072398537,0.7853430974545823,0.9018305158957771,0.027126852585901338,0.622836181004974,1.2146849567326174,0.0,0.0,0.0,0.0
0.022634272944664403,-0.06635613637732146,0.747510480857824,-0.0011230205166454928,-0.5256221068444591,0.0008151203674732285,0.8507170359174064,-0.03226042679902011,-0.8639994901909906,1.0444525958357753,-0.037195687999292716,-0.8228744499704532,0.9873788358176647,-0.06833032203930424,0.7820114559361343,0.9052191254701614,0.024170123475186,0.6250141511417056,1.203684754176854,0.0,0.0,0.0,0.0
0.022408308382672975,-0.06697224480834003,0.7468887065320838,-0.0010806732888634263,-0.5256536617698281,0.0007852252608803818,0.8506976216226912,-0.030606396146723443,-0.8635664697742306,1.0412918343859074,-0.0355731591585624,-0.8253279192303806,0.9886117241127823,-0.0638636991946625,0.7778550167971255,0.909722004334552,0.02164175924295866,0.6276496432191284,1.190783974854451,0.0,0.0,0.0,0.0
0.022123550170557293,-0.06765604378543086,0.7461778540022556,-0.0010239247150111168,-0.5256815989350276,0.0007415224116597729,0.8506804677808253,-0.02874807289977853,-0.8629936224575868,1.0375011283741267,-0.0337473887311206,-0.8280235116869071,0.9897454222088545,-0.059064418446795344,0.7730689557473258,0.9149284650264453,0.01933540144857653,0.6305189617992084,1.1770155217661964,0.0,0.0,0.0,0.0
0.02174886998038361,-0.06841276484869212,0.745404825800242,-0.0009534683040563061,-0.525701696296161,0.0006843463546072002,0.8506681780104384,-0.026669601672233565,-0.8620572175140154,1.0327582915621754,-0.031701246400664185,-0.8307600502416593,0.9904893191458983,-0.05386531357567752,0.7676724172969811,0.920574187317504,0.01719518465873117,0.6334512462970363,1.162894983108046,0.0,0.0,0.0,0.0
0.021257274472763918,-0.06923621793072836,0.7445881014334794,-0.000871372112381485,-0.5257054741673715,0.0006158427461500684,0.8506659837320479,-0.02439089082390639,-0.8606280298364142,1.0268456909362729,-0.02945271521123947,-0.833373502728608,0.9905786202896785,-0.04828102917649486,0.7616468802025169,0.9265054296827593,0.015160885027521578,0.6363615825887536,1.1486580088786058,0.0,0.0,0.0,0.0
0.020606740626438323,-0.07012193620894305,0.7437406535391233,-0.0007794361437418516,-0.525683569672086,0.0005376665688810287,0.8506796623704905,-0.021926448178893592,-0.8585236947918903,1.0194128560880433,-0.02701438463605561,-0.8356581200716637,0.9896329420862187,-0.04232459009844334,0.7548973035597812,0.9326383867003016,0.013203549571424951,0.6391586733279919,1.1343835888639813,0.0,0.0,0.0,0.0
0.019742840720177575,-0.0710661014052993,0.7428713210065581,-0.0006799262062828452,-0.5256245969442669,0.0004517657537658369,0.8507162374700713,-0.019290437060367965,-0.855522147277586,1.0100006430571693,-0.024398438889199816,-0.8373724208993656,0.9871733494917669,-0.03600908738667192,0.7472652522317856,0.9389379001947239,0.011295951802046875,0.64173776416272,1.1200484452905872,0.0,0.0,0.0,0.0
0.01860272049884692,-0.0720618404559816,0.7419858476093303,-0.0005763479010629664,-0.525515785024649,0.00036107966997155283,0.8507835783173625,-0.01650818298264113,-0.8513762005359979,0.998074480740642,-0.021628128841091047,-0.8382348668519083,0.9826302329745935,-0.029372226428965757,0.7385527572144853,0.9454095274960047,0.009399236409618443,0.6439755124422182,1.1055612811060385,0.0,0.0,0.0,0.0
0.017123063777320785,-0.07309279750718348,0.7410871743039312,-0.00047421688139988354,-0.5253447672840595,0.00027008287610912415,0.8508892863709394,-0.013634171090161764,-0.8458468093170882,0.9830950590015417,-0.018755943842043012,-0.8379261024430515,0.9753691981067356,-0.02252123877469224,0.7285607261641142,0.9521045966669417,0.007455977914227405,0.6457324668407084,1.090786787734203,0.0,0.0,0.0,0.0
0.015256358606432674,-0.07412392038636172,0.7401741482292665,-0.0003815857454405332,-0.5251035168084963,0.00018490480083830412,0.8510382581517019,-0.010775689919445683,-0.8387742673628488,0.9646660564339313,-0.01588782458884784,-0.8361165138606247,0.9647718806942032,-0.01569573176301748,0.7171525034305642,0.9591444885744017,0.005379229709564235,0.6468892204036426,1.075586233266539,0.0,0.0,0.0,0.0
0.013002282345141444,-0.07508951740056836,0.7392355691057497,-0.0003093983183240839,-0.5247950950801515,0.00011382216829274936,0.8512285236627173,-0.008123367212345842,-0.8302354564343483,0.9428388068767263,-0.013214797326951785,-0.8325606405207598,0.9504418482895048,-0.009330443418033366,0.7043418424981198,0.9667899237973366,0.003009921357505756,0.6474700610339331,1.059905244764053,0.0,0.0,0.0,0.0
0.01046223687130372,-0.0758811294095398,0.7382271101539202,-0.0002739211317963307,-0.5244201387409497,8.222115035794133e-05,0.8514595916952366,-0.006018602620992257,-0.8210413026886159,0.9188415631586276,-0.011082297344484841,-0.8274663989858536,0.9327709620207998,-0.003971754627351599,0.6902530749812376,0.9756047977033869,3.1777451887034496e-05,0.6479125700132882,1.0438327883130896,0.0,0.0,0.0,0.0
0.007875462958961141,-0.07645091055002913,0.7370914501372001,-0.0002753678446733158,-0.5240142095166274,7.987707675393422e-05,0.8517094727762905,-0.004552895741184786,-0.8123780992383407,0.8949050487801695,-0.009589023030634025,-0.8217953813629076,0.9135983994932505,5.620137105014425e-06,0.6755128104328717,0.9860219891935846,-0.004141815434026697,0.6491039917438494,1.0276007320851808,0.0,0.0,0.0,0.0
0.0057906875167986,-0.07686590559643738,0.7357772746651411,-0.0002870872861693885,-0.5235691752881055,0.00010628742570889577,0.8519831130791304,-0.0035681138431638737,-0.807132633587775,0.8764043400439007,-0.00858583736810563,-0.8187161467992774,0.8986635196777302,0.0030176078430038684,0.6614900097912416,0.997666646515861,-0.009314873713602503,0.6529122792803129,1.0114452884432945,0.0,0.0,0.0,0.0
0.004500770361682698,-0.07704695314665382,0.7346407034626251,-0.0003165406909652512,-0.523204233178417,0.00017640286518245065,0.8522072512412721,-0.0032901005629138863,-0.8054924415663771,0.8659068195200929,-0.008300213473349043,-0.817874890560518,0.8897063189071381,0.00476445134673788,0.6510141680867603,1.0075849578619964,-0.0150400977945257,0.658190379459596,0.9962119453284015,0.0,0.0,0.0,0.0
0.004513763568514942,-0.07704681053922423,0.7346164378895884,-0.00032758213753086857,-0.5231911179920322,0.00017726853627602764,0.8522152986892787,-0.003291225816852818,-0.8055209241384235,0.865820084525252,-0.008300824096025512,-0.8179140590815454,0.8896676019984715,0.004755947650628009,0.6509883925290056,1.0075558702567657,-0.015045973716247198,0.6582038310307665,0.9962143506735819,0.0,0.0,0.0,0.0
0.004513763568514944,-0.07704681053922423,0.7346164378895883,-0.00032758213753087583,-0.5231911179920322,0.0001772685362760238,0.8522152986892787,-0.003291225816852802,-0.8055209241384236,0.8658200845252522,-0.008300824096025498,-0.8179140590815454,0.8896676019984716,0.004755947650628019,0.6509883925290056,1.0075558702567657,-0.015045973716247184,0.6582038310307666,0.9962143506735819,0.0,0.0,0.0,0.0
0.004513763568514944,-0.07704681053922423,0.7346164378895883,-0.00032758213753087583,-0.5231911179920322,0.0001772685362760238,0.8522152986892787,-0.003291225816852802,-0.8055209241384236,0.8658200845252522,-0.008300824096025498,-0.8179140590815454,0.8896676019984716,0.004755947650628019,0.6509883925290056,1.0075558702567657,-0.015045973716247184,0.6582038310307666,0.9962143506735819,0.0,0.0,0.0,0.0
0.005007457709771783,-0.07730967943265495,0.7344798527687304,-0.0009390707103536428,-0.5227774298655409,0.0006444287754975062,0.852468452015049,-0.003510519869786281,-0.8120353077022389,0.87383825988151,-0.00853069598942337,-0.8223040518349465,0.8966544259603808,0.013413524662114994,0.6485257950580414,1.0058770481545527,-0.0063273612163269564,0.6601833476121094,0.9976892855257896,0.0,0.0,0.0,0.0
0.006160448007423558,-0.07741598652209025,0.7343302931204475,-0.0012315480011008608,-0.522711077127197,0.0008650592479747857,0.8525085716932962,-0.003667855984323704,-0.8195373353393859,0.8864361229576526,-0.008700118567076136,-0.8285714028319625,0.908392049269671,0.017416259843158942,0.6500384396285389,1.0052856343288439,-0.0023012673525403,0.6638089900198026,0.9984266904837322,0.0,0.0,0.0,0.0
0.00802551688868914,-0.07719333742952816,0.7341775026081818,-0.0012128230969939814,-0.523108110549618,0.0008428959072595269,0.8522650545832755,-0.004199633820546417,-0.8278669414128479,0.9038893430106192,-0.009250997042053356,-0.8357193263727284,0.9238553553221118,0.015896784448584302,0.6560786032354589,1.006420039172983,-0.004119470279728479,0.669572025938658,0.9978983289739212,0.0,0.0,0.0,0.0
0.010648125756415902,-0.07659821047750057,0.7341006815232527,-0.0007506970863861058,-0.5242293425229873,0.0004767203448135393,0.8515766586922834,-0.005027649228018096,-0.8350313158020479,0.9246156794360105,-0.010103705684671477,-0.8423286394147987,0.9418525892454046,0.006812941422519566,0.6685328277787315,1.0091616311148537,-0.013953049930969581,0.6781563217894001,0.9954205422147456,0.0,0.0,0.0,0.0
0.013994230550119491,-0.07581834809922597,0.7342020538961483,0.0002619349486389753,-0.5261645179528269,-0.00031880286203879606,0.8503826960858781,-0.005520978286067262,-0.8391326201483882,0.946479607248544,-0.010621080477447715,-0.8480290964933318,0.9621948567392624,-0.011013134301629752,0.6889275673225673,1.0119011881964786,-0.03263951315827205,0.6897116193003145,0.9904533802808823,0.0,0.0,0.0,0.0
0.016753537238885507,-0.07561463622516996,0.7338390474108325,-0.0003305226018604424,-0.5253148265386538,7.39491463430621e-05,0.8509078788593966,-0.008179100855744643,-0.8414559585050133,0.9267387426631633,-0.011943195270531004,-0.8652674262822334,0.9906822003749656,-0.006842372025851489,0.6922014881988887,1.0100422372890139,-0.02845150137748867,0.6960548080837862,0.9881169312065611,0.0,0.0,0.0,0.0
0.019369036096887747,-0.07530331048770371,0.7334124848204411,-0.0005476120186788524,-0.5250708364664216,0.00019564003419138268,0.8510583285172094,-0.01303419656678788,-0.8478921020662998,0.9130260117723291,-0.013054909450632856,-0.8787689358855104,1.0141814490797976,-0.007504724927902809,0.6976768852311704,1.0108195921963357,-0.029237363029753785,0.7019346824693219,0.986963852061881,0.0,0.0,0.0,0.0
0.021664430854408057,-0.07490531672685352,0.7330048842598941,-0.0004774599149913677,-0.5254165504974418,9.760707851706751e-05,0.8508449982037015,-0.01834824465157732,-0.8565487231719908,0.9056190881073823,-0.013957498294666679,-0.8877097320493648,1.0315942121573995,-0.012356093296142755,0.705092161068144,1.0134053103114158,-0.03429231546760371,0.707372734371017,0.9864592751888714,0.0,0.0,0.0,0.0
0.02346382582091883,-0.0745545665949802,0.7326492341999894,-0.00041430631101738164,-0.525835654683846,1.2447255400970444e-05,0.8505860876234442,-0.023437449295950284,-0.8667077407717454,0.9012232663884681,-0.014751830392520374,-0.8938245640878177,1.0442106106824183,-0.016856009279029013,0.7114263931283329,1.0160040391123784,-0.03892603404338886,0.711796784530252,0.9863562927054653,0.0,0.0,0.0,0.0
0.02470898828713363,-0.07433224999937112,0.7323813569109947,-0.0004558239115177662,-0.5260977824998663,1.815168348800088e-05,0.8504239620000141,-0.028150459837776882,-0.877625006223481,0.8976951550293828,-0.015378066603502744,-0.8980451228327976,1.0528949708565245,-0.0188342239462418,0.7153800915310483,1.0176959196973383,-0.041008869367888875,0.715046337920907,0.9864990784224926,0.0,0.0,0.0,0.0
0.0254348816164848,-0.07426663793739322,0.7322170214074943,-0.0005833793341795353,-0.5261813828294449,9.541219014143984e-05,0.8503721555464757,-0.032542183558700755,-0.8887979663111197,0.8941242454376704,-0.015718146606208332,-0.9007625868261268,1.0582625033476907,-0.018090969984503102,0.716984013907659,1.0182842429618615,-0.04041356799422892,0.7172008135011517,0.9868313428504487,0.0,0.0,0.0,0.0
0.02574240378093084,-0.07434144270857768,0.7321533705322958,-0.0006909949093275682,-0.5262477790354734,0.00015675170985377104,0.8503309785108198,-0.036661883899054976,-0.8996953274388563,0.8904951062798133,-0.01563559630906252,-0.9018089161796061,1.0605904955376915,-0.016271146204562072,0.7174834866133619,1.018125831566242,-0.03875021095746988,0.7185200234179858,0.987362774844255,0.0,0.0,0.0,0.0
0.025719377219848398,-0.07455269931718704,0.7321735211949456,-0.0007626925143179626,-0.5263112938033142,0.00018467620970635755,0.850291600693496,-0.04059245839200075,-0.9103156730515528,0.8866364405061642,-0.015105045028861633,-0.9015886729852914,1.0606065443726818,-0.013738143297914084,0.7172423858058161,1.0172997710956753,-0.03635781021910749,0.7191446018166994,0.9880989278615508,0.0,0.0,0.0,0.0
0.025439680233494157,-0.07489957654572077,0.7322551618968979,-0.0008217917140478828,-0.5263231139342396,0.0001924235988867832,0.8502842274028742,-0.04440794651864208,-0.9208194537532924,0.8823183261214612,-0.014157381425435888,-0.9007011831867402,1.0591412319241218,-0.01026318564762679,0.7161965861313485,1.0157894171264847,-0.03299761337379697,0.7191499464323217,0.9890545217263755,0.0,0.0,0.0,0.0
0.02497542680283104,-0.07536947149134939,0.7323532759078972,-0.0008711529185338903,-0.5262757735989739,0.00017514379736483684,0.8503134836870719,-0.048122999889764755,-0.9313166710015887,0.8774882846077978,-0.01281699923939272,-0.8996096079145631,1.0568350543340412,-0.006039221704381797,0.7144124549918299,1.0139089309628755,-0.028838160241092856,0.718505718023782,0.9904519178618834,0.0,0.0,0.0,0.0
0.024432310131435927,-0.07589780826695952,0.7324647517267997,-0.0008958711720268745,-0.5262197932774297,0.00013022307274329292,0.8503481108462896,-0.051813009981485525,-0.9418105919852621,0.8723351771016744,-0.011261127586545022,-0.8983794400437585,1.0541302307049976,-0.0018045160215222605,0.7125069139734144,1.011827684036192,-0.02460054035085198,0.7175696271701361,0.9919917141979302,0.0,0.0,0.0,0.0
0.02390779533036537,-0.07641643563665013,0.7325834829613533,-0.0008886620585536365,-0.5261925308764019,6.0114863106451145e-05,0.8503649964079164,-0.05555743939052288,-0.952320305155548,0.8670181151787933,-0.009684584730762351,-0.8971016015646266,1.0514507297510225,0.0018345338448827238,0.71096321442465,1.0097500778730273,-0.020908198737265165,0.7166548641469478,0.993400212701566,0.0,0.0,0.0,0.0
0.02346905308754061,-0.07687631548067334,0.7326912135890736,-0.000849440792658841,-0.5262099693059903,-3.194587611623946e-05,0.8503542471422069,-0.05943312292809253,-0.9628116115355859,0.8616592084642509,-0.008227547944256333,-0.8959284677705158,1.0491476324070683,0.004535631683592663,0.7099888902842965,1.0079414068954604,-0.01813919838424857,0.7158999360214846,0.9946063830754953,0.0,0.0,0.0,0.0
0.02315479375006081,-0.0772463894428908,0.7327746752779772,-0.0007805736061986845,-0.5262784718122677,-0.0001422872150852611,0.8503119078115617,-0.0635227639431903,-0.973047702692146,0.8564379324129491,-0.00698056943035124,-0.8949644281887236,1.0474338627033895,0.00613446306400168,0.7096625739739416,1.0065894490523355,-0.016491139789248786,0.715372949598326,0.9955889047618663,0.0,0.0,0.0,0.0
0.022973599595673452,-0.07751492760139596,0.732828883046549,-0.0006860446041403265,-0.5263964255274903,-0.0002667864589949861,0.8502389436856369,-0.06788843274179691,-0.9824580241361021,0.8516732985697953,-0.005982387014775052,-0.8942393485982528,1.046356905178089,0.006625051523975151,0.7099616459020299,1.005768189976406,-0.01598817375475076,0.7150837102433921,0.9963493552162827,0.0,0.0,0.0,0.0
0.022900679211175244,-0.07769445629999247,0.7328565830135615,-0.0005826533228098873,-0.5265348541273226,-0.0003922987053454437,0.8501532532467015,-0.07253667197557362,-0.9901058220140465,0.8478732387684991,-0.005224517611822023,-0.8937831369886513,1.0458570105758616,0.00633778985233263,0.7106484427675247,1.0053816853983237,-0.016293133364578917,0.7149678784009198,0.996914207110296,0.0,0.0,0.0,0.0
0.02288491333552058,-0.07781923849713862,0.732865914645571,-0.0004998516937994629,-0.5266390884942107,-0.0004972606805999469,0.8500886855793851,-0.07737403630592034,-0.9947914692613711,0.8458047598553285,-0.004656564832316324,-0.8936501078989583,1.0458137715617262,0.005921922547547257,0.7112887614621608,1.0051875575738722,-0.016730754350861146,0.7149003880251836,0.9973396677311916,0.0,0.0,0.0,0.0
0.022876461386994656,-0.07792469997791199,0.7328690748051023,-0.0004469302573941091,-0.5266887218490388,-0.0005756863705377393,0.8500579151537697,-0.08219744882602523,-0.9953904576752984,0.8464621939358852,-0.00419461812133477,-0.8937496141092277,1.0459851280067696,0.005774131085785405,0.7116510470111224,1.0049794478470715,-0.01688874187251895,0.7147926059497927,0.9976846252876058,0.0,0.0,0.0,0.0
0.022851497534182023,-0.07802561580065426,0.7328733922745412,-0.00041759106969019777,-0.5266883504901966,-0.000632826849376081,0.8500581195458303,-0.08693699318123864,-0.9918636664035622,0.8498154602372688,-0.0037886075638638972,-0.8939758652274165,1.046195834496408,0.005927376714104839,0.7117184092247997,1.0046879940229465,-0.016730912147902788,0.7146027735304887,0.9979697813235533,0.0,0.0,0.0,0.0
0.022811070527289503,-0.07811798180523849,0.7328819884022031,-0.00038925102949330354,-0.5266692312774044,-0.0006859141043942638,0.8500699376116916,-0.09168447435667534,-0.9852588649956314,0.8548449349615814,-0.0034155104893969427,-0.8941984465130252,1.0463276412732965,0.006049470156430737,0.7116966391305029,1.00437310376598,-0.016596452569765257,0.7143371689274283,0.998181106737292,0.0,0.0,0.0,0.0
0.022750110252280565,-0.07820647633841621,0.7329028088935959,-0.0003240953089044244,-0.5266882478628983,-0.0007650046570811457,0.8500581152446082,-0.09645930136148728,-0.9766991948956913,0.8607423050535707,-0.0030033283954972014,-0.8941610180686794,1.046137134180094,0.005668619143259742,0.7119253869711646,1.0040900371678543,-0.016970013003922386,0.7140177676906279,0.998326987070262,0.0,0.0,0.0,0.0
0.022621950513362007,-0.07833193064880153,0.7329432068772791,-0.00021771949348619235,-0.5267378861490476,-0.0008791059588751384,0.8500272813658207,-0.10121314488470182,-0.9671146648110718,0.8668406388222433,-0.002421860165419356,-0.8937823408257292,1.0453994774865782,0.005011791770464603,0.7122619677651297,1.0036931916183336,-0.017614342841047147,0.7135143331391486,0.9985280089495876,0.0,0.0,0.0,0.0
0.022334955692319566,-0.07856800056656744,0.7329813703675466,-8.143839040946686e-05,-0.5267709482035655,-0.0010330873135068848,0.850006643637041,-0.10580276228950251,-0.9571350377949897,0.8725930270971052,-0.0014558450008982655,-0.8931353875424929,1.0438164560620102,0.004718439450292578,0.7120968094854662,1.003171367442891,-0.01786603846521162,0.7123814565898721,0.9992875860819281,0.0,0.0,0.0,0.0
0.02182646219429535,-0.07894294225946061,0.7330610545554076,7.593864737131941e-05,-0.5267723410751303,-0.0012149043052924106,0.8500055405225765,-0.11015683025635659,-0.9470172375854278,0.877787477941287,-5.918625040538081e-05,-0.8919095066058046,1.0409288633581706,0.005175836824319924,0.7113097758002321,1.0020757419973483,-0.01732378303730256,0.7106657841120396,1.0003825753881208,0.0,0.0,0.0,0.0
0.02103212227826934,-0.07947146721246995,0.7332072793742783,0.0002721848622712999,-0.5267764342202612,-0.0014331893659463874,0.850002623662909,-0.11416622759062874,-0.9367830794517811,0.8824744954768275,0.0018168048597183254,-0.8895991271191228,1.0360331699700382,0.0062943840029618895,0.7099654724793096,1.0002777064149233,-0.016072189358508227,0.7083331943159202,1.0017624796057063,0.0,0.0,0.0,0.0
0.019881468433902014,-0.08016527120459137,0.7334436394799988,0.0005221576511499796,-0.5268169914463362,-0.001693375933549749,0.8499768922463515,-0.11774094172386815,-0.9263317803681874,0.8867688063531739,0.00420186139564724,-0.8856462501570607,1.0283318188940709,0.007993830438889004,0.708100712923276,0.9976631478932138,-0.014181306308054954,0.7053361703012763,1.0033798768562248,0.0,0.0,0.0,0.0
0.01828363545673824,-0.08105513739521275,0.7338047192037607,0.0007395560161313128,-0.5267630913298555,-0.0019203694950957043,0.8500096533866633,-0.12099229510845456,-0.9158781712445807,0.8904003378814123,0.007013677004927869,-0.8800476483133037,1.0174770192851317,0.011660846439673873,0.7048516266373261,0.9935712308209808,-0.010200747656400888,0.701601748679464,1.004992228593949,0.0,0.0,0.0,0.0
0.016182448943249227,-0.08215100836885786,0.7343188640410929,0.0008481643704422554,-0.5265220404886386,-0.0020469498186653284,0.850158591965829,-0.12416072324270094,-0.905591173206565,0.8933269172756061,0.01012940113343002,-0.8727263787904549,1.003149643899906,0.018231855598928738,0.6996947279819205,0.9874441728814676,-0.003098229547666794,0.6971607623699358,1.0063036821719558,0.0,0.0,0.0,0.0
0.01358462145278904,-0.08343401583975857,0.7349781988053515,0.0007811608521216712,-0.5260413769551615,-0.0020230217036763193,0.8504562110432419,-0.12772701719518453,-0.895775534500036,0.8958462824659146,0.01339346898517331,-0.8637421963808155,0.9853182268542273,0.02800506564361621,0.6924602598735746,0.9790900297192893,0.007571465893989546,0.6920543478074036,1.0071555235483869,0.0,0.0,0.0,0.0
0.010581892223858788,-0.08485277477079446,0.7356771700033217,0.00048347967291829263,-0.5252982242588501,-0.0018272461281694222,0.8509160963394051,-0.1324768832317594,-0.887082879434965,0.8986669198952322,0.016645015711084198,-0.853679185574288,0.964608624377832,0.040580982617568845,0.683071012735614,0.9692519997995502,0.021566664796374892,0.6860450424957782,1.0080277291544408,0.0,0.0,0.0,0.0
0.007415986333103555,-0.08624315042813008,0.736081613156363,0.00011463224618220938,-0.5245958450219421,-0.0016208416952583772,0.8513498453146987,-0.13921958094819187,-0.879981646243528,0.9036697934922066,0.019800734438697308,-0.8430180478287493,0.9417255211204928,0.05235951924765255,0.6724505931840096,0.9619359863518682,0.03507268426217727,0.678253694170153,1.0112988675433274,0.0,0.0,0.0,0.0
0.0047416320505236555,-0.08728708797663806,0.7360852077029295,0.00013314907738200133,-0.5245929309688583,-0.0017613487502644873,0.8513513591340568,-0.1479484819388443,-0.8740443130039539,0.914533120877858,0.022725687521618597,-0.8318534831457021,0.9192062005418636,0.05689369463534511,0.6651286331949093,0.9605562197737807,0.040618368134693786,0.6702301455416331,1.0170291133131797,0.0,0.0,0.0,0.0
0.0029059646181822385,-0.08782132545255536,0.735869113340382,0.0008219896339691424,-0.525655885426753,-0.0024332035434196137,0.8506934194936353,-0.15778706430231776,-0.8709465130045292,0.935942814515641,0.025324989479136816,-0.8195286179260345,0.8982422729971319,0.0516591288275198,0.6641484928688783,0.9651913953539224,0.034953099385227705,0.66409577942511,1.0235704086222217,0.0,0.0,0.0,0.0
0.0021561885705252797,-0.08787814546997329,0.7355990891441918,0.0020209369272968726,-0.5273368235455944,-0.0032988486960040613,0.8496475198245795,-0.1663587835658383,-0.8738168949786308,0.9680021966465536,0.02689491335249872,-0.8090063522520311,0.8834758471106741,0.03970990643962402,0.6688005532865824,0.9727770925918308,0.02175105011787672,0.6612014933205786,1.0289656362115072,0.0,0.0,0.0,0.0
0.0021688150011972087,-0.08790097329359116,0.73558265878678,0.0020211290271534713,-0.527323845524051,-0.0032853738366530006,0.8496556262968755,-0.1663512004979633,-0.8738579500506715,0.9679949469114995,0.026891020613810088,-0.8090127399623507,0.8833746047190468,0.039614323721897354,0.668853992354638,0.9726749552573015,0.0218266311248713,0.661130700869996,1.029040125552395,0.0,0.0,0.0,0.0
0.0021688150011972087,-0.08790097329359116,0.73558265878678,0.0020211290271534713,-0.527323845524051,-0.0032853738366530006,0.8496556262968755,-0.1663512004979633,-0.8738579500506715,0.9679949469114995,0.026891020613810088,-0.8090127399623507,0.8833746047190468,0.039614323721897354,0.668853992354638,0.9726749552573015,0.0218266311248713,0.661130700869996,1.029040125552395,0.0,0.0,0.0,0.0
0.0013263401114457468,-0.0881837428585012,0.7353542453206123,0.0010478854880339819,-0.5257115685799522,-0.0021723597308618142,0.850659467384223,-0.16844805409058525,-0.8815969616499607,0.9698420611956453,0.02527087620351297,-0.8127020288602095,0.8830489076987867,0.053816312957152584,0.6569067295510329,0.9698070157054384,0.037586631791622416,0.6576697373354462,1.0309123188512626,0.0,0.0,0.0,0.0
0.001069954575017288,-0.08834034431067747,0.7351143096871087,0.0005631213781323732,-0.5248862310399888,-0.0015068126004908853,0.8511708740756676,-0.16989287533874933,-0.8868603512127434,0.9725636689338791,0.024195656786844547,-0.8158136987666424,0.8848118999113933,0.06093256498597785,0.6507953939761457,0.9689840346772928,0.045896495151825104,0.6559441476838381,1.0327617222636625,0.0,0.0,0.0,0.0
0.0015960767458380648,-0.08829542447830126,0.7350568082017227,0.0006833014194911801,-0.5250622237824396,-0.0014296236378467534,0.8510623657711951,-0.170457828966609,-0.8886556214896071,0.9767120441887593,0.02379876202810096,-0.8176772063873269,0.8891502849762993,0.06033655017756198,0.6525542270707281,0.9694378521092449,0.045368599756317324,0.6577288614465728,1.0329709291706335,0.0,0.0,0.0,0.0
0.002943097495112763,-0.08834488178839711,0.7354135376446808,0.0012362235928051121,-0.5258546679082942,-0.0018787537694593133,0.8505714610040475,-0.1695633126885654,-0.8886559405528638,0.9841492755937785,0.024798320289865654,-0.8204020069939498,0.8990625366222752,0.05527237974409935,0.6620114458346767,0.9669710712386951,0.03957053373297539,0.6637853368508395,1.029731461872744,0.0,0.0,0.0,0.0
0.005239633562017898,-0.08899119603835547,0.7369999150579827,0.002185373115361371,-0.5270543331679816,-0.002911317815388865,0.8498237924780517,-0.165744324171529,-0.8854795146454382,0.9951815034392191,0.02862655980272737,-0.8243330400252113,0.917432670990219,0.04819402690470424,0.6833152439213535,0.9514004748655287,0.031431581117063595,0.6778794664910301,1.0166029153688583,0.0,0.0,0.0,0.0
0.007016489254023935,-0.08989125751943894,0.7387492023972716,0.0017803698710318748,-0.5263974541333732,-0.002713373525067518,0.8502324318497495,-0.16438607371881847,-0.8921183243852173,1.0119794382576737,0.030711408292468732,-0.8327263470566987,0.9382679206481344,0.03225648683288468,0.6683801319852524,0.9837412522622017,0.041972855353464095,0.6915820314655828,1.000711875034753,0.0,0.0,0.0,0.0
0.008629125495884548,-0.0908333582386808,0.7404974017790611,0.0017312732672111393,-0.5262643466422526,-0.002775899034641627,0.8503147267515874,-0.16211716597687265,-0.8939130655595237,1.023483779240682,0.033360273799922346,-0.8377666780916735,0.9548414181168332,0.01877293143438087,0.6587110021114663,1.0087782638218596,0.0489679473145846,0.7052046659375083,0.9854827875607978,0.0,0.0,0.0,0.0
0.009993851584376587,-0.09179272014368195,0.7420675318123845,0.0018992409460720455,-0.5264112468507742,-0.0029860828767058127,0.8502227210454302,-0.15934435350624665,-0.8928746812922203,1.0309096791773047,0.0362945615101086,-0.8408276196149187,0.9679121672871962,0.009995857020232778,0.6524677345800731,1.0288014771004241,0.053798008415886195,0.7174374826390988,0.9723027253191187,0.0,0.0,0.0,0.0
0.011023215219519837,-0.09279770099962276,0.7434457147434024,0.0020734038147508338,-0.5265339332586985,-0.003177478603380317,0.8501456473766542,-0.1564233775717868,-0.8908418947374105,1.035424114296287,0.03928113618120245,-0.8429723791784125,0.9781991959784281,0.004632408743422198,0.6473961976638049,1.045813748436969,0.059093002447461344,0.7278022285273817,0.96122919132762,0.0,0.0,0.0,0.0
0.01169480150671493,-0.09386314941900571,0.7446754248961032,0.0021853304379394227,-0.5265427177277792,-0.0032951517375534576,0.8501394783879571,-0.1534431875602072,-0.8882543562471371,1.0373719367937515,0.04225630869612531,-0.844415320327229,0.9859408113337699,0.0012409853979451022,0.6424486555545235,1.06098224263703,0.06575766287431024,0.7363891462868303,0.9519230458961628,0.0,0.0,0.0,0.0
0.012046260871331718,-0.09498243721870271,0.7458050087636204,0.0022434646073933185,-0.5264583353793799,-0.003347844609862736,0.8501913784040602,-0.15040091116382792,-0.8850363395038128,1.0369608693650088,0.04521820837958872,-0.8451143097909255,0.9913660455994745,-0.0010978362641832313,0.6373164479826561,1.0750417585406802,0.07359528609398358,0.7435262470641101,0.9439454240443153,0.0,0.0,0.0,0.0
0.012144702575953799,-0.09613704913333922,0.7468667402686817,0.0022588597817791625,-0.5263035993565053,-0.0033494258581335742,0.8502871280945598,-0.1473272257162968,-0.8812799048663887,1.0346671422958738,0.04814851553084347,-0.8451695114516489,0.994921797209581,-0.0028758071645470775,0.6318822634117519,1.088459368985244,0.08225961304986522,0.7495516604812635,0.9368927925095483,0.0,0.0,0.0,0.0
0.012066043859144924,-0.09729716294824671,0.7478768790786033,0.0022331255478525583,-0.5260902716643366,-0.003305832699001166,0.8504193734156097,-0.14430722295824563,-0.8772577782814656,1.0311498502774252,0.05098816019045848,-0.844779252283344,0.9971433359828179,-0.004316959659223763,0.6260728311270136,1.1015933268986848,0.0914459917456746,0.7547621919917469,0.9304345187965647,0.0,0.0,0.0,0.0
0.011938386516615385,-0.09842744776066463,0.7488511912539315,0.0022521556880380897,-0.5259393834495429,-0.0032963790242465556,0.8505126845713706,-0.1412755450093217,-0.8726932908636836,1.0268597102257695,0.05379847757860282,-0.8439410764316281,0.9985985868589627,-0.005723604774140344,0.6207262462188294,1.1147976495866156,0.09979138676323138,0.7596231733238035,0.924298290167856,0.0,0.0,0.0,0.0
0.01184253789707893,-0.0995127776639809,0.7497881835326675,0.0022952101362771803,-0.5258111012949508,-0.0033113580605933623,0.8505918249508491,-0.13832791048509663,-0.8682603823014327,1.0228023704472908,0.05654064736901662,-0.8431991985647319,1.0001598527743196,-0.00711948600163785,0.6157361880669048,1.1281833255043594,0.10742917081090517,0.764331905102329,0.91829323569579,0.0,0.0,0.0,0.0
0.011803007674951307,-0.10053266729393508,0.7506825200973127,0.0023473423858333398,-0.5256953533349615,-0.0033425970486711527,0.8506631016511318,-0.1355404044709266,-0.8642080903779088,1.0193363722631688,0.05915578681369985,-0.842675031619291,1.0020274116009145,-0.00869117054213078,0.6110115483882641,1.141796143089861,0.11439245357031397,0.7689502278319373,0.9123733349101647,0.0,0.0,0.0,0.0
0.01183901922178209,-0.10146644075408615,0.7515263997715356,0.0024062339311958906,-0.5255975741396632,-0.0033867566110094252,0.8507231805801622,-0.1329770692668667,-0.8606616137185722,1.0166832305805595,0.061587208585204674,-0.8424093129734012,1.004298689017441,-0.010496610762451071,0.6066033529943798,1.1556308942625397,0.12059984926642804,0.7735219594061322,0.9065499561322874,0.0,0.0,0.0,0.0
0.011965294512806715,-0.10229624775467192,0.752309911311353,0.0024800137181791764,-0.5255347972624949,-0.003449842193499825,0.8507614971230574,-0.13067147158838857,-0.8576396644121719,1.0149440678821025,0.0638014487986505,-0.8423929894086378,1.0070014517285315,-0.01256308393074473,0.6026922457283401,1.1696241990798144,0.12585974336440434,0.7780608601752449,0.900888200355454,0.0,0.0,0.0,0.0
0.01218771605722484,-0.10301288162726553,0.7530177377120225,0.002578674289137881,-0.5255203246103242,-0.003540621612845459,0.8507697707717198,-0.12862840168998044,-0.8551410678692678,1.0141429536415167,0.06579285572266672,-0.8426372780433891,1.0101411182689013,-0.014909903502882273,0.5995137776414357,1.1835345182901988,0.13000590151002295,0.782507767952509,0.8955397315951734,0.0,0.0,0.0,0.0
0.01246093414382301,-0.10360789610533966,0.7536261788284595,0.0026938589013671293,-0.5255534769686661,-0.0036470712496613883,0.850748485065748,-0.12688440359785846,-0.8530694353908694,1.0139442746963512,0.06750986605061524,-0.8429778958841866,1.0133106877241862,-0.017631965864999877,0.5971098943418754,1.1967779952326554,0.13311007243564052,0.7866278864236887,0.8908015995162253,0.0,0.0,0.0,0.0
0.01269150418876847,-0.10408100309994558,0.7541007672471997,0.0027918024614046718,-0.5256100672369205,-0.0037273218364468124,0.8507128599769396,-0.12551199598544535,-0.8513223813008166,1.013736598645166,0.06885674575743754,-0.8431530449356682,1.0157891165444515,-0.02092643463381899,0.5953369951648428,1.2082108898067745,0.13564888496371078,0.7900160868497001,0.8871507657095489,0.0,0.0,0.0,0.0
0.012807662689649151,-0.10446027073792506,0.754398364743037,0.0028328143118720047,-0.5256369304693935,-0.0037463629766266646,0.8506960428109653,-0.1245037399169161,-0.8500649151667018,1.0132249524498596,0.06984209561608717,-0.8432562717148044,1.0173062413997902,-0.025154414869680838,0.5943541013788637,1.2158380242139917,0.13828818648345148,0.7922101449075132,0.8851551571577725,0.0,0.0,0.0,0.0
0.012775847602992987,-0.10478493922309108,0.7544837334125687,0.0027839320729129563,-0.5255767161179222,-0.0036838868454161402,0.8507336799343402,-0.12379971129732881,-0.8496028703891373,1.0124368777067423,0.07054418834174227,-0.8435988653763085,1.0179926829239172,-0.030758117148921238,0.5950420828805278,1.216625245484026,0.14163850758533833,0.7928607921590322,0.8852634431136266,0.0,0.0,0.0,0.0
0.01260294802940177,-0.10505533503142858,0.7543600926848621,0.0026570463044945703,-0.5254424165507178,-0.0035501228917289725,0.8508176089043593,-0.12337749204093583,-0.8498590882694755,1.0113446168868938,0.07098159906583566,-0.8441581985137122,1.0178637617193256,-0.03771903041600525,0.5974731427284485,1.2105672985439555,0.1455471443979171,0.7919962813807657,0.8874537270363225,0.0,0.0,0.0,0.0
0.01232992531826098,-0.10523746293461159,0.7540704059551088,0.0025051460846539516,-0.5253127899441435,-0.0033841659729104702,0.8508987862165879,-0.12324209603617219,-0.8503646154888294,1.009822291227175,0.07112221715583548,-0.8445714572071639,1.0167915331338953,-0.04558155646479439,0.600872084191746,1.2007101068431405,0.1491712190266509,0.7900130030950264,0.8912353961721468,0.0,0.0,0.0,0.0
0.012075159868954131,-0.10534440342348371,0.7536663410167993,0.0023889796455408905,-0.5252305742686146,-0.0032527227994566567,0.8509503842317155,-0.12323946369749725,-0.8510965131463785,1.0085117711677478,0.07114180392197854,-0.8451338422193865,1.0156794231527362,-0.053922012354352414,0.6053023822457423,1.18900012588525,0.15179855095366823,0.7874582021677007,0.8959792077673427,0.0,0.0,0.0,0.0
0.011875567473358623,-0.1053996131592463,0.7531952536752506,0.0023321969794592662,-0.5252089246082305,-0.0031856372159260004,0.8509641579318388,-0.12324585012000136,-0.8519009348702176,1.0075096910668833,0.07116370950081355,-0.8458822466168295,1.0148217126108792,-0.06253455971063998,0.6106785033271898,1.1765229078689137,0.15325196969694227,0.7846518367503164,0.9012193494340724,0.0,0.0,0.0,0.0
0.011700543393922512,-0.10544022194822966,0.7526963928550675,0.0023272142711938896,-0.5252282654089568,-0.003173637621716276,0.8509522791046983,-0.12317601653361109,-0.8525776016578166,1.0065012304419025,0.07125955652184164,-0.8467005820656186,1.014067091097102,-0.07120531845069587,0.6167040511749461,1.163739884917191,0.15387915499721555,0.7816959719021878,0.9066723630222826,0.0,0.0,0.0,0.0
0.011478646544328284,-0.10552431505398352,0.7522015484900317,0.0023557988770667574,-0.5252520625449295,-0.0031963425053752274,0.8509374268408557,-0.12290741173451745,-0.8528467204104769,1.0048643276468803,0.07152973863039956,-0.847417940266231,1.0130354149021257,-0.07976639096160515,0.6230250041568272,1.150765333887524,0.15428849800835426,0.7785178245269183,0.9122243405761565,0.0,0.0,0.0,0.0
0.011090810358103978,-0.10571872717214617,0.7517375643360474,0.0023907863835807824,-0.525241395707006,-0.0032239778915347135,0.8509438091570908,-0.12230229285358932,-0.8522331713990589,1.0015443143809555,0.07207109363622502,-0.8476637966832293,1.0109399581503586,-0.08813799150179494,0.6291751649374746,1.1375728056689407,0.15524845981163396,0.7748944240041709,0.9179020009665834,0.0,0.0,0.0,0.0
0.010435528395214186,-0.10609864008019113,0.7513313852701688,0.002413063243637809,-0.5251576753255877,-0.0032347808719379156,0.8509953756426162,-0.12119182766676055,-0.8503041975592358,0.9955995789411649,0.07301960942537072,-0.8471752533592803,1.0071812332845267,-0.09623358907133857,0.6347981520295716,1.1240771277693575,0.15748545281388387,0.7706361423564678,0.9237230829188686,0.0,0.0,0.0,0.0
0.009420907222891656,-0.10673487944682301,0.7510065082511141,0.0024027254250573553,-0.5249653276302191,-0.0032069209778272743,0.8511141799749729,-0.11942366858668946,-0.8466554087860505,0.9861438013665477,0.07449951468980143,-0.8457081360646802,1.0012040688470827,-0.1040618144550756,0.6395509753810543,1.110216578284851,0.16168515267221262,0.765572650950658,0.929704576814786,0.0,0.0,0.0,0.0
0.007967551402168467,-0.10767970303436186,0.7507774195247048,0.0023309692451030438,-0.5246315059121335,-0.003108705307852109,0.8513205539266947,-0.11692318476116778,-0.8409727718025852,0.9724051545795284,0.07656533467899794,-0.8430173264144774,0.9924647971329018,-0.11180237636095583,0.6430581061305128,1.096004728043646,0.16848412375239216,0.7595550665044781,0.9358627348198981,0.0,0.0,0.0,0.0
0.006037715589319046,-0.10894818206306268,0.7506443091099994,0.0021656658204708707,-0.5241376598056052,-0.0029033559666166893,0.8516258532883961,-0.11373891075045552,-0.8331297145295683,0.9539596449258688,0.07916534357136654,-0.8389186856918669,0.9805913734626555,-0.11995972895260507,0.6450795209582046,1.0816512357431298,0.17825932381665466,0.7525214112523971,0.9421794030044525,0.0,0.0,0.0,0.0
0.003677718306218742,-0.11049430886161077,0.7505843260779169,0.001880069609922604,-0.5234905001022582,-0.0025600479968584337,0.852025591044778,-0.1100869429677098,-0.8233828505209062,0.9311432323753683,0.08211167089732581,-0.8334426513205528,0.9656893119647029,-0.12974784002497222,0.6458658927326808,1.0677743495453302,0.19086394234130583,0.7445698142965854,0.9485878337889887,0.0,0.0,0.0,0.0
0.0010746414770624272,-0.11219009429957373,0.7505297122423955,0.001440542923121458,-0.5226904947588599,-0.0020444634681619726,0.8525188512249757,-0.10643756683513084,-0.8130355565956824,0.9059959397106327,0.08503437148033406,-0.8273387298027451,0.9490642395564709,-0.1438178351255323,0.6466751117281275,1.0555930145093404,0.20573404748605206,0.7359810721924448,0.9550565069649947,0.0,0.0,0.0,0.0
-0.0013124865027990804,-0.11382466433116577,0.7503158162970914,0.0007323246776418799,-0.5215449721844153,-0.001271948767403965,0.8532225312519923,-0.103660026337769,-0.8067542563770921,0.8852030133477377,0.08738285857254387,-0.8239665013643139,0.9356689007579732,-0.1674197502541328,0.6503960022790807,1.046359216023221,0.22267795363937068,0.727021033861605,0.9616879536217874,0.0,0.0,0.0,0.0
-0.003242595065640871,-0.1151736616230348,0.7499092800479106,-0.00022183973235916738,-0.520161954508788,-0.0002636800225096536,0.8540675748098486,-0.10229705550690708,-0.8058441983421551,0.8716799174481632,0.08866828483982607,-0.8238064563509555,0.9269762101166692,-0.20378744886501318,0.6570659003555142,1.0422939628241645,0.2401120482660073,0.7183845182796964,0.9681842603719104,0.0,0.0,0.0,0.0
-0.004527922912284008,-0.11601133651654152,0.7491232457148539,-0.000997866911016803,-0.5189756552760774,0.0005817303215016838,0.8547882399063683,-0.10207482944200881,-0.808936730060713,0.8653850211182299,0.08908313705056106,-0.8265073539413266,0.9230407548953229,-0.24446582086983734,0.6636284740691095,1.045316059861349,0.25232483624874985,0.7096492538001252,0.9764433969459373,0.0,0.0,0.0,0.0
-0.004507392942039701,-0.116025111710542,0.7490968161256145,-0.0010347020232696505,-0.5189885255499856,0.000596518650846172,0.8547803717357307,-0.10208378328250066,-0.8089319762378253,0.8653206812053504,0.0890930106896803,-0.8265010810314697,0.9230606383008533,-0.2444442207014184,0.6635981828331599,1.045297989464253,0.25229130625544627,0.7096276977241498,0.976424548947175,0.0,0.0,0.0,0.0
-0.004507392942039701,-0.116025111710542,0.7490968161256145,-0.0010347020232696505,-0.5189885255499856,0.000596518650846172,0.8547803717357307,-0.10208378328250066,-0.8089319762378253,0.8653206812053504,0.0890930106896803,-0.8265010810314697,0.9230606383008533,-0.2444442207014184,0.6635981828331599,1.045297989464253,0.25229130625544627,0.7096276977241498,0.976424548947175,0.0,0.0,0.0,0.0
-0.004712559591867235,-0.11627164759247231,0.7491728612911808,-0.000675328764807655,-0.5196635751634097,0.0004672354425198078,0.8543705836874792,-0.10113718478825512,-0.8021749187493331,0.857490995772823,0.08964012825475684,-0.8220926057123992,0.9181796633161169,-0.2473439102679902,0.6662222402604208,1.045684507719981,0.25208623894064863,0.7109582601748355,0.9778495804416322,0.0,0.0,0.0,0.0
-0.00448460586309938,-0.11662166433045543,0.7491932968115682,-0.00042252372585927715,-0.5201154306508706,0.00030965570973523184,0.8540958168647718,-0.09994624128818273,-0.7993662782837845,0.8555949786967978,0.0907345219058742,-0.8215470349391591,0.9191687390132085,-0.24918203913158796,0.6691475085499858,1.0455598213292014,0.25342772271391795,0.7128838766298015,0.9792969289245671,0.0,0.0,0.0,0.0
-0.0037453294750106913,-0.11701965188564634,0.749220519369362,-0.0002345043973524618,-0.5204131151145808,0.0001439993238481347,0.8539145823140745,-0.09871983842560222,-0.8003973713686309,0.8601309390679373,0.09215252719594305,-0.8245865435229928,0.926225184085605,-0.25074500461693927,0.6731991297263192,1.0445805385291076,0.25602871288826123,0.7161672831327449,0.9800896684801789,0.0,0.0,0.0,0.0
