zhuoxili-jackie/tripod-support-walk/examples/trajectory_trot_sideways_p3_v0.10.csv
root_pos_x,root_pos_y,root_pos_z,root_rot_x,root_rot_y,root_rot_z,root_rot_w,FL_hip_joint,FL_thigh_joint,FL_calf_joint,FR_hip_joint,FR_thigh_joint,FR_calf_joint,RL_hip_joint,RL_thigh_joint,RL_calf_joint,RR_hip_joint,RR_thigh_joint,RR_calf_joint,FL_foot_joint,FR_foot_joint,RL_foot_joint,RR_foot_joint
0.0,0.0,0.664888,-0.0038739181747107386,-0.3883128170371229,-0.008248016113749812,0.9214825658214358,-1.78e-06,-0.523593,-0.523596,-4.59e-06,-0.523609,-0.523606,8.76624e-06,-1.88e-06,1.04721,-2.47e-06,-1.36e-05,1.04719,0.0,0.0,0.0,0.0
0.00041875100803091944,-0.00021995888628226565,0.6643506561052425,-0.0037642873182927757,-0.3885975545970146,-0.00820116180022976,0.9213633982568074,0.00045239221099033753,-0.521798870796247,-0.5272013166788774,0.0004495956576755972,-0.5206986612721509,-0.5299612599842121,0.0003951302097646683,-0.0018238923602742518,1.0530307659150198,0.00038384871070149657,-0.0024348805487069388,1.0546069897427437,0.0,0.0,0.0,0.0
0.0012951898790287144,-0.0006803361853467773,0.6635189678409817,-0.0037259561963731832,-0.3887470221906509,-0.008116828478817794,0.9213012466526732,0.0015318079418032101,-0.517084915284593,-0.5380396398270976,0.001530287484138245,-0.513820611530116,-0.5457666157427863,0.001766651657367404,-0.0043974818788703,1.0608121312718155,0.001756507790224198,-0.006043484179386683,1.065596869273,0.0,0.0,0.0,0.0
0.0027161676370344497,-0.0014509450465087536,0.6626328191414654,-0.0037328965807621813,-0.3888641420499343,-0.008004809099952166,0.9212527707107095,0.0035054736800695136,-0.5084977181404738,-0.5561390237412558,0.0035092997097782973,-0.501930853446245,-0.5715642610102774,0.004245979496037176,-0.006124211931450131,1.068827817953407,0.004242378475809495,-0.009411358988318467,1.0788298761532575,0.0,0.0,0.0,0.0
0.004831477590945425,-0.002788257747565292,0.662282190773849,-0.0037345151125621158,-0.3892380437470137,-0.007927758468151419,0.9210955158627918,0.007474870720279667,-0.49418750083626,-0.5802161621397102,0.007498789370535326,-0.4825285568102686,-0.6085170746431532,0.008346179975976052,-0.0030912234460217544,1.072770917202545,0.008365130459701149,-0.009323594284067744,1.0914814489772835,0.0,0.0,0.0,0.0
0.008007087650861888,-0.005319072395198414,0.664023805835463,-0.0037053864516431224,-0.39057793175534716,-0.008013619757379454,0.9205275287764856,0.016000544701784747,-0.4686892998644822,-0.6084994581150346,0.016106814442728594,-0.4485467738597729,-0.6603642745372403,0.01564420434463034,0.014728744417232136,1.0612195374328204,0.015735061071603995,0.002619374536390882,1.0959182115573582,0.0,0.0,0.0,0.0
0.011078689835237477,-0.007990996795990751,0.6650022405155389,-0.0034101562572568566,-0.39013189174466506,-0.00804006759537948,0.9207175653755563,0.024640973668900945,-0.4474724700048709,-0.6414407043887449,0.017676143725834235,-0.4809884932613722,-0.6172701279532286,0.019508621439340363,0.007343649599321281,1.071169976999137,0.023038532966655714,0.009299160057858987,1.0992138020902935,0.0,0.0,0.0,0.0
0.014698067606037871,-0.010762700777166496,0.6660861191262691,-0.003247528344840727,-0.3895991470635188,-0.007975347131821173,0.9209442719324308,0.033402774711569744,-0.4233063014418263,-0.6798526866738727,0.018102548539016747,-0.5054799222313969,-0.5951021239915675,0.023601538218781932,0.0005460102849704886,1.0820570526920459,0.0312964770596412,0.017536839804812496,1.102232573225519,0.0,0.0,0.0,0.0
0.018108266534894397,-0.013684435198319135,0.667263580365967,-0.0030617144686251414,-0.3893510788657461,-0.007943923860602761,0.9210500840694218,0.04288256229103528,-0.4020289429804683,-0.7103266928326483,0.01965384820612768,-0.5235844974147853,-0.5851128568398051,0.028486986769655203,-0.005269131665944857,1.093314469156641,0.04000625962044133,0.02621812924691791,1.1052264138499897,0.0,0.0,0.0,0.0
0.021097240978381854,-0.016685124472332117,0.6685530369946846,-0.0028533334337495124,-0.38930195584864097,-0.00793320876526973,0.9210716095176451,0.05270143262760084,-0.3841286750255334,-0.732576879643239,0.022231979318922318,-0.5373004196533024,-0.581938883610287,0.03422503051359081,-0.010592345942706319,1.1044379705641638,0.048969240152141214,0.035080080369791565,1.1072083957148988,0.0,0.0,0.0,0.0
0.023583249664109247,-0.019702693237572556,0.6699245658665585,-0.002636604243343257,-0.38935912821941127,-0.007924388851339845,0.9210481646752339,0.06251092001706422,-0.3696731333382911,-0.7473809114093458,0.0255588538053642,-0.5481730882050639,-0.5825400533011771,0.04059297301042457,-0.0158014762908465,1.1151665668417339,0.058038460503157766,0.04376340491967478,1.1078703950458573,0.0,0.0,0.0,0.0
0.025569380083651987,-0.022678868978167805,0.6713425405758103,-0.0024232668119406157,-0.3894623668209727,-0.007907246531507253,0.9210052486606437,0.07203938483096559,-0.35842896009387953,-0.7558792653445892,0.029323853093774704,-0.5572979743259495,-0.5851709292825673,0.04728040617687914,-0.021087271340344518,1.125428057759714,0.06704453033547253,0.05203067194829638,1.107217000282362,0.0,0.0,0.0,0.0
0.02710774894536731,-0.025560586629193152,0.6727787853627535,-0.0022213208371664427,-0.3895770607394549,-0.00787772060534174,0.9209575022754359,0.08108292270012082,-0.34997205217773425,-0.7593391865577855,0.03323630947780494,-0.5654240863803269,-0.5888258505034671,0.054010437461184224,-0.026539005785189085,1.1352660350297714,0.07581286943832233,0.05979335691506129,1.1053533624978467,0.0,0.0,0.0,0.0
0.02827366772290037,-0.028302889541479522,0.6742132715834769,-0.0020355071970744655,-0.3896853946537842,-0.007835443651936932,0.920912458231917,0.08949881929801805,-0.34378592355536036,-0.7590167689485552,0.037053545987339315,-0.5730500015184165,-0.5929312581345947,0.060581499070833295,-0.03219838992631599,1.1447816862120046,0.0841858325392904,0.0670683950289504,1.1024130284033027,0.0,0.0,0.0,0.0
0.02914810927355391,-0.030870703966418445,0.675631064215131,-0.00186808134102673,-0.38977967414636716,-0.007782102466049459,0.920873365222202,0.09719835920106014,-0.3393390131210021,-0.7560696426896973,0.04058940765121043,-0.5805018022269675,-0.5971703802326529,0.066867866669401,-0.0380837032287871,1.1540955869509415,0.09203673314277426,0.07392304105568971,1.0985439430630668,0.0,0.0,0.0,0.0
0.029806737826332155,-0.03323891227128697,0.6770188065434166,-0.001719564439313386,-0.38985775446333937,-0.0077203643611652275,0.9208411211262627,0.1041370819348196,-0.3361396539424876,-0.7515057666314464,0.04371118242900044,-0.5879900686736409,-0.6013809350508235,0.0728057173984134,-0.044196542729196875,1.1633246173641705,0.0992744338271348,0.08042917344568346,1.093912799141366,0.0,0.0,0.0,0.0
0.030313845712930748,-0.03539100113472834,0.6783614494846674,-0.0015894152504784234,-0.3899199200878654,-0.007653160656208282,0.9208155943563318,0.11030329446057849,-0.3337718832685679,-0.746160109084128,0.04633163675833284,-0.5956435234651012,-0.6054926615888138,0.07837612570159379,-0.05051832438459383,1.1725668829972102,0.10584072510112538,0.08662998137168669,1.0887147105290989,0.0,0.0,0.0,0.0
0.030719641005179883,-0.0373167967134303,0.6796390580249778,-0.0014766516409540802,-0.3899666655191863,-0.007583214816405934,0.920796565011418,0.11570645609490242,-0.331916992448484,-0.7406918814511787,0.048399941185437036,-0.6035153125706669,-0.609484003308888,0.08358456252362934,-0.05699912717014334,1.1818865324926235,0.11170353317298323,0.09251543744289639,1.0831864514704,0.0,0.0,0.0,0.0
0.031059442517168714,-0.03900977083464642,0.6808236152689173,-0.001380460495859966,-0.38999717340275486,-0.007512810739085893,0.920784370382925,0.12036681706519949,-0.33036591038862734,-0.7355932886661786,0.04989257279367508,-0.6115561891490211,-0.6133429490967418,0.08842848826651087,-0.06353887693545654,1.191287719964483,0.116848403902718,0.09800294157630202,1.0776231015389752,0.0,0.0,0.0,0.0
0.03135353452444409,-0.04046430984617614,0.6818764022641811,-0.0013007977211258591,-0.3900087902203603,-0.007443926249673045,0.9207801254578257,0.12430716017794465,-0.3290263958845327,-0.7311978932829525,0.05080281187541245,-0.6195500637099322,-0.6170201987839775,0.09284112967512216,-0.06995831128223015,1.2006617958664578,0.12126957642653236,0.10292348213736903,1.07239402788788,0.0,0.0,0.0,0.0
0.03160691323770788,-0.04167341874624217,0.6827473973671987,-0.001238854126274721,-0.3899993411664355,-0.0073790036500147975,0.9207847356659065,0.12754712210253819,-0.32792581194368686,-0.727670584542639,0.051126512893522755,-0.6270173081084247,-0.6203623964293612,0.096606739097887,-0.07595052019033723,1.2096885944177913,0.12496158412277279,0.1070205957281984,1.0679525576102908,0.0,0.0,0.0,0.0
0.03185322496547662,-0.042607915411047845,0.6833850427952459,-0.0011996852591819925,-0.3899583554949815,-0.0073216003465195025,0.9208026042009734,0.13005398812456145,-0.32685909363532634,-0.7256792276469407,0.05068152297099625,-0.6331028218632972,-0.6230518017973902,0.09920673199324806,-0.08091536595184042,1.2177167958111281,0.12786122157506186,0.11009170272823118,1.0647133819953472,0.0,0.0,0.0,0.0
0.03202953790519097,-0.04326939487620006,0.6837468285674154,-0.0011844257409550582,-0.38990602224846715,-0.007283146180733055,0.9208250901945233,0.13187669606179703,-0.32630193494588344,-0.7244061855015754,0.04943682753179858,-0.6366000744757591,-0.6245367910537352,0.09991405638934815,-0.08400244008069008,1.2232982444007972,0.12996195221669068,0.11179727692707432,1.0630908136190464,0.0,0.0,0.0,0.0
0.03211189634137985,-0.04364615731558426,0.6838275551030226,-0.0011932714810528014,-0.38987144702854065,-0.007281904902359045,0.9208397280504558,0.13303688715190468,-0.3263699218960621,-0.7234852427100994,0.04722399226459926,-0.6362669532661616,-0.6241705529275787,0.09796989546046128,-0.08370432412091487,1.2240477631800601,0.1311954743590647,0.11208188248792374,1.0632017568537409,0.0,0.0,0.0,0.0
0.03208564449465274,-0.04374054332018858,0.6836326520111701,-0.001226278152784499,-0.3898556825715202,-0.0073174853059689415,0.9208460769408658,0.13353590644075147,-0.3271516811923902,-0.7227306199865872,0.04407321083423932,-0.6321077171988961,-0.6219108392190175,0.09338171128986764,-0.08002613640350428,1.2199139004097852,0.131566942838755,0.11094287805157146,1.0650004197564777,0.0,0.0,0.0,0.0
0.03194536316307377,-0.043569761755493715,0.6831788705281785,-0.0012825963079060741,-0.38983199146870745,-0.00737153565235816,0.9208555987973243,0.13336112017883117,-0.3287057504349343,-0.7221318242951262,0.040205321395457336,-0.6253552497128635,-0.618348500616475,0.08691769817738967,-0.07448704962378103,1.21318591626611,0.1311530437235329,0.10843244233292529,1.0682733451100572,0.0,0.0,0.0,0.0
0.03168598407966175,-0.04315629790830082,0.6825164530639594,-0.0013576127699809293,-0.38979401290544846,-0.007434082966166341,0.9208710652426245,0.1325241607084302,-0.3310227532469841,-0.7215206767908251,0.035819663877379976,-0.617212732013996,-0.6139830186179533,0.07935730571572248,-0.06802405826587306,1.2051818242233845,0.1300141805168655,0.10478923772984884,1.0725859992591038,0.0,0.0,0.0,0.0
0.03129319336694325,-0.042520214187239024,0.6817051825984731,-0.001447313052603963,-0.3897457471001198,-0.007500461201344503,0.9208908192527844,0.13103807391019243,-0.33412757014264044,-0.720565748256854,0.03102885641345929,-0.6085277829809842,-0.6091039261726884,0.07119978402199269,-0.06119336608428457,1.196555981306849,0.1281921002308981,0.1002926006802574,1.077437058298635,0.0,0.0,0.0,0.0
0.030742369317157098,-0.041678092448965386,0.6807995711653093,-0.0015494477004617498,-0.3896933757882822,-0.007568369761234377,0.9209122606729229,0.12891317905929986,-0.33811721339082595,-0.7188167100252483,0.02589451306367565,-0.5997918823317889,-0.6038377560319285,0.06268776218834986,-0.05433113732645349,1.1875858363808596,0.1257188406781026,0.09517725322087883,1.0823614427750508,0.0,0.0,0.0,0.0
0.030001060171196595,-0.040644590323055424,0.6798437543144834,-0.0016632473406135893,-0.3896415869833473,-0.007636255375767289,0.9209334150226164,0.12616092295874393,-0.34316072354972993,-0.7157434175858842,0.020464281130633415,-0.5912373714250012,-0.5982239773978852,0.05391178549934916,-0.04763935773650897,1.1783513079730188,0.12262638522757892,0.08960854610275706,1.086969133513973,0.0,0.0,0.0,0.0
0.029032392972616845,-0.039434923189343975,0.6788720850815891,-0.0017887894964968621,-0.3895925856933453,-0.007702654322726807,0.9209533574081237,0.12280098304055209,-0.3494849335404746,-0.7107589291698744,0.014788404853043235,-0.5829344000254153,-0.5922791659650787,0.04490118435962947,-0.04123329320763843,1.1688397238245483,0.11895550318314914,0.08369168554545237,1.0909436204715657,0.0,0.0,0.0,0.0
0.027799018461491284,-0.03806756139655613,0.677912046474147,-0.001926438107281777,-0.3895463040954282,-0.0077660517058561205,0.9209721245741985,0.11886970669999106,-0.357354720583386,-0.7032355929872646,0.008917745502389215,-0.5748531988300085,-0.5860416480010076,0.035679018886573585,-0.03516887412857015,1.1590072547569552,0.11476395130859825,0.07749506403327448,1.0940248394089667,0.0,0.0,0.0,0.0
0.02626833903016742,-0.036566671373319315,0.6769874241426067,-0.0020764677915624933,-0.38950101214061933,-0.007824963308441565,0.9209904558529177,0.1144285357177129,-0.36704609551090256,-0.6925315974047448,0.002885949061378716,-0.5668836363424765,-0.579600172148655,0.026283411737138454,-0.029454988115982756,1.148822292057204,0.11013372936427143,0.07107749720154061,1.0959931504530933,0.0,0.0,0.0,0.0
0.024420273050555764,-0.03496379057639809,0.6761206124775083,-0.002238882184696076,-0.38945403361523534,-0.00787806973131739,0.9210094891610481,0.109570651029238,-0.37880405786181615,-0.6780504624800126,-0.0033242093630602666,-0.5588134589232964,-0.5731133937116886,0.016759112568760753,-0.02404862032211951,1.138311313664863,0.10517620312183366,0.06451541863180674,1.0966644558549061,0.0,0.0,0.0,0.0
0.022259043904196217,-0.03329827233796732,0.6753329863747092,-0.0024134656920720833,-0.3894024907288896,-0.007924146813868911,0.9210304464537329,0.10442343417199274,-0.39277229836232697,-0.6593639495016642,-0.009826270945420126,-0.5502723486475389,-0.5668312366325107,0.007118393398053579,-0.018828094257331004,1.1276232978029928,0.10003425473839614,0.057926628601742684,1.095907584893517,0.0,0.0,0.0,0.0
0.019830406661106213,-0.03161693072049517,0.674640334424478,-0.002600119542147635,-0.3893439227194599,-0.007961175162733874,0.9210543789102889,0.09914582065597391,-0.40888078785910076,-0.636438789372091,-0.016859648960651476,-0.5406647435169742,-0.5611445043798001,-0.002725559546598288,-0.013544022599230043,1.1171201740408792,0.0948845788561263,0.05147558760044574,1.093715014644296,0.0,0.0,0.0,0.0
0.01724464480330693,-0.029977098690384976,0.6740324368545189,-0.0027992528467003022,-0.3892782532130769,-0.007983338417227372,0.9210813601775859,0.09392922387721779,-0.42669705285175247,-0.6099901394287356,-0.02470716251267935,-0.5291631904620873,-0.5567172794520112,-0.013010798441489268,-0.007778319273338384,1.1074993538128082,0.08995754778845871,0.04529973595239148,1.0904432304962508,0.0,0.0,0.0,0.0
0.014887214960043643,-0.028385089249944956,0.6734321309336432,-0.0030112877981547186,-0.38910275002711736,-0.007991338983935932,0.9211547755770335,0.08891673586539783,-0.44358522163556807,-0.585621748502685,-0.033817888106750696,-0.5151335617137612,-0.5547295704209164,-0.024436117062611413,-0.0008999449495966493,1.1002401533135764,0.0853196160505663,0.0395867038853769,1.086903783400756,0.0,0.0,0.0,0.0
0.013042399097576955,-0.02696353313666663,0.6729827393539096,-0.003206976592615626,-0.3889007541726425,-0.007989307977948851,0.9212394312355056,0.08445808702130721,-0.4569290997946165,-0.5668419546024113,-0.04390204135267764,-0.49837536847951247,-0.5572323519460546,-0.03641239216420916,0.006242867421956371,1.0967923798112227,0.08127946210406978,0.035467521798373085,1.0830304581382697,0.0,0.0,0.0,0.0
0.011991404735184653,-0.025959795201776874,0.6727999222462265,-0.00332718660377626,-0.3887484170879877,-0.007959126970378335,0.9213035603636606,0.08120330210473838,-0.4642539030296919,-0.5569025370480661,-0.052584395103507264,-0.48063747386419803,-0.5679695584359791,-0.04648409324385365,0.01076645457174481,1.0987284722830954,0.07847517472858809,0.03375337482792553,1.0794141953912506,0.0,0.0,0.0,0.0
0.011990370224364737,-0.025857616857235137,0.6727582377935903,-0.0034223697156233793,-0.38876610294321906,-0.008004779738636015,0.9212953533418086,0.08112330456033019,-0.4643726433494303,-0.5568831634448711,-0.05260529975144165,-0.48063467658711545,-0.567979061972762,-0.04648018060254076,0.010795046727825412,1.0987393526502771,0.07839237210966782,0.03373926888795149,1.0793718011675906,0.0,0.0,0.0,0.0
0.011990370224364737,-0.025857616857235137,0.6727582377935903,-0.0034223697156233793,-0.38876610294321906,-0.008004779738636015,0.9212953533418086,0.08112330456033019,-0.4643726433494303,-0.5568831634448711,-0.05260529975144165,-0.48063467658711545,-0.567979061972762,-0.04648018060254076,0.010795046727825412,1.0987393526502771,0.07839237210966782,0.03373926888795149,1.0793718011675906,0.0,0.0,0.0,0.0
0.011708123903664405,-0.025342891212304475,0.6723366006807143,-0.003584220044267534,-0.38869427983725985,-0.00801056203425153,0.9213249921088452,0.07968199940538255,-0.46663731603707204,-0.5558727578328715,-0.05417847994120637,-0.485373233885183,-0.5603826457406363,-0.0475885695717357,0.007509077554558379,1.1030409530576328,0.0773077280223473,0.03161771946224356,1.0807258946808096,0.0,0.0,0.0,0.0
0.011810285079269588,-0.024633924527839957,0.671741351141619,-0.003684624508583919,-0.3886177354537411,-0.008015816796371663,0.9213568396197663,0.0776677985373506,-0.4654479813506236,-0.5621129793188933,-0.05649586553333765,-0.48785888996633764,-0.557404017041636,-0.049565938885050065,0.003782673555956133,1.1099402852307962,0.07549750700305406,0.029353818224426093,1.0836426810808422,0.0,0.0,0.0,0.0
0.012466880586961328,-0.023837528445861598,0.6712024809448027,-0.003728943946346838,-0.3886313320016258,-0.008046730932245972,0.9213506568538339,0.07546852645195017,-0.4592341483543547,-0.5767969177927815,-0.059094153246396185,-0.48575810878015524,-0.5620882662838301,-0.05215133383268805,0.0012906591929778342,1.117884270980411,0.07325547935139287,0.028396959754378094,1.0870528212113841,0.0,0.0,0.0,0.0
0.013824946807037664,-0.022843074358351183,0.6710476349499799,-0.003730162167036468,-0.38888946004244335,-0.008114160386346242,0.9212411379000229,0.0726989721962288,-0.44612000825708464,-0.6013533625328508,-0.06223143689829317,-0.4774126432778014,-0.5751286371670201,-0.05571198854964008,0.0019893340104491625,1.125327605771152,0.07023897222818964,0.030930096237544336,1.088671628660992,0.0,0.0,0.0,0.0
0.01618715658779192,-0.021309156126605895,0.6723589430703049,-0.0037357763081001466,-0.38991778118882187,-0.008273568515470063,0.920804928284043,0.06823665430946232,-0.4210152118405962,-0.6382489722864231,-0.06652399974771094,-0.45893830974691296,-0.5958799533021021,-0.06136811618788748,0.012034289501856959,1.1269303756565858,0.06535677415482424,0.043810023039553544,1.0807984064067049,0.0,0.0,0.0,0.0
0.018388212255715478,-0.01951140752716371,0.6728725625689975,-0.004098231071269928,-0.38959807374786004,-0.008183908989272435,0.9209395034787566,0.05472335161323798,-0.45576354558240467,-0.6005686456661813,-0.0729522609271454,-0.4447165139326327,-0.6175910943970139,-0.06611466804890492,0.016169101144252695,1.1297104011531525,0.05030448272012869,0.03400127444898536,1.0850410991812882,0.0,0.0,0.0,0.0
0.02112494895456813,-0.01780845848040703,0.6735214546409217,-0.0043731747623462075,-0.38925932667622376,-0.008211260691766977,0.9210812272193603,0.040470341637349694,-0.482986950514422,-0.5825373028163803,-0.07879293124596924,-0.4264395439451229,-0.6466932620116926,-0.07118982441380847,0.022179779738101486,1.1318362866619092,0.03330124399472571,0.023975819720080907,1.0912022651987776,0.0,0.0,0.0,0.0
0.023798536232218163,-0.01620344737717521,0.6742667895533344,-0.004617160490227677,-0.389091645666995,-0.008269095730519479,0.921150365117963,0.027714408997750996,-0.5034238922278185,-0.5757238900994425,-0.08418432154876089,-0.4091140440439782,-0.6728933878934755,-0.0761827136458543,0.028988593634039394,1.1332723067251442,0.017548845256654448,0.015398896622183036,1.0989997927027502,0.0,0.0,0.0,0.0
0.026199984180961314,-0.014725398219505558,0.67509822987432,-0.004840609740390571,-0.38906222708724,-0.008331654984224413,0.9211610800921205,0.016889273917019172,-0.5190083194346937,-0.5749150166565655,-0.08905903804134394,-0.39382715858985784,-0.6944524271776146,-0.08085630447524343,0.03612942012604257,1.133588156117625,0.0035003509050230835,0.008038101845937475,1.1077300387159497,0.0,0.0,0.0,0.0
0.028219707779994854,-0.013381989024713829,0.6759770350341325,-0.005046236644306646,-0.38911166857214174,-0.008395066991223736,0.9211385171226671,0.007483931945217619,-0.5314731873989119,-0.5773079281031558,-0.09337659840474154,-0.3810810703039057,-0.7109931612588076,-0.08511399205618674,0.04310886525961137,1.132760864743086,-0.00919408838715424,0.0012917263215564958,1.1167951635456936,0.0,0.0,0.0,0.0
0.029828022259951757,-0.012184541826315088,0.6768761418738255,-0.005235363443857026,-0.3891991835544589,-0.008461432135300121,0.9210998809338611,-0.00108180189174404,-0.5420786993185001,-0.5813535270529512,-0.09708503234599336,-0.37089084424064667,-0.7228914342340773,-0.08888257483724556,0.049657384633221655,1.1308633202989689,-0.020958642515173435,-0.005296749678040691,1.125834193867996,0.0,0.0,0.0,0.0
0.03104728367587509,-0.011149115064129871,0.6777818958665743,-0.005408186256184939,-0.3893006534057848,-0.008533635219096497,0.9210553348464982,-0.00917757050819461,-0.5516662352999725,-0.586173916304922,-0.10012975534830036,-0.3629808893412301,-0.730902673884507,-0.09209685967221252,0.055700956707419175,1.1279673328815962,-0.03209294251901866,-0.011994478707128583,1.134682938579925,0.0,0.0,0.0,0.0
0.03192769172073846,-0.010291805435720973,0.6786870863349815,-0.0055644001403067946,-0.3894033397990171,-0.00861337498342477,0.9210102530242781,-0.0169626039472448,-0.5607711057350665,-0.5912673317813187,-0.10247082128248647,-0.3569472065955595,-0.7359089590316706,-0.0947055348326753,0.061275896401694306,1.12414954597801,-0.042765031446380344,-0.018931950255871636,1.143301820015661,0.0,0.0,0.0,0.0
0.03252977379602005,-0.009625210055586607,0.679585034333344,-0.005703763286071902,-0.38950145500994476,-0.008700933120475313,0.9209670881157184,-0.024463834671523438,-0.5697263000336709,-0.5963533203854932,-0.10409060933312544,-0.3523635944998484,-0.738769730732152,-0.09667647226486878,0.06645708320300903,1.1195112731823404,-0.05305773358512818,-0.026159831887043766,1.1517172186375138,0.0,0.0,0.0,0.0
0.0329132115557974,-0.009157411391613614,0.6804661260607852,-0.005826379196991173,-0.38959294563918795,-0.008795601353694145,0.9209267220634118,-0.03164798814404797,-0.5787373307442499,-0.6012864970203994,-0.10499180244286654,-0.34884276391996333,-0.7402456831846985,-0.09799615925641775,0.07131147260353803,1.114189505191878,-0.0630145058536847,-0.033685242275979355,1.1599830361453258,0.0,0.0,0.0,0.0
0.033130514207545994,-0.008892899586063062,0.6813157410322705,-0.005932698025898092,-0.3896771995628049,-0.00889615599846342,0.920889429651288,-0.03846659733753334,-0.5879244143933804,-0.6060031878501566,-0.10519020097663709,-0.34606813793808594,-0.7409687617094508,-0.09866429204834277,0.0758702031690098,1.1083615867568692,-0.07266766635188472,-0.04148624700672006,1.1681560394032573,0.0,0.0,0.0,0.0
0.033223870918442075,-0.008834515644522036,0.68211245593034,-0.006023288257753911,-0.3897533917743219,-0.0090011291032224,0.9208555767729503,-0.04487741737871826,-0.5973312145662815,-0.6104816566377151,-0.1047063154586136,-0.3438092937594979,-0.7414379073621216,-0.0986861152305455,0.08011038011306446,1.1022502710417246,-0.08204427244556008,-0.04950904865868086,1.1762749378101847,0.0,0.0,0.0,0.0
0.033223706998858786,-0.008985708856704501,0.682826129699476,-0.006098450341370962,-0.3898194003752747,-0.00910877810337705,0.9208260824694089,-0.050850332815442274,-0.6068981765740693,-0.6147035125111202,-0.10355796031938208,-0.3419299201843828,-0.742024868753157,-0.09806442506004265,0.08394122586770708,1.096131785752145,-0.09114533019607315,-0.05765109380662123,1.1843310186255753,0.0,0.0,0.0,0.0
0.03314780714729921,-0.009352673744933615,0.6834164649852751,-0.006157729826443922,-0.389871536152752,-0.009216676706191243,0.9208025415537098,-0.05636185178907918,-0.6163989510540592,-0.6186078766244538,-0.10175471613457177,-0.3403928669487593,-0.7429773336903988,-0.09679209224850033,0.08719516719286952,1.090342381996065,-0.09989182378886297,-0.06572930071204774,1.1922146315849191,0.0,0.0,0.0,0.0
0.03300041925508691,-0.009946056876321486,0.6838337923540747,-0.006199442708276153,-0.38990568652203283,-0.00932081656754749,0.9207867532205289,-0.0613761111905339,-0.6253470582877744,-0.6220359665775781,-0.09929459362301332,-0.3392613203213249,-0.7444100897636444,-0.09484516752376458,0.08963184898361018,1.0852702362292581,-0.10803590534667692,-0.0734260111729689,1.199616419451722,0.0,0.0,0.0,0.0
0.032771806321184746,-0.010781721457663191,0.6840249928211131,-0.006220514252265645,-0.38992084199220045,-0.009414148401470385,0.920779243897475,-0.06580871964240669,-0.6329063138072867,-0.6246769153303762,-0.09616375094938656,-0.3386865962144774,-0.7462827306427319,-0.09217693791767693,0.09097148839378817,1.0813120247433827,-0.11506238760193044,-0.08019466246526674,1.205855685959129,0.0,0.0,0.0,0.0
0.032440615675173166,-0.01187916931984718,0.6839478771753568,-0.006217400035976986,-0.3899260024841843,-0.009484790937933838,0.9207763546401265,-0.06948859748751232,-0.6378981496058828,-0.626052896116408,-0.09234248098911892,-0.338861666267648,-0.7483789368129459,-0.08871594739099695,0.0909789334635688,1.0787750415837523,-0.12017683988998328,-0.08509564765384672,1.2096042791279225,0.0,0.0,0.0,0.0
0.03198353966476623,-0.013254340424153176,0.683593429736185,-0.006189537425438727,-0.38994752213479417,-0.009515086236851817,0.9207671164530685,-0.07220510392878597,-0.6391164045740064,-0.6256538031472075,-0.08782628321153714,-0.3399196335448591,-0.7503364509591577,-0.08437712916070289,0.08959743451102554,1.0777352163610672,-0.12260430598831841,-0.08661045856025075,1.2085901727948503,0.0,0.0,0.0,0.0
0.031383316501894055,-0.0149135380461263,0.6829635966944542,-0.00613709681177345,-0.3899863198378036,-0.009503234879215738,0.9207511579731625,-0.0739267120792901,-0.6365669446598525,-0.6234592620219238,-0.0825860623141273,-0.34197646270465354,-0.7519369985077353,-0.07912982643347494,0.08682043499618575,1.078103106268046,-0.12230819510180738,-0.08473634861819912,1.202838176061947,0.0,0.0,0.0,0.0
0.0306295995717857,-0.016854112594042358,0.6820703820611788,-0.006061311356262313,-0.3900191161576855,-0.00946354643201589,0.9207381771302575,-0.07482440087541162,-0.631460567025204,-0.6199544770431523,-0.07656261728267508,-0.3451267823956808,-0.7531126652015404,-0.0729980465227387,0.08269115577772979,1.0796388610032333,-0.1199982364663353,-0.08099137256269474,1.1946404624748874,0.0,0.0,0.0,0.0
0.0297113123857782,-0.019070088003312592,0.6809570105654154,-0.005966381358003785,-0.3900404322083614,-0.009405463813067364,0.9207303626940226,-0.0750536785735404,-0.6249827714111786,-0.6155957816137405,-0.06970967326770228,-0.349399771694537,-0.7536645611452839,-0.06599926867408781,0.07742675703982668,1.081894959856002,-0.11641578594447546,-0.07633356494951696,1.185316161611153,0.0,0.0,0.0,0.0
0.02860774626290472,-0.021557691166746194,0.6796760299622433,-0.005855744328811817,-0.39005415007792005,-0.009334420289492384,0.92072598467905,-0.07469198914603488,-0.6179854126410937,-0.6106699919570473,-0.06198460629340752,-0.35485510225438055,-0.753239118625625,-0.05814104747147682,0.07128702094583104,1.0843531808293136,-0.11203420117183291,-0.07134035773743867,1.175518737491608,0.0,0.0,0.0,0.0
0.02728817361236092,-0.02431501663693981,0.6782762026915314,-0.005731221592646831,-0.3900664957302801,-0.009253326121710488,0.920722356611069,-0.07377321034188199,-0.610979405650374,-0.6053175021414816,-0.05335222534822339,-0.36161890285460563,-0.7513556108433104,-0.049430157533548645,0.0645010636244389,1.0865142875322344,-0.10707291080689789,-0.06636031231914923,1.1655182784447446,0.0,0.0,0.0,0.0
0.02571518112495689,-0.027339235764571444,0.6767982916294604,-0.005593381498559757,-0.3900827175009389,-0.009163893575016478,0.9207172262128259,-0.07232685132589706,-0.6042240479375872,-0.5995950668471143,-0.0437932129495987,-0.36988298496970035,-0.7474379823639653,-0.03988566801121055,0.05724914026395642,1.0879326749729024,-0.10160258236983902,-0.06159778366648791,1.1553761971485625,0.0,0.0,0.0,0.0
0.023849162951560934,-0.03062270034876965,0.6752761693021468,-0.005442208320159526,-0.39010589205959756,-0.00906764760636876,0.920709266335401,-0.07040195325049756,-0.5978210476322837,-0.5935349373618938,-0.033315398655465206,-0.37988901039531164,-0.740838603225175,-0.02955324218890208,0.04967522164178272,1.0882167141394399,-0.09564709012793898,-0.05716058713331543,1.1450460307343406,0.0,0.0,0.0,0.0
0.0216535162733101,-0.034148371476765395,0.6737401649256181,-0.005277747358837675,-0.39013658570478144,-0.00896669675968334,0.9206982069205152,-0.06807816629736393,-0.591777340651789,-0.5871869992280329,-0.021967593632783305,-0.3919065266970739,-0.7308592427190069,-0.018520073859866842,0.041911586433237794,1.0870179168992908,-0.08925949451473608,-0.05308632028824622,1.1344308019584561,0.0,0.0,0.0,0.0
0.01910119881140352,-0.03788473680397994,0.6722204067699599,-0.0051006492671935464,-0.39017264904513593,-0.008864314031216344,0.9206849142083899,-0.06546688454163187,-0.5860253747715803,-0.5806418265537961,-0.00985567942554056,-0.40620525868859986,-0.7167832853783612,-0.0069297724876107355,0.034103161458003545,1.0840283018624988,-0.08257432832177496,-0.049351348428423786,1.1234209890346765,0.0,0.0,0.0,0.0
0.016183874782809977,-0.04178024103301482,0.6707480131027739,-0.0049125613883008856,-0.3902087888806047,-0.008765239737471684,0.9206715692326349,-0.0626998463032975,-0.5803990420067031,-0.5740368433629692,0.0028394308007337853,-0.42301739704014285,-0.6979394869521823,0.005003842455940788,0.02642039785795087,1.0790066310515884,-0.07583864667312609,-0.04585875237896856,1.111930391560146,0.0,0.0,0.0,0.0
0.012925295170156389,-0.04575663582678208,0.6693503358691616,-0.004716303551852076,-0.39023533300349494,-0.008675163509529788,0.9206621980371199,-0.05990248481675597,-0.5745718199426035,-0.5675590360502499,0.015839620013249574,-0.4424840438414863,-0.6738272847309483,0.016984604378523876,0.01903901723956655,1.0718699343322233,-0.06941359747876229,-0.0423970276100126,1.0999383865727026,0.0,0.0,0.0,0.0
0.00940065146541064,-0.04969842579371969,0.6680311511920816,-0.00451638925218046,-0.39022976162348183,-0.0085885881999566,0.9206663736251774,-0.05722690429643707,-0.5679966621477694,-0.5615427067179237,0.028691720179015848,-0.46458009559610264,-0.6443594519227375,0.028639953963357143,0.012020254854383378,1.0629034119262797,-0.06370318609319359,-0.03856979147209542,1.0875347791014114,0.0,0.0,0.0,0.0
0.005744839547874089,-0.05345699060063216,0.6667444562310058,-0.004307843969728752,-0.3901237469555154,-0.008544120710068933,0.920712714446267,-0.05584331075007251,-0.5603021387520382,-0.55647145464253,0.04104129679586463,-0.4891209277347352,-0.6103395096560276,0.03940871682119186,0.005174276172211983,1.0529740181007268,-0.059117725611383766,-0.03380533394911804,1.0749522277603398,0.0,0.0,0.0,0.0
0.0024578264076466232,-0.05684401878933778,0.6654836612287847,-0.004110484615932158,-0.3898638397590337,-0.00847830830830593,0.9208243093298493,-0.05545869702032172,-0.5512546910173692,-0.5528634824567193,0.05202291576695034,-0.5128611847705994,-0.5777089197540186,0.04893190135712737,-0.0011671384256395044,1.0434607223964534,-0.0559389605562127,-0.027693494242991525,1.0628081115688015,0.0,0.0,0.0,0.0
-0.00019997688792186248,-0.05955114993755245,0.6644152959128012,-0.0039373904420428,-0.38948576388206724,-0.008404559418598447,0.9209857219689612,-0.0566373852155725,-0.5415733923280499,-0.5517424204785593,0.060716725772216276,-0.5334529532888476,-0.5496410792449234,0.056371423289695785,-0.006332610329428377,1.0350026203921654,-0.054579344312355546,-0.02088346659307861,1.0510479115933216,0.0,0.0,0.0,0.0
-0.001822096602078041,-0.06118309253356343,0.6637255421287697,-0.0038301430774522133,-0.3890559882309521,-0.008314619829625702,0.9211686246951382,-0.05905549398148876,-0.5335530267365778,-0.55422645255114,0.06580584329631765,-0.5469732034242234,-0.5318095159434573,0.06080653333834217,-0.009595576648618955,1.0289481985638957,-0.05465896077963874,-0.014857882338596038,1.0402942019022536,0.0,0.0,0.0,0.0
-0.001770421275370048,-0.06131373154157862,0.6636398711350676,-0.003738310345983527,-0.3890772751461921,-0.008249989034134068,0.9211605922321624,-0.05905880421960585,-0.5335647844958527,-0.5542528940482537,0.06593804856784197,-0.5471464113840175,-0.5317633697192509,0.06096263087588081,-0.009544032818314122,1.0289042120073655,-0.05468937969931416,-0.014824270853850406,1.0402956439880298,0.0,0.0,0.0,0.0
-0.001770421275370048,-0.06131373154157862,0.6636398711350676,-0.003738310345983527,-0.3890772751461921,-0.008249989034134068,0.9211605922321624,-0.05905880421960585,-0.5335647844958527,-0.5542528940482537,0.06593804856784197,-0.5471464113840175,-0.5317633697192509,0.06096263087588081,-0.009544032818314122,1.0289042120073655,-0.05468937969931416,-0.014824270853850406,1.0402956439880298,0.0,0.0,0.0,0.0
-0.001770421275370048,-0.06131373154157862,0.6636398711350676,-0.003738310345983527,-0.3890772751461921,-0.008249989034134068,0.9211605922321624,-0.05905880421960585,-0.5335647844958527,-0.5542528940482537,0.06593804856784197,-0.5471464113840175,-0.5317633697192509,0.06096263087588081,-0.009544032818314122,1.0289042120073655,-0.05468937969931416,-0.014824270853850406,1.0402956439880298,0.0,0.0,0.0,0.0
-0.0013531326460196002,-0.061616657291594885,0.6629648970445856,-0.003643412363958316,-0.38928375412724026,-0.008166178226199878,0.9210744800786344,-0.0585613304422305,-0.5324178122284388,-0.5577667002343359,0.06663979642117356,-0.5449580449196513,-0.5377909604010226,0.061818291492805176,-0.011976886981664802,1.0348988053648818,-0.054116776977302695,-0.018199806571871046,1.0489481177288822,0.0,0.0,0.0,0.0
-0.00049678660890039,-0.06216000731946672,0.6619798134889312,-0.003608572041558952,-0.3893670253355311,-0.008060545086959466,0.9210403494972855,-0.05749441117188351,-0.5287612587085997,-0.5678387994768045,0.06820683396131196,-0.5390400890195457,-0.5530399560930757,0.0636809076843565,-0.015283265953496767,1.0429799464766918,-0.05269640162596524,-0.022929268378110747,1.0613679980187372,0.0,0.0,0.0,0.0
0.0008997243810070771,-0.06305377241561233,0.6609529130659023,-0.0036088878661961928,-0.3894371507005604,-0.007941440272585573,0.9210117345121044,-0.05539744936224391,-0.5214122450722911,-0.5846991131727358,0.07100002407147327,-0.5281159400100746,-0.5783269982002629,0.06678230742475531,-0.01759928441666823,1.051029517011838,-0.05018069117018242,-0.027484933623092705,1.0762388384434272,0.0,0.0,0.0,0.0
0.0030032026087646255,-0.06462001341947357,0.660544067840239,-0.0035946846302221586,-0.38979632507581347,-0.007869216950652163,0.9208604555655453,-0.05076634966892769,-0.5080012780263303,-0.6075242327423277,0.07623049127151765,-0.5092171972501626,-0.6152625689382532,0.07181695576758095,-0.014478231064451782,1.0539215930878887,-0.04584501260535524,-0.028414780329554266,1.0906451562742445,0.0,0.0,0.0,0.0
0.006211734471058919,-0.06764704408136327,0.6625285217894163,-0.003560747313536373,-0.39114215735088825,-0.008037040943909755,0.9202882916751294,-0.03974582851251961,-0.4818081263450528,-0.6354988237162843,0.0870110462207387,-0.47412968039166853,-0.66885550287038,0.0807065781922522,0.005643382240096181,1.0377717713294172,-0.037632325895053956,-0.016576681320627007,1.0960970802358179,0.0,0.0,0.0,0.0
0.009384408580463535,-0.07054495063711809,0.6640095029113648,-0.003332082244408724,-0.3906142352617002,-0.007950610709587403,0.9205140977889357,-0.030892383244257537,-0.4589371905248078,-0.6706343291977312,0.0817081888518384,-0.5034892793478409,-0.6247424619740466,0.07868541594576667,-0.003045686891932343,1.0538620599503512,-0.029458157302053412,-0.007947797443837067,1.0973127575497745,0.0,0.0,0.0,0.0
0.01311917227103529,-0.07363281260011033,0.6655145299719569,-0.0032275673580469846,-0.3900333983765218,-0.007878797220193322,0.9207613455799357,-0.02123073216475678,-0.4335324957312556,-0.7102780661791782,0.0748840618406669,-0.5252619893145511,-0.6013686205311102,0.07662637481558959,-0.010023057464116946,1.068673818566631,-0.020343594070086374,0.0016634844488010447,1.099243171106463,0.0,0.0,0.0,0.0
0.016640224782667454,-0.07695281598363383,0.6669926750033921,-0.0030901727392838004,-0.3897378933650151,-0.007846156119808892,0.9208872152125824,-0.010405418850529731,-0.4113002068465009,-0.7416763020834579,0.07088546293285058,-0.5415295562446116,-0.5903758286116156,0.07678694011262809,-0.015756217248313602,1.0821429526314046,-0.01057914163808876,0.010995856966204667,1.1023529922122497,0.0,0.0,0.0,0.0
0.019734141228637227,-0.08039978785992175,0.6685206381910366,-0.002916945017901194,-0.3896494328278161,-0.007826380616295595,0.9209253817194815,0.0010258678687989076,-0.3925285919292246,-0.764673797316228,0.06965237000304907,-0.5540754274136694,-0.5864052254786019,0.07921063700521022,-0.020956314091768204,1.0944504825300394,-0.0003934082795111083,0.02018102490613656,1.105079754016475,0.0,0.0,0.0,0.0
0.022319606936683677,-0.08388843733304033,0.6701081420134981,-0.0027238498661974614,-0.3896749994005955,-0.0078010246299736515,0.9209153704324707,0.01259698574899906,-0.37718200595644,-0.7801159128884589,0.07037060857459183,-0.5641600178121744,-0.5863371673850568,0.08324327998052337,-0.026022384826427974,1.1057852275746511,0.010028317336040803,0.02911351154936452,1.1066873143773435,0.0,0.0,0.0,0.0
0.02439894185080825,-0.08735098298795052,0.671737073817152,-0.0025252825802346856,-0.38975371299201705,-0.007764324012320403,0.920882935790135,0.0239799386814765,-0.3650159957272242,-0.7891219936811521,0.07220875875175033,-0.5726739492048302,-0.5883559841987305,0.08815826439450332,-0.03112849227425335,1.1163375176895527,0.020491623678813867,0.03765848463129169,1.1069785822565523,0.0,0.0,0.0,0.0
0.026022860020397148,-0.09073246564576204,0.6733842614834138,-0.0023316575811078654,-0.38984982680070185,-0.0077160474941721435,0.9208431671720515,0.03494362737862178,-0.35564199100659266,-0.7929034005188028,0.07452543369064023,-0.5802543975509038,-0.591418789672003,0.09339207563736376,-0.036357538702933005,1.1262969670263896,0.03080857509988573,0.04574835789507389,1.1059886514478865,0.0,0.0,0.0,0.0
0.027265828998807896,-0.09398853259851118,0.6750297847778142,-0.0021495905849242946,-0.3899441197334871,-0.0076578853265189765,0.9208041700263521,0.0453273926525457,-0.34858957709616306,-0.7926633214815201,0.07688501749059312,-0.5873509223670252,-0.5949409134036868,0.0985810405828984,-0.04175611626773029,1.1358459805028702,0.040812406901925787,0.053391974845956675,1.103835771485531,0.0,0.0,0.0,0.0
0.028209134529465996,-0.09708455072559581,0.6766576557215559,-0.001982638378225097,-0.39002760180352425,-0.007592250191669448,0.920769730558884,0.05502664180615514,-0.3433653288642331,-0.7895252401994062,0.07901218836377116,-0.5942732743722655,-0.5986082407630524,0.10352264734515025,-0.047350864475632366,1.1451521781719234,0.05036614416355808,0.06064459397493899,1.1006688912147125,0.0,0.0,0.0,0.0
0.02892988660583917,-0.09999478412117827,0.6782534911253144,-0.0018322436200432772,-0.39009695980648657,-0.007521733399713028,0.9207412385462687,0.06398140280302167,-0.33950217870214344,-0.7844857504131872,0.08073919095717763,-0.601229376478461,-0.602266646557355,0.10812429181256974,-0.05315096641027259,1.1543617019051706,0.05936606696564232,0.06756976646840995,1.0966581950099201,0.0,0.0,0.0,0.0
0.02949456558498688,-0.10270114116472938,0.67980130879278,-0.001698546503657445,-0.3901514586603913,-0.007448852761073844,0.9207189955884953,0.07216576987716043,-0.3365961665376506,-0.7783876700222003,0.0819666150325108,-0.6083496026731793,-0.6058553506375594,0.11236050538331395,-0.05914344329351627,1.1635925447188253,0.06774005401090846,0.07420574469290699,1.0920029916470342,0.0,0.0,0.0,0.0
0.02995581273209397,-0.1051914565221094,0.6812800989986718,-0.001581051541164199,-0.3901908002770525,-0.007375916153655412,0.9207031201837386,0.07957791084207147,-0.33433165709938273,-0.7719098927213784,0.08263928032599452,-0.6156896405198496,-0.6093623060144595,0.11623784789480096,-0.06528225744697592,1.172923757266426,0.07544249686815559,0.08053843657387971,1.0869471605103012,0.0,0.0,0.0,0.0
0.030351192221795914,-0.10745749142537157,0.6826603850448378,-0.0014793126448007304,-0.390213538232925,-0.00730484220044366,0.9206942193227169,0.08623073750253094,-0.3324983963151256,-0.7655686278908921,0.0827315296008493,-0.6232034917052729,-0.6127860423250666,0.11975604229348705,-0.07147084594524769,1.1823719041225202,0.0824482048383728,0.08647948022493074,1.0817982315960812,0.0,0.0,0.0,0.0
0.03070269020218084,-0.10949302971857007,0.683901328570973,-0.0013934057079349807,-0.39021689533744075,-0.007237498965338354,0.9206934623545823,0.09214587078425912,-0.3310033495066151,-0.7597152135478554,0.0822404528645643,-0.6306803120074219,-0.6160898793729567,0.1228496115338459,-0.07753346302697843,1.1918399418615944,0.08874518906631197,0.09184983392220404,1.0769479779150195,0.0,0.0,0.0,0.0
0.031019080708613134,-0.11129132303499174,0.6849498581780475,-0.001324624678518121,-0.3901990511097229,-0.007176152287742354,0.9207016067765256,0.09734606035674032,-0.3298575384588837,-0.7545577804689928,0.08116933793110291,-0.6376495106661277,-0.6191343442280561,0.125304079698921,-0.08316307409123654,1.2010251421794453,0.09432694952999941,0.09638275119717248,1.0728865052573962,0.0,0.0,0.0,0.0
0.03137275850600295,-0.11281223438739894,0.6857545566693006,-0.0012792256625845818,-0.39014270846602067,-0.007124389780265224,0.9207259492828258,0.1017725098176527,-0.32859580144939604,-0.7512897203077505,0.07924817746674748,-0.6432574941112346,-0.6216219431734793,0.1265738563953186,-0.0876968072823957,1.2093482689664077,0.09909937827629892,0.09995172664015653,1.0700167674777947,0.0,0.0,0.0,0.0
0.03169429793081292,-0.11406177737180963,0.6862726267348032,-0.0012574167479318722,-0.39007019662512327,-0.007094458120776933,0.9207569327851581,0.10550380403927911,-0.32770966137452784,-0.7490344114672548,0.07645546316486293,-0.6462977764189588,-0.6230001371980246,0.12591100138113445,-0.09028310982511499,1.2153812555034365,0.10306758292520313,0.10219866199119419,1.0687744388664902,0.0,0.0,0.0,0.0
0.03192672057655442,-0.11504253902332838,0.6865015067535661,-0.001257564685775636,-0.39001653076437026,-0.0071057922207049505,0.9207795783891508,0.10861206099908904,-0.32752892290201774,-0.7469660252665612,0.07267665114699388,-0.6455169347909758,-0.6226191653003428,0.12255226952985851,-0.08945569216874548,1.2167232155264494,0.10619710170607452,0.10300874613368344,1.0692828647393866,0.0,0.0,0.0,0.0
0.032056127543713245,-0.11575587264838035,0.6864499478963868,-0.0012801333477353168,-0.3899813014974459,-0.00715724884897429,0.9207940700992183,0.11109762495734425,-0.32811782195164607,-0.7449409411729836,0.06793470018179948,-0.640913380663986,-0.6204236231412354,0.11650420150957336,-0.08521456580767946,1.2132995141873755,0.10849410447376417,0.1023943809889215,1.0714748594435262,0.0,0.0,0.0,0.0
0.0320773048778254,-0.11621700462495065,0.6861362070941136,-0.001325036969782837,-0.38993772086490547,-0.007228752775813875,0.920811904384939,0.11293782200748723,-0.3295183059720077,-0.7429838757812043,0.062479065680811144,-0.6337238881365806,-0.6169776487946146,0.1085654835438303,-0.07908658030419952,1.2073335342716442,0.11003925456118532,0.10041444884547118,1.0751408434247092,0.0,0.0,0.0,0.0
0.03198500203750921,-0.11644713238435615,0.6856127515553193,-0.0013880375127890132,-0.38987956630107995,-0.007309046395243005,0.9208358023955938,0.11414225578794915,-0.3316993416096536,-0.7409612560969396,0.05652723396300477,-0.6251457036704663,-0.6127582865861942,0.09954189004079085,-0.0720210986888442,1.2000948276298213,0.11089588856571017,0.09731443870154323,1.0798466754275589,0.0,0.0,0.0,0.0
0.03176449819450672,-0.11646623100663421,0.6849423354424846,-0.0014652173719197728,-0.38981107843139096,-0.007392704375128849,0.9208640096084931,0.11472776400558159,-0.3346643369523452,-0.7385677022502658,0.05020103472127665,-0.61601758920606,-0.6080351167105763,0.08994889761239439,-0.0645819586861976,1.1922073045901525,0.11110927275625243,0.09338197049134178,1.085086261364864,0.0,0.0,0.0,0.0
0.03139065931566973,-0.11629163864185516,0.6841826743426584,-0.001554286029670803,-0.3897386903571253,-0.007477002651550083,0.9208938222536839,0.11471065150986966,-0.3384920385645149,-0.7353705184166025,0.043567283192868296,-0.6068241921968891,-0.6029170570083892,0.08003649079384449,-0.057108049334129184,1.1839308949446834,0.11071516139207076,0.08885983200114528,1.0903878953049022,0.0,0.0,0.0,0.0
0.03083047988207063,-0.11593883471632979,0.6833809262815088,-0.001654394466335148,-0.3896673123134974,-0.007560150464066581,0.9209231742215448,0.11410727847030706,-0.34333663614079946,-0.7308529346671286,0.03667627933338406,-0.5977949621653655,-0.5974273235506374,0.06989563994342753,-0.0498018094595514,1.1753365083863392,0.10974751292049156,0.0839198498883616,1.095355297471886,0.0,0.0,0.0,0.0
0.030046512272670845,-0.11542303017995861,0.682574002469566,-0.0017655594610179377,-0.38959934169689897,-0.007640568102131251,0.9209510613861137,0.11293840011831174,-0.34941246311687046,-0.724442220751688,0.029577456906268056,-0.5890017135105712,-0.5915657186693538,0.05954969813385261,-0.04277926279851128,1.1664080848878826,0.10824477096258023,0.07867131483334336,1.0996668819684996,0.0,0.0,0.0,0.0
0.02900080670420468,-0.11476096782794169,0.6817912202118702,-0.0018881352312477239,-0.3895348877251294,-0.0077167448830551145,0.9209774470847422,0.11123509919356134,-0.35697302284618465,-0.7155305676267384,0.022315325811395115,-0.5804215954009494,-0.5853508061225347,0.04900815576053251,-0.03609903371064201,1.1571024213425702,0.10625534547920429,0.07318368546924173,1.1030588615247452,0.0,0.0,0.0,0.0
0.02766013369256002,-0.11397244494179752,0.68105715438067,-0.002022453747592901,-0.3894723781341536,-0.007787361167703128,0.9210030039893515,0.10904467619214667,-0.3662830223171122,-0.7035062345992369,0.014908663107164839,-0.5719582159567524,-0.5788455074230077,0.038285632375113884,-0.029774949242632808,1.1473918022953395,0.10384206258966709,0.0675131355850703,1.105309103898429,0.0,0.0,0.0,0.0
0.026003770077236744,-0.1130809804174345,0.680393544059042,-0.0021686361066111876,-0.38940921542824475,-0.00785148225622518,0.9210288346101745,0.10643450004406405,-0.3775749547241816,-0.6878184671381137,0.007312729481608948,-0.5634227741400714,-0.5721722917417686,0.02739128571211,-0.023769700069256047,1.137309731761717,0.10108432390538433,0.06172914000749089,1.106231544276373,0.0,0.0,0.0,0.0
0.024035361083457503,-0.1121130781083106,0.6798192841911369,-0.0023265972980618505,-0.38934237160855684,-0.007908529987704346,0.921056219656906,0.10349118908450645,-0.3909762266903571,-0.6681084207280658,-0.0006314762153982051,-0.5544826624059316,-0.5655275015635779,0.016290130835276244,-0.017964245549479785,1.1270159386432623,0.0980770754221778,0.055938460182284835,1.1056910638534938,0.0,0.0,0.0,0.0
0.02180026128497349,-0.11109639758254392,0.6793458380914106,-0.0024962515252950753,-0.3892687060222015,-0.007957353369127689,0.9210864909266026,0.10031385264652781,-0.4063909190380918,-0.6444490239677394,-0.009231964053410131,-0.5446007299738259,-0.5592180832640979,0.00484274303946145,-0.012102566708435795,1.1168889006212463,0.09492952060891988,0.05029356544892877,1.1036663841560326,0.0,0.0,0.0,0.0
0.01940855754052887,-0.11006065525795847,0.6789582710043675,-0.002677623726413842,-0.38918510842624765,-0.007993031405376237,0.9211209981101193,0.09700928392298848,-0.4233381271132246,-0.6177269926455928,-0.018866150227540478,-0.5330373983942668,-0.553774877493967,-0.007233276528193628,-0.0057453617693495485,1.1076487844482301,0.09177950218610613,0.0449302230566871,1.1004605458784837,0.0,0.0,0.0,0.0
0.017197598225115733,-0.10899135645768826,0.6785742672588516,-0.0028715784645955526,-0.38898876318452613,-0.008011808440078864,0.9212031844706214,0.09363354247577807,-0.4395418429009892,-0.5929622212802365,-0.02998312899689112,-0.5192851786386381,-0.550217995559826,-0.0205593962384736,0.0016805009532238815,1.1007061194853878,0.08863648965401123,0.039964785902316335,1.0967806531426576,0.0,0.0,0.0,0.0
0.01547614483312901,-0.10795807882661507,0.6783166688165682,-0.003044382663899061,-0.3887536319137904,-0.00801586473603129,0.9213018459335499,0.09038013195372128,-0.4521585984006632,-0.5742735447153351,-0.04221903113778609,-0.5033615741143089,-0.5502398243981149,-0.03443711934997268,0.009375102984661633,1.0975359218394443,0.08565116270485491,0.03652947885024559,1.0925534203321663,0.0,0.0,0.0,0.0
0.014497882237293066,-0.10716808452169936,0.6782653250239216,-0.0031277550721185623,-0.38855223021824176,-0.007985326327140998,0.9213867896296801,0.08776841719312065,-0.45894730312237014,-0.5646872338356663,-0.0526761050969828,-0.48734260389716394,-0.5571870074189821,-0.04597948197601919,0.014342911566536833,1.099550137262587,0.08333476036333486,0.03526914561522273,1.08845865984574,0.0,0.0,0.0,0.0
0.01449926400710775,-0.10708555642065182,0.6782318703345556,-0.003206254001313019,-0.3885635688007563,-0.00802199595144924,0.9213814196721432,0.08770690199263431,-0.4590588204948643,-0.5646663521722974,-0.05269780383538727,-0.4873393663051168,-0.5571950531424515,-0.045977608048255146,0.014371082383154866,1.0995614527238196,0.08326933761427426,0.03526215666302453,1.0884182593395961,0.0,0.0,0.0,0.0
0.01449926400710775,-0.10708555642065182,0.6782318703345556,-0.003206254001313019,-0.3885635688007563,-0.00802199595144924,0.9213814196721432,0.08770690199263431,-0.4590588204948643,-0.5646663521722974,-0.05269780383538727,-0.4873393663051168,-0.5571950531424515,-0.045977608048255146,0.014371082383154866,1.0995614527238196,0.08326933761427426,0.03526215666302453,1.0884182593395961,0.0,0.0,0.0,0.0
0.014290343283163856,-0.1066966312981233,0.6778406843567439,-0.0033835241227474244,-0.38848468248325163,-0.00803780879191504,0.9214139118063187,0.08671920900975597,-0.46088461254443347,-0.5641755642126871,-0.05382840630362606,-0.49113040513448053,-0.5514458116769091,-0.04667870172109289,0.011480052959180146,1.1033677658913472,0.08259315070170768,0.03328537443116936,1.0899583442593601,0.0,0.0,0.0,0.0
0.014479237207398616,-0.10616438650237464,0.6773277734507178,-0.0034930614690068342,-0.38842256657652385,-0.008050902160753466,0.9214395754850546,0.08530270638664152,-0.4592109048115788,-0.5706011921072701,-0.055543011882920525,-0.49221705074266303,-0.5509013196033736,-0.04810598785533214,0.008516156531051838,1.1092908104888677,0.08133843006586458,0.03144578044510669,1.092849739266229,0.0,0.0,0.0,0.0
0.015201007091644389,-0.10549135539032879,0.6768117151435563,-0.0035479748541357987,-0.3884525275513454,-0.008078729237040887,0.9214264918306398,0.08350833936140065,-0.45278130354490137,-0.5853205660760407,-0.057755395508380415,-0.48912752202521714,-0.557391965249519,-0.0502813099092613,0.0063952982943340725,1.1168587065609878,0.07952775067582774,0.030651823314106787,1.0965564158329348,0.0,0.0,0.0,0.0
0.016588189867350018,-0.10452783880773557,0.6765771489524175,-0.003563930015880191,-0.3887153625767009,-0.008136335379698717,0.9213150738733709,0.08084554087987714,-0.4398541541798948,-0.6098269765031142,-0.060839166839318067,-0.48058451693425736,-0.5711038640264157,-0.05369624831887724,0.0067933738418561075,1.1248954298930718,0.07669492409334885,0.03286461939917947,1.098963381185215,0.0,0.0,0.0,0.0
0.01894033095826333,-0.1029435916769071,0.6776897143173934,-0.0035789176278401866,-0.3897072372984497,-0.008304641006920117,0.9208943986601119,0.07629973595139701,-0.41541662767367266,-0.6465950549401435,-0.06529253038642964,-0.4627379477115268,-0.5916567218307753,-0.05952385929384395,0.0158022211935836,1.1280314849239141,0.07168253136055483,0.04477337424734157,1.092411654419608,0.0,0.0,0.0,0.0
0.021107017716280794,-0.10105841619951783,0.6779926507428122,-0.0039682771177516835,-0.38941132653700133,-0.008191076944282411,0.9210189888378537,0.062335843952961635,-0.45200392644977255,-0.6065252239869195,-0.07210753456740096,-0.44942069031708864,-0.6122227150320245,-0.06445811359127462,0.018784306741578084,1.1327469367293985,0.05568229007392889,0.03611259301153685,1.0940792364545915,0.0,0.0,0.0,0.0
0.023802946793758918,-0.09926564374103146,0.6784353099187177,-0.004274359736435921,-0.38910452354023345,-0.008194962619809787,0.9211472424086343,0.04747621983097837,-0.48053211271744295,-0.5869038918528177,-0.07833783927521687,-0.43201058442596546,-0.6401801798727134,-0.0697268428917209,0.0236844607581394,1.1367717026326578,0.037922508309545896,0.0266275819983706,1.0988382110441022,0.0,0.0,0.0,0.0
0.026427372217787376,-0.0975829019831978,0.6790321907274138,-0.004542546973280608,-0.3889697286986923,-0.008238894509692951,0.9212024945908035,0.03425926855486123,-0.50179226407385,-0.5791572755852609,-0.08403555607927715,-0.41540520755042915,-0.6653230016245643,-0.07491424016702233,0.02968764690877643,1.1395992365415861,0.0216000770250221,0.018208169492973186,1.105918483434961,0.0,0.0,0.0,0.0
0.028786561042877315,-0.09604943258035759,0.6797605514222069,-0.004780299967011645,-0.3889569336138097,-0.008295558326812521,0.9212061855187547,0.023186636170889036,-0.5179161233270577,-0.5778397720013901,-0.08911511696401522,-0.40062119679043556,-0.6861985638454464,-0.07975186048008316,0.03626973080853887,1.1408415130565244,0.007177361935753796,0.010857530370613638,1.1143285922606427,0.0,0.0,0.0,0.0
0.030778940762019095,-0.0946750038892695,0.6805683804407516,-0.004992428428421601,-0.3890099566710048,-0.008357985498978458,0.921182106506422,0.013708840356774016,-0.5307411694444175,-0.5799840082649591,-0.09354396418817677,-0.38816628423458927,-0.7024445332357873,-0.08412388509250221,0.04287796196896097,1.1406072393062052,-0.00573971799134697,0.004104391949361795,1.1233069214962652,0.0,0.0,0.0,0.0
0.03237717256585662,-0.093468759962838,0.6814179779106414,-0.0051827442433827345,-0.389092532873853,-0.008425864099752203,0.9211455611563732,0.0051881666705113835,-0.5415913841293801,-0.5839367544094586,-0.09728755970034583,-0.37808488400147117,-0.7143853856813832,-0.08795229917347273,0.04919116189660414,1.139081365370531,-0.01762458280537999,-0.002465543202372365,1.1323954632493056,0.0,0.0,0.0,0.0
0.03360224037218995,-0.09244221827384957,0.6822878122400065,-0.005353541989803321,-0.38918430109525376,-0.008500431185193594,0.9211051308286302,-0.0027949176473309224,-0.55134905151503,-0.5887553136858982,-0.10031223370564406,-0.370139607940363,-0.7227020818133876,-0.09117742982341669,0.055092132339087406,1.1364211435135887,-0.028816236125330234,-0.009118490066567519,1.1413720963577776,0.0,0.0,0.0,0.0
0.0345008678884921,-0.09160598333513015,0.6831651913356906,-0.00550608404592951,-0.3892752501199387,-0.008582387049008863,0.9210650385912383,-0.010435667670639706,-0.5605768666957479,-0.5938975850029787,-0.10259853861153417,-0.3639674847726999,-0.728195248548665,-0.09375930763922055,0.06058228653041571,1.1327646231800783,-0.039510353427652176,-0.015997208518384296,1.1501622950607622,0.0,0.0,0.0,0.0
0.03512921968071768,-0.09096721448411083,0.6840399051112739,-0.005641212178462961,-0.38936138913285917,-0.008671517869681513,0.9210269758022962,-0.017784723791610578,-0.5696265393056432,-0.5990577389168732,-0.10414654835349871,-0.35918255991726056,-0.7316445786868443,-0.09567916710532925,0.06570964412180667,1.1282541228814627,-0.04980791182712165,-0.023164951751974104,1.1587710396725968,0.0,0.0,0.0,0.0
0.03554256909823079,-0.09052922382836588,0.6849003117627009,-0.005759732352599839,-0.3894417359218427,-0.008766972911535009,0.9209913680330433,-0.024823628360152665,-0.578716242007124,-0.6040740789071553,-0.10497278466411018,-0.35543436278147356,-0.733738303892939,-0.09693622900887541,0.07052183788627041,1.1230511670538867,-0.059763924827338326,-0.030637486748672494,1.1672387314274555,0.0,0.0,0.0,0.0
0.03578949289626231,-0.09029268875523451,0.6857308709620127,-0.005862520165058656,-0.38951624897445064,-0.008867597489324773,0.9209582446327061,-0.03151288274872936,-0.5879743137864375,-0.6088721225384207,-0.10510296336352196,-0.35243776348544853,-0.7350467024670937,-0.09754078605687998,0.07503748118121895,1.117344972224709,-0.0694179814447038,-0.03839735354566462,1.175613092911492,0.0,0.0,0.0,0.0
0.035908990786821124,-0.09025766349604405,0.6865100531026578,-0.005950394197254439,-0.3895843963414517,-0.00897208020895009,0.9209278433801902,-0.03781559242052608,-0.597448911931352,-0.6134226394262771,-0.10456406001300449,-0.34998715916379936,-0.7360194748651042,-0.09750585553768043,0.07922721501864084,1.111360687568724,-0.07880160981999153,-0.0463921939607388,1.1839260647695025,0.0,0.0,0.0,0.0
0.03592912583296928,-0.09042578450395393,0.687208241703528,-0.006023814040981036,-0.3896442683258193,-0.009078825321258407,0.9209009896595957,-0.04370494246116416,-0.6070817874254625,-0.6177017253453595,-0.10337754757911953,-0.3479638141489411,-0.7369916913129204,-0.09683900332132431,0.08299928099950829,1.1053697072189876,-0.08791828877334487,-0.054519107615706636,1.192162906887963,0.0,0.0,0.0,0.0
0.03586611668302513,-0.09080231103715164,0.687786180167633,-0.0060824472518205405,-0.3896924322704943,-0.009185483594803449,0.9208791663175275,-0.049159802147347456,-0.6166448490954632,-0.6216443510143129,-0.10155444526909567,-0.3463408779671484,-0.7381862246122352,-0.09553497092561498,0.08619005178121986,1.0996976572762795,-0.09668975995466067,-0.06259376688337387,1.2002073294915958,0.0,0.0,0.0,0.0
0.035723351465897654,-0.09139772017441615,0.688195607184163,-0.0061246922269449795,-0.38972506963273235,-0.009288050343414468,0.9208640455385937,-0.054146509417378474,-0.6256470277058805,-0.6250891844719116,-0.09909244505926999,-0.34518515676791206,-0.7397041444344687,-0.09356918467409793,0.08856700493421227,1.094717675383523,-0.1048671790126626,-0.07029687169301586,1.2077412098821085,0.0,0.0,0.0,0.0
0.035490831889972006,-0.09222831691119951,0.6883848682426198,-0.006147434561587217,-0.3897412961376197,-0.009379489201721401,0.9208560996787686,-0.058583220163899975,-0.6332456356386367,-0.6277256616758498,-0.0959760292189077,-0.3446463006779204,-0.7415022232645561,-0.09089275788173522,0.08985982377641624,1.090809466411556,-0.11193259848239723,-0.07708022914972865,1.2140711525091745,0.0,0.0,0.0,0.0
0.035147455582356636,-0.0933144050179706,0.688312790881989,-0.006146815291672291,-0.38974964024298486,-0.009448141612274207,0.9208518703962697,-0.06230174171425039,-0.6382561604200524,-0.6290808700320896,-0.09218284047781224,-0.34491247008739967,-0.7433729639727248,-0.08743225363870084,0.08984081379280826,1.0882655603923077,-0.11708780823694985,-0.08200329207822604,1.217850831211843,0.0,0.0,0.0,0.0
0.03467069982923153,-0.09467278204790157,0.6879705982524162,-0.006121603768854546,-0.38977506676914525,-0.009477011290274838,0.9208409795124289,-0.06509278296861076,-0.639470391876044,-0.6286539483633354,-0.08770501768761554,-0.3461100329658537,-0.744975791325225,-0.08310270374629707,0.08845610060282805,1.0871530489803998,-0.119555401156554,-0.08354761699311458,1.2167870284549593,0.0,0.0,0.0,0.0
0.03404482890363354,-0.09631054107487107,0.6873602987751507,-0.0060718520259449675,-0.38981831825781316,-0.009464304850385406,0.920823130843988,-0.0669211296671462,-0.636893410212321,-0.6264263290962244,-0.08251237510668391,-0.34834268884472624,-0.7461154884733018,-0.07787210128547811,0.08570192275343677,1.0873828960689003,-0.11929700991925735,-0.08170788787747785,1.210907210109543,0.0,0.0,0.0,0.0
0.0332616805429254,-0.09822574762449396,0.6864938298692506,-0.005999179241731148,-0.38985707799096675,-0.009423711921106531,0.9208076141314204,-0.06794923358455282,-0.6317362532513627,-0.6228778869676936,-0.0765468867734114,-0.3516877816231687,-0.7467481215614443,-0.07176164022701116,0.08162433955712464,1.0887238648172088,-0.11702154302493893,-0.07799740148292382,1.202528979680689,0.0,0.0,0.0,0.0
0.03231264708091538,-0.10041314604246093,0.685413752063319,-0.005907835056555818,-0.38988593320888115,-0.009364460267739528,0.9207965917914109,-0.0683237624293616,-0.6251879575473381,-0.6184636868724305,-0.06976273750716189,-0.35615727840526457,-0.7467075278423332,-0.06478768603377436,0.07643933359873625,1.0907409263420815,-0.1134708285341704,-0.0733708002654755,1.192992392442969,0.0,0.0,0.0,0.0
0.031179597575899675,-0.10286995736328011,0.6841718175746341,-0.005801046377527452,-0.38990829095333673,-0.009291921924474122,0.920788538532992,-0.06811487528338325,-0.6181038270131826,-0.6134731733343788,-0.062116568442819806,-0.3617940795772039,-0.7456770186200739,-0.056956576292929495,0.07040454627527348,1.092927364228943,-0.10911752086863064,-0.06840259008778349,1.1829649330719172,0.0,0.0,0.0,0.0
0.029834422909788896,-0.10559576057151489,0.6828164466255923,-0.005680291389656621,-0.3899297476747089,-0.009208940369386322,0.9207810388932536,-0.06735011515629277,-0.6109960013794635,-0.6080516144855428,-0.053570657397357335,-0.368707012466847,-0.7432141293421407,-0.048272369181230894,0.0637497883309264,1.0947893282937649,-0.10417868016546859,-0.06343751986076995,1.1727255175256783,0.0,0.0,0.0,0.0
0.028242287620305975,-0.10858979470999315,0.6813888652701409,-0.005545705016569925,-0.3899548991735003,-0.009117116022396766,0.9207721216250461,-0.06605270876721138,-0.6041226765373198,-0.602262129970199,-0.044100937806458664,-0.3770695250514543,-0.7387813810144982,-0.038749519537797525,0.05666094315111697,1.0958772504913683,-0.09872150610188249,-0.0586741842651231,1.1623413060956713,0.0,0.0,0.0,0.0
0.026365974425837168,-0.11184706677290514,0.6799243929594209,-0.005396729978960104,-0.38998609896641245,-0.009017851725130652,0.9207607703789065,-0.06426468846225435,-0.5975831530594077,-0.5961453694287745,-0.03370800004955882,-0.38710396018600907,-0.731769561339864,-0.028427488382544493,0.04929333229482942,1.0957842601523138,-0.09276623670683468,-0.05421173009904465,1.1517705015616821,0.0,0.0,0.0,0.0
0.024170818133189085,-0.11535371869843619,0.6784559392436319,-0.005232719765931208,-0.3900229909910525,-0.008913207842663503,0.9207471096170751,-0.06205719299554145,-0.5913818295519861,-0.5897631918388967,-0.022430746255244396,-0.3990602770190478,-0.7215177126874045,-0.01738647758151999,0.04179675810869901,1.0941333966123987,-0.08636311496406389,-0.05007572193607235,1.1409217175826178,0.0,0.0,0.0,0.0
0.021630828366057078,-0.11908181088862575,0.6770175877631236,-0.005053397181111364,-0.3900620880611881,-0.008806707387104394,0.9207325738450192,-0.05952993360776076,-0.5854487426191455,-0.5832238100040641,-0.010362050405742156,-0.4131898090890185,-0.7073432322743329,-0.005763870402926566,0.03434077547812299,1.090571686714095,-0.07964552139281195,-0.046229066513698965,1.1296940487423415,0.0,0.0,0.0,0.0
0.018737170949148223,-0.12298348068015887,0.6756461636280843,-0.00485941041949031,-0.39009658377396905,-0.00870362625803881,0.9207199836802794,-0.05679947381976164,-0.5796123108453326,-0.5766890522180673,0.0023322443933363815,-0.42970965376241954,-0.6885977800115992,0.006231146318022853,0.02712935687660704,1.0847928837172194,-0.07285960859083684,-0.042564955055343814,1.11801588618524,0.0,0.0,0.0,0.0
0.015510661636383316,-0.1269839412017356,0.6743769314075322,-0.0046525742754669076,-0.3901153360513904,-0.008610945832516249,0.920713978248398,-0.0539678200934331,-0.5735286949636076,-0.5703760320920354,0.015391387988842752,-0.448753128536887,-0.6647819608231772,0.018303142497170282,0.020383555916758576,1.0766241555549345,-0.0663621251664496,-0.03887923974072759,1.1058907345045854,0.0,0.0,0.0,0.0
0.012020280586027828,-0.13097031130322848,0.6732236476151358,-0.004436886137457751,-0.3900964155244167,-0.008526827584581672,0.9207238423369668,-0.051141595885000266,-0.5666018936058762,-0.5646430595869201,0.02838575933251989,-0.47030190766304814,-0.6357650661893782,0.03007290552124499,0.014224014341271305,1.0662448514919842,-0.06054352201048696,-0.0348188307877087,1.093447011139633,0.0,0.0,0.0,0.0
0.008393742691379408,-0.13479012875313984,0.6721441213841886,-0.004209940555453993,-0.3899781056788313,-0.008484712060907213,0.9207754140684434,-0.04931037381298393,-0.5583162276455493,-0.5600246302470271,0.04092333137609572,-0.4941997726361262,-0.602220702528512,0.04097872129654868,0.008482963980090805,1.0544913911970626,-0.05576894941465755,-0.02990444976660001,1.0809732028626613,0.0,0.0,0.0,0.0
0.005128504482157334,-0.1382524570478047,0.6711018002813205,-0.003997676181070141,-0.389709556248093,-0.008425952393086227,0.9208905926766411,-0.048366890013095146,-0.5483701892592412,-0.557039191962923,0.05215019624891123,-0.5172640879191759,-0.570087001135262,0.05066326745252098,0.003354790435624099,1.042984009271672,-0.05221490628761346,-0.023827961867360713,1.0693007275163704,0.0,0.0,0.0,0.0
0.002480609840208833,-0.1410332318713089,0.6702216700829966,-0.003818075937358032,-0.38933235260208826,-0.008364649479627286,0.921051450328668,-0.04899029897820671,-0.5374304048671665,-0.5569659651068573,0.06110378696684845,-0.5373079311040727,-0.5423539079634261,0.05826025716851432,-0.0007297024482089782,1.0327758103209148,-0.05026979351995906,-0.017440018299971504,1.058556403268788,0.0,0.0,0.0,0.0
0.0008584473435532401,-0.14267372073972512,0.6695537998127049,-0.003715013429045633,-0.38895320880207024,-0.00830612400900884,0.9212125750019602,-0.05132010621842362,-0.5280375858191231,-0.5614579412402912,0.06633084120311128,-0.5508998467559226,-0.5240722789438188,0.0626736963930905,-0.003837328898945492,1.026801662698778,-0.04994319637081036,-0.012338858791296217,1.049296875288817,0.0,0.0,0.0,0.0
0.0009097921443376698,-0.14280506334605228,0.6694672155726554,-0.0036229020732421726,-0.3889747616428976,-0.00824193877732732,0.9212044180477043,-0.05132188949477485,-0.5280507465457904,-0.561485582299982,0.06646224655308448,-0.5510748293567006,-0.5240258208753605,0.06282794032348402,-0.0037803040144622616,1.0267544888678752,-0.04997379160450762,-0.012305067758620647,1.0492992617560828,0.0,0.0,0.0,0.0
0.0009097921443376698,-0.14280506334605228,0.6694672155726554,-0.0036229020732421726,-0.3889747616428976,-0.00824193877732732,0.9212044180477043,-0.05132188949477485,-0.5280507465457904,-0.561485582299982,0.06646224655308448,-0.5510748293567006,-0.5240258208753605,0.06282794032348402,-0.0037803040144622616,1.0267544888678752,-0.04997379160450762,-0.012305067758620647,1.0492992617560828,0.0,0.0,0.0,0.0
0.0009097921443376698,-0.14280506334605228,0.6694672155726554,-0.0036229020732421726,-0.3889747616428976,-0.00824193877732732,0.9212044180477043,-0.05132188949477485,-0.5280507465457904,-0.561485582299982,0.06646224655308448,-0.5510748293567006,-0.5240258208753605,0.06282794032348402,-0.0037803040144622616,1.0267544888678752,-0.04997379160450762,-0.012305067758620647,1.0492992617560828,0.0,0.0,0.0,0.0
0.0013165716734918134,-0.14308292507002945,0.6687941650594952,-0.0035348530000436167,-0.3891788499071008,-0.008161279288934361,0.9211192762718747,-0.05087764509835491,-0.5269775540143385,-0.5648935314096842,0.06709257101387744,-0.5489822708423994,-0.5298407410621949,0.06362983665628301,-0.006241279250216828,1.0327884579532716,-0.04943745633715718,-0.015581957568849565,1.0577246921937549,0.0,0.0,0.0,0.0
0.0021517441197657387,-0.143565617924071,0.6678174960634768,-0.0035074894378591503,-0.38926037657048684,-0.008053012381786512,0.9210858840203908,-0.04998774868082803,-0.5234622934368378,-0.5747516093241649,0.06844200676284153,-0.543230507698856,-0.5446492843950022,0.06534986592276996,-0.00960290572053554,1.0409467076271701,-0.0481328417550446,-0.020106435222875193,1.0696793935409499,0.0,0.0,0.0,0.0
0.003513061401465225,-0.14438224206666017,0.6667894994633285,-0.0035145722226654673,-0.3893323768080577,-0.007930005864857174,0.9210564929243285,-0.04811793261141353,-0.5164210425272486,-0.5911182286055127,0.07095094300319214,-0.532553215476773,-0.5693339231199053,0.06826470924203133,-0.012054111904710802,1.0491759989402822,-0.04576974170353658,-0.02447092419459692,1.0840539073085107,0.0,0.0,0.0,0.0
0.0055677032146578655,-0.14585925535686226,0.666367759284039,-0.0035056742282961054,-0.3896948691030608,-0.007857444296320263,0.9209038385260883,-0.04375017157024492,-0.5034761630051292,-0.613186840169636,0.07586101717197942,-0.5139445579420502,-0.6056147881041727,0.07307027086497851,-0.009145278552626462,1.0523281939760258,-0.04161935886728794,-0.025242371103593987,1.0979405881875794,0.0,0.0,0.0,0.0
0.008717938310948997,-0.14878398009956575,0.6683165867049807,-0.003473064640425978,-0.3910494411871371,-0.00803723347714008,0.9203280258947161,-0.03304214435711469,-0.4778916757174803,-0.6401673702177672,0.08631447626395863,-0.4791495178631975,-0.6586349638231302,0.08166504017516929,0.01065143222463864,1.0366017406889942,-0.03364905905322179,-0.013325718899177939,1.1029132736248644,0.0,0.0,0.0,0.0
0.011850522209688156,-0.15157220837814117,0.6698155191464158,-0.003259999696053325,-0.3905260566340806,-0.007942520680234358,0.9205518387668674,-0.024544110181292256,-0.45529573140205004,-0.6747889064513649,0.08100117567216682,-0.5065811104418947,-0.6177640750740717,0.07930544953927722,0.001289740938147925,1.053706663563419,-0.025677859083560205,-0.004364925629233714,1.103323622979814,0.0,0.0,0.0,0.0
0.015534582670183024,-0.15455213493668998,0.6713350684444689,-0.00316638464841033,-0.3899481971515966,-0.007864164589137903,0.9207977695790714,-0.015222565914805005,-0.4302374928940874,-0.7137964713883596,0.07414860194635084,-0.5271385886442661,-0.5963372033243094,0.07694932662711886,-0.0061460412698405124,1.0691102463476154,-0.01677404492740614,0.005549925538975039,1.1044347872621432,0.0,0.0,0.0,0.0
0.01899879755787796,-0.1577781731054626,0.6728237873167063,-0.0030354443089803946,-0.38966132746318993,-0.007830342219001288,0.9209199322949879,-0.004686958676465394,-0.408350956628229,-0.7445188102404144,0.07008615733032926,-0.5426905374613784,-0.5864627968748699,0.0768880891208503,-0.012189351651579024,1.0828969539906017,-0.007203226620931586,0.015125990949060402,1.1068291124664928,0.0,0.0,0.0,0.0
0.022037342052336394,-0.16114663562684692,0.6743538381637312,-0.002866752694606256,-0.3895786387562911,-0.007812329086959223,0.9209556088476905,0.0064997568194399245,-0.38991008670073907,-0.7669060169794205,0.06876399390635203,-0.5548387852897606,-0.5831346621549,0.07913962414122852,-0.017595452223331358,1.0953782163767891,0.002819468281984568,0.024465870108549708,1.1089861766348472,0.0,0.0,0.0,0.0
0.024572669216496472,-0.16457135661899072,0.6759368666644265,-0.0026769217819148446,-0.38960747117979777,-0.007790496812352423,0.9209441680417295,0.01786874693102726,-0.3748695417382272,-0.78181493997094,0.06938506020188048,-0.5647087876498921,-0.5834265662848924,0.08303186380722168,-0.022789905311906264,1.1068158408408728,0.013109345507848133,0.033480327771540995,1.11016295031721,0.0,0.0,0.0,0.0
0.026608772213349785,-0.16798277944198023,0.6775580468881659,-0.002480784750649538,-0.3896876635853057,-0.007757995576152532,0.9209110619712888,0.02908602690266559,-0.36297722220225936,-0.7903637432866566,0.0711297411001687,-0.5731076105304939,-0.5856376356641013,0.08783006402058523,-0.027971818310966207,1.1174365160996196,0.023470365316744797,0.042060751860666906,1.1101317989474102,0.0,0.0,0.0,0.0
0.028196914340357912,-0.1713240583891499,0.6791969058597799,-0.0022889759148598705,-0.389784167073812,-0.007713957881986634,0.9208710868203165,0.03991477047886938,-0.35383975078701085,-0.7937585098726186,0.0733638420991569,-0.5806243032061762,-0.5887947366128282,0.09296741087877136,-0.03324313335351088,1.1274473170242754,0.03371134807958501,0.05016203135831053,1.1088968634157939,0.0,0.0,0.0,0.0
0.02941147706270594,-0.17454909051794695,0.6808351996380045,-0.002108180482157181,-0.38987838592085156,-0.0076598537309227445,0.9208320837197339,0.05018975516612851,-0.34698481851809837,-0.7931955368585776,0.07565537772536966,-0.5876821038931813,-0.592355670219723,0.09807818757522858,-0.03866268898041275,1.1370388866761967,0.043661345700077986,0.05780855786567131,1.1065523651901574,0.0,0.0,0.0,0.0
0.030333324965844333,-0.1776216427072646,0.6824577087930265,-0.0019420332469655428,-0.3899616804508702,-0.007597997119575179,0.9207976904437652,0.059802185086353155,-0.34191953107666256,-0.7897925121375072,0.0777291739238312,-0.5945770883267876,-0.5960323270577389,0.10295787159913108,-0.04426440854508115,1.1463828893122547,0.05317935520112534,0.06506489385746604,1.1032303209099827,0.0,0.0,0.0,0.0
0.031038989343906708,-0.18051453600089717,0.6840501832956001,-0.0017920637609107257,-0.39003089807523056,-0.007530944707477789,0.9207692283769691,0.06868832990740599,-0.3381787598484908,-0.7845416151426835,0.07941582087507627,-0.6015103653674105,-0.5996862497888529,0.10751147416153682,-0.05006125637725765,1.1556277646842086,0.06215795452071025,0.0719993214275594,1.099089896167194,0.0,0.0,0.0,0.0
0.031594327435203344,-0.1832083976404528,0.6855964084762659,-0.001658477525840409,-0.39008538606446785,-0.007461244066742152,0.9207469635400423,0.07681913964646121,-0.3353609491434571,-0.7782823772451659,0.08061390981683941,-0.6086090672993297,-0.6032657573978679,0.11171085635796255,-0.05604170637735144,1.1648931072108921,0.07052159990912826,0.07865192401431616,1.0943237494667692,0.0,0.0,0.0,0.0
0.03205139168780044,-0.18568991827024076,0.6870749778239389,-0.0015409363863216202,-0.390124685849382,-0.007391079034483331,0.9207310828665883,0.08418948567304528,-0.3331529550633429,-0.7716929396401652,0.08126495677377278,-0.6159277138099192,-0.6067643116131799,0.11556044858196343,-0.06216074811720536,1.17425916831542,0.07822228430018156,0.08500885207232864,1.089171370784259,0.0,0.0,0.0,0.0
0.03244716473096126,-0.18794992339558092,0.6884559948142338,-0.0014390450768261144,-0.3901473447301229,-0.007322402499663682,0.9207221953287182,0.09081022040279677,-0.3313467332277765,-0.7652878055279085,0.08134158484152082,-0.6234201178537684,-0.6101828310302264,0.11905789525402836,-0.06832209299594952,1.1837432709650126,0.08523239817757103,0.09098115605830252,1.0839382314588977,0.0,0.0,0.0,0.0
0.03280306924082783,-0.18998140560334686,0.689698292338596,-0.0013529394503654622,-0.3901504729305774,-0.007257085007397084,0.9207215174764224,0.09670124527392593,-0.3298513194945635,-0.7594171044048827,0.08083860444856657,-0.6308758363054983,-0.6134855644703812,0.12213594708330704,-0.07435076157246884,1.193248325866277,0.091538026108363,0.09638906097585691,1.0790143411856499,0.0,0.0,0.0,0.0
0.03312448574346259,-0.1917780875693736,0.6907482829475434,-0.0012837009002282373,-0.39013302537061784,-0.0071975880337018655,0.9207294767485532,0.10188743029591088,-0.3287002382085301,-0.7542443563568575,0.07976622267372445,-0.6378260951745823,-0.6165309237555627,0.12458071096955305,-0.07994543127180125,1.2024676041336375,0.09713335433230069,0.10095801386790741,1.0748940341155595,0.0,0.0,0.0,0.0
0.03348305320434655,-0.19329893959842057,0.6915544524477782,-0.0012379828768313522,-0.3900767940123302,-0.00714695925426035,0.9207537581486577,0.10630698360937187,-0.3274319135525842,-0.7509644487944126,0.0778462674873109,-0.6434180529879129,-0.6190239260493977,0.12584443449311652,-0.08444595205458759,1.2108182394186258,0.10192356771829121,0.10456209990141373,1.0719724625832723,0.0,0.0,0.0,0.0
0.03380676345977757,-0.19455083229126083,0.6920734185393684,-0.0012159768086349404,-0.39000441571870564,-0.007117398375576657,0.920784676110911,0.11003971112165348,-0.32655756451243356,-0.7486656286957828,0.0750632974217667,-0.6464480874154813,-0.6204112747658709,0.12518136809020555,-0.08700966551152604,1.2168633802102866,0.10591631075262213,0.10683408967012373,1.0706936764983428,0.0,0.0,0.0,0.0
0.03404269519152257,-0.19553510799270696,0.6923022108709405,-0.0012159876617700834,-0.38995047008395256,-0.007128557585935326,0.9208074369389372,0.11315440409353537,-0.3263793919814889,-0.7465775001215511,0.07129888326254709,-0.6456656727821919,-0.6200395639920279,0.12182498769222248,-0.0861680547813865,1.2181997571691483,0.10907271324730848,0.10766423806855943,1.0711861882103257,0.0,0.0,0.0,0.0
0.03417667334919781,-0.19625376153545443,0.6922495843997124,-0.0012384217185979877,-0.389914779672045,-0.007179305931826709,0.9208221264018827,0.11565320566939756,-0.32696434089840226,-0.7445492160775063,0.06657984869324987,-0.6410691647927944,-0.6178542551659141,0.11578367817792501,-0.08192321670528496,1.2147515535123388,0.11140086320563841,0.10706365743991221,1.0733857710567998,0.0,0.0,0.0,0.0
0.03420386118071557,-0.1967227062027174,0.6919344592956675,-0.0012831516090487088,-0.38987064370627383,-0.00724962695405016,0.9208402019932834,0.11751600646735419,-0.328351629349833,-0.7426056464545184,0.061155556599420874,-0.6338918815281932,-0.6144237328713364,0.10785844305949471,-0.07579871731871968,1.2087499176295968,0.11298360983542978,0.10509430490904283,1.0770796841974453,0.0,0.0,0.0,0.0
0.03411964454597881,-0.19696394959280744,0.6914100396386583,-0.00134585756922154,-0.3898119045625703,-0.007328394628019057,0.9208643561137987,0.11875485887849796,-0.33050621777835937,-0.7406153257738707,0.055244261253432764,-0.6253285875788885,-0.6102271108192938,0.09885676697815117,-0.068738468644587,1.2014701121442166,0.11388637706584363,0.1020052863787451,1.081830098450131,0.0,0.0,0.0,0.0
0.0339099617914631,-0.19699836048588304,0.6907396824031763,-0.001422532633176463,-0.3897428412464821,-0.007410302113253398,0.9208928176072486,0.11938891009210778,-0.33342785105736894,-0.7382752425784738,0.04896923423243223,-0.6162161955042625,-0.6055347767599096,0.0892954593161677,-0.06130202729234699,1.1935392865040964,0.11415660031939948,0.09808671327591474,1.0871290552377784,0.0,0.0,0.0,0.0
0.03355030381340801,-0.19684417509497334,0.6899815262397058,-0.0015107969549747362,-0.3896698922642762,-0.007492705944087638,0.9209228805458922,0.11943660425851779,-0.3371920501861099,-0.7351554913000575,0.04239876096832043,-0.6070379846419621,-0.6004555702189786,0.07942577894798244,-0.053825877584080584,1.1852189870374668,0.11383217264875321,0.09358247824233137,1.092505184844378,0.0,0.0,0.0,0.0
0.03300827243687752,-0.19651769859071191,0.6891829560916005,-0.0016097103491472628,-0.38959793593743014,-0.007573858957978436,0.9209524926978431,0.11891616355640752,-0.3419498551972446,-0.7307433214800219,0.035584373381951404,-0.5980225407501585,-0.595011678254615,0.06933997574540571,-0.04651152335985525,1.1765809607295077,0.11294895595312615,0.08866420466891023,1.0975646409914308,0.0,0.0,0.0,0.0
0.032247031429912615,-0.19603482321753837,0.6883808745836816,-0.0017191847199820819,-0.38952929692232413,-0.00765220010141781,0.9209806811636747,0.11784976508053495,-0.3479122023520172,-0.7244720737938498,0.028576611162575226,-0.5892414634188163,-0.5892004598917086,0.05906245593540965,-0.039474857578207366,1.167609711608462,0.11154679308172569,0.08343961327660879,1.1019903829761124,0.0,0.0,0.0,0.0
0.031229245068869448,-0.19541275052610219,0.6876042774607394,-0.001839444601513221,-0.38946396423466934,-0.0077262235787553795,0.9210074605970275,0.11626924267408928,-0.35532881491278545,-0.7157427507067465,0.021421232579130065,-0.5806727271622518,-0.5830357888990838,0.04860314731099665,-0.03277447106413256,1.1582624195459572,0.1096746981888875,0.07797492423761085,1.1055255276046607,0.0,0.0,0.0,0.0
0.029922270254212187,-0.19467141825232145,0.6868769935787827,-0.001970646650499047,-0.3894001821418127,-0.007794617774986819,0.9210335817077703,0.11422171669528595,-0.3644602202313299,-0.7039557974078334,0.014138585955611564,-0.5722228501914846,-0.5765724182725845,0.037975986148657215,-0.02642332714500109,1.1485112302463794,0.10739492753000875,0.07232090522916995,1.1079575543299465,0.0,0.0,0.0,0.0
0.02830589078749242,-0.1938340411815423,0.6862194778580246,-0.002112665878069145,-0.389335083485904,-0.007856480587226702,0.9210602613959058,0.11177315205107681,-0.37553422692895105,-0.688576816528514,0.006685265675496666,-0.5637102499462391,-0.5699193565727575,0.027187825553149306,-0.020380907605390127,1.138388185012976,0.10478467466891792,0.06653901673393502,1.109112807848931,0.0,0.0,0.0,0.0
0.026384117915422618,-0.1929261832407121,0.6856487950473364,-0.002265055499299651,-0.3892652578668148,-0.007911339857190381,0.9210889420914418,0.10900722403302444,-0.3886724187511297,-0.6692687055662869,-0.001099251873684766,-0.5548177843313727,-0.563251176001115,0.016199173193070467,-0.014520054419960692,1.1280489611284878,0.10193430597171338,0.060725687607189265,1.1088701082585974,0.0,0.0,0.0,0.0
0.024202466963313886,-0.1919735511893921,0.6851744655432337,-0.0024271817891308475,-0.38918701140381823,-0.007958321723571223,0.921121188584038,0.10601796333384589,-0.40376979255066975,-0.6461337663511668,-0.009534863338044701,-0.5450374541614903,-0.5568389012815861,0.004862567442518829,-0.008567889550327914,1.117864001960607,0.09894464364366308,0.05502371662306396,1.1072175640517918,0.0,0.0,0.0,0.0
0.02187088168595538,-0.1910018454033035,0.6847815114418988,-0.0025982266132169958,-0.3890950955827266,-0.007993156904909284,0.9211592507566911,0.10290321547547325,-0.4203265188750867,-0.6201073806479166,-0.019040051565781122,-0.5336775476953906,-0.5511567314974534,-0.007122228200597982,-0.0020559897070161993,1.1085360394141852,0.0959371294565482,0.04957083269111841,1.1044354888981127,0.0,0.0,0.0,0.0
0.019678469630537092,-0.1900069685341052,0.6843892829561873,-0.0027789971712543346,-0.3888907239816213,-0.008010051092295474,0.9212448757291796,0.09974003196144578,-0.4364557843119798,-0.5954595741929867,-0.03004682321653873,-0.5202979611568911,-0.5471777349892134,-0.020332500992044582,0.0055449089691254885,1.1013459935377874,0.09295426846697853,0.0444118809320594,1.101182551243925,0.0,0.0,0.0,0.0
0.01797355892713447,-0.18903719523166204,0.6841144515428873,-0.002932766167924271,-0.3886400964719682,-0.008012993408968232,0.921350132269753,0.0966742420232735,-0.44902656483937453,-0.5769132843386844,-0.04227628798574447,-0.5050097657634092,-0.5464128053297272,-0.03413360215787775,0.013546537492902428,1.0977567571945264,0.09007615945470543,0.04074336061825082,1.097377617525044,0.0,0.0,0.0,0.0
0.017003032685683445,-0.1882907700210631,0.6840404237699381,-0.0029871950657583074,-0.3884160192401627,-0.007982483650641956,0.9214447094742212,0.09419415070451741,-0.45583911232856666,-0.5674061931180558,-0.052809258342331744,-0.4899760340114378,-0.5519791561378978,-0.04563982794910314,0.018956494120604635,1.0990487378703098,0.0877794048950355,0.03923954401786999,1.0936134124214938,0.0,0.0,0.0,0.0
0.01700438273303221,-0.18821230390437776,0.6840087281907394,-0.0030620693322060463,-0.3884261179691906,-0.00801712697646249,0.9214399059547141,0.0941353918497321,-0.4559480781229716,-0.5673860069243947,-0.05283043995143977,-0.48997230073427417,-0.5519864252156882,-0.045638161230747175,0.018984646745128328,1.099060017177234,0.08771715258543625,0.03923206884947304,1.0935736237171272,0.0,0.0,0.0,0.0
0.01700438273303221,-0.18821230390437776,0.6840087281907394,-0.0030620693322060463,-0.3884261179691906,-0.00801712697646249,0.9214399059547141,0.0941353918497321,-0.4559480781229716,-0.5673860069243947,-0.05283043995143977,-0.48997230073427417,-0.5519864252156882,-0.045638161230747175,0.018984646745128328,1.099060017177234,0.08771715258543625,0.03923206884947304,1.0935736237171272,0.0,0.0,0.0,0.0
0.016823266397484465,-0.1878707887637448,0.6836439175322062,-0.003251882117311346,-0.3883479422903699,-0.008039282374154305,0.9214720130966753,0.09333345052245849,-0.45756570270651137,-0.5670920432030581,-0.0537773167260507,-0.4933661601011865,-0.5469256354581749,-0.04617048005264656,0.016318935798000006,1.1025813016976387,0.08720822938980341,0.037389205755534206,1.0950734071309043,0.0,0.0,0.0,0.0
0.017040435929949464,-0.18737670389947622,0.6831657531157632,-0.003369830792049698,-0.3882958548441524,-0.008054973340684788,0.9214934024483099,0.09206044250951022,-0.45566100496102974,-0.5736872541930788,-0.055351587288912284,-0.4940199321966399,-0.5470328104727958,-0.047464562937747104,0.013631127275085635,1.1081989871797724,0.0860910412017842,0.03576013807399075,1.097853979421914,0.0,0.0,0.0,0.0
0.017779219942996968,-0.18670538210104465,0.682668535530445,-0.0034339546332317933,-0.3883393181835179,-0.008079755055434745,0.9214746331107446,0.09028042794687018,-0.4490739743498426,-0.5885590655762246,-0.057561565095431116,-0.4907029192766835,-0.553771731787379,-0.049607891900080234,0.011660898281455037,1.1156712919737326,0.08432419119667967,0.03513582381896366,1.1014645025188223,0.0,0.0,0.0,0.0
0.01916857197970377,-0.1857117326201983,0.6824360859650748,-0.003460662396061693,-0.38861063093371023,-0.008132371305042595,0.921359683228022,0.08752845476307547,-0.43610735678731805,-0.6131562466781512,-0.06075220745153664,-0.4821645342018589,-0.5673441893496501,-0.05308371308062035,0.012079826522522236,1.1237664516321026,0.08144465081727667,0.03745251811428625,1.1037614065815136,0.0,0.0,0.0,0.0
0.021508659181205148,-0.1840649445893375,0.6835188984785532,-0.003484039349119704,-0.3895962561217579,-0.008306249969295623,0.9209417054825842,0.08281853797958205,-0.411775454825303,-0.6499932958625028,-0.06537842265165014,-0.4645922317018742,-0.587456807604996,-0.05911227672164209,0.020915991562184724,1.1271862461547404,0.0762444131359842,0.04929477114519738,1.0971555888293103,0.0,0.0,0.0,0.0
0.023642898946718206,-0.1821073820947748,0.683795770687178,-0.0038922646588866253,-0.3893097228736317,-0.008185562794936775,0.9210623141316832,0.06843770996492737,-0.44924364171513836,-0.6087564328839136,-0.07243172332852829,-0.4516981013009098,-0.6071465257716584,-0.06421980022145551,0.023688637966042345,1.1322293549600995,0.05962726601569006,0.04070113445577985,1.0981329025721813,0.0,0.0,0.0,0.0
0.026302138661660913,-0.18023928785931684,0.6842059059236032,-0.004220473631549095,-0.3890214035066789,-0.008180033530993764,0.9211827301178909,0.053057654610588326,-0.47842756234377004,-0.5883300622643133,-0.07891503791336553,-0.43470032499344957,-0.6342055270699212,-0.06966287113761153,0.028357648565571738,1.1366435877200185,0.041343559061201594,0.031143791981430267,1.1025034665355213,0.0,0.0,0.0,0.0
0.02888737335725319,-0.1784872203833636,0.6847847056020081,-0.004505743086755717,-0.3889067685301538,-0.008218230923562365,0.9212294417522469,0.039443161832600236,-0.5001076846977704,-0.5801107124415782,-0.0848295687799705,-0.41844969669863585,-0.6585152731382227,-0.07502996066883225,0.03421122604683432,1.1397281641066028,0.02461732416272685,0.022599946205026165,1.1093533848924442,0.0,0.0,0.0,0.0
0.031213427408971504,-0.17689751252559524,0.6855013842574976,-0.004754085654869802,-0.3889049790382576,-0.008272132802697394,0.9212284666507723,0.028136362395128598,-0.5165078120956734,-0.5785396189794215,-0.09007650483471291,-0.40392963368581813,-0.6787878149308646,-0.0800304475640194,0.040688552953043314,1.1411214217266816,0.00992449223168904,0.0151486794836955,1.1176445184072243,0.0,0.0,0.0,0.0
0.03318290387947098,-0.17548223443158326,0.6862997562386616,-0.004971738093559499,-0.388961328784966,-0.008333551648366227,0.9212029735335675,0.018555413426442416,-0.5295137859350152,-0.5805674949111402,-0.09462269009781271,-0.3916466278376604,-0.694670038034222,-0.08453386897220756,0.04722148996187308,1.1409766653534186,-0.003160571676734265,0.008349950914215597,1.1265846521406426,0.0,0.0,0.0,0.0
0.03476949855224405,-0.17424996614133292,0.6871401834400394,-0.005164139992667131,-0.38904206524554,-0.008401266588166681,0.9211672062374646,0.010018099677032464,-0.540482273057276,-0.5844884513147794,-0.09843940752737579,-0.3816537810342686,-0.7064580598270913,-0.0884569068537007,0.053480828169090944,1.139508333984278,-0.015146749450657004,0.0017843031614958984,1.135692695379334,0.0,0.0,0.0,0.0
0.03599322824630096,-0.17320992389251524,0.688000212708561,-0.005334929011373495,-0.38912904008219396,-0.008475909864248933,0.921128811648581,0.0020679186508268596,-0.5503186106576624,-0.5893264892092613,-0.10150233918168297,-0.37372749694343993,-0.7147910669617409,-0.0917417671801882,0.05934284935090244,1.1368935599263443,-0.026400257156287854,-0.004832144660566437,1.1447292512547884,0.0,0.0,0.0,0.0
0.03689872059339366,-0.17236960469053506,0.6888667457504589,-0.005486347193101165,-0.3892138822261377,-0.008557819980844483,0.921091318813781,-0.0055157124500264075,-0.5596017387362158,-0.5945183247613135,-0.10380249801971544,-0.3675215750654754,-0.7204236926012718,-0.0943546433631506,0.06480255417101202,1.1332837858378353,-0.037134587693844506,-0.0116594843399301,1.1536069426871387,0.0,0.0,0.0,0.0
0.03753956317716231,-0.17173293662742023,0.6897295124719385,-0.005619898999382197,-0.38929368608784604,-0.008646613400442243,0.9210559585519642,-0.01279904761450585,-0.5686944228733005,-0.5997443419133206,-0.10534974880515059,-0.3626679654776494,-0.7240903679494665,-0.09628468491151072,0.06990206108541294,1.1288293989119496,-0.047461419120611685,-0.018773334992132202,1.1623212397584346,0.0,0.0,0.0,0.0
0.03796842551445948,-0.1713003020303176,0.690577089757096,-0.005736813083544719,-0.3893681111663814,-0.008741409118965279,0.9210228828585009,-0.019772748620605934,-0.5778219052122403,-0.6048335517755816,-0.10616876511622927,-0.3588334963116817,-0.7264380134187031,-0.09753898626931416,0.07468433507606538,1.123695358960896,-0.05744195155413212,-0.026196500144898854,1.1709054344080692,0.0,0.0,0.0,0.0
0.03823154262075029,-0.17106996555089404,0.6913943918370976,-0.005838220220701101,-0.38943745532660545,-0.008841109286493131,0.920991975187611,-0.026402584910216482,-0.5871165676402301,-0.6097049222955809,-0.1062914522955084,-0.35574826813927174,-0.7280015963561123,-0.0981346223763843,0.07916510496015308,1.11807043241526,-0.06711937704087907,-0.03391451138176279,1.1794017403757349,0.0,0.0,0.0,0.0
0.03836598981834979,-0.17104016228973293,0.692160552160773,-0.0059250904623520066,-0.38950135959602916,-0.00894449602651788,0.9209633978430898,-0.032654798096938574,-0.5966283014659729,-0.614324334351832,-0.10574908119584467,-0.3532187730455011,-0.729202580083065,-0.09808977508436856,0.08331423369784938,1.1121761553034255,-0.07652737051379938,-0.041875545425351636,1.1878375062809694,0.0,0.0,0.0,0.0
0.0383983786055651,-0.17121130559822428,0.6928468130210832,-0.005997980261232388,-0.38955803586322835,-0.009050062597608466,0.9209379226061596,-0.038504570754993805,-0.6062987013332052,-0.6186639646996589,-0.10456574567136871,-0.3511346029772864,-0.7303551479085585,-0.09741535268957857,0.08704144055180996,1.106277721653855,-0.08567063223173323,-0.04997612904886468,1.1961936796062809,0.0,0.0,0.0,0.0
0.03834393781104351,-0.17158800002454105,0.6934149491816003,-0.006056625748971817,-0.38960419317313716,-0.009155519294508835,0.9209169704229005,-0.0439321852072221,-0.6158978071762151,-0.6226554789398707,-0.10275364073564969,-0.3494733038926924,-0.7316683920378115,-0.09610760775793054,0.09018673443015013,1.1006924803272033,-0.09447133903952941,-0.05803124892839231,1.2043492183218976,0.0,0.0,0.0,0.0
0.03820547879280774,-0.17218059138880978,0.6938178134433242,-0.0060994604208639185,-0.3896361679993474,-0.009256894195897881,0.920902146310456,-0.04890516187768189,-0.624931160582321,-0.6261349533046893,-0.10031038308054901,-0.34830254618452594,-0.7332362567374233,-0.09414183245645129,0.09252277650087361,1.0957840334581936,-0.1026801679537226,-0.06572151994865379,1.2119798556713415,0.0,0.0,0.0,0.0
0.037972778389722364,-0.17300569158238754,0.6940047249132498,-0.006123322278191164,-0.38965312631612226,-0.009347203420531927,0.9208939004383537,-0.053342978613403536,-0.6325518421839254,-0.628790627956022,-0.0972193254420073,-0.3477704103216356,-0.7350146296051216,-0.09146789892807922,0.09378451560498073,1.0919229704138513,-0.10977756396336674,-0.07249979754217727,1.2183834407006366,0.0,0.0,0.0,0.0
0.037624820173320736,-0.17408418634712897,0.6939349916570681,-0.006124138724616381,-0.3896633037482303,-0.009414964569009395,0.9208888983363087,-0.05707929524736792,-0.6375720387524277,-0.6301507619394372,-0.09345615516079067,-0.34806273126336146,-0.7368012447652541,-0.08801105671076329,0.09374736771822406,1.0893956784316967,-0.11496271129979145,-0.07742800268771698,1.22220122977608,0.0,0.0,0.0,0.0
0.03713953170774833,-0.17543352149750005,0.6935996164982631,-0.006100274521477347,-0.3896908646799513,-0.009443578854059989,0.9208771011672413,-0.059906497182814405,-0.6387837437475994,-0.629717648926435,-0.08901043025903786,-0.3493036283271669,-0.738267238285273,-0.08368601819591096,0.09235720925748005,1.0882676834052243,-0.1174558283056247,-0.07899064181896917,1.2211255535746743,0.0,0.0,0.0,0.0
0.036502156197873024,-0.17706139337033802,0.6930002738982048,-0.006051703547210004,-0.3897364620890626,-0.00943126239261142,0.9208582509225613,-0.06178678583537473,-0.6361922564044158,-0.6274741020835267,-0.08385088191184122,-0.3515903145598241,-0.7392315909561905,-0.07845953577517231,0.0896104329220901,1.0884529830394003,-0.11721743954352064,-0.07718144540341802,1.2151863554249738,0.0,0.0,0.0,0.0
0.035705989094691956,-0.17896642332969384,0.6921484832461451,-0.005980278858966481,-0.38977836237826363,-0.009391338620294457,0.9208413909275619,-0.06287594480000974,-0.6310086934323388,-0.6238997015505475,-0.07791991326756253,-0.3549896937634485,-0.7396667440813126,-0.0723505919915733,0.08555371392501673,1.0897273754310275,-0.11495683864111904,-0.07350916037642463,1.2067201743655351,0.0,0.0,0.0,0.0
0.03474409813731689,-0.18114395508946024,0.6910858044898193,-0.005890297893556933,-0.3898112178675483,-0.009332857113195637,0.9208286575652653,-0.06331473006590893,-0.6244252165033561,-0.6194510453100758,-0.07117151131409753,-0.35950439035038134,-0.7394273025818071,-0.06537404997936541,0.08040061605643031,1.0916659896223049,-0.11141658034914255,-0.06892461890521887,1.197083162181114,0.0,0.0,0.0,0.0
0.03360009898555138,-0.18359203344257718,0.6898626728253543,-0.005784882143346574,-0.38983817137054905,-0.009261092285634907,0.9208186398258513,-0.06316891504197526,-0.6173005293465444,-0.6144210815514959,-0.06356107837470171,-0.36516913648978333,-0.7382195020307839,-0.057534400566233636,0.07440466754704463,1.093773270873465,-0.10706904554564672,-0.06399976296795401,1.1869543698277947,0.0,0.0,0.0,0.0
0.03224763600454684,-0.18631140283115433,0.6885262199617237,-0.0056653164104866725,-0.38986442880812205,-0.009178778529759329,0.9208090906180213,-0.06246259974908003,-0.6101488170417005,-0.6089596001572088,-0.055048314291014214,-0.37208497529031076,-0.735624751998846,-0.04883272905066961,0.06779183619467972,1.0955647857127557,-0.10213000968792882,-0.059077337365284054,1.1766208103089038,0.0,0.0,0.0,0.0
0.030653562895446376,-0.189302813751692,0.687116595393322,-0.005531484416117208,-0.3898941398549139,-0.009087364586592591,0.9207982309886469,-0.06121609859359746,-0.6032286911650132,-0.6031348124026131,-0.04560514402602457,-0.3804176813688833,-0.7311296448100352,-0.03927928805283103,0.06074537149136434,1.0965970578021185,-0.09666483185964035,-0.05435351288901074,1.1661555810814213,0.0,0.0,0.0,0.0
0.028782167909476287,-0.1925630459654947,0.685668314925157,-0.0053825092396139985,-0.3899291162892166,-0.008988071100035426,0.9207852775984728,-0.059468785271150085,-0.5966387244347345,-0.5969933831912815,-0.03522681205045483,-0.39038240016859876,-0.7241484317462381,-0.02890856397698817,0.05341923251864648,1.0964652667768588,-0.09069179211327531,-0.049923484806907316,1.1555217212860283,0.0,0.0,0.0,0.0
0.026599908604771273,-0.19608011196627453,0.684213796434276,-0.005217323269437987,-0.3899682688681024,-0.008882788596022054,0.9207706689945526,-0.05728883290278208,-0.5903821784584103,-0.5906051601105654,-0.023945804944336,-0.4022232668668372,-0.7140415608223102,-0.017795918689255598,0.045962885247862156,1.0947898605634343,-0.08425932364554185,-0.045806439106072544,1.144632339303388,0.0,0.0,0.0,0.0
0.0240812156172679,-0.1998277732194821,0.6827870520117957,-0.005035154384833121,-0.3900071868302822,-0.008774861615807112,0.9207562344316077,-0.05477193540852131,-0.5843879255894149,-0.5840897307044609,-0.011848414765487154,-0.4161884920080266,-0.7001421773813004,-0.006075023868703433,0.038546509425201984,1.0912098433710118,-0.0774988661675915,-0.04195631752769693,1.1333912489148223,0.0,0.0,0.0,0.0
0.02121647708377923,-0.20375933802828977,0.6814255396633364,-0.00483596846417753,-0.39003771504110163,-0.008669682461328154,0.9207453670046619,-0.05202528548133964,-0.5784828605990301,-0.5776255432726086,0.0009061609323417555,-0.43249717315353503,-0.6818077618426103,0.006045086491731853,0.03137643652377592,1.085402605476384,-0.07065450604086124,-0.03825895737580914,1.1217316308979468,0.0,0.0,0.0,0.0
0.018023806533537308,-0.20780013241123962,0.6801664187170777,-0.004620942723774346,-0.3900473813733961,-0.008574608224461468,0.9207432667502364,-0.04913203254125766,-0.5723174181971777,-0.5714518547661785,0.014061741399843387,-0.4512929476581518,-0.6585222571839783,0.018264381527228774,0.02468003212858135,1.077167627763201,-0.06407914219307859,-0.03451223642207454,1.109661715512481,0.0,0.0,0.0,0.0
0.01456665962656324,-0.21183576260239123,0.6790275204066197,-0.004393727033436573,-0.39001407479917005,-0.008489382214095726,0.9207592774503692,-0.04615711085601015,-0.5652755291824176,-0.5659492385866629,0.02719251517184825,-0.47258185972882205,-0.6300953292694697,0.03019140225449845,0.01859364658539251,1.0666427971040835,-0.05815782122855666,-0.030389447293566726,1.0973137689249626,0.0,0.0,0.0,0.0
0.010964906875747842,-0.2157078672079063,0.6779715614147921,-0.00415360481085688,-0.38988331134754617,-0.008444557006141058,0.9208161817413493,-0.043969955218542064,-0.5567574541124659,-0.5616870058421396,0.03987382778095082,-0.4962494185293239,-0.597040210801353,0.04125276773737877,0.012966108322932286,1.0546471581428933,-0.053244988495378516,-0.025462992973125067,1.0849778399666552,0.0,0.0,0.0,0.0
0.007714215050437096,-0.21922356326405165,0.6769438372732572,-0.003930059856409446,-0.3896037427879375,-0.00838754081590268,0.9209360061340947,-0.04265370525830088,-0.5464361892400866,-0.5591737255379912,0.05127084040748691,-0.5191624213836348,-0.5652862621390865,0.051084143924962286,0.00791016445024591,1.042942200405123,-0.04945586389089349,-0.019439915745516644,1.0736038027067638,0.0,0.0,0.0,0.0
0.005069401684056143,-0.2220518452368632,0.6760675126043034,-0.0037445999837453364,-0.3892251270871177,-0.008334193250704237,0.9210973453646681,-0.042921150634401425,-0.5349027121701858,-0.5597718559501259,0.06040637366099305,-0.5391707181876984,-0.5377036108072036,0.05880648666884927,0.003846944834711397,1.0326456558810806,-0.04718168307339914,-0.013263210373828221,1.0634429163776518,0.0,0.0,0.0,0.0
0.003443569894847903,-0.22372407319283788,0.6753918169126847,-0.003644453774258736,-0.38885921417538727,-0.008292018588755884,0.9212526645471976,-0.044966430444078775,-0.5246830988186149,-0.5653025322684946,0.06580402810291244,-0.5528309562118741,-0.5193258621941765,0.06330286842924636,0.0007080645515534639,1.0267599626117556,-0.04651379739229464,-0.008646448294937152,1.0552266111791813,0.0,0.0,0.0,0.0
0.003494546244186296,-0.2238566533875949,0.6753041752598944,-0.0035509506530829278,-0.3888812171651319,-0.008227340936985666,0.9212443218531833,-0.0449677627633623,-0.5246960971377144,-0.565330472942021,0.06593725558091947,-0.5530063732057183,-0.5192804900532384,0.06345745113521473,0.0007644522429068878,1.0267119032859098,-0.046544146866129066,-0.00861268721156007,1.0552291238559888,0.0,0.0,0.0,0.0
