zhuoxili-jackie/tripod-support-walk/examples/trajectory_tripod_com_left_tilt_v0.05.csv
root_pos_x,root_pos_y,root_pos_z,root_rot_x,root_rot_y,root_rot_z,root_rot_w,FL_hip_joint,FL_thigh_joint,FL_calf_joint,FR_hip_joint,FR_thigh_joint,FR_calf_joint,RL_hip_joint,RL_thigh_joint,RL_calf_joint,RR_hip_joint,RR_thigh_joint,RR_calf_joint,FL_foot_joint,FR_foot_joint,RL_foot_joint,RR_foot_joint
0.0,0.0,0.72963,0.0,-0.5231245161092812,0.0,0.852256264656019,0.0,-0.81,0.872,0.0,-0.81,0.872,0.0,0.65,1.0,0.0,0.65,1.0,0.0,0.0,0.0,0.0
-9.323113108146638e-05,-0.00013499624940573434,0.7295926828089523,0.00019435106537557572,-0.5230644049106088,4.551331991182707e-05,0.8522931352954286,8.875883696756049e-05,-0.80941327942351,0.8706494760818249,8.875883696756031e-05,-0.8105531160535382,0.872246700275587,-9.260403854145061e-06,0.6494967640770442,0.9998296307927769,-9.260403854146127e-06,0.6492769562354924,1.0007657165454866,0.0,0.0,0.0,0.0
-0.00020913149041499907,-0.0002679532335172119,0.7295573983145318,0.00038628846200982865,-0.5229994018739836,9.000831442322665e-05,0.8523329562554665,0.00017653538948718284,-0.8087335285881634,0.8690990494220832,0.00017689025964050405,-0.810999952959093,0.8722740303846565,-2.4678240739917537e-05,0.6489246221444621,0.9996568319170338,-2.4062265757430847e-05,0.6484845015067489,1.0015139013386227,0.0,0.0,0.0,0.0
-0.00032277763245038883,-0.00037130231201382494,0.7295435219276937,0.000533480296394141,-0.5229388906490182,0.00012248749831707847,0.8523700000835085,0.0002516527699867618,-0.8080948795845951,0.8676891183953832,0.0002525489902898348,-0.8112381306061702,0.8720902711633315,-3.84316155488726e-05,0.6484530468825619,0.999399491263531,-3.6905595208684436e-05,0.6478362232339899,1.0019693815194963,0.0,0.0,0.0,0.0
-0.0004257209203058093,-0.0004466250639576555,0.7295488692715913,0.0006382730092190185,-0.5228845538556869,0.00014375238326293688,0.8524032586059003,0.00031446227661946664,-0.8075339901864841,0.8664923370865767,0.0003158887146514796,-0.8113163598594145,0.8717852976697864,-4.891378525240082e-05,0.6481011556034239,0.9990683107567379,-4.653406985533643e-05,0.6473499444505184,1.002154592646132,0.0,0.0,0.0,0.0
-0.0005150707560406362,-0.0005015414318956632,0.7295656784753805,0.0007122531644189542,-0.5228364825968517,0.0001570185692233368,0.8524326838562389,0.0003678658485380961,-0.8070587369740343,0.8655045177474417,0.00036973766134935085,-0.8113064379681229,0.8714449792539157,-5.610525031932827e-05,0.6478454346095052,0.9987050485766822,-5.3044100921854785e-05,0.6469914512774988,1.002165038617097,0.0,0.0,0.0,0.0
-0.0005903051577279729,-0.0005429396243913692,0.7295873892955385,0.0007658991177111944,-0.5227945012324913,0.00016514806092393796,0.8524583835036935,0.00041458041629921245,-0.8066647665977666,0.8647006866929027,0.00041681077660367323,-0.8112621777212308,0.8711262355954849,-6.0431037077890974e-05,0.6476601684860939,0.9983445663082413,-5.685000016241126e-05,0.6467251089623202,1.0020839487762636,0.0,0.0,0.0,0.0
-0.000652274807905123,-0.000575522233943851,0.7296100646448153,0.0008063599647606298,-0.5227583361049262,0.00017005027904165742,0.8524805234721312,0.00045657351098682956,-0.8063416885564558,0.8640512992239173,0.0004590945702142422,-0.8112131184689281,0.8708556849930472,-6.248684027156237e-05,0.6475265602682909,0.9980065192413965,-5.850578274186309e-05,0.6465251133771498,1.0019638942445817,0.0,0.0,0.0,0.0
-0.0007025351515041963,-0.0006021262365401922,0.7296319002462494,0.0008379378830265494,-0.5227276265285917,0.00017282450845710918,0.8524993234340884,0.0004951757535739163,-0.8060769124625008,0.8635280174206295,0.0004979381005935067,-0.8111709350346424,0.870639046253374,-6.29243114089566e-05,0.6474325564368338,0.9976981288925716,-5.8627830722085217e-05,0.6463749250633228,1.00183186582366,0.0,0.0,0.0,0.0
-0.0007426191908079558,-0.0006245534851642517,0.729652293336809,0.0008633452553213073,-0.5227019924338955,0.00017412347888257478,0.8525150153643161,0.0005313646858872093,-0.8058586491022682,0.863107274761604,0.0005343331988732572,-0.811139349359308,0.8704744676040902,-6.23354114967424e-05,0.647371217330072,0.9974192285575402,-5.778313445022682e-05,0.6462645615778568,1.0017001927203557,0.0,0.0,0.0,0.0
-0.0007733197883368197,-0.0006444319875192303,0.7296709644465239,0.0008850072378593143,-0.5226811339210878,0.00017453199710822245,0.8525277816844075,0.0005660515849994451,-0.8056783471835075,0.8627732618934247,0.000569205008568765,-0.8111237594316321,0.8703656908937781,-6.113593412904938e-05,0.6473394109159746,0.997166799630014,-5.636411960050467e-05,0.6461881697612452,1.001577171542102,0.0,0.0,0.0,0.0
-0.000794159135530287,-0.0006639127204832915,0.7296872639755065,0.0009061153500632793,-0.5226648735103943,0.0001748709050821834,0.8525377284164628,0.0006003187695776692,-0.8055325622389201,0.8625200134443909,0.0006036547717298239,-0.8111389445661027,0.8703323973675222,-5.949329766926121e-05,0.6473365936060417,0.9969384592770587,-5.450571995466964e-05,0.6461418782559266,1.0014754831474333,0.0,0.0,0.0,0.0
-0.0008032485303091336,-0.0006860883959399866,0.7296996905073339,0.0009312618380368881,-0.522653046382294,0.00017636971071030206,0.8525449517488339,0.0006355891328429118,-0.8054241241980855,0.8623516913002006,0.0006391339375099582,-0.8112137752987622,0.8704154780826354,-5.735664665279758e-05,0.647362909770356,0.9967350343518597,-5.210762394783224e-05,0.6461212830522507,1.0014177093444372,0.0,0.0,0.0,0.0
-0.000797764496724948,-0.0007150146245718646,0.7297056553786003,0.0009664763882852832,-0.5226451526008933,0.0001806495404707127,0.8525497508954673,0.0006737046705786287,-0.8053622898937777,0.8622798886935077,0.0006775250829572259,-0.8113916274962265,0.8706746315843157,-5.46483423264223e-05,0.6474158278374755,0.996562346414195,-4.9022866436225086e-05,0.6461179182719844,1.001438205493245,0.0,0.0,0.0,0.0
-0.0007752857306626179,-0.0007551810934626349,0.7297015641701688,0.0010184372713252267,-0.5226397067884729,0.00018944495805536454,0.8525530269632449,0.0007168762655312935,-0.8053613613435797,0.8623166059479296,0.0007210910998615456,-0.8117247172583161,0.871175125723963,-5.1674476877647275e-05,0.647484680956966,0.9964321828911495,-4.54715044976604e-05,0.6461142647231225,1.001580201735051,0.0,0.0,0.0,0.0
-0.0007362099510364614,-0.0008102850502148025,0.7296832906256501,0.0010926341333722513,-0.5226332658999092,0.00020399747280643997,0.8525568801613629,0.0007674619125381802,-0.80543709294898,0.8624615291092638,0.0007722481218466052,-0.8122604579453135,0.8719606178606331,-4.9795080529971255e-05,0.6475426879529311,0.9963624500190368,-4.272374618270422e-05,0.646077053416192,1.0018870695174389,0.0,0.0,0.0,0.0
-0.0006873515301885354,-0.0008812956908344214,0.7296470192170194,0.0011904605269080863,-0.5226191923825958,0.00022411583244280774,0.8525653712937153,0.000827566622869046,-0.8056001555111278,0.8626823857551713,0.0008331507788065785,-0.8130190537067785,0.8730107743300931,-5.235211932612253e-05,0.6475361710791403,0.9963769991408626,-4.4062548526137915e-05,0.6459485670471433,1.0023881850374265,0.0,0.0,0.0,0.0
-0.0006465911586254542,-0.0009642260900863365,0.7295901683825855,0.0013058575280623156,-0.5225862930888086,0.00024708522041698937,0.8525853622721352,0.0008985947680501605,-0.8058457088278991,0.8628868826799545,0.0009052137046146171,-0.8139649786481132,0.8741873975759861,-6.580188340730987e-05,0.6473705892663221,0.9965064818703101,-5.599098374247315e-05,0.6456349302375565,1.0030837652077886,0.0,0.0,0.0,0.0
-0.0006481544415707773,-0.001049128059261321,0.729512043011599,0.0014238204036725252,-0.5225175790143167,0.0002670931719012702,0.8526272814176854,0.000981212757304064,-0.8061345392543322,0.8628805058622099,0.0009890332431226967,-0.8149807036926603,0.8751817446642822,-0.00010100174021691676,0.6468946623363547,0.996788115462458,-8.962427991225682e-05,0.6449905126206323,1.0039373985979634,0.0,0.0,0.0,0.0
-0.0007473665633469242,-0.0011251763643051523,0.7294187589999978,0.0015284715338323735,-0.5223942226954328,0.0002777295630720827,0.8527026813230357,0.0010758596094885874,-0.8063058403634584,0.862255522340139,0.0010849214274649519,-0.8158235448549758,0.8754670177343369,-0.0001735118631635398,0.6459241944136287,0.9972143946540811,-0.00016095412405245615,0.6438346351909411,1.0048616986451129,0.0,0.0,0.0,0.0
-0.0010130641122389206,-0.0012127810082560142,0.7294083802925034,0.001659630112810005,-0.5223883258729245,0.00030244906491031615,0.8527060402882902,0.0011408242816465068,-0.8045461947531011,0.8590067422050509,0.001151348341794864,-0.8148497040441874,0.8733128006784759,-0.00024655579784703375,0.6451726944623039,0.9972224776911075,-0.00023234094559900458,0.6428971225027611,1.0054653194147705,0.0,0.0,0.0,0.0
-0.001132735427094522,-0.0011237378971434792,0.7295227215221328,0.001698536450390616,-0.522646266513617,0.000439481433404309,0.8525478297018728,0.001779137599659911,-0.8160759180732896,0.8598325260178852,0.0005182600842724019,-0.8119349777767618,0.8700166466014964,-0.0002270804521684161,0.6458067324907143,0.9970011019463454,-0.00021157711441563152,0.6440105076255824,1.0048877642048528,0.0,0.0,0.0,0.0
-0.0012366021012933032,-0.0009949207891363865,0.729694519159214,0.0016954534941026975,-0.5229672662230628,0.0005800817596483616,0.8523508827952123,0.0024510285520322815,-0.8318101416552083,0.8573382809330715,-0.0001966901479735823,-0.8083661538755055,0.8661903468114591,-0.0001911046361314429,0.6468770961662719,0.9964995890105636,-0.00017455337387110018,0.645665092916946,1.003781963107805,0.0,0.0,0.0,0.0
-0.0013309873676802956,-0.0008760479497621251,0.7298548463818344,0.0017087845605306747,-0.5232789374535027,0.0007250368687369082,0.8521594381302116,0.003134449182912722,-0.8488287356598792,0.852822464184874,-0.0009065522739307372,-0.8049751897521045,0.8625718732139542,-0.00016171745912282632,0.6479052543615195,0.996038473562184,-0.00014357116843866688,0.6472614471292947,1.002784792165376,0.0,0.0,0.0,0.0
-0.0014076260683033822,-0.0007789775914336119,0.7299812051307866,0.0017531046742401309,-0.5235676560725226,0.000875825095575,0.8519818478518939,0.003826673385442591,-0.8657405705917097,0.847367931777628,-0.00159551183187037,-0.8020135702962197,0.8594351286901878,-0.00014036743274209912,0.6487830720343378,0.9957485653101463,-0.00011980402218104375,0.6486671708550338,1.0021051272743142,0.0,0.0,0.0,0.0
-0.001460450298317498,-0.0006992834950538802,0.7300733521934657,0.0018215760531231388,-0.5238317618764863,0.0010307132975987561,0.8518191737335788,0.004527055989985314,-0.8820215205869851,0.841439028750046,-0.0022662666063092726,-0.7995100041024624,0.8568356923098924,-0.0001252627549528215,0.6495186634408642,0.9956396212659939,-0.00010151262097949669,0.6498977725636559,1.0017222246556121,0.0,0.0,0.0,0.0
-0.001486762188415841,-0.0006272235059858984,0.7301394214302501,0.0019005700702713578,-0.5240735786610659,0.0011870049871865276,0.8516700435039101,0.005235638969053735,-0.8976068204890586,0.8351632960721611,-0.0029275434738357414,-0.7974007590793802,0.8547248945662669,-0.00011421402344306368,0.6501562324683386,0.9956736527742779,-8.670707671466736e-05,0.6510150975148881,1.001531935835532,0.0,0.0,0.0,0.0
-0.0014862182365146493,-0.0005531944566163874,0.7301888771982584,0.0019771219136107375,-0.5242969547006604,0.0013424774150105634,0.8515321438647766,0.005953073947047166,-0.9126231896558173,0.828540815685189,-0.003589161411667234,-0.7955951366386846,0.8530166242787972,-0.0001052178765629083,0.6507434300131262,0.9958045973145945,-7.36332946760116e-05,0.652084921495662,1.0014235231896613,0.0,0.0,0.0,0.0
-0.001459462288313548,-0.00046997058650113813,0.7302294292990976,0.002041900137540628,-0.5245059110434008,0.001495900040940981,0.8514030433393035,0.006680634096081299,-0.9272447727050972,0.8215440579968732,-0.004259872999144133,-0.7940107026727189,0.8516281326105627,-9.659790763938188e-05,0.65131888900807,0.9959950206781195,-6.084343102099088e-05,0.6531603816792174,1.001311584583563,0.0,0.0,0.0,0.0
-0.0014067098356469918,-0.0003732493557305187,0.7302661262208904,0.0020898368180349825,-0.5247039012424682,0.0016470791671304658,0.8512806445193178,0.007420214823152712,-0.9416338765869483,0.814151044501702,-0.004946626194801459,-0.792591123970836,0.8505047561874631,-8.695165835413063e-05,0.6519105665910674,0.9962199266175528,-4.708859101527732e-05,0.6542792539003518,1.0011434401574961,0.0,0.0,0.0,0.0
-0.001326586536131814,-0.0002613804390773738,0.7303014704800709,0.002119650021450263,-0.5248933749578294,0.0017966865408933308,0.851163453119693,0.008174338282597234,-0.9559241219458391,0.8063488835557256,-0.00565453334328172,-0.7913139963458962,0.8496336335237781,-7.504932614718335e-05,0.6525383872828603,0.9964648234376696,-3.118953593511999e-05,0.6554669833047908,1.0008951733928257,0.0,0.0,0.0,0.0
-0.0012156313122046005,-0.00013463857070424837,0.7303359138582005,0.0021327364952487098,-0.5250752678801837,0.0019459367846339911,0.8510508961428954,0.008946167047045171,-0.9702101073688888,0.7981313211903911,-0.006387142745046007,-0.7901922576765678,0.8490473551076952,-5.9852974788203575e-05,0.6532162585009016,0.9967222968819024,-1.206396447300564e-05,0.6567397215961768,1.0005630346823722,0.0,0.0,0.0,0.0
-0.0010689614079769855,5.893896499893045e-06,0.7303684564589483,0.002131497635819991,-0.525248129114044,0.002096088468294991,0.8509438677099437,0.009739521027563256,-0.9845152664824628,0.7895063712144609,-0.007146829488872056,-0.7892693741489085,0.8488148082894276,-4.081501415355826e-05,0.653950023326008,0.9969892815074444,1.0925649281243389e-05,0.6581036311883443,1.0001528036731513,0.0,0.0,0.0,0.0
-0.00088263924481859,0.00015979187614706167,0.7303972313084375,0.002117160559424265,-0.5254068711671325,0.0022477787188552906,0.8508455117425024,0.010558895972931182,-0.9987176618788132,0.7805290702425753,-0.007935264776996348,-0.7886059586141067,0.8490140010155244,-1.855067915431522e-05,0.6547291842327633,0.9972664559525325,3.721215686421538e-05,0.659548155761419,0.9996688284375489,0.0,0.0,0.0,0.0
-0.0006580945659113602,0.00032876871888439375,0.7304199000713865,0.0020876258277153967,-0.5255416506269976,0.002400379590786892,0.8507619252484647,0.011409505534362862,-1.0124280097970397,0.7713773834512286,-0.008753985514262137,-0.7882547398773074,0.849682403072032,4.18079666703245e-06,0.6555119726887101,0.9975615969143847,6.393967600209587e-05,0.6610325027525067,0.9991069830954816,0.0,0.0,0.0,0.0
-0.00040812070651771216,0.0005172784636396601,0.7304335468103261,0.002036774576694284,-0.5256382383556676,0.0025518910237181235,0.8507019347455824,0.012297417278569431,-1.024845724595733,0.7624903454167493,-0.009605144851979068,-0.7882231741646959,0.850748023046273,2.160521104655925e-05,0.6562075890636954,0.9978989689476709,8.503714165604153e-05,0.6624684414004887,0.998460131780902,0.0,0.0,0.0,0.0
-0.00016182950846305643,0.000730864669519873,0.7304339736316184,0.00195748123796167,-0.5256823426461885,0.0027002352258591335,0.8506744098813266,0.01322991236181704,-1.0346773494457666,0.7547708365925143,-0.010492787165157324,-0.7884294401194838,0.8519632830038265,2.5243028123528695e-05,0.656669807714126,0.9983332732736859,9.163943799958313e-05,0.6637129448656386,0.9977447051403506,0.0,0.0,0.0,0.0
3.795629159259278e-05,0.0009716388769997036,0.7304156579636147,0.0018494724858102247,-0.5256706237198333,0.0028465973889253322,0.8506814160970197,0.014216127646879993,-1.0402875669220297,0.7497773241242827,-0.011425520105516033,-0.7886693414357713,0.8528959954442878,7.235800403595769e-06,0.6567343814924373,0.9989534825612217,7.579891085110452e-05,0.6646041612228629,0.9970385699978221,0.0,0.0,0.0,0.0
0.00015514541520466956,0.0012346302102942777,0.7303754653587639,0.0017256462060962854,-0.5256239797359105,0.002998510323732728,0.8507099758481694,0.015266961891175136,-1.0403333631873335,0.7495439302650947,-0.012419503700953604,-0.7886502657697626,0.8530819696426271,-3.2913749745840175e-05,0.6563323318020431,0.9998428599674207,3.76325283269049e-05,0.6650766956565569,0.9964689500107505,0.0,0.0,0.0,0.0
0.00019368373357076823,0.001518603227253083,0.7303112550683157,0.0015901924234036561,-0.525543619882501,0.003158877476842047,0.8507593057862723,0.016392686443470476,-1.0348191456944655,0.7540476614279009,-0.013482195018396934,-0.7883993221630825,0.8525691257070286,-9.471141730062031e-05,0.6554665203272285,1.0010136505051614,-2.2048415342480152e-05,0.6651366922474655,0.9960612877946712,0.0,0.0,0.0,0.0
0.0001997315434665858,0.0018265548520931796,0.7302223492154848,0.0014374594938101836,-0.5254100558621392,0.003325388836911442,0.8508414356965878,0.01760280535203549,-1.0251037925353075,0.76125982585399,-0.014612060326764837,-0.7882754806783144,0.8519389645929365,-0.00017666806816220068,0.6542179043879349,1.0024005134983172,-0.00010177682055935868,0.6648680978880152,0.9957281399271071,0.0,0.0,0.0,0.0
0.00022759283801752393,0.0021553241730880735,0.7301106296472567,0.0012734805343279536,-0.5252276016534168,0.0035015990262946607,0.8509536318231372,0.018908802954311178,-1.0128245337257573,0.7696411969061879,-0.015816067481330503,-0.7885531347577444,0.8517494778487249,-0.0002696549062118694,0.6527664775217,1.003931285900344,-0.00019184576168074772,0.6644563236304923,0.9954228596435455,0.0,0.0,0.0,0.0
0.00031668603152037745,0.0024991183005028663,0.7299763027657448,0.0011101769979350942,-0.525010756487325,0.0036941422970371996,0.8510868500877741,0.020324776777703293,-0.9992662182610259,0.7782900563416527,-0.017106929394446392,-0.7893800868848739,0.852361552495027,-0.0003642216062902105,0.6512667192308512,1.0055732764792018,-0.0002820677891595382,0.6640614849501527,0.9951597125561021,0.0,0.0,0.0,0.0
0.00048753751425896724,0.0028545773786995306,0.7298189465531285,0.000956989296074234,-0.5247733694412057,0.0039094788799538425,0.8512324658233485,0.021867197518501497,-0.9852161939966915,0.7867543530334978,-0.018501290006807527,-0.7907961573180307,0.8539268812867126,-0.0004540907385622124,0.6498105742603331,1.0073237321745627,-0.0003656110025714262,0.6637840835308553,0.9949673545664892,0.0,0.0,0.0,0.0
0.0007455248504805072,0.003224016502029127,0.7296400308483231,0.0008157951614765907,-0.5245245773504733,0.004152262961430945,0.8513847901776617,0.02355495326776431,-0.9710421205425399,0.7948364421604122,-0.02001994767709193,-0.7927556211457689,0.856426361758069,-0.0005366064035907421,0.6484383551947435,1.009186028575812,-0.000439493632332351,0.6636799035737146,0.9948416385959137,0.0,0.0,0.0,0.0
0.001085215853183396,0.0036173512191946325,0.7294455620553777,0.000678199254446636,-0.5242689070998094,0.004424797249905145,0.8515409997548209,0.02540965119961428,-0.9568216639168307,0.8024533150512506,-0.021689303986501263,-0.7951336992326187,0.8597001911168609,-0.000611996455861916,0.6471629652911213,1.0111480184751491,-0.0005037610241775114,0.6637882118450894,0.9947103886297743,0.0,0.0,0.0,0.0
0.0014930479671704654,0.0040536659273611355,0.7292490685463079,0.0005236197198977534,-0.5240085552458125,0.004726971364659928,0.851699721494203,0.027456044597696242,-0.942443003038945,0.809549039497784,-0.023543674122350172,-0.797712052709612,0.8634513648982147,-0.0006823037264937412,0.645996158816705,1.0131622968348242,-0.0005603248429937414,0.664162218934027,0.994403028717837,0.0,0.0,0.0,0.0
0.0019488762816654529,0.004562314301862956,0.7290746604152911,0.0003182240957464211,-0.5237467552336259,0.005056571389293465,0.8518589473624482,0.029722528327794987,-0.9276569935310033,0.8160400047859773,-0.025627798531533092,-0.8001537551595577,0.8672348735409028,-0.0007502249050081692,0.6449745968900693,1.015127649980545,-0.0006116866014775086,0.6648990455026749,0.9936247636508456,0.0,0.0,0.0,0.0
0.0024280082811146265,0.005181973325295806,0.7289586059923322,1.696250942716614e-05,-0.5234917278823462,0.005410441477410464,0.8520135783390124,0.03224171971211699,-0.9120980552535874,0.8217725247392909,-0.027998261776589203,-0.8019906040532435,0.8704627056248131,-0.0008178081471447897,0.6441831335556258,1.0168775422357579,-0.0006593492821890759,0.6661644755718694,0.9919516110463668,0.0,0.0,0.0,0.0
0.002905144898553954,0.005954709352418639,0.7289463648411632,-0.00042704851510036635,-0.5232609670677325,0.005787474640527377,0.8521527346140434,0.03505118672327624,-0.8953114285642444,0.8264760894974581,-0.030721787670491184,-0.8026529882185682,0.8724598544481227,-0.0008849576229064771,0.6437668330168097,1.0181908804272357,-0.0007016720338769055,0.6681999247068326,0.9888813996120057,0.0,0.0,0.0,0.0
0.0033601590609738494,0.00691068633052784,0.7290801969306109,-0.0010395272345912882,-0.5230862472217896,0.006194908215775148,0.8522566048220168,0.03819435901993917,-0.8768344331765255,0.8297030958802143,-0.03386776288083029,-0.8015728918842151,0.8725985336926149,-0.0009476645916673372,0.6439128489553866,1.0188546877627194,-0.0007311484296843518,0.6712856852955961,0.9840013587648728,0.0,0.0,0.0,0.0
0.003781888662547204,0.008035983622228272,0.7293666658718566,-0.0017780625522027984,-0.5230211030234165,0.006660287682959445,0.8522918542692458,0.041721430918534315,-0.8563797323058586,0.8307549129303973,-0.0374907968601739,-0.7983977790180729,0.8705249579929549,-0.000995620658461846,0.6447498592061981,1.0188580156121094,-0.0007317547672919334,0.6755920466317715,0.9774100513434778,0.0,0.0,0.0,0.0
0.004152585613152398,0.009206518550161013,0.7296779200236411,-0.002440390974035915,-0.5231453643628947,0.007251992714981175,0.8522091180216097,0.04569040075157937,-0.8342137749714749,0.8285604960368572,-0.04158896437733694,-0.7934855109170799,0.866520084405819,-0.0010115704467686495,0.6458928624242886,1.0190886741695901,-0.0006814622235157425,0.6805960534367848,0.9709071880757097,0.0,0.0,0.0,0.0
0.00444894807870539,0.010182687054449564,0.729761178347114,-0.0026634959723564576,-0.523550384602189,0.008074659489106229,0.8519522876583173,0.05016180548016381,-0.8111657198554023,0.8209973002864406,-0.04609057290924523,-0.7880168213620374,0.8616560109438934,-0.0009740169811831104,0.6464575688517125,1.0212190060963382,-0.0005612353498248186,0.6850426553803148,0.9679582089661525,0.0,0.0,0.0,0.0
0.0046001026563206775,0.010713422284092278,0.7295628111129564,-0.002133366308732016,-0.5240012359792373,0.009153007965668017,0.8516656479426683,0.05508791317766132,-0.7867846238601274,0.8003691287461111,-0.050677623586913204,-0.7843693597652659,0.858269257437957,-0.0009828147685041388,0.645603671755948,1.0245607686556424,-0.0004800130534854458,0.687507211852333,0.9695805564885032,0.0,0.0,0.0,0.0
0.004635484443169772,0.010787042116615141,0.7295476700804402,-0.0021757974075184154,-0.5239685097193192,0.009190259243348155,0.8516852739499475,0.05537927444362713,-0.7865697012096429,0.8004073787146146,-0.050933197218868506,-0.7844287480567295,0.8583537346277497,-0.0009784728850776262,0.6454452653653066,1.0247816769908524,-0.0004571429816477283,0.687602187087979,0.9693726061781405,0.0,0.0,0.0,0.0
0.004635484443169772,0.010787042116615141,0.7295476700804402,-0.0021757974075184154,-0.5239685097193192,0.009190259243348155,0.8516852739499475,0.05537927444362713,-0.7865697012096429,0.8004073787146146,-0.050933197218868506,-0.7844287480567295,0.8583537346277497,-0.0009784728850776262,0.6454452653653066,1.0247816769908524,-0.0004571429816477283,0.687602187087979,0.9693726061781405,0.0,0.0,0.0,0.0
0.004795614693027779,0.010732273996768767,0.729280330131263,-0.002083174361865158,-0.5237005473653654,0.009200906901060736,0.8518501865856417,0.05549005842756413,-0.7896398907279564,0.8037250912600422,-0.05095213371903724,-0.7880159116457215,0.8623588562625205,-0.0011324836013175356,0.6440311483795818,1.0263113358339913,-0.0006236228490127441,0.6859893420913674,0.9713138474286077,0.0,0.0,0.0,0.0
0.004981062665959653,0.010670717602681902,0.729034847545524,-0.001974295092563124,-0.5235672715385575,0.009224362459189605,0.8519321131814315,0.05556021619049127,-0.7919160221949348,0.8063837019320792,-0.05098658651078578,-0.7908718037564341,0.8658107847837686,-0.001251743133087759,0.6431443435383968,1.0278579307431164,-0.00074912267676582,0.6849260563058214,0.9733409918992866,0.0,0.0,0.0,0.0
0.005170488257584185,0.01063753425568682,0.728832376805005,-0.0019029617581552479,-0.5235194905530738,0.009243236756138041,0.851961433588321,0.05558638155163974,-0.793696557525997,0.8086963443873149,-0.051041113591433686,-0.7929631874155944,0.8685435792635274,-0.001353426315233311,0.6426749893647069,1.0292728564616445,-0.0008537670820674577,0.6843454894717546,0.9750394977233592,0.0,0.0,0.0,0.0
0.005356774302475445,0.010645943371898064,0.7286652564258325,-0.0018897673092988399,-0.5235303906729342,0.00925064406878388,0.8519546844789776,0.05556975284436186,-0.7951977040692902,0.8108617408549258,-0.051118927991088546,-0.794383603333761,0.8705805002046474,-0.0014458886103489198,0.6424895510810739,1.0306224750347552,-0.0009473979975228031,0.6841252819578708,0.9763814504008258,0.0,0.0,0.0,0.0
0.005545836825760952,0.010696597798958735,0.7285206278053683,-0.0019357960045950269,-0.5235895530675881,0.009246111728310705,0.8519182719194485,0.05551292535568312,-0.7965599358913842,0.8130300687171651,-0.05122235866553045,-0.7952666069705923,0.8720628731065196,-0.0015313254642818428,0.6425183452873242,1.0319965754793043,-0.001032746585435436,0.6841928924283156,0.9774555937870741,0.0,0.0,0.0,0.0
0.005751129858283441,0.010785539836752461,0.7283860206424245,-0.0020348197362891353,-0.5236956902213987,0.009231780664800428,0.8518529554905181,0.0554182499440783,-0.7978850490378876,0.8153405737209736,-0.05135377323016764,-0.7957478483724607,0.8731795773824497,-0.0016084313824778836,0.6427425049397837,1.0334757330424182,-0.001108459992734373,0.6845231299317129,0.9783749477941249,0.0,0.0,0.0,0.0
0.005988241197064173,0.010909310241672108,0.7282514458185131,-0.0021812483407201476,-0.5238517097684371,0.009209887988186448,0.8517568938914474,0.05528678636356092,-0.799255347704377,0.8179284520983482,-0.0515160736896938,-0.7959376262643258,0.8741073471625613,-0.001674352138914464,0.6431723563553298,1.0351249927191624,-0.001171359567671392,0.6851222097264955,0.9792333528663851,0.0,0.0,0.0,0.0
0.006274244433232965,0.011069339697994013,0.7281111980231739,-0.002376920283578738,-0.5240616758011893,0.009180754985373947,0.8516275147881927,0.05511742206969713,-0.8007649850365479,0.8209655914698053,-0.051713798538546484,-0.7959107273117214,0.8749925676490339,-0.0017254537623129717,0.6438437927108792,1.0369867431037185,-0.00121733908718709,0.6860295239470248,0.9800667741457086,0.0,0.0,0.0,0.0
0.006632141516504771,0.011278301392131991,0.7279669518559022,-0.002640860676488553,-0.5243265741420039,0.009140134877246851,0.8514641081324702,0.05490561939449862,-0.80259234148485,0.8247738583938478,-0.051955858543636727,-0.7957162686247151,0.8759760239352353,-0.0017569541240611284,0.6448313312793038,1.0390609615399664,-0.0012408822749264553,0.6873398149483403,0.9807879285285235,0.0,0.0,0.0,0.0
0.007076324079214818,0.011560586608363494,0.7278293672839768,-0.0030104133046101418,-0.524640233521957,0.009078364614759322,0.8512703131659669,0.054643191423114815,-0.8049385430922981,0.8296920418929074,-0.05225286432457206,-0.7953187683884416,0.8770637530229505,-0.001766720101106443,0.6462020717031395,1.0412991936888325,-0.001238680277550169,0.6891542357896134,0.9811765962081912,0.0,0.0,0.0,0.0
0.007616943240573009,0.011958483815917707,0.7277215403417797,-0.0035509339425626157,-0.5249847917021224,0.008977597451651989,0.8510568500949927,0.054317467946071826,-0.8080968906669835,0.83618448119147,-0.05261907045026001,-0.7946081694081648,0.8781520784406855,-0.0017559859877904086,0.648029140485191,1.0435817710467563,-0.0012095435174401825,0.6916016622357831,0.980811991380606,0.0,0.0,0.0,0.0
0.008266015091281635,0.012534575816029743,0.7276810510193013,-0.004359787460759079,-0.5253279253403914,0.008810647287576825,0.8508430734308361,0.05391143248883131,-0.8125022460281195,0.8449244032320831,-0.05307302510527556,-0.7934283041996458,0.8790837951443596,-0.0017300528084139575,0.6504106141882656,1.0456966930943334,-0.001153257648897078,0.6948610668252624,0.9790324507712984,0.0,0.0,0.0,0.0
0.009048058710769732,0.013367583241251304,0.7277570117387012,-0.005560347836720339,-0.5256213057972088,0.008542595091433682,0.8506575982691718,0.05340612072242602,-0.8187730413100983,0.8568637349697422,-0.05363661547873255,-0.7916642511526226,0.8797877166962781,-0.0016987967529048617,0.6534863848639519,1.0473376644921233,-0.0010674154558371822,0.699175850615454,0.9749571349107237,0.0,0.0,0.0,0.0
0.010003374661980749,0.014525571444603301,0.7279907223124717,-0.007261397570505189,-0.5258037180148906,0.008141553087196985,0.8505359706328527,0.05278999023053814,-0.8276140395808568,0.873042977569439,-0.054326330961985164,-0.7894160784867635,0.8804818048310094,-0.0016783909903472477,0.6573833689635733,1.04818734168175,-0.0009442158466907676,0.7047686879059345,0.9677488527154312,0.0,0.0,0.0,0.0
0.011087400510462718,0.01593477016703962,0.72835174892264,-0.009354783283219786,-0.5258586130936569,0.0076332219250876245,0.8504862967667274,0.05208915368418615,-0.8384893797990771,0.8923985081860415,-0.055100286631846365,-0.7869472992191602,0.88127777267266,-0.0016957821206060758,0.6618376053053033,1.0482762499133613,-0.0007828329317324171,0.711282918939076,0.957909936535367,0.0,0.0,0.0,0.0
0.012040432441992635,0.01708536144187485,0.7285608469942402,-0.011060397122968026,-0.5259810793981841,0.007228298982260183,0.8503936285182447,0.05145636090930875,-0.8472778450939229,0.9080734350840697,-0.05576390018449778,-0.7850097200875635,0.8821738321961593,-0.001746366039605597,0.6655563551356031,1.0490900360186188,-0.0006181431000415831,0.7166850374283021,0.950620358047788,0.0,0.0,0.0,0.0
0.012857143713020207,0.017911030440028508,0.728604250088933,-0.012273308083374368,-0.5262106511252589,0.006957477685684785,0.8502372081103454,0.05092463905970093,-0.8536333071308284,0.9197047405613028,-0.05630623988621193,-0.7837413522442995,0.8834115726457643,-0.0017930777309425351,0.6685747487857052,1.050647481233511,-0.0004680429888174495,0.7208881578828603,0.9464528637079803,0.0,0.0,0.0,0.0
0.013556818875932195,0.018473565707083608,0.7285334203544604,-0.013086323833748525,-0.5265161337377887,0.006794454084792379,0.8500372606162737,0.050488082090270545,-0.858071510438,0.9281905633416312,-0.05674966396774887,-0.7830076110552526,0.8849281215660669,-0.0018254184814333234,0.671058939657248,1.052630902235481,-0.00034489576637248534,0.724141009784623,0.9446594151661621,0.0,0.0,0.0,0.0
0.014151914829376815,0.018856128235601385,0.7284019348237529,-0.013626036383994223,-0.5268498988324761,0.006702420180070722,0.8498226831500801,0.05012850456576868,-0.8611886307826065,0.934457084330423,-0.05711729748849125,-0.7826121421582227,0.8865176875460439,-0.0018503101976133445,0.6731154840570265,1.0547428807078076,-0.0002538658865486043,0.7266812566784913,0.9443171221421929,0.0,0.0,0.0,0.0
0.014649251598473663,0.019127215342051945,0.7282492708876265,-0.013997185057350842,-0.527173267008996,0.006650957338221658,0.8496164959133133,0.04982720506302068,-0.8634433808298562,0.939188423345186,-0.057426773514254424,-0.7823798047259396,0.8879703612127671,-0.0018782942913143444,0.6748021068199342,1.0567846181330391,-0.00019509419928863126,0.7286787693693967,0.9447030704576755,0.0,0.0,0.0,0.0
0.015055469792335026,0.01933352952873082,0.7280999696223296,-0.014271375985550125,-0.5274629494268839,0.006619689078511723,0.849432366069174,0.04956914706707139,-0.8651403036617826,0.9428413796860168,-0.05769073485812582,-0.7821878303542855,0.8891455449781478,-0.001916733510983377,0.6761605088697344,1.058646378191577,-0.0001657293478862173,0.7302516888600064,0.9453512926336859,0.0,0.0,0.0,0.0
0.015379919780457675,0.01950305746535743,0.7279670100049641,-0.014491537289858978,-0.5277093235697222,0.006596963288791434,0.8492757769063765,0.049343537163116326,-0.8664669164159895,0.9457148402723886,-0.057918358967199914,-0.7819683198691715,0.8899886200446404,-0.0019683106846900837,0.67723508302752,1.060279906909789,-0.00016120884697181238,0.7314898581462245,0.9460033711472444,0.0,0.0,0.0,0.0
0.015635016270194972,0.019650472129720865,0.7278555909622254,-0.014680071067701455,-0.5279124213383453,0.006577327116132016,0.8491464594980892,0.04914307734953741,-0.8675341682527461,0.94800978575704,-0.05811659169701911,-0.7816977084161312,0.8905175319723658,-0.0020318456627216024,0.6780782888880533,1.0616740324598906,-0.0001760996503440594,0.7324698614913874,0.9465411791568112,0.0,0.0,0.0,0.0
0.015835470875960846,0.019781822657709745,0.7277661491572854,-0.014846018804098872,-0.5280782872512149,0.0065593090125206956,0.8490405724844778,0.04896298881238384,-0.8684060374182698,0.9498687800541641,-0.05829094941237496,-0.7813834860568438,0.8908013453541316,-0.0021035907379904025,0.6787499314764532,1.0628375729570871,-0.00020465467666466562,0.7332624144169569,0.9469325110176059,0.0,0.0,0.0,0.0
0.01599745712461182,0.0198976344924261,0.7276963676218368,-0.014989829383707794,-0.5282165990171453,0.006543962998048536,0.8489521223756307,0.048800227882763135,-0.869116873476503,0.9513980340175892,-0.05844599520718844,-0.7810535057436537,0.8909427230431547,-0.0021781980171954192,0.6793154854324877,1.0637888486693037,-0.0002411065903457784,0.7339358191649139,0.9471962150988211,0.0,0.0,0.0,0.0
0.016138085269531716,0.019994526431979756,0.7276423010581886,-0.01510584431131182,-0.5283395430434277,0.006534133271974952,0.8488736336031932,0.04865296960083972,-0.8696790268312907,0.952677206753597,-0.0585856038318961,-0.7807490546668848,0.8910672560385408,-0.0022491965972355555,0.6798453807966984,1.064550141624585,-0.0002797472434451707,0.7345578874315848,0.9473840907372101,0.0,0.0,0.0,0.0
0.016274989267192105,0.0200658994644811,0.7275989095692555,-0.015183332936213705,-0.5284614812522243,0.006534168562376431,0.8487963441691131,0.04852026500466418,-0.8700841417627405,0.9537609239237465,-0.058713094665344884,-0.7805199432611862,0.8913162166832946,-0.002309161237630915,0.6804145888009926,1.065145513751556,-0.00031490988197956473,0.7351967033740323,0.9475734478995439,0.0,0.0,0.0,0.0
0.016425375229522098,0.020102465363967176,0.7275602750451547,-0.015207258002758519,-0.5285989533367194,0.006549719408689855,0.8487101902363549,0.04840163031346273,-0.8703000680226726,0.9546727577055403,-0.05883127581806761,-0.7804165536405488,0.8918334079385687,-0.0023498876703479904,0.681100214637493,1.065601930120668,-0.0003409742911323668,0.7359190640121043,0.9478644439020774,0.0,0.0,0.0,0.0
0.016607286657433367,0.020091400127345106,0.727519388261803,-0.015156835545020682,-0.5287722426002698,0.006588249110814329,0.8486028404179404,0.048296948075794606,-0.8702649274839035,0.9554036601107169,-0.05894259147780149,-0.780491489466389,0.8927743116839395,-0.0023618459675399613,0.6819891846072457,1.0659493750376898,-0.0003519574465693158,0.736797523786778,0.9483864422313997,0.0,0.0,0.0,0.0
0.016852150473252513,0.020009870312512754,0.7274690538772961,-0.014995179366017651,-0.5290086593187178,0.006662262393125172,0.8484577757445557,0.04820888553863769,-0.8698985286397045,0.9559710101815968,-0.05904987249971509,-0.7808705312150315,0.8944515537598922,-0.0023305252686895415,0.6832330595945103,1.0661821148259965,-0.0003394842881405603,0.7379601346503526,0.9493031102405489,0.0,0.0,0.0,0.0
0.01714762479280074,0.019866527007737323,0.7274181664446282,-0.014734058448185178,-0.5293093168347628,0.0067687823019478245,0.8482739759179878,0.04812968504051463,-0.8691425193951337,0.9562931231380466,-0.059154907649724996,-0.7814155746721787,0.8966655815889083,-0.0022590250469086857,0.6848334346945164,1.0662636049627716,-0.0003039577718820625,0.739426521260548,0.9505105914808366,0.0,0.0,0.0,0.0
0.017455440736363105,0.019700382742295516,0.7273986577345112,-0.014432364347185091,-0.5296486617832615,0.006890136596335191,0.8480663464306517,0.04804273962204763,-0.8680262353583369,0.9563459910518214,-0.059260799659207296,-0.7818018119144324,0.8988835512840891,-0.0021654520385788515,0.6867264770367125,1.066041911735643,-0.00025250647684717833,0.7411929967790599,0.9515571091131036,0.0,0.0,0.0,0.0
0.017727782508877875,0.019595614519848988,0.7274873329692233,-0.014219584285647582,-0.5299643676795208,0.006987445338308301,0.8478718936374958,0.04791992908863487,-0.8668055857585532,0.9564384490002955,-0.05937665842816747,-0.7815224498902511,0.9003325267428087,-0.0020850522721096534,0.6888962543527585,1.06507160622815,-0.00019852208157380944,0.7433676712686094,0.9513487606265076,0.0,0.0,0.0,0.0
0.017922730897565825,0.019741596956629862,0.7278918991639809,-0.01438838003168061,-0.5301128180928133,0.006973414283997406,0.8477763538262809,0.047707132847247764,-0.8662934801388509,0.9578609893270923,-0.059527627299775114,-0.779674360912411,0.8998842289804242,-0.002087695007426996,0.6916578278499249,1.0619611054589684,-0.00016559318038829362,0.746554295861599,0.947012319893885,0.0,0.0,0.0,0.0
0.01818434247232057,0.02053717852732227,0.7293393753534261,-0.015537097174592998,-0.5298070521200529,0.006674443586889583,0.8479496081360332,0.04728490319715905,-0.8683241534905138,0.9650361845446025,-0.05978852688303344,-0.7744996371367777,0.896902002649394,-0.002288174114600315,0.6977429858517654,1.0509538496832957,-0.00016947527005916726,0.7542850546771348,0.9294102740714223,0.0,0.0,0.0,0.0
0.018151698685913285,0.02126688608318411,0.7313212549819242,-0.016464133842068462,-0.5292161838572547,0.006368814022410743,0.8483033662837505,0.04692241177193695,-0.8682935293667335,0.9696247228407522,-0.059939322337356646,-0.7683666082307304,0.8924925559172121,-0.0033989600585304395,0.7047785575293722,1.0348976696577699,0.0004380432547532874,0.7224507454236735,0.9772043631282997,0.0,0.0,0.0,0.0
0.018271266604695677,0.022024783897361698,0.7334319608907566,-0.017420572494419636,-0.5287188819475639,0.006067597251176704,0.8485965188413644,0.04651440578567818,-0.8681025834235285,0.9750084026992148,-0.06012161042719625,-0.7618213099218721,0.8885034321225537,-0.004379234880502618,0.7132895997155658,1.017366347747018,0.0010301269101991007,0.6980089888843424,1.0139483280423272,0.0,0.0,0.0,0.0
0.018525966823505127,0.022753128889454372,0.7354138351011646,-0.01833632160654933,-0.5283228561819876,0.0057899642620945916,0.8488257861655074,0.04610093546455122,-0.8681805170282013,0.9809520716880619,-0.06032907786289612,-0.7558039382512375,0.885474790712626,-0.005220434057897847,0.7220930921848383,1.0005087619444624,0.0016110977251763197,0.6802841493882287,1.0435575707447218,0.0,0.0,0.0,0.0
0.018850122333855853,0.02340477748024178,0.7372096388516676,-0.019142288803797394,-0.5280341002164617,0.005552654235220943,0.84898924010784,0.045702997396880995,-0.8681708481658319,0.9866384547126779,-0.06054111986001874,-0.7503815784327654,0.8831813009236237,-0.005952558785525999,0.7307063955286995,0.9848931123967793,0.0021893768360162547,0.6671483633047851,1.0695878344165435,0.0,0.0,0.0,0.0
0.01920741840455046,0.02397777055277655,0.7388301401492108,-0.01983608194216382,-0.5278319784351181,0.0053533772396046585,0.8491002730812087,0.04532707928839292,-0.867997586308335,0.991854355863636,-0.060749657979870336,-0.7454932742964812,0.8814260947068789,-0.006608819279407064,0.7389670289931541,0.9705243840994616,0.0027738198499426743,0.6568461039282109,1.0939557756992921,0.0,0.0,0.0,0.0
0.019582945086828805,0.02449016450921158,0.7403054707628304,-0.020444893072530786,-0.5276913617979129,0.0051820748563937286,0.8491742925520648,0.04497162182107509,-0.867729935630345,0.9966890505844337,-0.06095366350088195,-0.7410467072434892,0.880067756120428,-0.007216248451446295,0.7468652382013099,0.9572254380862509,0.003373554430352868,0.6481500988076767,1.1176825597173867,0.0,0.0,0.0,0.0
0.019968155978652324,0.024960716304107313,0.7416643539622652,-0.020996290852627126,-0.5275923087836435,0.005029009569822288,0.8492233042878199,0.044633230355088115,-0.867436851505203,1.0012560970816302,-0.061153183364987616,-0.7369464276482119,0.8789833886998479,-0.007796993360230279,0.7544315002139499,0.9448079972662339,0.003997964859309363,0.6402918138780161,1.1413146372964977,0.0,0.0,0.0,0.0
0.02035777028920059,0.025403139574982723,0.7429279901982954,-0.021509996199930295,-0.5275209128749585,0.00488707450086969,0.8492556287984627,0.044309202657776964,-0.8671663049390387,1.005640150583561,-0.06134820909516887,-0.7331224595314905,0.8780866174610965,-0.008368567630751878,0.7616970992839529,0.9331273889958704,0.004656739665665811,0.6328494381964653,1.1651480801058565,0.0,0.0,0.0,0.0
0.020748760916925724,0.02582487097219474,0.7441097123672578,-0.021996282698800763,-0.527468545939433,0.004752217102324104,0.8492764644240337,0.04399832003020638,-0.8669438367784572,1.0098894439251,-0.06153849860592676,-0.7295383462569032,0.8773347050054661,-0.008944320284170604,0.7686834603950672,0.9220904849739423,0.005359987333146338,0.6256350692324814,1.1893454311215812,0.0,0.0,0.0,0.0
0.021140057260662613,0.026227395226100007,0.7452159503771985,-0.022456614255674072,-0.5274311384765104,0.004623201248843094,0.8492883613071339,0.04370101143993241,-0.8667755200192228,1.0140203531341774,-0.0617235812482517,-0.7261903361989771,0.8767284397503744,-0.009534221908096283,0.7754011158632766,0.9116524597486131,0.006118379081015165,0.6186081916384422,1.2139906224930517,0.0,0.0,0.0,0.0
0.02153248591711569,0.02660685651491554,0.7462470059523211,-0.02288466433934401,-0.5274088408940537,0.004501278559507494,0.8492914371263824,0.04341930283443681,-0.8666509514457469,1.0180229943860342,-0.061902814830773874,-0.7231043342198672,0.8763095689475775,-0.010145563813063915,0.7818504080296459,0.9018146534942426,0.006943306210206104,0.6118187304923992,1.2391052546744388,0.0,0.0,0.0,0.0
0.02192827797735763,0.02695465694276312,0.7471973748628329,-0.02326726559966826,-0.527405668493248,0.0043898778223734536,0.8492835946640023,0.04315668545490159,-0.8665452783295121,1.02186292986782,-0.06207542431311556,-0.7203321688887294,0.8761544298250611,-0.010783694884938154,0.7880190144832512,0.8926263725256515,0.007847052816036253,0.605370230281538,1.2646294238183529,0.0,0.0,0.0,0.0
0.02232911914635436,0.027258321447751508,0.748055674346355,-0.0235856612069833,-0.5274282843996813,0.004294117516215018,0.8492612565962228,0.04291791824998886,-0.8664213196169598,1.0254758907385497,-0.06224040535727273,-0.7179459227436308,0.8763570494712826,-0.011453472781104325,0.7938706617220548,0.8841916983004434,0.008842992222569169,0.5993906091516438,1.2903528032238796,0.0,0.0,0.0,0.0
0.022731222329940414,0.02750302602417473,0.7488040429012041,-0.023817557920260614,-0.527482635333693,0.004219832823964667,0.8492214000877951,0.04270884091406637,-0.8662339768282487,1.0287510673949969,-0.06239607772999413,-0.7160295127531763,0.8769923808321115,-0.01216262689240852,0.7993158012433428,0.8766845296932583,0.009945820784799553,0.5940029503473289,1.3157633654615613,0.0,0.0,0.0,0.0
0.023115295765928644,0.02767342323356552,0.7494164227407638,-0.02393929629940466,-0.52756761835171,0.004172157786713294,0.8491654204327898,0.04253643597261925,-0.8659323558116027,1.0314874086710313,-0.06253890045443765,-0.7146664967843417,0.8780482462580599,-0.012927950429024976,0.8041522297431486,0.8703791831668726,0.011171829670343579,0.589309996980717,1.339762049309624,0.0,0.0,0.0,0.0
0.023425214813741543,0.02775100785610836,0.7498565945151816,-0.023920283218937386,-0.5276705962824703,0.004155890850849237,0.8491020494857281,0.042409821307776194,-0.8653830206856022,1.03321686413698,-0.06265952631594122,-0.7138875236161448,0.8792710345319958,-0.013784914339150783,0.8079757941009093,0.8656913351970232,0.012539316452808345,0.5854204823039652,1.360230533116469,0.0,0.0,0.0,0.0
0.02361582269323219,0.027740235461856663,0.7500905087763102,-0.023765289016617116,-0.5277578345964156,0.004165112921895664,0.8490521367350811,0.04233239470275513,-0.8647039560659736,1.0337986836437596,-0.06275512209672565,-0.7137828683194853,0.8804740965173043,-0.014774742445205026,0.810358003831813,0.8630390465839302,0.014068779825464577,0.5828484430294714,1.3735529577474848,0.0,0.0,0.0,0.0
0.02364426622987232,0.027656252171296667,0.7500943802509882,-0.02349396995591143,-0.5277837430747969,0.004188904222549544,0.8490434659091852,0.042304485782234294,-0.8640916263909793,1.0332080538785122,-0.06282493068266745,-0.7144382768972967,0.8814681639107195,-0.015946133927043186,0.8108988414609671,0.8627365350183622,0.015783371626427532,0.5830797445203508,1.374312243209802,0.0,0.0,0.0,0.0
0.023496627862968036,0.02749516371612808,0.7498690461991362,-0.023095929104896138,-0.527739725665104,0.00422834875262932,0.8490815514899194,0.04232601972413931,-0.8635055263231258,1.031336573758464,-0.06286864984571622,-0.7158628355571712,0.8822041530032588,-0.01732274217060404,0.8095393463363623,0.86477449322003,0.017705749321784574,0.5860518902106762,1.362498281893268,0.0,0.0,0.0,0.0
0.02318494997540525,0.027238000379790947,0.7494408860869787,-0.022536729618816673,-0.5276483902713481,0.004294301231939106,0.8491530080256872,0.042396130381760794,-0.8626972329890241,1.0280125138588758,-0.06288624182001927,-0.7179846947121529,0.8827458310340667,-0.01890818265787115,0.8065426303159826,0.8688124210572647,0.019858409799224278,0.5901806323903199,1.3434809470607332,0.0,0.0,0.0,0.0
0.02271679858436297,0.026887784873092936,0.7488527352580497,-0.02181346448919228,-0.5275047458018599,0.004386460107917742,0.8492606636900214,0.042509423232985385,-0.8615727882206529,1.0232464392146403,-0.06287968780405136,-0.7207107932251222,0.8830872804520109,-0.020725588746913312,0.8021679807563392,0.8743538299167222,0.022267285226907085,0.594859355812564,1.3207832050347779,0.0,0.0,0.0,0.0
0.02206718708110246,0.02647082756812186,0.7481546496572347,-0.020955453591597145,-0.527265621004961,0.004491139351291529,0.8494301993326764,0.04265714359460919,-0.8601619472783668,1.017063053316447,-0.06284918256072433,-0.7238869958727638,0.8829613747245294,-0.02283087386672288,0.7964963163018903,0.8808890500488501,0.024961988908379446,0.5997853701594918,1.2963133645542044,0.0,0.0,0.0,0.0
0.02117394017272601,0.026032765073137194,0.7474037984324184,-0.020017282303021695,-0.5268524015827563,0.004582696863081124,0.8497086878719932,0.04282874437951047,-0.8585669529054827,1.009425823180678,-0.06279204256374865,-0.7272824515957618,0.8818111958261736,-0.025313186025808947,0.7894219378116938,0.887899690190265,0.027976183524459266,0.6046360767769614,1.2709156990149402,0.0,0.0,0.0,0.0
0.019943035361283213,0.025634217020381305,0.7466652608398563,-0.019071172015312176,-0.5261556810043068,0.004625252162407361,0.8501618062388422,0.04301406192508048,-0.856938207333356,1.0002313159741116,-0.06270302624328206,-0.7306063036681739,0.8788423260281305,-0.028291619366704407,0.7806920274533109,0.8948282781119167,0.03134801203507173,0.6089786930172653,1.24477852572482,0.0,0.0,0.0,0.0
0.018258789070561235,0.025346211309341025,0.746011544438135,-0.018198100995104445,-0.525041405457432,0.004574387182452257,0.8508698059382301,0.0432059745879849,-0.8554627978031477,0.9893333044677283,-0.06257501603268692,-0.7335413315177481,0.8731095264955613,-0.03191014663632881,0.7699670247884326,0.9010412602064173,0.03512057288131984,0.6122649271643696,1.2176957860075495,0.0,0.0,0.0,0.0
0.01599836583449565,0.02524426083900238,0.7455195760202641,-0.017475392161862526,-0.5233589775363952,0.004379300765814697,0.8519218350445366,0.04340372982886141,-0.8543599247277452,0.9765846940038475,-0.06239975588601183,-0.7357984227942816,0.8636376968269914,-0.036330629870986106,0.7568985432911305,0.9057917441753475,0.039342434031469725,0.6138399901078523,1.1892284972590401,0.0,0.0,0.0,0.0
0.013052690337474731,0.025399383056267905,0.7452629612283486,-0.016958668541800292,-0.520954471696447,0.003986590398672206,0.853406672740352,0.04361662166543463,-0.8538778749343819,0.9618966134324369,-0.0621689904776829,-0.7371989554601318,0.8495957787413753,-0.04172074793411507,0.7412299857119498,0.9082004447850183,0.04406815627404443,0.612962417914554,1.158828329484758,0.0,0.0,0.0,0.0
0.009357628206055716,0.02586426657535023,0.7452964799420425,-0.01665796967494764,-0.5176931827738228,0.0033473327349448157,0.8553976127622636,0.04386725636169315,-0.8542982354733791,0.9453342863581335,-0.06187705971802262,-0.7378007786713612,0.8305656941109569,-0.04823241774263415,0.7229220570667866,0.9072934169992255,0.049358798773098886,0.6088768553848702,1.1259987368160278,0.0,0.0,0.0,0.0
0.004942510470142506,0.02665333033874579,0.7456295871906421,-0.016512025213282547,-0.5134951013144002,0.0024296507050189974,0.8579302015589154,0.04419297041495635,-0.8559866995513176,0.9273229644893354,-0.06152741449332802,-0.7381089278946661,0.8070022855986962,-0.055965006012959215,0.7022946720160016,0.9021628816909985,0.055282440604523794,0.6010419611583859,1.0905708480208094,0.0,0.0,0.0,0.0
9.874388268951706e-06,0.027720998431457686,0.7461763252918147,-0.016377122303570895,-0.508372231663214,0.0012365161691639639,0.860980798256605,0.04464484541296568,-0.8597177679807289,0.9092541017999548,-0.06114947325084661,-0.7395612871276852,0.7811634691194744,-0.06491178810508418,0.6800740581199832,0.8924473620057427,0.061915094916809035,0.5897489047476839,1.0529987133889132,0.0,0.0,0.0,0.0
-0.004959942405041602,0.02889977542235815,0.7466406665402262,-0.015978051830247718,-0.5023966866969637,-0.00016159636810756878,0.8644895863700365,0.04532213268094746,-0.8676548373296853,0.8947173889439733,-0.060817549913621205,-0.7461174118691318,0.759421019071401,-0.07493290521043286,0.6568767568405638,0.8794252845194832,0.06934571904530967,0.5774762320079514,1.0133975508914932,0.0,0.0,0.0,0.0
-0.009523789874768969,0.03005857493120842,0.7466368868320856,-0.015155400240796002,-0.4957963308564397,-0.0016786546899731603,0.8683049546508789,0.04625543664088271,-0.881599261970855,0.8868489473304201,-0.06062601141521869,-0.7609566027528473,0.7472756586441613,-0.08579259376945006,0.6326902785707221,0.8664177642223392,0.07768012846850328,0.5653759362908027,0.9710000019806693,0.0,0.0,0.0,0.0
-0.013391045816200767,0.031142718528339056,0.7460557283752552,-0.01387642000932575,-0.48881088593437655,-0.003249104727223596,0.8722733551348718,0.04742492248890087,-0.9019812551258354,0.887298124456995,-0.06063427094554052,-0.7850459426516904,0.7474118372798944,-0.09731314197562724,0.6080550036649279,0.8550996190109771,0.08703385998034084,0.5539045732169736,0.9240374231741773,0.0,0.0,0.0,0.0
-0.01601102363104097,0.03195872117555724,0.7452132048847318,-0.012014215701079288,-0.48209928620804976,-0.004685739739867264,0.8760216782145673,0.04873677568060447,-0.9264035472408993,0.8966898674701478,-0.06087846708634582,-0.8170101615488286,0.7622267388602075,-0.10905789868382416,0.5871955555856874,0.843798227695673,0.09746514835726777,0.5449915037182071,0.876860240042272,0.0,0.0,0.0,0.0
-0.015980415066443574,0.03204798667172045,0.7450104769566154,-0.01184526691839921,-0.48211969718204867,-0.004773155094409208,0.8760122740185586,0.04877123663682938,-0.9265765678827311,0.8966014416028959,-0.060932652326161955,-0.817404612684639,0.7618144161260908,-0.10947222252460183,0.587452026228203,0.8437318936985707,0.098236201725644,0.5449057833362047,0.876848817099037,0.0,0.0,0.0,0.0
-0.015980415066443574,0.03204798667172045,0.7450104769566154,-0.01184526691839921,-0.48211969718204867,-0.004773155094409208,0.8760122740185586,0.04877123663682938,-0.9265765678827311,0.8966014416028959,-0.060932652326161955,-0.817404612684639,0.7618144161260908,-0.10947222252460183,0.587452026228203,0.8437318936985707,0.098236201725644,0.5449057833362047,0.876848817099037,0.0,0.0,0.0,0.0
-0.015895068518057724,0.03185742604445841,0.7450483485199177,-0.011610702493838972,-0.4833691329086303,-0.004611634758994873,0.8753274848670114,0.04858732410091037,-0.9189589008315693,0.8896001523174748,-0.06082743521281988,-0.8106400878310511,0.7557631510699321,-0.10939674213470374,0.5909117669373188,0.8455092055859819,0.09943923693415226,0.5475048188618615,0.8815668976830358,0.0,0.0,0.0,0.0
-0.015787589291682537,0.03162395588809413,0.7451041573806504,-0.011337867119933074,-0.48432021158371924,-0.004454703745903224,0.8748060019428355,0.048505779133354354,-0.9129775868392436,0.8841808694452263,-0.060706187705196035,-0.8060738616342257,0.7522358478000344,-0.1093777646073124,0.5937696597648261,0.8465516115709071,0.10052612666326365,0.549717983112162,0.8851487045334128,0.0,0.0,0.0,0.0
-0.015679593157911294,0.03141098041653111,0.7451649434062456,-0.01110608553250581,-0.4850507181058926,-0.004327209391713424,0.874404786690914,0.04848927695054655,-0.9083510759190853,0.8800805592955294,-0.06057325851955032,-0.8028150114518824,0.7500333953189338,-0.10936332249716128,0.5960982745919553,0.8471993523239153,0.10147530207395983,0.5515877835760254,0.8877998325869748,0.0,0.0,0.0,0.0
-0.01557798437644013,0.031215722555665376,0.7452230561445083,-0.010905860400059409,-0.48562143276653735,-0.004224739343933442,0.8740909780018242,0.048527359704101485,-0.9046943062749585,0.8768914941577881,-0.06042415864279004,-0.8004722645875911,0.7486998903334472,-0.10933775090829094,0.5980168838242708,0.8475768229748238,0.10229529792824577,0.5531406978010952,0.8898443630848948,0.0,0.0,0.0,0.0
-0.015487663355119145,0.031026004709845952,0.7452757387555895,-0.010717198243831477,-0.4860736926379144,-0.004139707731601685,0.8738423025964362,0.04861612307211555,-0.901694641348828,0.8742686558137526,-0.06025367183275411,-0.7988211063169792,0.7479941413843095,-0.10929630469082553,0.5996204162711936,0.8477296625447487,0.1030002124444308,0.5544035900472888,0.8915094013216368,0.0,0.0,0.0,0.0
-0.015413957243755959,0.030825967360996697,0.7453225092248869,-0.010516270936293782,-0.4864371864657755,-0.004063576616551367,0.8736428097420228,0.048754986443840284,-0.8990839001049064,0.8719006724925419,-0.060056056036317244,-0.7977208737910013,0.747773723024555,-0.10923854387514789,0.6009817989479163,0.8476643849974083,0.10360471460561789,0.5553955556843043,0.8929659011443868,0.0,0.0,0.0,0.0
-0.015359709328034325,0.03059964995535883,0.7453640998602215,-0.010279921595525253,-0.4867335506877854,-0.003988228917162589,0.8734808915351012,0.048945091117249304,-0.896650301160706,0.8695425641436587,-0.05982606939710736,-0.7970937990566014,0.747978179678388,-0.10916608236545215,0.602164153384437,0.8473660499567419,0.10412323561515432,0.556136427620912,0.8943420062903771,0.0,0.0,0.0,0.0
-0.01532603983709896,0.030328189700219287,0.7454010173473484,-0.00998116548784769,-0.4869793207565816,-0.003904550600187799,0.8733477382896077,0.04918966901574511,-0.8942091598431792,0.8669769765758254,-0.05955832843168974,-0.7969202975861885,0.7486231093496044,-0.10908158257615276,0.6032233414106788,0.8468035193023108,0.10456946791303566,0.5566376121185082,0.8957602627521849,0.0,0.0,0.0,0.0
-0.015312962260378524,0.029986231279194003,0.7454322276530072,-0.00958372282276776,-0.4871876863614222,-0.0038007040382690067,0.8732364314224839,0.049494709476508386,-0.8915772596419107,0.8639773891647152,-0.059246661132335315,-0.7972460092642144,0.7498092144475667,-0.10898847748029039,0.6042082113579336,0.8459310127370698,0.10495643892885505,0.5568920685130311,0.8973711540895696,0.0,0.0,0.0,0.0
-0.01531793074140147,0.029539399493424698,0.7454542570283514,-0.009038216936995781,-0.48736905646801526,-0.003660887015304839,0.8731416330346053,0.049869387435339925,-0.8885679678286375,0.8603037229338533,-0.058884048114892264,-0.7982011234275036,0.7517532361516192,-0.10889140781558171,0.6051642749894929,0.8446869596136026,0.10529741421017855,0.5568715873674628,0.8993732849624669,0.0,0.0,0.0,0.0
-0.015333278879066294,0.028940045560294895,0.7454600071869228,-0.008275867786710094,-0.48753095175782024,-0.003463296167234178,0.8730596123233217,0.05032699297841083,-0.8849888859001834,0.8557016691950794,-0.058462451747288674,-0.8000387922715508,0.7548469812889881,-0.10879724903985766,0.6061389574419854,0.8429876681749495,0.10560738417493454,0.5565229030689485,0.9020397066121654,0.0,0.0,0.0,0.0
-0.015340689984061412,0.02812135254408502,0.7454371481033305,-0.007199733531081405,-0.48767665564639295,-0.003177295597214395,0.8729888591312713,0.05088636907389534,-0.8806553142326734,0.8499276692177933,-0.057972782497559786,-0.8032051692589538,0.7597653086608059,-0.10871709152791151,0.6071917923423993,0.8407141950162639,0.10590567459776765,0.5557662715752959,0.9057485476064598,0.0,0.0,0.0,0.0
-0.01529892703866979,0.02699115612193071,0.745364351833648,-0.005675325325527215,-0.4877986516215415,-0.00276041883086118,0.8729333572767933,0.05157432772427934,-0.8754734403141915,0.8428705954195166,-0.05740594602711031,-0.8084822058718132,0.7676754490126995,-0.10866882760808817,0.6084007377141984,0.8377011110565876,0.10621898457746268,0.554491446187776,0.9110154936315566,0.0,0.0,0.0,0.0
-0.015197603922815096,0.025485457428317523,0.7452274566071573,-0.003606241966112509,-0.4878894730331793,-0.002181504789602436,0.8728952389371484,0.052398358394897926,-0.8692597815092031,0.8342279314018086,-0.056751796153866524,-0.8162661529222015,0.779098942559993,-0.10866131251871068,0.6097824001594861,0.8338002424465549,0.1065615353402938,0.5525957860477293,0.9181557833257309,0.0,0.0,0.0,0.0
-0.015033887581398817,0.023648213015912897,0.7450316416386739,-0.0010512745571631189,-0.48792781813175995,-0.0014568724249174525,0.8728821321562971,0.05332725238324909,-0.8622681890552649,0.8243133319253809,-0.05601825732554615,-0.8263652498545263,0.7936807560755024,-0.10869135571502883,0.6113055735621779,0.8290066219289963,0.10692997609988153,0.5501619571964943,0.9268248565106465,0.0,0.0,0.0,0.0
-0.014915018155167912,0.02212532985823006,0.7448840298755877,0.0010538897765593738,-0.48793782069501773,-0.0008704852388257887,0.872877319390981,0.05412757642042078,-0.8563342393963835,0.8158139197089642,-0.05532635051654973,-0.8345269211791908,0.8053070942557626,-0.1087042356838761,0.612621522983208,0.8247409478764385,0.10725163144832206,0.5482125121341008,0.9336588943401896,0.0,0.0,0.0,0.0
-0.014848417994656162,0.020972454970918687,0.7447974608794997,0.0026262586211617455,-0.4879348904148752,-0.0004463349781156205,0.8728759627040751,0.05479012079573163,-0.8516195985905033,0.8090362641446309,-0.05470861179274372,-0.8404464034197681,0.8136607865118917,-0.10868501199988725,0.6137239940383931,0.8211739841875331,0.10750690292833322,0.5468234018532369,0.9384663945069321,0.0,0.0,0.0,0.0
-0.014833772162202162,0.020124898685362297,0.7447573106853083,0.003759508290743084,-0.48792669798122357,-0.0001547074960163682,0.8728764973122729,0.055339493298943415,-0.8478844242696729,0.8036282766076349,-0.05416731790272072,-0.8445159147486373,0.8193259425084289,-0.10863300122254715,0.6145997801661665,0.8182682227810442,0.1076940019951538,0.5458332832045307,0.9417040592477708,0.0,0.0,0.0,0.0
-0.014858915588738341,0.019507144176668264,0.7447466551795869,0.004564018454963763,-0.4879125051563597,3.882390601466509e-05,0.8728806078383757,0.05580131162846596,-0.8449313422969766,0.7992949480999502,-0.053695870595473316,-0.8472508587686225,0.8230414905651885,-0.10855495991801185,0.6152592997011195,0.81592361503578,0.10782042343341704,0.5450955524173448,0.9438283443956218,0.0,0.0,0.0,0.0
-0.014911527442104592,0.01905642070379154,0.7447528791999982,0.005131822970263792,-0.48788918057457403,0.00016275840791644448,0.8728904773114283,0.05619579999740536,-0.8426068061341768,0.7958075533199911,-0.053285087650548846,-0.8490808992814026,0.8254162784971393,-0.10845828575134765,0.6157251912658298,0.8140252244864062,0.10789489286133959,0.5445058878869663,0.945182850599809,0.0,0.0,0.0,0.0
-0.014983535552507535,0.01872555422433774,0.7447678458519975,0.005532036372843674,-0.4878533363103309,0.00023831834639543824,0.8729080490113575,0.05653790360936753,-0.8407854335566615,0.7929769935650336,-0.05292573333988643,-0.8503158790667591,0.8268829283360786,-0.10834812729664522,0.61601968824466,0.812465188890554,0.1079237868634874,0.5439911231041714,0.9460042086324564,0.0,0.0,0.0,0.0
-0.015071700373297744,0.018480797513040752,0.7447868482255657,0.005813900460985454,-0.48780167824797394,0.0002804272126905609,0.872935073542396,0.05683854611346934,-0.8393623988789881,0.7906398604174686,-0.052609444102688786,-0.8511619880156412,0.8277211865491205,-0.10822669131261158,0.6161584878730001,0.8111497330745465,0.10791004544374555,0.5434974340790238,0.9464460786570883,0.0,0.0,0.0,0.0
-0.015177312144554651,0.018299066972417385,0.7448076474617378,0.006010837678258025,-0.4877307560894744,0.0002989836903807914,0.8729733615658316,0.057105726341315506,-0.8382489133043644,0.7886496412088743,-0.05232892743726824,-0.851743968833429,0.8280884042303056,-0.10809324152870393,0.6161478539857773,0.809999329817408,0.1078528801387891,0.5429816775751232,0.9465994628322917,0.0,0.0,0.0,0.0
-0.015306292760674012,0.018165847443818706,0.7448297657622904,0.0061435644821333695,-0.487636550929759,0.00029982389752435286,0.8730250631673829,0.05734523022303363,-0.8373674705757104,0.786866587611314,-0.0520778499663357,-0.8521200445905915,0.8280376973676118,-0.10794406370168128,0.6159815825490671,0.8089474242033523,0.10774742659324965,0.5424042207747053,0.9465063579987797,0.0,0.0,0.0,0.0
-0.015470805922957158,0.018073718403025303,0.7448538741569769,0.006222285703613036,-0.4875140569959553,0.0002853673593358875,0.8730929194292194,0.057560997570722285,-0.8366404332999592,0.7851339314703129,-0.051850436215883776,-0.8522845959678839,0.8275142499346297,-0.10777192592054356,0.6156342196675486,0.8079403370758498,0.10758375039209299,0.5417192624845241,0.9461697658643188,0.0,0.0,0.0,0.0
-0.015694262642469963,0.018019807959793056,0.7448819081866114,0.006250412667897214,-0.4873578231324494,0.0002557003819206393,0.8731799466263501,0.057755144720393635,-0.8359452544911553,0.7832012321964624,-0.051640098794124505,-0.8521484105296487,0.8263147835267964,-0.10756478388255343,0.6150535054439179,0.8069279162702461,0.1073449904550291,0.5408614680570532,0.9455629854091462,0.0,0.0,0.0,0.0
-0.0159951388088128,0.018011492444382462,0.7449198188593492,0.006216376527913714,-0.48715909185360484,0.00020606270614127335,0.8732910931787838,0.057928892553106966,-0.8352432971651381,0.7809556535067534,-0.05144286333121761,-0.8516094656583677,0.8242335598181807,-0.1073097948128437,0.6142059913815172,0.8058433187582196,0.10701173157005817,0.5398025194431515,0.9445720845976283,0.0,0.0,0.0,0.0
-0.016398264846729693,0.018061935904087122,0.7449782961595863,0.006100131277072299,-0.48690726456029426,0.00012869059507122736,0.873432360034562,0.05808229668013909,-0.8344819891501559,0.7782558455877332,-0.05125434477958154,-0.8504989620322143,0.8209593129257118,-0.10699028658769998,0.6130618975736977,0.8045822313038196,0.10655798430884247,0.5385255061233161,0.9430080609309135,0.0,0.0,0.0,0.0
-0.016927318184365606,0.018189715805645754,0.7450761129759893,0.005873863505485907,-0.4865884301170013,1.2962795579115798e-05,0.8736115825902018,0.05821536026593971,-0.8336336626507984,0.775014991642459,-0.051070238821365396,-0.8486202872274676,0.8161565559000573,-0.1065876373803435,0.6116336046974913,0.8029555990620075,0.10595318919715735,0.5370608799885254,0.940567518894799,0.0,0.0,0.0,0.0
-0.01758721163452037,0.01841266010383759,0.7452458819493047,0.005511284536141993,-0.48618415936040155,-0.00015163664749347601,0.8738389816986356,0.058330968745591016,-0.8327569273646552,0.771353078411558,-0.05088677935431113,-0.8458606803586006,0.8096872243994432,-0.10608682503779276,0.6100629266200955,0.8005899998586087,0.10516960583599715,0.5355582994586504,0.9367886392464435,0.0,0.0,0.0,0.0
-0.018325440814903886,0.018728844763312654,0.7455391207528552,0.005015628131472785,-0.4856753556742488,-0.00036618312188750623,0.874124795595606,0.0584410724915111,-0.8320945803759618,0.767873426127212,-0.05070143568749472,-0.8424552668348757,0.8021246972652732,-0.10549274316897546,0.6087829369383372,0.7967982688495984,0.10420569263687982,0.5344091196511437,0.9310737975687438,0.0,0.0,0.0,0.0
-0.018672020726032648,0.019063902758206012,0.7459422656957453,0.004498444572879738,-0.4849417481765077,-0.000594185770887902,0.8745346830258974,0.05863797384974401,-0.8348290561203987,0.7701339915802637,-0.05056628377558626,-0.8421566081572056,0.7998040364511761,-0.1049204384387396,0.6087884482306805,0.790939152088617,0.10320445356645316,0.5344619282419202,0.9234009863134692,0.0,0.0,0.0,0.0
-0.018497663463331603,0.019358915094178905,0.746545675687173,0.004042442499866771,-0.48394394933667334,-0.0008107404899232413,0.8750892841641456,0.05895400297903185,-0.841392909517601,0.7792888639803922,-0.05047639629181522,-0.8459633957688205,0.804716126179879,-0.10437363491069909,0.6109919669191353,0.7815485624130174,0.10217205361055402,0.536410936212142,0.9129213912383632,0.0,0.0,0.0,0.0
-0.017628613763539077,0.019454348181914587,0.747268292996449,0.0038775821284701157,-0.4825916647473716,-0.0009418271036461177,0.8758363788030868,0.05946684422258881,-0.8527096781881351,0.7966184451573436,-0.05043358919805559,-0.8563181385640329,0.8203589733509149,-0.1038784732172042,0.6154465229090671,0.7684314358313535,0.1011538535290573,0.5399556971686881,0.9006628268006058,0.0,0.0,0.0,0.0
-0.01582187991408389,0.019353680752009585,0.7477662573572383,0.003995552227466265,-0.4812740022624735,-0.0009815619783720274,0.8765605551499227,0.06016778801809218,-0.8686237843439822,0.8224890884797682,-0.050456045135416565,-0.8729998260419856,0.8470239449606368,-0.10382819165541755,0.6212662758590951,0.7569641753739986,0.10064455401741365,0.5445956830614859,0.8913823952473587,0.0,0.0,0.0,0.0
-0.012093595498980399,0.019273066131869236,0.7489582084976951,0.006954231229340005,-0.4889034564595126,-0.0016696723533620493,0.8723085813656671,0.05943395273338431,-0.8334672068627343,0.8099836097516283,-0.04981690185906995,-0.8503602186817064,0.8467977131375874,-0.09238019345489892,0.6118042127958325,0.8451228904879149,0.09127307426786177,0.571766567247844,0.9048868589711826,0.0,0.0,0.0,0.0
-0.007703430387129187,0.01894668523494208,0.7496179297974235,0.009786763873294331,-0.49583383242169776,-0.0021865156912842256,0.8683595160001598,0.05901750465922337,-0.806885925980926,0.8070532043408188,-0.04933792225763701,-0.8368022072909002,0.858067842426041,-0.08211671328719237,0.6078801178591338,0.9128779395499849,0.0829482398985247,0.5986103715381612,0.9185386200348008,0.0,0.0,0.0,0.0
-0.0029520779225526757,0.018503370349911914,0.7497474280761001,0.012397188537091609,-0.5017452593847884,-0.0025743048306542254,0.8649227580286613,0.058885345309935694,-0.7899927528367535,0.8141056575720569,-0.04901367068903356,-0.8322174574639364,0.8790330059870717,-0.07298605115418252,0.6084945723217051,0.9642323806837323,0.07554162406781857,0.623476424939161,0.9316749108551884,0.0,0.0,0.0,0.0
0.0017817801140268914,0.018035124595969523,0.749777931733477,0.014717196687710685,-0.5066759118338032,-0.0028728498985100713,0.8620061897820107,0.058922188941651035,-0.7795167063895281,0.8270276223394523,-0.04877751409362565,-0.8325682076200186,0.9041966592556293,-0.06485168538903233,0.6114967628794451,1.0060796131424785,0.06887480391154405,0.6472674153663228,0.9408100896865096,0.0,0.0,0.0,0.0
0.006054406767352309,0.01768352320866552,0.7499895417711003,0.016569058796953754,-0.5107414672302502,-0.0031550412906033876,0.859568883601849,0.059014529770932245,-0.7720357880344525,0.8408730656329921,-0.04857954210652426,-0.8334265832178523,0.9271433940084646,-0.057595899432700055,0.6140203392164674,1.0422405577533422,0.06278136921890869,0.6698660583160014,0.9442880911811022,0.0,0.0,0.0,0.0
0.009701425255822682,0.01748139316323282,0.7503952069623097,0.017940088145194568,-0.5140179187586973,-0.0034453241416790843,0.8575849008546493,0.05912890653035284,-0.7663419083846654,0.8537482849592133,-0.048404519593349606,-0.8336408020349518,0.9460738860251162,-0.05111817973503412,0.6152594786155715,1.0746380756746996,0.05715565637154093,0.6903812467312459,0.943162349396287,0.0,0.0,0.0,0.0
0.012707919363940612,0.01740957598687558,0.7509477143119383,0.018902203056008177,-0.5166187965683333,-0.0037441450976551933,0.85599866070538,0.05924950785756274,-0.761774978060967,0.8648915123791618,-0.04824431999244896,-0.8330167921609303,0.9608695530314156,-0.04533012029569796,0.6152101638297719,1.1045594377692138,0.05194419770759365,0.7083542979392271,0.9389035594902478,0.0,0.0,0.0,0.0
0.0151374099985086,0.017430880821511296,0.7516003498282018,0.019554888169076353,-0.5186658712269229,-0.004042777619005683,0.8547438074196474,0.05936723839847648,-0.7579298725352701,0.8741404278334399,-0.04809435722706135,-0.8316941979870021,0.9720916564973059,-0.04015363901819387,0.6140831776723044,1.1328934713521552,0.04712070008361459,0.7238017020461859,0.9326741706358491,0.0,0.0,0.0,0.0
0.017086205667898,0.0175077416255455,0.7523174778720858,0.019993686919641526,-0.5202726255689398,-0.0043310374221593355,0.8537551696369451,0.05947669389179631,-0.7545536247228926,0.8816387415659009,-0.04795281952447169,-0.8299022688270415,0.9805071710497176,-0.03551959430287802,0.6121096044379053,1.1602502873704121,0.04266995656712459,0.7370189978932171,0.9252647366170179,0.0,0.0,0.0,0.0
0.018655741179301903,0.017610395405471754,0.7530723376966398,0.02029538767686512,-0.5215373818243553,-0.004600878535035838,0.8529746118821757,0.059574718056079744,-0.7514981332076286,0.8876670850864612,-0.0478202450186238,-0.8278597382118642,0.986859655626956,-0.03136663740666722,0.6094997400740297,1.187038313885968,0.0385790277546028,0.7484025983991736,0.9171915457918858,0.0,0.0,0.0,0.0
0.019937407896827665,0.017719706530666797,0.7538433112727239,0.02051339757374656,-0.5225413467199698,-0.004847746310913651,0.8523533544509382,0.05965934583400542,-0.7486918317491661,0.8925470971186388,-0.04769900942313797,-0.8257367445428749,0.991766193075482,-0.027640230662404196,0.6064463237251451,1.213505821985621,0.034833088343928856,0.7583363009485156,0.9088001396369216,0.0,0.0,0.0,0.0
0.021005247538649564,0.01782731789929857,0.7546107670489143,0.020678422754553002,-0.5233489453817796,-0.0050708497160787975,0.8518524348050664,0.05972905167209528,-0.7461203791273541,0.8965885268911935,-0.04759276013274407,-0.8236451833597208,0.9956791248845884,-0.024291798157309454,0.603128187725418,1.239744044062024,0.031413826837704016,0.7671294083404667,0.9003439917971572,0.0,0.0,0.0,0.0
0.021912871262392778,0.017934490231141454,0.755353705511665,0.020801681185477455,-0.5240092800340944,-0.005272873284636597,0.8514421655669467,0.059782309002170866,-0.743812780581116,0.9000577344169476,-0.0475058601505376,-0.8216433779115018,0.9988790136296374,-0.02127798770839425,0.5997040299358896,1.2656402448959285,0.028299250297875146,0.7749816405460046,0.892050076847785,0.0,0.0,0.0,0.0
0.022691992559576664,0.018049992937197414,0.7560450122683384,0.020879678131575992,-0.5245579505887582,-0.00545923150584282,0.8511011645548426,0.059817513946297314,-0.7418312718659873,0.9031521674976684,-0.04744274921391359,-0.8197513780291326,1.0014824722331463,-0.01856003382805732,0.5963037329833492,1.2907586000750788,0.025464151282872525,0.781952521220414,0.8841913817499518,0.0,0.0,0.0,0.0
0.023351279820785192,0.01818644203424446,0.7566444690582503,0.020901343165067456,-0.5250190413458599,-0.00563655381817561,0.8508151205398415,0.059833285973752454,-0.7402610316632738,0.9059686295499946,-0.04740703047082551,-0.8179789257381216,1.0034621220580988,-0.016103211496959563,0.5930481044014819,1.3141137173226893,0.022881135041955245,0.7879217161478544,0.8771843894927476,0.0,0.0,0.0,0.0
0.02387631465410086,0.018354052863380422,0.7570908872879557,0.0208590474559766,-0.5254071419293966,-0.00580990826114522,0.850575381912038,0.059829137030892675,-0.7391955813946941,0.9084653091956626,-0.04740022224514531,-0.8163702949683387,1.0046909611184733,-0.013876367965199372,0.5901656530306261,1.3337895677216598,0.020522570963612177,0.792547162163152,0.8717025737690559,0.0,0.0,0.0,0.0
0.02423567189063083,0.018552203551140088,0.7573021688509627,0.020762433060967797,-0.5257282738546968,-0.005979106329885641,0.8503781239722984,0.05980677704624942,-0.7387202161140662,0.910457791915706,-0.047420441417290134,-0.8150613621357486,1.0050414829657148,-0.011851537299802962,0.5883273135212964,1.3463754216800634,0.018362542933093407,0.7952821204295234,0.8686999338538502,0.0,0.0,0.0,0.0
0.024405839998852753,0.018764709073476653,0.7572060151561308,0.020644598077132186,-0.5259823564517311,-0.006136967752796264,0.8502227348751143,0.05977079066443544,-0.7388882382928696,0.9117498297846853,-0.047463027549083256,-0.8142841314370829,1.0045572406784584,-0.010003705333842495,0.5892495761786665,1.3466028933215535,0.016379578799220383,0.795631273843791,0.8690592225500917,0.0,0.0,0.0,0.0
0.024391625511828167,0.018993209290313923,0.7567948254845214,0.020506814326562487,-0.5261789778626813,-0.006285230866917078,0.8501033170706426,0.05972099150675607,-0.7396948830312556,0.912353252879725,-0.04752773216498993,-0.8140327662570479,1.0032422797580454,-0.008308041481887678,0.5929508896956627,1.334510813877093,0.01455167299606574,0.7935893491129682,0.872867943811709,0.0,0.0,0.0,0.0
0.024226595457975748,0.019259717087276713,0.7561282208803048,0.020314166777125307,-0.526336393574996,-0.006435830926976309,0.8500093620113236,0.059652518559113694,-0.7410851517183901,0.91250506638338,-0.04761889440699562,-0.8140494514458165,1.0010463717101734,-0.0067397615083453506,0.597777730696992,1.3154167034828765,0.012854714517588524,0.7896614884600152,0.8793658061417319,0.0,0.0,0.0,0.0
0.023952694255873264,0.019574991004737273,0.7552798666760221,0.02004791651885752,-0.5264671134545473,-0.006595945794060543,0.8499334991592998,0.05956315674756514,-0.7429733777273251,0.9124469651971645,-0.047738343195124114,-0.8141367624717095,0.9980540627184443,-0.005276372379176774,0.6031108939863397,1.2927848734439629,0.011266632910883746,0.7844391008991596,0.8876457803326795,0.0,0.0,0.0,0.0
0.023620005972351397,0.019927391620435116,0.7543011135332229,0.019725702781766333,-0.5265841427925643,-0.0067621401154137045,0.849867231201583,0.059455239905369515,-0.7452794516386159,0.912386419482542,-0.04788486800471031,-0.8143025821053087,0.9945955048226798,-0.0038969118238920426,0.6088548610257312,1.2686335303507597,0.009773226384559013,0.7784041891963431,0.8971127485126925,0.0,0.0,0.0,0.0
0.023256483678235403,0.020305085064098262,0.7532216050846221,0.019365955878742704,-0.5266952497408737,-0.006930676947563832,0.8498052949766493,0.05933135644304398,-0.7479249766813902,0.9123953635838689,-0.048055471451192884,-0.8145673493352572,0.9908812300175984,-0.002581793030808702,0.6149875092677624,1.244053256598681,0.008358856045011282,0.7718287813793745,0.9074390723675122,0.0,0.0,0.0,0.0
0.022864006172651618,0.020704806258501622,0.7520574384302154,0.018973843197985462,-0.526799193621053,-0.007101731239543379,0.8497482970197162,0.05919321503762166,-0.7508484636022886,0.9124357989508136,-0.048246517098803,-0.8149007257991734,0.9869165373092057,-0.001312460251176942,0.6214264507393844,1.2195645667889672,0.007002460870499133,0.7648024159855193,0.918441065755752,0.0,0.0,0.0,0.0
0.022427452813127243,0.021130698969024655,0.7508168528895979,0.018543205800637463,-0.5268868146022438,-0.007278953948672191,0.8497019777229832,0.05904209411563464,-0.7540145144112469,0.9124175540579339,-0.0484542614264303,-0.815237496347401,0.9825675850512349,-7.100663221699726e-05,0.6280398636271098,1.1953588476582253,0.005678406415470174,0.7572964919913137,0.9300058985107683,0.0,0.0,0.0,0.0
0.021917032543032074,0.021594519957855038,0.749502403927455,0.018056285547863767,-0.5269431969701419,-0.007469645605796308,0.8496758453160971,0.05887845824367425,-0.7574039070728439,0.9122025041761929,-0.04867490458897608,-0.8154642990909692,0.9775610425691416,0.0011600726383598366,0.6346618322026678,1.1714335288176372,0.004357166111553217,0.7491906811957425,0.9420650453710894,0.0,0.0,0.0,0.0
0.021307318835433083,0.022104499981382274,0.7481088221204307,0.017501761904674076,-0.526954397368232,-0.00767946550163067,0.8496786317391563,0.05870405730272012,-0.7610178180131726,0.9116733745513054,-0.04890446807790773,-0.8155193716211803,0.9716861185033087,0.0023982850376253403,0.6411961815037204,1.1476882698924835,0.00301116500163376,0.7403403311647705,0.9546317918477151,0.0,0.0,0.0,0.0
0.020582997787890012,0.02266059666063929,0.7466197146141939,0.01688240031804521,-0.5269115369244074,-0.007910076105140034,0.8497156274374804,0.058522527194358985,-0.7648696701664207,0.9107379520664947,-0.049138691139839145,-0.8154267137699603,0.9648586013977065,0.003661434764632011,0.6476862104854351,1.1239493041613333,0.0016176809552238807,0.7305923271403237,0.9678415029923778,0.0,0.0,0.0,0.0
0.01973477045380403,0.02325450242092318,0.7450046773098548,0.016214989886701735,-0.5268119381488585,-0.008159067853773088,0.8497880238851185,0.05833902343219926,-0.7689680891649212,0.9092873936283031,-0.04937278666146655,-0.8152810181893744,0.9570830887301652,0.004967826227091252,0.6543729336635921,1.0999332854923565,0.00015871242253679622,0.7197657211523811,0.9819785612598504,0.0,0.0,0.0,0.0
0.01877090278442043,0.023858221262669645,0.7432168922408583,0.015548223430710306,-0.5266671489542012,-0.008414322746228258,0.849887737370839,0.05816140945303302,-0.7732800897716642,0.9071880219054225,-0.049600902667995245,-0.8153125562705197,0.9485898142152371,0.006336490922098778,0.6618431108075092,1.0752312975895884,-0.0013731213761611592,0.7077020389209282,0.9975236680045572,0.0,0.0,0.0,0.0
0.017785369764768702,0.024386574835230043,0.7412068656409467,0.015020798904490689,-0.5265115199773024,-0.008635563345739108,0.8499914246491921,0.05800896468094744,-0.7777970900079564,0.9046217475294969,-0.049818405435543806,-0.8162810263188357,0.9406369874218825,0.007788512302915185,0.6713697449466673,1.0492357258672762,-0.0029583747473174984,0.6945679416166672,1.015060649095601,0.0,0.0,0.0,0.0
0.016823190657780027,0.024791054893124893,0.7389993127062355,0.01470882338169146,-0.5263576898026007,-0.008801343907755894,0.8500904476853112,0.05789302226620951,-0.7823394331029786,0.9015603696254979,-0.0500178758646396,-0.8184540243608458,0.9338276365816192,0.009344756537317745,0.6841466571992155,1.0205647161584717,-0.004603415074022888,0.6806825996990482,1.0343837346549656,0.0,0.0,0.0,0.0
0.015964265079907124,0.025023419217757387,0.7367887681294493,0.014681446023336962,-0.5261914582963343,-0.008892868440802393,0.8501928729703252,0.057822370775854566,-0.7865308864498053,0.898236854443195,-0.05018913952886741,-0.8218768160360959,0.928987675251509,0.011027778484072147,0.7014860686740796,0.986731011273215,-0.0063303401358952936,0.6671643762928261,1.0537071092397177,0.0,0.0,0.0,0.0
0.01536230899430238,0.02507224776767655,0.7351395801275832,0.01493319024850402,-0.5260120115978791,-0.008912598298874733,0.8502993173437914,0.057776029218749324,-0.7893508121874906,0.895328772029624,-0.050323493780015674,-0.8255386069798417,0.9268199909586822,0.012861368620455178,0.7236639517187669,0.9453474411931316,-0.008173649123829051,0.6570067525735217,1.067987412002955,0.0,0.0,0.0,0.0
0.01535077926220165,0.025066493475162533,0.7351207097744874,0.01494307495143239,-0.5259863154223361,-0.00889385243561073,0.8503152355969427,0.05773986551204331,-0.7894304899696707,0.8952510099290603,-0.05036572099082456,-0.825613326638049,0.9267739620357324,0.012816362188612157,0.7238313363982201,0.9454749246764074,-0.008042848480072693,0.6569678533508704,1.0679022905194848,0.0,0.0,0.0,0.0
0.01535077926220165,0.025066493475162533,0.7351207097744874,0.01494307495143239,-0.5259863154223361,-0.00889385243561073,0.8503152355969427,0.05773986551204331,-0.7894304899696707,0.8952510099290603,-0.05036572099082456,-0.825613326638049,0.9267739620357324,0.012816362188612157,0.7238313363982201,0.9454749246764074,-0.008042848480072693,0.6569678533508704,1.0679022905194848,0.0,0.0,0.0,0.0
0.01578812674192009,0.025016453284921074,0.7349255802773602,0.015080683895175216,-0.5262663523265555,-0.008830708355957308,0.8501401754840713,0.05763575418107065,-0.7902911091121918,0.8977598142568638,-0.05052872097368368,-0.8269859744273521,0.930004753885241,0.012864227574700293,0.7249828440421939,0.9470336938691244,-0.008082528847979787,0.6583476600651009,1.0696311868887216,0.0,0.0,0.0,0.0
0.016230749636210507,0.024964936653622278,0.7346967573995113,0.01522214308316949,-0.5265422374663166,-0.008765924002824806,0.8499674800251461,0.05753477458736086,-0.7913114035105221,0.9003974202902459,-0.05069504826702862,-0.8285375851575869,0.9333847770113973,0.012923715821318484,0.7259835789588271,0.9488679769274684,-0.008134630334966359,0.6595699131521576,1.0716726373358698,0.0,0.0,0.0,0.0
0.016604253426942023,0.024935293901238262,0.7345006845219685,0.015327782069425429,-0.526766255451493,-0.008710193131261262,0.849827337610447,0.05742389787314826,-0.792298133119375,0.9027631292124343,-0.05086478765778582,-0.8298488633019494,0.936206650871046,0.012975076604409233,0.7267804124520267,0.9504606477353554,-0.008186941478459445,0.6605770463564308,1.073368761401836,0.0,0.0,0.0,0.0
0.01687918540666242,0.024936229856054662,0.734352396919658,0.015383603106284498,-0.5269269042325873,-0.00866695813467023,0.8497271716192333,0.05729608066745904,-0.7931654178965172,0.9046709951521973,-0.05103935567852662,-0.8307533313812789,0.9381777275432949,0.013010704930678978,0.727310609204886,0.9517337363712921,-0.008234847133306421,0.6613110421275326,1.07457905418153,0.0,0.0,0.0,0.0
0.01704665004596266,0.024970557280096735,0.7342489551447197,0.015385937419411659,-0.5270219297070537,-0.008636750867590137,0.8496685030481184,0.057147739345636744,-0.7939049076636945,0.9060706342814123,-0.051221203256506975,-0.8312188880267984,0.9392171757874843,0.01302774594246598,0.7275180585569373,0.9527414223349763,-0.008276668587610057,0.6617224967892716,1.0753305283672943,0.0,0.0,0.0,0.0
0.017103593320781308,0.025040761524889144,0.7341833690565844,0.015331878097016641,-0.5270511306045956,-0.00861996818464644,0.849651537626415,0.05697630414730872,-0.7945361342558154,0.9069598215396736,-0.05141311625421966,-0.8312444690293738,0.9392948884698719,0.013024973004514846,0.7273531081232123,0.9535665961222435,-0.008312170362213565,0.6617697899183735,1.0756812101825095,0.0,0.0,0.0,0.0
0.01704436620367205,0.025152167846527733,0.7341502557845958,0.015213886546463261,-0.5270127697193431,-0.008618426633851477,0.8496774687675641,0.056778901469714274,-0.7950826127836488,0.9073355211199727,-0.05161786501127156,-0.8308062918482086,0.9383418440382648,0.013001089463125247,0.7267612704163195,0.9542861175331175,-0.008341823599500918,0.6614080320123366,1.0756653421618052,0.0,0.0,0.0,0.0
0.01685598261715907,0.025314843965347746,0.7341481105652439,0.01501662393452886,-0.5269016898572035,-0.008636287056783752,0.8497496835992968,0.05655165444571059,-0.7955610431768518,0.9071678034873684,-0.05183800359753458,-0.8298292782204311,0.9361995942244796,0.012953770218984006,0.7256724328593059,0.9549608328947223,-0.008366424745778716,0.6605789908418047,1.0752706368848803,0.0,0.0,0.0,0.0
0.016515529112150224,0.025545019184768182,0.7341799929591668,0.014714717498193164,-0.5267084052977234,-0.008680742057379724,0.8498743304718708,0.05628931036548623,-0.7959776907106738,0.9063874609085616,-0.05207572048788375,-0.8281700582265309,0.9325887969742618,0.012879109258756322,0.7239925555031403,0.9556364369132702,-0.008386929623771692,0.6592042727427184,1.074428775893495,0.0,0.0,0.0,0.0
0.015989199246497946,0.025866393891351366,0.7342530131229033,0.014270891366157378,-0.5264190474987422,-0.00876264959232664,0.850060317896474,0.05598508027156793,-0.79633016665806,0.904884162717065,-0.05233269196000761,-0.8256060847962746,0.9270882101885927,0.012771337373720121,0.7215976548365987,0.9563531954300709,-0.008404445064824904,0.6571820617016465,1.0730144004272724,0.0,0.0,0.0,0.0
0.015233420083869152,0.026311293336392004,0.7343760015155284,0.013634629956627016,-0.5260165972101515,-0.008897086270250262,0.8503184569214636,0.05563072788657603,-0.7966156312512002,0.9025171186548275,-0.052609909233820265,-0.8218319957490783,0.9191257483134538,0.012622834949268394,0.7183298214769218,0.9571699904408969,-0.00842034543424381,0.6543878486357873,1.070857605158786,0.0,0.0,0.0,0.0
0.014199752028165022,0.026920848658587695,0.7345537991453058,0.0127428007645071,-0.525484490252198,-0.009103423402472036,0.8506590381671254,0.05521714035715091,-0.7968480615844464,0.8991447348773355,-0.052907438157968216,-0.8164727658617112,0.9079970517798545,0.012424651525198942,0.7139963560167462,0.9582137838401971,-0.008436431720244284,0.6506805446756143,1.0677855523530633,0.0,0.0,0.0,0.0
0.012847192938211306,0.02774115057588166,0.7347762032097129,0.011527068138965446,-0.5248143455465579,-0.009403479152788425,0.8510867194290372,0.054736024201772635,-0.7970848371102708,0.894682375179477,-0.053223976366790965,-0.8091407770950998,0.8929583109561248,0.012168071334606526,0.7083799835609321,0.9597604446292883,-0.008454771501800762,0.6459191608220594,1.0637202273748145,0.0,0.0,0.0,0.0
0.011169704801714283,0.028804974706413564,0.7350031975661127,0.009943793109345752,-0.5240193009431798,-0.009812886395235322,0.8515918039050246,0.054184554667417305,-0.7974439557446529,0.8891923910446532,-0.05355574330605869,-0.7996124428044258,0.8735338068211524,0.011848651070687945,0.7013018669641895,0.962288140388113,-0.00847593584215851,0.6400159885778577,1.0588524632245018,0.0,0.0,0.0,0.0
0.009258799778415166,0.030064411344150856,0.7351719729873495,0.008077779250079232,-0.523153520818169,-0.01030959991332189,0.8521378147269183,0.05357803079473833,-0.7979854233318767,0.8829602326652963,-0.05389286385869612,-0.7883224497181276,0.8504676924724788,0.01147791333734913,0.6929460173153424,0.9661188725794786,-0.00849222323607448,0.6331747069989425,1.0537810369401035,0.0,0.0,0.0,0.0
0.007582994892584327,0.03110007765477149,0.7353699134185234,0.006578070482749618,-0.522330269951047,-0.010702685871253878,0.8526507318924506,0.053020937340983426,-0.7982385940754463,0.8771579255936265,-0.05420056845786768,-0.7786356431124448,0.8303679650322219,0.011128651025222439,0.6858111846312434,0.9684440216234045,-0.008471108306131814,0.6273974259739195,1.0487554104036128,0.0,0.0,0.0,0.0
0.006282561266943024,0.03190440523396423,0.7355416535665396,0.005442128330571411,-0.5216320475490667,-0.010992251850445247,0.853082387936979,0.052538047370314075,-0.7986483371776817,0.8728441598596591,-0.05448984725376884,-0.7711981058005136,0.814678566592178,0.01083895552955476,0.680245438251912,0.9698369394527571,-0.008447062778582554,0.6229814470401133,1.0444163928005263,0.0,0.0,0.0,0.0
0.00532283761836806,0.03250178735084719,0.7356590346515385,0.0046225102206516365,-0.5210737215458978,-0.011191384031251226,0.8534257800400883,0.05212965321225998,-0.79920754102861,0.8698717250384561,-0.05476059328059274,-0.7658716481564132,0.8031403249676391,0.010612658052930669,0.6759915419810294,0.9708036918339833,-0.008430509023054233,0.61965151447656,1.0411147205828286,0.0,0.0,0.0,0.0
0.004637399333851725,0.03292808011903009,0.735723041881047,0.0040586845345874775,-0.5206422505828708,-0.011317486161105056,0.8536902766781668,0.05178799675709275,-0.7998395802706353,0.8679222205190017,-0.05501150061231166,-0.7622873936153776,0.7950520345390132,0.010441962798206226,0.6727715692850031,0.9715662016526422,-0.00842305808306589,0.6171410704438657,1.038833243537418,0.0,0.0,0.0,0.0
0.0041631983454957265,0.03321712751892597,0.7357459321087091,0.00369657368747234,-0.5203149127007131,-0.011386375355201693,0.8538905535374501,0.0515036916511416,-0.8004781910611108,0.8667085780487612,-0.055241843378848306,-0.7600705014204495,0.7896934938189077,0.01031645943825692,0.6703613222851739,0.9721832492450891,-0.008423034983549193,0.6152520004859044,1.0373973788813688,0.0,0.0,0.0,0.0
0.0038314415442645892,0.03342365357964121,0.735748773877155,0.003451835562916764,-0.5200694665768478,-0.011423320636532796,0.8540405976950712,0.0512609859197616,-0.8010785315823092,0.8659858419033257,-0.055451960639801304,-0.7586442400354648,0.7860460535961269,0.01022155234767701,0.6685550048124309,0.97270399205132,-0.00842967187429174,0.613842044123505,1.0364663360197717,0.0,0.0,0.0,0.0
0.003599214029936574,0.03357447994225124,0.7357428825316378,0.0032841392684980824,-0.5198859685427621,-0.011440311041697371,0.8541527459564177,0.05105095772797686,-0.8016184107622942,0.8655877162939609,-0.055642609852370524,-0.7577178048886587,0.7835475842420135,0.010148251654442447,0.6672070218911273,0.9731304165059483,-0.008440862137701973,0.6128008414014798,1.0358475517512256,0.0,0.0,0.0,0.0
0.003437037110482164,0.033687127844348144,0.7357340474326174,0.003167641019091162,-0.5197497738739014,-0.011444938991340284,0.854236004848711,0.05086714380129603,-0.8020890581166538,0.8654004923790702,-0.055815012004680184,-0.7571048762529988,0.781821446752585,0.0100904410167257,0.6662066629863767,0.9734746093558342,-0.008455100263194744,0.6120426920409573,1.0354245404031404,0.0,0.0,0.0,0.0
0.003322960774093475,0.03377528950920074,0.7357253047291892,0.003082349428624222,-0.5196501770765203,-0.011443013767549325,0.8542969331691742,0.0507041896427031,-0.8024890793588098,0.865343335587805,-0.05597064575840244,-0.7566654458868608,0.7805816167253564,0.010043517250818581,0.6654654800713866,0.9737593897806746,-0.008471486750208267,0.6114993787182573,1.035119342172435,0.0,0.0,0.0,0.0
0.0032439534583042903,0.033843858906396934,0.7357169012748842,0.003021686071468649,-0.5195794926954092,-0.011436244403121496,0.8543402322831454,0.050559025470924106,-0.802815720893828,0.8653571716482108,-0.05611096989647937,-0.7563456811455541,0.7796927466112933,0.010005088424763891,0.6649223745600285,0.9739968210241304,-0.008489188040695516,0.6111183886713791,1.034907191358482,0.0,0.0,0.0,0.0
0.0031907278398914008,0.03389851890914894,0.7357086839230423,0.002977699448619282,-0.5195327084236613,-0.011426772265103195,0.8543689642417789,0.05042867754522246,-0.8030750323962728,0.8654114250203748,-0.05623761658574194,-0.7560944834548473,0.7790400378619483,0.009973138879346493,0.6645316204562923,0.9742078967748833,-0.008507967954688129,0.6108631417205218,1.0347671442524484,0.0,0.0,0.0,0.0
0.003155989195862197,0.03394448907559709,0.7357007450616381,0.002943049236119462,-0.5195062306319288,-0.011416563041827782,0.8543853210841762,0.05031036552558959,-0.803272432645814,0.8654845268109025,-0.05635215793939876,-0.7558652458180332,0.7785255351472932,0.009945966140393588,0.6642585589487581,0.974410764353063,-0.00852779726599565,0.6107071692388436,1.0346792325546526,0.0,0.0,0.0,0.0
0.003131556192264,0.03398631264165032,0.7356942455256322,0.002911407752490108,-0.519496826717915,-0.011407276230741113,0.85439127148158,0.05020125999691635,-0.8034001995648562,0.8655380496459235,-0.056455832863871555,-0.7556041968978051,0.7780428470858797,0.00992194649064099,0.6640725404151274,0.9746127714786242,-0.008548531586057914,0.6106268816695447,1.034617952537296,0.0,0.0,0.0,0.0
0.0031068707943604796,0.034028894796116295,0.7356923161116625,0.0028758780798420016,-0.51950108264641,-0.01140074981131981,0.8543888911720572,0.050098158251779205,-0.8034346098528242,0.8655099159824723,-0.05654947119711602,-0.7552368869087955,0.7774544878503733,0.009899228248015588,0.6639447544183907,0.9748064135233595,-0.008569839358500557,0.6106007211187416,1.0345408069022235,0.0,0.0,0.0,0.0
0.0030662624004237937,0.03407897438500851,0.7357015326010963,0.002826768708493278,-0.5195147114355422,-0.011399677267892877,0.8543807824026134,0.0499969134413623,-0.8033274738752694,0.8652976057681346,-0.05663330490840462,-0.7546443416888514,0.7765520395883703,0.00987526703332577,0.6638444315335115,0.9749625537330193,-0.008591064649779953,0.6106072373866955,1.0343710649324809,0.0,0.0,0.0,0.0
0.0029844571627309913,0.03414806696592503,0.7357339296394674,0.0027471377556758073,-0.5195317515793528,-0.01140896812156069,0.8543705564808762,0.049891411431969665,-0.8029937595795118,0.8647323644058446,-0.056706675875019485,-0.7536203028384594,0.7749849939925592,0.009846020935913854,0.6637310801294318,0.9750257687591708,-0.008611093611996246,0.6106211755422122,1.0339719749308662,0.0,0.0,0.0,0.0
0.002819128774909871,0.034259796824870695,0.7358078768377349,0.002601679220907363,-0.5195445622146293,-0.011439166346037234,0.8543628179010064,0.04977155005863966,-0.8023013256454152,0.8635469397185238,-0.05676767705732483,-0.7517867751446585,0.7721183727259157,0.009804406435593676,0.6635311883482917,0.9749414415336521,-0.008628549827854215,0.6106002968599387,1.033120099097976,0.0,0.0,0.0,0.0
0.0024974273023015037,0.03447098572084013,0.735939219316808,0.0023048035273664077,-0.5195482853169735,-0.011516332709374657,0.8543603696250311,0.04961870566913282,-0.8010916234402456,0.8613530594009915,-0.05681296566544215,-0.7484044948467996,0.7666994487794255,0.009736862990409503,0.6630507749088603,0.9748402343367357,-0.008643542643026114,0.610428618901601,1.0315319018545257,0.0,0.0,0.0,0.0
0.0018868650031972451,0.03493808865251029,0.7360858603108171,0.0016205418497934109,-0.5195606807002177,-0.011713082505610326,0.854351728863854,0.049393963539941,-0.7993646432070229,0.8577094211436397,-0.05683933339859373,-0.7418988741636657,0.7559529686601371,0.009614082847552514,0.661619187899573,0.9758723573512454,-0.008664654092528026,0.6096610454816189,1.0291931372157177,0.0,0.0,0.0,0.0
0.0008839314454459975,0.03598689041519162,0.7363791178551927,5.113587245357136e-05,-0.5198758412984972,-0.012178090740117201,0.8541550217175029,0.048974416522114546,-0.795803399595798,0.8516399659546707,-0.05682805118116224,-0.7275472581485432,0.7337945654332446,0.009405734471317583,0.6600835052508269,0.97876452635296,-0.00872189178819025,0.6095898672125283,1.024511114618485,0.0,0.0,0.0,0.0
0.0001365354089381427,0.03695497167685875,0.7366032405873063,0.00021300028616192258,-0.520111817560245,-0.010986664865139157,0.854027484955957,0.04307578353402008,-0.7939482147075566,0.8472084140683678,-0.050764753019142565,-0.7632136010862969,0.7811381713436888,0.00946833764033378,0.6571298970253758,0.9802078921743621,-0.008768592235259005,0.611226719808211,1.0215305976065023,0.0,0.0,0.0,0.0
-0.0007300671813903875,0.03818240310248268,0.736773136417026,-0.00018668201850453083,-0.5204497153663986,-0.010080396007230173,0.853832796594975,0.03769729247369295,-0.7920096158366269,0.8425681637384579,-0.04534115857918007,-0.7936492853051534,0.8058721831343444,0.009462106179999586,0.6538285068073166,0.983561586265928,-0.00882477468165703,0.6125422614970323,1.0183131603055429,0.0,0.0,0.0,0.0
-0.0016130767201644148,0.03945195819032417,0.7369455030366461,-0.0008183487262112309,-0.5207991794700714,-0.009362445634656656,0.8536274887680227,0.03290443886048395,-0.789958209673566,0.8378857340380156,-0.040551145258235624,-0.8197604488579262,0.8175911845480587,0.009416687801504746,0.6506942968064908,0.9871841507862683,-0.00888251078394249,0.6137466727689858,1.014800225083684,0.0,0.0,0.0,0.0
-0.0024441421533294137,0.04064907818929263,0.7371495546486915,-0.001486249191441082,-0.5211222597372815,-0.008758447748784162,0.8534358037150082,0.028649191856696513,-0.7878334385970265,0.8333700480182046,-0.03631391540562918,-0.8421867044290502,0.821983876245155,0.009354378404722006,0.6480313258470136,0.990221007572916,-0.008933788487730429,0.6150312752525178,1.0110026990706857,0.0,0.0,0.0,0.0
-0.0031901609708853834,0.041735925461637347,0.7373607535037865,-0.0021141526413613345,-0.5214159759903075,-0.008232239022632353,0.8532603006007946,0.024874330374686917,-0.7857817928524288,0.8292207837139951,-0.032556879031290814,-0.8617201090586488,0.8222020051159394,0.009287705775670377,0.6458090713466951,0.9927194282838249,-0.008979032612698617,0.616354327436333,1.0072604935389058,0.0,0.0,0.0,0.0
-0.00383747256064632,0.04270506236207408,0.7375589550520811,-0.002675004393028234,-0.5216857927455735,-0.0077643037223574275,0.8530981734751439,0.021523113620790683,-0.783907051256206,0.8255637587773353,-0.02921613627549124,-0.8791720750212026,0.8199373822040544,0.0092236402620807,0.6439647885159944,0.9948354241697145,-0.009020424451720889,0.6176733388298572,1.0038062116412079,0.0,0.0,0.0,0.0
-0.004384361365826102,0.04356207297147217,0.7377353188183375,-0.003163616179808086,-0.5219381764541311,-0.007343122418057521,0.8529458423871686,0.01854244760172641,-0.7822551997821614,0.8224495952142509,-0.026235697279468236,-0.8952433275945103,0.8160935324774722,0.009165677195076969,0.6424528658764036,0.9966809101800862,-0.009059834663625407,0.6189749248878511,1.0007358028197628,0.0,0.0,0.0,0.0
-0.0048363048868629716,0.044318033757019676,0.7378887667815792,-0.003584646172318274,-0.5221784952357454,-0.006961303107356547,0.8528002753776521,0.01588405139139987,-0.7808312478737364,0.8198731936921765,-0.02356659763194406,-0.910469195751355,0.8111638611381597,0.009115161453420204,0.6412409862450367,0.9983194827935473,-0.009098444454199548,0.6202639161331795,0.9980553187589383,0.0,0.0,0.0,0.0
-0.005202341048134221,0.04498561403162967,0.7380219860328607,-0.0039464075973586555,-0.5224105015666353,-0.006613558615010627,0.8526593426230771,0.013504792989072917,-0.7796192268188512,0.8177980289801483,-0.021166022103404243,-0.9252273951604116,0.8054267394414787,0.009072232888780025,0.6403022354274089,0.9997846230746843,-0.009136852459064995,0.6215513083004173,0.9957260169256714,0.0,0.0,0.0,0.0
-0.005492231108973187,0.045576788390538754,0.7381387379154697,-0.004257289268363003,-0.5226362983269472,-0.006295515412332822,0.8525218716519153,0.011366646251462503,-0.7785984351653537,0.8161785295878078,-0.01899648868278461,-0.9397732270033473,0.7990404267009644,0.009036507517641132,0.6396113418858427,1.0010938337669515,-0.009175277999887273,0.6228474227672878,0.9936951301111735,0.0,0.0,0.0,0.0
-0.005714515391772532,0.046101461008047864,0.7382423036190181,-0.0045236099877920075,-0.5228563065565122,-0.006002976124546194,0.8523876957842652,0.009436443670746426,-0.7777551491731223,0.8149771735075434,-0.01702510545170858,-0.9542686667900032,0.7920911341662482,0.009007528294792174,0.6391432224571737,1.002256572526812,-0.009213728575620736,0.6241582922441717,0.9919143036501498,0.0,0.0,0.0,0.0
-0.005875730736821818,0.04656678602573639,0.7383346701486179,-0.00474851276298102,-0.5230689391352606,-0.005731505242348875,0.8522578755201443,0.0076854720284230335,-0.7770900166212895,0.8141737495534919,-0.015222893401984877,-0.968778249895623,0.7846283448066678,0.00898497734196765,0.6388705555408098,1.0032782462952554,-0.009252075635194345,0.6254821321680797,0.9903490245282592,0.0,0.0,0.0,0.0
-0.005981211581560314,0.04697728349392438,0.7384162334830454,-0.004932014856063093,-0.523269881595464,-0.005476367416025904,0.8521351510438079,0.0060888805763430545,-0.776620237457592,0.8137633346640397,-0.013564173276984186,-0.9832113457098126,0.7767137033984772,0.008968600664341944,0.6387577767235172,1.0041626913113386,-0.009290008420924143,0.6268036385107874,0.9889805356020506,0.0,0.0,0.0,0.0
-0.006037956893129974,0.047336125148050794,0.7384859803421204,-0.005072771278473124,-0.523451256540031,-0.005232985772645959,0.8520244508687073,0.004624834135323329,-0.7763736161263899,0.8137381118345731,-0.012026046112161449,-0.9972028235183148,0.7685093471067295,0.008957773184267891,0.6387503869703829,1.0049157641890594,-0.009326864363389252,0.6280855892267059,0.9878000974093653,0.0,0.0,0.0,0.0
-0.006059615863987592,0.047648031500050064,0.7385421515111876,-0.005172255173495038,-0.5236016193284105,-0.004998139826564941,0.8519328674322646,0.0032734061958019835,-0.776370076055308,0.8140491915522429,-0.010588060667103638,-1.0099552393154083,0.7604305766559137,0.00895070075149485,0.6387616132825236,1.0055536470369173,-0.009361412008007016,0.6292602681892578,0.9867961070080115,0.0,0.0,0.0,0.0
-0.006071932327064778,0.04792359559151091,0.7385832676370483,-0.005241196605855569,-0.5237086731941365,-0.004771877877346023,0.8518679385097784,0.002015485896803332,-0.7765881104140439,0.8145542301346742,-0.009232239512139298,-1.0201316898232278,0.7533690475824012,0.008943556924984285,0.638665731358658,1.0061189719214665,-0.009391835227314672,0.6302292372782088,0.9859388784399231,0.0,0.0,0.0,0.0
