zhuoxili-jackie/tripod-support-walk/examples/trajectory_walking_sideways_v0.10.csv
root_pos_x,root_pos_y,root_pos_z,root_rot_x,root_rot_y,root_rot_z,root_rot_w,FL_hip_joint,FL_thigh_joint,FL_calf_joint,FR_hip_joint,FR_thigh_joint,FR_calf_joint,RL_hip_joint,RL_thigh_joint,RL_calf_joint,RR_hip_joint,RR_thigh_joint,RR_calf_joint,FL_foot_joint,FR_foot_joint,RL_foot_joint,RR_foot_joint
0.0,0.0,0.72963,0.0,-0.5231245161092812,0.0,0.852256264656019,0.0,-0.81,0.872,0.0,-0.81,0.872,0.0,0.65,1.0,0.0,0.65,1.0,0.0,0.0,0.0,0.0
-0.0001719399642379309,-0.00013760327650099542,0.7296439233719407,0.00012027401297008188,-0.5234574627166528,-3.7988803569099055e-05,0.8520517993744608,0.00037359833972252544,-0.8064333135568981,0.867491223569081,0.00037359833972252474,-0.8075854111711016,0.8690026391287744,-5.948300332844845e-05,0.6506403647823524,1.0003018161211732,-5.948300332845005e-05,0.6502269176437547,1.0011218110745823,0.0,0.0,0.0,0.0
-0.0005654170556535948,-0.0005171724774749008,0.7296529854138974,-9.757833769279367e-05,-0.5233102480989834,0.0001457735459902492,0.8521422143416683,0.000974649084110984,-0.8048730542649617,0.8633524546871993,0.0009748664411545842,-0.8066374226018969,0.8667134984849233,0.005055812064866112,0.648180220835486,0.9987216115217546,0.0050572356725779935,0.6496773594314877,1.0026238325393173,0.0,0.0,0.0,0.0
-0.0010278130260129453,-0.0010285381040836682,0.7296503064835095,-0.0005503620945469522,-0.522856218869976,0.00048193027054600936,0.8524205764959988,0.0016460959052062825,-0.8051124455157473,0.8603422639742363,0.00164703931582334,-0.8069481183980138,0.8655150812468595,0.013365600465081586,0.6439218885800666,0.995989640470289,0.01347419946932341,0.6488299102090258,1.0042945738728732,0.0,0.0,0.0,0.0
-0.001026285058808987,-0.0014351024135989467,0.7296128815216772,-0.0008065218056816707,-0.5226258049129999,0.0006687779583587252,0.8525615346106451,0.0023305460054295784,-0.8063300082536357,0.8608029205963578,0.0023332655870102574,-0.8087822664275424,0.8679008147953216,0.018657120069234753,0.6422082854876429,0.9941511610716668,0.018976670708347892,0.6490517508891325,1.0057516616855504,0.0,0.0,0.0,0.0
-0.0005124134652165401,-0.0016404966904320082,0.7295399268186711,-0.0009020768313590833,-0.5226503651558343,0.0007255068648444935,0.8525463363944815,0.0027600518418845928,-0.808928871465242,0.8655168444728842,0.0027640331812381768,-0.8118897417458252,0.8737338174056056,0.020928997002688247,0.6430782571163731,0.9936080877703974,0.02139551875966737,0.6506685004025445,1.0067812266745455,0.0,0.0,0.0,0.0
0.000525436255621062,-0.001626823638367829,0.7294093553142149,-0.0009958126412575616,-0.5227122227822056,0.0007838534653305916,0.852508255728362,0.0026338073174553057,-0.8148223501354805,0.8763188504011002,0.0026382042749656044,-0.8172100181817651,0.8839409173487305,0.02188573226485599,0.6453480519839222,0.9939824092721964,0.022430094580985153,0.6535937414282776,1.0072165800271844,0.0,0.0,0.0,0.0
0.0021281709300566567,-0.0013401500064723177,0.729215539937486,-0.0011096596267950913,-0.5227989743002743,0.0008692810413603284,0.85245483486022,0.0017551173780830476,-0.8244115282736235,0.8937611567622956,0.0017591980732337325,-0.8247685847984896,0.89860264173587,0.02144049808040814,0.6490424654018259,0.9953762691940014,0.02198763331606376,0.657971682402823,1.0068507373074316,0.0,0.0,0.0,0.0
0.00438789388896616,-0.0006765806561408239,0.7290153735365491,-0.0010349475335644008,-0.5232619749727663,0.000821258142773709,0.8521708513944054,0.00015186101544351787,-0.8353835335050133,0.9162052652027602,0.00015560398998745294,-0.8329378634497026,0.9163953587900464,0.016612970066720054,0.6564216083856153,0.9984169264317322,0.016974806035987833,0.6645475722070298,1.0051835810963567,0.0,0.0,0.0,0.0
0.0074301158017077516,0.00041907933481555065,0.728960183515409,-0.0002921371432746638,-0.5248299682836224,0.00026838573467153005,0.8512069942243184,-0.0016181759974245192,-0.8422348682058403,0.9393513065120515,-0.00161662742770552,-0.838592331019791,0.9349091055524961,0.0012763879075637016,0.6724391908013845,1.003582606287351,0.001179288372377841,0.6746353060021714,1.0013615239778966,0.0,0.0,0.0,0.0
0.011148794937334928,0.0015864476013750617,0.7290446271391987,0.0011208502773425231,-0.5273039746808657,-0.0007847083187913325,0.8496756123446589,-0.002663300140367105,-0.8447250523730119,0.9619269440425992,-0.0026628703436066426,-0.8431979592682322,0.9554772885935343,-0.024433831562638453,0.697133650734636,1.0087947543286542,-0.024354568560652514,0.6872058276255089,0.9957799416711998,0.0,0.0,0.0,0.0
0.013838912756900624,0.0018403772228865484,0.7286239020794827,-0.00014367977501086995,-0.5254378955762117,5.994333311614284e-05,0.8508319420751439,-0.005609671465592882,-0.8479379645895218,0.9365725708738047,-0.004849599233787569,-0.8645908243789875,0.9875968491831111,-0.013274116197799498,0.6950400247468813,1.0050590247576943,-0.012908694834543148,0.6925533295528681,0.9925110256112568,0.0,0.0,0.0,0.0
0.016440762386173164,0.002270980264638395,0.7281895527754775,-0.0006342134138225264,-0.5248009366092665,0.0003875837981667752,0.8512246615824648,-0.010749228789927729,-0.853875856862732,0.9196934645887409,-0.006636797948346301,-0.8793492793246899,1.012058877446744,-0.012067830480526455,0.6986066448607761,1.0053151459881715,-0.011196955824172995,0.6981454768850939,0.9906534364875071,0.0,0.0,0.0,0.0
0.018846577868472165,0.0028938574189800396,0.7277774576541093,-0.00036022063707896393,-0.5255131639546267,0.00014924834181912844,0.8507853797970572,-0.016202174836817844,-0.8609600972442282,0.9122228129652735,-0.007850561574024913,-0.8867495429029957,1.0282139523652873,-0.02157645323029292,0.7084126091748467,1.0094802155330236,-0.020148066196087198,0.703989616763963,0.9899352822383229,0.0,0.0,0.0,0.0
0.02073403799306794,0.0034130133515759913,0.7274021831054323,-0.00015776433868143488,-0.5262007751332566,-3.4030280274686703e-05,0.8503603460895348,-0.021404765949774095,-0.8703786763855195,0.9081103405976103,-0.008887863954923853,-0.8918222896794312,1.0400252525193845,-0.029845531339501498,0.7166139812428339,1.0133004994426091,-0.02773102940322704,0.7086465446243647,0.9897477803875384,0.0,0.0,0.0,0.0
0.02198201022860246,0.0037021591886060453,0.7271226468461548,-0.00025755797353285893,-0.5263922057548264,1.1735227363567029e-05,0.8502418357424806,-0.026241706427932276,-0.8814127306627888,0.9040831008666083,-0.009754764520969487,-0.8962251983225317,1.0488097540151728,-0.032107841632791526,0.7203417277601207,1.0151114274766733,-0.029586989596776133,0.7117979090606621,0.9897268625643352,0.0,0.0,0.0,0.0
0.02266680458024144,0.0037848133559998014,0.7269662808994737,-0.0004819644389638387,-0.5263243175120775,0.00015205653475624257,0.8502837510999112,-0.03071960139282612,-0.892767364072659,0.8998113241587073,-0.010248922676042018,-0.8993231052472135,1.054345489673227,-0.030426260237612142,0.7211156499875692,1.0153964151563803,-0.027880036771877705,0.7137805288871923,0.98983707357136,0.0,0.0,0.0,0.0
0.02292385655540913,0.003707831667313576,0.7269139067959731,-0.0006585394109713487,-0.5262763072449218,0.0002557753149499379,0.8503133242149514,-0.0348906167473928,-0.9038005501899183,0.895662526260258,-0.010234586483994224,-0.9005901403077172,1.056670913067798,-0.02775964664854808,0.7209233540626733,1.0149564066847832,-0.025323171301106416,0.7149244270931137,0.9902205804397037,0.0,0.0,0.0,0.0
0.022869490458669997,0.003499672664418087,0.7269376153933116,-0.000718003408318066,-0.5263610361973272,0.00026705506816571866,0.8502608262915399,-0.03880728519366909,-0.9143595159382041,0.8917291268689039,-0.009675401627578255,-0.9001299019140452,1.0563171090585077,-0.025525506038473818,0.7207585309029166,1.014210181725758,-0.023192091746677936,0.7154364859645691,0.9909624407552023,0.0,0.0,0.0,0.0
0.02257023703473516,0.003157534756972998,0.7270187904630436,-0.0007141669001156487,-0.5264802339728802,0.000221016555197117,0.8501870408052469,-0.04255247023009584,-0.924655420127438,0.8875941610637901,-0.008633964707014124,-0.8987044726341366,1.054244308910617,-0.02302685991033608,0.7202704915934782,1.012992722432351,-0.020824378372013817,0.7153746821272096,0.9920107301497691,0.0,0.0,0.0,0.0
0.022062141852338107,0.00266461967852749,0.7271253983106929,-0.0007625325424721399,-0.5264329383417945,0.00019460806433690297,0.8502162913639372,-0.04622662665042115,-0.9351574527941644,0.8826549044422165,-0.0072153582832617455,-0.8974288983201463,1.0515936358053573,-0.018597138869936733,0.7183680593972706,1.0110322789875448,-0.01662899032235517,0.7146084210352392,0.9934151764006132,0.0,0.0,0.0,0.0
0.021442951960562385,0.0020796232594858166,0.7272413915515783,-0.0008418154556162942,-0.5262751514665027,0.00017959433291832685,0.850313897358807,-0.04989020131740236,-0.945810681725318,0.8770815542221441,-0.005567986117237298,-0.8963803979640502,1.0487694669341048,-0.013107512767297698,0.715653411763291,1.0086138754885794,-0.011367528550293889,0.7133979809899244,0.9950325965248606,0.0,0.0,0.0,0.0
0.02084987156737825,0.0015057303379523857,0.727367660502005,-0.0008695519629277563,-0.5261798536941259,0.00013000918988934797,0.8503728526613621,-0.05359171381257588,-0.9563512835861339,0.871424918888182,-0.0038895257377505182,-0.8951584244342601,1.045893360622305,-0.008527037205979254,0.7135349497479199,1.0062251066559937,-0.0068982545624713424,0.7122722765917499,0.9965119851717636,0.0,0.0,0.0,0.0
0.020365449575705324,0.001003759633172836,0.727479499167721,-0.0008442325837815196,-0.5261671147662698,4.6574970732628495e-05,0.8503807690915027,-0.057421236970727464,-0.9668396653988361,0.8658558310124926,-0.0023448981643707243,-0.8939635683582088,1.0434054407519273,-0.0052934323533798365,0.7122588560614479,1.0042253822683374,-0.00369577167188779,0.7113862470437842,0.997796041764379,0.0,0.0,0.0,0.0
0.020032041676935286,0.0006066501187757133,0.7275588600122384,-0.000783197618927767,-0.5262186875659997,-5.829514688053882e-05,0.8503489143048766,-0.061484536020668897,-0.9771584474038538,0.8604955368901233,-0.0010440129212712797,-0.8930330697226485,1.0416489217655667,-0.0033759254305118737,0.7117551960650087,1.0028001969549916,-0.0017742329799931272,0.7107846055285699,0.9988752277387433,0.0,0.0,0.0,0.0
0.019865267217652607,0.0003347117327341415,0.7276012371752327,-0.0006661424231947996,-0.526374591350472,-0.00019759272486022568,0.8502524959046052,-0.06582503034187236,-0.9866405727305272,0.8557753993951589,-1.55813352446018e-05,-0.8922371056960976,1.0405463737550695,-0.003152822207575858,0.7122449871411641,1.002136755511522,-0.0015302763579533641,0.7105173028719538,0.9997605306575249,0.0,0.0,0.0,0.0
0.01983299399732103,0.00017217098714530677,0.727613708942756,-0.0004990021963467083,-0.5266239793115349,-0.0003657601671774138,0.8500981129436721,-0.07042404697666885,-0.9942500496834853,0.8522553142625795,0.0007713572848825483,-0.8914907476440282,1.0399095742020203,-0.004400354531793389,0.7135773720871137,1.0021406557747967,-0.0027496381617132643,0.7105253159585043,1.0004787116143585,0.0,0.0,0.0,0.0
0.019852558311709914,5.7313489229771954e-05,0.7276107496502158,-0.0003557467681377756,-0.5268369790687503,-0.000510025061981854,0.8499661233275043,-0.07520343082289127,-0.9988521335620496,0.8504903426065012,0.0013809881520345363,-0.8910571407769758,1.039714001632244,-0.005677908199407174,0.7148329373735651,1.002285563761371,-0.003998896828007328,0.7105917472061392,1.0010666151395677,0.0,0.0,0.0,0.0
0.019843983836484044,-7.32962858631721e-05,0.7276114079645637,-0.00029738715271711297,-0.5269033101749475,-0.0005871925052234967,0.8499249781554407,-0.0799902308442289,-0.9994092067643734,0.8512021546037798,0.0019007442158643865,-0.8911233325851908,1.0398853228029796,-0.005665873226382102,0.7152159256248585,1.002043597845212,-0.003979523754190289,0.710541644533811,1.0015469719899128,0.0,0.0,0.0,0.0
0.019779255631450464,-0.00024241274103585836,0.7276209337261172,-0.00034807632411777294,-0.5267761978265204,-0.0005816765598861359,0.8500037516968304,-0.08475426645365076,-0.9960189792188684,0.8542193693478332,0.0023635780168823955,-0.8918018851728621,1.040437325358084,-0.003858382965516006,0.7144044795747518,1.001227592393841,-0.0021992380207840685,0.7102936734688139,1.001931771808639,0.0,0.0,0.0,0.0
0.019703600697895386,-0.0004113191781715495,0.7276297586356463,-0.00042946217790821445,-0.5265876582969208,-0.0005504110908610971,0.8501205507098591,-0.08956266659937513,-0.9896783623469458,0.8588411068775427,0.0027748421467021457,-0.8926971028761876,1.041138981570755,-0.0016344526069792045,0.7132489535732653,1.000292875210833,5.678005544299675e-07,0.7099650902000718,1.0022616039545733,0.0,0.0,0.0,0.0
0.019680519356783263,-0.0005249910775477619,0.7276340658444787,-0.00037484529150913834,-0.5266174234622295,-0.0006124763510819371,0.8501020960271358,-0.0943262999883059,-0.9811632688832445,0.8649133832727159,0.0032117465763488364,-0.8928293996388899,1.041290298900279,-0.0016112828818116189,0.7134616219206328,1.000016290214236,3.222732010844942e-05,0.7098188457631901,1.0026215662701061,0.0,0.0,0.0,0.0
0.01967738060640306,-0.0006165612772338204,0.727642809877389,-0.00016348109851157185,-0.5268847312527464,-0.0007881093581627425,0.8499363694596739,-0.09897265928750122,-0.9713197645964914,0.8718324348026535,0.0038037774517670434,-0.8920453026727732,1.040655062035582,-0.003800569557539425,0.7150884971530024,1.000310469728778,-0.0021332811288703284,0.7097848718762289,1.0031023855864203,0.0,0.0,0.0,0.0
0.01954232899673331,-0.0008278034806503379,0.7276461343535455,2.162058410585688e-05,-0.5270540989995799,-0.0009597115140367216,0.8498311921870726,-0.10352212649173675,-0.9612944013751689,0.8782238134434586,0.004716068081816534,-0.8914466813982371,1.0397237949514044,-0.0048049545146267615,0.7158126783112421,1.0002398271461816,-0.0031165433248840795,0.7091997909024482,1.0040621606203741,0.0,0.0,0.0,0.0
0.019184730675232093,-0.001227994631749065,0.727693108524605,0.0001094129364435974,-0.5269961404500707,-0.0010738425490628377,0.8498669912649381,-0.10791958792483386,-0.9514709474761788,0.883525684308547,0.006028921097406966,-0.8911642497540408,1.0383794254527967,-0.0030681531046049,0.7148215765474241,0.9989565585573258,-0.0014014512366879762,0.7080019976200147,1.0052689352763167,0.0,0.0,0.0,0.0
0.018580699291445575,-0.001811067699372595,0.7278009486567563,0.0002051597142974613,-0.5268898222302866,-0.0012039322580008763,0.849932717152803,-0.11197628339876714,-0.9416349606577016,0.8882659737889925,0.007859531176932616,-0.890265661653857,1.0356661125618791,-3.6658579791826705e-05,0.7130787166393429,0.9967500772162825,0.0016029825520207115,0.7062816668897752,1.0067776019908712,0.0,0.0,0.0,0.0
0.01771805871674991,-0.0025534064759042898,0.7279671754692963,0.00046689471490361377,-0.5270048073984878,-0.0014628387201161908,0.8498609151449942,-0.11547835421056293,-0.9313251171385745,0.8933463747052763,0.010348359879372132,-0.8875002814858692,1.0303222554726805,0.002008546897584273,0.7119888966252856,0.9943340162522064,0.003658966513517826,0.7041061970899035,1.0088424674026761,0.0,0.0,0.0,0.0
0.01652738865931593,-0.0034806533682479076,0.7282360178472129,0.0008830899845540383,-0.5273271224186203,-0.0018336145046743489,0.8496599107711419,-0.11843368601365753,-0.9203591017050148,0.8988626279114832,0.013508383773029013,-0.8824542584811372,1.0217345288108586,0.0035297005245109917,0.7113963933790339,0.9912559460426427,0.0052072676523226905,0.7015337165403001,1.0112270813847273,0.0,0.0,0.0,0.0
0.014865233276683602,-0.00470132667543065,0.72870422820339,0.0011058469498160344,-0.5273089723465737,-0.002049904387830489,0.849670420031982,-0.1213500580567864,-0.9095938533357627,0.9034724479789501,0.017101525548128757,-0.8765602602767011,1.0108525841506835,0.00989596927371751,0.7082695559959677,0.9851038735189132,0.011634103569089425,0.69852111667208,1.0129803903659214,0.0,0.0,0.0,0.0
0.01266199702338611,-0.006277627930968255,0.7294087813943277,0.0007931656199019425,-0.5264460501756146,-0.0018752562944968382,0.8502060988705171,-0.12496767682878195,-0.9003527555813351,0.906245405455615,0.020866881065134395,-0.8715374269846593,0.9990585682294517,0.025247463891750907,0.7000961355517484,0.9740253504867203,0.02735922906165546,0.6948666371766021,1.0133779274747932,0.0,0.0,0.0,0.0
0.010093926993255422,-0.008055181833817591,0.7301519260013178,0.0001356142447136709,-0.5251746157064836,-0.0014875124396915842,0.850993179721827,-0.1298727642941637,-0.8930846706349963,0.9093921486637743,0.024767578699715694,-0.866532384968047,0.9857872287464214,0.04423024114220256,0.6894407633446588,0.9607377878193081,0.04764017538037496,0.6902144206159041,1.0136879239293501,0.0,0.0,0.0,0.0
0.007556403844597104,-0.009578551902049712,0.730529644155045,-0.00015488929548658045,-0.5247911382750465,-0.001413492828368444,0.8512298392533659,-0.13688215807859305,-0.8873976741426246,0.9183146208234891,0.02856855185796087,-0.8579427957635241,0.9681813500341234,0.055350076840124766,0.6819721920018014,0.9531867525878732,0.06029234519647539,0.6845777709476987,1.017159951929104,0.0,0.0,0.0,0.0
0.005748573335987104,-0.010611052457782454,0.7306427114345121,0.0004178357310319092,-0.5258595250383905,-0.00202608135196248,0.8505689156876446,-0.1456016570546126,-0.8831034601860183,0.937685662633434,0.03234971791312806,-0.8460986038226664,0.9495858861463404,0.05400882707454801,0.682383130966415,0.9528188281812887,0.05921604504606748,0.6806856224280778,1.0224456406864961,0.0,0.0,0.0,0.0
0.004879242423466357,-0.011014733218577237,0.7306864472178769,0.0019300890299587356,-0.5284489969340175,-0.0031845712709507425,0.8489568840062418,-0.15583642518037066,-0.8823386997100975,0.9725503187910971,0.03529587191345394,-0.8305776064768803,0.9308486948057941,0.04047431153263651,0.6917738206926526,0.9585173938900537,0.04455006223961111,0.6805562254015414,1.027714441207628,0.0,0.0,0.0,0.0
0.004925280404041378,-0.010914711932761566,0.7307054395720537,0.0038531186480606334,-0.5316019018667866,-0.004072883499541697,0.8469757865655302,-0.16631653748285277,-0.8883835486707033,1.0213913557750918,0.03589018079218,-0.8153386420433517,0.9161706734000676,0.022035434936217697,0.7057012546014308,0.9662077778985024,0.02508369269747041,0.6842582057335582,1.0317687446535153,0.0,0.0,0.0,0.0
0.004940485182924287,-0.010947097384881534,0.7306760409924798,0.0038017860376978684,-0.5315900655875095,-0.0040314277302799535,0.8469836457583148,-0.16631471471075657,-0.8884220219410088,1.0213835737887418,0.035851654805902876,-0.8153442128860344,0.9160920993616599,0.02182770102385138,0.7058394465682726,0.9660470303816017,0.025271567805705095,0.6841473522043673,1.031919548909256,0.0,0.0,0.0,0.0
0.004940485182924287,-0.010947097384881534,0.7306760409924798,0.0038017860376978684,-0.5315900655875095,-0.0040314277302799535,0.8469836457583148,-0.16631471471075657,-0.8884220219410088,1.0213835737887418,0.035851654805902876,-0.8153442128860344,0.9160920993616599,0.02182770102385138,0.7058394465682726,0.9660470303816017,0.025271567805705095,0.6841473522043673,1.031919548909256,0.0,0.0,0.0,0.0
0.00332211554504478,-0.012654272858707023,0.7312493601961962,-0.0013455407435826925,-0.5229380116957523,-3.061284157467995e-05,0.8523696525021609,-0.172336106842011,-0.9369052116364207,1.0553027645896995,0.033341135308866746,-0.8482447431405912,0.9438814275830057,0.02737774554750411,0.6400637199155077,0.9850490175326696,0.10216024246750767,0.678363231557519,1.0234983096583299,0.0,0.0,0.0,0.0
0.0035516758775757185,-0.013819892546698935,0.7323550589544063,-0.0026039890114701713,-0.5212721289352332,0.0013037733358896699,0.8533855441778038,-0.17320782615579886,-0.945049358093436,1.0632678784835083,0.03342818357137976,-0.8543745790948613,0.954269537663746,0.030937493597491098,0.6157814174533407,1.0052255062880056,0.12139838192144589,0.6832935546890687,1.012867700765469,0.0,0.0,0.0,0.0
0.0060164454795336424,-0.013294836866475005,0.735223527981686,0.002372681601478305,-0.5280556443599996,-0.0030830528236885694,0.8492008605900313,-0.16270662362569602,-0.8997915326988326,1.0422354967210536,0.04044526544611151,-0.8290798621067013,0.9450506942541882,-0.003815153730502164,0.6563879585467881,1.029247298254005,0.05903015082562281,0.7055049314283541,0.9917254933206965,0.0,0.0,0.0,0.0
0.008112469901717493,-0.013614846549937169,0.7370733987202772,0.004667454510592717,-0.5313573501572282,-0.004954310717538752,0.8471204377817799,-0.15790198982809894,-0.8794400847070026,1.036783990289412,0.04429150191149624,-0.8197088884879621,0.9489783137366369,-0.010034496394770095,0.6725753309810026,1.049852845024975,0.028457332208560226,0.7202394392677393,0.9757427061513085,0.0,0.0,0.0,0.0
0.008905999625506658,-0.015022856375711944,0.7390237996513414,0.003080302991790687,-0.5287180762106949,-0.0036782839799037142,0.8487839406165174,-0.15800319108841293,-0.8931015206396051,1.0538244387306914,0.04556733198792053,-0.8316024106399768,0.9691801282332301,-0.0024319364621601253,0.6522190113339799,1.0637523085669296,0.05574843812243177,0.7309255926204887,0.9563757132466708,0.0,0.0,0.0,0.0
0.00894082536391322,-0.01687363544236353,0.740742746026639,0.0015517224172805141,-0.5260962872952429,-0.002453722454391788,0.8504200537956627,-0.15641963476175702,-0.9030995404661205,1.0632648932754505,0.04813979822770511,-0.8412617362128151,0.9835775164817148,-0.00046116829296319675,0.6320718950909291,1.074077309827432,0.0858417522406363,0.7384295812140922,0.9412118208180204,0.0,0.0,0.0,0.0
0.008818797812522244,-0.018643297915111295,0.7420315510740878,0.0013308976310209655,-0.5254765406825402,-0.0022922226385906365,0.8508039607448836,-0.15214248466691616,-0.8998562382562696,1.0600591685749452,0.05235109567241614,-0.8428004426819429,0.9884987773878923,-0.0024892488008917265,0.6237747539357545,1.0853899071174002,0.09932752970700108,0.7440811176296147,0.9325585311191005,0.0,0.0,0.0,0.0
0.008934948875200247,-0.020101378307440805,0.7432121336430876,0.0022496558559841812,-0.5263969743227603,-0.003106293135768157,0.8502302719941978,-0.14624533457208047,-0.8873662787310553,1.0502722235154536,0.05748670320403858,-0.8389693579632151,0.9887366916389164,-0.005185205704903506,0.6254835306952058,1.0985803510385976,0.09766436518800516,0.7502640215837,0.9260653306818106,0.0,0.0,0.0,0.0
0.008899855896167173,-0.021499261689007933,0.7442970104476647,0.002916292375282899,-0.5269820636808892,-0.0037024450044788925,0.8498633370715565,-0.14108789101333366,-0.8768838245625226,1.0412463950162287,0.0620384336239005,-0.8358698852909847,0.9887577876395159,-0.006417787558027091,0.6250567915411471,1.1120668581256568,0.09898999566879293,0.7555720582095998,0.9201992333655865,0.0,0.0,0.0,0.0
0.008514910406216668,-0.022999326023813826,0.7452793640741099,0.002869098062946748,-0.5266005508632935,-0.0036773448822361365,0.8501000560177596,-0.13712773278819215,-0.8719304421933801,1.0349595938987062,0.06575248806880446,-0.8355548378036372,0.9898216432546375,-0.006887349422795128,0.618262044675213,1.1245170168739684,0.10989962677624515,0.7592747718489763,0.9147836473635083,0.0,0.0,0.0,0.0
0.007873119706251774,-0.02450961431106475,0.7461753507438191,0.002346948880370317,-0.5256257904324514,-0.003220361225905454,0.8507065590065639,-0.13409903640351062,-0.8704502845895665,1.0302596802249548,0.06872874379318757,-0.836670467954005,0.9909747079684781,-0.007408138161838172,0.6071971506421224,1.1361761088060727,0.12660872644283871,0.7617836102371511,0.9096614142496191,0.0,0.0,0.0,0.0
0.007375488055083012,-0.02585641874024997,0.7469817748999881,0.0018214605819576394,-0.524698510158574,-0.0027515764438538278,0.8512817304193687,-0.13155678937239215,-0.8699173728650783,1.0271210809166116,0.07128613461619146,-0.8381912174429701,0.9928637410651937,-0.007778031813612718,0.5966476532477915,1.1482974762273979,0.1419092140749513,0.764237343657017,0.9046360494075792,0.0,0.0,0.0,0.0
0.007464191232419002,-0.026735604688850324,0.7477684094597554,0.0019960284866317735,-0.524757781564227,-0.0028866956406504913,0.8512443559556503,-0.1289370840320885,-0.8657191351937302,1.0241169986268814,0.07371578277736297,-0.837542707980189,0.9948047484755022,-0.009897444541428973,0.593370628601418,1.162161526769119,0.14592955810289696,0.7685976138426784,0.8991310641280525,0.0,0.0,0.0,0.0
0.008079789044482071,-0.027186843712231984,0.7485132266493366,0.002664722548547141,-0.5254762163378749,-0.0034737153018109834,0.8507970255113566,-0.12651437602161636,-0.8598827381434596,1.0226634722635988,0.07588657678723447,-0.8360308067544664,0.9977878688580498,-0.013455829924999609,0.5956835922725507,1.1771849963397902,0.14151853513676232,0.7744399200271435,0.8932014340107949,0.0,0.0,0.0,0.0
0.008750779547261582,-0.027504080344602617,0.7491061853021432,0.003087314494352245,-0.525913392474019,-0.0038533692556484015,0.8505237937007176,-0.1249720728491983,-0.8571272201477264,1.0240899113991087,0.07738982465971717,-0.8361158200153398,1.0022025332188371,-0.016494918782420848,0.5967560638299989,1.1915786706217883,0.13901085593564907,0.7796474744128611,0.8878679808671044,0.0,0.0,0.0,0.0
0.009228665739684665,-0.02776764956828361,0.7495343369258466,0.0032342267608877757,-0.5260567165823261,-0.003976096129095315,0.8504340429306987,-0.12412056648444784,-0.8563797302402176,1.026125331269518,0.07829705525163916,-0.8368170207063272,1.0060310223531288,-0.019947596862632398,0.5960605280865088,1.203643945045309,0.1394647136873688,0.7835279938515006,0.8838489097671629,0.0,0.0,0.0,0.0
0.009449046007623698,-0.028017131518417338,0.7497828125882936,0.0032372676844030627,-0.5260642321808715,-0.003957826670751762,0.8504294675785488,-0.12356540311967092,-0.8561511755441964,1.0270903106029918,0.07889481351042615,-0.8373496698258716,1.0082304300765994,-0.024534263832602144,0.5950591611658512,1.211437017470498,0.1416136009124001,0.7857971009197127,0.8817849774076598,0.0,0.0,0.0,0.0
0.009399491591491818,-0.02828734411033438,0.7498197138805265,0.00307719743154244,-0.5258912587402654,-0.0037902439513467327,0.8505377997992422,-0.12323875387713626,-0.8567437792436993,1.0271229038512182,0.07927322600707724,-0.8380661905135975,1.0090693594749618,-0.030441347318540903,0.5947663117789601,1.2121108272875123,0.14585216517339783,0.7861644290330345,0.8820630717895297,0.0,0.0,0.0,0.0
0.009140452532307964,-0.028548827110464806,0.7496473753337275,0.002792597922248985,-0.5255824999741796,-0.0035076227208620378,0.8507308232928816,-0.12315891367937933,-0.8581362991011114,1.0265379167766306,0.07942142498226043,-0.8390190634048535,1.0088474967465975,-0.037549214218443275,0.5956697732093419,1.2058287171692401,0.1514900049046428,0.7847977987923409,0.8845496005642258,0.0,0.0,0.0,0.0
0.008783132451569297,-0.028717669661529003,0.7493086226400006,0.002511806074763244,-0.5253168795487684,-0.003217821238367306,0.8508968871243245,-0.12332248661296272,-0.8595161352169144,1.0253059016625425,0.0793009790894815,-0.8396692146974228,1.0075326683798462,-0.04547796022437507,0.597836621496319,1.1958556623895331,0.15645413652939855,0.7823141117477985,0.8886677594983469,0.0,0.0,0.0,0.0
0.008536811223066211,-0.028776314204460002,0.7488617616869235,0.002378190279119517,-0.5252244283263955,-0.003065879649110617,0.8509549015560017,-0.12350031608456957,-0.860616783228424,1.0243498289274733,0.07916077005396877,-0.8403412719541795,1.0064461680125312,-0.05399823973674246,0.6021969892956552,1.1842635480589871,0.1588862985317439,0.7795395777241275,0.8936585908596517,0.0,0.0,0.0,0.0
0.00840738218576889,-0.028733798761692457,0.7483549935894676,0.0023738839069022653,-0.5252801405461069,-0.003039315350771793,0.8509206197908576,-0.12369023473688348,-0.8614723009469656,1.0237877735816385,0.07900517217634606,-0.8410231187996735,1.005687364837849,-0.06285271027580577,0.6082039993074505,1.17211863058308,0.1590603691115095,0.7767505027924131,0.89900586635461,0.0,0.0,0.0,0.0
0.008338845977834826,-0.028656652100147808,0.7478274509235939,0.002452472181949155,-0.5254101673082764,-0.0030981696119307543,0.8508399043382612,-0.12379407894417341,-0.8621172356956729,1.0233607771499569,0.0789315574981223,-0.8417633917434613,1.0051748505565021,-0.07183419116707046,0.6151761915078124,1.1597571169809606,0.15792178237556234,0.7739446997505106,0.9044472534997244,0.0,0.0,0.0,0.0
0.008238425608818075,-0.02863828867974133,0.7473161768225408,0.002576853156658328,-0.5255444210087226,-0.0032019865279862537,0.8507562333927917,-0.1236411607168984,-0.862344303699266,1.0223812641614023,0.07909134937055112,-0.8424813896382376,1.004559580431998,-0.08066169022870025,0.6225493261221766,1.1471612968336178,0.1565262858147459,0.7709960200465356,0.9098774368732087,0.0,0.0,0.0,0.0
0.007934144459553654,-0.02877967976978879,0.7468508089674196,0.002695614804966804,-0.5256164772548761,-0.0033014682890253025,0.8507109690171709,-0.12303296923520313,-0.8615856732022447,1.0194279608278853,0.07962717171698956,-0.8427101932634617,1.0027535437297324,-0.0892009975751091,0.6295345029212911,1.1342306930394868,0.15610627192442078,0.7675409150660135,0.9154036965527843,0.0,0.0,0.0,0.0
0.0072941239358419955,-0.02918598085577498,0.7464654223048209,0.002783986287347373,-0.525577234784349,-0.0033706988062972587,0.8507346578612782,-0.12172304634684564,-0.8592746642384493,1.0132783997864399,0.0807388522727294,-0.8421146501830332,0.9989844362253085,-0.09733294493567972,0.6356400521865566,1.1208183820487314,0.15763605226850452,0.7633346570939176,0.9210703412311753,0.0,0.0,0.0,0.0
0.006205735125586174,-0.029948221404786122,0.7461894523601248,0.002814192616479194,-0.5253806985841273,-0.0033818080908086324,0.8508559015774696,-0.11951489759033643,-0.8549343633983575,1.0028682439371908,0.08258669639437743,-0.8404015393128328,0.992576894142449,-0.10503208907924491,0.6403973014072777,1.1068335705010108,0.16200239671115707,0.7581782413840972,0.9268881002251391,0.0,0.0,0.0,0.0
0.004585765126900566,-0.03112451675880366,0.746040288329762,0.0027469994565398393,-0.5249841272458265,-0.0032947235058640285,0.8511012072197662,-0.11633956067861598,-0.8482807501118177,0.9874188558626584,0.08522171860675501,-0.8373279340201198,0.9829697981868553,-0.11242855182295751,0.6433271196058925,1.0923003955368822,0.16994730908786732,0.7519279105118332,0.932821665028643,0.0,0.0,0.0,0.0
0.0024159812326444902,-0.032714305121142304,0.7460168615019411,0.0025513963789916944,-0.5243783304593179,-0.003073670153861828,0.8514760181432011,-0.11229375511933622,-0.839224970396781,0.9666226496594784,0.08855105531576887,-0.8327088031947464,0.9698448986160674,-0.12002149295457056,0.6442448152228394,1.0775141501216723,0.18164326916943305,0.7445747606066228,0.9387679460855088,0.0,0.0,0.0,0.0
-0.00021367562012070086,-0.034632936378313106,0.7460894698492614,0.002216165704154943,-0.523598894220101,-0.0026987981862951864,0.8519577472324603,-0.10768639845078588,-0.8280809046026482,0.9410752123303614,0.09230665000070963,-0.8265881215624581,0.9534575675876242,-0.12918630014268503,0.6436892808667725,1.0632662339789432,0.19644458799999476,0.7363163737428164,0.9445736623403849,0.0,0.0,0.0,0.0
-0.0030526015641871938,-0.036700978721249465,0.7461695519817453,0.0016956229223585085,-0.5226232947033228,-0.0021153170702809666,0.852559406804031,-0.10319478850525278,-0.8167649341731481,0.9136824651996356,0.09596411126306381,-0.8201231074377352,0.9357292010708338,-0.14289310859824988,0.6432108956112937,1.050924711308617,0.2136076281263125,0.7274738318734619,0.9501574069377348,0.0,0.0,0.0,0.0
-0.005545576568494297,-0.038630015999393315,0.7460901565013683,0.0008665703837202999,-0.5212300535933998,-0.0012033470237169032,0.8534149238457996,-0.09999536985424849,-0.8108115298409634,0.8925070467129601,0.09873830379660692,-0.8172595497394806,0.9226405781846816,-0.16685755458126234,0.6457472006409375,1.0419991459222775,0.23269820605299335,0.718525361188442,0.955348706244778,0.0,0.0,0.0,0.0
-0.007564955991954444,-0.04019319304978411,0.7457998745835132,-0.00024171654140139054,-0.5195514469808394,2.4988209483781543e-05,0.8544391346894282,-0.09862500938386101,-0.8109325308457876,0.8793672439758963,0.10009206772220657,-0.8178976103401474,0.9145906192991854,-0.20336522234532373,0.6503467890789572,1.0389447654112822,0.2521160099147886,0.7097747688260474,0.9602566195844298,0.0,0.0,0.0,0.0
-0.00892505780573194,-0.04113280886121756,0.7449496215981198,-0.0009954313895859357,-0.5181877025006109,0.0009718954348638439,0.8552657888123145,-0.09847440457332216,-0.8148419576979897,0.8732010251382608,0.10050705884906165,-0.8215944222136602,0.9112154165309032,-0.243316009525344,0.6545582781845013,1.043890867271686,0.2640820791336862,0.6999129914572026,0.9686947304662947,0.0,0.0,0.0,0.0
-0.00890257290917558,-0.04115231336560358,0.7449191080475829,-0.0010392593630559473,-0.5182029265450278,0.0009919298714856693,0.8552564895604563,-0.09848426369031679,-0.8148362547682394,0.8731206416811564,0.10052010659821582,-0.8215892742797087,0.9112425887090791,-0.24329394737319293,0.6545217917985385,1.043871068866519,0.26404514862058126,0.6998829799104713,0.9686654614417821,0.0,0.0,0.0,0.0
-0.00890257290917558,-0.04115231336560358,0.7449191080475829,-0.0010392593630559473,-0.5182029265450278,0.0009919298714856693,0.8552564895604563,-0.09848426369031679,-0.8148362547682394,0.8731206416811564,0.10052010659821582,-0.8215892742797087,0.9112425887090791,-0.24329394737319293,0.6545217917985385,1.043871068866519,0.26404514862058126,0.6998829799104713,0.9686654614417821,0.0,0.0,0.0,0.0
-0.009569306149613396,-0.0413436302815156,0.7452157567971839,-0.00041870309580833596,-0.5191195871872382,0.0005018775024215033,0.85470136714834,-0.0966858131295929,-0.8027152444011485,0.858276073482878,0.10151557197029368,-0.8130462355515863,0.9001318281110221,-0.2503912685445797,0.6585671940095156,1.043437541598699,0.25902357061980236,0.7004365909950858,0.968472831637725,0.0,0.0,0.0,0.0
-0.010575221300485351,-0.041861445266293235,0.7452950910872013,-0.00024535813168868756,-0.5195499787614858,0.0003650864275906219,0.8544399487853007,-0.0948200290063898,-0.7927061478979798,0.8427207861748115,0.10272912944438942,-0.8059675973378362,0.8887324594498414,-0.24821764544184768,0.657299358855501,1.0430265953487519,0.259945117642815,0.6986638523587997,0.9705232287537198,0.0,0.0,0.0,0.0
-0.01144201316474329,-0.0425176371541891,0.7452764139735961,-0.00024604831148944834,-0.5197057940269092,0.00037355937662265573,0.8543451805730986,-0.09299850150873537,-0.7855332653500274,0.8301911395253453,0.10411744047167529,-0.8014477638655958,0.88049399033465,-0.24247172576256565,0.6544797851832268,1.0423536119411436,0.26357403678539254,0.6965692891595645,0.9732343748882153,0.0,0.0,0.0,0.0
-0.01190256219711848,-0.04309984092551789,0.7452342058884486,-0.0002607766880300408,-0.5197787905335856,0.0003940214859876357,0.8543007583129203,-0.09149485922091696,-0.7814001175743466,0.8228121384226068,0.10540950326025576,-0.7995348161070673,0.8767560047138003,-0.2376090243295639,0.652637993212372,1.041641078615698,0.2673363880184078,0.6954314213105127,0.9755473907691904,0.0,0.0,0.0,0.0
-0.011924063602853674,-0.043538614330750514,0.7451911026654486,-0.0002607494300318093,-0.5198476437173608,0.00040209116615465366,0.8542588586921044,-0.09041520961122976,-0.7800882669132414,0.8207560129830898,0.10646915440136785,-0.7998394476359313,0.8773102099474678,-0.23464140594350982,0.6523502890689924,1.0410626224225445,0.2706679108914012,0.6956075064123589,0.97724348234758,0.0,0.0,0.0,0.0
-0.011484527309604335,-0.04381059097107442,0.7451510761503262,-0.00024547431446424645,-0.5199317869472947,0.00039630975597103535,0.8542076560197358,-0.08980994689950306,-0.7816634501977107,0.8242670064737795,0.10724524131789882,-0.8023160645027305,0.8822104899653797,-0.23376922962085664,0.6537690912196029,1.04068860142822,0.27350846310022087,0.697246406560785,0.9782688093340044,0.0,0.0,0.0,0.0
-0.010561187243853644,-0.043923083542446326,0.7451193034728737,-0.00020895884836003576,-0.5200373163673385,0.0003655593033389059,0.8541434377714624,-0.08963677385395649,-0.7861326740040554,0.8334472388766291,0.10778712163082686,-0.8070276293395324,0.8916136363511964,-0.23510386924112336,0.6570501645876208,1.0404525549076185,0.2758695059519457,0.7004556943263625,0.9785769373149387,0.0,0.0,0.0,0.0
-0.009130918113071766,-0.04391136115107862,0.7451078441686649,-0.00012959601670975876,-0.5201711989357964,0.0002775870713081409,0.8540619590802452,-0.08973910068675144,-0.7933125848256615,0.8481421869879309,0.1082583823181658,-0.8140536646106391,0.9056880353876847,-0.23886941709874468,0.6624684200428372,1.0401445652517733,0.2777037436930039,0.705337498342567,0.9780927163940658,0.0,0.0,0.0,0.0
-0.007174389220927084,-0.04384170445572674,0.7451425951584709,5.2665004457094787e-05,-0.5203695530797414,5.127358649327079e-05,0.8539411705878847,-0.08976909095287133,-0.8025513249657072,0.8676772576401236,0.10899719715163854,-0.8233301195460592,0.9244397001217813,-0.24580527872216082,0.6706296471124672,1.0394220579573208,0.27864975733028624,0.7120168931845731,0.9767072617039783,0.0,0.0,0.0,0.0
-0.004675184056206405,-0.043799324870204874,0.7452762213690854,0.000548188935313357,-0.5208256395192894,-0.0006443108085191577,0.8536626602890608,-0.08871663995285002,-0.8115925000185017,0.8899196441990318,0.1109226284061477,-0.8341480225157784,0.9471684732999399,-0.25990210669689057,0.6836433768795913,1.0381264616752424,0.2761060159587155,0.720546673354824,0.9743112649493056,0.0,0.0,0.0,0.0
-0.002121615158846305,-0.04360312453103685,0.7451111722677692,0.0006091779169986977,-0.5204715281866177,-0.0006121625274315239,0.8538785876846849,-0.08994271907149909,-0.8281311627836061,0.9187704894115047,0.09432733991599568,-0.8282387814725118,0.9205537077833921,-0.26580312767011566,0.6908049976245738,1.0374139141755927,0.27828068242947807,0.7271945955610712,0.9725977196137823,0.0,0.0,0.0,0.0
0.00024128996782474526,-0.04367694209717697,0.7448598310931691,0.0007616707128800425,-0.5202248831255121,-0.0007978301101647017,0.8540286027422546,-0.0899201762372885,-0.8419426600161966,0.9432067628691644,0.07718657864509802,-0.8294318341990908,0.901865574127384,-0.27199862998140406,0.6978510552920625,1.0371951517002853,0.2804573068926708,0.7328163386107892,0.9725690074122358,0.0,0.0,0.0,0.0
0.0021725034108779307,-0.04406071557921271,0.7446486919933236,0.000944946132638274,-0.5200925406945758,-0.0010813245635091894,0.8541087090809083,-0.0887364364421224,-0.851741541427233,0.9611858965933308,0.06253719939284005,-0.8346853703373109,0.8893879859845443,-0.27633953110639387,0.7041058343185516,1.0363664441332363,0.28367167534311766,0.7375618129675905,0.973413242849211,0.0,0.0,0.0,0.0
0.0036097475819390026,-0.04469096720090872,0.7444843783661159,0.001104770555647542,-0.5200086296379874,-0.0013633320485566364,0.8541592040771833,-0.08677395164480356,-0.8581115382220076,0.973226674043045,0.05051323334088781,-0.8419103652743152,0.8804212109335433,-0.27765847667912114,0.7087682259768615,1.0349356754833283,0.28824503325654854,0.7412481376945269,0.9749185228861224,0.0,0.0,0.0,0.0
0.0046051771210513775,-0.045465228031001684,0.7443585502180454,0.0012299826654812581,-0.5199474501167994,-0.0016064139074425405,0.8541958532409525,-0.0844090272355964,-0.8618495652634359,0.9805296689955278,0.04038787598301854,-0.8499872459705903,0.873292395480304,-0.2762774470416951,0.711791400423886,1.033166869141772,0.2937710602925501,0.7439303307666042,0.9768653606626363,0.0,0.0,0.0,0.0
0.005260044602160114,-0.04628604994770205,0.7442644457366988,0.0013278746703498062,-0.5199065329041972,-0.0018081083000037151,0.8542202084572643,-0.08193366219363195,-0.863702130450664,0.9844189949387547,0.03134416434662311,-0.8583670182333628,0.8670637914404836,-0.2732049484719331,0.7135706561607411,1.031299030690607,0.29961312808108864,0.7458226612536916,0.9789948479829371,0.0,0.0,0.0,0.0
0.005680062082742005,-0.047081670613297856,0.7441961446677856,0.0014089051189455138,-0.5198887899634486,-0.0019789201310148304,0.8542304987132116,-0.07953985307602326,-0.8643008589691984,0.9860753732371503,0.022760622843322666,-0.8668027183287886,0.8612220309236731,-0.26946897241517104,0.714591180424102,1.029496951063447,0.3052275636499414,0.7471690532238623,0.9810916857152842,0.0,0.0,0.0,0.0
0.005952436300863933,-0.047810953053554026,0.7441476558615964,0.0014802436859620285,-0.5198937509340027,-0.00212980607121055,0.8542269959118023,-0.07733122937168584,-0.8641435563304044,0.9864203349621639,0.014260005437341213,-0.8751925153118001,0.8554857433825351,-0.26577728202690315,0.7152317092369107,1.0278519371066723,0.3102965477227793,0.7481707654713621,0.9830244847147461,0.0,0.0,0.0,0.0
0.006138157574539164,-0.04845962679853201,0.7441104794577156,0.001542098694042283,-0.5199124764070536,-0.0022644084968641595,0.854215143428201,-0.07535118385747226,-0.8636258833016778,0.9861157622832141,0.005647832318896701,-0.8835045955354722,0.8496853340503152,-0.2624036776195517,0.715672880367428,1.0264093579136446,0.3147606154514761,0.7489482102023333,0.9847628775843279,0.0,0.0,0.0,0.0
0.0062846550242801925,-0.049032347041717085,0.7440804628769926,0.0015963325981025278,-0.5199363823325378,-0.0023882422727912658,0.854200155904947,-0.07358499688938014,-0.8630238322266189,0.9856355230243574,-0.003140951416392798,-0.8917495554318802,0.8437283591998935,-0.2594473098139014,0.7160519317079944,1.0251389374672142,0.31866733465349084,0.7496070354610636,0.9862941271297386,0.0,0.0,0.0,0.0
0.006433721999796356,-0.04954408642905797,0.7440604154948356,0.0016518679999747308,-0.51996427495,-0.0025148847340397177,0.8541827084778794,-0.07196981053724882,-0.8624829429018478,0.9853100082806017,-0.012083365765020487,-0.8999548280721338,0.8375790702087598,-0.2570383111501632,0.7165646214867052,1.023943852797471,0.32204898854337827,0.7502737884173933,0.987581145495751,0.0,0.0,0.0,0.0
0.00660885342369427,-0.05001444092599108,0.7440467242198788,0.001711136478055967,-0.5199885759351542,-0.0026486561632753564,0.8541673943258502,-0.07044975341665047,-0.8621290358546676,0.9853437418803128,-0.021143918693974847,-0.9081296428708282,0.8311998428691081,-0.2550899398535879,0.7172487017118995,1.02277048908725,0.325044698449962,0.7509929917524383,0.9886666572724826,0.0,0.0,0.0,0.0
0.006824157718143444,-0.050463124284917324,0.7440353954554605,0.001777397919967794,-0.5200040403990254,-0.0027937796851885115,0.8541573822313974,-0.06896723364711059,-0.8620280847670632,0.9858394146059205,-0.030260444450439815,-0.9162091842052299,0.8245925730307465,-0.2535096939096121,0.7181163327634011,1.0215808578436014,0.3277794320591833,0.7517821241810848,0.9896101612199817,0.0,0.0,0.0,0.0
0.007087211231105143,-0.05090721687414873,0.7440230136931696,0.001857065216273029,-0.5200107862317396,-0.0029578840781771466,0.854152553372763,-0.06746214774424078,-0.8621766487492044,0.986808645049183,-0.03933518806424316,-0.9239632213524168,0.8178448784099026,-0.25228278356257977,0.7191956826811753,1.020357342772201,0.33031152055007273,0.7526432415904997,0.9904745770106013,0.0,0.0,0.0,0.0
0.007395081744033782,-0.051361207916095136,0.7440065056804964,0.0019566077175209055,-0.5200115665208461,-0.0031481533743442686,0.8541511760227851,-0.06588019865235314,-0.8625079314055956,0.9881560201313477,-0.048234720969860964,-0.9308735538934989,0.8112042617672287,-0.2514012952060495,0.7204901339334193,1.0191007791781392,0.33266571693164015,0.7535502650451875,0.9913286984905061,0.0,0.0,0.0,0.0
0.00772592201054071,-0.05183926635192569,0.7439808791415113,0.0020679695563823814,-0.5199945297542912,-0.003351680136791677,0.854160511126444,-0.06421260469209175,-0.8629989342169193,0.9897227157778434,-0.05686394473307531,-0.9360473215759103,0.8051657773207084,-0.2505064836175539,0.7217949442184919,1.017805312460031,0.33503212814997674,0.7544114919485014,0.9922546682920187,0.0,0.0,0.0,0.0
0.00804218612337778,-0.052349481505486475,0.7439386026114331,0.002159810230205025,-0.5199244294590822,-0.0035240814363076143,0.8542022615993519,-0.06253802767831008,-0.8637775487096768,0.9914022797862414,-0.06529107230797443,-0.9382792265294366,0.8005572040502996,-0.24875320412220572,0.722631862477087,1.0164521663338162,0.3378491533147932,0.7550788622431804,0.9933240097470882,0.0,0.0,0.0,0.0
0.00832718270972652,-0.05286982340261382,0.7438836954751681,0.0022318630379004716,-0.519819941591479,-0.003666717377795333,0.8542650655943288,-0.06090355038814216,-0.8646811918607742,0.9929956059125133,-0.07356176364490062,-0.9364069627655816,0.7984901671512157,-0.2463607025634528,0.7230517969515629,1.015120430464213,0.340951095455363,0.755556405088981,0.9945014261522296,0.0,0.0,0.0,0.0
0.00861017241354898,-0.05337406245942585,0.7438218898126494,0.0023238886594863606,-0.5197408325735798,-0.003837902623560255,0.8543122011306361,-0.05924003172532085,-0.8654090411844795,0.994433693202626,-0.08155013020660389,-0.9304093673787656,0.7990393508238833,-0.24457065502767927,0.7236564420848279,1.0139625116662958,0.34365044100700076,0.7559863560488902,0.9957426652178014,0.0,0.0,0.0,0.0
0.008928702220307803,-0.05387681908113879,0.7437470050702482,0.002452379076285191,-0.519690597578958,-0.004060171173649509,0.8543413741795094,-0.05746460303408368,-0.8660631953380109,0.9959769643861417,-0.08917224413298414,-0.9215202663497276,0.8011384877577273,-0.2436514212171723,0.7246402318988444,1.0129808918795358,0.34588207451880354,0.7564328545046318,0.9971012788845289,0.0,0.0,0.0,0.0
0.009299840739522263,-0.054409667048556896,0.743670375241218,0.002663986838294429,-0.5197198537286288,-0.004398348290643163,0.8543212693985397,-0.055343996715061336,-0.8661867402642507,0.9972963509165804,-0.09603438255475999,-0.9109503028701436,0.8039442427438375,-0.24440108060399443,0.7265266859437949,1.012113207925268,0.3472759063250188,0.7570164837836275,0.9986050445209815,0.0,0.0,0.0,0.0
0.009664568994016529,-0.05507428476594357,0.7435858890675299,0.0028898337489272753,-0.5197076359627937,-0.004743162529160389,0.8543261229718366,-0.0528747172270559,-0.8662495568225677,0.9983585294816795,-0.10214928434000342,-0.8997285315582796,0.8067225312701678,-0.24407506480536614,0.7281276923057606,1.010867223019437,0.34946974523463764,0.757482718253139,1.000396633854493,0.0,0.0,0.0,0.0
0.009939763256032214,-0.056004713955591874,0.7434419665581958,0.00288381796415326,-0.5192573855273517,-0.004716113581278403,0.8546000289269462,-0.050614535067757135,-0.868874434488149,1.000760688431057,-0.1087657452312701,-0.8889108923005172,0.808822598754779,-0.23515317305530917,0.7258606333012739,1.0083608000878614,0.3567982745276778,0.7571521400739604,1.002684537462192,0.0,0.0,0.0,0.0
0.010297761357891351,-0.057054386217938194,0.7432625482917631,0.0028736074450021764,-0.5187277589807037,-0.004673341990117605,0.8549218761487815,-0.048095389718836354,-0.8722386505108121,1.0040210176650195,-0.11535721163281568,-0.8784150593464611,0.8107663101163647,-0.22519908013766599,0.723349263059498,1.0055493537657783,0.3652201160801344,0.7568261861360106,1.0052996801235496,0.0,0.0,0.0,0.0
0.011141407413456426,-0.05792334167184406,0.7431009513582706,0.003327072434999382,-0.5187948698086294,-0.005347678461753108,0.8548755558467731,-0.04437321765364079,-0.8731538007343692,1.0079280336335346,-0.12065018144044265,-0.8671972835311675,0.8130149758454716,-0.22869062886094735,0.7277160048755543,1.0042791328893674,0.3665714336765613,0.7582332776971676,1.0077661459349392,0.0,0.0,0.0,0.0
0.012138522419696755,-0.05894087083730174,0.7429142187685233,0.003944187026975658,-0.5190003704747299,-0.006289422614497944,0.8547417750402547,-0.039636583993857666,-0.8731378738891055,1.0116051122779222,-0.12536114941853216,-0.8560232976802171,0.8153172395643944,-0.23511517099795298,0.7339335266954187,1.0030944695905943,0.3668577049868877,0.7599896163374016,1.0107909792993992,0.0,0.0,0.0,0.0
0.013049867400363343,-0.06041023358110084,0.7426804750970262,0.004603163780472439,-0.5190730181490162,-0.007280933445683498,0.8546864926515692,-0.0336072273213202,-0.8725123795814138,1.0136864456410737,-0.12906795481739364,-0.8448297370980066,0.8168875234421736,-0.23815485937558986,0.7390423993706432,1.0008378081243217,0.3695944185848784,0.7610223928493552,1.014998640970109,0.0,0.0,0.0,0.0
0.01370321495491791,-0.06258080419909037,0.7424285304161335,0.005100827869942186,-0.518607223730534,-0.007951564614829987,0.8549604094165562,-0.026513331178767953,-0.8729368061063044,1.0144129541014966,-0.13227675298752048,-0.8339554940131488,0.8171164534817378,-0.22905678999336204,0.7393221134888981,0.9956252001017047,0.3794521817197165,0.7606754012290895,1.0201651962630314,0.0,0.0,0.0,0.0
0.014084399031084542,-0.06552804148076921,0.7421010108989248,0.005064179707734545,-0.5169008532643122,-0.007638853723782701,0.8559962090408464,-0.019722436559364908,-0.8797762660495196,1.0180849483624002,-0.13840679171731063,-0.8239667621567911,0.8150530247990756,-0.19685072090200656,0.7294040469451863,0.985815753124717,0.4023364913784469,0.7579930933540209,1.0257742721826868,0.0,0.0,0.0,0.0
0.014979973917066168,-0.06833400594303739,0.7416709992066454,0.005727063074075338,-0.5161918669197667,-0.008539021575984542,0.85641125774067,-0.010367504682268169,-0.8810232952928259,1.0195858918761047,-0.1427017234357201,-0.8120507709805265,0.8121125819861668,-0.18693685239466398,0.7298861347620906,0.9792714693361977,0.4140515675012499,0.756704672276631,1.032692679720487,0.0,0.0,0.0,0.0
0.016340552188291762,-0.07080156081352372,0.7410112229650306,0.0067319756726493514,-0.5158815913258445,-0.010082323911247072,0.8565741129518251,-0.0003185383668554559,-0.8818772574580813,1.0232315701879648,-0.149480985023163,-0.7986430869851782,0.8067652757387094,-0.18868413235349357,0.7347860955176327,0.9766470595862963,0.4187687074719576,0.7557515620346538,1.0410110162431812,0.0,0.0,0.0,0.0
0.017891408481960885,-0.07279652094801431,0.7400575158130419,0.00780655556219289,-0.5155719430899487,-0.011804002989136229,0.8567294174371168,0.00899813550897479,-0.8848739219927954,1.0298839845628975,-0.1594526761605867,-0.782877125777544,0.7956157581551294,-0.1964470802286696,0.7399439373123429,0.9781251029373896,0.41839082455903415,0.7534230616159736,1.0506822897225487,0.0,0.0,0.0,0.0
0.019265956584136823,-0.07417359269714728,0.7388803296663733,0.008865537457987415,-0.5151900879406587,-0.013550408639500168,0.8569229615076142,0.016863739363108685,-0.8892845662452746,1.0373827509602467,-0.17119045093325533,-0.7640682555120071,0.7742823057789692,-0.20930207817453614,0.7438359806547419,0.9836451791112901,0.4114149303818402,0.7483338960964154,1.0610546426193386,0.0,0.0,0.0,0.0
0.020031347261676248,-0.0747502332772519,0.7377625024936192,0.009809691077149319,-0.5147232823648823,-0.015116342319296993,0.8571669666683256,0.02226660154640553,-0.8933753725292004,1.0427429484222936,-0.18171663046063047,-0.7420895788606693,0.737774269408678,-0.2257314796662663,0.7456054776705101,0.9914713026234244,0.3963823681465152,0.7399573082379004,1.0697724007713076,0.0,0.0,0.0,0.0
0.02006580560241173,-0.07481612935810703,0.7377380581472089,0.009873032319353534,-0.5146792745001771,-0.015106688298618604,0.8571928345485866,0.022422335986546565,-0.8934461150575191,1.042759414547705,-0.1817252420350283,-0.7420522414309786,0.7377945223907771,-0.22587046846912406,0.7456108011618676,0.9912917815796551,0.39651222919303925,0.7398364934629225,1.0699070161221977,0.0,0.0,0.0,0.0
0.02006580560241173,-0.07481612935810703,0.7377380581472089,0.009873032319353534,-0.5146792745001771,-0.015106688298618604,0.8571928345485866,0.022422335986546565,-0.8934461150575191,1.042759414547705,-0.1817252420350283,-0.7420522414309786,0.7377945223907771,-0.22587046846912406,0.7456108011618676,0.9912917815796551,0.39651222919303925,0.7398364934629225,1.0699070161221977,0.0,0.0,0.0,0.0
0.021729679842602222,-0.07624138278294709,0.7392870209921422,0.0067300287220000265,-0.5154736172903803,-0.009846860717479266,0.8568224413056547,0.013598851194841732,-0.9012699223194084,1.055808320098825,-0.19038898492392514,-0.7287856895188318,0.7410343305115084,-0.14901401928405306,0.740093197657433,0.96829862500739,0.33448343500955063,0.7199371761323928,1.0607785615560257,0.0,0.0,0.0,0.0
0.023815213224183316,-0.07757189047071661,0.7394700149112349,0.003942742707976649,-0.5161467828254119,-0.005140098188036831,0.8564756463259963,0.0059273719999255094,-0.9143840466179622,1.073707842786711,-0.19813361252773834,-0.7239030205207834,0.7521159749876825,-0.0844725502499381,0.7317719128217913,0.9560833835952698,0.27062068205259576,0.7012935516674902,1.061011897154339,0.0,0.0,0.0,0.0
0.026555271219908142,-0.07853774421092478,0.7388009533181734,0.00223413399715657,-0.5175600191982355,-0.002566763689534069,0.8556401386663478,0.0024145338604262667,-0.9246938329957864,1.0920717323124904,-0.2019242214631296,-0.7263877448247188,0.7707760077855095,-0.049662915624195184,0.7314635272539103,0.9548302107959684,0.21537865875057333,0.691337013910563,1.0701862508019953,0.0,0.0,0.0,0.0
0.030221686808790397,-0.07857623856097828,0.7381183698808585,0.0026747377741722714,-0.5209867743468919,-0.004159071735486862,0.8535504254909367,0.006592533523034113,-0.9204657733757405,1.1048259765943056,-0.19817749006805435,-0.7326522884743633,0.7936275528402039,-0.06834377187193881,0.7552762329902282,0.9635549239509326,0.1595971841006499,0.6937015325033066,1.086322904416866,0.0,0.0,0.0,0.0
0.0344325675519467,-0.07770088746638831,0.7375396038592663,0.004816944527911095,-0.5259352257694047,-0.009142897103555528,0.8504618408681569,0.01649649075832533,-0.9040295690757254,1.1121107424290486,-0.18869449583919298,-0.7401748729206667,0.8165724085640156,-0.14371780337515466,0.8037469109145886,0.9786766026816716,0.10166008126693114,0.7065999657165897,1.1022688236521185,0.0,0.0,0.0,0.0
0.03780329533161818,-0.07700529124064638,0.736906919256452,0.00594921109490655,-0.5304648614639682,-0.012700431251545704,0.8475909017240487,0.023251413456691492,-0.8894019967923728,1.1159838800477675,-0.1816952887123822,-0.7405807148216148,0.828830022260539,-0.2318113819685203,0.8547322584359062,0.9899909386801812,0.05357314044732148,0.7169006902704762,1.1167211542570328,0.0,0.0,0.0,0.0
0.03890751551901272,-0.07900743910608676,0.7369757964198279,0.0037501149185046926,-0.5263470948271834,-0.006710999116313754,0.8502350468523059,0.014093780101807108,-0.9241202892960867,1.1462140599561867,-0.1929663232869659,-0.7585043852688779,0.8595656508976915,-0.10431249353358313,0.8091399193383743,0.9684823560147502,0.06747009311794931,0.6953490893949456,1.1282290789141816,0.0,0.0,0.0,0.0
0.039534730552765636,-0.08112215815940083,0.7365437812580481,-0.0003408444762958095,-0.5211368021719055,0.0014132919954414984,0.8534719209516027,0.000185101167801998,-0.9698426874656727,1.1811035198086446,-0.20865079590851857,-0.771873392890226,0.8831109709455551,0.021864041732507028,0.7560360756445428,0.9463631379669496,0.11048903368889437,0.6811743775941173,1.1333226631467175,0.0,0.0,0.0,0.0
0.04177080452759716,-0.08052967326585757,0.7373118253183377,0.001223243867459142,-0.5253403022315587,-0.002801365077360838,0.8508867274081778,0.008876580360104008,-0.9461707661241437,1.1742998795981734,-0.19932162147925242,-0.7669123240829191,0.886589123089308,-0.057937801709418674,0.8049744218723183,0.9460015508362449,0.06563967839316473,0.684136140159469,1.1555245011041337,0.0,0.0,0.0,0.0
0.04435665824671509,-0.07956381305120148,0.737206172769781,0.0030618668651820925,-0.5299558335147546,-0.007947363829541676,0.8479824755872862,0.01879250779629586,-0.9233201672057929,1.1692364535070172,-0.18897209240532367,-0.7652947055909016,0.8923511441387266,-0.1692460356570866,0.8623778450681122,0.9556848008372837,0.014251175027631277,0.6937158768425826,1.1737673146919378,0.0,0.0,0.0,0.0
0.046013332049804984,-0.07911622733530602,0.7371723605159249,0.003534652555046544,-0.533904717897471,-0.010968956673572278,0.8454661083849726,0.024948992478420647,-0.9041419281263158,1.1616698254538145,-0.18180998380298033,-0.7568919303092501,0.8893390750125629,-0.283395612546262,0.9183059307514402,0.9604597181166865,-0.01594483333861289,0.7042432382336368,1.188178514864372,0.0,0.0,0.0,0.0
0.04532930470165847,-0.08133742228976577,0.7374389347588985,0.00260832979794231,-0.5293978430397691,-0.006215609378676648,0.8483469140632014,0.018783785044874414,-0.9285708434443529,1.1747745289042635,-0.1895463256733131,-0.7728423426640242,0.9093675064559313,-0.15427585940097344,0.8639301881082345,0.9413444583612117,-0.005561942149089373,0.6783544921692155,1.2008623448844062,0.0,0.0,0.0,0.0
0.04420662923332616,-0.08394035526750478,0.737311182475334,-0.00029589565782662,-0.5236576829415066,0.0008804653119025597,0.8519282647752255,0.008400209149028105,-0.9648225477437047,1.1937373143492132,-0.2014711732487162,-0.7862394727224323,0.9256267808780837,-0.026416325730215406,0.804686055574341,0.9196726690739848,0.0408029551032875,0.6648090842541111,1.2041400795746164,0.0,0.0,0.0,0.0
0.04457823412230164,-0.08393220256096355,0.7384687746985539,0.0019136195789678798,-0.5287363473718375,-0.00512826123940151,0.8487684689976737,0.023254141956908145,-0.9229229747567255,1.1642526758735845,-0.1852413088297621,-0.7746404405715038,0.9153526681989688,-0.1449805663817481,0.8663285498526392,0.9191625811263853,-0.019860188113901715,0.6630777155371907,1.2227624188004658,0.0,0.0,0.0,0.0
0.04484707713223308,-0.08427282079101632,0.7386292261404496,0.0029847238757117513,-0.5326812772514897,-0.009192442345993616,0.8462607442702413,0.0337861716647463,-0.893318310317481,1.1408837366003637,-0.17331560732890777,-0.7653153867710919,0.9066517898819226,-0.2639168656976342,0.9199336548109813,0.9231392554091022,-0.05842612135965694,0.6677502028944202,1.235239855386196,0.0,0.0,0.0,0.0
0.04344842337519892,-0.08720136859298327,0.7388077087607621,0.0015461191069181283,-0.5283352691788249,-0.004215813455784574,0.8490239571262709,0.029092863107148065,-0.9138378267453647,1.145915373474922,-0.17917139463814713,-0.7779008567994455,0.9211595265676518,-0.13597149474726944,0.8658838807527611,0.9032024662688816,-0.041916494055762116,0.6465942690824055,1.2436999581471126,0.0,0.0,0.0,0.0
0.04175801079778754,-0.09043998093813174,0.738335359316713,-0.0018716267143571335,-0.5228441689643833,0.0031159336966740925,0.8524205317509564,0.020083691086495877,-0.947469418632134,1.1586390810600862,-0.1894164258479903,-0.7892152888001372,0.9333898422034191,-0.009504548099252663,0.8065330282980766,0.8826127979435974,0.01258165972140654,0.6392219953944555,1.2395685103066636,0.0,0.0,0.0,0.0
0.041421709589866684,-0.09157480125718584,0.7385053434338054,-0.0010150162949774189,-0.52551024505969,0.0004908677928111781,0.8507865250037964,0.029368627567722086,-0.9232765398853685,1.1359214680473628,-0.17921188176989472,-0.7838316043886566,0.9281739312286861,-0.0687876232001246,0.8354626600409902,0.8811429690529122,-0.013792007992293444,0.6407226443576225,1.2459660032451054,0.0,0.0,0.0,0.0
0.04153426206222305,-0.09236529531262577,0.7379377960062853,0.0007146911634667275,-0.5286471054588733,-0.0037369555338600865,0.8488331769375145,0.04151397746275802,-0.8974226905036836,1.1134659008569376,-0.1665099472428258,-0.7839722317528244,0.9277201025915692,-0.14592374763529278,0.8682691389221043,0.89121955129468,-0.050966154189826224,0.6468618556053412,1.2425487380074192,0.0,0.0,0.0,0.0
0.041126840842243245,-0.09346830639560508,0.7367473801871612,0.0020086197613738686,-0.5311573350336872,-0.006974923551030117,0.847242114940011,0.05188513717210765,-0.8759980541501214,1.0903382781032518,-0.15542947497977982,-0.7846942485815144,0.925484699631761,-0.2137269375359156,0.8920253600387049,0.9057289082668551,-0.07897992854441752,0.652376263974449,1.231862294256145,0.0,0.0,0.0,0.0
0.03927806448377217,-0.0973745844737032,0.7365659317516019,0.0007385705580679699,-0.5270069062137476,-0.002611466656708797,0.8498566676554618,0.05139885477312011,-0.8911434042803716,1.0869508733499087,-0.15705396258588797,-0.8002792611688992,0.9415262341948705,-0.08685717135723425,0.8382277909568415,0.8872724936837805,-0.058802828422702014,0.6395696072711273,1.2140261141518782,0.0,0.0,0.0,0.0
0.037333031699222495,-0.10114436141800999,0.7360305193473275,-0.0014677508992356318,-0.5243469002665917,0.0016784611389038776,0.8515018242237182,0.05109380432211909,-0.9005786883458867,1.0777671859608935,-0.15772212955964227,-0.8062285042302408,0.9465992731248404,-0.011703564286906193,0.8038333967370968,0.8713793355086635,-0.031955399800846475,0.6372858191548443,1.1966780647378514,0.0,0.0,0.0,0.0
0.0360346943750378,-0.10400063585093507,0.7350773611268654,-0.0016530482877878836,-0.5245734134052105,0.0018314021425966372,0.8513616431023636,0.05806183876310287,-0.8903913276452841,1.0566407267131734,-0.1504974611042242,-0.8103973279463773,0.9486733507173224,-0.005293593317327788,0.7985036366040225,0.8705526530971816,-0.04197436372949233,0.6362380412588144,1.1842589039497127,0.0,0.0,0.0,0.0
0.03496948100566461,-0.10640719198610696,0.7336546058240251,-0.0013251509251243172,-0.5249451322704594,0.0012313937174200141,0.8511341467419152,0.06561211164574157,-0.8806048408057471,1.0369727975018586,-0.1428675489150834,-0.8172738230839902,0.9523302921347081,-0.002975758313094352,0.7923265094911925,0.8781071594807702,-0.05179780602205315,0.6375416843105864,1.1705290821125018,0.0,0.0,0.0,0.0
0.033811398932879606,-0.10849852046205709,0.7319947754341928,-0.0009885693953365878,-0.5251663835042341,0.0006949809512484208,0.8509987129068479,0.07216499903638313,-0.8725666155524309,1.0183504868464335,-0.13622268239150623,-0.8240255569171451,0.9543442772402421,0.0022059976687376645,0.7826741609479473,0.8895550878775262,-0.05887966014373265,0.6390487155181097,1.155632581994893,0.0,0.0,0.0,0.0
0.03258658678755418,-0.11046130353068892,0.7304452246962835,-0.0007679339796661803,-0.5251878041168644,0.0004109317426254864,0.8509859057701319,0.07777210711533981,-0.8656704342474619,1.0005690349803975,-0.13048939531191822,-0.8299648817728539,0.9552195629968004,0.011660293393636872,0.7712753722743656,0.8998427063359494,-0.06502405711090513,0.6396774443402845,1.1404291547640106,0.0,0.0,0.0,0.0
0.031214838418720144,-0.11236285535451039,0.729051537323426,-0.0006505289949689683,-0.5250580302177653,0.00032704705811172215,0.851066116559747,0.08271656041110692,-0.858913821916347,0.9823531022144137,-0.1253412098148617,-0.8347066994124233,0.9544284749317715,0.02388747800730387,0.7588185137387601,0.9084113109979156,-0.07104108216495775,0.6395439948563402,1.1248858448628656,0.0,0.0,0.0,0.0
0.029602929758276292,-0.11429510198973522,0.7277892192624711,-0.0006103505308087898,-0.5248228333853185,0.00035134447018910674,0.8512111944674475,0.08743998081619216,-0.8512404106408082,0.962122970019552,-0.12029384349479824,-0.8381713108465025,0.9515652211496431,0.037779406660086,0.7455228229965524,0.9154422454323409,-0.07766523614960202,0.6387584004179621,1.108683139720215,0.0,0.0,0.0,0.0
0.027688559170594176,-0.11628521833260118,0.7266170842287052,-0.0006708319268315335,-0.5244729812646151,0.0005021124018565074,0.851426679045864,0.09195767574106875,-0.8424674829193269,0.9392222160932672,-0.11531743571294631,-0.8402317956954868,0.9461969666240376,0.053245169658816704,0.7310369119058738,0.9212385948878208,-0.08513660067970917,0.6373491623323582,1.0915595142548964,0.0,0.0,0.0,0.0
0.025466766249884185,-0.11825301969124181,0.7254883075206879,-0.000845961350497229,-0.5240302708090616,0.0007726601347813572,0.8516988685101625,0.09607896801797772,-0.8327210356041633,0.9137148671302824,-0.1106037141403223,-0.8406010388341334,0.9377737811961642,0.06927540273496618,0.715383095937262,0.9265290102859838,-0.09452460419918328,0.6352823417699562,1.073343858551192,0.0,0.0,0.0,0.0
0.02301643821058381,-0.12002265632764114,0.7243222764865569,-0.0011390649854127997,-0.5235240828175965,0.0011439813637748161,0.8520093476879187,0.09942352059646659,-0.8228276819429962,0.8868556360721026,-0.10658550577731642,-0.83919441721904,0.9260860995844067,0.08431356336436682,0.6987165507388738,0.932646784805934,-0.10822133732670931,0.6324664893658317,1.0538686475665227,0.0,0.0,0.0,0.0
0.020480130555432016,-0.12145357106533033,0.7230246780036498,-0.0014863918979672282,-0.5230738240770626,0.0014651885981376758,0.852284822360985,0.1020307354121044,-0.8130613616697492,0.8597274511297383,-0.10327199919027197,-0.8362405102082068,0.911508218052373,0.09625495042168751,0.6818279332892699,0.9412149918302379,-0.13039476849168222,0.628352926414405,1.0330400039767484,0.0,0.0,0.0,0.0
0.018464388133918406,-0.12255342863640539,0.7213723673666916,-0.0017808429197128369,-0.5226501117223459,0.0016989401141631409,0.852543724930049,0.10413663369339368,-0.8071218997504949,0.8385470846661172,-0.100786466023459,-0.8357724563868846,0.9003816698441507,0.10506809635968478,0.6654022954744107,0.9535825364857181,-0.16464525141320993,0.6235695954998267,1.0114349858568625,0.0,0.0,0.0,0.0
0.017238199563857526,-0.12311086038040543,0.7196780515224686,-0.001989641260943407,-0.5224304101934089,0.0018331126974902626,0.8526776340039872,0.10523036344111766,-0.8053597748144834,0.826233272263361,-0.09960857574952148,-0.8367698340256989,0.8933092384955259,0.10980915483026409,0.6522005887149651,0.9677246620980999,-0.20664604850046409,0.6174887850101329,0.9919137586982087,0.0,0.0,0.0,0.0
0.017259844526534264,-0.12310994890742995,0.7196415469468348,-0.0020218536887441946,-0.5224224290488126,0.0018416919833920257,0.8526824296917569,0.10522463848234981,-0.8054024554580932,0.8261162546141895,-0.09963357013382829,-0.8368070680429619,0.8932951016236244,0.10980364541834695,0.6521799846839678,0.9676968242568753,-0.20666352599042961,0.6174913679860627,0.9919097411858319,0.0,0.0,0.0,0.0
0.017259844526534264,-0.12310994890742995,0.7196415469468348,-0.0020218536887441946,-0.5224224290488126,0.0018416919833920257,0.8526824296917569,0.10522463848234981,-0.8054024554580932,0.8261162546141895,-0.09963357013382829,-0.8368070680429619,0.8932951016236244,0.10980364541834695,0.6521799846839678,0.9676968242568753,-0.20666352599042961,0.6174913679860627,0.9919097411858319,0.0,0.0,0.0,0.0
0.017259844526534264,-0.12310994890742995,0.7196415469468348,-0.0020218536887441946,-0.5224224290488126,0.0018416919833920257,0.8526824296917569,0.10522463848234981,-0.8054024554580932,0.8261162546141895,-0.09963357013382829,-0.8368070680429619,0.8932951016236244,0.10980364541834695,0.6521799846839678,0.9676968242568753,-0.20666352599042961,0.6174913679860627,0.9919097411858319,0.0,0.0,0.0,0.0
0.017168425493355097,-0.1232262572684817,0.7195295055079771,-0.0016013650552897827,-0.5232500045789044,0.0015526889682862055,0.8521763065792807,0.10582468504391548,-0.7984408507765406,0.8183600378412225,-0.09860501752335699,-0.833494614626782,0.8895506266694176,0.1070228632572851,0.6546161524792915,0.9703280455637584,-0.21151843571076517,0.6169436362737947,0.9944098897444429,0.0,0.0,0.0,0.0
0.016799367084166735,-0.12392149954895584,0.7195223723455452,-0.0020182187535902514,-0.5229617804737343,0.00197248404264349,0.8523514605275841,0.10666000913073584,-0.7974480257384446,0.8139189687046162,-0.09771953278028682,-0.8337961244960204,0.8894131899763966,0.11600563786841758,0.6509850419148233,0.9668715974499694,-0.20161679452673048,0.617210231900614,0.9980812448823789,0.0,0.0,0.0,0.0
0.01654367390480179,-0.12499271430965582,0.7195579178954119,-0.0027062141872231387,-0.5221637691140683,0.0025849482062602017,0.8528370258567188,0.10823147841015447,-0.7997183080407126,0.8125995953813402,-0.09637411807186849,-0.8377774732302866,0.8941758709937581,0.1294338746781177,0.6458206284565046,0.9600993239895853,-0.1858525551874389,0.6180059773393269,1.002212620751943,0.0,0.0,0.0,0.0
0.016864800743489186,-0.12589840793492146,0.7195728222956246,-0.002997069939577286,-0.5219285174112455,0.002898596255801872,0.8529790375058593,0.10995800513946655,-0.801074464436851,0.8137037623027659,-0.09486971600020663,-0.8422721070381821,0.9017877510092559,0.13827116620656174,0.6449871183124871,0.9549861040182565,-0.17667119257171038,0.6199850422791588,1.0054445412892954,0.0,0.0,0.0,0.0
0.017786991411558605,-0.12648264880963536,0.7195811718617992,-0.003133599050202561,-0.5220319575971614,0.003156652476188292,0.8529143282589481,0.11100128458476548,-0.8043670128451418,0.820404622720669,-0.09417323570029525,-0.8472507549332463,0.9121609094153087,0.14479589847584193,0.6469427713295098,0.951303844737712,-0.17175280538090923,0.6238768707265878,1.0071242405883098,0.0,0.0,0.0,0.0
0.019285599022555312,-0.12664622718555354,0.7195259712397812,-0.003396769569983052,-0.5221547620893173,0.0036603834401918067,0.8528361319603007,0.11054318925662722,-0.8128916959078943,0.8357424152663017,-0.09527551082910742,-0.8531742883956199,0.9254220033026337,0.15151986346533977,0.6494818403720478,0.9488805448635653,-0.16782635187839173,0.6298842603705234,1.0072881621718652,0.0,0.0,0.0,0.0
0.02137833026602594,-0.12631500276589203,0.71940395191983,-0.003842464914384947,-0.522276628680648,0.004492230844673569,0.8527556381868117,0.10820270246315297,-0.8271380342413182,0.8601726103269908,-0.09858292615568787,-0.8596850637052516,0.9411574990648602,0.15882149982315238,0.6523403472874676,0.9477930223602326,-0.1645135848249487,0.6383145466924949,1.0056601198448862,0.0,0.0,0.0,0.0
0.024173751541902898,-0.1253710003714683,0.7191489669893809,-0.0038299678475521796,-0.5233804507135459,0.005162186057565043,0.8520748717056966,0.10438347871004691,-0.8399975527138273,0.8872684878080974,-0.10326621954169367,-0.8635424739477293,0.9562782738058812,0.16106566057835334,0.6596991148621785,0.9517175533547892,-0.1712059700088096,0.6488870023676694,1.002950771786909,0.0,0.0,0.0,0.0
0.027776943318548342,-0.123704736420435,0.718638603322443,-0.0016251644718236354,-0.5272347702918023,0.003965999279412383,0.8497088481859569,0.1020675760114951,-0.8360132661011326,0.9033815558324271,-0.1055890305173006,-0.8617428126840156,0.9673631572277978,0.13995237940374017,0.6822192762478271,0.9679505516592479,-0.21434159724308327,0.6571790013140854,0.9995038301132464,0.0,0.0,0.0,0.0
0.030663156261144655,-0.12108877680833809,0.7181595210154957,0.004371437665426631,-0.5333905822289098,-0.00466955933354767,0.8458448868071925,0.11471968867792774,-0.7969453879429267,0.8876076522789568,-0.09153049082278103,-0.861511156673224,0.971363609602935,0.037489910614971395,0.7384622724103014,1.0010368970175436,-0.3433872848665032,0.6379727816993624,0.9838514379887523,0.0,0.0,0.0,0.0
0.030266312694080554,-0.12225704890120528,0.7183352347675079,-0.0013306076893761394,-0.5238574147957182,-0.0002280228910611385,0.8518048992887308,0.09671402721146094,-0.8356280363074287,0.8740119431912646,-0.09906216915408493,-0.8971617286243287,1.0063908676517872,0.1044860619524602,0.6918812235466903,0.9725234043523023,-0.2464425715859548,0.6442837730504666,0.9811763846373482,0.0,0.0,0.0,0.0
0.030121052148216244,-0.12329945910213724,0.7180972221217284,-0.004926775498726147,-0.5193805359835413,0.0032532951592061884,0.8545226748280244,0.0770048892117755,-0.8599537097220632,0.8618557497635979,-0.1052170079142586,-0.9110503826436518,1.0206404080617562,0.13620489910375205,0.6710658318421184,0.9546961801006565,-0.19103006991999377,0.6475261591723799,0.9833459843847371,0.0,0.0,0.0,0.0
0.031058361278320925,-0.12315572297126037,0.7179319265901966,-0.0046892692293562304,-0.5213577687784411,0.0037491557553693488,0.8533170756053005,0.06040762809146155,-0.8722006399549478,0.8686758452795764,-0.10709927848993701,-0.9035618832375664,1.0177897228870751,0.12978596949612095,0.6812265898740311,0.9563668765685037,-0.19811131415148292,0.6523560848024647,0.98413385222485,0.0,0.0,0.0,0.0
0.0328628354059802,-0.12159433137593544,0.7176336095605149,0.0009538234672935398,-0.5281831520868753,-0.0018606286255059825,0.849127897394429,0.058440679677137036,-0.8683372986456339,0.8881097228174,-0.09779006804764655,-0.8913734140802598,1.0095760061594508,0.05274634342256829,0.7277002311696491,0.9826266654045092,-0.29411876668475667,0.64344160838382,0.97811555557828,0.0,0.0,0.0,0.0
0.033006914371626526,-0.12248017126382464,0.7177043825195272,-0.00018109320132997755,-0.5275932937863198,-0.0006787971219977314,0.8494968056393276,0.04689063943093301,-0.8868390309773351,0.8861623463642427,-0.09841100436874009,-0.8929718081005491,1.013788608840607,0.06224321994103445,0.7264497181447862,0.9737275137432883,-0.27593414016262663,0.6469456185588701,0.9799818109947309,0.0,0.0,0.0,0.0
0.03233432664490293,-0.12412937327389348,0.7180505446979546,-0.002288395432937086,-0.5243915921033757,0.001048864512312727,0.8514735000344194,0.03807096949882417,-0.9065081715809298,0.874684251193194,-0.09823157478082516,-0.9039121640029805,1.0246288454900874,0.09377873996404373,0.7100045099929057,0.9566317753209478,-0.23416281571427433,0.6492700671189573,0.9825315736740282,0.0,0.0,0.0,0.0
0.03175195539482473,-0.12556428348498708,0.718215677743181,-0.0030045521814174823,-0.5235130793032292,0.0017437603982612634,0.8520105561343202,0.030510742122797915,-0.9190758031772136,0.8682231593614717,-0.09607039578333128,-0.9069439062292028,1.0276559903840956,0.10737650170866225,0.7050643564411586,0.9469794824476123,-0.21461930810153843,0.6497454432951645,0.9869180619321657,0.0,0.0,0.0,0.0
0.03143020760437604,-0.1266342068482185,0.7180880786048289,-0.002455609499609248,-0.5245262796753575,0.0013958878208534023,0.8513895720580008,0.024267939504718714,-0.9284228135272123,0.867179800893852,-0.09234932466736048,-0.904905315102322,1.0258344708528337,0.10706371993641906,0.7083976108450072,0.9463178501596979,-0.21554629147567142,0.6483847080990478,0.9933531440421907,0.0,0.0,0.0,0.0
0.031019372123780233,-0.1277067096366097,0.7178775606762056,-0.002073568880945022,-0.525185988637956,0.0010719144379622515,0.8509842705067506,0.017881501050757947,-0.9400529250889871,0.8654408378472792,-0.08866098666953987,-0.9042656632844392,1.0247014366273703,0.10907000259836978,0.7092138573075614,0.9461417339048278,-0.21418427016866087,0.646256977394289,1.000434159932892,0.0,0.0,0.0,0.0
0.03058598026734719,-0.12865633604993224,0.7177378947705019,-0.0014248100030002308,-0.5262206167420858,0.0005441174090024382,0.8503467153863061,0.011432443772660611,-0.9503260532005103,0.8640863526472634,-0.08479594632043366,-0.9017222258052228,1.0215956019420154,0.10818679167137683,0.7119673354457863,0.9469308366552354,-0.2170746892922163,0.6442310975410339,1.0067151523995597,0.0,0.0,0.0,0.0
0.02992115786691173,-0.12967304671126703,0.7177821787773093,-0.0009764951576778494,-0.5269259805371346,0.00018485360932046866,0.8499105972520459,0.004443629077659098,-0.9598451204610415,0.861081661314478,-0.08112164075643809,-0.8988638534959114,1.0176203331594647,0.11004245916473199,0.7131650511281683,0.9453025166223433,-0.21607596937700554,0.6427154284430372,1.0118346120960053,0.0,0.0,0.0,0.0
0.028741464115324095,-0.13101836223121782,0.7180601636002285,-0.0017169900695772158,-0.5256313038402208,0.000635914639091317,0.8507105147938999,-0.003935293744653959,-0.9726886313218491,0.8521342986914261,-0.07840197059700828,-0.9013382987682769,1.0172526326173479,0.12522599597981404,0.7046512461930547,0.9361968117993285,-0.19521875084427043,0.6414688261149463,1.0155563636682357,0.0,0.0,0.0,0.0
0.027530942004877483,-0.13222876850578108,0.7182672662292974,-0.002690103915445894,-0.5240279696071118,0.0012539152548503066,0.851695883579876,-0.01327629938121919,-0.9864990560400378,0.8420553285746203,-0.07641770289864046,-0.9045436503522778,1.0170761750751653,0.14038716520834907,0.6948649790778276,0.9271208557146359,-0.1726180990934273,0.6397426898240919,1.0189240350132902,0.0,0.0,0.0,0.0
0.027145987685674132,-0.13297599723309633,0.7183118606433877,-0.002652317008017866,-0.524090634687551,0.0011867261402504594,0.8516575388783668,-0.02179433677910011,-0.9973765963983361,0.8369239805537237,-0.07420275088432797,-0.9044969518192802,1.0165189819898555,0.14370428961655504,0.6944673172428302,0.9241764859125252,-0.1682462616346705,0.6390366175487522,1.0218267029288484,0.0,0.0,0.0,0.0
0.027540807429343263,-0.13321721520399843,0.7182331667097386,-0.0016768126783638436,-0.5255873900740035,0.0004169022618740712,0.850737862027395,-0.029462471956739907,-1.0058022265710755,0.8368983073679848,-0.07180649868837824,-0.9019058488780858,1.0160044284564171,0.13653185391024714,0.7020969133568509,0.927363933022992,-0.18076155201215566,0.6392962092578928,1.0239154674566266,0.0,0.0,0.0,0.0
0.028047801577187618,-0.13321334692911732,0.7180058343763134,-0.0006173763310703442,-0.5272895841013451,-0.00040111989456801403,0.8496853255455966,-0.03776389333672916,-1.0127666296039963,0.8383416263575185,-0.0699869035766263,-0.8986638424773965,1.014749685810486,0.12702487271977686,0.7102377031291212,0.9331986414143569,-0.19666883000828447,0.639053888516095,1.0263204423420207,0.0,0.0,0.0,0.0
0.028162891813762272,-0.1335294242566892,0.7178982537602306,-0.0003951239357918971,-0.5276990045171426,-0.0005946594699691831,0.8494311336940781,-0.04718467772714263,-1.018406388508332,0.8376310904440921,-0.06871987117314249,-0.8987619574427533,1.01563343916513,0.12674304564758176,0.7119289145281908,0.933676386478864,-0.19846448017108945,0.6388715081779212,1.0284994506693428,0.0,0.0,0.0,0.0
0.027833205794500056,-0.13417191914850282,0.7180471680008488,-0.000851500264607351,-0.5269311260061865,-0.0003101492841901847,0.8499075050854494,-0.05719348842678496,-1.0205421916049335,0.8361996613954055,-0.0676121906929681,-0.9014837449658034,1.0179549866788118,0.13462199783690385,0.7081930082691174,0.9282555108258159,-0.18749353173493602,0.6390448411461488,1.0295507501257788,0.0,0.0,0.0,0.0
0.02725746675330792,-0.13499779158335026,0.7182632052672341,-0.0016654081644541794,-0.5254979277830552,0.00018155156208192978,0.8507932306679403,-0.06728659858648535,-1.0195531999664027,0.8359242722095015,-0.06644207819328393,-0.9060935679418607,1.02129538434931,0.1460361605775016,0.7014789539897948,0.9201852524649882,-0.17010324653211148,0.6387358402134728,1.0304435280872954,0.0,0.0,0.0,0.0
0.026965285318252496,-0.1355622146775218,0.7183311672676249,-0.0018222775834171629,-0.5252301305804514,0.00025955623631814255,0.8509582374390715,-0.0768165242972483,-1.0140155552449293,0.8409468558636465,-0.0650685468452654,-0.9071227936957339,1.0219129625455268,0.15022926278034102,0.6999588217455963,0.9168563516467739,-0.1641222292662414,0.6384176783978807,1.0320978491707975,0.0,0.0,0.0,0.0
0.027069564108919298,-0.13575451242631043,0.7182067610690885,-0.0009835029666343128,-0.5265755981774612,-0.00033775416893627757,0.8501276716164959,-0.08533007234336412,-1.0042951861036988,0.8515256314639376,-0.06320250543634921,-0.9034566563439903,1.0190069994360247,0.14446370723860824,0.7054291462790175,0.9206017361398213,-0.17453820018074617,0.6380127656458723,1.034818647006041,0.0,0.0,0.0,0.0
0.027040912868482144,-0.13612261371086154,0.7179910084168197,-0.00027259970910067233,-0.5276584582699145,-0.0008735143855833466,0.8494561284011279,-0.09378632702534279,-0.9945242372823854,0.8614566411704105,-0.06101180456358482,-0.901009095399853,1.0167121469848208,0.14045091112772018,0.7091304472928474,0.9240349205790339,-0.18217393928124465,0.6366723584158696,1.0388404031371925,0.0,0.0,0.0,0.0
0.02661843785588288,-0.13685501865875996,0.71802658284969,-0.00017970430805433645,-0.5276804774144784,-0.0009727986998152113,0.8494423671589965,-0.10270271980997445,-0.9854202402332853,0.8678182378141805,-0.05879885542536818,-0.9010476494625674,1.0159900286469707,0.14373583766151007,0.7083275780628716,0.9214687672480547,-0.1780148731709858,0.6357165900156235,1.0418047365770422,0.0,0.0,0.0,0.0
0.025768442984780513,-0.13794456655266793,0.7183140908269109,-0.0006229378393776566,-0.5267073393912654,-0.0007350129366610889,0.8500461460037364,-0.11172173589035256,-0.9773431853084822,0.8708892133866292,-0.05632490525333062,-0.9033648418213966,1.0164350449841366,0.1531578382709046,0.7034704666662407,0.9132526387616924,-0.16323006622408684,0.6347877827254224,1.043711933215687,0.0,0.0,0.0,0.0
0.024741606276872802,-0.13919555305124712,0.7185626866845267,-0.0008120659582929379,-0.5261148313909775,-0.0006741733898350857,0.8504128822104962,-0.11993482509943372,-0.9687124785517878,0.8746420844305787,-0.053005080189331505,-0.9039998877875992,1.0146583230706065,0.16084097411800563,0.6998596345484246,0.9057813660162101,-0.15086250438153564,0.6330637890380946,1.0469441855242858,0.0,0.0,0.0,0.0
0.023621724355495928,-0.14046600926641806,0.7186118586727842,-0.00033475443622046517,-0.5266228429725885,-0.001084957194968377,0.8500982837688951,-0.12717969549017918,-0.9588282857875804,0.881489903103302,-0.04857335888718361,-0.9005624538550544,1.0082942516524294,0.16312695223279905,0.6996549918612233,0.903068725398337,-0.14758579316815398,0.6300947673005635,1.0529006945234223,0.0,0.0,0.0,0.0
0.02233494922627236,-0.14174414746808733,0.7185488185200531,0.0010089905184786764,-0.5284846444562956,-0.0020948476345130614,0.8489396763760217,-0.1330444764717984,-0.9461126644994658,0.8919733370688426,-0.042820477627608704,-0.8913746420173797,0.9955393623461949,0.15865904033325387,0.7040279243062395,0.9053286476969006,-0.1556402017081825,0.6260642359721367,1.0611440606558986,0.0,0.0,0.0,0.0
0.020339082239866448,-0.14350743729528714,0.718966008640171,0.001634595693485827,-0.5292206176420652,-0.002565063917664108,0.8484788072819309,-0.1396050650932062,-0.9339993918151237,0.8989623492096611,-0.036990686318408586,-0.8826111178967183,0.9814665885166052,0.16241376093207302,0.7039892993791611,0.8987554797325463,-0.14948769312008706,0.6228917865701309,1.067128703337107,0.0,0.0,0.0,0.0
0.01719538000382321,-0.14608183454005777,0.7201270866952074,-3.181154989142478e-05,-0.525953198687446,-0.0016915641620309217,0.8505118284827994,-0.14853610970619627,-0.9298258953995245,0.8966808637831325,-0.0316775971897486,-0.8848517930251207,0.9747251221468604,0.18590746775435726,0.6893089290559582,0.8727170003578326,-0.10624805556478069,0.6193041189319765,1.067504835542695,0.0,0.0,0.0,0.0
0.013949437483022185,-0.14854445748472586,0.7207502316802074,-0.0011662576612609314,-0.5240642356604096,-0.0010360038969209548,0.8516773118033988,-0.1591906806700123,-0.924449447592547,0.8986111177583594,-0.02627872094484289,-0.8812685543952885,0.9608834084963436,0.20268013546068916,0.6784281560806646,0.8532638031386472,-0.07425876538741627,0.6133153702137499,1.072218774303647,0.0,0.0,0.0,0.0
0.011346633719485574,-0.1505074311822929,0.720883331954753,-0.0012441197525245422,-0.5242708897195612,-0.0011336687682703668,0.8515498817766491,-0.17204249757268134,-0.9200586735476212,0.9111211635260088,-0.02067051306161239,-0.8716522471641497,0.9425169269212249,0.2099224263388824,0.674464827494455,0.8452082075966477,-0.0610168161967492,0.6076468119402813,1.0802873589355275,0.0,0.0,0.0,0.0
0.009825760352105972,-0.15172401960530005,0.7208491998689666,-8.768371400254945e-05,-0.5266511315526742,-0.002164480115809161,0.8500787569229585,-0.18716934763710974,-0.9185964137783833,0.9389060387260283,-0.015152716194949612,-0.8564425309260869,0.9222162808849592,0.20696220082740097,0.6793556359838393,0.8481394131364813,-0.06827899704085971,0.605126814120066,1.0886096739802638,0.0,0.0,0.0,0.0
0.009482359669850003,-0.1519989186049731,0.7209533498197034,0.002188176679706154,-0.5308604398537224,-0.00380455996728346,0.8474478925601184,-0.2036679516984728,-0.9216015885211597,0.9865470157118013,-0.011157541273434466,-0.8359332952338052,0.9010812418061774,0.19404862288012856,0.6936751236925279,0.8585575457098698,-0.0949246383861909,0.6071781843166939,1.093704020605452,0.0,0.0,0.0,0.0
0.010088051709655635,-0.15155704464802244,0.7210784470171532,0.004908154395211318,-0.5354360981666075,-0.00513846492691582,0.8445458489500417,-0.21907819650528781,-0.9321865820284171,1.0514565862874057,-0.01031423399890864,-0.8161924231786977,0.8842037243719512,0.1762050130523654,0.7119467100384982,0.8710235738962655,-0.1304996590032083,0.6117063303094175,1.0954973289464736,0.0,0.0,0.0,0.0
0.010140439830110969,-0.1515881141352065,0.7210051505504685,0.004775938280318384,-0.5354384570508545,-0.005066061585780166,0.844545548886827,-0.21909539377686726,-0.9322335576047165,1.0514486333764839,-0.010446169263723718,-0.8161646047510358,0.8841341001047859,0.1763612601197325,0.7121550265782859,0.8707365784274002,-0.13066073689280858,0.6113919468035484,1.095733637958071,0.0,0.0,0.0,0.0
0.010140439830110969,-0.1515881141352065,0.7210051505504685,0.004775938280318384,-0.5354384570508545,-0.005066061585780166,0.844545548886827,-0.21909539377686726,-0.9322335576047165,1.0514486333764839,-0.010446169263723718,-0.8161646047510358,0.8841341001047859,0.1763612601197325,0.7121550265782859,0.8707365784274002,-0.13066073689280858,0.6113919468035484,1.095733637958071,0.0,0.0,0.0,0.0
0.006503868475070943,-0.15435470826711095,0.7232535448973528,-0.002851905562973363,-0.5202110861540196,-0.0003080905910042165,0.8540329019173107,-0.22651729958516945,-1.0058903678653306,1.0988641623154134,-0.01178136579219722,-0.8691774643088482,0.9264569441941567,0.1306767977295481,0.6135096968461943,0.912484677777723,-0.004386629323335722,0.6045909447058052,1.0758755895370142,0.0,0.0,0.0,0.0
0.007211304196273615,-0.15609391305227502,0.7273235716657827,-0.0019932418470053497,-0.5229552627890197,-4.802358454504552e-05,0.852357799167663,-0.22138574334419014,-0.9781495316672898,1.0835271316841708,-0.0087062226887148,-0.8491918438511307,0.9205932288451801,0.10475166299689356,0.6133637607506932,0.9520246845544839,-0.01026821329148983,0.6279253634835287,1.045552758050942,0.0,0.0,0.0,0.0
0.009106358717298322,-0.1576307420437128,0.731380620467813,0.0009786750524872173,-0.5280124809884126,-0.002099226203907236,0.8492334516285541,-0.21052564774151764,-0.9391008894376601,1.0651233276529621,-0.001010576664936532,-0.8275354499676721,0.9175783192809805,0.07957657951357985,0.6361497459322661,0.9861293982642323,-0.03944998242320774,0.6546565394976082,1.0171444094011033,0.0,0.0,0.0,0.0
0.010782001763533366,-0.159805978188766,0.7342185906052934,0.002349607510946515,-0.5300350987634046,-0.0030639250136899185,0.8479669131439758,-0.20255540377728054,-0.9215780431534818,1.0605521167834902,0.005999413312557687,-0.8231118461283818,0.9287478405651002,0.07251131995189117,0.6444362406084396,1.011191141915971,-0.045173391599358105,0.6736154864420006,0.9975832288562966,0.0,0.0,0.0,0.0
0.011678089093093529,-0.16251013587386906,0.7366890946011068,0.0031174816690512663,-0.5308711652737336,-0.003631804534780958,0.8474390226941242,-0.19419444193067667,-0.9086106280386261,1.055234854553024,0.013710673182861972,-0.8223413176106544,0.9398123680646938,0.06567097339725175,0.6471450296125746,1.0278827038629,-0.03769284174145593,0.6887819470094494,0.9828859726285095,0.0,0.0,0.0,0.0
0.011199980542301483,-0.16574483060883163,0.7390745923854956,0.0015166308454472278,-0.5278779406994912,-0.002512397517957405,0.8493151755458364,-0.1887339109257308,-0.9148712268998657,1.05920808199252,0.01994499204521952,-0.8327051675099725,0.9557077066115219,0.0617565906692373,0.6252383511676013,1.0378285247450798,0.004753230391143011,0.698951307153329,0.9680067915682156,0.0,0.0,0.0,0.0
0.010320127173484094,-0.16900165706182035,0.7406221084024669,-0.0005128984395675313,-0.5240677853225728,-0.0010683890840690496,0.8516757316414796,-0.18405838979942254,-0.9274201484773595,1.0653844575963114,0.025821293651447957,-0.8475291294444836,0.9724258170890542,0.06338242502090372,0.5972378235523499,1.0455047957828671,0.050524580022983996,0.7023042443994941,0.9591047969124717,0.0,0.0,0.0,0.0
0.01042413911984974,-0.17152343451081004,0.7419524936206158,-0.0005921694767194592,-0.5235685308454067,-0.000994829231518045,0.8519827775011026,-0.17761188706892322,-0.9236469641710993,1.0626092010194415,0.03218439847733353,-0.8515527508317909,0.9819301505746852,0.062414968086037345,0.590678577993945,1.0587822065414918,0.06724217705407845,0.7088598011338247,0.9525851710675994,0.0,0.0,0.0,0.0
0.011924310150790299,-0.1727881361647435,0.7438755467921125,0.0028502766257444225,-0.5280335772204827,-0.0038451978342357116,0.8492100044774042,-0.16679054019428133,-0.8908663764944731,1.0440415546327382,0.04063266615797124,-0.8375362842108486,0.9797906097493206,0.046050025478439685,0.6198950128741549,1.0787569001677086,0.035862915880410434,0.723818676187727,0.942394155126388,0.0,0.0,0.0,0.0
0.012879647052967068,-0.17430077749332312,0.7450630573405368,0.0054742821625065425,-0.5314592217693332,-0.005940218120750655,0.847045359847876,-0.15789529844337896,-0.8645036371329288,1.0260601029241094,0.047955556613669646,-0.8270990113597871,0.9776751343215082,0.03446073248995603,0.640946321476328,1.0956999103832963,0.013546368418457442,0.7330659144177842,0.9385374070145562,0.0,0.0,0.0,0.0
0.01192965731965068,-0.17681156935471612,0.7467206725886845,0.0025418983262396814,-0.5268621105170219,-0.0036556441988520763,0.8499391104778858,-0.1569269759792783,-0.8832897760418807,1.0377901756863424,0.05046815197170784,-0.8417075344170363,0.9929946444012343,0.03453617852002136,0.6081479499293045,1.1059660749298872,0.06741779528800713,0.7382720993139384,0.92560881534248,0.0,0.0,0.0,0.0
0.010765373344506939,-0.17930199950059914,0.7476306919601245,0.00039801646796352444,-0.5236535504611085,-0.001826879712305013,0.8519292594945211,-0.15480837470643116,-0.8941500989033204,1.0403044091780793,0.05354589126256184,-0.8513015225194971,1.0011929160610502,0.0326092283758644,0.5831102706217399,1.1145436495998435,0.1083257388339612,0.7387250859049193,0.9203495739444213,0.0,0.0,0.0,0.0
0.010804039003884448,-0.18079467356822995,0.7488707252154662,0.0010570734700694367,-0.5246015834232005,-0.002243525259421975,0.8513442475637925,-0.14975575845416814,-0.8815048241994049,1.0297819703938462,0.057855952250707395,-0.8460072497415551,0.9999942037691336,0.019546194929273022,0.5866517527038249,1.1287410663338178,0.109994418075408,0.7459230794159362,0.9132258512455059,0.0,0.0,0.0,0.0
0.011299811389485109,-0.18178629509411234,0.7497263878090779,0.00211748060368778,-0.5259389464692672,-0.0031093712607397506,0.8505140049834883,-0.1451591587634007,-0.8697659260514079,1.0222084023515472,0.06181229219311064,-0.8419156562093276,1.0007453203790873,0.01038634123168063,0.5925105375902906,1.145241237040462,0.104197179937186,0.7522614875570924,0.9087657272824519,0.0,0.0,0.0,0.0
0.011864921018229028,-0.1826823052491875,0.7502953741795758,0.002043344972206713,-0.5255566346538557,-0.0031061428569941693,0.8507504924413444,-0.14310774191621053,-0.8716138451017942,1.0265976721968257,0.06421736110024508,-0.8463471688156979,1.0094268884863622,0.004026653098359388,0.589724400068211,1.1605607108020595,0.11047447901999156,0.7562978916815868,0.9041496262928097,0.0,0.0,0.0,0.0
0.012659604046487727,-0.1832481111018634,0.7507373950391535,0.0027442409703119525,-0.5264304512290751,-0.0036570634109689636,0.8502059015600029,-0.14055985155789996,-0.8666324544277102,1.0262334269540316,0.06661029310100723,-0.8460233180619848,1.0140695447057728,-0.004459181190478771,0.5958156382625427,1.1749645942872322,0.10695665123196149,0.7615206850384759,0.9017996148975109,0.0,0.0,0.0,0.0
0.013233009931028938,-0.18369535559044728,0.7510167880372524,0.003873418950820754,-0.5279413500030674,-0.004556437302714878,0.8492597756056014,-0.1374149664246322,-0.856714288670725,1.0202957316055876,0.06921646174375519,-0.8422388238950766,1.0139842003145685,-0.01553672921257891,0.6065178618692771,1.185508188975668,0.09766001039075692,0.7655117120497321,0.9020074115531277,0.0,0.0,0.0,0.0
0.012975303345765958,-0.18461431881435053,0.7511705058200313,0.0035273637867289567,-0.5275694122041388,-0.004193553578750282,0.8494942537296398,-0.13583069406676726,-0.8565400622387769,1.0181153324912038,0.07084824826597741,-0.843403986141421,1.015246073102794,-0.025838726288346325,0.6058490640849223,1.1868101857212534,0.10913194766603307,0.7664415989587587,0.9032032258203108,0.0,0.0,0.0,0.0
0.011988859665064676,-0.1858771314909776,0.7511937507565497,0.0021543365742347307,-0.525799495662211,-0.002981912352782488,0.8506005862883059,-0.1351475785281166,-0.8630912397507915,1.0177539529780777,0.07194410769886737,-0.8480826623353949,1.0167120752268999,-0.03720147293923094,0.5975208615504348,1.1788770682529575,0.13491635672869945,0.7641632239117985,0.9055653128433329,0.0,0.0,0.0,0.0
0.010901075902457702,-0.186982346890795,0.7510172301923995,0.0010050662207243687,-0.5243012171181025,-0.0019696924233620705,0.8515300017510398,-0.1344263293949113,-0.8679920855523869,1.015276707599704,0.0729591351506236,-0.8516403313772429,1.0160979170068205,-0.04924370496790823,0.59187725610889,1.16737346181557,0.15554906953392397,0.759955007212316,0.909512690450335,0.0,0.0,0.0,0.0
0.010465034910308245,-0.18758134276193558,0.7506640188050662,0.0010661720276694277,-0.5244129082495751,-0.0019730201795367416,0.8514611395300441,-0.1328075410698712,-0.8654444422167917,1.009730561195145,0.0744132251782048,-0.8512962571669304,1.0138631892858758,-0.06345017556807162,0.5980985015214972,1.1566520422297764,0.15906595579625443,0.7571707294365586,0.9153761851074153,0.0,0.0,0.0,0.0
0.01056881103886011,-0.18777947394918695,0.7502008795609516,0.001810970739795454,-0.525329454118887,-0.0025983631416826567,0.8508930212013234,-0.13091595459868252,-0.8602886007349995,1.0048612662040526,0.07600442999675877,-0.850019022230439,1.0125396015492178,-0.07928420693126301,0.6111668401837782,1.1468538713219618,0.15245743763153996,0.7554577317715442,0.9218857955171985,0.0,0.0,0.0,0.0
0.010656230898213456,-0.1880204884501756,0.7496923358106556,0.002234514022029238,-0.5258191568049735,-0.002956134045484761,0.8505883155531219,-0.12956507765257042,-0.8582900825304618,1.0025878417578937,0.07728019900200302,-0.850647467951052,1.012957042056979,-0.09379602869579279,0.6216969175431937,1.1363462665195108,0.14968052936038914,0.7533308948128316,0.9282570743285803,0.0,0.0,0.0,0.0
0.010467576843022922,-0.1884634796160136,0.7492278326928717,0.0023005454170181424,-0.525821306287515,-0.003003202370783792,0.8505866458629571,-0.1283486166160865,-0.8581148227560256,1.0004055754714898,0.07852392757091044,-0.8522200446356863,1.0133063158216171,-0.10764844960665931,0.6287896068356857,1.12450665549245,0.1522873269848333,0.7504961757337638,0.9343031285050609,0.0,0.0,0.0,0.0
0.009951143518862941,-0.18914941407289793,0.7488588002095787,0.0022974207658635363,-0.5256639247447531,-0.002989765107569404,0.8506839726857257,-0.12655448799647326,-0.8567460692396075,0.9954143803652991,0.08024470283978147,-0.8531293150731007,1.0118975943129345,-0.12143544797951247,0.6345748310406597,1.1116745464988007,0.1571483579927426,0.7470099931174757,0.9401864942077156,0.0,0.0,0.0,0.0
0.00906759304381776,-0.19012494001647642,0.7486114960619619,0.002341874543323622,-0.5254733020041892,-0.0030167920438971068,0.8508015182580491,-0.12382070408839023,-0.8528180172913375,0.9861748322898323,0.08271902192453393,-0.8526921421296909,1.0079653490203713,-0.1350347824831081,0.6399958404110315,1.0982112424246975,0.1631029886182235,0.7428390553063923,0.9459751486924914,0.0,0.0,0.0,0.0
0.007741155122429493,-0.1914623623974364,0.7485122186776477,0.002380975403214758,-0.5251765282752018,-0.0030345655027679184,0.8509845689065959,-0.12007022267360716,-0.8462377691439698,0.9721200071289645,0.08602370354805165,-0.8508535295309072,1.001205906504717,-0.1482204224226345,0.6446399466489843,1.0841545049300945,0.17113817621837601,0.7378658460128132,0.9515391719604211,0.0,0.0,0.0,0.0
0.005891636851910422,-0.1932204195328545,0.7485841435424074,0.0023071717962498037,-0.5246563874481622,-0.0029412826309410858,0.8513058797662749,-0.1153858350287473,-0.8372524224619358,0.9529117364549176,0.09009865797178657,-0.8476353072200637,0.9913353263335901,-0.16107229070048598,0.6476924188412215,1.069430429477377,0.18271541097285968,0.7319803816779766,0.9566411593796205,0.0,0.0,0.0,0.0
0.0034933679130378465,-0.19539649771352827,0.7488294925744376,0.0020292632984386686,-0.5238469667465911,-0.0026456493299350883,0.851805868763819,-0.10999863848513809,-0.8261560525105099,0.9285031642361199,0.0947408003030756,-0.8429987149373126,0.9781447662356819,-0.17430268614531258,0.6487422908366188,1.054193594871188,0.19856774121391632,0.7251659874668536,0.9610245844819472,0.0,0.0,0.0,0.0
0.0006361050685026121,-0.19788994565422535,0.7492028351688411,0.001482606598763177,-0.5227417374358061,-0.0020785091040435547,0.8524872771016424,-0.10436755845902469,-0.8136982986997988,0.899851879514901,0.09955297566698325,-0.8371584451774018,0.9620160262890656,-0.18994894798742473,0.6483885071036664,1.0391102374134509,0.21838631140210826,0.7175303762826697,0.9645329646477552,0.0,0.0,0.0,0.0
-0.0024163619632240215,-0.20046831574232865,0.7495573914722584,0.0005442189317811033,-0.5212511514834717,-0.0010961747521057049,0.853402448616022,-0.0995087600407139,-0.8028168263673465,0.8708940890655377,0.10371790793230826,-0.8316955550763476,0.9452219750367293,-0.21204222286750662,0.648550346809517,1.0252513013094178,0.24184319477807192,0.7091315990256665,0.9673424227280921,0.0,0.0,0.0,0.0
-0.005162888789319423,-0.20283083434244764,0.7496032527192406,-0.0009143353760529489,-0.5191718064842604,0.0004709482972579793,0.8546692796341699,-0.09674084481806432,-0.7993958325156397,0.8497987299172592,0.10630374380430556,-0.8305656771196741,0.9333218572073717,-0.24629646380396153,0.6523110845855582,1.0136221287421079,0.2685205723936602,0.6997193286393275,0.9705008228687316,0.0,0.0,0.0,0.0
-0.007474716874373328,-0.2047600523140001,0.7489391752290598,-0.0025282664320544906,-0.516957061808667,0.0022242756409362047,0.8560047060109376,-0.0957392091711205,-0.8025509637546243,0.8365444798306086,0.10757070635726144,-0.8337081746834343,0.9261253150640125,-0.29309012968106285,0.6595834815569055,1.0059652786187412,0.29309026882493006,0.6877024634891421,0.9780289169829972,0.0,0.0,0.0,0.0
-0.009023315896058454,-0.20594697398576056,0.7476728771931024,-0.0036927079442286037,-0.5151921492742251,0.003544256533158992,0.8570594212071123,-0.09592232510075954,-0.8094236137595376,0.8309942652485783,0.10792767693428097,-0.8397854989315634,0.9237389563948056,-0.34359649120234886,0.6680034833814097,1.0036230764072314,0.3085297825345671,0.674766839647013,0.9893548029790044,0.0,0.0,0.0,0.0
-0.008993452131975499,-0.20598532457623434,0.7476282525598044,-0.0037656055492893527,-0.515213686602191,0.0035837718835698743,0.857045992891696,-0.0959438081328232,-0.8094279198450901,0.8308684130721377,0.10794529606676809,-0.8397862642261461,0.9237985406727537,-0.34360381841726695,0.6679653481320126,1.0036064577052477,0.308528846124711,0.6746964955298611,0.9892763714514627,0.0,0.0,0.0,0.0
-0.008993452131975499,-0.20598532457623434,0.7476282525598044,-0.0037656055492893527,-0.515213686602191,0.0035837718835698743,0.857045992891696,-0.0959438081328232,-0.8094279198450901,0.8308684130721377,0.10794529606676809,-0.8397862642261461,0.9237985406727537,-0.34360381841726695,0.6679653481320126,1.0036064577052477,0.308528846124711,0.6746964955298611,0.9892763714514627,0.0,0.0,0.0,0.0
-0.009590916603210037,-0.2061999471192895,0.7480359848055125,-0.002815295136523375,-0.5162317720946591,0.002923298619895742,0.8564393066169261,-0.09379157296694397,-0.7956755923152307,0.814703249880815,0.10922475016555357,-0.8312760067314091,0.9132999427950054,-0.35406609410021667,0.6735966598339157,1.0021950588704023,0.3011321736788227,0.6757884876697796,0.9881976822047641,0.0,0.0,0.0,0.0
-0.010388897183182512,-0.2066688148924546,0.7482192567958083,-0.0023100473111849215,-0.516926485628885,0.002477387046274322,0.856023092381399,-0.09140245835771904,-0.7837312284194802,0.7983334536825596,0.11089334582777528,-0.823995728331232,0.9028269902719648,-0.35757491191801055,0.6754494531294056,1.0016120185723723,0.2985492519328708,0.675082445622749,0.9893372030344914,0.0,0.0,0.0,0.0
-0.010953958335875896,-0.20721857337249588,0.7482762846296662,-0.0020365315359583513,-0.5173553546742891,0.0021898986454430298,0.8557654432571266,-0.08923368149652969,-0.7754843091156921,0.786414308822692,0.1126169502292235,-0.8196191187156323,0.8962026419110948,-0.3577333064444761,0.6759655526636857,1.001280418258775,0.29882499715375316,0.6742663748437508,0.9912420213894337,0.0,0.0,0.0,0.0
