zhuoxili-jackie/tripod-support-walk/examples/trajectory_walking_sideways_sc_v0.20.csv
root_pos_x,root_pos_y,root_pos_z,root_rot_x,root_rot_y,root_rot_z,root_rot_w,FL_hip_joint,FL_thigh_joint,FL_calf_joint,FR_hip_joint,FR_thigh_joint,FR_calf_joint,RL_hip_joint,RL_thigh_joint,RL_calf_joint,RR_hip_joint,RR_thigh_joint,RR_calf_joint,FL_foot_joint,FR_foot_joint,RL_foot_joint,RR_foot_joint
0.0,0.0,0.72963,0.0,-0.5231245161092812,0.0,0.852256264656019,0.0,-0.81,0.872,0.0,-0.81,0.872,0.0,0.65,1.0,0.0,0.65,1.0,0.0,0.0,0.0,0.0
0.0006540640300824658,-4.877017533936725e-05,0.729578732502404,-0.00025879846429564075,-0.523190052578329,0.0002356196192062709,0.8522159622946729,-0.000351634269272383,-0.8138992119520494,0.8788627337576164,-0.00035163426927238307,-0.8126397582697001,0.8779633930779385,0.0034458129873313178,0.6508702689048934,0.9995651028578612,0.0034458129873313186,0.6528409923893275,1.0004883491175252,0.0,0.0,0.0,0.0
0.0019348238373445596,9.676117177868246e-06,0.7294799945678843,-0.00036120705270266835,-0.5234273060385839,0.0003363187541151671,0.8520701917755082,-0.0007098980841117088,-0.8200215147735036,0.8911416453418226,-0.0007091299046506225,-0.817874930450284,0.8893017272829497,0.00437887790997148,0.6544199192085488,0.9998772187581109,0.004396186961036652,0.6571784053232363,1.0006438831343178,0.0,0.0,0.0,0.0
0.003815602730292345,0.00019721132029257077,0.7293561334793197,-0.0003415263698057992,-0.5238349759699813,0.00032229433076879944,0.851819639029667,-0.0011642676890862855,-0.8281799488416042,0.9084808931865564,-0.0011628801873600815,-0.8252579171376505,0.9053623906403029,0.002965143426658611,0.6606420665569528,1.0007328622704552,0.0029775233594503047,0.6631480059385604,1.0001681148784374,0.0,0.0,0.0,0.0
0.006274857464224497,0.0004724837001980394,0.729253336729479,-0.00019487401366043622,-0.5244281446046364,0.0001851424218650437,0.851454666375692,-0.0015927303968950274,-0.8377545236139811,0.9300658398113266,-0.0015911231665710654,-0.8344208620408299,0.9256942656613906,-0.0007484571658885842,0.6698621289715149,1.001516588991822,-0.0007516095534285559,0.6709471959266434,0.9987121779846565,0.0,0.0,0.0,0.0
0.009283609531484941,0.0007183581677128457,0.7292385971191543,0.0001348671630141945,-0.5252705260927991,-0.0001767368840914706,0.8509352648663212,-0.001455293237785922,-0.8473478239653971,0.9542873644505395,-0.001454486859279306,-0.8449821936041544,0.9498907281544703,-0.007248272000998544,0.6829400802596194,1.0013378754654094,-0.007223569287441578,0.6806886955893888,0.9959623666466545,0.0,0.0,0.0,0.0
0.011864735875762235,0.0008991723425120377,0.7289819319534835,-3.6961659680588354e-05,-0.5252393095661803,-0.00013571185653816407,0.8509545510205406,-0.008074264592839848,-0.8529592378269266,0.9314089922494546,-0.0019342693563733798,-0.8577035164214319,0.9735128916977873,-0.007545711816677175,0.6895948270840674,1.0010148524015423,-0.007456360189323521,0.6875914037622185,0.994550922375494,0.0,0.0,0.0,0.0
0.014229360713400599,0.0011477613405956556,0.7286397514765133,-0.00012794607654084735,-0.5253779717412536,-0.00017370340247718124,0.8508689324837146,-0.018392340093450293,-0.8680937323955769,0.9130442001471583,-0.0024327115073331726,-0.8684401716787177,0.9936852928939722,-0.009374161719088739,0.6960678302913265,1.0022696494747994,-0.00921726255571724,0.6935644866749687,0.9940624293450342,0.0,0.0,0.0,0.0
0.016225155186868446,0.0013633097823140686,0.7283313641233585,-0.00015836981886107964,-0.5256521460370505,-0.00026359021715706725,0.8506995514315505,-0.029130263974564453,-0.8879547549558148,0.8994734631916348,-0.002745581577034555,-0.8766170029395531,1.0096532311857027,-0.011790863789824023,0.7022288577736401,1.0037576767824161,-0.011551219591886755,0.6987441638716354,0.9939111333477552,0.0,0.0,0.0,0.0
0.017755239107934914,0.001471925242973723,0.7280901320060328,-0.00015847752944086639,-0.525961247245999,-0.00036856420370784843,0.8505084393706704,-0.039156301041242264,-0.9095836567058908,0.8886236498815983,-0.002755479050515887,-0.8824529993861535,1.0214620071180969,-0.013749692806784689,0.7074053283176274,1.0048650244387245,-0.013425552217006696,0.7028911738351896,0.9940771063715971,0.0,0.0,0.0,0.0
0.01879061016398273,0.001428539548022173,0.7279291376885952,-0.0001357787376189253,-0.5262490518132554,-0.000482980157101961,0.8503303380216137,-0.048416201846383136,-0.93133198981789,0.8789950112119215,-0.0023499241091805177,-0.8862586934957041,1.029426826161583,-0.014714505280782414,0.7112650711437326,1.0053188910438595,-0.014333312409729274,0.7058735206964697,0.9946092230896041,0.0,0.0,0.0,0.0
0.0193392022401678,0.0012034292093735996,0.7278551805880751,-8.20083923374153e-05,-0.5264954442328583,-0.0006189054204598548,0.8501777210870379,-0.057223382366463835,-0.951888894323331,0.8699040712742327,-0.001420217547788326,-0.8883017349104249,1.0339181031302123,-0.01452100589639477,0.713769040664556,1.0049778692670734,-0.014130763835764464,0.7076629979916081,0.995540567327211,0.0,0.0,0.0,0.0
0.019411614934491336,0.0007681829719917168,0.7278738164919917,7.98486707622512e-06,-0.526683384606811,-0.000785673440956179,0.8500611713474509,-0.06587262574861381,-0.969646939251112,0.8615364380543846,0.0001302594322233131,-0.8888047697887317,1.0352458131653262,-0.013012436247915432,0.7149086438530108,1.0036864189318246,-0.012669134018836192,0.7082585340244167,0.9968893108590097,0.0,0.0,0.0,0.0
0.019001347767879026,8.904452946767482e-05,0.7279949243586337,0.00013452180725701402,-0.5267947209942736,-0.0009843480777184186,0.8499919616651151,-0.07441500957367853,-0.9823810048408398,0.8550619985959121,0.002389035792941958,-0.8878739495624608,1.0335322848758512,-0.009932899597535126,0.7146310714631002,1.0012164450928387,-0.009686544909006504,0.7076620376129228,0.9986581914464377,0.0,0.0,0.0,0.0
0.018085482119970606,-0.0008726280713223892,0.7282369587584354,0.00029016519282034676,-0.5268114253557361,-0.0012054898748987777,0.8499812849192505,-0.08259053564823376,-0.9875599545784951,0.8525801859704917,0.005428227278260983,-0.8854758642068491,1.0287049449693921,-0.004909242330871753,0.7128611217321965,0.9972258653007169,-0.004780247831723948,0.705912491548897,1.0007974045568322,0.0,0.0,0.0,0.0
0.016659690651634283,-0.0021393974827574108,0.7286249605103253,0.00047235665705779397,-0.5267507517420404,-0.0014419594905211084,0.8500184369595823,-0.0900888843612319,-0.9835985002298445,0.8563350027084765,0.009275092817255377,-0.881392887485658,1.0205807697394493,0.002145111624480762,0.7098074117472278,0.9913668792066275,0.0022149281049622747,0.7032007059285645,1.0031417605509214,0.0,0.0,0.0,0.0
0.014773776777026095,-0.003679749272541363,0.7291419723861884,0.0006572923219380558,-0.5265922901832725,-0.0016768961901894258,0.8501160602561906,-0.0973949020240902,-0.9724188194528559,0.8645482891016782,0.013797280250033841,-0.8758158687836539,1.0094370330993718,0.01102669601302107,0.7055865479642669,0.9836661250634225,0.011209704201439092,0.6995946257541406,1.0055682751532913,0.0,0.0,0.0,0.0
0.012519280706463538,-0.0054366995838892596,0.7297671577572882,0.0008330045502500037,-0.5263656962933148,-0.0019083132254908248,0.8502557369460712,-0.10524293608428247,-0.9570160563607928,0.8758793882119826,0.01882977830734741,-0.8688354522632039,0.9956038219222014,0.02111214134070507,0.7006769871067532,0.9743065411339507,0.02168524491520455,0.6953233736366661,1.0079062696284946,0.0,0.0,0.0,0.0
0.010007440979148364,-0.007332420711490227,0.7304448533126624,0.00100157896618117,-0.5261417813196054,-0.0021524821422210087,0.8503935498403279,-0.11438541953117129,-0.9402790871515487,0.8903125071501699,0.024197891918741957,-0.8605175885550459,0.9793957262032612,0.0315070422978003,0.6956028428352128,0.963960074829501,0.032774763808051416,0.6905469771323024,1.0102801562311012,0.0,0.0,0.0,0.0
0.007381040616294058,-0.009225166582087121,0.7309999150018022,0.0012037161157415705,-0.5260664672464627,-0.002464444841707544,0.8504390334515233,-0.12553098263249393,-0.9248878102992429,0.9094597088292762,0.02965011322125355,-0.8510086917876742,0.9610770980201087,0.04059393209437814,0.6906656771228676,0.954882614446245,0.042734487837050854,0.6849860624125211,1.0137977604552433,0.0,0.0,0.0,0.0
0.004951056100065113,-0.01070998522896626,0.7312142709644238,0.001525275109401965,-0.5264529904633012,-0.002893873938218559,0.8501979462817572,-0.1395794893634059,-0.9137675378347307,0.9371989708501531,0.0342213841550557,-0.8399548151928817,0.9408874304824777,0.04515434426751674,0.686785780086102,0.9510625539212673,0.04792794388114754,0.6789615419116631,1.0193366022644057,0.0,0.0,0.0,0.0
0.003284099499322085,-0.011676388070727904,0.7311872784741817,0.0021283259328520256,-0.5274498427871464,-0.003518985450338338,0.8495762180722447,-0.15469804341523363,-0.9101081159410291,0.9787244332428507,0.03777623698385761,-0.8290969566238099,0.923246508567628,0.04364125021653633,0.6866113366299926,0.9520877242172708,0.04646072052199483,0.6746617935467285,1.02541899607557,0.0,0.0,0.0,0.0
0.002761737192105297,-0.01201499251735503,0.7310746163304978,0.003071059787701566,-0.529013712919347,-0.004196775486112697,0.8485973410343602,-0.1684045413463124,-0.9193123372522752,1.0368954752788782,0.03965530427862771,-0.8200177110398689,0.9118822476527764,0.035988423310126756,0.6915742172242118,0.95645217221408,0.038297890802988,0.6740327087619721,1.0301167033802041,0.0,0.0,0.0,0.0
0.0027643040572292534,-0.012056015238191366,0.731065710809329,0.003094195804301055,-0.5290092658524761,-0.004194272285729263,0.8486000416418455,-0.16841787380449297,-0.9193311130884003,1.0369044671377872,0.03970496593202217,-0.8200255708526007,0.9118078985957286,0.03594161143447916,0.6916465256090293,0.9563057371729047,0.03833760903367568,0.6739650994580347,1.0302367858068757,0.0,0.0,0.0,0.0
0.0027643040572292534,-0.012056015238191366,0.731065710809329,0.003094195804301055,-0.5290092658524761,-0.004194272285729263,0.8486000416418455,-0.16841787380449297,-0.9193311130884003,1.0369044671377872,0.03970496593202217,-0.8200255708526007,0.9118078985957286,0.03594161143447916,0.6916465256090293,0.9563057371729047,0.03833760903367568,0.6739650994580347,1.0302367858068757,0.0,0.0,0.0,0.0
0.0033477835841251294,-0.01268394273921879,0.7330679977561079,0.00233852812266628,-0.5278649837177654,-0.003275444575438034,0.849318763311924,-0.16925505605219787,-0.9234745638814974,1.045857972710922,0.03930622708951582,-0.8225812671211875,0.9215439228521973,0.017155634880090465,0.6680708391385646,0.9986005962678595,0.054201748502241395,0.685956405089299,1.0125931023483816,0.0,0.0,0.0,0.0
0.004099601750564906,-0.013829762802177448,0.7356951863388256,0.0020052652529440147,-0.527263887135879,-0.0028298128031658634,0.8496945123943825,-0.16737182802965136,-0.9216488740695755,1.051099498329101,0.041188245733375116,-0.8228574673699076,0.9313850436337732,0.001493355809575523,0.6501328896502853,1.0346494877019012,0.06764986785446923,0.7014797883795222,0.9907340676461752,0.0,0.0,0.0,0.0
0.004828349117410671,-0.015402024400146059,0.7383269733137023,0.001963783891048533,-0.5269195790926423,-0.002732669651675258,0.8499084852136946,-0.1634352668380542,-0.9168963803566806,1.0533661696742904,0.044901278020761416,-0.8229809963521127,0.9412747042264367,-0.008819085982466026,0.636114299196088,1.0660380831856173,0.0799225822336085,0.7168774747262964,0.9696441836196875,0.0,0.0,0.0,0.0
0.005510694282415281,-0.017277023425624597,0.7407732345062198,0.002091839120528747,-0.526671499411698,-0.0028597657433683662,0.8500615140426137,-0.15816479605408382,-0.9110364442663319,1.053869556241998,0.049878687222321194,-0.8238039794543961,0.9514819243497212,-0.01597627017753683,0.6250971050211495,1.0947576992653554,0.0917887350716071,0.731106624261557,0.950679572009037,0.0,0.0,0.0,0.0
0.006117678867244292,-0.0193252172438151,0.742990245989365,0.002310059655742794,-0.5264515216690618,-0.0030977630921478574,0.8501963672120347,-0.15220665943739933,-0.9048146458811216,1.053113892537416,0.055536713254837874,-0.8252158144312768,0.9615760912740248,-0.021320620540437023,0.6162552645839794,1.1217093004414227,0.10358689206057618,0.74392027767504,0.934029512894688,0.0,0.0,0.0,0.0
0.006549489333936499,-0.02142477541046017,0.7449591098800923,0.0025597245597055174,-0.5262404892970509,-0.0033662261960521944,0.8503252693856487,-0.14604446228151471,-0.8982366188696622,1.0506711922193916,0.06137906329448462,-0.8265090474141449,0.9702664968050599,-0.02587483544998527,0.6088241681746444,1.1468677051876806,0.11530839420743462,0.7549944112425144,0.9197902630729333,0.0,0.0,0.0,0.0
0.006726480281072159,-0.02348419979448568,0.7466575451085865,0.0028043508896717535,-0.526032758329097,-0.0036078414743863033,0.8504520305465001,-0.14003259275944047,-0.8912787900387203,1.046170065939362,0.06703269543997248,-0.8271737649498251,0.9765951293334113,-0.030319346969026266,0.6024940097458605,1.169177498138428,0.12685269142030314,0.7640172725021023,0.9081587772816181,0.0,0.0,0.0,0.0
0.006562475116408269,-0.025488256087602138,0.74803400962456,0.0030136036087205008,-0.5258004067184892,-0.003792565506246025,0.8505941846349773,-0.13426346033941444,-0.8839883637783132,1.039173043513231,0.07239186014496275,-0.8271009461065275,0.9799921809802012,-0.03552461232102983,0.5975239400712129,1.1862247711623575,0.13841865024658287,0.7704079103257153,0.8997965902302273,0.0,0.0,0.0,0.0
0.005961789101693269,-0.02748360449589982,0.7490215261115275,0.003153657614465568,-0.525491766168565,-0.0038950137803336724,0.8507839249776314,-0.1286587164727184,-0.8764560992368778,1.0291504513609924,0.07752858708354388,-0.8264319672792766,0.9801140640853464,-0.04264426672771068,0.5950718233392296,1.1935664584487053,0.1506063271217941,0.7734271848871527,0.8956593247439756,0.0,0.0,0.0,0.0
0.004867503178426824,-0.029543157269172712,0.7495958443731149,0.003197257833282227,-0.5250532188331777,-0.0039007005899269346,0.8510544515306728,-0.12305454724388337,-0.868733375491924,1.0157479276020975,0.08260894714797766,-0.8253965901254368,0.9769550070626355,-0.052865676054927466,0.597905591192005,1.1845356948355823,0.16403820875878472,0.7726547370159887,0.896226154977642,0.0,0.0,0.0,0.0
0.003262507131068167,-0.03165524265351474,0.7498199831605141,0.0031509588736990325,-0.5245109570413798,-0.0038028829993291264,0.8513893736021172,-0.11749022645927962,-0.8603268763265179,0.9984873258115545,0.08755970335863424,-0.8235065083874794,0.9700332174179487,-0.06554858677550118,0.6028593394177704,1.1660129338711385,0.17843658318796393,0.7683967745737205,0.9008211866651145,0.0,0.0,0.0,0.0
0.0011837612460667063,-0.0338021889152061,0.7497956605403059,0.0030139407956776775,-0.5238818388384681,-0.0035919419678074006,0.8517780421265891,-0.11204403094951607,-0.8509053662985504,0.9773255921610563,0.09229147973473777,-0.8203943155556064,0.9592683725148892,-0.08043010075924628,0.6083839111966083,1.1428036119093723,0.19355023129476642,0.7613550731326171,0.9081974285425203,0.0,0.0,0.0,0.0
-0.0012931819091993877,-0.03595537691386293,0.7496008223170699,0.0027660143404410224,-0.5231640579092458,-0.003242894547566562,0.8522213335229019,-0.10687065449019625,-0.8405492080417895,0.9527335165924645,0.09667285945543792,-0.8159908371873131,0.9449899752131695,-0.09826119223469314,0.6139533858557031,1.118107691497631,0.20931671292055387,0.7522427513002706,0.9172392074438687,0.0,0.0,0.0,0.0
-0.004003164777834181,-0.03804404369251725,0.7492687043069653,0.0023759572508208274,-0.5223548840595097,-0.0027255998818053466,0.8527205292659505,-0.10226210085157246,-0.8300444451784936,0.9262680546091651,0.10048772591047005,-0.8107472740111898,0.9283550269016335,-0.12147478681345615,0.620132501722578,1.0946227199677219,0.2256282362646234,0.7418308765479574,0.9271181805558328,0.0,0.0,0.0,0.0
-0.006396670570726309,-0.039928601871058775,0.7487143108094491,0.0017650667292391337,-0.5212599010047947,-0.0019805932574840637,0.8533938583059181,-0.09886788672627879,-0.8240440394433451,0.9050595540444595,0.10345599627739613,-0.8085085637980681,0.9155024792661812,-0.15557490792734124,0.6300481711757652,1.0744753673508758,0.2426411497058693,0.731020613443978,0.9373441377185289,0.0,0.0,0.0,0.0
-0.008345795201669413,-0.04144975316305258,0.7479980801921298,0.0009359024933882579,-0.5199596552229816,-0.0009911212468906414,0.8541897322642054,-0.09711807655678432,-0.8230964399910513,0.890790569401323,0.10514962407388594,-0.8091379818655994,0.90701414313544,-0.20316488582691467,0.642790317140193,1.060396565896226,0.25960535157093095,0.7206959169309263,0.947042864406426,0.0,0.0,0.0,0.0
-0.009661255345828136,-0.04239515203310564,0.7469824869529135,0.00023886087632212286,-0.518742295085549,-8.685091464243911e-05,0.8549306209814791,-0.09686360580972028,-0.826713702895833,0.8843023694782087,0.10567823829196754,-0.8128572597511347,0.9036308873371064,-0.25300823696883645,0.6538845464312861,1.055245810508304,0.2717591419054708,0.7104974763496221,0.9575388722731705,0.0,0.0,0.0,0.0
-0.009644200985860794,-0.042410308706935206,0.7469521773496463,0.0001994256614938728,-0.5187472284125014,-6.853454386892095e-05,0.8549276393629872,-0.09688166137256761,-0.826727415779855,0.8842093347543283,0.10568490298666004,-0.8128764694183122,0.9036448882955062,-0.2530063752624022,0.653876985259565,1.055238987904299,0.2717596608569055,0.7104504393959882,0.9574927323435785,0.0,0.0,0.0,0.0
-0.009644200985860794,-0.042410308706935206,0.7469521773496463,0.0001994256614938728,-0.5187472284125014,-6.853454386892095e-05,0.8549276393629872,-0.09688166137256761,-0.826727415779855,0.8842093347543283,0.10568490298666004,-0.8128764694183122,0.9036448882955062,-0.2530063752624022,0.653876985259565,1.055238987904299,0.2717596608569055,0.7104504393959882,0.9574927323435785,0.0,0.0,0.0,0.0
-0.009890797421118827,-0.04264868967187956,0.7470076998359665,0.0003113279649827469,-0.5193463979107283,-0.00013509539882190473,0.8545637505776166,-0.09598073011918538,-0.8207340767436686,0.8769604775669788,0.10617436187761217,-0.8082511638051056,0.8982243865766653,-0.25368091344630644,0.6555482961902976,1.0556618699069824,0.2733428231048129,0.711745333848642,0.9589639414773817,0.0,0.0,0.0,0.0
-0.00972433693680148,-0.042973604936688975,0.7470026602444817,0.00040937376352463093,-0.5197473541198101,-0.00022362719860325367,0.8543198875652226,-0.09493286732840445,-0.8182988572730157,0.87509804147095,0.10710466382433417,-0.8073989003555478,0.8985374167555755,-0.2539835068734964,0.6576202171572656,1.0557417578438646,0.27583169641553834,0.7134826058281792,0.9605849972202585,0.0,0.0,0.0,0.0
-0.009077463532490258,-0.043347830228646425,0.7469922545297714,0.0005016434662643966,-0.5200415189229337,-0.0003260347972640454,0.8541407733222152,-0.09384424156044456,-0.8191281424708492,0.8788506111451388,0.10834362635215217,-0.8098803534371862,0.9045783215805248,-0.2545054424306015,0.6609020025254416,1.0552295793482493,0.2792758123614299,0.716459989412229,0.9618508551666722,0.0,0.0,0.0,0.0
-0.007928235074025498,-0.043782424256127876,0.7470007347522404,0.0006011741819346902,-0.5202753744340901,-0.000456388751438057,0.8539982230990752,-0.09264475391886433,-0.8228779768488695,0.8880027715744722,0.10994448162544171,-0.8154365231195718,0.9162058887339032,-0.2555147395767538,0.6657977591417615,1.053953870018811,0.2837558325795679,0.7210127427192865,0.9625969961147688,0.0,0.0,0.0,0.0
-0.006282747945233953,-0.04430641927207917,0.7470718088037545,0.0007560103859996472,-0.5205235400246903,-0.0007945522189792764,0.8538466146886291,-0.09077427257330803,-0.8285104086308082,0.9015683096329686,0.11241293600355888,-0.8235918461076358,0.9328440676855762,-0.2586319624173296,0.6732494131863311,1.05168204313779,0.28811472624596535,0.7271922404445981,0.9624972560414581,0.0,0.0,0.0,0.0
-0.004298629684404817,-0.04456199245242028,0.7469436099836974,0.0008432701227142244,-0.5203214136481019,-0.0008108010173368764,0.8539697055495887,-0.09059770721864803,-0.8401015561302554,0.9222536840025165,0.09781089589259986,-0.8261653495069334,0.9079371545890766,-0.2605266115645661,0.6787930212191879,1.0503663427141243,0.29281332173042945,0.7327467320924546,0.9624315881055401,0.0,0.0,0.0,0.0
-0.002387217662826351,-0.04499399430458081,0.7467524492434453,0.0009462846671178262,-0.5201742147994851,-0.0009691821928937004,0.854059103042023,-0.08956870336054705,-0.8503945987964713,0.9408335679548311,0.08142412530005173,-0.8384463351165572,0.8881599519845274,-0.2623723930050425,0.6843067113296928,1.049338266128964,0.29793853184876123,0.7378126359678694,0.9634407392061592,0.0,0.0,0.0,0.0
-0.0007535445394534581,-0.04559238206992992,0.7466039600779029,0.0010725767068066718,-0.5201183069699545,-0.0011971179390505326,0.8540927134934218,-0.08784347298238583,-0.8579615246668855,0.9551897464765455,0.06664194841257653,-0.8553890963501527,0.872837078267377,-0.2633800878084225,0.6895006162534196,1.0478649533154962,0.3035220917061543,0.7424571313839067,0.9647669661098898,0.0,0.0,0.0,0.0
0.0005696952759912857,-0.04629489763244498,0.7465080167717961,0.0012148054453674734,-0.5201237928445819,-0.001452169688864059,0.8540887867007102,-0.08568974625547177,-0.8630799440949133,0.9656173267815223,0.054039758773745505,-0.8740652200545473,0.8601308248679101,-0.2634467490385747,0.6940912951398496,1.045980883272758,0.30925837068233686,0.7465455129295706,0.9661690162432044,0.0,0.0,0.0,0.0
0.001624136386400481,-0.047047448655116446,0.7464446477377722,0.0013641321155103278,-0.5201565112769996,-0.001710087284673726,0.8540681580068367,-0.08332923314768334,-0.866437869161769,0.9730529777968974,0.04323548400420736,-0.8929210303955486,0.8487175655444501,-0.26270313976260895,0.6979556702075326,1.043911708882089,0.31491980918934437,0.7500066833471201,0.9676334341791568,0.0,0.0,0.0,0.0
0.002473635251358906,-0.04782266737435977,0.7463928190309784,0.0015170364848021982,-0.5201876842333099,-0.0019629170087576034,0.8540483702514201,-0.08087732994026012,-0.8686890178970729,0.9784400007431229,0.03372320735944446,-0.910793720467671,0.8379464387350242,-0.26131536375281755,0.7011053909246932,1.0418181024410922,0.32038958226865827,0.7528426078037395,0.9691978468856186,0.0,0.0,0.0,0.0
0.00316726583974099,-0.04861455274769633,0.7463319093700175,0.0016744745395440444,-0.5201946708664252,-0.0022121613944133135,0.8540432113652991,-0.07836469366114208,-0.8702972340683366,0.9824313357984426,0.025138002895535985,-0.9261782678189728,0.8279266068679529,-0.25938911035052314,0.703546403077746,1.0398243148983883,0.32561088712856256,0.7550223997944072,0.9709617111422497,0.0,0.0,0.0,0.0
0.0037297575274195254,-0.04942872613091271,0.7462551260300185,0.0018407195856527585,-0.5201647476821908,-0.0024657672454865007,0.8540604000959305,-0.07576648144909241,-0.8714599882766799,0.9853180746063047,0.01722338588627321,-0.9368602696268742,0.8197167104324147,-0.25698986330665874,0.7053106988750841,1.0379402768398847,0.330516326629859,0.7565218439530845,0.9729544303764103,0.0,0.0,0.0,0.0
0.004143369916119248,-0.05026698072252901,0.7461583162499567,0.0020205590832502378,-0.5200960850503061,-0.002734465123401798,0.8541009907246477,-0.07304960148465184,-0.8720932888366919,0.9869323649521796,0.009705067479351156,-0.9400771404179307,0.8151815524185467,-0.25419703722268067,0.7063453031650005,1.0362214626088875,0.33491876809967164,0.7572053746878311,0.9752302101038641,0.0,0.0,0.0,0.0
0.004442195314306336,-0.051094897574901585,0.7460980065513436,0.002205067975201315,-0.5200050053029983,-0.0030134667411360594,0.8541550510025996,-0.07031161832612527,-0.872164915767693,0.9875376342425626,0.0022139584322835954,-0.9340700932987619,0.8165371906114693,-0.2512738776429726,0.7070858908531067,1.034252548407071,0.3386832077382562,0.7575003320016754,0.977167925896506,0.0,0.0,0.0,0.0
0.004619731866973409,-0.05199156340462229,0.7460288412075843,0.0024164018220870663,-0.5198657640807148,-0.0033290186649213137,0.8542380616512808,-0.06729675616704214,-0.8717357291770345,0.9870086006571873,-0.0049374254650054895,-0.9206146746320167,0.8214713583407715,-0.24789970350618626,0.7072543283182647,1.0322007787055332,0.3419994053427435,0.757041329430636,0.9793347995814422,0.0,0.0,0.0,0.0
0.004707034164351394,-0.053008016231715104,0.7459388762675195,0.002669708897621227,-0.5196637229786716,-0.0037003426306858956,0.8543587040223585,-0.0638377101419664,-0.8709346948017155,0.9855431715258395,-0.011675542034403736,-0.9023449140672084,0.8279298917451545,-0.24396162224366721,0.7068933431076507,1.0299865197479554,0.3450407718688147,0.7558074314073042,0.9818915090232998,0.0,0.0,0.0,0.0
0.004708997678744021,-0.05413785904178583,0.7458350233323883,0.0029684325199869454,-0.5193959829082448,-0.0041348292477212025,0.8545185220545221,-0.05993345252368439,-0.869763223797719,0.9831817181302629,-0.018306455695340725,-0.8813627778125859,0.8346921164877715,-0.23961666149063762,0.7060837227323187,1.0275512489235856,0.34764552056562514,0.7538076634315888,0.9847324865391973,0.0,0.0,0.0,0.0
0.004592117619392983,-0.055303029570374716,0.7456964828307239,0.003304970273627725,-0.5190526593027831,-0.0046280305151268665,0.8547233443493576,-0.05579162596165485,-0.8683323914936047,0.979912446625993,-0.025375493319816905,-0.8590408494852697,0.8409780445900299,-0.2353666243373396,0.7046380952297094,1.0252981875757896,0.3491371975907564,0.7507339809230772,0.9878784095508907,0.0,0.0,0.0,0.0
0.004369139934300776,-0.05634372637437806,0.7454798897070671,0.003668241333460274,-0.5186150475978002,-0.00516618901989261,0.8549843781623508,-0.0518640175068025,-0.8672874443292579,0.9765023679477971,-0.03338158927771559,-0.8367622272722692,0.8460591329729831,-0.23233579243776054,0.7024318022781969,1.0240042173828525,0.34839300726325395,0.7462733932986088,0.9913241010268349,0.0,0.0,0.0,0.0
0.004104610343737218,-0.057053728466349624,0.7451415690581757,0.004050336413358448,-0.5180389011585761,-0.005727268974741519,0.8553282937278788,-0.048753270901804896,-0.8677976998071993,0.9745180387016595,-0.0420378110006603,-0.8167456648748943,0.8485782320159455,-0.23193600111266316,0.6994217071255636,1.0244856069063244,0.34403523153729026,0.7401889138141369,0.9948708764594872,0.0,0.0,0.0,0.0
0.003853784162443668,-0.05730272561113399,0.7447600846603,0.00447820446826528,-0.5172320146217364,-0.0062914124497675476,0.8558103802037383,-0.046877238355134805,-0.8706958428519758,0.9752756785218715,-0.0488552716921455,-0.8029418002481791,0.8461607293857274,-0.2349186610522208,0.6958668033719091,1.0261390230555256,0.3347479814135557,0.7325908485631699,0.9972368100680975,0.0,0.0,0.0,0.0
0.0038637241254655627,-0.05732840013287925,0.7447538595875288,0.004512993036367095,-0.5172166605088813,-0.006297973938779995,0.8558194286823365,-0.04681102016324688,-0.8707173533067687,0.975291742474494,-0.048867399430151365,-0.8029216401185706,0.8461739745048399,-0.23496422800759953,0.6958664231774461,1.0260689126214146,0.33479403146620823,0.7325542116067573,0.9972836925880203,0.0,0.0,0.0,0.0
0.0038637241254655627,-0.05732840013287925,0.7447538595875288,0.004512993036367093,-0.517216660508881,-0.006297973938779991,0.8558194286823365,-0.04681102016324688,-0.8707173533067687,0.975291742474494,-0.048867399430151365,-0.8029216401185706,0.8461739745048399,-0.23496422800759953,0.6958664231774461,1.0260689126214146,0.33479403146620823,0.7325542116067573,0.9972836925880203,0.0,0.0,0.0,0.0
0.005431609007940966,-0.058622102873231045,0.7467970222406588,0.0029157252932932834,-0.5190247092483529,-0.0042232023987427625,0.8547438296338711,-0.048122456065850215,-0.8634727888557685,0.9771325127007171,-0.05018503134611881,-0.7914291946798008,0.8493446404269088,-0.2040099665227029,0.7082892664956019,1.005024080325259,0.2662543475564334,0.7075845466728116,1.019839349665946,0.0,0.0,0.0,0.0
0.007550549730767626,-0.060249958900724654,0.7482880605244108,0.001525204087340504,-0.5207584167383595,-0.0024507267737980793,0.8536992087889793,-0.04785953211499739,-0.859631648388088,0.9835661533317512,-0.049931335274036905,-0.7865670206716002,0.8611451565532686,-0.1736369809918391,0.7203416461998255,0.9865840901340497,0.20004150882602595,0.6845905516772396,1.0439729440130932,0.0,0.0,0.0,0.0
0.01000847458341086,-0.06197188661405791,0.7492759403656108,0.0006686254754754367,-0.5220573026585351,-0.001364824192262158,0.8529090590067574,-0.04587530007321645,-0.8597078891933584,0.9945558961065883,-0.047993987238212396,-0.7897017067085241,0.8813969117919925,-0.1498298752506695,0.7319294401629202,0.9709589190796045,0.1546354563488594,0.6688310607768536,1.0688532052736874,0.0,0.0,0.0,0.0
0.01247935433080918,-0.06359870256058106,0.7499234911958726,0.0001689118932147865,-0.5230053206267808,-0.0007348946403100904,0.8523290831566867,-0.0431549367444139,-0.8619756416886104,1.0072751256733397,-0.045343869987437384,-0.7967735545890708,0.9044021209897919,-0.13143759533251886,0.7424939008730493,0.9578995017773607,0.12394618263168972,0.6581876843461326,1.0945803261759735,0.0,0.0,0.0,0.0
0.014630934778096839,-0.06509010471903887,0.7504152596244306,-0.00013795454775755188,-0.5237443884198607,-0.0003440013065919754,0.8518753889098744,-0.04023551208009077,-0.8640053550794559,1.018133533876054,-0.0424996851961636,-0.8039516094719057,0.925078941269393,-0.11626760800996283,0.7515725291397574,0.9465479914466014,0.101344235516975,0.6494879703515101,1.1206261080583924,0.0,0.0,0.0,0.0
0.016324885755915897,-0.06648266889519155,0.7508028667340367,-0.00033553205849515564,-0.524315729707186,-9.021291082128182e-05,0.8515238662900116,-0.03723377852187606,-0.864992792381234,1.025787711580012,-0.03957163367151764,-0.8101190581772927,0.9419824514130066,-0.10289411833558514,0.7586923573066698,0.9366543181863707,0.08306004195644692,0.6413969348877943,1.1457591821103077,0.0,0.0,0.0,0.0
0.01749317862670082,-0.06783485594362229,0.7510486031455187,-0.00046333784045121906,-0.5247458925180661,7.797908530852386e-05,0.8512587899826503,-0.034114677286150766,-0.864678754908253,1.0295860052583348,-0.03652331090311475,-0.8150816677646199,0.9547779071016533,-0.09039184096598062,0.763294234907856,0.9286346227724332,0.06734689903356676,0.6335982365139758,1.1683131309598558,0.0,0.0,0.0,0.0
0.018074052424988062,-0.06918830584358951,0.7510354705742689,-0.0005373206360696965,-0.5250488783617199,0.00018556726563213316,0.8510718842626772,-0.03083544854596173,-0.8631102291464678,1.0290751762985242,-0.03331098431904279,-0.8189984233569149,0.9633003925681949,-0.07830932015714702,0.7645224688721621,0.9236931016786052,0.053674382471267205,0.6264900836273289,1.1855449069703812,0.0,0.0,0.0,0.0
0.01803569644170999,-0.07057066581248876,0.7506979252204974,-0.0005557576168109769,-0.5252251552027577,0.00023438762893867844,0.8509630852969767,-0.027339905334945038,-0.8603127558946522,1.0240001093614122,-0.02987763439716735,-0.8220617201730248,0.9675697144975939,-0.06658889188867123,0.7619388908206514,0.9225025050891329,0.04240367653401335,0.6215016309199862,1.1929514842116404,0.0,0.0,0.0,0.0
0.017402651624786852,-0.07200164934948058,0.7500927718137599,-0.0005100283237748409,-0.5252657554119514,0.00021676692768908318,0.8509380583066667,-0.02357130571423921,-0.8561578682935873,1.0143962301482952,-0.026165037701622332,-0.8243301461712923,0.9678825145637151,-0.05534265500141375,0.7559458777832093,0.9243987082995958,0.03434586999816315,0.6217256672440387,1.1839660154479292,0.0,0.0,0.0,0.0
0.016146076922862317,-0.07350222624178851,0.7491683467593669,-0.0004209436590720906,-0.5251929414017232,0.00015374454701069993,0.8509830629753192,-0.01952654288374811,-0.8504810455247885,0.9998045808159634,-0.022166062599637548,-0.8256501138911485,0.9638973786928836,-0.044247101804923424,0.7462216916749186,0.9298066571863938,0.028199542530225045,0.6240200799055509,1.1650505875210238,0.0,0.0,0.0,0.0
0.014283576230678297,-0.075044905951944,0.7479313759528433,-0.00031421367745582693,-0.5250233929788444,7.233738181915882e-05,0.8510877351143359,-0.015344024899561614,-0.8432260562865836,0.9801943277025916,-0.01801376899961741,-0.8257462941502705,0.9553702549996689,-0.033280381284122855,0.7329086839580147,0.9385876772434577,0.022869977336222997,0.6268780397411553,1.140508847263113,0.0,0.0,0.0,0.0
0.011920902101281782,-0.07655230630438484,0.7465047624748077,-0.00021180592358498526,-0.5247734347312942,-1.05467579502403e-05,0.8512419146325777,-0.011266223446430697,-0.8344175014271362,0.956249436146573,-0.013947347483182488,-0.8242504529415142,0.9424685865036598,-0.022893450161956635,0.7170901020469013,0.949499296935397,0.017667361468390163,0.6298383398601466,1.112999574772688,0.0,0.0,0.0,0.0
0.009238378563924569,-0.07784915188053204,0.7449352738878606,-0.00014985570358696168,-0.5244328781448183,-3.6329735236097676e-05,0.8514517793417079,-0.007889565081162514,-0.8251650178611225,0.9300378588075863,-0.010563667805434506,-0.8212480950212085,0.9259001333412947,-0.013798629078575623,0.6995141835636852,0.9622452783364743,0.012103036415795038,0.6332357478100383,1.0840995494593237,0.0,0.0,0.0,0.0
0.006475033506977892,-0.07885718949712577,0.7432614360059681,-0.0001362983327344257,-0.52405182036035,-3.1063789213375266e-05,0.8516863683509375,-0.0053329462076571,-0.8162963561204756,0.9036400526362434,-0.007990895121742066,-0.8172462177437172,0.9071792669758894,-0.006663017028458634,0.6813786812164595,0.976478503691111,0.005237872770209954,0.6376718441746566,1.0547813784605253,0.0,0.0,0.0,0.0
0.004249230268663962,-0.07960991772830613,0.7414998905038092,-0.0001527920234913364,-0.5236111390179459,1.7055611404820573e-05,0.851957364813541,-0.0035493824738177717,-0.8109916748452927,0.8831855882096302,-0.006192986835503791,-0.8155174512291117,0.8925667947059878,-0.001132174518300967,0.6645285288801429,0.9912132898746345,-0.00246601937148594,0.6451854605639694,1.0258571991506487,0.0,0.0,0.0,0.0
0.0028893501497131466,-0.07997916877471539,0.7401005972491678,-0.00020618551386989727,-0.5232409764818562,0.00012280998449916924,0.8521847352162295,-0.0028809842058573707,-0.8094426350204087,0.8716857031351698,-0.005515979641824419,-0.8154560039343561,0.8838287835584193,0.002227806171365216,0.6523762447172631,1.0028358386768472,-0.0102033120010771,0.6545247130351312,0.9992169703242406,0.0,0.0,0.0,0.0
0.0029085707555048406,-0.079980265318508,0.7400663418737854,-0.00022418076454236785,-0.5232304990392873,0.00012691055192008252,0.8521911631270268,-0.002887143583639624,-0.8094716407266951,0.8715777445227881,-0.005519519509874788,-0.8155030503003927,0.8838027263783244,0.0022212124738525867,0.652354201979746,1.0028093018955322,-0.010207704349870752,0.6545338094417519,0.9992152425503724,0.0,0.0,0.0,0.0
0.0029085707555048406,-0.079980265318508,0.7400663418737854,-0.00022418076454236785,-0.5232304990392873,0.00012691055192008252,0.8521911631270268,-0.002887143583639624,-0.8094716407266951,0.8715777445227881,-0.005519519509874788,-0.8155030503003927,0.8838027263783244,0.0022212124738525867,0.652354201979746,1.0028093018955322,-0.010207704349870752,0.6545338094417519,0.9992152425503724,0.0,0.0,0.0,0.0
0.0029085707555048406,-0.079980265318508,0.7400663418737854,-0.00022418076454236785,-0.5232304990392873,0.00012691055192008252,0.8521911631270268,-0.002887143583639624,-0.8094716407266951,0.8715777445227881,-0.005519519509874788,-0.8155030503003927,0.8838027263783244,0.0022212124738525867,0.652354201979746,1.0028093018955322,-0.010207704349870752,0.6545338094417519,0.9992152425503724,0.0,0.0,0.0,0.0
0.003457139080128307,-0.08024465085766778,0.7399797026304801,-0.000704191621790167,-0.5229266023534909,0.0005471600613861276,0.8523772482188042,-0.0030619843205119015,-0.8151206733222143,0.8790754892432524,-0.005697958338352941,-0.8196685480635986,0.8909390156914835,0.009701082159595819,0.6509361355848161,1.000883416887502,-0.002668443764208526,0.6568615439760174,1.0003293446955352,0.0,0.0,0.0,0.0
0.004629958132798634,-0.0803779210424446,0.7398713743353721,-0.0008763473861772319,-0.5229929586381956,0.0007113301145547617,0.852336254795954,-0.00307181606269279,-0.8214107656894674,0.8906025227708082,-0.005712221923154536,-0.8254969746629512,0.9024800418455067,0.012759626508291643,0.6533649996955931,1.000164019301852,0.00042170799642513804,0.6607696168287712,1.0009855088143427,0.0,0.0,0.0,0.0
0.006428957095183525,-0.08029820690701567,0.7397501120817669,-0.000786536569065208,-0.523438717546372,0.0006444585001852115,0.8520627177660554,-0.0031590434953566657,-0.8284472166442661,0.9063048078370163,-0.0058079659989895204,-0.8325002569176803,0.9177757012898987,0.011415393398633077,0.6596362332308551,1.0007622398763336,-0.0010962984904818287,0.6664593379693804,1.0008328047181854,0.0,0.0,0.0,0.0
0.00884436800244115,-0.08009391707104299,0.7396618054412414,-0.0003974230632850918,-0.5243027419039725,0.00030512130412372826,0.8515317867160772,-0.0030114301989925584,-0.8353370825695243,0.9251357026028203,-0.005672204919480023,-0.8404686665054504,0.9366655487803057,0.005532371905344892,0.6703334453489106,1.0019432024161234,-0.007371665979948924,0.6740883863789425,0.9996683927638197,0.0,0.0,0.0,0.0
0.011819793232733251,-0.08004432350580665,0.7396183449516733,0.00044491643519626976,-0.5256657368879242,-0.0005669852231111737,0.8506909037007496,-0.0013042639698331439,-0.8398967646335839,0.9443928294148283,-0.003974620144132448,-0.8497550575248515,0.9594062341470165,-0.0062803016354185375,0.686649934439897,1.0029237154689932,-0.01966573237526782,0.6829131464231135,0.9980608101698094,0.0,0.0,0.0,0.0
0.014032699889296181,-0.08005821215097891,0.7394223057022132,9.566603238212162e-05,-0.5254686002172232,-0.0004180030476946456,0.8508128856024775,-0.017535176346298056,-0.8504867537785604,0.9271162057302641,-0.004144557079188402,-0.8613651965124368,0.9805227355956841,-0.0034146613475854633,0.6914353115459794,1.0011885106761955,-0.01686001883691097,0.6892173683946237,0.9968361565395131,0.0,0.0,0.0,0.0
0.01600933461748955,-0.08005610253095373,0.7392079026604146,-3.620071735764102e-05,-0.5255909841314754,-0.0004958707508487681,0.8507372509778878,-0.04027065586287006,-0.868570563065224,0.912113068923729,-0.0038729367382800512,-0.8704542284141933,0.9978079211109162,-0.0034282390772452064,0.6971551138666612,1.000834001257647,-0.01698648184954963,0.6946685768515305,0.9963296565202032,0.0,0.0,0.0,0.0
0.017654231102918225,-0.08013995607437092,0.7390092381153801,3.3947919957038654e-05,-0.526004539585934,-0.0007582604035578854,0.8504814214453416,-0.06349194914067693,-0.8900980003618322,0.9009770169669459,-0.002991152265867548,-0.87692947669194,1.011088307562145,-0.005437103902369224,0.7035092239953519,1.0011705093342145,-0.01914243008588791,0.6992034027940338,0.996656194692072,0.0,0.0,0.0,0.0
0.018844846913818106,-0.08040323116866509,0.7388550982368535,0.00015302578400453257,-0.5264410923523855,-0.0010634121501927134,0.8502109279587833,-0.08524439592475566,-0.9128788370278063,0.8917364332826223,-0.0015434800995230832,-0.8815292399852065,1.0207846403426786,-0.006736540894058489,0.7087992967524351,1.0011047432239437,-0.020572779076393714,0.7025472385108046,0.9977333954482992,0.0,0.0,0.0,0.0
0.019530700896655394,-0.08088657349065224,0.7387730425701633,0.0002820817936056875,-0.5268073041848522,-0.001371155218351149,0.8499835907949738,-0.10544260978987642,-0.9354884579464775,0.8830227342520078,0.0004915485662070184,-0.884485501243054,1.0270374629745578,-0.0063388834528306775,0.7124445286513852,1.0001530852472031,-0.020294022788616455,0.7046354130031531,0.9994569986464336,0.0,0.0,0.0,0.0
0.01971062877895186,-0.08160783726877735,0.7387782684547722,0.0004412292507642352,-0.52710856314118,-0.0016972082118324307,0.8497961446513362,-0.12459639856296853,-0.956655015355278,0.8743837079519221,0.003188842200959428,-0.8858233786170414,1.029932551739087,-0.004294973108615978,0.7145429886605139,0.9981875426960767,-0.018354675008985157,0.7054901435886528,1.0017790879121886,0.0,0.0,0.0,0.0
0.019392775085550866,-0.08258760233446781,0.7388805019768453,0.0006524324123029602,-0.5273591380458051,-0.00206137101279539,0.8496397263552831,-0.14316024912555858,-0.9747512429079682,0.8662183113350759,0.006636159495056538,-0.8855635368129222,1.0295660913761646,-0.0007648753969236016,0.7152884455961556,0.9950899015354036,-0.014886283387377953,0.7051439949943802,1.0046739605138193,0.0,0.0,0.0,0.0
0.018566265247680507,-0.08386178980110155,0.7390971408018114,0.0009068736966420886,-0.527529699508538,-0.0024568064824558936,0.8495325525360624,-0.16122778825289857,-0.9875637609965697,0.8597847358033176,0.010902947870698216,-0.8837847507431301,1.0260189316108683,0.004586137242105659,0.7146174706232141,0.9905016133212475,-0.009504454105961287,0.7036329891424313,1.0080556829877259,0.0,0.0,0.0,0.0
0.017203879876792474,-0.08547631770343883,0.7394612421125488,0.0011644518609722901,-0.5275543521959074,-0.002847936528926249,0.8495157083824566,-0.17847600846519956,-0.9925942099122113,0.8571692534730244,0.01602090127093893,-0.8805594935548582,1.0193165107265314,0.012530455831690244,0.7122896487302898,0.9837675597236492,-0.0013391586365056815,0.7010587400675945,1.0116961597463694,0.0,0.0,0.0,0.0
0.015306858180347077,-0.08745603615267808,0.7400168006940487,0.0013944153498229824,-0.5274107665093005,-0.0032043739588628567,0.8496032432632518,-0.1945162253420154,-0.9882280492535488,0.8605706823730126,0.021968937008237613,-0.8757634621098322,1.0094039863568107,0.02338179960162841,0.70848808261813,0.9741822113473217,0.010098542223596896,0.6977099733845851,1.0151792364643764,0.0,0.0,0.0,0.0
0.012928649786666925,-0.08978115672303724,0.7407602311197564,0.0014821781169791813,-0.5269570251544563,-0.0034449951607136236,0.8498836560357764,-0.21028543910308745,-0.9766887193111473,0.867878253843662,0.02852812014383251,-0.8700549724462512,0.9970361998256985,0.03785247034756441,0.7028703701590969,0.9611965141840857,0.025801481644216025,0.6936970085851049,1.0181133530133175,0.0,0.0,0.0,0.0
0.010204286111249985,-0.09235441427454677,0.7416225237259425,0.0014153671548546621,-0.5262648240315095,-0.003585147482471566,0.8503119888843331,-0.22713003826466202,-0.9612452169325708,0.8779096387837391,0.03548387891226357,-0.8636049730297222,0.9826809234431164,0.05448494496373327,0.696244064266332,0.9454640901254056,0.044524229767402654,0.6890998187133478,1.0205339604999504,0.0,0.0,0.0,0.0
0.007288473303803895,-0.09497604905411393,0.742350413918528,0.0012624719386648022,-0.5255608838889657,-0.003721212778234744,0.8507469165773757,-0.2466535900029745,-0.9453383236233857,0.8910433936865467,0.04253352362981429,-0.8563991923891315,0.9662995836371723,0.0705023038982057,0.6891484108478058,0.9302368240034561,0.0632696452150863,0.6832437797630408,1.0240253811692128,0.0,0.0,0.0,0.0
0.004486746952841286,-0.09706985676906052,0.7426429397394241,0.0013475613416500949,-0.5255604810993734,-0.004097778493317055,0.8507453044222139,-0.270759038595361,-0.9317835027956407,0.9110247941439876,0.04861773197108711,-0.8462199346696557,0.94598470151011,0.07941037792729341,0.6837507688751032,0.9221782715752114,0.07423671800881519,0.6762005187868524,1.0301945933485035,0.0,0.0,0.0,0.0
0.002192218746876217,-0.0984269774190401,0.7426909266757761,0.0018820943155874318,-0.5265458848637747,-0.004876200320638918,0.8501306437980252,-0.29905531092885834,-0.9229853634703633,0.9428169762675733,0.05349895636386969,-0.8327097988687473,0.9232723425986094,0.07930727013695962,0.6826861434798331,0.9213631150430888,0.07451447785943888,0.6702698109620762,1.037014679298079,0.0,0.0,0.0,0.0
0.0008791699515223563,-0.0989744286928591,0.7426577075320898,0.0030730196491454962,-0.5286619439428668,-0.006057304357198191,0.8488052866474792,-0.3286197254438808,-0.9218418289187653,0.9925978539843405,0.05688440126430022,-0.8170296268006733,0.9017999553775111,0.06917720617942083,0.6884338551085307,0.9267604807039314,0.06288436334179999,0.6677957417738764,1.042887339039444,0.0,0.0,0.0,0.0
0.000674209603795227,-0.09887333653468486,0.7425979884370169,0.004625284417087837,-0.5312193285478561,-0.007029939277491658,0.8471925469897506,-0.35358151771007656,-0.9330531386436709,1.0604696868381305,0.057825814830569644,-0.8032580159885168,0.8867705257778802,0.05410963242074264,0.698496349416036,0.9347118174155451,0.04585169538315132,0.6692829051517074,1.0469253474752571,0.0,0.0,0.0,0.0
0.0006889701935121166,-0.09892492404306241,0.7425752365518122,0.004613589038058314,-0.5312141172002285,-0.007015910810396561,0.8471959947254651,-0.35362285405119476,-0.9330775165694898,1.060468889217679,0.057883199920086684,-0.803271462103017,0.8866885949138207,0.053969419790114395,0.6986545981863141,0.9345121923649845,0.045975132621116695,0.669167075018443,1.0471163389307911,0.0,0.0,0.0,0.0
0.0006889701935121166,-0.09892492404306241,0.7425752365518122,0.004613589038058314,-0.5312141172002285,-0.007015910810396561,0.8471959947254651,-0.35362285405119476,-0.9330775165694898,1.060468889217679,0.057883199920086684,-0.803271462103017,0.8866885949138207,0.053969419790114395,0.6986545981863141,0.9345121923649845,0.045975132621116695,0.669167075018443,1.0471163389307911,0.0,0.0,0.0,0.0
0.0003750542217065803,-0.10044038015071645,0.7451736305975387,0.0029820168804847464,-0.5288818791848358,-0.0052260880121649655,0.8486741149872137,-0.3544325822285866,-0.9380091026186691,1.0666550137937365,0.05796066795811421,-0.8061624396049574,0.894659911639528,0.01806437603859875,0.6679244927815676,0.983317581432109,0.08016629104354336,0.6821196357561357,1.0267467165226292,0.0,0.0,0.0,0.0
0.0003715989542583001,-0.1028249461164317,0.7484873610434746,0.0022742533714273988,-0.5276170502734223,-0.00434738006587177,0.8494681726344656,-0.3501826989916843,-0.9349442861052997,1.0687289372777717,0.06196237533604494,-0.8058077949772897,0.9029128445344253,-0.014432020733262982,0.6477825671725024,1.0232922373865851,0.10698585550107126,0.6988320139909718,1.0021021835593231,0.0,0.0,0.0,0.0
0.00033121616906232345,-0.10588662299481787,0.7518238445785583,0.0021791026160959876,-0.5269062795361226,-0.0041101101172901664,0.8499106606532323,-0.34231074243456033,-0.927581364000238,1.0669103036627476,0.06893789743665374,-0.8044455322107606,0.9104524028282497,-0.0380514186269305,0.6331959193100711,1.0567743073250981,0.13005447272714327,0.715242319430223,0.9786403237935715,0.0,0.0,0.0,0.0
0.0002055117437123528,-0.10945957034127379,0.754991385199068,0.00239736749707881,-0.5263770314209082,-0.004236525726352301,0.8502373346727171,-0.33222307602081863,-0.9186205187652378,1.0628262534879003,0.07792259797488098,-0.803520051506773,0.9179626725584473,-0.05573528352085472,0.6219030668518505,1.086181906231247,0.15215247347888972,0.7303230453600255,0.957468426141406,0.0,0.0,0.0,0.0
-3.5128955129077764e-05,-0.1134188327483584,0.7579408610718835,0.0027631811639676836,-0.5258618141200845,-0.004557399115620341,0.8505533183719229,-0.32075297452799845,-0.9091259484784072,1.0570928188828697,0.08825821753191304,-0.803310092922731,0.9253729027391295,-0.0703768393664045,0.6125803468176081,1.1127991773269574,0.17447010279665953,0.7437531403448729,0.9386861705520961,0.0,0.0,0.0,0.0
-0.00046238355502386565,-0.11765707766048585,0.7606572140324294,0.0031804894519368325,-0.5252905930348184,-0.004946766736919314,0.85090258364564,-0.30846027719462044,-0.8992674726228455,1.0494316941082935,0.09939788981163347,-0.8034183365533135,0.9318301764918507,-0.08344461696081211,0.6042632425476993,1.1367921654055062,0.19748763790028165,0.7552942312932297,0.9222459435405523,0.0,0.0,0.0,0.0
-0.0011833165326195258,-0.122099018104636,0.7631225225799163,0.0035871135393265906,-0.5246468490785274,-0.005320659567187976,0.8512957811185246,-0.29566187857160886,-0.8887421510645669,1.0389854889863706,0.11095191624385735,-0.8031660125706268,0.9360685369112344,-0.09592586298466563,0.5963976274972999,1.1572875396292857,0.22135637429717828,0.7645939909714969,0.908294120665219,0.0,0.0,0.0,0.0
-0.0022609484653651913,-0.12671578001095749,0.7652918984228864,0.003939044320922305,-0.523903123892623,-0.00562587287375506,0.8517501689226702,-0.2825443642984665,-0.8776003006154344,1.0253754065334408,0.12272683265713848,-0.8024312656556359,0.9375828369572484,-0.10883873073326915,0.589262162609994,1.172032396048373,0.24619940976349705,0.7711844648450946,0.8972691554373927,0.0,0.0,0.0,0.0
-0.003761397443078952,-0.13150245144457565,0.7670994909457897,0.004180747269531065,-0.523016432708769,-0.005808609322877527,0.8522925510214179,-0.26924241281015915,-0.8660326607214345,1.0082843051061567,0.1346040596934186,-0.8012747054469624,0.936012166943068,-0.12339226161476596,0.5840281555935213,1.1768074016524908,0.27229689479528135,0.7744360869607332,0.8898337388184712,0.0,0.0,0.0,0.0
-0.005698071226134235,-0.1364509452011555,0.7685000362118154,0.00428061784054537,-0.5219679250686186,-0.0058456146161818285,0.8529343411425192,-0.255844320708391,-0.8542260500497204,0.987679795870913,0.14652707453680008,-0.7998493538904148,0.9313480816284642,-0.14088319138103345,0.5836754009303275,1.1652649699142263,0.29953320006486445,0.7739557322981241,0.8863586504323625,0.0,0.0,0.0,0.0
-0.008053410533008256,-0.1414324427551429,0.7695475421955779,0.004235650953512692,-0.5208151433840953,-0.005711989118274954,0.853639864851166,-0.2427114380357818,-0.8417465945615996,0.9632829553306974,0.15807800037025635,-0.7974934597762753,0.9229725235646417,-0.16131677053196147,0.5855058172223506,1.1446075522169656,0.32687965575742894,0.7701484437451933,0.8859591071118356,0.0,0.0,0.0,0.0
-0.010760350531917779,-0.1462627391986608,0.7703186609071925,0.004011910530855575,-0.5195858843188278,-0.005353948764621279,0.8543920345035644,-0.2304485413219038,-0.828603185759359,0.9355069884476516,0.16866286766243038,-0.7937795325473194,0.9107351637583978,-0.18553045535370521,0.588683408135269,1.1200475225038342,0.3534312265880388,0.7637390514809534,0.8872914906751342,0.0,0.0,0.0,0.0
-0.013693251042551705,-0.1507177426394286,0.7708379081176736,0.0034418115982826508,-0.5181469310274255,-0.004532380813503262,0.8552726871144336,-0.22027966443684913,-0.8166007568965497,0.9066645299571895,0.17730087236847716,-0.7895014053856775,0.8959496674042352,-0.21525817008966602,0.5934587286794784,1.0947596635780235,0.3798782374927249,0.7553438725402151,0.8891597692443812,0.0,0.0,0.0,0.0
-0.01670389987588787,-0.15464597237856162,0.771045387941767,0.002481312162568025,-0.5165021588825245,-0.003275415777286612,0.8562760271145802,-0.21254724515564014,-0.8070080266255855,0.8788222491859603,0.18381415335773058,-0.7855515176091395,0.8800569418481263,-0.2557051291217649,0.6002689336301604,1.0718835334902341,0.4053403594217974,0.7450079134119307,0.8916918647122012,0.0,0.0,0.0,0.0
-0.019467929989542908,-0.1579495411679972,0.7704047797318748,0.0012579394910933836,-0.514576065665585,-0.0017385213992684896,0.8574420492229831,-0.2074644679760136,-0.8040274312138146,0.857273001622944,0.18859008080129963,-0.7863210570019449,0.8682653353311411,-0.3090008976797285,0.610119485388461,1.053264760179135,0.4284981524688073,0.7303363087011825,0.9000366644468313,0.0,0.0,0.0,0.0
-0.021810615047297238,-0.1604060087256537,0.7689552791423904,-0.00012200534874981103,-0.5124401802618865,-4.175936378021856e-05,0.8587229151618208,-0.20535667052961895,-0.8084291803035972,0.844263405811078,0.1913766899564281,-0.7922718136167807,0.8619713205629078,-0.3765823994582822,0.6214105127374361,1.041666265594544,0.4476594633238528,0.7121167756513082,0.9136096594308419,0.0,0.0,0.0,0.0
-0.02336550337473833,-0.16172931889287673,0.767182558528474,-0.0010523384980229474,-0.5105256497024979,0.0012201925746730417,0.859861014763205,-0.20559241893968996,-0.817511877337727,0.8404410999270017,0.19248005710261953,-0.8016978930596409,0.8617904668622389,-0.44619673050023034,0.6295429227388715,1.0411781586887823,0.4569859634597013,0.6942750735069813,0.9281977382779191,0.0,0.0,0.0,0.0
-0.023342095376924464,-0.16179032187660286,0.7671246102354157,-0.001109607131348193,-0.5105298039498599,0.001260208480374193,0.8598584185350037,-0.20559285374636652,-0.8175154505067291,0.8402110003700751,0.19255781199328156,-0.801817449188537,0.8618699680625334,-0.4462495774789838,0.6295227866632607,1.0411765915011444,0.4570607364843808,0.6941678508722007,0.9280332526476004,0.0,0.0,0.0,0.0
-0.023342095376924464,-0.16179032187660286,0.7671246102354157,-0.001109607131348193,-0.5105298039498599,0.001260208480374193,0.8598584185350037,-0.20559285374636652,-0.8175154505067291,0.8402110003700751,0.19255781199328156,-0.801817449188537,0.8618699680625334,-0.4462495774789838,0.6295227866632607,1.0411765915011444,0.4570607364843808,0.6941678508722007,0.9280332526476004,0.0,0.0,0.0,0.0
-0.02366569784467455,-0.1622818269125322,0.7676120070466579,-0.0005954240250448546,-0.5117010587031219,0.0008489234906734117,0.8591629364219814,-0.20276638542641587,-0.8049376824768825,0.8266011738997342,0.1937547034163509,-0.7920832066156455,0.851465960997619,-0.45208618606909345,0.6357772529733122,1.0389299316986487,0.4580251033766283,0.698627361120135,0.9270220180501731,0.0,0.0,0.0,0.0
-0.023653644633408234,-0.1630761363131239,0.767925132515776,-0.00025172001763282704,-0.5124762948276945,0.0005155245082643545,0.8587011809187128,-0.19970829718719743,-0.7973147768231397,0.8190745154461057,0.19595030132343558,-0.7874587878535051,0.8477806056838392,-0.45415382513875985,0.6406232016363183,1.036728187974149,0.4618648791574966,0.7022603023152304,0.9272586366365742,0.0,0.0,0.0,0.0
-0.023231591272186828,-0.16405199873739962,0.7681339872391554,-1.8606633551554833e-06,-0.5129807131219581,0.0002406501037608281,0.8584000990499434,-0.19664221984948252,-0.7941911828189527,0.8179371276443341,0.19881271102837345,-0.7873530960872208,0.8507554694314367,-0.45424661835143376,0.6451641593543403,1.0344165381590522,0.4679122780779579,0.7059935462671117,0.9280790078521921,0.0,0.0,0.0,0.0
-0.022372873627054063,-0.1651773047164269,0.7682865363487998,0.00021238248456395645,-0.513294071693129,-2.3699506783356353e-05,0.8582127651676492,-0.19349861403201662,-0.795002107895075,0.8229247098653727,0.20233023044151835,-0.7912633330868178,0.8600547632751373,-0.45350197421160654,0.6501238499017102,1.0317766838297608,0.47572708861548246,0.7103294222978258,0.9290925279135414,0.0,0.0,0.0,0.0
-0.02108520195924483,-0.16643111614212616,0.7684330390433545,0.0005634333650632523,-0.513509595845924,-0.0007039292487723825,0.8580833770681098,-0.1892227170256129,-0.7984579418570477,0.8329611596458416,0.20741999910869532,-0.7986251028966417,0.8748472457878057,-0.4560054979914468,0.6568990905873615,1.0286371383430095,0.48199655396052826,0.7150834926286425,0.9299309216739464,0.0,0.0,0.0,0.0
-0.019564490605890363,-0.16713424904656576,0.7684581809237943,0.0006070555967936583,-0.5134333611429787,-0.0006631248165374293,0.8581289969546558,-0.18828052473252574,-0.8068149816249716,0.8488784966193224,0.18401735279380532,-0.8067797221155484,0.863298700273928,-0.4553423037017039,0.6616401129367409,1.0265873305385724,0.49056552623073224,0.7202543284862931,0.9301735531945768,0.0,0.0,0.0,0.0
-0.018084655979579714,-0.16794943621464553,0.7684567714779859,0.0006921947500392434,-0.5133467833807306,-0.0008694209460160478,0.8581805433393978,-0.18640508088193375,-0.8145786657644633,0.8638267977232806,0.15447511459915172,-0.822123391272459,0.8518501401273809,-0.4555916497497135,0.6665105077260598,1.0245639562301252,0.4981344847155662,0.7248215275438425,0.9307572221642443,0.0,0.0,0.0,0.0
-0.016840131757372534,-0.1690335298840757,0.7684752269242336,0.0008134556816744464,-0.5133022885851107,-0.0011758288813871205,0.8582066862065241,-0.18347665818436987,-0.8200798806475775,0.8750694008002395,0.12704877584085217,-0.8405886673473941,0.8412182976158321,-0.4544162025615119,0.6709549563390472,1.0220148904578847,0.5062041069304342,0.7287956443727824,0.9317072894843708,0.0,0.0,0.0,0.0
-0.01585202282568136,-0.1703729719422289,0.7685074804859142,0.0009702495337237985,-0.5132903657260374,-0.001526784977092003,0.8582131017389019,-0.179671978486791,-0.8234138310047294,0.8826485438631972,0.10380472381398412,-0.859857657001573,0.8310234871256791,-0.45139904142591136,0.6747283018018067,1.0189922994671932,0.5149159361810662,0.7321067204641738,0.9330618608956615,0.0,0.0,0.0,0.0
-0.015056644274445195,-0.1719328086799302,0.7685415647322931,0.001161747937799896,-0.5132837334732313,-0.0019004765444657129,0.8582160843764313,-0.17517933229872978,-0.8252441840112795,0.8875815199844167,0.08427976555221986,-0.8787138664058333,0.8208519580492665,-0.44666322499228833,0.6778552996700332,1.0155720855211339,0.5242351135859,0.7348265769914297,0.934789312962297,0.0,0.0,0.0,0.0
-0.01437062379666305,-0.17370785449571186,0.7685641552940353,0.0013912518910461332,-0.5132524618575414,-0.0022986388293514703,0.8582334711923562,-0.17006022848593122,-0.8262657704627401,0.8909665910906024,0.06743012503341933,-0.8962144907455686,0.8105741836128566,-0.44038146776761244,0.6804579956258936,1.0117716032908888,0.5341989467319201,0.7370548539918754,0.9368907737960953,0.0,0.0,0.0,0.0
-0.013733100762288085,-0.17572471028535008,0.7685563681471071,0.001666637211990115,-0.5131738196135261,-0.002736292086311706,0.8582787227289781,-0.1642480961138696,-0.8269421644366192,0.8935162005452122,0.05240481241249942,-0.9110113851609204,0.8006112911970668,-0.43261838123621177,0.6826072445481821,1.007621508908445,0.5449259383738523,0.7388070444421168,0.9394918023030977,0.0,0.0,0.0,0.0
-0.013076928186471116,-0.17799813368954465,0.7684647431391565,0.002002010418616756,-0.5130093114143781,-0.003238858499363872,0.8583745966371852,-0.1576912837790287,-0.8279695603767109,0.8961531375203722,0.03847254479838205,-0.9208743970571868,0.7918299638502876,-0.4236241008840241,0.6842158055646353,1.0034527157361681,0.5563514514929703,0.7398780146430225,0.9429981063144385,0.0,0.0,0.0,0.0
-0.012375445587729092,-0.18050385096553243,0.7683259810796242,0.002396386180598377,-0.5127588589705009,-0.003810520576130175,0.8585208732543912,-0.15042994043133465,-0.829345619028433,0.8990669791470234,0.025101409200420186,-0.9232729353527301,0.7862633254650042,-0.4136238670008414,0.6855721798836465,0.9989238709877414,0.5683005459816799,0.740535225218152,0.9469489066122105,0.0,0.0,0.0,0.0
-0.011666762231680828,-0.18321850280554525,0.768217076412041,0.002844687011517236,-0.5124576023679163,-0.0044463813582730286,0.8586963044196416,-0.14248315964836486,-0.8303727716893531,0.9015006558762935,0.012146600934050567,-0.9165363484361693,0.7860679288865199,-0.4026881355170012,0.6870404741171219,0.993418110585978,0.5805859220803604,0.7411527697643919,0.9506074626383251,0.0,0.0,0.0,0.0
-0.01089165127260995,-0.18617595002033607,0.7680867954093195,0.0033609968150792387,-0.5120619223918642,-0.005164251674729137,0.8589264356400945,-0.13376437707850813,-0.8316861159477064,0.9042571731290006,-0.00027446726920031354,-0.9024157368540169,0.7888835897577691,-0.3908539778958387,0.6884928685673234,0.9871809055854144,0.5932442142509099,0.7415066711491823,0.9543714011321633,0.0,0.0,0.0,0.0
-0.009976243502757689,-0.18936838831086372,0.7678413552016343,0.003965440540317601,-0.5115206283199918,-0.005996566902620444,0.8592409227159891,-0.12425455447412058,-0.8342006976698614,0.9084510816017861,-0.012384551286423563,-0.8832341538713486,0.7921086971504702,-0.3786322721107768,0.6896787604384801,0.980927457896793,0.6060068151974828,0.7411719612319697,0.9589734151719482,0.0,0.0,0.0,0.0
-0.008830716402253094,-0.1925967093646381,0.7674613575079734,0.004647663986513672,-0.5108031116403248,-0.006925143922334986,0.8596572705094079,-0.11450756863044227,-0.8388930068412682,0.9155850442955622,-0.024973884532263006,-0.8608811824877519,0.7940002118505143,-0.3673234257786436,0.6907436733572069,0.9751275560947434,0.6179033824656869,0.7402444278645031,0.9642012688409891,0.0,0.0,0.0,0.0
-0.007449747580667574,-0.19551265747718002,0.766781873179102,0.00539049921104947,-0.5098623384955018,-0.007898834886971918,0.8602028520701279,-0.10553084005936114,-0.8471994378354674,0.9270725113385544,-0.03926584731440143,-0.8364725248751114,0.7924548611800439,-0.3588407689186518,0.6907522954169136,0.9720482173330945,0.6271349719370688,0.7377619989168739,0.9711872176167132,0.0,0.0,0.0,0.0
-0.005906922084476353,-0.19791389459269623,0.7658278376993695,0.006202269126228287,-0.5085851533325375,-0.00894529415410203,0.8609428874088582,-0.09774080845775131,-0.8596181459207567,0.9431943514204609,-0.05598720127044396,-0.8104937978823978,0.7846165527979797,-0.35411760387908875,0.6892601991034727,0.9717632025627714,0.6309542883320837,0.7329556324228478,0.9792408177209438,0.0,0.0,0.0,0.0
-0.004616263483536824,-0.19959360163513662,0.7646334390217923,0.00710680307631469,-0.5068867024753025,-0.01004115827123486,0.861924903541092,-0.09164297833619015,-0.874756056603816,0.9606889570535726,-0.07389325640342648,-0.7843884019359444,0.7661394974358535,-0.3532536764675533,0.6847495916384014,0.9744971433959626,0.6255623349206852,0.723931826758169,0.9878861018926302,0.0,0.0,0.0,0.0
-0.003958975572469191,-0.2002892266461504,0.7634295777697137,0.008136205746914045,-0.5047383679990876,-0.011177523506882081,0.8631616563506019,-0.08788848476953134,-0.8906512095343913,0.9764086476034306,-0.08976515811828675,-0.761211564719314,0.7325760568535863,-0.35690664514416165,0.676955419813259,0.9788134336197162,0.607079581578955,0.7100058302230167,0.9948069026478242,0.0,0.0,0.0,0.0
-0.0038952884772456607,-0.2003967320731952,0.76340102183061,0.008279857868123564,-0.5046774466907745,-0.011187704157440949,0.8631957796647581,-0.08761098505955944,-0.8907556120238475,0.9764300862953542,-0.08980121663130666,-0.76118042662933,0.7325862374565673,-0.35699230540065247,0.6769566624122348,0.9785752873423065,0.6072060945764283,0.7099021987918115,0.994988353172529,0.0,0.0,0.0,0.0
-0.0038952884772456607,-0.2003967320731952,0.76340102183061,0.008279857868123564,-0.5046774466907745,-0.011187704157440949,0.8631957796647581,-0.08761098505955944,-0.8907556120238475,0.9764300862953542,-0.08980121663130666,-0.76118042662933,0.7325862374565673,-0.35699230540065247,0.6769566624122348,0.9785752873423065,0.6072060945764283,0.7099021987918115,0.994988353172529,0.0,0.0,0.0,0.0
-0.001759191758439257,-0.20207767784367686,0.7664499432774086,0.005967717031978304,-0.5085981400599773,-0.008406505497857793,0.8609423029136577,-0.08906630304172217,-0.8711520077656384,0.9708768658698377,-0.09127849601181576,-0.735519803582098,0.7270947012927832,-0.33048083748994,0.7042093570967124,0.9536003626839044,0.51173373412604,0.69248353403615,1.008934259956644,0.0,0.0,0.0,0.0
0.0011558091597509536,-0.2042537719445717,0.7684112033592525,0.003847418108016678,-0.5123433956278799,-0.005684320869823707,0.8587532421054634,-0.08924280460358588,-0.8584478126462645,0.9730858596358288,-0.0914750054859608,-0.7206404432987349,0.7355397960460373,-0.3005750175256431,0.7279976995801939,0.9349219656880078,0.4139000094122246,0.6738420545271825,1.0299289128493785,0.0,0.0,0.0,0.0
0.004514140849385333,-0.20686446288675558,0.769028520169307,0.0021461020236111434,-0.5154927930194981,-0.003487156785499418,0.8568841312153087,-0.08733161256361449,-0.8539084315108786,0.9826958716783302,-0.08964845141552273,-0.7193926887696266,0.7588299388197541,-0.27007299038402094,0.7453731021731975,0.9250690950550435,0.32982282560763376,0.6591469204519897,1.0554395327183286,0.0,0.0,0.0,0.0
0.008145787899178986,-0.2097493114407521,0.7688162638417643,0.0010668845829178062,-0.5178857777119101,-0.0020671112033716727,0.8554466143788808,-0.08325099622421116,-0.855746214378284,0.9982335957948423,-0.08575840151952523,-0.7300685575632325,0.794482976653057,-0.24267599426911868,0.7586381452061982,0.9197606467576744,0.26893734232268507,0.6508985854913327,1.0836891584799213,0.0,0.0,0.0,0.0
0.011579247237229121,-0.21287525600163199,0.7680233003983848,0.0005033079012355483,-0.5196758014464685,-0.0013936772030675802,0.854362256736556,-0.0769605662050158,-0.8600290098491603,1.0140037987988704,-0.07976420354159207,-0.7472309592730442,0.8341560876882722,-0.21858380850859385,0.768158709628248,0.9178391475804613,0.2253210286047514,0.6473676631510298,1.112439269949783,0.0,0.0,0.0,0.0
0.014409001256475887,-0.21599337513064792,0.7670719177033909,0.00019627523772289892,-0.5211046502500892,-0.0010191821518109336,0.8534921594434858,-0.06996166104313345,-0.8632070913170284,1.0254471020600575,-0.07307534587914587,-0.7637570872708127,0.8687724225527259,-0.1953166731321998,0.7744065149654283,0.9168727689103231,0.191315488853333,0.6439971292221285,1.1407985010540007,0.0,0.0,0.0,0.0
0.016517358832162522,-0.21902669839788977,0.7661214697648178,3.089657919421824e-05,-0.5222352626864362,-0.000802689992628783,0.8528010818127556,-0.06273016406065293,-0.8643817680717671,1.0315635290926501,-0.06613154829105246,-0.7780054899520095,0.8967012079412945,-0.17216325377721775,0.7775641734316037,0.9160141884153817,0.162649972331896,0.6396317584425859,1.1665012124793672,0.0,0.0,0.0,0.0
0.017848196920889993,-0.22195147000044135,0.7650824326587837,-4.9953073642663197e-05,-0.5231073057655019,-0.0006712610450991308,0.8522665625073281,-0.05550915266690522,-0.8636580710289831,1.0321506885880753,-0.05915977182314429,-0.7898907461816447,0.9178105279783351,-0.14907430595017326,0.7769531226979589,0.9165977880793138,0.13763034149949804,0.6347354348852315,1.1864687285691777,0.0,0.0,0.0,0.0
0.018411684670865743,-0.22478837353466838,0.763909090814453,-6.641114267586906e-05,-0.5237433684291881,-0.0006008090703283773,0.8518758821826504,-0.04832765132640817,-0.8611563026750474,1.0273119782169047,-0.05218616739386492,-0.7997164111904979,0.9326560198034829,-0.12625086811253425,0.7724740173189777,0.919186127240181,0.1160083329975434,0.6309711900896045,1.196078395328475,0.0,0.0,0.0,0.0
0.018261698789072182,-0.2275640134252464,0.7626239856990426,-2.5612926028060597e-05,-0.524151522405794,-0.0005824291512567985,0.851624824485495,-0.041165454044384826,-0.8569359467566704,1.0173471739519442,-0.04518985868889536,-0.8077700212065145,0.9419739155666111,-0.10397278672677865,0.7645547519064225,0.923458121984085,0.09807497569939633,0.6316014900214303,1.188679942313558,0.0,0.0,0.0,0.0
0.01739128257503823,-0.23030937960602066,0.7611501001750921,4.3697687615258154e-05,-0.5243683211136643,-0.0005910811938797942,0.8514913461251215,-0.034011679553835134,-0.8509321582693801,1.0019506718545037,-0.03815754653695007,-0.8140640289208521,0.9457261023793295,-0.08214327903403436,0.7529410660708282,0.9301072160160763,0.08223154464569914,0.633711396169304,1.1707285617919376,0.0,0.0,0.0,0.0
0.01583571881257906,-0.23299216043541138,0.7594543968926697,0.00010809096549497357,-0.5244249965668825,-0.0005953026471271084,0.8514564327708887,-0.027036310063620398,-0.8432355054886164,0.9812536441150679,-0.03125489043881341,-0.8184579342221305,0.9438534996406687,-0.061002735173368586,0.7377445416346025,0.9394331026783881,0.06705316872359586,0.6359662426127777,1.1465497622670078,0.0,0.0,0.0,0.0
0.013728390643917085,-0.23551327703471472,0.7576486278217506,0.00013779307881253274,-0.5243444628323743,-0.0005674514582896806,0.8515060441998863,-0.020572182000736555,-0.8340616676189275,0.956251918633502,-0.024814882032611802,-0.8206614906175346,0.9367139764823244,-0.041250066515066894,0.7201327795729768,0.9503646268011207,0.05164051648998229,0.6380496758516616,1.11882786000475,0.0,0.0,0.0,0.0
0.011231536304955875,-0.2376960213982596,0.7557765393399952,9.516006134192976e-05,-0.5241254091042069,-0.00044747465235189755,0.8516409726183598,-0.015227252517497325,-0.8244072114314943,0.9288220443349108,-0.019453937619186384,-0.8206450720354308,0.9248379699267402,-0.023690294241411402,0.7008318887927625,0.9627111630783601,0.03533953568239014,0.6402015762811113,1.0890702755694726,0.0,0.0,0.0,0.0
0.00853499254449422,-0.23943373476400398,0.7538933618387671,-2.802920305810348e-05,-0.5238610964099719,-0.0002881063621981119,0.8518036557078338,-0.011118842207542778,-0.8145865383821058,0.9004003191286503,-0.015308701570569383,-0.8183542675962189,0.9089511436147206,-0.009413715401120416,0.6811861728976201,0.9762681221967285,0.016516303036416276,0.6426273594133057,1.058265318896004,0.0,0.0,0.0,0.0
0.006377086002558603,-0.24075644894013615,0.7519534495494454,-0.0001889976465416145,-0.5235101528947371,-7.830803286114707e-05,0.8520194117294926,-0.008233619288433858,-0.8087047148819728,0.8785003410002573,-0.012389544739684549,-0.8179913777383523,0.8966677156736876,0.001869760751874729,0.6630502806516447,0.9905155199580489,-0.0038342027303481657,0.6480952712827147,1.0273340333501766,0.0,0.0,0.0,0.0
0.005077468391333832,-0.24145933970983996,0.7504173377494789,-0.00036995248842675114,-0.5232346709207152,0.0001749923595270433,0.8521885423187296,-0.0070485376113050046,-0.8068608886912586,0.8661911960924503,-0.011182680881474083,-0.8185472534125631,0.889194750669146,0.009001866640366651,0.6500111163352345,1.0021257801279928,-0.023051022820500238,0.6556208738734142,0.9986447438039913,0.0,0.0,0.0,0.0
0.005102089981360774,-0.2414639124959914,0.7503768296799325,-0.0004033146759009377,-0.5232293224034447,0.00018648657258695358,0.8521918086541683,-0.007064123936358352,-0.8068878481288583,0.8660608397485705,-0.011191215728861458,-0.8185937696933263,0.8891966759871428,0.008992393908955364,0.6499863338098412,1.0021012336417363,-0.0230568583660315,0.6556251015547956,0.9986401219236379,0.0,0.0,0.0,0.0
0.005102089981360774,-0.2414639124959914,0.7503768296799325,-0.0004033146759009377,-0.5232293224034447,0.00018648657258695358,0.8521918086541683,-0.007064123936358352,-0.8068878481288583,0.8660608397485705,-0.011191215728861458,-0.8185937696933263,0.8891966759871428,0.008992393908955364,0.6499863338098412,1.0021012336417363,-0.0230568583660315,0.6556251015547956,0.9986401219236379,0.0,0.0,0.0,0.0
0.005102089981360774,-0.2414639124959914,0.7503768296799325,-0.0004033146759009377,-0.5232293224034447,0.00018648657258695358,0.8521918086541683,-0.007064123936358352,-0.8068878481288583,0.8660608397485705,-0.011191215728861458,-0.8185937696933263,0.8891966759871428,0.008992393908955364,0.6499863338098412,1.0021012336417363,-0.0230568583660315,0.6556251015547956,0.9986401219236379,0.0,0.0,0.0,0.0
0.005645110900731179,-0.2417547443977289,0.7502840849487612,-0.0008812151369259591,-0.5229151424730043,0.0006073128901194821,0.8523840732928869,-0.007187698605874146,-0.8125248810413589,0.8734808121578629,-0.01131856713960654,-0.82284091153275,0.8963985361077159,0.016518495642714685,0.64851317029965,1.00008379460626,-0.015334736474547923,0.6579246554102374,0.9998965669000913,0.0,0.0,0.0,0.0
0.006810241083783935,-0.2419282328251233,0.7501710483832769,-0.0010507104797661275,-0.5229727341694081,0.0007707239869434696,0.8523484154425331,-0.0071080804305864,-0.8187771242757961,0.8848989840656939,-0.01124557319178032,-0.8287512888315819,0.9079944788183159,0.01981806588221959,0.6508537016589677,0.9992427415011299,-0.012083895213622648,0.6617841783094244,1.0006766660543047,0.0,0.0,0.0,0.0
0.008602696995567498,-0.24189501282591552,0.7500466817686415,-0.0009552886042686632,-0.5234172370517107,0.0007012506564972682,0.8520756959498097,-0.007086709088177063,-0.8257350920806199,0.9004703649895833,-0.01123694184923976,-0.8358029659822532,0.9233090147996929,0.01883859761088639,0.657035211122866,0.9997200934699777,-0.013536122855755799,0.6674232727395678,1.0006081970460703,0.0,0.0,0.0,0.0
0.011013631356409008,-0.24174134699898728,0.7499568678405854,-0.0005571419750421673,-0.5242897432512537,0.0003569532330792371,0.8515396804017671,-0.006815337450767028,-0.8324987127812674,0.9191465082026812,-0.010982411487582175,-0.843782304443906,0.9421838630339561,0.013440489969633677,0.6676473676980228,1.0007893101461123,-0.019869092069901093,0.6750010696657567,0.9994876739739031,0.0,0.0,0.0,0.0
0.013984763564200343,-0.2417474903762398,0.7499113475869977,0.00029776620451317114,-0.5256725205923615,-0.0005219095230055641,0.8506868049051958,-0.004968447472803327,-0.8368743206292791,0.9381967670301503,-0.009146958383814623,-0.8530537609092882,0.9648828885114074,0.0022863190554151033,0.6838609995830112,1.0016821427769245,-0.03235335995352738,0.6837494333547768,0.9979168279415912,0.0,0.0,0.0,0.0
0.016205556651706345,-0.24181157577557974,0.7497151988085706,-2.2128696697077524e-05,-0.5254981506161377,-0.0003944508614840505,0.8507946506753893,-0.021160070813313288,-0.8481601074709517,0.9225561519129878,-0.009177024207748654,-0.8646733441425534,0.9860407902997173,0.005297302535746225,0.6887507894012088,0.9998399999514034,-0.029701901247714983,0.6900696429319839,0.9967788432529552,0.0,0.0,0.0,0.0
0.018175224724215913,-0.24185771839189793,0.7495044454522778,-0.00013713636321378177,-0.5256352073065528,-0.0004831159189714129,0.8507099250816486,-0.04379558559898974,-0.8666755833300748,0.9085836832080473,-0.008782598502014514,-0.8737225120456865,1.0032686688570627,0.005612358565788025,0.6944666445410708,0.9993414672757193,-0.02986473772263816,0.6955169060347471,0.9963266304829945,0.0,0.0,0.0,0.0
0.019804393215902133,-0.24198619909900404,0.7493102127551711,-5.9251355797112705e-05,-0.5260552977499257,-0.0007487793160578476,0.8504500335281607,-0.06691787242181312,-0.8884323988538911,0.8980043268976806,-0.007792897733580915,-0.880157044332653,1.0164643900047332,0.004057676018732072,0.700726737014,0.9995269154120717,-0.03198030274946939,0.7000189570269207,0.9966990623913035,0.0,0.0,0.0,0.0
0.020976375012115155,-0.24228800347045218,0.7491608843571208,6.432639085139382e-05,-0.5264948649668738,-0.0010547072132381795,0.8501776523870309,-0.08859339741474001,-0.9113136063728409,0.8890535471524647,-0.006251099193763062,-0.8847212602185093,1.0260768398067246,0.0031881296754005853,0.7059052401329824,0.9993181864060674,-0.033330100122815384,0.70332404159299,0.9978275675383471,0.0,0.0,0.0,0.0
0.0216440762225193,-0.24280265081246674,0.7490836596877685,0.00019756377779732705,-0.5268642672264355,-0.0013632183994832182,0.8499483199136875,-0.10873508218583158,-0.933938380585587,0.8804884430018073,-0.004134460525823371,-0.8876458732487225,1.032257960068465,0.0039060900390145165,0.7094678529049392,0.9982404741494069,-0.03295821855337524,0.7053804329948418,0.9996133544013406,0.0,0.0,0.0,0.0
0.021806996946396,-0.24354865605244186,0.7490932195964234,0.00035839880110245196,-0.5271659194036096,-0.0016883147690077234,0.8497606219182476,-0.1278480465025496,-0.9550747408413733,0.871908039565462,-0.0013697867499048097,-0.888972946073717,1.035111782343376,0.006180390816345143,0.7115010259711957,0.9961575783242338,-0.030880378893625375,0.7062110877615296,1.0020104210168819,0.0,0.0,0.0,0.0
0.021475415419062734,-0.24454506041412735,0.7491990416241929,0.000575352022534531,-0.5274256431563593,-0.0020549295236940513,0.849598515285781,-0.1463663413102625,-0.9730857783840444,0.8637752114291614,0.0021367709970629475,-0.8886827737310388,1.0347034380009021,0.009748944633867454,0.7122680953556376,0.9929813438193908,-0.027335394196136318,0.7058552476730844,1.004997757248654,0.0,0.0,0.0,0.0
0.02063326920832765,-0.24583267805671993,0.7494194462885081,0.0008213508678484755,-0.5275837344135927,-0.0024420964868269914,0.8494991257969066,-0.16440746678911533,-0.9858371466480116,0.8572530171909327,0.006439923860659501,-0.8869624645815576,1.0312000992536074,0.015213955486306625,0.7115323027240315,0.9882611564410675,-0.02164095463109801,0.7043372976581732,1.0084765606322397,0.0,0.0,0.0,0.0
0.019260060916743663,-0.2474503391105593,0.7497837871819599,0.001078741778236087,-0.5276114148324741,-0.002832761263795284,0.8494804333934203,-0.18161245008333327,-0.9907794258814677,0.8545628370605911,0.011589691594633494,-0.8837623610591745,1.024528487617597,0.022966358793075622,0.7092742128360467,0.981474550193511,-0.013289926649179114,0.701764471539602,1.0122602821963314,0.0,0.0,0.0,0.0
0.017356978197752473,-0.24942497180536904,0.7503368992990965,0.0013143916334236489,-0.5274808275714181,-0.0031955983581012652,0.8495599078760364,-0.19758873122011525,-0.9863062059978608,0.8578761200922058,0.01756902414184737,-0.8789853754574875,1.014663948170664,0.03337795155672269,0.7056493997088235,0.9718905753672515,-0.0017393013003280493,0.6984272917909028,1.015929991436791,0.0,0.0,0.0,0.0
0.014974616050292995,-0.2517420806194526,0.7510802975157987,0.0014079694256697024,-0.5270360482181056,-0.003445935113545052,0.8498347763135681,-0.21326928513401483,-0.9746247036006319,0.8650293006879032,0.024164353216793805,-0.8733313450777634,1.0024002493203623,0.04727916707008104,0.7002611232573704,0.958869491936645,0.014144729728206896,0.6944485896578594,1.0190588165892664,0.0,0.0,0.0,0.0
0.012240270449600086,-0.2543139769080526,0.7519495882192928,0.001322766352472411,-0.5263080428468604,-0.0035793587477283644,0.8502854123850645,-0.23004487345523925,-0.9590362748695715,0.8746662249535611,0.031148015446088258,-0.8671111924813181,0.988319558918138,0.06362321331743251,0.6936905511445728,0.9428957552396949,0.03348068490255478,0.6898883666164127,1.0216240571493105,0.0,0.0,0.0,0.0
0.009315380712276368,-0.25693359224871726,0.7526784058936968,0.0011497500746329573,-0.5255667210420536,-0.003709346794901784,0.8507435221935136,-0.24949623406240998,-0.942905980883002,0.8872606989651958,0.03822987549967133,-0.860179093376173,0.972257111112005,0.0793546113365651,0.6866327191438286,0.9274586247407608,0.05281640404484425,0.684027237405607,1.0253037252260646,0.0,0.0,0.0,0.0
0.006512670904256371,-0.2590267860681151,0.752965662418614,0.0012175657002531824,-0.5255456681849688,-0.004082671877323151,0.8507547237459938,-0.2735141515893065,-0.9289765906917,0.9064884503457572,0.044358957353836465,-0.8502607174224825,0.9522844487354167,0.08813371739819989,0.6812538446421811,0.9192951464345127,0.06417096581935927,0.6769564122296707,1.03166838877478,0.0,0.0,0.0,0.0
0.0042248319647276,-0.260381731322689,0.7530055984322251,0.0017382078293180783,-0.5265352646265535,-0.004862829347637545,0.8501376045258339,-0.30168230898290926,-0.9195798437717012,0.9371825835215091,0.04929322325713304,-0.8369305617878205,0.9298672939341576,0.0880800110222868,0.6801969853153684,0.9185141300280538,0.06455685837640855,0.6709971181785584,1.0386438129049311,0.0,0.0,0.0,0.0
0.0029197485071867967,-0.260922147534361,0.7529655984334183,0.002920105295047559,-0.5286886346054345,-0.006053203069459589,0.8487892314094867,-0.3309794000861791,-0.9174432018644096,0.98527899452841,0.05273180066706212,-0.8212357315411146,0.9084899389437167,0.07817105976309788,0.6859551104856134,0.9241001628284904,0.05266570368877855,0.6684996917694354,1.0445855911283484,0.0,0.0,0.0,0.0
0.0027204717201575112,-0.26080889642798627,0.7529077531903327,0.004474624742599455,-0.5313278806215771,-0.0070511457783239695,0.8471251043091621,-0.3555074659237631,-0.9271628954077076,1.050752498566037,0.05373081814092505,-0.8071125760700608,0.8931836884533847,0.06329196428314403,0.696168984502928,0.9323264318904035,0.03498291153006322,0.6700283880041958,1.0485841559743208,0.0,0.0,0.0,0.0
0.002737260727552068,-0.2608591706792325,0.7528838129965796,0.004459635666713866,-0.5313242233821832,-0.007036906690541948,0.8471275956083999,-0.3555493264530634,-0.9271864678781933,1.0507512508037904,0.05378516898330884,-0.8071238491222844,0.8931058921676831,0.0631624825012643,0.69633394376198,0.9321317420887186,0.03509514898248095,0.6699141378264586,1.0487771465381903,0.0,0.0,0.0,0.0
0.002737260727552068,-0.2608591706792325,0.7528838129965796,0.004459635666713866,-0.5313242233821832,-0.007036906690541948,0.8471275956083999,-0.3555493264530634,-0.9271864678781933,1.0507512508037904,0.05378516898330884,-0.8071238491222844,0.8931058921676831,0.0631624825012643,0.69633394376198,0.9321317420887186,0.03509514898248095,0.6699141378264586,1.0487771465381903,0.0,0.0,0.0,0.0
0.0023575497342151726,-0.2623935993308998,0.755514593471965,0.0027966347149335816,-0.5289061523111414,-0.005206113958123238,0.8486597417452709,-0.35640987019417447,-0.9322473080464986,1.0567969518560207,0.05381426132918057,-0.8099833029935533,0.9008308459589768,0.025052961275664087,0.6655906569103367,0.98146362732946,0.07052588806948565,0.6829430690622156,1.028394345035445,0.0,0.0,0.0,0.0
0.0023060857148918873,-0.2647934953014889,0.7588496990693478,0.002054457108420946,-0.5275781279528181,-0.004283413723759422,0.8494932315673036,-0.35223940584401536,-0.9293300521608876,1.0587963266065337,0.05777213315439997,-0.8096425968508797,0.9089693382293562,-0.008862318896357371,0.6453840605437318,1.0218409641231139,0.0983463284912365,0.6996889588478046,1.003786038875654,0.0,0.0,0.0,0.0
0.0022874554609499855,-0.26783838040726016,0.762198605991602,0.0019838526884612246,-0.5268917153574011,-0.004058022140093818,0.8499204180819263,-0.3444079727567516,-0.921949619678232,1.0570995521676587,0.06474463508303294,-0.8082933915324305,0.9166842624246881,-0.033396574012840186,0.6312576141703605,1.0557320256961678,0.1213592031179221,0.716256906298499,0.9803662901015262,0.0,0.0,0.0,0.0
0.002198514833648698,-0.2713758398881196,0.7653747935220658,0.0022288031204537183,-0.5263927587990742,-0.0042051437268200206,0.8502282121211849,-0.33440199959783073,-0.9130295466920374,1.0532585327471506,0.07370816673598132,-0.8074346310162588,0.9244702618222778,-0.05161903799037931,0.6203555702218432,1.0854800004204355,0.14323498382264147,0.7315090923647628,0.9592313113741728,0.0,0.0,0.0,0.0
0.0020024609070101425,-0.2752861549956104,0.7683292675512521,0.002616683563377641,-0.5259015876770645,-0.004546345365754797,0.8505292492264374,-0.3230631072298559,-0.9036740876879953,1.0478924044067164,0.0839966212887803,-0.8073642520696419,0.9322498362227857,-0.0666763910131002,0.6113596047601988,1.1123535142583891,0.1653173324009446,0.7451102356779478,0.9404907956735531,0.0,0.0,0.0,0.0
0.0016069323131231133,-0.27945891218396923,0.7710497503519799,0.0030442730845713795,-0.5253509619359842,-0.004943150540724496,0.8508658322303548,-0.31096449501931855,-0.8939324143100319,1.0405168961927458,0.09502323556909369,-0.8075264555731757,0.9389246593418148,-0.08004297608346678,0.6032295251803731,1.1365285803392509,0.18819876642234012,0.7568176605861917,0.9241020255980626,0.0,0.0,0.0,0.0
0.0009177467815623028,-0.2838226145105028,0.7735173300959712,0.0034588757431594556,-0.5247263348192053,-0.005323926941407196,0.8512472998651562,-0.298393721442317,-0.8835488002936531,1.0303813950587688,0.10643635358034279,-0.8073415138266821,0.9433933329454386,-0.09280438212556448,0.5955357860875551,1.1571644889825088,0.21192045273276428,0.7662777160848712,0.9102174340635141,0.0,0.0,0.0,0.0
-0.00013100857666374015,-0.2883473578242909,0.77568878909836,0.003817889276297005,-0.5240008959310705,-0.00563806380538757,0.8516904936779768,-0.28552925120385503,-0.8725496340659067,1.01707713860038,0.11804517679017278,-0.8066697260157537,0.945123281494062,-0.10599486960455703,0.5885708743865419,1.172025704097036,0.23657502612867082,0.7730156468229568,0.899266495557164,0.0,0.0,0.0,0.0
-0.001605922418538593,-0.29303343887833716,0.7775005754810342,0.004065892907460969,-0.5231289474323544,-0.005832428409912856,0.8522238882195367,-0.2724908758765485,-0.8611293032150256,1.0002919143447568,0.1297460498279628,-0.8055899994904385,0.9437807290681648,-0.12084244011639318,0.5835171991317946,1.1768941166722908,0.2624828102224355,0.7764086273333338,0.891906598248719,0.0,0.0,0.0,0.0
-0.003521645522015351,-0.2978795124518996,0.7789104821629149,0.004169291530168239,-0.5220880855032702,-0.005881026544977771,0.8528611032931703,-0.259355689609667,-0.8494786473239129,0.9799935133592709,0.14149366478073577,-0.8042665120013117,0.9393750636917171,-0.13864002997334932,0.5833411687032388,1.1654149174463402,0.2896015269065362,0.7760768364166764,0.8884930902679322,0.0,0.0,0.0,0.0
-0.005860082796087278,-0.30276367621224093,0.7799729309867709,0.004123488330319755,-0.5209345831991441,-0.005757347296261292,0.8535672263057164,-0.24646965750592664,-0.8371662201977211,0.9559021940395503,0.15288497959574437,-0.80205229358027,0.9313136707456018,-0.1593605497556698,0.5853186509507401,1.1447800425107373,0.3169462291177389,0.7724258381653852,0.8881436811859004,0.0,0.0,0.0,0.0
-0.008555949239362166,-0.30750900784678487,0.7807646655263116,0.0038957104003233397,-0.5196998473692421,-0.005410948760570435,0.8543228978075993,-0.23440602548503675,-0.82415517468416,0.9283749307987821,0.16334891584131317,-0.7984941026845591,0.9194151800381818,-0.18380290800045954,0.5885680420304911,1.120206626695624,0.34360629600046355,0.7661733098558728,0.889525004629263,0.0,0.0,0.0,0.0
-0.011484932944775003,-0.31188983981582796,0.781309119457974,0.0033202437865525627,-0.5182544625228532,-0.004606494632729814,0.8552076170518741,-0.22438129167021045,-0.812209385741221,0.8996787502653444,0.17190086950741623,-0.7943331932409402,0.9049192965345765,-0.2136794122916388,0.5933382159670286,1.094870950760016,0.37023442593551426,0.7579355939670789,0.8914453009745192,0.0,0.0,0.0,0.0
-0.014495667020214292,-0.31575404159559334,0.7815444757427261,0.0023463842010302983,-0.5165970131885753,-0.003362190470663281,0.8562188482631429,-0.2167684728907024,-0.802659396216676,0.8719461959001338,0.17833890242883835,-0.7904843496943827,0.8892910764727,-0.25416821170236603,0.6001136266166429,1.0718957828190008,0.39600575869937454,0.7477619186332913,0.8940145458331346,0.0,0.0,0.0,0.0
-0.01726011312247372,-0.3190099714001665,0.7809475750789954,0.00110181396250647,-0.5146594751519974,-0.0018345708852847893,0.8573920019407281,-0.21176527837090853,-0.7996482346142806,0.8504652700445533,0.18305534688188754,-0.7912458517425546,0.8776558806652517,-0.30755165671013474,0.6099562529798184,1.053183012205801,0.4195753280755006,0.7333634733575325,0.9022160120773008,0.0,0.0,0.0,0.0
-0.019610474155894696,-0.3214397740794649,0.7795237234373638,-0.0003019936459736874,-0.5125206145948934,-0.00015528473105896505,0.8586748536563551,-0.2096614724083479,-0.8039664178399186,0.8374200912365644,0.18583500103478384,-0.7971156177269185,0.8713434822481497,-0.3751063785722172,0.62126357040495,1.0414618811994498,0.4391698174541752,0.7153208400619662,0.9158217026647616,0.0,0.0,0.0,0.0
-0.021176085460884075,-0.3227588235438027,0.7777561787617697,-0.0012723087538011255,-0.5106137745361807,0.0010885343485751466,0.859808565657101,-0.2098347011996009,-0.8129550772976708,0.833505278849516,0.18698237669164078,-0.8063921446742766,0.8709821239220871,-0.44460876288632845,0.6294571450387348,1.0408425804403734,0.4489619812304083,0.697556803119422,0.9305775528590453,0.0,0.0,0.0,0.0
-0.0211522931093621,-0.32281961447716206,0.7776986769311961,-0.0013309724073836333,-0.5106188223573901,0.001128756561081138,0.8598054272191056,-0.20983514054169408,-0.812957862147736,0.8332800035272855,0.18705920983657065,-0.8065077361957232,0.8710636971721395,-0.4446604942080469,0.6294359692871997,1.0408403253755523,0.4490342739472707,0.697450386658341,0.9304154364757701,0.0,0.0,0.0,0.0
-0.0211522931093621,-0.32281961447716206,0.7776986769311961,-0.0013309724073836333,-0.5106188223573901,0.001128756561081138,0.8598054272191056,-0.20983514054169408,-0.812957862147736,0.8332800035272855,0.18705920983657065,-0.8065077361957232,0.8710636971721395,-0.4446604942080469,0.6294359692871997,1.0408403253755523,0.4490342739472707,0.697450386658341,0.9304154364757701,0.0,0.0,0.0,0.0
-0.02146160569377064,-0.3232949424263452,0.7781754802018643,-0.0007733495569514428,-0.5117960665919481,0.0007203318850544716,0.8591063201219324,-0.20708092552876578,-0.8004098178500678,0.8197159106229923,0.18821219417138582,-0.7969837897405814,0.8609887500139513,-0.450886126552753,0.635747280231819,1.038715501281584,0.44969481403325384,0.7018707819381429,0.9295152916712581,0.0,0.0,0.0,0.0
-0.021436700445213168,-0.32407919788083905,0.7784825259549745,-0.00040642883722765766,-0.5125703037970903,0.00039343237631652225,0.8586450743420846,-0.2040870965245273,-0.7928895423796568,0.8123368550838347,0.1903763641003246,-0.792546632668515,0.8575907787612513,-0.45314349875863674,0.640618257290762,1.036570688578733,0.45341691897525727,0.7055043022277684,0.9298133195763952,0.0,0.0,0.0,0.0
-0.021003723539197425,-0.3250534317786989,0.7786869776799694,-0.0001403346673596644,-0.5130713093595544,0.00012170270581601781,0.8583459658009147,-0.201058024503785,-0.7898978431230066,0.8113974376801156,0.19323428169518886,-0.7925949720341778,0.8607858499227218,-0.45333761485330887,0.6451730791991818,1.0342841302263728,0.4594373030767665,0.7092560163780733,0.9306817802010864,0.0,0.0,0.0,0.0
-0.02013514818624052,-0.3261868490668685,0.7788347688877691,9.069946283693286e-05,-0.5133817906068013,-0.00014679821040967461,0.858160303962638,-0.19791444519921866,-0.7908479282159281,0.8166084015290294,0.19678338798400094,-0.7966304011988473,0.8702419946435992,-0.4526799505564513,0.6501520490485402,1.0316600258028152,0.46726319505148245,0.713616591640852,0.9317564620050017,0.0,0.0,0.0,0.0
-0.01883546915807803,-0.3274601978713433,0.7789748474796162,0.0004638990853125501,-0.5136071795776618,-0.0008398731181083831,0.8580249090190002,-0.19359402658942973,-0.7943890917376507,0.8268388180998936,0.2019455183703754,-0.8040602260360835,0.8851197386672549,-0.4553499994148624,0.6570097221290385,1.0285664865324724,0.47355656935083984,0.7184165862717055,0.9327039154742086,0.0,0.0,0.0,0.0
-0.017285795547130584,-0.32817987346844474,0.7789842522946306,0.0005336906209263186,-0.5135074400488707,-0.0008129982994751182,0.8580845897826983,-0.19263662148071461,-0.8031556816172615,0.8433583893923807,0.17833268448197037,-0.8105502997847422,0.8703043972550819,-0.4548111011370953,0.6617308522240718,1.0265618781117132,0.48206390136301663,0.7235587102137012,0.9330324835946379,0.0,0.0,0.0,0.0
-0.015769759912204865,-0.32901816861489885,0.7789683256528778,0.0006421577401908653,-0.5134058307166671,-0.0010358066688278933,0.8581450738215016,-0.1907210251202907,-0.8112956925426223,0.8588982446228317,0.14878965275053135,-0.824823514796566,0.8568114778593292,-0.45520313449105454,0.6666447627272885,1.0245819902895779,0.4896556081026433,0.7281486970194652,0.9337203652129517,0.0,0.0,0.0,0.0
-0.01449200682228227,-0.3301218356752507,0.7789762217358416,0.000780777547461054,-0.5133486698665756,-0.0013566339825839626,0.8581787069584494,-0.18775788495413398,-0.8171253264859687,0.870660965228393,0.12140236428517194,-0.8426303018244434,0.8449553033319706,-0.4541447049584876,0.6711442036257538,1.0220503938593437,0.4977951000508014,0.7321691931551493,0.9347547812383914,0.0,0.0,0.0,0.0
-0.01347713169203829,-0.3314730440649455,0.7790015367864574,0.0009492294055831716,-0.5133246492267167,-0.0017186824727455565,0.8581922567760453,-0.18393702907209783,-0.8207443387202508,0.8786836740504181,0.09816318851400241,-0.8614944400863217,0.8340111284899255,-0.45122020507506533,0.6749620579002342,1.0190267072494055,0.5065895919486288,0.7355314936718832,0.9361697311929987,0.0,0.0,0.0,0.0
-0.012661819022146727,-0.33303587859809064,0.7790317173551241,0.001148388996840889,-0.5133064566334813,-0.002101022555558505,0.8582020440929473,-0.17944869412912864,-0.8228223583832122,0.8839943701173698,0.0786002998109584,-0.8800967779962541,0.8233587592292725,-0.4465734971807186,0.6781214248178481,1.015595283577667,0.5159783466353643,0.7383003985445173,0.937935939693132,0.0,0.0,0.0,0.0
-0.011961922179811643,-0.3348055782937086,0.7790530607614116,0.0013833035058182872,-0.5132641705382914,-0.002506495350163194,0.8582258998620993,-0.17435319985838155,-0.8240627424945082,0.8877080903515202,0.061682070387477896,-0.89742718249191,0.8127481151200647,-0.4403954462380809,0.6807484588658295,1.011777069537334,0.5259834116309917,0.7405741254841474,0.940056556872458,0.0,0.0,0.0,0.0
-0.01131534685443884,-0.3368095844431115,0.7790461995893152,0.0016628614051331493,-0.5131738343523171,-0.0029505476301325173,0.8582780114256512,-0.1685836879134629,-0.8249476128971882,0.8905636029359898,0.04656481906898809,-0.9120947055700405,0.8025254694033935,-0.43275327923857787,0.6829129681439191,1.007603036210763,0.5367167215987759,0.7423651409483554,0.942659102053867,0.0,0.0,0.0,0.0
-0.010675905791575733,-0.33907225301925414,0.7789598719825768,0.002001826601480756,-0.5130045509228466,-0.003458961945527701,0.8583765834439833,-0.16205386797701746,-0.8259941806163038,0.8932007112810875,0.03258728436597577,-0.9218661653212148,0.793572148029346,-0.42381380213796316,0.6844917654942411,1.003393393480585,0.5481358049914343,0.7434363900576354,0.9461695006375755,0.0,0.0,0.0,0.0
-0.009992813475966889,-0.3415640559838699,0.7788269655089999,0.0023999542457326956,-0.5127477420066532,-0.0040370091468408436,0.8585264677596407,-0.15482921449178538,-0.8274051518856081,0.8961319325904774,0.019170636174234285,-0.9241693762689092,0.7878451496742856,-0.41388599477265525,0.6858129443563451,0.9988226694296874,0.5600506970822199,0.7440832217338582,0.9501225771356651,0.0,0.0,0.0,0.0
-0.009303823099477457,-0.34426424376849063,0.7787249857264736,0.0028507712013589393,-0.5124382221503594,-0.004678838278853244,0.8587066146567737,-0.1469226192501898,-0.828481201328028,0.8985963812532684,0.0061921663016935614,-0.9173533668434256,0.7875215629747598,-0.40300788596052045,0.6872392183999185,0.9932636797768492,0.5723016229365504,0.7446816265311775,0.9537820715884645,0.0,0.0,0.0,0.0
-0.008549863145120797,-0.3472086796453701,0.7786047296354083,0.0033690576604721873,-0.5120321155526749,-0.005402025282120584,0.858942710671663,-0.13824451123995735,-0.8298513888343565,0.901393816663569,-0.006235021882605744,-0.9031584523895955,0.7902214878496474,-0.3912029197503475,0.6886509044821443,0.9869370466060603,0.5849289553772147,0.7450175160540495,0.9575253568744756,0.0,0.0,0.0,0.0
-0.007656726675188523,-0.35039365896538827,0.778373126826693,0.003975379140404469,-0.511479601242372,-0.006238837285566494,0.8592635746864627,-0.12876753063010102,-0.8324184315987228,0.9056281891305987,-0.018343420625105755,-0.8839016957175228,0.7933361270731021,-0.3789640394764074,0.6898067823764172,0.9805447027016843,0.5976891033825489,0.7446783549467936,0.9620797089451695,0.0,0.0,0.0,0.0
-0.006533373092181057,-0.3536269479531446,0.7780074024629949,0.004661611246357196,-0.5107528900094764,-0.007179146888018784,0.8596849507683124,-0.1190083251109094,-0.8371340478234361,0.9127757577235885,-0.030946267028213188,-0.8614563762732959,0.7951100363251014,-0.3676319876448419,0.6908666224479565,0.9745818818771628,0.6095950034857895,0.7437465327740421,0.9672668435402291,0.0,0.0,0.0,0.0
-0.005173843498630227,-0.35655006803552763,0.777331910751504,0.005408725754966095,-0.5098119845130448,-0.008169268796894691,0.8602300559617192,-0.11000520260275282,-0.8454387592058038,0.9242445110411094,-0.04523482378482625,-0.8369401293494427,0.7934272118595544,-0.3591977723291045,0.6908658212558833,0.9714603773908278,0.6188436633784291,0.7412417345484773,0.9743068368914907,0.0,0.0,0.0,0.0
-0.0036536836770145664,-0.3589623493196017,0.7763741232887286,0.006219197262579577,-0.5085465111971075,-0.009232582150321394,0.8609625583969938,-0.1021764177638024,-0.8577996467807392,0.940273010217734,-0.061911050903924736,-0.8108257266809393,0.7854305055981797,-0.3545128755163157,0.6893557192560912,0.9712353105964852,0.6227300609212961,0.736403038507821,0.9824857401773702,0.0,0.0,0.0,0.0
-0.0023759189270360077,-0.36065739719393425,0.7751696205314068,0.007104472679480234,-0.5068688746553358,-0.01033758454289164,0.8619319025998508,-0.09603972705911942,-0.8729050303931684,0.9577222825169295,-0.07980683678705337,-0.7845777853059339,0.7668121651677728,-0.3535531961181796,0.684823208016333,0.9741008057150157,0.6175623087153751,0.7273612892882614,0.9913037551118774,0.0,0.0,0.0,0.0
-0.0017207498065930815,-0.3613731934054632,0.7739512764051285,0.008080395113062579,-0.5047491207531527,-0.011465352918529641,0.8631521175298069,-0.09225661240626314,-0.8888143697834457,0.9734536701877688,-0.09571026873851513,-0.7612401634305727,0.7331460754616259,-0.356808814480467,0.6769782513713781,0.978591593382024,0.5995485251934357,0.713422591647499,0.9984244676400754,0.0,0.0,0.0,0.0
-0.0016577402662598917,-0.3614810500409963,0.7739227131260933,0.008223096893821702,-0.5046884339319111,-0.011476032823600405,0.8631861131896535,-0.09197829473141782,-0.8889201790392405,0.9734750028592364,-0.09574619471392676,-0.7612083799928051,0.7331566002666164,-0.3568965157455328,0.6769809569655371,0.97835415126459,0.5996740850707516,0.7133193003946957,0.9986074686095416,0.0,0.0,0.0,0.0
-0.0016577402662598917,-0.3614810500409963,0.7739227131260933,0.008223096893821702,-0.5046884339319111,-0.011476032823600405,0.8631861131896535,-0.09197829473141782,-0.8889201790392405,0.9734750028592364,-0.09574619471392676,-0.7612083799928051,0.7331566002666164,-0.3568965157455328,0.6769809569655371,0.97835415126459,0.5996740850707516,0.7133193003946957,0.9986074686095416,0.0,0.0,0.0,0.0
0.0004882294659928712,-0.36318173229262596,0.7769663299577203,0.005902929202469325,-0.5086387448473494,-0.008635829097246712,0.8609164913757587,-0.09350450402849465,-0.8691791724748219,0.967807195926481,-0.09728008031349165,-0.735386137496509,0.7276445806267849,-0.32999321348842287,0.7042342578990376,0.9534322483396597,0.5039132971707503,0.6960992837244226,1.011972924027853,0.0,0.0,0.0,0.0
0.003410878745415955,-0.3653849530244198,0.778914080418599,0.0037860230153204796,-0.5123950581676981,-0.005872885387118748,0.8587214214238972,-0.09370756336294868,-0.8564525790431516,0.9700116950233847,-0.09749516076729298,-0.7205459097937594,0.7362505166265718,-0.2996846615834237,0.7279291179939873,0.9348065510779799,0.4058757945405418,0.67746649381252,1.0326697088450083,0.0,0.0,0.0,0.0
0.006777739456608273,-0.3680303629027117,0.7795152065755898,0.002096706256154305,-0.5155476904753483,-0.003651801094955402,0.8568505394858387,-0.09178572817885718,-0.851961477935312,0.9797109923645126,-0.09565716319864899,-0.7194765429704354,0.7598519249514804,-0.26881606530671837,0.7451940648899749,0.924986881393851,0.3215872081157868,0.6626758450434191,1.0580196573415273,0.0,0.0,0.0,0.0
0.010418204077302231,-0.37095659044937773,0.7792849928104764,0.0010353777386805244,-0.5179445693659105,-0.002219897058852878,0.8554106751229773,-0.08766682760712845,-0.8538686811436079,0.995371411483641,-0.09173387423092383,-0.730388008759661,0.7958683498310454,-0.24110163990915218,0.7583631802464244,0.9197086937570452,0.2605431883552501,0.6543496502698386,1.0861815846051197,0.0,0.0,0.0,0.0
0.013862641520810858,-0.37412958981225214,0.778469368613923,0.0004916323516678036,-0.5197403341202046,-0.0015454999276218828,0.8543227462828218,-0.08130482563750567,-0.8582410464015838,1.0112873874365809,-0.08567530797063536,-0.747848004190309,0.8359635110962067,-0.2167398971277466,0.7678009206001977,0.917847830599796,0.21681853192582484,0.6508260808497418,1.1148767762244456,0.0,0.0,0.0,0.0
0.016698984805558596,-0.37730107983392097,0.777490605887488,0.00019924649150449708,-0.5211727295846015,-0.0011714128864590341,0.853450393420743,-0.07420778663470062,-0.861505558500179,1.02282571756237,-0.07889391614778013,-0.7646867061896693,0.8709849593428474,-0.19311078092698936,0.7739130171026459,0.9169611205167855,0.1828113165269994,0.6474825743595534,1.1432030938258062,0.0,0.0,0.0,0.0
0.01880503353238067,-0.38039022311455306,0.7765154002991294,4.1411472252373485e-05,-0.5223029438907547,-0.0009502517671631351,0.8527594796363861,-0.06687331436062835,-0.8627370205184433,1.028950420203513,-0.07184918066285619,-0.7792049763290938,0.8992372262446454,-0.16945802336305216,0.7768777464735652,0.9161365582963009,0.1542445020492133,0.6430940543478807,1.168881242868204,0.0,0.0,0.0,0.0
0.020124078084594973,-0.38337051623487345,0.7754571943672194,-3.737820911202155e-05,-0.5231700206237281,-0.000809947935038669,0.8522279460964536,-0.059550220376220396,-0.8620321740647785,1.0294580953139705,-0.0647736568237211,-0.7913120555505007,0.9205886389578083,-0.14578850097785517,0.7760355597465668,0.9166892923572894,0.1294068172832067,0.6381101112961792,1.1888113559101874,0.0,0.0,0.0,0.0
0.020668396963040635,-0.3862616230087157,0.7742730499661026,-5.577802565212743e-05,-0.5237968444940521,-0.0007280442734966607,0.8518429036732192,-0.05226799721954444,-0.8595083911103745,1.0244667534831877,-0.057694179461095285,-0.8013175869726685,0.9356179668619093,-0.12236614994834194,0.7713241288490282,0.9191581073269786,0.10801962726148462,0.6341941098022755,1.1983560311548462,0.0,0.0,0.0,0.0
