zhuoxili-jackie/tripod-support-walk/examples/trajectory_tripod_com_left_tilt_v0.20.csv
root_pos_x,root_pos_y,root_pos_z,root_rot_x,root_rot_y,root_rot_z,root_rot_w,FL_hip_joint,FL_thigh_joint,FL_calf_joint,FR_hip_joint,FR_thigh_joint,FR_calf_joint,RL_hip_joint,RL_thigh_joint,RL_calf_joint,RR_hip_joint,RR_thigh_joint,RR_calf_joint,FL_foot_joint,FR_foot_joint,RL_foot_joint,RR_foot_joint
0.0,0.0,0.72963,0.0,-0.5231245161092812,0.0,0.852256264656019,0.0,-0.81,0.872,0.0,-0.81,0.872,0.0,0.65,1.0,0.0,0.65,1.0,0.0,0.0,0.0,0.0
-9.546770451720869e-05,-0.00010063728124742415,0.7295728023059266,0.00014593223326218825,-0.5230098463423292,2.3726122787514358e-05,0.8523266268103018,9.348738538297425e-05,-0.8099247907606665,0.8711693834347697,9.348738538297355e-05,-0.810806759476717,0.8723810398600941,-7.828134941600702e-05,0.6492498149171008,1.0000295866690747,-7.828134941600578e-05,0.6490323752808853,1.0007065646648694,0.0,0.0,0.0,0.0
-0.00020650845661812024,-0.00019274167774922,0.7295166047363666,0.00027908509420372776,-0.5228835210568354,4.297662881174658e-05,0.8524040964658285,0.00018611766249971253,-0.809867192100591,0.8702941273647723,0.00018633028982206263,-0.8115625386117101,0.8726179394967462,-0.00016329753981491084,0.648425242748605,1.00006913773264,-0.0001631148333517126,0.6479974200203032,1.0013609568901716,0.0,0.0,0.0,0.0
-0.0003052250041116131,-0.00025772657411564793,0.7294695541525119,0.0003702988615340031,-0.5227522200003321,4.9709978719563586e-05,0.8524845904134547,0.00027216232239433665,-0.8099908021576886,0.8697236077359437,0.00027267158222311086,-0.8122711086035578,0.8728348886550668,-0.0002497503037431497,0.6476510240565199,1.000099613210778,-0.00024937018615784343,0.6470485529763175,1.0018129152816977,0.0,0.0,0.0,0.0
-0.0003786458458995406,-0.000306980364975962,0.7294147253953345,0.0004361855130108458,-0.5226114305428111,4.794838128930606e-05,0.8525708768830585,0.00035855472669627013,-0.8103985366375033,0.8695753989582894,0.00035935902769287036,-0.8131311133834987,0.8732834917053803,-0.00033827238364636346,0.6468806235407868,1.000215300310945,-0.0003377664823167478,0.6461213604962798,1.002235844946773,0.0,0.0,0.0,0.0
-0.00040614117885250583,-0.0003774489172138647,0.7293130721209615,0.0005318936309961139,-0.5224534312401223,5.233275208120606e-05,0.8526676530371439,0.00046249086451990887,-0.8112148883823793,0.8699422556105724,0.000463708039299985,-0.8145785118782504,0.8744947679548392,-0.00042978670744605766,0.6459936098806616,1.0006079251575288,-0.0004290802564419168,0.6450405912412598,1.0030806722444605,0.0,0.0,0.0,0.0
-0.00034475029294690193,-0.0005294743491063721,0.7291039211941496,0.0007473960847605234,-0.5222651369761769,8.699545326084181e-05,0.8527828331586763,0.0006118492126720712,-0.8126849008409243,0.8710673142473375,0.000614013726845422,-0.8173654081261578,0.8774244702055025,-0.00052401280539676,0.6448343470815198,1.001551993896265,-0.0005226410954126143,0.6435623316043293,1.0050454486082812,0.0,0.0,0.0,0.0
-0.00016604401080829971,-0.0008179031675532875,0.7287225791514367,0.0011644169103529297,-0.5220122158469154,0.00017228636018373186,0.8529371963733686,0.0008376724487096887,-0.8151343964724351,0.8731997261838799,0.0008422929648785803,-0.8222782041595825,0.8829594400421117,-0.0006292319128288195,0.6431307612186629,1.003344609461531,-0.0006256204844885067,0.6413295933568823,1.0088059886565066,0.0,0.0,0.0,0.0
7.800639699074668e-05,-0.0012281335663556123,0.7281439219645344,0.00176071195359506,-0.521625561880476,0.00029675265709568327,0.8531726583899385,0.0011526275092045867,-0.8188270178599514,0.8763110932515508,0.0011628152971808884,-0.8294587388216669,0.890869926804909,-0.0007749702888952633,0.6404349275477145,1.0061627437318914,-0.0007653218091946127,0.637898978833553,1.0144151323254302,0.0,0.0,0.0,0.0
0.0002549958501698381,-0.001625820340818698,0.7274390794545873,0.0023326921621667895,-0.5210236764165379,0.0003968194756266666,0.8535389444512624,0.0015276961821204125,-0.8238736111652967,0.8801979186842718,0.0015466915669035085,-0.837896610128684,0.8993405146909277,-0.0010035676235931668,0.6364132530338518,1.0097766353010307,-0.0009845622375639763,0.633098026496484,1.020674000555124,0.0,0.0,0.0,0.0
0.000284347201182532,-0.0017312750924149052,0.7269346807536362,0.002466274388899394,-0.5203921803712479,0.00037342422782092095,0.853923741708499,0.0017901988399294949,-0.8288979484655205,0.884170481607571,0.001814335992799634,-0.8438676275523883,0.9044430486895068,-0.0012614297588337032,0.6326480725744231,1.0126603308837165,-0.0012401035996928824,0.6289459224569222,1.02414507384751,0.0,0.0,0.0,0.0
0.0005145213751185392,-0.0008764658146447063,0.7273422470203216,0.002373863712604755,-0.521245636388788,0.0012201139671206144,0.8534025208766545,0.006160208777772243,-0.84219834649599,0.8704630483876551,-0.0026910263891006723,-0.8353517707151343,0.897377096482178,-0.0011304839457401592,0.6356714776526666,1.012649614353533,-0.0011080351940927393,0.6356111211465543,1.0200274107257632,0.0,0.0,0.0,0.0
0.0008049162807923971,0.0003413327409943764,0.7278951437043804,0.0018018593103825357,-0.5220604204165388,0.0019781900186030977,0.8529043073532825,0.01067658751459186,-0.8676873295778874,0.8559159367912004,-0.007527921810510405,-0.8253750820160742,0.8887698581455563,-0.0010055032691286578,0.6391689775102816,1.0123995444952905,-0.0009806758166995902,0.6433842080921216,1.0132048666707938,0.0,0.0,0.0,0.0
0.001162911354909356,0.001578805152320378,0.7283289673025214,0.0012128428806288496,-0.5227145222900145,0.0027299759856252723,0.85250255391429,0.01527141810635215,-0.898068202596634,0.8398589697257032,-0.012338649169095627,-0.8169180714930308,0.8816260508358343,-0.0009326859779784137,0.6419011976048203,1.0128589163490926,-0.0008941445927566335,0.6504155990156726,1.0069073290713209,0.0,0.0,0.0,0.0
0.0016251030289176369,0.002748914416234132,0.7285849145679243,0.0007357991681150033,-0.5232306925237648,0.0035121758893553057,0.8521835281330002,0.019977823869669484,-0.9296564201219442,0.8230246149472392,-0.017109812982676754,-0.8106147902188053,0.8768566855661462,-0.0008988776553570318,0.6438078495860823,1.014276369814565,-0.0008335051638267701,0.6565243305701318,1.0020138336400892,0.0,0.0,0.0,0.0
0.002206607918922675,0.0038768362503336287,0.7286903322982096,0.00034247391226749797,-0.5236331185474252,0.004326169428262198,0.8519328166762891,0.02483975620169418,-0.9603107196868377,0.8056559338894423,-0.021910490775251215,-0.80623444109955,0.8743663832044288,-0.0008910948651926911,0.6450953336920551,1.016522339912882,-0.0007873679929975314,0.6619718761750009,0.9982591353775858,0.0,0.0,0.0,0.0
0.0028965123455947667,0.005037258160240159,0.7286995058181731,-6.358765559022734e-05,-0.5239365095858283,0.005158203832735912,0.8517416995855311,0.029905098779022372,-0.9881570219702526,0.7880217670692752,-0.026839050083776548,-0.8031451545082446,0.8734652619097116,-0.0009032266169660234,0.6459639579820082,1.0193869342758506,-0.0007504756532496795,0.667095531329309,0.9949450350875388,0.0,0.0,0.0,0.0
0.003714946269555222,0.00629491705605914,0.7286204556089154,-0.0005655120198230328,-0.5241301019929465,0.005997153021690292,0.8516169036231334,0.03523607386655301,-1.0105273654641922,0.7706014867664056,-0.03198195394939974,-0.8011975092866865,0.8740087830949319,-0.0009305314563388196,0.6464309828828572,1.0229567370729442,-0.0007171668535082736,0.6720328377328423,0.9917327065034426,0.0,0.0,0.0,0.0
0.004564563180198796,0.00773474220407579,0.7284862484780356,-0.001264731008860288,-0.5242190074453831,0.0068347483939341725,0.8515551179476548,0.04090092521984961,-1.0246977635186736,0.7556736066151247,-0.03746411211968741,-0.799343006925825,0.8743859174458739,-0.000983236121994886,0.6463083294016726,1.0272882994291357,-0.0006949737501253453,0.6767576152904795,0.9881283844352806,0.0,0.0,0.0,0.0
0.005349746917387175,0.009322345751237623,0.7284010291642562,-0.002079090532455323,-0.5242510199561171,0.007713385996513684,0.8515263056030609,0.046960533270033515,-1.0282479338818002,0.7474256560431285,-0.04335468832507055,-0.7965888872455701,0.8733943880706246,-0.0010739106220771925,0.6459322650059343,1.0314904359851704,-0.0006895531773562361,0.6816164726945079,0.9835088052443421,0.0,0.0,0.0,0.0
0.006018726063254983,0.011031728920069619,0.7284510982509325,-0.0029275279721160067,-0.5243179550486421,0.008684152492537315,0.8514732509533514,0.05348808264103824,-1.0197730410617256,0.7500858692497921,-0.049753074620348725,-0.7919401463816659,0.8700126307312135,-0.0011948262891807596,0.6457698865063181,1.0349141000893647,-0.0006857546020840718,0.687147567348729,0.9774314785948718,0.0,0.0,0.0,0.0
0.0066531870965783925,0.012945972911153274,0.7286552770775246,-0.00391029069600617,-0.5244070856044637,0.00973771242874725,0.8514030157047603,0.060568302423686556,-1.0000279622817174,0.7585704922183122,-0.05675938295793356,-0.785438459535912,0.8645518416673958,-0.0013361366749405244,0.6460443004453484,1.0375436912017317,-0.0006661164853961294,0.6937675678683289,0.9692923436689698,0.0,0.0,0.0,0.0
0.007392123385349865,0.015147901580027625,0.7290290640340021,-0.005119656993508024,-0.5245391313770507,0.010873820094975704,0.8513015028783986,0.06830365367979636,-0.9707158481971649,0.7678975352896992,-0.06450278888435282,-0.7771988915628573,0.8576650694324359,-0.0014714360392886656,0.6472291135365792,1.0393706928371327,-0.000589665337890799,0.7021761112780552,0.9584904032374364,0.0,0.0,0.0,0.0
0.008139670806882033,0.01772626385238221,0.7295926126046344,-0.006639342106552983,-0.52477206458817,0.012103921788806616,0.8511308327405324,0.0767835742614165,-0.9343816307078116,0.7749223287895207,-0.07312859944202507,-0.7658034350586028,0.8473004393418665,-0.00160922880600995,0.6492148297630982,1.0406379698643728,-0.00044256730843857643,0.7125205687524372,0.9446400283614121,0.0,0.0,0.0,0.0
0.0089471728895811,0.020514639174735,0.7301846842405266,-0.008162334204290413,-0.5252662780196204,0.01355463108698755,0.8507908000512511,0.08615464768306862,-0.8930134787709098,0.7778290918281724,-0.0827295985780511,-0.7517137910335644,0.8341664433169345,-0.00170422973072829,0.6518945789531162,1.0424170758223774,-0.00016007108231413388,0.7245944303585948,0.9300757572901359,0.0,0.0,0.0,0.0
0.009786129524097102,0.02307322122282162,0.7304554238412596,-0.009013078483484333,-0.5262168094400779,0.015422952683509435,0.8501627881820502,0.09652748176624759,-0.8472093492837647,0.7732222307628659,-0.09320335046828876,-0.736747581121231,0.8201868241761197,-0.0017076598388675545,0.6543124039073254,1.0467996031277196,0.0002902195403916364,0.7367093507636517,0.9203054794907368,0.0,0.0,0.0,0.0
0.010607136262021616,0.025009941158581482,0.73026578394029,-0.008633588078093559,-0.5275822255527184,0.017823491284194814,0.8492730889391119,0.10797126632827897,-0.795041533607767,0.7516890681683854,-0.10433121873965437,-0.7233675153632022,0.808196524604575,-0.0016415487664557928,0.6558135810232666,1.0538198297996375,0.000857228613730927,0.7474009210995596,0.918374692077064,0.0,0.0,0.0,0.0
0.0111271494521164,0.025936796525059713,0.7297153818698375,-0.0065557087682882095,-0.5289349180459234,0.02075581541405117,0.8483832101596516,0.1203880299515887,-0.7355790423208463,0.6961121863291824,-0.11560043419119331,-0.7145486750479986,0.8008369406707488,-0.0017043788299758293,0.6551460250946913,1.0610945491175612,0.0013470457213408354,0.7546099799991052,0.9243381381969812,0.0,0.0,0.0,0.0
0.011224338795616866,0.026100111832758722,0.7296600759643898,-0.006598351486795285,-0.5288598974469227,0.020870641640825492,0.8484268306386753,0.12128681574383618,-0.7353348833979974,0.6961112585365758,-0.11626091712126504,-0.714650025743164,0.8009483864843815,-0.0017802740051521828,0.6548031287298621,1.0616312610283487,0.0014431029013585869,0.7549454267068086,0.9238777895989979,0.0,0.0,0.0,0.0
0.011224338795616866,0.026100111832758722,0.7296600759643898,-0.006598351486795285,-0.5288598974469227,0.020870641640825492,0.8484268306386753,0.12128681574383618,-0.7353348833979974,0.6961112585365758,-0.11626091712126504,-0.714650025743164,0.8009483864843815,-0.0017802740051521828,0.6548031287298621,1.0616312610283487,0.0014431029013585869,0.7549454267068086,0.9238777895989979,0.0,0.0,0.0,0.0
0.011589773474247651,0.026225114184994947,0.7292599546679106,-0.006775669654611077,-0.5284018773469917,0.020806957125011703,0.84871232867922,0.12153321989597062,-0.7425126464867315,0.7052456958221761,-0.11650544024422979,-0.7200422191792668,0.8073834299458968,-0.002013724278954945,0.6528720275930453,1.064221647906502,0.001214881472912236,0.7529877773676722,0.9256958482049376,0.0,0.0,0.0,0.0
0.012050777593004332,0.026358087953056816,0.7288718733803237,-0.006949531326241873,-0.5281840915903366,0.020762868140234866,0.8488475556375407,0.12167568988099448,-0.7486857831364437,0.713768244550251,-0.11679365312545949,-0.7243912002415016,0.8132232454666021,-0.0021666437316818746,0.6519260593885667,1.0670461668940698,0.001077972857575504,0.7520592365361838,0.9277848835531529,0.0,0.0,0.0,0.0
0.012570361247214437,0.026572677254354502,0.7285320311232346,-0.007232256104627208,-0.5281298811635766,0.02070630822627129,0.8488803048094721,0.12170089777232787,-0.7544914688627008,0.7224519613626856,-0.11713318353624368,-0.7274721399406088,0.8179626555710603,-0.002264430270337221,0.6517860301141115,1.0698989948950466,0.0010079715385175121,0.7520994743747071,0.9293581482714877,0.0,0.0,0.0,0.0
0.013139090322586951,0.026924855043923814,0.7282564341315638,-0.007710225072329906,-0.528190021291646,0.020613145968487262,0.8488409462617518,0.12160175037892837,-0.7604825253659159,0.7320091279344824,-0.11753683584155299,-0.7291986481239012,0.8213838179792946,-0.002321205442570657,0.6523461500044939,1.0727186433484075,0.0009940185340149169,0.7530823529054498,0.9299336049198023,0.0,0.0,0.0,0.0
0.013754711742711999,0.027474998061521587,0.7280660479942878,-0.008477313313153366,-0.5283211944734058,0.020457644665169358,0.8487557572140163,0.12136911353901991,-0.7672046912323426,0.7431796248672975,-0.11801957257652855,-0.7294421204580467,0.8232563191083674,-0.0023488341136078893,0.6535591677020471,1.0754170844661723,0.0010304104737202961,0.7550429371172799,0.9289759989566657,0.0,0.0,0.0,0.0
0.014434521430321269,0.028294358678858312,0.7279895701320802,-0.009644211554281563,-0.5284826920547154,0.020210050357063206,0.8486486830524526,0.12099236030802789,-0.775314790917677,0.7569359645182239,-0.11860132061124429,-0.7280706583650403,0.8234272731413798,-0.0023581058335434076,0.6554772454877417,1.0778518063826996,0.0011198033016244205,0.7581354206135058,0.9258094793808412,0.0,0.0,0.0,0.0
0.015212764724975387,0.029441989307765294,0.7280565812181174,-0.011303519194849152,-0.5286370287406648,0.01984516566204913,0.8485406835844107,0.120466629769524,-0.7854196141648635,0.7742141127905854,-0.11929807848944683,-0.7250654339599845,0.8219598565830473,-0.0023617330880312047,0.6582268450948627,1.079818037236048,0.0012744793404130368,0.7625816820946127,0.9197627193035603,0.0,0.0,0.0,0.0
0.016094233380043763,0.03085631520857813,0.7282604383943152,-0.01336532899918717,-0.5287665839587896,0.01938384735765206,0.8484406485611773,0.11981987695600971,-0.7971693210211391,0.7944004920081689,-0.12008249022459676,-0.7208596836363225,0.819416628733892,-0.0023762590177474363,0.6617836269464039,1.0811411705916347,0.0015051693886608164,0.7682892588838961,0.9110448064138089,0.0,0.0,0.0,0.0
0.016912869660374467,0.03202574899707431,0.7283713644366933,-0.015062087267803647,-0.5289630104879888,0.01901917134727872,0.8482980243899451,0.11921184670910766,-0.8067256559373636,0.8110063819694928,-0.12077651624424222,-0.717423825179499,0.817683199360832,-0.0023930934332420852,0.6650443301360816,1.0826977205630048,0.0017712006680353765,0.7733453051588395,0.9043301439302903,0.0,0.0,0.0,0.0
0.0177053493607601,0.03286248389071503,0.7283727093740354,-0.01625524931832032,-0.5292910462031583,0.018790462412605204,0.8480764551625555,0.1186782192275212,-0.8136581031879144,0.8237071191563752,-0.12137362704805617,-0.7151237733822849,0.8175074148892061,-0.0023603964411790168,0.6682392276399742,1.0844625614873156,0.002067373687722281,0.7778353291020745,0.9002975092075362,0.0,0.0,0.0,0.0
0.01848173653956932,0.03342235680528635,0.7283020070619797,-0.01702695391696219,-0.529741815413616,0.01867666460644114,0.847782327040246,0.1182104739580643,-0.818404324886733,0.8333080648019419,-0.12189369510385027,-0.7136825042613087,0.8186130518595481,-0.0022611275470004275,0.6715123380907678,1.0862504709415197,0.0023857165351255693,0.7819889556893427,0.8983625249112406,0.0,0.0,0.0,0.0
0.019254255555146232,0.03377082779810972,0.728197010120645,-0.017473853400521985,-0.5302998008442978,0.018652543457451334,0.8474248452189745,0.1177911686403148,-0.8214277784338309,0.8406076894751847,-0.1223563713387988,-0.7128049547288429,0.8206834074128775,-0.002091140014647343,0.6749995185925636,1.0878818773649424,0.0027288598333151427,0.7860628634905629,0.8978400198828035,0.0,0.0,0.0,0.0
0.02004376637621883,0.03395060754364829,0.7280837672011611,-0.017657256290034982,-0.5309656015967591,0.018702998849121494,0.8470029215152386,0.11740379035912969,-0.8230131933907225,0.8461588508991696,-0.1227771682077999,-0.7122934889291341,0.8235704490103923,-0.001845316432939953,0.6788679081602769,1.089224330856138,0.0031081213382079063,0.7903168588277486,0.8982549695397406,0.0,0.0,0.0,0.0
0.020868779659781143,0.03399293613480919,0.7279859220528591,-0.01762039646782069,-0.531745803763891,0.018817959627927667,0.8465115511339771,0.11703112945751991,-0.8233241523758089,0.8503366154588096,-0.12316815422917429,-0.7119665073168561,0.8271500993588503,-0.001519174738484941,0.6832896484419363,1.090141855638179,0.003536957651881866,0.7950010332465667,0.8992112710692692,0.0,0.0,0.0,0.0
0.02171397509711462,0.033955636627820765,0.7279466043823396,-0.017448138363338018,-0.5326201020137544,0.018974950196514753,0.8459617843990066,0.11664443571363652,-0.8225802523808239,0.853498951309467,-0.12353783243768632,-0.7114210568925248,0.8308763369894271,-0.001123209197327875,0.6883311578869237,1.0904073054273546,0.004020473049429824,0.8003013283004157,0.9000109458520537,0.0,0.0,0.0,0.0
0.02254228600926418,0.03393949918348502,0.7280543150617809,-0.017292171549710786,-0.5335298107896658,0.019132716719614588,0.8453879943273181,0.11620211928831732,-0.8212062827594795,0.8562827513164125,-0.12389584826924975,-0.710000907062831,0.8338210657278063,-0.0006845473794010327,0.6940603096203672,1.0895024980619255,0.004554210083795882,0.806478334495756,0.8993122422853704,0.0,0.0,0.0,0.0
0.02326106611096833,0.03418857225449786,0.728558194054272,-0.017525425566828626,-0.534289183934813,0.019188437859726955,0.8449022021757764,0.11562337912249775,-0.8203713112694723,0.8604196422471787,-0.12425955224882504,-0.7062536049612276,0.8339243960466077,-0.0002784630478023755,0.7006443613469668,1.0858363630024102,0.00510350200676398,0.8141549918332356,0.8934995818828799,0.0,0.0,0.0,0.0
0.023881228941026674,0.03530309257650993,0.7304791502670228,-0.01902475938351281,-0.5343965519701569,0.018906920281475153,0.8448082102692165,0.11472008577615929,-0.8231633758618717,0.8722527658594719,-0.12470600828522163,-0.6968166346174757,0.8281757084868716,-5.7548575230052215e-05,0.7108696300268801,1.0715885180275249,0.005602231929277321,0.827639813562114,0.86914071256724,0.0,0.0,0.0,0.0
0.023503668020027145,0.03636074705643728,0.7335943054366959,-0.019911713649900784,-0.532670341857506,0.018414024505500733,0.8458881452452462,0.114244445451441,-0.8259474607620764,0.881157659653708,-0.12497863930732289,-0.6909093504821049,0.8230125521060426,-0.005678222041595223,0.7192185917067907,1.0457997111416737,0.010818755961238559,0.7681492251166452,0.9610646265430615,0.0,0.0,0.0,0.0
0.023095790276621876,0.03755812797783506,0.7369567594991633,-0.020921772884180484,-0.530855775480842,0.01785539403234103,0.8470157082144147,0.11368697689632282,-0.8286793124667136,0.8904954473733657,-0.125261404410993,-0.6838692138241923,0.81648588310268,-0.011351487663815772,0.7288239857118333,1.017103255214921,0.016163414821730927,0.7213562006216834,1.0330906996114497,0.0,0.0,0.0,0.0
0.02259979045328478,0.038741846453402534,0.740129764804736,-0.021853158158368434,-0.52904083732041,0.01728447051973639,0.8481388323881163,0.11311946842964246,-0.83110707540328,0.8986043483152865,-0.12554733514522343,-0.6770519041237583,0.8093068971949071,-0.01709083547716142,0.7379033180165939,0.9890818443582612,0.02170178630025154,0.6853435809778455,1.0923557191032325,0.0,0.0,0.0,0.0
0.021925564836443354,0.03983187242497197,0.7430160583168542,-0.02258906157897255,-0.5271841189236365,0.016722860115161674,0.8492861620215293,0.11258918782436969,-0.8329695034433974,0.9044886565694079,-0.1258158763612495,-0.6710406768962645,0.8016834523644387,-0.023015158618254816,0.7455488386263661,0.9626692624538385,0.027510205513315678,0.6562796902289297,1.1448114345509455,0.0,0.0,0.0,0.0
0.02094472301215591,0.040807924459050265,0.7455804855202168,-0.02309065725859553,-0.5251775237750863,0.016161787409361385,0.8505258295293385,0.11213003773057563,-0.8342961909028038,0.9075016271537826,-0.12604905242060063,-0.6661356308170475,0.7933086469728412,-0.029289407919610752,0.7508274039915576,0.9383484750777061,0.03366973850418156,0.6312926150608207,1.1928707954658733,0.0,0.0,0.0,0.0
0.019464345469275248,0.04169585392629798,0.7477015249586535,-0.0233835029081613,-0.5228746453227893,0.015566263606233477,0.8519465995634072,0.11176447085724611,-0.8354861203731349,0.906992181918335,-0.1262378659137659,-0.6625824977557516,0.7832419331079311,-0.03610159897844609,0.752089383986351,0.9175471984160894,0.0402675166257147,0.6087664244982901,1.235796598822183,0.0,0.0,0.0,0.0
0.017385712858173058,0.0425368299749187,0.7494717574498742,-0.023479624541024924,-0.5201123573478063,0.014894915146770694,0.8536451162329056,0.11151987167723518,-0.836804538705384,0.9029972180838607,-0.12637381174456322,-0.6604447943846431,0.7710880740729756,-0.04365052154990396,0.7490306245991261,0.8994160334278888,0.04739652141754048,0.5874398483785684,1.27156687095228,0.0,0.0,0.0,0.0
0.014619497137762115,0.0434101710656494,0.7510041046321795,-0.023425318733490328,-0.5166954872835433,0.0140840022623194,0.8557328255614197,0.11142554847647627,-0.8387528813020554,0.8958995257246253,-0.1264577631957758,-0.6597478594357108,0.7563510077532948,-0.05215503341934136,0.7415464346329546,0.8826326051494406,0.05515762563838186,0.566876946629433,1.2954352585597693,0.0,0.0,0.0,0.0
0.011097078609842187,0.04442555003829936,0.7524446463192445,-0.023279853158066067,-0.5124021123244253,0.01304875277141829,0.8583308533272682,0.11152002688094215,-0.8420051712679362,0.886427445789742,-0.12649845773774587,-0.6605207872974392,0.7385633417133716,-0.06185379202740293,0.7298928715433075,0.865173683340706,0.06366098783326041,0.5481731717884748,1.2991714732410702,0.0,0.0,0.0,0.0
0.006801085935099982,0.04570567625514447,0.7539677241931928,-0.023083433647221506,-0.5070159394685279,0.011691800201900809,0.8615481959959868,0.11185514094066978,-0.847314846072665,0.87567292824043,-0.12651605900797294,-0.6628865252322268,0.7175675502101642,-0.07298094616042869,0.7149185685362045,0.8442177112754672,0.07302719670983504,0.5351452711436997,1.2713928925212246,0.0,0.0,0.0,0.0
0.0016508466192857018,0.04729276833697568,0.7555206297385609,-0.022743846662173103,-0.5004180223290314,0.009943779252297062,0.865428010652238,0.1125017363427039,-0.8548495694208019,0.863287208377073,-0.126524476921888,-0.6672419445280413,0.6929694327813162,-0.08570926197935463,0.6966503972415473,0.818807963141861,0.08337246003811263,0.5227421396820746,1.2233034723957505,0.0,0.0,0.0,0.0
-0.0043434610622883766,0.04923280297938279,0.7570000890330825,-0.022156618999752332,-0.4925584211759112,0.007739406033574446,0.8699628656198154,0.1135387331477245,-0.8649466059005713,0.8494173047712623,-0.12656785264848386,-0.6741435763051854,0.6648702000831436,-0.10015211398990412,0.6755108868724924,0.7881279564437867,0.09483342540280304,0.5084239424700192,1.162403744929543,0.0,0.0,0.0,0.0
-0.011054055261786686,0.0514710855549185,0.7581822952138502,-0.021095847127432565,-0.4835363732053098,0.005078795309475292,0.8750552821734383,0.11506675137801244,-0.8776413423649738,0.8340775601305729,-0.1267190951168315,-0.6847552925986685,0.6347123654291045,-0.11628353753809115,0.6520815491364688,0.7523557240587911,0.107550324650935,0.4912532559482062,1.094004172589955,0.0,0.0,0.0,0.0
-0.01796538945154246,0.05386725720390091,0.7585593261958765,-0.019358805509179598,-0.4736893415005269,0.0020666536839155946,0.8804767875081124,0.11720893109304988,-0.8944995763686527,0.8201518985966412,-0.1271838007029164,-0.7023478533611526,0.6083624815784671,-0.1337847409244269,0.6263722173832762,0.7156956206758979,0.12166035663086534,0.47367706406299037,1.0216529553491633,0.0,0.0,0.0,0.0
-0.024596717536313116,0.05637005754356906,0.7579521212121837,-0.016899757353762018,-0.4633092553958681,-0.0012052877284968006,0.8860346942120279,0.1200227642759744,-0.9167288262639066,0.8108298301228427,-0.128120430665952,-0.7289624899384782,0.5907349592151964,-0.15248057575093196,0.5989494128818387,0.6807598405773031,0.13738624051495651,0.45720842868545625,0.9434654926272896,0.0,0.0,0.0,0.0
-0.030408095269434925,0.058768624993331846,0.7566118253901297,-0.013534535438713103,-0.4528587878039081,-0.004531219390155162,0.8914680043109071,0.12347200441823289,-0.9431172653276173,0.8076985171975154,-0.12958854206383968,-0.765432542847252,0.586952011825114,-0.17209219175748208,0.5729475855968708,0.6463544446129778,0.15493666965460484,0.4432369788025809,0.8606977517825343,0.0,0.0,0.0,0.0
-0.034431158728400996,0.06040967888793313,0.7548833801471597,-0.009003062780062803,-0.44386062778590074,-0.007319198500927591,0.896020712537042,0.1271177384174813,-0.9679439841626511,0.8097614683872,-0.13148537812901676,-0.8096756292120773,0.6028950692234417,-0.19146193022170982,0.5535997660268521,0.6151662035047356,0.17413183696733028,0.43335516930149637,0.7920203297152566,0.0,0.0,0.0,0.0
-0.03433672860127363,0.060577187614931916,0.7543434113863278,-0.008571650581635303,-0.4439286899643785,-0.007484776399101481,0.8959898566139421,0.12742069532900963,-0.9683048382862973,0.8096697788301491,-0.1316732187040487,-0.8106453967822853,0.6019623454141837,-0.1922709484297696,0.5540271362839682,0.615057936163172,0.17560027360017974,0.4334232721477715,0.7921081820505054,0.0,0.0,0.0,0.0
-0.03433672860127363,0.060577187614931916,0.7543434113863278,-0.008571650581635303,-0.4439286899643785,-0.007484776399101481,0.8959898566139421,0.12742069532900963,-0.9683048382862973,0.8096697788301491,-0.1316732187040487,-0.8106453967822853,0.6019623454141837,-0.1922709484297696,0.5540271362839682,0.615057936163172,0.17560027360017974,0.4334232721477715,0.7921081820505054,0.0,0.0,0.0,0.0
-0.0344777636315119,0.06028103728713014,0.7544420908403464,-0.008180281547681842,-0.4454257852753694,-0.007199212380789819,0.8952525476907158,0.1267100505551186,-0.9573400011414873,0.7979082477310692,-0.1313603046095499,-0.8002798764427659,0.5903412315787341,-0.19205199894535593,0.5577491471918828,0.6162489287800912,0.17713998451903806,0.43496310326485593,0.799027827028082,0.0,0.0,0.0,0.0
-0.03469772605143544,0.05986070946250363,0.7545847419972914,-0.0076771759219922955,-0.44655065971903846,-0.006899065423512889,0.8946988164576035,0.1262058491726282,-0.9474046677547602,0.7864533246637897,-0.131029371974578,-0.7925963901975581,0.5816902972034362,-0.1918570018317197,0.5606950510314198,0.6162318793826396,0.17847131765930796,0.436188503749698,0.8039372916954003,0.0,0.0,0.0,0.0
-0.034928827489013076,0.0593828668551467,0.7547248394420623,-0.007124111199851531,-0.44739983793550836,-0.006606874316215833,0.8942812651882308,0.12587987931970707,-0.938688618058531,0.7759168477978897,-0.1306992973371466,-0.7871676397802717,0.5756696091730701,-0.1916537584188274,0.5630559998916963,0.6155386709845876,0.1796042035356059,0.4370378054064485,0.8077403132521485,0.0,0.0,0.0,0.0
-0.03516845165417642,0.05882506106098548,0.7548363548963011,-0.0064760012778821595,-0.44804605929783925,-0.006306321405522613,0.8939647758527492,0.1257145384835488,-0.9307272780712216,0.765786517642504,-0.13036136212001295,-0.7837459901606961,0.5720295273599764,-0.19142825976242753,0.5649648757321588,0.6143193665763392,0.18055818375622637,0.4373683559858342,0.8111901932620204,0.0,0.0,0.0,0.0
-0.035429989503911005,0.05813482574560863,0.7548976107059779,-0.005654541949393673,-0.4485364496476115,-0.0059693377733075455,0.8937267180181011,0.1257032761817637,-0.9229575422990748,0.7552889081047156,-0.13000351655729112,-0.7823083806629405,0.5707630386768956,-0.19117587790068188,0.5664723282420178,0.6126313005249451,0.18135542969015878,0.4369920684089832,0.8149366696268778,0.0,0.0,0.0,0.0
-0.03572174937031197,0.057257095886783946,0.7548926531204453,-0.004581755068552874,-0.4489002999776592,-0.005567576508981791,0.893552757419659,0.125843692511046,-0.914906926963548,0.7437478073423716,-0.12961755499308186,-0.7829774764390043,0.5720700449837203,-0.19089818344544646,0.5676176235762357,0.6104705204275758,0.18202019931620292,0.43575788252661024,0.8194784152181815,0.0,0.0,0.0,0.0
-0.03604687407677204,0.056132273672352954,0.7548060147915185,-0.003175108838901058,-0.44915319093488615,-0.005070977012940987,0.8934347289808053,0.12613730096058468,-0.9061685636265777,0.7305483656479265,-0.12919866521053758,-0.7860154669990891,0.5763390873449805,-0.19059955133467998,0.5684270867728123,0.6077920646644634,0.18257566089265795,0.43351751303831254,0.8252509396452655,0.0,0.0,0.0,0.0
-0.0364199801663147,0.05478049660909312,0.7546437312750711,-0.0014589983978278269,-0.44929385022337665,-0.0044857709824575355,0.8933715830122547,0.12655828959072904,-0.896675918029365,0.7155423559360142,-0.12874705339648734,-0.7911093980068128,0.5830445801363732,-0.19026497193858594,0.5689225666239303,0.6045007338902151,0.18300919571889232,0.4303253545990385,0.8320568046730018,0.0,0.0,0.0,0.0
-0.03680316119014855,0.05370567928996297,0.7545115530185529,-0.00010751009083203744,-0.44929582958248016,-0.004035603499670752,0.8933739194009218,0.1269474376499442,-0.8890581756291996,0.7028802644339132,-0.12833583457787617,-0.7951849955136062,0.587795458707481,-0.18985418496929862,0.5691276319850052,0.6011580855462939,0.1832228561789119,0.4275083901508426,0.8368375886018804,0.0,0.0,0.0,0.0
-0.03722054745768678,0.05293823735627069,0.7544278328407309,0.0008401447346448918,-0.4491627005062133,-0.003732139847685884,0.8934417909203419,0.127292249365507,-0.8833635690348096,0.6926750037828149,-0.12797224460672496,-0.7978579999114883,0.5900156578562167,-0.18934642774107732,0.5690911945524876,0.5976276646098737,0.18318584208201077,0.42513454625164315,0.8393446339829995,0.0,0.0,0.0,0.0
-0.037711963375375246,0.052439411458907105,0.7543889949202144,0.001437837991760616,-0.44888746934921053,-0.003557303797908812,0.8935800568907413,0.12760204407244347,-0.8792643841180728,0.6843332207615058,-0.12765095138974514,-0.7991751376400763,0.5896390403837303,-0.18871691355676398,0.5687853099504604,0.5936952895785726,0.18286842046312385,0.42302971296068026,0.8397194679689577,0.0,0.0,0.0,0.0
-0.03831682799291442,0.052178863411851434,0.7544020611367589,0.0017280225606174278,-0.4484508299121509,-0.0034982294698297175,0.8937989871776033,0.1278859070285959,-0.8764748499516869,0.6773050627259696,-0.1273629640641533,-0.7991507821579293,0.5865357247171072,-0.18793142554931738,0.568264629211939,0.5889323101015629,0.18222819816182778,0.42110214220135056,0.8378673265293134,0.0,0.0,0.0,0.0
-0.039062327362771584,0.05215182360687385,0.7545104053280045,0.0017187482599255622,-0.4478252325819041,-0.003554884830847229,0.8941123921304424,0.12814653797597167,-0.8748398877028172,0.6713475557638965,-0.12709684264469803,-0.7976416099241722,0.5804461832432088,-0.18694609676678278,0.5678810695154506,0.582403822029564,0.18120808139773398,0.41954886444201733,0.8331446806732937,0.0,0.0,0.0,0.0
-0.03985157117096839,0.05242106256685919,0.7548489318310192,0.0013263078447914465,-0.44698331920377893,-0.003758422329560889,0.8945334133069966,0.12838411745352932,-0.8751063690467827,0.6681871925673146,-0.12686379436314915,-0.794681182916094,0.5720173200784162,-0.185747842317328,0.5688857615503784,0.5721630786179024,0.1797843363531576,0.41948933868206284,0.8237289886251685,0.0,0.0,0.0,0.0
-0.04022775490914968,0.0529707866055384,0.7555590421177467,0.0005680622672737853,-0.4458698103197811,-0.004104294015574861,0.8950882327018362,0.12871955893953663,-0.8801530816479124,0.6737018330779266,-0.12676450076666987,-0.7936821868633407,0.5680992582971351,-0.18447331880143925,0.5734236838414647,0.5559206854808865,0.17812580762398683,0.4227176693974377,0.8081364081918921,0.0,0.0,0.0,0.0
-0.0399437147670764,0.05379590723189377,0.7568264938474598,-0.0005505635138435986,-0.44440748364965676,-0.004596362658448189,0.89581279227655,0.12921908168797405,-0.8914013162891286,0.6910413330430706,-0.12683524746471495,-0.7965555031544834,0.5727299183831119,-0.18311936268371684,0.5838645194579815,0.529924835208576,0.1762286756181039,0.43098590790328956,0.7838286922637585,0.0,0.0,0.0,0.0
-0.03883938962050343,0.05463884340113208,0.7575146753089642,-0.0016926936419474866,-0.44256585995507475,-0.005122986978926033,0.8967197719437625,0.13025045099973984,-0.9115964046171936,0.7210107085017387,-0.12729342115321415,-0.8099941590609361,0.5931235245770247,-0.18216316801665708,0.5911159750729305,0.5109276569899618,0.1746402976845323,0.4371805067473639,0.7644347469024236,0.0,0.0,0.0,0.0
-0.036183399640539474,0.05536820941992894,0.7581053670346943,-0.002721804636843687,-0.4409422291926071,-0.005637019247078968,0.8975136580064847,0.13177311037377387,-0.9388213909019204,0.7656809750321331,-0.12800413801147753,-0.8337064095353036,0.6339683343309027,-0.18224450568769285,0.6002999137505713,0.4964022684987517,0.17403337654884002,0.4458108478893282,0.7489948739321234,0.0,0.0,0.0,0.0
-0.030201369201494667,0.05543020897674525,0.7608093002589639,0.003988632341114344,-0.45357937274463866,-0.0073274867282207366,0.8911768350730821,0.12837300170590207,-0.8769105574494622,0.7445655781171346,-0.1252112012302961,-0.8023064743958088,0.6402714754759314,-0.16119487897608858,0.5904734545627907,0.6235990446626528,0.15665692634290648,0.4791237118417323,0.7880235641182294,0.0,0.0,0.0,0.0
-0.023117851053146038,0.05526122467325854,0.762750630153571,0.009859772027043828,-0.46564718755728235,-0.008911939912157826,0.8848706453163478,0.12595435488985418,-0.825079114279185,0.7343275666247373,-0.1231922938763909,-0.7812656644288908,0.6622063720284862,-0.14201237743566672,0.5799253463947737,0.7500632197894153,0.1409362059539658,0.5167432157243231,0.8220587278816792,0.0,0.0,0.0,0.0
-0.015682190941327192,0.05514795414276993,0.7633639100249803,0.014674662323405084,-0.47655708518696666,-0.010404562598809536,0.8789594665972509,0.12441267877678192,-0.7869386371030151,0.7359833489389792,-0.12194506107152114,-0.7698724501905927,0.693047797110502,-0.12476932981848418,0.5681698757839527,0.875897216928074,0.12682717748520422,0.5520286339858695,0.8559263785250546,0.0,0.0,0.0,0.0
-0.008219611802494566,0.055109150359601226,0.7628643092384992,0.018641326217969646,-0.4862924907173526,-0.011776186490313312,0.8735178509111844,0.12355767264993896,-0.7608328934672415,0.7477395644327351,-0.12123197610243902,-0.7660584611602317,0.7290798414931949,-0.10917194397756877,0.5646989104848872,0.9843147453400299,0.11394660364730727,0.5843428670732002,0.8891945336500229,0.0,0.0,0.0,0.0
-0.0013836807735355377,0.05512260662209,0.7620641922898804,0.021799444706678075,-0.49460983388883584,-0.012955652086563895,0.8687450992724797,0.12305209970772564,-0.7422437438325267,0.763073534282668,-0.12083369303398701,-0.7648298887823339,0.7627547404579667,-0.09511757809561593,0.5665958274266114,1.0702193581183228,0.10216964761149815,0.6151647444661201,0.9144567179772926,0.0,0.0,0.0,0.0
0.004412699058688194,0.05540111676828356,0.7614439713592064,0.02391253474064782,-0.5013445185250742,-0.014045092240587689,0.8648032145009015,0.12272598397757706,-0.729513906815799,0.7795306776585555,-0.12062135267758735,-0.7627768832945234,0.7889019407353336,-0.08236306993287101,0.5689723200601804,1.1407882062263317,0.09110392096588264,0.6436369980169179,0.9290422916410466,0.0,0.0,0.0,0.0
0.009116728961791347,0.055961538257072924,0.7610440188923303,0.025071063343771762,-0.5066408364811004,-0.01507613713469563,0.8616607306136443,0.12250409357955204,-0.7213798503245504,0.7958042196312974,-0.1205343030666401,-0.7594507483308146,0.8073307015302855,-0.07074172439004718,0.5711712683003076,1.1981231105698642,0.08061044786808291,0.6680908702088295,0.9359583378133305,0.0,0.0,0.0,0.0
0.012815550393242732,0.056748273634696186,0.7607390489472993,0.0254898582357278,-0.5107345753724443,-0.016055952301191848,0.859210490532997,0.12234896941303292,-0.7168604207327718,0.8111454736853659,-0.12053506871395703,-0.7553381772313359,0.8192685710160809,-0.06010329905932062,0.5738816965681972,1.2405611492019173,0.07063253480032118,0.6875168595216592,0.9388797445750859,0.0,0.0,0.0,0.0
0.015640833299423465,0.057690587490234126,0.7603928856500899,0.025392788155738668,-0.513842874798831,-0.016983805908851988,0.8573402222367741,0.12224238267156769,-0.715267509192154,0.8252440819307777,-0.12060063991634093,-0.7511382073224419,0.8262311308731813,-0.05031093646863261,0.5790739104015465,1.2619792006500514,0.06113708010586805,0.7016234279110701,0.9405655879975426,0.0,0.0,0.0,0.0
0.017755270647226786,0.05871732367139152,0.7599289136815235,0.02497852807555247,-0.5161442209940176,-0.017855739363704656,0.8559511603131531,0.12218073929709634,-0.7161154546157413,0.8382054358541786,-0.12071924714424448,-0.7475527256276725,0.8298776887535383,-0.04123903215251419,0.5912219659838928,1.2519639373971307,0.05209473422598669,0.7107712504064062,0.9425343276553055,0.0,0.0,0.0,0.0
0.019230700153840433,0.059803813719798,0.7590989682692149,0.02437670633394888,-0.5178458278875118,-0.018680365829083147,0.8549225220219068,0.12215346132950745,-0.7190774453759329,0.8496481904311133,-0.1208821954535722,-0.7449337017882465,0.8306579461098025,-0.032756551485159005,0.6058615993066586,1.2229246844461463,0.043461113524479206,0.7144295319976997,0.9477502966562468,0.0,0.0,0.0,0.0
0.020159477046226122,0.06091476613042982,0.7577309274764639,0.02370446551795469,-0.5191190751370814,-0.01945690677396451,0.8541515749105182,0.12215979398033051,-0.7238879938808004,0.8594327369678769,-0.1210856724403294,-0.7436564567943649,0.8292604230506179,-0.024741755423540873,0.6216180275130689,1.1831413887236983,0.03519063011470437,0.7125162699714369,0.9581692988672365,0.0,0.0,0.0,0.0
0.020634537345597448,0.06200024264292942,0.7557198396702385,0.02307823041853272,-0.5200875334724095,-0.020174435173469868,0.853562736401236,0.12220927584289282,-0.7302815596682679,0.8674665383296547,-0.12132780598808729,-0.7441398445572668,0.8265256324780487,-0.017080377326235636,0.6388422388047074,1.137009678167164,0.027229249466337993,0.7052302904656514,0.9748532879955726,0.0,0.0,0.0,0.0
0.020756273542300925,0.06298249962225214,0.7529992488384583,0.022643831104491596,-0.5208496353408422,-0.020807350661876712,0.8530943490825952,0.12232158986277362,-0.7378962084677332,0.8735696027412723,-0.12160699040778833,-0.7469454744276897,0.823575861419387,-0.009663588055861008,0.6590566027743008,1.0860492310675542,0.019521344524232365,0.6929816880713519,0.9983409062286938,0.0,0.0,0.0,0.0
0.020645153319312614,0.06371920996195933,0.7495190140688889,0.02264029707132855,-0.5214847555541556,-0.021300172008576906,0.8526941827792363,0.12253755468815097,-0.7461716030346234,0.8773267227954802,-0.12191848729974328,-0.7531099491608819,0.8222766257388081,-0.0023867991340442377,0.6849655227273349,1.029214991259994,0.012013464665744052,0.6763271752298823,1.0289819810157548,0.0,0.0,0.0,0.0
0.020339129548113264,0.06407935128397431,0.7453474209658192,0.02328201292166556,-0.5219727068093493,-0.021602225177861614,0.8523706852583571,0.12289638698255896,-0.7543743715876319,0.8779529916911297,-0.1222363152721417,-0.763349441881499,0.8238714758859478,0.0048543779374525375,0.719365038864286,0.9623982922575848,0.004594443378365878,0.6559049686803241,1.065802099163705,0.0,0.0,0.0,0.0
0.019997971789748575,0.06403377779777206,0.7414949372897176,0.024545290971084675,-0.5221451624654201,-0.021727381206323428,0.852226424673056,0.12335577801056084,-0.7608678485527732,0.8761494477459253,-0.12249989192394152,-0.7760737804057563,0.8290305071860211,0.012151329710719097,0.7627901217804977,0.8805951704699742,-0.002911165904890836,0.6364899718781123,1.0989712782072694,0.0,0.0,0.0,0.0
0.02001831673973021,0.06404032685468686,0.7413913112966597,0.0245693923469138,-0.5221674466106732,-0.021725896345993475,0.8522121144924873,0.12335668602509575,-0.7609849915852404,0.8760768853590045,-0.12252268431641379,-0.7762202682992625,0.8289207175458947,0.012495757424703713,0.7628854047908632,0.8806740928274079,-0.003230951705455202,0.6365270615823473,1.0989133155073103,0.0,0.0,0.0,0.0
0.02001831673973021,0.06404032685468686,0.7413913112966597,0.0245693923469138,-0.5221674466106732,-0.021725896345993475,0.8522121144924873,0.12335668602509575,-0.7609849915852404,0.8760768853590045,-0.12252268431641379,-0.7762202682992625,0.8289207175458947,0.012495757424703713,0.7628854047908632,0.8806740928274079,-0.003230951705455202,0.6365270615823473,1.0989133155073103,0.0,0.0,0.0,0.0
0.020158844756374684,0.06451271315415225,0.7409426769371896,0.023912821386041425,-0.5233847254049073,-0.0219151893789562,0.8514789079364641,0.12292079115107692,-0.7583545134681013,0.8743481700339356,-0.12251562045760286,-0.7687304888201199,0.820182152645493,0.012539569419890192,0.7635922854459948,0.889484804202604,-0.0037145748663938052,0.6387672227500124,1.102879111061691,0.0,0.0,0.0,0.0
0.02022682373159955,0.06510243165139178,0.7403985775114577,0.02309179442945285,-0.52436469141311,-0.022138503429796532,0.8508926642621563,0.12250641866045221,-0.7576509213807289,0.8742825988708578,-0.1226051047866702,-0.7619262945544999,0.811306395028375,0.01255266820383165,0.7629483286311358,0.8991976060656334,-0.004164886947917836,0.6396489983752224,1.1072091130186383,0.0,0.0,0.0,0.0
0.020119030277741184,0.06568440893988285,0.740027443524358,0.022278846037993034,-0.524990662024013,-0.022344197634135376,0.8505228948352247,0.12209051528363783,-0.7575814195944084,0.8742664502608206,-0.122739486468558,-0.7556925907267424,0.8023906770778043,0.012513454835428458,0.7617916865538725,0.9066081347303259,-0.004533936055690505,0.639675061710074,1.1098178418947038,0.0,0.0,0.0,0.0
0.019740954082864144,0.06627462843732919,0.739861320376272,0.021450798865109876,-0.5252468064921901,-0.022539540275037108,0.8503808703292862,0.12164536364484498,-0.7577416368911428,0.8735182543111901,-0.12289568216723874,-0.7494175290463667,0.7923456744366851,0.012415639988661216,0.7598288439150686,0.9117249648870157,-0.00481882176375996,0.6386322539217312,1.1104721261313444,0.0,0.0,0.0,0.0
0.01902199962189417,0.06691927351964462,0.7398776750314046,0.02054213161556585,-0.5251407582821883,-0.02274426987722417,0.8504633460692171,0.12114801140904594,-0.7580247914844118,0.8716405870264984,-0.12306085021246904,-0.742469410926432,0.7799916754306773,0.012256780938841322,0.7566467686873876,0.9151491065301832,-0.005027645954952074,0.6362381087378542,1.1093144432530715,0.0,0.0,0.0,0.0
0.01791294499051598,0.0676704084051113,0.7400302910118972,0.019480393569103534,-0.5246907782738807,-0.022980574846046372,0.8507596573889052,0.12058139341293861,-0.7584595595345907,0.8684415135604097,-0.12322683545479023,-0.7342743115748219,0.7642250461343298,0.012036926545587953,0.7518526304734695,0.9176460195202905,-0.005172421637977341,0.6322369923651949,1.1066266804637477,0.0,0.0,0.0,0.0
0.016402984129443257,0.0685736237901915,0.7402394855531597,0.018205968357122973,-0.5239404803657501,-0.02326833957228882,0.8512423274977784,0.1199385322316236,-0.7591708486824408,0.8639344372674878,-0.12338950757822761,-0.7244079097022377,0.7442032017110838,0.011761117812951104,0.7451167181053114,0.9202081858109524,-0.005268607868246138,0.626451492832434,1.1029470673398458,0.0,0.0,0.0,0.0
0.014586857232492586,0.06962020872167411,0.7404042246895474,0.016741641748853033,-0.5229960168990366,-0.02360647893973724,0.8518436581271022,0.11923610636487528,-0.7602276595389783,0.8584408737276759,-0.12354901491696504,-0.7129758059313768,0.7202306999834276,0.011446494387327253,0.7365755642562818,0.9237360117038155,-0.0053322369304979545,0.6191240550148478,1.0991045464003677,0.0,0.0,0.0,0.0
0.012993593391253224,0.07045099867206019,0.7406476927492661,0.015609605474165952,-0.522092790257573,-0.023859205836540838,0.8524119877587669,0.11860898090797076,-0.7607417732785122,0.8531370373270314,-0.12370405556366318,-0.7031538116587464,0.6994426255174834,0.011146051167890159,0.7295419220430612,0.9251858768222733,-0.00535943011156203,0.6130683859028893,1.094785160497032,0.0,0.0,0.0,0.0
0.011786772762522093,0.07108445333510918,0.7408796381295528,0.014769728587771588,-0.5213775912533488,-0.0240388103218831,0.852859541808971,0.11808118011957024,-0.761121540450508,0.8491563979164813,-0.12387205287936084,-0.6954376622821148,0.6832316946655712,0.010893397924596575,0.7244148446107611,0.9256566061628402,-0.005393082936126076,0.6087311990185418,1.0908900677400772,0.0,0.0,0.0,0.0
0.010938545492639548,0.07154814397345237,0.7410545124269919,0.014175693110594615,-0.5208805598958406,-0.024156911020262066,0.8531699336576442,0.11764309369886453,-0.7613767225400807,0.8463784071464197,-0.12404692045758968,-0.6896741914150826,0.6713180783978617,0.010691161172971054,0.7208855574355203,0.9258906729968398,-0.005442686881875015,0.6058278749030123,1.0879356313769952,0.0,0.0,0.0,0.0
0.010366118885855376,0.07188264755194344,0.7411971051549627,0.013763073059693745,-0.520573318629313,-0.024229767664857512,0.8533621248392292,0.11727031689096812,-0.7614015945334749,0.8444255431830507,-0.12421732628522666,-0.6853158674209872,0.6626978611177183,0.010530031451530265,0.7186785286551568,0.925926124204906,-0.005506259972241776,0.6040972529181174,1.0856989104730745,0.0,0.0,0.0,0.0
0.009944012684998848,0.07215755918934788,0.741384169645136,0.013424918236654447,-0.5203961991678324,-0.02428554029391738,0.8534739480468314,0.11692033502093735,-0.761021044531552,0.8427755544147189,-0.1243663472791715,-0.6812939296082582,0.65550066806149,0.010392671102719244,0.7175557566817584,0.9253808316144767,-0.005578243806135749,0.6033435536356817,1.0833612708674147,0.0,0.0,0.0,0.0
0.00956191479273086,0.07240470246287486,0.741686076471206,0.013113831496591047,-0.5202955520568519,-0.024336082176040656,0.853538705061262,0.11656000542160873,-0.7599208610575561,0.8407461873864311,-0.12447627714240352,-0.676797883531678,0.6482635916714231,0.010265725889883325,0.7173600307632039,0.9237413003679047,-0.005649331588026071,0.6034180824805614,1.0802302354066138,0.0,0.0,0.0,0.0
0.009103819820667328,0.07272010261307016,0.7421212599347164,0.012688481094373786,-0.5202502832091168,-0.02442051465539418,0.8535703156344632,0.11614294499213976,-0.7580343925238717,0.8379155295597548,-0.12453071835635206,-0.6704982221409169,0.6386258341240905,0.010133555549692076,0.7176811304571374,0.9213257118798386,-0.005722686112807206,0.6040403444627507,1.0759281404792704,0.0,0.0,0.0,0.0
0.00830539679794568,0.07338616157275776,0.7424288458028697,0.011750713505546344,-0.5202790930279737,-0.02465140561849386,0.8535595434948473,0.11558142593666863,-0.7560304733514843,0.8337607569390523,-0.12451361911206058,-0.6595050651864288,0.6206259225204778,0.00996587472015627,0.7161520482222565,0.9221773639611919,-0.005824026160937867,0.6033997507757928,1.0721593853898295,0.0,0.0,0.0,0.0
0.0069351858449437365,0.07479399079266982,0.742579709463541,0.009723221433244732,-0.5204565019070063,-0.025191744460098753,0.853461109013609,0.11472374191556148,-0.7542146060041781,0.8281647973684672,-0.1243749401104216,-0.63879056639867,0.5858524998786103,0.009713570705279301,0.7117183471330469,0.9286442355577049,-0.005977599790457531,0.6010413326331239,1.0683703527561914,0.0,0.0,0.0,0.0
0.004725272357082592,0.07751516042944563,0.7434209982252978,0.005707902541711631,-0.521456644775648,-0.026288715771446026,0.8528536163322438,0.11305631208940972,-0.7472269222970417,0.8169288210952287,-0.12379263182638635,-0.592863166408371,0.5135675227550315,0.009308106711229221,0.709102468118842,0.9365373168015149,-0.006190538473659378,0.6021916316090103,1.0569661486832487,0.0,0.0,0.0,0.0
0.002564161077819566,0.07976746763740147,0.743865947393245,0.006290574014001808,-0.5210914586877525,-0.023406511292032375,0.8531566418837637,0.09909801291915289,-0.7480638354246665,0.8096597596524376,-0.1091985858029825,-0.6833889740936913,0.6394098757900905,0.009509349400909313,0.6973837034218984,0.9400192777041619,-0.0063860099396099565,0.6014937061749938,1.0499080881116576,0.0,0.0,0.0,0.0
0.00041902834290063985,0.08266271603924852,0.7442482795586556,0.005604733781198232,-0.5207464232934161,-0.021061856942842568,0.8534331536614191,0.0859477215492434,-0.7515604615165583,0.8063542862609893,-0.09573736784868475,-0.7567176698909803,0.7093905145062417,0.00953746257734289,0.6854159993032553,0.9466005950885676,-0.006543764127766836,0.6008402629347853,1.041078532297825,0.0,0.0,0.0,0.0
-0.0016773053253426873,0.08578572583536508,0.7443754248223595,0.004181955551628021,-0.5207974592854823,-0.019199696702852403,0.8534540932563797,0.07401130357657039,-0.7541591611311879,0.8024836224701036,-0.08363148484657881,-0.816594103274224,0.7447660091215221,0.009474703736059482,0.6737442928969068,0.9572714624807857,-0.006724845864417558,0.6001317603427677,1.0340192000924304,0.0,0.0,0.0,0.0
-0.00346607447804755,0.08878510664053234,0.7444557772641491,0.0026083501744441,-0.5210325696364349,-0.01760875205294374,0.853351152655552,0.06322499767499823,-0.7563416351727462,0.7995026027582665,-0.07270411325269707,-0.8662524838183894,0.7599693383575143,0.009373367696060552,0.663845837957622,0.9679366702493462,-0.00690333676813146,0.600359365695692,1.0274704360660252,0.0,0.0,0.0,0.0
-0.0049030270099900165,0.09146352130021648,0.7445484196772784,0.001231883084256053,-0.5213280524746936,-0.016151989125433128,0.8532025887292547,0.05348108954123735,-0.7581913295655072,0.7974643548823774,-0.06278037159166211,-0.9080738523247183,0.7632651258245726,0.009268206245452552,0.6558891008654074,0.9770380956361738,-0.007064438971994091,0.6014865361546519,1.021371331052645,0.0,0.0,0.0,0.0
-0.006009292864644617,0.09379957346415194,0.74465371832604,0.00012822717809310417,-0.5216131004570799,-0.014777981038505746,0.8530541414621752,0.044647106926498176,-0.7601049734418238,0.7966535831631295,-0.0537063156868597,-0.9431137978246927,0.7595612459411489,0.0091728365140965,0.6495479261374711,0.9844469979162694,-0.007209953689672244,0.6032456121343475,1.0157583810291848,0.0,0.0,0.0,0.0
-0.0068524536409698845,0.09581766123210549,0.7447274608595706,-0.000701549415276236,-0.5218371429399042,-0.013462942507957426,0.8529385987606396,0.03659676343363302,-0.7623893631456509,0.7970188716917106,-0.04534722752286628,-0.9710663312366145,0.752370120157605,0.009090409439078852,0.6441819090046844,0.9906678684935375,-0.007342453554725769,0.6051115050553211,1.0109634494455269,0.0,0.0,0.0,0.0
-0.007523837786555194,0.09758395503734378,0.7447675648414827,-0.0013224114675818353,-0.5219946775330518,-0.012203526817270874,0.8528604116667017,0.02918999772204028,-0.7649399308739957,0.7980999274059134,-0.03757564797432447,-0.9903200060829732,0.7454539332542989,0.009017037868334913,0.6393920387107993,0.9960485165610345,-0.00746243823013372,0.6068507014300538,1.00689130892534,0.0,0.0,0.0,0.0
-0.008165692199200799,0.09920074873935512,0.7448448589584968,-0.0018582978285783315,-0.522064243005579,-0.011017885536874904,0.8528329725699448,0.022297320172348548,-0.7673394467012075,0.7990326271428271,-0.030286583022339834,-0.9981897675140814,0.7435220974254759,0.008934746281680868,0.6349381156265355,1.0003902839281371,-0.007562241091323627,0.6084414087703969,1.002630615524707,0.0,0.0,0.0,0.0
-0.008875504491694018,0.10074549723414082,0.7450231581927002,-0.0023984272126630875,-0.5220855814153148,-0.009914112399169133,0.8528321075103087,0.015804848186869794,-0.7689244498737622,0.7988721059921594,-0.023385287964510136,-0.9931112893110702,0.7515590869530194,0.00883529600855719,0.6308587550550788,1.0035464814486506,-0.007639436112122036,0.6101053455932304,0.9974976739643608,0.0,0.0,0.0,0.0
-0.009604996678571759,0.1021597131163698,0.7452070093267429,-0.0028285528282592713,-0.522002347565011,-0.008839756699748128,0.8528935497041846,0.009650183405229919,-0.7703848681440599,0.7982814595764304,-0.016779175216182537,-0.9770056375875857,0.7653711606785198,0.008732078927451417,0.6266981132416233,1.0059939280222887,-0.007696772497430504,0.6113548701653847,0.9924213591097287,0.0,0.0,0.0,0.0
-0.010243597677109114,0.10336184595296677,0.7452788928499745,-0.003009209962326975,-0.5218172573071143,-0.007738147498619598,0.8530168906329892,0.003784769822632785,-0.7723992422003298,0.7981707094383547,-0.010383416350095511,-0.9530653649197885,0.7813110105696373,0.008648480472907462,0.6222461832434332,1.0084107477198985,-0.0077458092984519855,0.6118692233020215,0.9887355734674126,0.0,0.0,0.0,0.0
-0.010664579663449258,0.10435469352796489,0.7452540709640185,-0.0029272252867879765,-0.521583621887369,-0.006588295887709167,0.8531697082575486,-0.0018778666407289184,-0.7753749986127929,0.7996480123557002,-0.004111054952553888,-0.9237627701663278,0.7970448894036103,0.008596302630073722,0.6180436256010372,1.0106885666112695,-0.007796614140764822,0.6122047206033128,0.9863899077792496,0.0,0.0,0.0,0.0
-0.010777888975653759,0.10518331485848187,0.7451867952997271,-0.0026319391430200314,-0.5213412255196401,-0.005390399349656722,0.8533272192218402,-0.007426848327165842,-0.7796299039226458,0.8036771325166857,0.002115216638964938,-0.8907362798909062,0.8108662725856189,0.00857416681248625,0.6146483044351561,1.0125313267023268,-0.00785452333804502,0.6130138566209068,0.9848052356712774,0.0,0.0,0.0,0.0
-0.010706104588843184,0.10586381530321215,0.7451772142504369,-0.0021214655847125972,-0.5210676173062434,-0.004127767437023509,0.8535027821363871,-0.012948600672353384,-0.7843317506179656,0.8089430730654767,0.008369229636433953,-0.8562261515310823,0.8213692178498245,0.008574508835848265,0.6120971992659554,1.0131256618837874,-0.007904392240382294,0.6144350275908642,0.9830484137200418,0.0,0.0,0.0,0.0
-0.010534796852393238,0.10641059044977527,0.7453315818879569,-0.0013939511464878473,-0.5207472459994148,-0.0027842496409196597,0.8537052246754515,-0.018518075230812007,-0.7887931849404821,0.8144882574796317,0.01471371863794288,-0.8235361356072769,0.8261334348596807,0.008589920330246347,0.6105905046772326,1.01157668218283,-0.007932673445664104,0.6167620144708157,0.9801146740051062,0.0,0.0,0.0,0.0
-0.01040086834699969,0.10674908081858346,0.7456369260640481,-0.00035389740725922243,-0.5203945426534625,-0.00134401615935231,0.8539248142276239,-0.02404193161233206,-0.7918649324290586,0.8182999392381861,0.021086674830791408,-0.8006358551097698,0.8251818361314459,0.00861616996200115,0.609796681114116,1.007858491546157,-0.007931520381376927,0.6195143545774591,0.9764870141430548,0.0,0.0,0.0,0.0
-0.010399340741776382,0.10676739521284451,0.7456350269014067,-0.00031598726055818163,-0.5203943976541855,-0.0012862921119534338,0.8539250063646053,-0.024279030871841287,-0.7918927756233312,0.8182981019387771,0.021527803697768515,-0.8006087773950613,0.8251981416714671,0.00858934185222986,0.6097340350380667,1.0078720443701839,-0.007934598623635531,0.6195866304126911,0.976481921882597,0.0,0.0,0.0,0.0
-0.010399340741776382,0.10676739521284451,0.7456350269014067,-0.00031598726055818163,-0.5203943976541855,-0.0012862921119534338,0.8539250063646053,-0.024279030871841287,-0.7918927756233312,0.8182981019387771,0.021527803697768515,-0.8006087773950613,0.8251981416714671,0.00858934185222986,0.6097340350380667,1.0078720443701839,-0.007934598623635531,0.6195866304126911,0.976481921882597,0.0,0.0,0.0,0.0
-0.010619481076729678,0.10660520289982216,0.7452670675993419,-0.0001189060106913901,-0.5201929490425238,-0.001262545260851333,0.8540478251288197,-0.02407692428755598,-0.7923760297865763,0.81672654342614,0.021754362544396767,-0.8024314492535892,0.8254941267341068,0.00855696515805887,0.6069973192262946,1.0103477385367337,-0.007928782210532238,0.6164599618212786,0.980119554751181,0.0,0.0,0.0,0.0
-0.010872036626116344,0.10642654521655498,0.7449753671317091,0.00010688239048698794,-0.5199848506508554,-0.001227440438220124,0.8541745940144396,-0.023877791776567462,-0.792410109226107,0.814634753601219,0.02197054432533997,-0.8039344839907423,0.8254604578846838,0.008531237501902416,0.6045352489811716,1.0120620585927804,-0.007918228648090676,0.6136090307868926,0.9830995447106605,0.0,0.0,0.0,0.0
-0.011111511436821587,0.1062648207741641,0.7447840677951958,0.00030878576535487166,-0.5197839287952039,-0.0011984795227515293,0.8542968662381989,-0.023685497676560505,-0.7922263204607644,0.8125930503786956,0.022174582131168803,-0.8050798778543728,0.8252785269693556,0.008506173433588853,0.6026043490905929,1.0129304401318455,-0.007906905955408227,0.6113346989268446,0.9850869883452831,0.0,0.0,0.0,0.0
-0.011328998907622668,0.10612151424544986,0.7446551226206276,0.00048381813416607897,-0.5195995324286183,-0.0011771144210174526,0.8544089806536528,-0.02349942032882362,-0.7919435164419047,0.8107061383868358,0.022369161307457388,-0.8059751889337574,0.8250358710371007,0.008481261335013153,0.6010664931444437,1.0133226339448609,-0.0078973698495021,0.6094902139749948,0.9864528034311083,0.0,0.0,0.0,0.0
-0.011523551806422368,0.10599270957999164,0.7445507971861542,0.0006375128767525596,-0.5194383215644204,-0.0011621114566039733,0.8545069181490763,-0.023317598590356148,-0.7916280679106285,0.8089750572870122,0.0225577495859395,-0.8067193492133121,0.8247789974869888,0.008456520513331817,0.5997604679259901,1.013581213270596,-0.007891824456023194,0.6079003332995018,0.9875775806249902,0.0,0.0,0.0,0.0
-0.011684298421575685,0.10588428970862461,0.744455093427999,0.0007604127679137441,-0.5193120039484629,-0.0011571468995578346,0.8545835976301598,-0.023138926566294828,-0.7913437680835712,0.8075057071220683,0.022742030080531855,-0.8073277630252835,0.8245419531449241,0.008431149607088661,0.5986640466042721,1.0138934936262982,-0.007893541818089222,0.6065463050676589,0.9886086762851747,0.0,0.0,0.0,0.0
-0.011687101617114727,0.10588271927382809,0.7444504281309821,0.0007623739562904859,-0.5193106847260249,-0.0011567946347099916,0.8545843980213487,-0.023137239582708406,-0.7913408089433088,0.8074754705612197,0.02274413396124377,-0.8073394825158139,0.8245325270139963,0.008430809998003452,0.5986334440094289,1.013925678999186,-0.00789341604335737,0.6065120522548276,0.9886517185197502,0.0,0.0,0.0,0.0
-0.011687101617114727,0.10588271927382809,0.7444504281309821,0.0007623739562904858,-0.5193106847260249,-0.0011567946347099916,0.8545843980213487,-0.023137239582708406,-0.7913408089433088,0.8074754705612197,0.02274413396124377,-0.8073394825158139,0.8245325270139963,0.008430809998003452,0.5986334440094289,1.013925678999186,-0.00789341604335737,0.6065120522548276,0.9886517185197502,0.0,0.0,0.0,0.0
-0.010932769305552792,0.10598835843972688,0.7450333471345446,0.000603796189785896,-0.5197907307947954,-0.0011992171192813242,0.8542925690232092,-0.023186485192225773,-0.7913178072342301,0.8126285694922647,0.02268640398045095,-0.8064043016947001,0.8283753495768701,0.008497409294582738,0.6046651093400177,1.009702172263264,-0.007929933649522459,0.6127496115348118,0.9836034583089924,0.0,0.0,0.0,0.0
-0.00979065162198689,0.10596653434592974,0.7454103090860983,0.0006218367999003172,-0.5203039393491694,-0.001186500473519975,0.8539801029493348,-0.023207105749620822,-0.7934384082624778,0.8213653233578908,0.022707829816536587,-0.8085907460909691,0.8371901115384281,0.00866594675611075,0.6109687686796624,1.0066491152290946,-0.007925698265911569,0.619041606800283,0.9807178259062965,0.0,0.0,0.0,0.0
-0.008696984249191856,0.10586103539450832,0.7455749974484467,0.0007637113796345826,-0.5207623471573815,-0.0011423560616922082,0.853700585422484,-0.02318961084284316,-0.7958651900506576,0.8295894597779332,0.022782046628095815,-0.8117729101982524,0.8464636729039531,0.00882331675832623,0.6160721964290399,1.0050506971388191,-0.007940243461138852,0.623960336379105,0.9799301202539531,0.0,0.0,0.0,0.0
-0.007757869755627811,0.10573736504836916,0.7456017977980134,0.0009345058322583601,-0.521131056081475,-0.0010972799020528578,0.8534754507676671,-0.023146213612140854,-0.7982699754694389,0.8366821301230043,0.022884387190341266,-0.81509760605691,0.8548191834752353,0.008931285672067383,0.6198965875203121,1.004500696980119,-0.00798668611362315,0.6275368231404297,0.9803244660146787,0.0,0.0,0.0,0.0
-0.00698830555856475,0.1056092596501907,0.7455185638254965,0.0011133469936439504,-0.5213863496068092,-0.0010587038444423824,0.8533193505647975,-0.023076941135624408,-0.8007134846969386,0.842717617764899,0.023013988849235154,-0.818519121701867,0.8621765954776568,0.00897555089065808,0.6224560828255976,1.0047861819114021,-0.00806971608357888,0.6298053203935599,0.9815745667380892,0.0,0.0,0.0,0.0
-0.00636441214141153,0.10545422203661438,0.7453125473382882,0.001332767824701185,-0.5215080296494953,-0.0010181442711740935,0.853244725810403,-0.022971982587314595,-0.8034227442202065,0.8479952953929953,0.023186599800568093,-0.8224453345725838,0.869088084583227,0.008952867943990939,0.6237158559941415,1.005900887117974,-0.008191930242431231,0.6306894766572426,0.9838367104371889,0.0,0.0,0.0,0.0
-0.005859342892123979,0.10524079558929957,0.7449453610148914,0.001638703349864072,-0.5214635174428867,-0.0009643409458393088,0.8532714601309266,-0.02281585209922393,-0.8067494165907081,0.8528853732032965,0.023427322534374528,-0.8274770585384658,0.8762654440571619,0.0088569740653428,0.6235072364421436,1.007999516834913,-0.008359241639305057,0.6299615450882173,0.9874929745100091,0.0,0.0,0.0,0.0
-0.005471305458573553,0.10497099491368664,0.7443863365345609,0.0020266576243027105,-0.5211978960917809,-0.0009027852144584476,0.8534329679284902,-0.022597011172108557,-0.8111433666185391,0.8577906748944938,0.023756389230062493,-0.8340455862871268,0.8840638425322549,0.008666778493882197,0.6215552970514988,1.0112504880830613,-0.00858369699852168,0.6273360411955344,0.9926841185727847,0.0,0.0,0.0,0.0
-0.005231160443883249,0.10475539209164002,0.7436946956506457,0.00232749868277418,-0.5206518785023309,-0.0008882115381599578,0.8537654333844509,-0.022332297692943103,-0.8170499635375179,0.8632781554508558,0.02415448967806502,-0.8417140061729231,0.8917827676405414,0.008346285640066127,0.6178418127262163,1.0154122277768207,-0.008878326173197141,0.6229516581378459,0.9983360111989853,0.0,0.0,0.0,0.0
-0.005142737219389779,0.10494475896880742,0.7432478856116299,0.0020205974883329867,-0.5200733577375927,-0.0010507097265397903,0.8541185607200014,-0.02219880670774066,-0.8231653079379888,0.8692875216397953,0.02438176863343274,-0.8463758760652106,0.8954997911709257,0.00797470495721544,0.6145035939869875,1.0188625646410876,-0.009170549008290917,0.61957238005161,1.000306902964238,0.0,0.0,0.0,0.0
-0.004775797495297309,0.10605868152446851,0.7437724483850426,0.0020400930186390085,-0.5212574146197153,0.00020046868276239318,0.8533970386266598,-0.015777005962073102,-0.836625903744253,0.8586018176658543,0.01792850097437703,-0.8354440722061638,0.8869745140432651,0.008201080644388424,0.6185496946096897,1.0190123776309614,-0.009156224103333938,0.6286417902915159,0.9953092527911861,0.0,0.0,0.0,0.0
-0.004331514042107453,0.10756612920074701,0.7443902885524875,0.0014875425161493306,-0.5222981103678818,0.0012890772670338287,0.8527606987914031,-0.009431337325925682,-0.8629557078461625,0.847279704988396,0.011369730566666285,-0.8238178177302181,0.8775106993935824,0.008376502527559868,0.6226569797648696,1.0193094765873418,-0.009134404146006435,0.6384048268392035,0.9875597799408327,0.0,0.0,0.0,0.0
-0.003821668564725531,0.1090710588729429,0.7448449025100196,0.0008880772742568532,-0.5230839123322629,0.002312137405236677,0.8522775874083207,-0.0032717552009743764,-0.8939097427392813,0.8331418754929752,0.005117553263776322,-0.8144601797353881,0.8701122525316378,0.008467976047868177,0.6256476304372601,1.0204625193513643,-0.009151814175192114,0.6468998724320087,0.980523295461421,0.0,0.0,0.0,0.0
-0.0032075048310899927,0.11047222811820318,0.7450901778227117,0.00039646872545430305,-0.5236723524643047,0.0033219697156000125,0.8519131848928384,0.002761201530694735,-0.9258653408990067,0.8174440834921115,-0.000855116785254093,-0.8078364286956924,0.8656213144206211,0.008512047714309185,0.6276069956371776,1.0226270197974214,-0.009195141808166177,0.6540646725787207,0.9751510865793516,0.0,0.0,0.0,0.0
-0.0024733352617662963,0.1117897780127464,0.7451609284631336,-2.6910889829864635e-06,-0.5241118632873347,0.004328549747840895,0.8516384317369177,0.008736427530580269,-0.9568140929457576,0.8008443243949596,-0.006649271023527377,-0.8035861315583654,0.8638615996711085,0.008531436790382364,0.6288321249201753,1.0256412822623688,-0.009251610627704545,0.6602592239845508,0.9711967660388651,0.0,0.0,0.0,0.0
-0.0016049839867028092,0.11307970862526977,0.7451045671067044,-0.0003750298425429639,-0.5244271077919864,0.005328397289725391,0.8514385921179943,0.014724022197304546,-0.984937703230637,0.7837418649264463,-0.012373054368084222,-0.8012651821678579,0.864483524926216,0.008537066021091768,0.6295968902807302,1.0292951540472866,-0.009311580000818477,0.6658847635806233,0.9680860432551596,0.0,0.0,0.0,0.0
-0.0005815313960017433,0.11439904447815914,0.7449473612996126,-0.0007878842787779014,-0.5246148411826792,0.006316500280213882,0.8513158928819816,0.02080056815478656,-1.007728500922723,0.7668268992510845,-0.018125059588491713,-0.8006711832566004,0.8673440989364409,0.008531477692034835,0.6300284417833185,1.0335009935797126,-0.009368989713704326,0.6711932862387067,0.9653509034633369,0.0,0.0,0.0,0.0
0.0004487408668896874,0.11588116700297584,0.7447068174870073,-0.0014115344838274801,-0.5246693197157415,0.007266570114122115,0.8512739332777661,0.02705058693623073,-1.0224843196081517,0.7523162567436643,-0.024066429083332074,-0.8003883991402573,0.8700916621249463,0.008481812879429382,0.6296608723425113,1.0386333367295482,-0.009427418603209772,0.6759673256792088,0.9624589119348081,0.0,0.0,0.0,0.0
0.0013911401437560757,0.11749685899352394,0.7445037227236767,-0.0021704934503621455,-0.5246469620810454,0.008222218768020274,0.8512774220287079,0.03354695617027887,-1.026659808754378,0.7444121547069065,-0.030284650617630495,-0.7992917595451267,0.8714167833847394,0.008377388586652719,0.6289285041234028,1.0436877923356769,-0.00948785087801365,0.6806802523255288,0.9586178300178481,0.0,0.0,0.0,0.0
0.002195624165144689,0.11921601196372712,0.7444309717245313,-0.002977920414641685,-0.5246512328935636,0.009237864823109237,0.8512619324666043,0.04036995455941733,-1.0187723815886507,0.7473576489790774,-0.03688634077083018,-0.7963218424005718,0.870270877889426,0.008235929306078586,0.6283595882714125,1.047973006246598,-0.009538271249891641,0.6859357096990533,0.9533616014828492,0.0,0.0,0.0,0.0
0.0029428154459585883,0.12111689025462731,0.7444996313082413,-0.003925985979464159,-0.5246619331025397,0.010305840227102262,0.8512392332619595,0.04760950942525871,-0.9996851873145144,0.7562014250030559,-0.04396992643615832,-0.7916363246956275,0.867089349817378,0.00806309168448457,0.6281146714022197,1.0515253767295412,-0.009565298173057275,0.6920839794561422,0.9461633124199744,0.0,0.0,0.0,0.0
0.003770760019954963,0.12328212668717985,0.744719470222808,-0.005107056906672047,-0.5246954898917635,0.011424886175584835,0.8511979986071803,0.055369676875796775,-0.9711930243116542,0.7660944538294243,-0.051663786714944294,-0.7854189941718943,0.8625974679352612,0.007888987807999877,0.6286173692136381,1.0543960581536045,-0.009538894800690898,0.6997694182243414,0.9364818905678499,0.0,0.0,0.0,0.0
0.0046036123052776625,0.1258010451960303,0.7450974057902343,-0.006609656595568041,-0.5248170430993317,0.012603388572872694,0.8510960805388802,0.06374566096680609,-0.9357243842305991,0.7738035057656252,-0.060117723890959665,-0.7763725231086288,0.8549613485763263,0.007710375622336508,0.6297765898545978,1.0569427679021404,-0.009439802078602037,0.7091528736267438,0.9240478457784624,0.0,0.0,0.0,0.0
0.005502937327419547,0.1284861199650308,0.7455203701937758,-0.008098821548179539,-0.5251988078801265,0.013976280520555783,0.8508262365921936,0.07287266511387033,-0.8954131043555819,0.7776543623143672,-0.06941220599633169,-0.7648881117693418,0.8450098224006555,0.0076109452653017684,0.6317699121416205,1.0597540164344088,-0.009235307297741998,0.7202364946430644,0.9109273778010172,0.0,0.0,0.0,0.0
0.006428317510640413,0.13094929798281943,0.7456585218542748,-0.008970901909245325,-0.5260323668863475,0.015732808956864183,0.850271692242667,0.08286707559574781,-0.8513173642292974,0.7747620401833035,-0.0794920678526262,-0.7523827003223496,0.834125931401769,0.007689755023793747,0.6336456667766752,1.0648587667955078,-0.008932694677662239,0.7313434412278017,0.9023724592989015,0.0,0.0,0.0,0.0
0.007331178000357181,0.1328030339909549,0.745383812753062,-0.00867439922323202,-0.527241561785541,0.01799034885526528,0.8494806870506977,0.09379640662981217,-0.8018308183691388,0.7562553698736261,-0.0901375233825107,-0.7413992969794813,0.8251789447340337,0.007937021780625044,0.6347034069765173,1.0721130905741256,-0.008605056337810614,0.7409524211794705,0.9012607696137231,0.0,0.0,0.0,0.0
0.007916446738184568,0.1336841221479408,0.7448055894862453,-0.006760262815434268,-0.5284186139718847,0.020761769993035657,0.8487031378293912,0.10557600876613472,-0.7466295123205859,0.7065313228549345,-0.1008866235469318,-0.7344769420183773,0.8202028821310986,0.008125520296709415,0.6337310454275148,1.079155160367267,-0.008398001054767075,0.7471719588197933,0.9074514622085407,0.0,0.0,0.0,0.0
0.0079981635661921,0.1338244412624444,0.744756382492794,-0.006788582572021708,-0.5283572942471031,0.02086948424244,0.8487384458064791,0.10640541211282291,-0.7463993065624782,0.7065499281156241,-0.10149067813187013,-0.7345584615407101,0.8203095940840287,0.008065417401055952,0.6334271580425281,1.079622621756249,-0.008323887720413816,0.7474686151064673,0.9070770673262012,0.0,0.0,0.0,0.0
0.0079981635661921,0.1338244412624444,0.744756382492794,-0.006788582572021708,-0.5283572942471031,0.02086948424244,0.8487384458064791,0.10640541211282291,-0.7463993065624782,0.7065499281156241,-0.10149067813187013,-0.7345584615407101,0.8203095940840287,0.008065417401055952,0.6334271580425281,1.079622621756249,-0.008323887720413816,0.7474686151064673,0.9070770673262012,0.0,0.0,0.0,0.0
0.00833142578121825,0.13397056460958517,0.7443176847488285,-0.007007422753288736,-0.5277756704021992,0.02078246740488424,0.8491005987551951,0.1066737214287249,-0.7543659470136848,0.7162676807856337,-0.10171404512201974,-0.7405261054909289,0.8269828674800442,0.007739913572394738,0.6309167171675822,1.0824055489154896,-0.008579844100851854,0.7448488360698562,0.9090231253928456,0.0,0.0,0.0,0.0
0.008780015260874205,0.1341417282773462,0.743903861694151,-0.007245372363112816,-0.5274642507195151,0.02071120460910891,0.8492938330141458,0.10682518740175814,-0.7613078718504548,0.725518350200789,-0.10198939727491571,-0.7452489897976495,0.8329477622965171,0.0075395785892759665,0.6295662449561324,1.085400349621548,-0.008768845157142368,0.7434586595027619,0.9111047881792363,0.0,0.0,0.0,0.0
0.0092960873849317,0.13440242745099515,0.7435520760800933,-0.007602629067035332,-0.5273411588352093,0.020624659443312574,0.8493692516523395,0.10685252530135515,-0.7677573773126768,0.7348795318524882,-0.10231762442643867,-0.7485383233601831,0.8377165853201552,0.007417748892366587,0.6291642024527608,1.0883752544416065,-0.008904116544994867,0.7432011667012606,0.9125473049638371,0.0,0.0,0.0,0.0
0.009872251742353302,0.1347932159806911,0.7432713272273684,-0.008143001339730225,-0.5273574993131454,0.020503393447043182,0.8493570334697433,0.10675664415589432,-0.7741972530963357,0.7449436604995403,-0.10270638526716538,-0.750427549164244,0.841230662229983,0.0073514179937612025,0.629590972752948,1.091284551636074,-0.008989783919847763,0.7440167466659143,0.9129853652833765,0.0,0.0,0.0,0.0
0.010515341965863404,0.1353592072992789,0.7430742092940444,-0.008937203438008391,-0.5274774893129026,0.020326980508911314,0.8492787755067559,0.10653495324912836,-0.7811056893174174,0.7563680321825252,-0.10316698427894254,-0.7509045445644549,0.8434459831783412,0.0073246674791261086,0.6308199893784451,1.0940723602475169,-0.009023523111486166,0.745944813943392,0.9120153840499143,0.0,0.0,0.0,0.0
0.011245431154453847,0.13615137025308707,0.7429816117104998,-0.010064960385827913,-0.5276707178169289,0.020073016799152008,0.8491521560518938,0.10618243713108748,-0.7889874766485572,0.7699123704886064,-0.1037126388512893,-0.7499297416553234,0.8443517041145228,0.007323866276798094,0.6329164311805262,1.0966216682883827,-0.008996553025720711,0.7491304030166956,0.9091203427197649,0.0,0.0,0.0,0.0
0.0120946626317423,0.13721309549423993,0.7430179922606567,-0.01159488308787772,-0.5279098434775062,0.019722240776142794,0.848992219672537,0.10569666475177358,-0.7983053793949748,0.7863116834652577,-0.1043537252085598,-0.7475215819905744,0.8440683988350859,0.007336063393380892,0.6360130039474636,1.0987499218137946,-0.008893693125796857,0.7537835050659089,0.9037558376852134,0.0,0.0,0.0,0.0
0.013055603895263005,0.1384944171681344,0.7431806370810664,-0.013455011565360645,-0.5281697207510013,0.019292010712540608,0.8488130106615075,0.10510047293560582,-0.8087881876849586,0.8050409977555467,-0.10506701272424686,-0.7440183419878776,0.8429798400799176,0.0073457014701916274,0.640039908717848,1.1002799314442193,-0.008709482958432026,0.7597733827907587,0.8960618643992472,0.0,0.0,0.0,0.0
0.013945020761091128,0.13956112597341777,0.7432506938470155,-0.014997194322840478,-0.5284729350203424,0.018950265270416874,0.8486061091929569,0.10453775551875323,-0.817440437232865,0.8206599823104073,-0.10570885615222815,-0.7411836777057056,0.8424715899362761,0.007370199443353337,0.6436690706219376,1.1020694467796432,-0.008512826749717947,0.7650099559848802,0.890261435135185,0.0,0.0,0.0,0.0
0.014774684833549455,0.14036335245191264,0.7432302404685102,-0.016141535753350263,-0.5288431850589302,0.0187193023347244,0.8483595488708491,0.10403345347746822,-0.8240622111292296,0.8330467600643798,-0.10627507952319526,-0.7392184884279976,0.8429313345765962,0.007448245155692774,0.6470043150134124,1.1040068430090064,-0.008321654939526807,0.7695165122998144,0.8866459552786694,0.0,0.0,0.0,0.0
0.015546803705796886,0.14095727930601,0.7431619023411119,-0.016970787341622613,-0.5292657849707624,0.018575976743848994,0.8480829289192773,0.10357772249532525,-0.8290293760690258,0.8428852362316944,-0.10677978948429966,-0.7378287788482263,0.8440378776333209,0.007583499491998468,0.6501687230942426,1.1058780696489352,-0.008138793076456837,0.7735240793202767,0.8845566524539391,0.0,0.0,0.0,0.0
0.016277678089416634,0.14139758564791402,0.7430837541081254,-0.017565369105713234,-0.529731994449395,0.018498536467768535,0.8477813845640849,0.10315628903344054,-0.8327077245288091,0.850857719711723,-0.10723792350550428,-0.7367677138620484,0.8455765430176709,0.0077770425502744715,0.6533304862392174,1.1074907602860948,-0.007957264248660967,0.7773165942195419,0.8833511058899389,0.0,0.0,0.0,0.0
0.016981888618612186,0.14173049885649205,0.7430283460020145,-0.017993131781335357,-0.530237884387575,0.018469099184258552,0.8474567396299413,0.10275285564692815,-0.8353661760961346,0.8574860544563884,-0.10766152095306253,-0.735803602279744,0.8473449694952221,0.008028356855765622,0.6566473438128736,1.108680712177882,-0.007766910958971757,0.7811538973830191,0.8824785985086605,0.0,0.0,0.0,0.0
0.017669093071075278,0.1419974021841039,0.7430293171321407,-0.018314590199275727,-0.5307803198774189,0.01847198158663776,0.84711015441495,0.10234949881929407,-0.8371993300183715,0.8631735238079109,-0.10806005766236154,-0.7346921965740633,0.8491147825172507,0.008334763835261641,0.6602715788773763,1.109265446343674,-0.007556668677740521,0.7852838009524298,0.8814036393974961,0.0,0.0,0.0,0.0
0.01833571506526325,0.1422478099846647,0.743134086147809,-0.01860273090271193,-0.5313456493052753,0.018487678436483343,0.846749044943864,0.10192384401809566,-0.8383871819365007,0.8682829807137221,-0.10844057970958466,-0.7330975168464017,0.8505049859644329,0.008683974174194215,0.6643424572375667,1.1089682991982897,-0.007315064494339046,0.7899623222235499,0.879416106905303,0.0,0.0,0.0,0.0
0.01895179655755845,0.14256379134553884,0.743431599471989,-0.018980221058898752,-0.5318860168345704,0.01848167564199113,0.8464014673722362,0.10144314882885024,-0.8392103034723509,0.8732947246413144,-0.10880790586299259,-0.7304546935182817,0.8507727579973725,0.009037617750071865,0.6689894800851176,1.1072363973207902,-0.007028833404245613,0.7955159320112377,0.8752221808757907,0.0,0.0,0.0,0.0
0.019461551274886264,0.14311332951123798,0.7441525589103152,-0.01969642812495668,-0.5322650028835354,0.018381787253071512,0.8461489982986987,0.10085220361432129,-0.8403368784514414,0.8793911036708661,-0.10916882282997437,-0.7257099597097537,0.848603607900414,0.009297806039562082,0.6745944663407064,1.1024634573512295,-0.006675798258355142,0.8027838497148194,0.8655883543117122,0.0,0.0,0.0,0.0
0.01996250401964711,0.14431646213354604,0.7462709785700253,-0.021330045772081363,-0.5321153762461199,0.018024440269824214,0.8462111882164941,0.10001490911101012,-0.8435472862088746,0.8914700048269001,-0.10956941772751586,-0.7163586345262567,0.8426535977016838,0.00924535719222344,0.6844954686027573,1.0868796755459975,-0.006178155360908304,0.8167766326652244,0.8378328442192193,0.0,0.0,0.0,0.0
0.019808470963280037,0.1452213334864341,0.7496768225458846,-0.021792055495892203,-0.5307154119733197,0.017607351509195148,0.8470869134770558,0.09945264595196789,-0.8434448454684996,0.8987045827255382,-0.10987761473431688,-0.7100595329775209,0.8391826640892353,0.0026910589448488065,0.6961140044873888,1.0585731609660896,0.00033012216248397893,0.7569148281249576,0.9371097389788814,0.0,0.0,0.0,0.0
0.01968572019603686,0.14618519530483717,0.753269553620945,-0.022283260410150715,-0.5293137307472006,0.017162185372949536,0.8479598399341787,0.0988473889410156,-0.8429120855865054,0.9060014413632209,-0.11018724199756294,-0.7029810007288663,0.8351010088011455,-0.003725315696022069,0.7091761638379155,1.0276154068129246,0.006812595134168326,0.710880152134187,1.0141014152213905,0.0,0.0,0.0,0.0
0.019452903089324902,0.1471505823421939,0.7566125198612649,-0.02275633698398552,-0.5278902049694193,0.016697073168571212,0.8488435005182163,0.09824834978397581,-0.8424248144387558,0.9122352334067361,-0.11049926316108512,-0.6961741727551259,0.8301741814518528,-0.010100711433670945,0.7212901326747541,0.9978236887428074,0.013351078718015207,0.675717133699361,1.0764520174762287,0.0,0.0,0.0,0.0
0.01896835404618016,0.14806536382470156,0.7595854722266395,-0.023133792054975014,-0.5263684437439572,0.01622000237927785,0.8497870325078737,0.09768982758424807,-0.8418894211842675,0.9163594713665565,-0.11079284677570565,-0.6901112715701819,0.8241393722191316,-0.01659131845225795,0.7311585970407702,0.9704800431732862,0.020037084133335326,0.6474392940938274,1.1305642675565517,0.0,0.0,0.0,0.0
0.01805516259944968,0.14892271450445585,0.7620734833573215,-0.023397814896273114,-0.5246329830925103,0.01571483455404183,0.8508618097461377,0.09719451889133576,-0.8414669655626473,0.9175215049774441,-0.11105214174675032,-0.6850985858663998,0.816302038498552,-0.02337578640894624,0.7372597442985097,0.9469809016680024,0.02696505268954711,0.6233460519641055,1.1789141250918416,0.0,0.0,0.0,0.0
0.016615392573927294,0.14973162733717227,0.7641422941812055,-0.023525859223049624,-0.5225579421017718,0.01515993078430658,0.8521442997478734,0.09678470183591287,-0.8412172952912325,0.9154733599161446,-0.1112636754593385,-0.6812527748982625,0.8063939832973588,-0.030634704791950983,0.7391768446203021,0.92689709644055,0.03423276613041761,0.6014858924716064,1.2220003568599205,0.0,0.0,0.0,0.0
0.014557224823206477,0.15053200910915784,0.7658737930731312,-0.023526807473896044,-0.519991268885092,0.014515696170465154,0.8537241147923871,0.09648281243475423,-0.8413858190590027,0.9102291497930974,-0.11142082401523042,-0.6786477052795984,0.7940483974238054,-0.03856320410974117,0.7366347571582025,0.9094406186254995,0.04194320930656646,0.5806737855046367,1.2579024441013944,0.0,0.0,0.0,0.0
0.01179504153220434,0.151391262631039,0.7673756084107294,-0.0234286412141961,-0.5167504016674858,0.013723987743026467,0.8557054243767407,0.09631696556125252,-0.8423676685530868,0.9020389128608702,-0.11152120590003224,-0.677337738313003,0.7788388290823833,-0.04737838623838788,0.7295630504473837,0.893310801173912,0.050206011645488186,0.5605870487874284,1.2819230896849876,0.0,0.0,0.0,0.0
0.008261539889529402,0.15240476783500967,0.7687906392930611,-0.023270073983049214,-0.5126231639793588,0.012706133110520514,0.8582042586645632,0.09632559021744647,-0.8447216573989516,0.8914767188366978,-0.11156783216151686,-0.6773934275562072,0.7603803961896839,-0.057318919748132906,0.7182347892377796,0.8765038032777587,0.059139011795045604,0.5424030286195717,1.2858842073226502,0.0,0.0,0.0,0.0
0.0039385205656498196,0.1536825992360782,0.7702914430540602,-0.023074094640107023,-0.507397476599702,0.011369753225238706,0.8613281114699505,0.09656002783928203,-0.8491132833910203,0.8795017836251651,-0.11157354877879701,-0.6789854889554819,0.7385916703601717,-0.0686214078698072,0.7034882011982228,0.8562271307232091,0.0688695545527014,0.5299526306133135,1.2583921618265927,0.0,0.0,0.0,0.0
-0.00125594486820631,0.15526134374300127,0.7718220379579213,-0.022741040960469805,-0.5009476351697391,0.009647294351211455,0.8651249861063899,0.0970919071475448,-0.8557296668485518,0.8657530703211671,-0.1115468695132691,-0.6825816132797948,0.713152402957146,-0.08146426651213737,0.6853048961883039,0.8315503767931594,0.07951897720400834,0.5179525719957747,1.2105945169796466,0.0,0.0,0.0,0.0
-0.007307116375002906,0.15717878315100242,0.7732695255805432,-0.02215603658951155,-0.493215804549579,0.007476010740468478,0.8695926571956344,0.0980021859532138,-0.8649712201649878,0.8504209500237488,-0.11152595620308106,-0.6888836208932735,0.68434434101286,-0.09596441598195321,0.6640442664675005,0.8017361776410363,0.09122852700029997,0.5037178165835694,1.1498931172748,0.0,0.0,0.0,0.0
-0.014065207085821773,0.1593700762018105,0.7743900641785768,-0.02108196408837005,-0.48429677377843683,0.004860511394879759,0.8746362450338737,0.09939514183325204,-0.8770473692543357,0.833749447230007,-0.11158025863648917,-0.699314192961458,0.6539919113217906,-0.11209937577113538,0.6402175484318717,0.7671549583253381,0.10414807338683615,0.4866136867047628,1.081233080725645,0.0,0.0,0.0,0.0
-0.021026737452487558,0.16160102748961136,0.7746133043126946,-0.01918901790287997,-0.4745039281022807,0.0019405826938899908,0.8800420660094815,0.10143263167002484,-0.8933894530279691,0.8181556669125583,-0.11188734766822397,-0.7179563457447106,0.6288834924668263,-0.1295514049890733,0.6134527114187338,0.732372482390787,0.11839829692576391,0.46952654840267316,1.0089362175233962,0.0,0.0,0.0,0.0
-0.02771998979035797,0.1638934549287489,0.7737958881502008,-0.01651393656792551,-0.464061019227559,-0.0012288701438426964,0.8856484348829841,0.10416041899211965,-0.9157134323025498,0.8074926504885903,-0.11259964423592013,-0.7467228746193344,0.6135731619725724,-0.14820342205433615,0.5843618788228356,0.6995923462890083,0.1342200798975763,0.4541989658254532,0.9301662554046444,0.0,0.0,0.0,0.0
-0.03356846997555798,0.16606067009657063,0.7722519975856994,-0.012893462799729137,-0.4534613590756126,-0.004443270966292889,0.8911715950283932,0.107520169019716,-0.9427381432630886,0.8036389217706865,-0.11378113012257592,-0.7859708059954683,0.6127622973995694,-0.16776324624370123,0.5566748704462156,0.6669323745725545,0.15182250345998627,0.4420564676289972,0.8457454137280429,0.0,0.0,0.0,0.0
-0.037573636045178084,0.16753864144217945,0.7704182925613404,-0.008165344803682518,-0.4442589118526552,-0.007138771108488799,0.8958327881534546,0.11103156824598291,-0.968845168252256,0.8062389667597736,-0.11538197569684666,-0.8324902467288333,0.6309683558122585,-0.18707048712383914,0.5363556228388408,0.6361893905890712,0.17103548953806585,0.43492361181462846,0.7726654841547465,0.0,0.0,0.0,0.0
-0.0374657619316734,0.16770082753429383,0.7698812736481865,-0.007727776588286152,-0.4443311072548273,-0.007289214411687901,0.8957996516788568,0.11130279969278044,-0.9692050521913884,0.8061488263278328,-0.1155473730007114,-0.8334499961118942,0.6300268530311725,-0.18785087605631426,0.5368111674765682,0.6360995905526593,0.17249006416658566,0.43498454606419545,0.772740834316099,0.0,0.0,0.0,0.0
-0.0374657619316734,0.16770082753429383,0.7698812736481865,-0.007727776588286152,-0.4443311072548273,-0.007289214411687901,0.8957996516788568,0.11130279969278044,-0.9692050521913884,0.8061488263278328,-0.1155473730007114,-0.8334499961118942,0.6300268530311725,-0.18785087605631426,0.5368111674765682,0.6360995905526593,0.17249006416658566,0.43498454606419545,0.772740834316099,0.0,0.0,0.0,0.0
-0.03755333628410054,0.1674686182106884,0.7700052760979016,-0.007427133584028375,-0.4460038331789779,-0.0070115943012930984,0.8949727683129457,0.11053912767877676,-0.9576956848373167,0.7943203975954612,-0.11529914685555673,-0.8219301288259858,0.6175639653523901,-0.1877206060021314,0.5407732777421963,0.6382497738906096,0.1741960545653064,0.43690489354912937,0.780248972878421,0.0,0.0,0.0,0.0
-0.03769256352592698,0.16710640325071374,0.7701784941356042,-0.007006459725626703,-0.4472647841573248,-0.006721317364633453,0.894348895156526,0.11000336399810257,-0.947583545055555,0.7833046492421376,-0.11503029437913008,-0.8134932277049123,0.6086143241119052,-0.1876140132398899,0.5440586219246494,0.638883130715762,0.17567262519503501,0.43861413009375194,0.7854467276832726,0.0,0.0,0.0,0.0
-0.03784393811133522,0.16666354677607945,0.7703428243091083,-0.00650359216830731,-0.44821794852122615,-0.006432305395828919,0.8938775080287156,0.10966449363445743,-0.9388078588492262,0.7732693154781379,-0.11475055619026062,-0.8076369724159324,0.6026400392419216,-0.18749007219155062,0.5467355284849624,0.63865242594296,0.1769233826889952,0.43986994237278415,0.7894993919408626,0.0,0.0,0.0,0.0
-0.03800618920874297,0.166117916118278,0.7704726093467339,-0.0058740564487899825,-0.4489431988101891,-0.0061270522272751085,0.8935199823920648,0.10950061136015482,-0.9308529287849329,0.7636443000100586,-0.11445171026763994,-0.8040528313355219,0.599323986262209,-0.18733416316450255,0.548934175637678,0.6377476632922698,0.17797221401603613,0.44052015184473775,0.7932134774514807,0.0,0.0,0.0,0.0
-0.03818481200853865,0.16542704242324807,0.7705499062872249,-0.005053267835740109,-0.44949148683970236,-0.005780741770059841,0.8932516167169259,0.10950041359792519,-0.9232183816569961,0.7537883397766715,-0.11412572116105725,-0.8026616582010245,0.5986212571384611,-0.18714285398249805,0.5507319311513594,0.6362444003877044,0.1788465838830429,0.44042313106361547,0.7972004145272548,0.0,0.0,0.0,0.0
-0.03838268256152325,0.16453447122650067,0.7705579723629419,-0.003961364116440148,-0.44989438639515056,-0.005363211874063046,0.893056876488201,0.1096609977036155,-0.9154539264423316,0.7430772942272027,-0.11376673476084745,-0.8036002282258907,0.6007715198423089,-0.18691918414304662,0.5521745305757189,0.6341599609019032,0.1795756337176868,0.43942668592468587,0.802001185870633,0.0,0.0,0.0,0.0
-0.03859641642463003,0.16337894480550968,0.7704784011560102,-0.002513384961666032,-0.4501673364791984,-0.004842583462832639,0.8929275454641682,0.1099845680808714,-0.9072048160314041,0.7309831607252982,-0.11337242675727578,-0.8071702873460439,0.6062274686844318,-0.1866692015828111,0.5532794524203838,0.6314877744186262,0.18018673734322807,0.43736924026448976,0.8081056081797251,0.0,0.0,0.0,0.0
-0.03884511838751643,0.16198611302850596,0.7703151703575984,-0.000740667882771246,-0.4503107697210356,-0.0042274885137739224,0.8928615740556886,0.1104429862366659,-0.8984057343502352,0.7173508076935382,-0.11294303286686251,-0.8129904648728767,0.6143437865871834,-0.18637907459100445,0.5540339532610502,0.6281939106883142,0.18066729612105284,0.43429823786630656,0.8153141529110997,0.0,0.0,0.0,0.0
-0.03913507633978447,0.1608711790328391,0.7701867488350747,0.0006669563170333242,-0.4503179780264702,-0.0037524659844248016,0.8928601194109066,0.1108663846549903,-0.8912578414114586,0.7056836593552394,-0.11253538850515905,-0.8176144342732152,0.6201677936621606,-0.186013983123517,0.5544747851426461,0.6247842637638917,0.18091189435738317,0.43160711213974373,0.8203667799658925,0.0,0.0,0.0,0.0
-0.03949311332961269,0.16007037116877193,0.7701119067058336,0.001661684712398653,-0.450193830777363,-0.003432337332421454,0.8929227136736729,0.11124129044478273,-0.8857874641638096,0.6960492485750158,-0.11215850474601957,-0.8206285889272718,0.6230896599417708,-0.18555347124742042,0.5546375505752821,0.6211527235798455,0.18088855079594912,0.42936800641151396,0.8229944882070832,0.0,0.0,0.0,0.0
-0.039956121547857645,0.15954788635653425,0.77008714513703,0.0022930975008305346,-0.44993069307678213,-0.0032500767318754116,0.8930546176648633,0.11157732200981905,-0.8816952814349774,0.687895743510973,-0.1118095399672976,-0.8220912630675005,0.6230727745407303,-0.18497316619697937,0.5544922764400821,0.617100210752741,0.18056747960420286,0.42741333847453344,0.8233314869420476,0.0,0.0,0.0,0.0
-0.040559340822949125,0.15927258328259472,0.7701213366218856,0.0026046760277027045,-0.44950950071930545,-0.0031922038427777593,0.8932660489800883,0.11188452548055348,-0.8787081336179016,0.6807069370966233,-0.11148066495737156,-0.8220442591363485,0.6200498235142847,-0.18424093824781362,0.5541112789277111,0.6121842603246831,0.17990790667386922,0.42567346716051513,0.8212653901559318,0.0,0.0,0.0,0.0
-0.04131867290133809,0.15923043471005627,0.7702643272697962,0.0026168428321904345,-0.44890638442975256,-0.003254248563874649,0.8935690348361918,0.1121682761867887,-0.8766509052809928,0.674271443787425,-0.111160822939928,-0.8204360076449669,0.6139668908804555,-0.18332037783759794,0.5539214377560299,0.605396136245324,0.1788616785863439,0.4244118645951904,0.8161224359120763,0.0,0.0,0.0,0.0
-0.042080247864517716,0.1594621329610882,0.7706449034172519,0.0022746885428120336,-0.4480903413897459,-0.0034576038789490594,0.8939787003730404,0.11244922149957763,-0.8765634942927871,0.6708829165880099,-0.11087291689883445,-0.8178742676354406,0.6064763916954986,-0.1822267702071529,0.555221442472957,0.5949065026945698,0.17744015576639954,0.4248056395988415,0.8062392958985295,0.0,0.0,0.0,0.0
-0.042416443537089316,0.15988964291834093,0.7713912749082864,0.00167929714980307,-0.44699163483113097,-0.0037692625493897084,0.8945286194482037,0.11285191081346552,-0.8809501107964886,0.6756970200723317,-0.11069251707945331,-0.8179195023605642,0.6044218973984291,-0.18107210109600336,0.5600600494984641,0.5783121817507939,0.17578805889121946,0.428411204240872,0.7904051990024786,0.0,0.0,0.0,0.0
-0.042089930760021155,0.16047385076879972,0.7726173465501265,0.000880953621851859,-0.4455189248574174,-0.004177150390163792,0.8952623430756065,0.1134622109026911,-0.8913180381260737,0.691706344581371,-0.11065862212211024,-0.8228187609363192,0.6120186308803064,-0.1798644697477403,0.5701646268183221,0.5528649740406956,0.17391283194272308,0.43644854207747386,0.7669415312812685,0.0,0.0,0.0,0.0
-0.04093622597517951,0.16107757609735524,0.7732507425728228,5.851414679281099e-05,-0.44357796971352,-0.004627668139756444,0.8962238370231593,0.11461457366387491,-0.9113577309748745,0.7211550794527264,-0.11096063850676238,-0.8384933677068139,0.6351613818453805,-0.17900677733664222,0.577064735556628,0.5339174714972071,0.17224555835952585,0.44211148456786403,0.7483439590493502,0.0,0.0,0.0,0.0
-0.03827032742409324,0.1616977013154571,0.7737407970726744,-0.0008130106560781992,-0.4417173290978264,-0.005132408733100485,0.8971392303143098,0.11626032476985848,-0.9398374603048025,0.7667450425180327,-0.11150428056370376,-0.8637792040822743,0.6767568412912367,-0.17909522019507826,0.5852366414769399,0.5197839037297082,0.17137939824668405,0.44975492381728244,0.7332555592327248,0.0,0.0,0.0,0.0
-0.03230306182458384,0.16193295792767307,0.7763550820410358,0.005603213793548188,-0.4544727282128468,-0.00679921265068618,0.8907170785458682,0.11293663406752467,-0.8784617070920206,0.7463220456987003,-0.10921977768105816,-0.8297218346837166,0.6799854336509048,-0.15837497576252757,0.5764888666155145,0.646704201932093,0.15462932836157808,0.48187712326100823,0.7750529385852474,0.0,0.0,0.0,0.0
-0.025259334170627992,0.1620719555048418,0.7782016188198685,0.011031840813613119,-0.46654785491984657,-0.008440621219970437,0.884386879974694,0.11056779509839239,-0.8284111048128482,0.7382912246425564,-0.10760898313418095,-0.8056829751030112,0.697521201276198,-0.13944259611266377,0.5664916473671854,0.7729661168397333,0.1393338175366356,0.5185674952845245,0.8103890623787622,0.0,0.0,0.0,0.0
-0.017860318490903346,0.16224588696328732,0.7787497340791394,0.015429091928917893,-0.4773609045976638,-0.00998859967519126,0.8785150754315363,0.10906566005840493,-0.792615257556962,0.7428670038012956,-0.10665903720745179,-0.7921209690588393,0.7247940096795127,-0.12242683904484827,0.55500639574184,0.8974071305385112,0.12555281459323456,0.5529289104271063,0.844835329598067,0.0,0.0,0.0,0.0
-0.010415166577165185,0.1624676497852692,0.7782362152047132,0.019009501394414277,-0.4868943576508764,-0.011415081644713174,0.8731793740437991,0.10825075177999018,-0.7693036624797812,0.7581506031804272,-0.10615489991992508,-0.7870858126887844,0.758472592733585,-0.10701155636957611,0.5543384962715168,0.9992282862018583,0.11288279404808259,0.5843456533301035,0.8779269049991331,0.0,0.0,0.0,0.0
-0.003586900240939262,0.1626469055328893,0.7773824995156362,0.021926128363920883,-0.49503978047220853,-0.012620552761681997,0.8685019184164109,0.10778264558361662,-0.7528787373953396,0.776079095258491,-0.10589141706842053,-0.7854175056276635,0.7909148318684392,-0.09311285407688746,0.5577874947102945,1.0811865969043228,0.10127317853675377,0.6139368290666759,0.903917388025083,0.0,0.0,0.0,0.0
0.002218374154528584,0.16302143458970692,0.7766746662257454,0.023915335971303044,-0.5016652885719848,-0.013723453028693513,0.8646222653762371,0.10749087513139638,-0.7416089826271486,0.7942066942055098,-0.10576148160676059,-0.7834147779998294,0.8166576321002316,-0.08048872742917704,0.5610530567688861,1.1497238303057271,0.09033551603306778,0.6412094323449473,0.9197976267244801,0.0,0.0,0.0,0.0
0.006938651062578646,0.16363423513142433,0.7761743776746955,0.025025167899335517,-0.5069073764131661,-0.014765272581387915,0.8615106728503878,0.10729772320698146,-0.7343401847402153,0.811398673888288,-0.10571938169510488,-0.7803379409271208,0.8350944555503251,-0.06897395691031258,0.5637869948923673,1.2061699491571252,0.07993249434213436,0.6646682043249569,0.9281619013363634,0.0,0.0,0.0,0.0
0.010647997853422818,0.16445076234346462,0.7757788743262313,0.025431513043177336,-0.5109796275930281,-0.015758473626444384,0.8590720160953851,0.10716500796089096,-0.7302480381701949,0.8271040400264252,-0.10573823841186712,-0.7764824546886423,0.8471468646201434,-0.05841959038295062,0.5668142826167184,1.2482995187843051,0.07000546746895146,0.6833303212480719,0.9323696315919686,0.0,0.0,0.0,0.0
0.013466065604400546,0.1654152243148282,0.7753720157566533,0.025329670960678185,-0.5140746420915169,-0.016705162697580846,0.8572086138547313,0.10707471612433044,-0.7287830040950959,0.8411749257886995,-0.10580124753922594,-0.7724341623915663,0.8541285702564492,-0.04868982098907513,0.5721680562478121,1.2696111531335101,0.060517459775657576,0.6968753001158959,0.9349441997323935,0.0,0.0,0.0,0.0
0.01554517204801318,0.16646732038920375,0.774894742744473,0.024898728088961306,-0.5163471419218864,-0.017603479561044542,0.8558363160534819,0.10702342545539022,-0.7295707709572662,0.8538413080442562,-0.10589923151707974,-0.7688261391597393,0.8575569850330724,-0.03965981842600772,0.5843498633243033,1.2594478783514325,0.051434337941945726,0.7056245332516299,0.9372103928206404,0.0,0.0,0.0,0.0
0.016945722428139576,0.16759263638443803,0.7741145037211992,0.02425209592302114,-0.5179859378003933,-0.018465356785985286,0.8548458543405085,0.10699976414816481,-0.7323449488697558,0.8647801870790098,-0.1060244496334285,-0.7659360036869779,0.8577383281659274,-0.03119920596266945,0.598848471068483,1.2301155508464552,0.04270800164668093,0.7090059818258462,0.9419771363533652,0.0,0.0,0.0,0.0
0.017752075742738748,0.16876336410733905,0.7728688483410062,0.02349745264342766,-0.5191476042561688,-0.0192929846727294,0.8541436737790475,0.10700267838405235,-0.7368940258629773,0.8739050034440248,-0.10617262099637044,-0.7640978029570809,0.8552629700378763,-0.02318665964359231,0.6142369600489741,1.1898604814602498,0.03429005598906438,0.7068896268477941,0.9511147021191674,0.0,0.0,0.0,0.0
0.018056591842807657,0.1699310950769831,0.7710507613287577,0.022753010756645587,-0.5199494572944395,-0.02007622613608363,0.853657898402433,0.10704254023480136,-0.7429998018454598,0.8811768320829476,-0.10634108512017672,-0.7637494224066367,0.8509672557491524,-0.015508060637191606,0.6308264454676199,1.1431221699383336,0.026128009195536477,0.6994058375930073,0.9657548414283403,0.0,0.0,0.0,0.0
0.01797090096596549,0.17100816189424883,0.768573654308744,0.022184872065271387,-0.5204958709007864,-0.020784707093141012,0.8533228438157107,0.10714220363213767,-0.7503427091657131,0.8864731832457952,-0.10652842470010701,-0.7655776984384816,0.84613510941077,-0.008054387830633596,0.6501157551612721,1.0915688010517972,0.01817652464784541,0.6868631872832994,0.9867418612555675,0.0,0.0,0.0,0.0
0.017639323441175653,0.1718305361148515,0.7653489460715333,0.022068911376695796,-0.5208821792020858,-0.0213508578716324,0.8530761158352044,0.10734770623478894,-0.7584283925429557,0.889473022828834,-0.10673243456905272,-0.7708593381908618,0.842968010889151,-0.0007220543672982532,0.6748116854957813,1.0343381437532275,0.010404384046715207,0.6696900320900118,1.014942735076246,0.0,0.0,0.0,0.0
0.017114066433526406,0.17226578343693047,0.7614099495628721,0.022622984408409926,-0.5210896275093643,-0.02172115664461952,0.8529255489388442,0.10770687671998358,-0.7667169052961423,0.8896093762121549,-0.10693290056218831,-0.7804864902637075,0.8429027062387531,0.0065995039762394925,0.707321522284282,0.9680877975371677,0.0027030499550503243,0.6483864762192563,1.0497178259863722,0.0,0.0,0.0,0.0
0.016621611319900642,0.17231301324530746,0.7578642463980919,0.023769994919017916,-0.5210323243814798,-0.021920429727304815,0.8529242633738078,0.10814481717142264,-0.7732767998215155,0.8878344632124312,-0.10708581804894862,-0.7922534224901757,0.8464354271336371,0.013999356822812257,0.7481546938875951,0.8883931395670347,-0.005072169229574053,0.628744582236283,1.0802128751494326,0.0,0.0,0.0,0.0
0.016642414387425985,0.17232285204570233,0.7577739825885479,0.023797476457443085,-0.5210525437683518,-0.021921320392154303,0.8529111222507605,0.1081368048871445,-0.7733730554844775,0.8877780027685932,-0.10711261985906814,-0.7923776365705903,0.8463359590995365,0.014349532866966483,0.7482631064616274,0.8884771389016768,-0.005383920051571854,0.6287496261415618,1.0801528539983605,0.0,0.0,0.0,0.0
0.016642414387425985,0.17232285204570233,0.7577739825885479,0.023797476457443085,-0.5210525437683518,-0.021921320392154303,0.8529111222507605,0.1081368048871445,-0.7733730554844775,0.8877780027685932,-0.10711261985906814,-0.7923776365705903,0.8463359590995365,0.014349532866966483,0.7482631064616274,0.8884771389016768,-0.005383920051571854,0.6287496261415618,1.0801528539983605,0.0,0.0,0.0,0.0
