zhuoxili-jackie/tripod-support-walk/examples/trajectory_tripod_lowstep_p2_v0.05.csv
root_pos_x,root_pos_y,root_pos_z,root_rot_x,root_rot_y,root_rot_z,root_rot_w,FL_hip_joint,FL_thigh_joint,FL_calf_joint,FR_hip_joint,FR_thigh_joint,FR_calf_joint,RL_hip_joint,RL_thigh_joint,RL_calf_joint,RR_hip_joint,RR_thigh_joint,RR_calf_joint,FL_foot_joint,FR_foot_joint,RL_foot_joint,RR_foot_joint
0.0,0.0,0.745913,-0.00590261038931276,-0.5534150365010598,-0.008528410562500121,0.8328410549308913,-9.86e-07,0.349071,-0.872662,2.4067e-06,0.349062,-0.872669,2.38753e-06,0.610854,0.872668,-3.27e-06,0.610866,0.872669,0.0,0.0,0.0,0.0
1.2287394693797013e-06,-1.0205416829834856e-05,0.7459148525692082,-0.005902832357898633,-0.5534070725731323,-0.008527801705644506,0.8328463514924345,2.2298176512670907e-05,0.3490683163011499,-0.8726843130407893,2.5690988692729005e-05,0.34909984922378084,-0.8727660896082563,5.9392457828009854e-05,0.6108542160152219,0.8725864434805247,5.373666383988029e-05,0.6108603703368347,0.8726662711195705,0.0,0.0,0.0,0.0
3.064218438427524e-06,-2.5405108394624885e-05,0.745916166896384,-0.005902221493815054,-0.5534022195495105,-0.008527902234397994,0.8328495794935564,5.861378369784276e-05,0.3490567481259006,-0.8726744009984142,6.200762462810588e-05,0.34914882880447673,-0.8728732813175704,0.00013434047132232434,0.6108632593921184,0.8725027019376302,0.00012869611522495504,0.6108549967592032,0.8726970696702374,0.0,0.0,0.0,0.0
6.495344111579238e-06,-4.5189026673411944e-05,0.7459168148699941,-0.005901036923375811,-0.5533997866031167,-0.008528457515689047,0.832851198812403,0.00010653278458033911,0.3490437497547142,-0.8726491407201399,0.00010992970963320273,0.3492146223783533,-0.8730027078554318,0.00022754494747965424,0.6108799135828914,0.8724181376947682,0.00022192863594000945,0.6108504754523302,0.8727602022853846,0.0,0.0,0.0,0.0
1.2112248796940656e-05,-7.131412050191205e-05,0.7459168325738658,-0.005899293067367435,-0.5533989842615853,-0.008529394278886212,0.8328517346999922,0.00017010353106026665,0.3490304514860027,-0.8726131897185968,0.00017350737984050962,0.3493053034296567,-0.8731720057791219,0.0003484683071371521,0.6109045462339172,0.8723238113460559,0.0003429091609593548,0.6108460012887785,0.8728601405872181,0.0,0.0,0.0,0.0
2.0610001620274533e-05,-0.00010688303446527128,0.745916181446081,-0.005896801576279999,-0.5533992368949943,-0.00853082397305135,0.8328515698355552,0.0002568868837401169,0.349015853986052,-0.8725657429470042,0.0002603051542850814,0.3494321898079392,-0.8734046262017292,0.0005116088973111143,0.6109388795653862,0.8722074756289128,0.0005061626784184708,0.6108399182755686,0.8730077132804523,0.0,0.0,0.0,0.0
3.312884499006011e-05,-0.00015615040571625503,0.7459147129173775,-0.005893207854902542,-0.5534001156135201,-0.008533004314952118,0.8328509890595571,0.0003774111006323054,0.3489993300866409,-0.8725052683423629,0.00038085881208998096,0.34961153430277564,-0.8737328217887078,0.0007358307733128999,0.610986095466997,0.8720547302492815,0.0007306068859210755,0.6108302133739997,0.8732198407108875,0.0,0.0,0.0,0.0
5.175312592626634e-05,-0.00022439008169018734,0.7459122367318282,-0.005887990936124154,-0.5534013267122856,-0.00853633684606913,0.8328501870739231,0.0005448213909978477,0.3489840208045087,-0.8724348750865147,0.0005483283375783867,0.34986733649888724,-0.8742018913046431,0.0010436379500767393,0.611052099789431,0.8718492362924171,0.0010388478633064138,0.6108159255197747,0.8735186633940691,0.0,0.0,0.0,0.0
8.078357804898932e-05,-0.0003172119698718666,0.7459091396269479,-0.0058804221311831665,-0.5534030207271291,-0.008541427998449135,0.8328490627318945,0.0007732814437177511,0.348986186937476,-0.8723737392052775,0.0007769044735832177,0.3502378404946392,-0.8748764388815519,0.0014570202548126686,0.6111520678531386,0.8715711066734361,0.0014530536111867,0.6108040181375772,0.8739243861829586,0.0,0.0,0.0,0.0
0.00013041800174457105,-0.0004381290240584293,0.7459103352869382,-0.0058690511647236055,-0.5534081414718165,-0.00855007331181827,0.8328456516290988,0.0010738255225470183,0.34906358525605446,-0.8723751512842177,0.0010776656079997428,0.3507937178411906,-0.875843148176105,0.0019774233126564067,0.6113467001105394,0.8711771429159559,0.0019749120447508104,0.6108433660482198,0.8744140210961886,0.0,0.0,0.0,0.0
0.00022045424136629043,-0.000580505262035506,0.7459471907386471,-0.00584610101566517,-0.5534596840600214,-0.008590478352487151,0.8328111460017639,0.0014895838918257869,0.34934219066927524,-0.8722612730405265,0.0014938204008126997,0.3516216700559475,-0.8769546090450702,0.002402572458864286,0.6119994643524131,0.8705525068023645,0.0024017334254891835,0.611193515421375,0.8747501195063747,0.0,0.0,0.0,0.0
0.00032597028574137243,-0.0007397526123260208,0.7459364990830961,-0.005828202621504,-0.5534358299442914,-0.008601940439293767,0.832827005331092,0.0018811289160916254,0.34970967820024107,-0.8728889305122653,-0.0007013808267983218,0.34958821916793875,-0.8755921852657327,0.0030711692379396683,0.6121994236903029,0.8701037665821197,0.0030733267039158357,0.6111853532855888,0.8754580009741345,0.0,0.0,0.0,0.0
0.0004531926657547465,-0.0009234718946146698,0.7459294814112258,-0.0058079416636515726,-0.5534232900621046,-0.008628232018543859,0.8328352078548922,0.002363997297134029,0.35016165884814526,-0.873544898939837,-0.0035238961430196325,0.3475246754750803,-0.8751327330400203,0.003786468377656628,0.6125239943492893,0.8695964281752766,0.0037927741095354524,0.6112290056113462,0.8762530494695387,0.0,0.0,0.0,0.0
0.0005841460402015302,-0.0011187378073997463,0.7459279725766597,-0.005786214467033431,-0.5534202465245839,-0.008660957643620956,0.8328370418464262,0.0028887973285148137,0.3506112826948909,-0.8741103027038567,-0.006308334479374293,0.34559479648031366,-0.8751876510878454,0.00452517472946486,0.6129258641637055,0.8690271580148917,0.004536735475690851,0.6113169658150867,0.877057037542655,0.0,0.0,0.0,0.0
0.0007103185339101929,-0.001314723023706382,0.745929506605619,-0.005764750018455858,-0.5534218343688209,-0.008694181384744745,0.8328357894033632,0.003417168992163268,0.3510274075772482,-0.8745851643371094,-0.008849679526562073,0.3438149250503387,-0.8754900758015561,0.005267506662109265,0.6133476936179094,0.868432125544585,0.005285329393851612,0.6114239690532658,0.8778402079012166,0.0,0.0,0.0,0.0
0.0008290370705060198,-0.0015048477919270763,0.7459322244579478,-0.00574453898494927,-0.5534253956295153,-0.008725434244696942,0.8328332357329444,0.003928290106408718,0.35140652608012946,-0.8749928649047855,-0.01115198699192001,0.34216033002269197,-0.8759042849942611,0.005995807905263233,0.6137596532163528,0.8678419788754186,0.006020723091488691,0.6115357969074406,0.8785900287277967,0.0,0.0,0.0,0.0
0.0009402958531212725,-0.0016863338708714664,0.7459352145406858,-0.005725939188177858,-0.5534297206600722,-0.008754213650072415,0.8328301877657273,0.004414518867914828,0.3517543483981251,-0.875355079029263,-0.013288557518332104,0.3405928592755412,-0.8763660455960327,0.006699793610157082,0.6141512059821094,0.8672726356818526,0.006732438716794198,0.6116465573058151,0.8793027146981465,0.0,0.0,0.0,0.0
0.001045078918238049,-0.0018589875872684874,0.7459381740391174,-0.005708905516521719,-0.5534343220621109,-0.008780877813266749,0.8328269662698751,0.004876119191408815,0.35207777307074983,-0.8756862026508352,-0.015334463194947329,0.3390765454693844,-0.8768463603845509,0.007376533280692498,0.6145218627506468,0.866728096100631,0.00741739310937662,0.6117545741556808,0.8799798037332306,0.0,0.0,0.0,0.0
0.001144626160655227,-0.0020240180298849646,0.7459410915555499,-0.005693186597351078,-0.5534390318356591,-0.008806024747816901,0.8328236785750732,0.005317136911001211,0.35238253952995824,-0.8759945975808239,-0.017343143010407503,0.3375837015880783,-0.8773325769487657,0.008028187744389566,0.6148753180059547,0.866205465119129,0.008077659309994531,0.6118599728717068,0.8806258855531327,0.0,0.0,0.0,0.0
0.0012401808618598999,-0.0021831986623021557,0.7459440552643314,-0.005678457569616041,-0.5534438115324085,-0.008830211335179899,0.8328203467518586,0.005742831633157183,0.3526732255192375,-0.8762853370479703,-0.019344836697144867,0.33609491885928783,-0.8778196689063406,0.008659635042914778,0.6152164433438414,0.8656989484312017,0.008718090350362218,0.6119635853909682,0.88124699403293,0.0,0.0,0.0,0.0
0.0013329403670773424,-0.002338403785433709,0.7459471560893514,-0.005664391669347466,-0.5534486690598021,-0.008853868450339253,0.8328169633217217,0.006158416896853069,0.35295382076055215,-0.8765624112596743,-0.021352887939417267,0.33459664292086055,-0.8783066159590851,0.009276830374098361,0.6155500042100323,0.8652022206096973,0.009344666015046632,0.6120664900782001,0.8818496929829087,0.0,0.0,0.0,0.0
0.0014240703993285745,-0.002491433197445979,0.7459504327027918,-0.005650685571926379,-0.5534536102592954,-0.008877309248733214,0.8328135231995345,0.006568675666768474,0.35322816535079316,-0.876830018008728,-0.023370779373306453,0.33307933230627795,-0.8787945629500117,0.009885997767365295,0.6158801555656095,0.864709549938934,0.009963672289249673,0.6121696842192542,0.8824408552640409,0.0,0.0,0.0,0.0
0.0015147250654283283,-0.002644007623505374,0.7459538145733764,-0.005637055394376315,-0.5534585833912827,-0.008900769154809541,0.8328100602090779,0.006978039385256506,0.35350010288398165,-0.8770932518696453,-0.02539709654622869,0.33153868244739226,-0.8792844414788574,0.010493410334104607,0.6162100893377482,0.8642163153020322,0.010581475267007501,0.6122735993545543,0.8830280390893632,0.0,0.0,0.0,0.0
0.0016060545684204058,-0.002797819952087966,0.7459570413144492,-0.005623218232931998,-0.5534633998627077,-0.00892444601151361,0.8328066994762379,0.007390791820019188,0.35377344660705085,-0.8773586501710754,-0.02742785403459015,0.3299821719506506,-0.8797721113107245,0.011105382611773526,0.6165415135037172,0.8637194716937598,0.011204511619803124,0.6123773717903758,0.883620226881548,0.0,0.0,0.0,0.0
0.0016992008256308496,-0.002954535949421779,0.7459595730503622,-0.0056088715476588875,-0.5534676443282518,-0.008948527253988836,0.8328037170316197,0.007811119953059736,0.35405196109311904,-0.8776348964690566,-0.029456586731066513,0.3284425541086729,-0.8802392983151746,0.011728047210283832,0.6168739903527936,0.8632182442432974,0.011839061367660287,0.6124780525721397,0.8842284367186213,0.0,0.0,0.0,0.0
0.0017952929477693467,-0.003115655190370298,0.7459605674256256,-0.005593679955302869,-0.5534706341069774,-0.008973202999554722,0.8328015667334606,0.008242800006903736,0.35433961186337487,-0.8779335599755113,-0.031473095797041356,0.3269973447205102,-0.8806395235945716,0.01236650779695814,0.6172046727986067,0.8627148023951061,0.012490384908888999,0.612570387318578,0.8848652950697967,0.0,0.0,0.0,0.0
0.0018954662380519112,-0.003282204489412595,0.7459590837851576,-0.005577272638667998,-0.5534715586256448,-0.008998676545842113,0.8328007874893231,0.008688477367118598,0.3546412970429176,-0.8782689403378631,-0.0334622823764896,0.3257864652030857,-0.8808811119437405,0.013023189265862748,0.6175297094214154,0.8622137863605054,0.013161035762183516,0.6126484137926409,0.8855422286270467,0.0,0.0,0.0,0.0
0.0020009246655984772,-0.003454417396079001,0.7459547074015738,-0.005559237001555044,-0.5534700038515965,-0.009025202724594141,0.8328016543188745,0.009148964733586375,0.3549638685057674,-0.8786547843146303,-0.035405292338681144,0.3250060639265579,-0.8808159155414926,0.013695970309457536,0.6178490692637258,0.8617187621355771,0.013848938993541855,0.6127103535347241,0.8862634726706116,0.0,0.0,0.0,0.0
0.002112968309238586,-0.0036319616567093167,0.7459483116970397,-0.005539068190805518,-0.5534669508126507,-0.009053191295111278,0.8328035139269638,0.009623970767991099,0.3553155939381299,-0.8790951560751632,-0.03728597512647381,0.3248337959775474,-0.8802571984076861,0.014378646408624745,0.6181735237527463,0.8612266064546367,0.01454783797700601,0.6127649060787562,0.8870220230289677,0.0,0.0,0.0,0.0
0.0022332569939463253,-0.003816288455023947,0.745939823650554,-0.005516559712109775,-0.5534625099766359,-0.00908277080483981,0.8328062925397547,0.010117115902649519,0.3557036364836275,-0.8796000627453648,-0.03910095348132655,0.32527167963226633,-0.8792096779322718,0.0150770373123061,0.6185071992622021,0.8607343926721244,0.015263742282206168,0.6128144126422707,0.8878251749128262,0.0,0.0,0.0,0.0
0.0023638982871247616,-0.004010881548280218,0.7459282280932675,-0.005491759893247741,-0.5534559017307502,-0.009113822963385474,0.8328105088456011,0.010636591622515127,0.3561340946011619,-0.8801853317516063,-0.04085958749627055,0.32614652897656765,-0.8778700000809795,0.01580987579874797,0.6188479734664818,0.8602384006973188,0.016015923745285283,0.6128549042371931,0.8886952496677067,0.0,0.0,0.0,0.0
0.0025072455782475128,-0.004219398367064127,0.7459138023062779,-0.005464512955312278,-0.5534476751728384,-0.009146480584409896,0.832815797062508,0.011191413655052416,0.35661398912792786,-0.8808558852137195,-0.04257309335713731,0.3272667029795706,-0.8763963036578928,0.01659463676709399,0.6192053840534542,0.859725249405129,0.016822487469206424,0.6128926799373823,0.8896456447510275,0.0,0.0,0.0,0.0
0.002665796233974971,-0.0044460498320393034,0.7458973544523462,-0.0054344312276797275,-0.5534386446661141,-0.009181094106316292,0.8328216141878027,0.011792257029080454,0.3571502436987882,-0.8816121045750936,-0.04424591264240147,0.32849582028983015,-0.8748907535741925,0.01744952264688368,0.6195938974473104,0.8591749350724837,0.01770241171487782,0.612937341248639,0.8906867931112118,0.0,0.0,0.0,0.0
0.0028419146189104225,-0.004696820355295953,0.7458795790189258,-0.005400765462049753,-0.5534295739217265,-0.009218315287968935,0.832827449778459,0.012454518487332731,0.3577453927578962,-0.8824460002856005,-0.04587028068518388,0.3297582335130631,-0.8734123215623738,0.01839873649355153,0.6200288074806014,0.8585616524141195,0.01868100359579609,0.6129962289671007,0.8918358999246077,0.0,0.0,0.0,0.0
0.0030426615908119084,-0.004978785890979278,0.7458607905203805,-0.005361930595327777,-0.5534208599110834,-0.00925943941464747,0.8328330350660296,0.01319697212421388,0.3584284557620416,-0.8833930809659327,-0.047433981034555386,0.3310218041255318,-0.8719825237838208,0.019464861607213037,0.6205339028788774,0.8578630432998912,0.019782167193745294,0.613080983965342,0.8931191204893596,0.0,0.0,0.0,0.0
0.0032807790251468947,-0.005300250321046728,0.7458409581384474,-0.005315277993075749,-0.5534124619519742,-0.009306645552560602,0.8328383883591522,0.014042508633500048,0.3592605597729485,-0.8845408248711147,-0.048925472652983144,0.33227624783950716,-0.8705927751380435,0.02066743211700496,0.6211441683036508,0.8570600927120602,0.021026985292701535,0.6132091014952205,0.8945716206140266,0.0,0.0,0.0,0.0
0.0035700850855150427,-0.005672046773185331,0.7458199140576595,-0.0052572007441122545,-0.5534041288990097,-0.00936308381972884,0.8328436615711553,0.01502175488268432,0.36030395307748103,-0.8859756631717585,-0.05033459298798771,0.3335139567125329,-0.8692132561245176,0.022030096263625107,0.6218995817926346,0.8561261706535279,0.02244115811945967,0.6133963970345686,0.8962371024512985,0.0,0.0,0.0,0.0
0.003926155923634718,-0.006105673438458459,0.7457976060170832,-0.005182965087555399,-0.5533949983159534,-0.009433166076988731,0.832849403007261,0.016169156278526893,0.3616300173526422,-0.8877971517826666,-0.05167234450558972,0.3347164855011336,-0.8677777803880603,0.023568909606435172,0.622846959649739,0.8550311105808107,0.024043026073337692,0.6136590955572653,0.8981570095769025,0.0,0.0,0.0,0.0
0.004364071271193872,-0.006610793582333322,0.7457745090458406,-0.005086797122661882,-0.5533831993214904,-0.009522689290170507,0.832856816981423,0.017517415484515905,0.3633106172350816,-0.8901053962858776,-0.05299512844981939,0.33583991096788096,-0.8661614951505876,0.025279409678815444,0.6240363600176033,0.8537432996860336,0.025830121194331285,0.6140115780426505,0.9003541018746197,0.0,0.0,0.0,0.0
0.004889776352669827,-0.0071924754566466765,0.7457523703624389,-0.0049625684038269715,-0.5533644926079837,-0.009638452902931487,0.8328686639928194,0.019090685934950363,0.3653723883972944,-0.8929335804125117,-0.05442635971515278,0.3367879929547413,-0.8641562303241052,0.027127293417120713,0.6255038123862412,0.8522203511714814,0.027769102483288118,0.6144521192765225,0.9028057020636509,0.0,0.0,0.0,0.0
0.005473539877311153,-0.007853052161704918,0.7457349377454852,-0.004805444711115358,-0.5533336479506338,-0.009787060134162712,0.8328883449783065,0.02090775325482022,0.3676322913568691,-0.8959758349224711,-0.05612614769733683,0.33736902715674205,-0.8614728824679475,0.02907080604726729,0.627225269419686,0.850374357192782,0.029818372662436615,0.6149181649548722,0.905432156767863,0.0,0.0,0.0,0.0
0.0060663225911771375,-0.00857404774338816,0.7457272917031178,-0.004611171897312849,-0.5532844516481307,-0.009974621713784722,0.8329198998582202,0.022935950550639423,0.36983453745617784,-0.8988231456917825,-0.05830470568043527,0.33724799007369394,-0.8576259585160101,0.030962989224530522,0.6291336598982243,0.8481679123977021,0.03182525070759936,0.6153156802717967,0.9080543649118271,0.0,0.0,0.0,0.0
0.006626437212673319,-0.009284119208256366,0.7457288412187972,-0.004375471818713162,-0.5532074475531709,-0.010205287840968556,0.8329695236430635,0.02500876005073638,0.3718715823227965,-0.9013813780562802,-0.06120527581600507,0.33585846296223687,-0.851755285496437,0.03238840045748058,0.6311023556666706,0.8458352799742215,0.03335171931564728,0.6155323902009977,0.9103680868786607,0.0,0.0,0.0,0.0
0.007066022823846385,-0.009837823086973124,0.7456852810009289,-0.0040995993622527606,-0.5530885959685402,-0.01047155643452864,0.8330465441981356,0.026757639221717065,0.3734642782691776,-0.9035927022326286,-0.0648822238167675,0.33217517188609014,-0.8426255775835455,0.03262707950642247,0.6325116865814979,0.8444228551104365,0.033631696285620676,0.6150742525912387,0.9123293962973599,0.0,0.0,0.0,0.0
0.007262488460473993,-0.010092398135939658,0.7455661532514662,-0.0037762405119406645,-0.5529220393403697,-0.01075999067628911,0.8331549561875803,0.027796806804777738,0.3741350609761592,-0.9049489829581409,-0.06856257576718726,0.3247658546321307,-0.8286557727706934,0.030950156120342073,0.6328288350303903,0.8447230907240246,0.031889111138068534,0.6135206762163857,0.9136805143254583,0.0,0.0,0.0,0.0
0.007271071499880992,-0.010105694384271256,0.7455646580283573,-0.003764466945684785,-0.5529188997697974,-0.010762819960094063,0.8331570564860374,0.027828266583872403,0.3741503960196227,-0.9049626417342035,-0.0685711591001712,0.3247670276946506,-0.8286471541826453,0.030944066792134524,0.6328570245507557,0.844683332524338,0.03188872882715989,0.6135065488950111,0.9137269938537453,0.0,0.0,0.0,0.0
0.007271071499880992,-0.010105694384271256,0.7455646580283573,-0.003764466945684785,-0.5529188997697974,-0.010762819960094063,0.8331570564860374,0.027828266583872403,0.3741503960196227,-0.9049626417342035,-0.0685711591001712,0.3247670276946506,-0.8286471541826453,0.030944066792134524,0.6328570245507557,0.844683332524338,0.03188872882715989,0.6135065488950111,0.9137269938537453,0.0,0.0,0.0,0.0
0.007329626319969442,-0.010301163041830173,0.7461181260730528,-0.004131303318841499,-0.552897329252734,-0.01038016663523442,0.8331744881948236,0.027696343731720825,0.37462136810637375,-0.9044947915690427,-0.06867335121464832,0.32596518205471997,-0.8274719759317067,0.02500826677273587,0.6271656725563608,0.8578563464792347,0.03671592424211848,0.6177806307064829,0.9093228362712679,0.0,0.0,0.0,0.0
0.007404491149788508,-0.01066633903609904,0.7467744528775533,-0.004372830031065445,-0.5528969066344716,-0.010112895353633355,0.8331768229728418,0.028139276256425833,0.3749088501608231,-0.9027813089294775,-0.06820007794578571,0.3277806773867818,-0.8272670018011525,0.019524131405875843,0.6233177221498214,0.8671635523457986,0.041254627747077416,0.6223577656069951,0.9043572104360852,0.0,0.0,0.0,0.0
0.007490019222754738,-0.011150542806935811,0.7473867293068697,-0.00450683603149134,-0.5528961359971141,-0.009956891598343547,0.8331784992053891,0.029043972906972554,0.37497232837328726,-0.9005133261210001,-0.06727876265589884,0.3299583251754792,-0.8282402776316177,0.015858087213894447,0.6204575407396066,0.8737703682928308,0.04534638032358584,0.6263845791457944,0.9000699033262203,0.0,0.0,0.0,0.0
0.007582788235864061,-0.011698650170758417,0.7479341736187521,-0.00457173071129633,-0.5528913296102129,-0.009873661659285674,0.8331823256200244,0.030217553332508626,0.37488614002375326,-0.8980513611172576,-0.06610007219763389,0.3323147024679258,-0.8300375969742522,0.013521374130082432,0.6182319487590836,0.8787934292736163,0.049077199044110446,0.6298416727442988,0.896532480160773,0.0,0.0,0.0,0.0
0.007674479051512188,-0.01226444590886391,0.7484269920151976,-0.004598289354150045,-0.5528840444493295,-0.00982795286361538,0.8331875541982595,0.03148990379113502,0.3746999054701684,-0.8955460202329388,-0.06482762582262212,0.33467634783042977,-0.8321956886569393,0.011943856654254861,0.6164400202791586,0.8829119330826749,0.05252558042190521,0.6328730107971904,0.8935359686883416,0.0,0.0,0.0,0.0
0.007759128023319627,-0.01282006272663833,0.7488748580048222,-0.004605035689421696,-0.5528740989062394,-0.009802656038664755,0.8331944144913002,0.032768562389419754,0.37444459595261426,-0.8930745056111146,-0.06354996008158217,0.33693620570992366,-0.8344306074354073,0.01069376966399462,0.6149231092919005,0.886534464047414,0.05571811222154193,0.6355740882779811,0.89090940998061,0.0,0.0,0.0,0.0
0.007833839077826086,-0.013349388305145385,0.7492857465157529,-0.004602705853573833,-0.5528619214093948,-0.009787472785751277,0.8332026862239498,0.03399932777843049,0.37414409470613585,-0.8906797791100697,-0.062319161722525544,0.3390383159345965,-0.8365759857848962,0.009535950511924345,0.6135630496576078,0.8898922390929214,0.058671607084422026,0.6380167923795383,0.8885319989333018,0.0,0.0,0.0,0.0
0.007897901002592998,-0.013844250987747329,0.7496659592711374,-0.00459718279365303,-0.5528481280148678,-0.009776585862352716,0.8332119968109521,0.03515380431928938,0.3738176539437348,-0.8883857198350968,-0.061162726103822,0.34096130005772735,-0.8385470060004699,0.008358769357143515,0.6122798427281978,0.8931162526589485,0.06139928172031943,0.6402543278313594,0.8863223760249278,0.0,0.0,0.0,0.0
0.007951746889268897,-0.014301950333573281,0.7500203016837171,-0.0045914621180514125,-0.552833215294262,-0.009767166048107782,0.8332220334403162,0.036221468206553524,0.3734789384812563,-0.8862023719314504,-0.06009098577510286,0.3427047265995553,-0.8403118365783752,0.0071137383672093615,0.6110244931000275,0.8962811323279265,0.06391492233309148,0.6423244013760389,0.8842293498194684,0.0,0.0,0.0,0.0
0.007996369284913754,-0.01472278520977431,0.750352358921958,-0.004587017025779671,-0.5528175409043058,-0.009757749378733518,0.833232567816683,0.037200983250131485,0.37313760972004295,-0.8841330931999882,-0.059105434995149184,0.34427874895567345,-0.8418674750212761,0.005785180282738437,0.6097717352788719,0.8994269225056154,0.06623442429434506,0.6442541908958341,0.8822223433637687,0.0,0.0,0.0,0.0
0.008032867834530182,-0.015108404354623642,0.7506644652826837,-0.004584536643805745,-0.5528013570876223,-0.00974758851316588,0.8332434375043243,0.038095303525830945,0.37279998443247103,-0.8821784744068472,-0.058203427897399296,0.345696759795621,-0.8432246242391993,0.004372287118111541,0.6085132227887738,0.9025707440746837,0.06837377807608333,0.6460614389504352,0.8802868392480461,0.0,0.0,0.0,0.0
0.00806216575980144,-0.015460755666813356,0.7509575155143589,-0.004584347046062495,-0.5527848667795937,-0.009736293660451286,0.8332545105832824,0.03890865578360126,0.37246940359627684,-0.8803391417470903,-0.057381103552190386,0.3469707127435426,-0.8443987873652241,0.002879425636390669,0.6072534512710064,0.9057110064188376,0.07034725827630418,0.647754077529887,0.8784233366748306,0.0,0.0,0.0,0.0
0.008084854103345062,-0.01578152520640265,0.7512306110378035,-0.004586664731273528,-0.5527682765631202,-0.0097236247557233,0.8332656515503868,0.03964493313056062,0.3721462733202248,-0.8786179746698292,-0.05663497402043483,0.34810846560947645,-0.8454061318787438,0.0013094509293775426,0.6060096783502152,0.9088254949450663,0.07216672892692308,0.6493286199486803,0.8766496176589906,0.0,0.0,0.0,0.0
0.008101110648829029,-0.016072038003160538,0.7514804880161144,-0.0045917772108768785,-0.5527518298781817,-0.009709356578435663,0.833276699868177,0.040307327411497194,0.3718274781308183,-0.8770217901733265,-0.055962329019931326,0.34911264627103433,-0.8462633060557565,-0.0003442451406662167,0.6048170487922193,0.911862299684899,0.07384282984460255,0.6507671036391108,0.8750068055560087,0.0,0.0,0.0,0.0
0.008110662222529728,-0.016333632834236642,0.7517007131127632,-0.00460021340806435,-0.5527358074207341,-0.009693168919445496,0.8332874700293103,0.04089916901406031,0.37150494710398657,-0.8755623949161283,-0.05536047729072696,0.34998083436404276,-0.8469908238021314,-0.0021106269511805475,0.6037410712534298,0.9147200983146495,0.07538869654808486,0.6520325525615284,0.873569407147938,0.0,0.0,0.0,0.0
0.008112827577391225,-0.016568482386217196,0.7518808895614408,-0.004612916260523501,-0.5527204928606053,-0.009674557302608088,0.8332977743379022,0.04142589261474293,0.37116381426097794,-0.874256785823441,-0.05482488727342498,0.3507073555728805,-0.8476194825953945,-0.0040599922965216025,0.6029009897869964,0.9172112653584851,0.07682611452439898,0.6530644896893877,0.8724566846903833,0.0,0.0,0.0,0.0
0.008106852856344163,-0.01678056441783903,0.7520070044939949,-0.004631272385588701,-0.5527061747184666,-0.009652898912929893,0.8333074206358341,0.04189755295249615,0.3707827354891341,-0.8731255432685318,-0.05434672659848565,0.35128795151810727,-0.848197197929644,-0.006319432866203504,0.6025077154789239,0.9189982408936436,0.07819087361250106,0.6537814447418733,0.8718325222296635,0.0,0.0,0.0,0.0
0.008093072387543213,-0.016975598753356615,0.7520664755340171,-0.004656322597552695,-0.5526936709292862,-0.009628394971694754,0.8333158577543369,0.04232993570524796,0.37034391067885325,-0.8721837729831416,-0.05391144442884627,0.3517296324387105,-0.8487847064470561,-0.009044403985967807,0.6029042290315022,0.9195148406174651,0.0795231078655377,0.6541118709726479,0.871853022130221,0.0,0.0,0.0,0.0
0.008071664245687856,-0.017156029719252803,0.7520600769263184,-0.00468783835960243,-0.5526829488932948,-0.009601147322668051,0.8333231066904446,0.04272899640828682,0.3698444320158673,-0.8714217613564647,-0.053513142903673136,0.35204036819434026,-0.8493941224964332,-0.012224169992423515,0.6040883996055781,0.9187536020636027,0.08083508171769453,0.6540597464946839,0.8725189736000705,0.0,0.0,0.0,0.0
0.008042622525193865,-0.01732120981305386,0.7520021196244401,-0.004724307785593531,-0.5526730745247898,-0.009571194995042602,0.8333297941617293,0.04309136662234086,0.3692957607541893,-0.8708035048951318,-0.05315408223592483,0.3522295781966727,-0.8499894557883041,-0.015684284988331205,0.6057139877135312,0.9172674992589386,0.08211152772442988,0.6537054614978997,0.8736739581820314,0.0,0.0,0.0,0.0
0.008006962301409555,-0.017472783365845766,0.7519087341226269,-0.004763844527140054,-0.5526635338030964,-0.00953949675039144,0.833336259976334,0.04342090533839731,0.3687114630342738,-0.8702836936588824,-0.05282930690723158,0.35231929542398094,-0.850549195840238,-0.019281505067913252,0.6075681526476331,0.9153836345828086,0.08334331497587534,0.6531409753822974,0.8751507019313518,0.0,0.0,0.0,0.0
0.00796553699901793,-0.017614957230165366,0.7517928900895238,-0.004804935068541715,-0.5526536818176223,-0.009507156440498515,0.8333429273407372,0.04372844297306015,0.36809681061496585,-0.8698155370432937,-0.05252718743947879,0.35233471972248986,-0.8510715892858035,-0.022931652003126888,0.6095307077741522,0.9132822171105754,0.08453739249527119,0.6524386242117745,0.8768236507441108,0.0,0.0,0.0,0.0
0.007918891464920566,-0.017753065734568085,0.7516643998840393,-0.004846583525351757,-0.5526427996721197,-0.009474475964379081,0.8333502750367899,0.044026255836802225,0.3674507386657547,-0.8693562330754369,-0.052234884980652194,0.35229988676413754,-0.8515647388997504,-0.02658590274313733,0.611537048859232,0.9110583552824979,0.08571432130712171,0.651652920307725,0.8786052008278599,0.0,0.0,0.0,0.0
0.007866861838269358,-0.01789355182881362,0.7515305886160086,-0.004887974870843156,-0.5526299115358356,-0.009441926711989346,0.833358949431469,0.04432994427513169,0.3667641776864645,-0.8688605190488142,-0.05193635300146043,0.3522356829301412,-0.8520436179385555,-0.030219741500597724,0.6135522812729141,0.9087626743006608,0.08690119206952897,0.6508212332611292,0.880436661765386,0.0,0.0,0.0,0.0
0.007808529638484609,-0.018043406710825733,0.7513973418656721,-0.004928454673953703,-0.5526136808060161,-0.00940985937492328,0.833369836667429,0.04465634702278699,0.3660216473259315,-0.8682803202989128,-0.05161432861835021,0.35215903801862003,-0.8525242612701674,-0.03382081765397184,0.6155578929895857,0.9064236055062214,0.08812948929180019,0.6499701946790704,0.8822751292766753,0.0,0.0,0.0,0.0
0.00774216498306686,-0.01820972598609398,0.7512698324321864,-0.004967587621563888,-0.5525922197022954,-0.009378404325401518,0.833384189512869,0.04502226342464682,0.36520247690804625,-0.8675652134279395,-0.051251556521517784,0.3520821362662017,-0.8530199552304464,-0.037389564998151846,0.617545396781819,0.9040629692165251,0.08943307160117593,0.6491196894410134,0.8840837598613908,0.0,0.0,0.0,0.0
0.007665190758805136,-0.018399250041832182,0.7511529527941477,-0.005005406618759896,-0.5525628043379631,-0.009347223076720026,0.8334038172383786,0.045442976764271725,0.3642821128345038,-0.8666651380662315,-0.050832258108165315,0.35201156646209625,-0.8535384488828236,-0.04095460426507689,0.6195147354306141,0.9017091535987697,0.09084781886883808,0.6482853763703119,0.8858250348586454,0.0,0.0,0.0,0.0
0.007574231367095715,-0.018617713812274964,0.7510515132137158,-0.005043004174158145,-0.5525214469792016,-0.00931496836011649,0.833431370960656,0.04592996460369755,0.36323440021648656,-0.8655373047167118,-0.05034447763969565,0.35194742377226945,-0.854079657752034,-0.044612964939423724,0.6214774369949694,0.8994120572028744,0.09241348110361784,0.6474805689250288,0.8874558055853207,0.0,0.0,0.0,0.0
0.00746537300499056,-0.01886876201847136,0.7509703595190081,-0.005083720088774956,-0.5524622312746419,-0.009278224800067977,0.8334707873403017,0.04648691221519189,0.36203642254351354,-0.8641605263377365,-0.04978422433011466,0.35188268968288444,-0.8546333649807294,-0.0486140713262567,0.6234666258977604,0.8972640139977465,0.09417882532090595,0.6467191333041354,0.8889217136568771,0.0,0.0,0.0,0.0
0.00733490793650473,-0.019151987579727428,0.7509148645104683,-0.005135206578313594,-0.5523762735608733,-0.00922966173127124,0.8335279811768335,0.04710260155368612,0.3606791081653088,-0.8625620683338898,-0.049162889667926125,0.3518038909467678,-0.855176290182782,-0.05351007279919469,0.6255568111160908,0.8954313735352522,0.0962103341838653,0.6460230836958004,0.8901448544610331,0.0,0.0,0.0,0.0
0.007181098150553405,-0.019459246797922013,0.7508928021401469,-0.005212161090742241,-0.5522501837741967,-0.009155492638741651,0.833611867029658,0.047738687861869106,0.3591896285431572,-0.8608634935700852,-0.04851998340288757,0.3516952166987936,-0.8556684860785188,-0.06036519084942864,0.6278887259805002,0.8941997545312104,0.09859779028582345,0.6454411230731864,0.8909913336995787,0.0,0.0,0.0,0.0
0.007007689484967685,-0.01976803647335844,0.750918552621939,-0.00533712701983253,-0.5520642578373605,-0.009034347467987347,0.8337355401201787,0.048312067246196466,0.35767270538022533,-0.8593463933190456,-0.04794148941325721,0.3515488432311765,-0.856054564617805,-0.07086250483033574,0.6306537554170669,0.8940229094396369,0.10142490984408234,0.6450791407242256,0.891203859578191,0.0,0.0,0.0,0.0
0.006828692186021093,-0.020032273168910715,0.7510145416748927,-0.005528046726460737,-0.5517928989181062,-0.008849761231365709,0.833915894517601,0.048691142667911025,0.35635912545702614,-0.8584939432596863,-0.04756427296112476,0.3513756024057005,-0.8563033471547686,-0.08661858733895798,0.6338506691919398,0.8955189059154031,0.10458612643681517,0.6450850493168157,0.8903474076525698,0.0,0.0,0.0,0.0
0.006669967663804788,-0.02017762180851676,0.7511773843758295,-0.005740126973115194,-0.5514363128941998,-0.008631465308006073,0.834152588901227,0.04872900093363097,0.3555559773982336,-0.8587610678959983,-0.04754034355627443,0.3511665415810096,-0.8564701861274941,-0.10517086110467669,0.6362923536575407,0.8991030740266657,0.10726534860840858,0.6454013034019075,0.8881931274590803,0.0,0.0,0.0,0.0
0.006668747816347747,-0.020179049237169636,0.7511767408728236,-0.0057416378692879974,-0.5514341658759971,-0.008629047686234036,0.8341540228490478,0.048727778791236236,0.3555465111873642,-0.8587632264900021,-0.04754142210187586,0.35116371052868267,-0.8564736057150708,-0.10517987897157421,0.6362971819798973,0.8991059873974406,0.10727691575434849,0.6453946019026208,0.8881864068281955,0.0,0.0,0.0,0.0
0.006668747816347747,-0.020179049237169636,0.7511767408728236,-0.0057416378692879974,-0.5514341658759971,-0.008629047686234036,0.8341540228490478,0.048727778791236236,0.3555465111873642,-0.8587632264900021,-0.04754142210187586,0.35116371052868267,-0.8564736057150708,-0.10517987897157421,0.6362971819798973,0.8991059873974406,0.10727691575434849,0.6453946019026208,0.8881864068281955,0.0,0.0,0.0,0.0
0.006698150781939865,-0.020253225828504196,0.7512297924518172,-0.005763064055137704,-0.5516995504796092,-0.008617371995013409,0.8339784973206401,0.048875671434285395,0.3553540387139684,-0.8569711301835095,-0.04735029068397361,0.35129387438523096,-0.855216534376659,-0.10486106277285716,0.6372914086057055,0.8991270056153955,0.10808779480013117,0.646441400436304,0.8886976321087765,0.0,0.0,0.0,0.0
0.006741148052716848,-0.02033898679086801,0.7512699180095425,-0.005770024907141209,-0.5518765032049151,-0.008614632478558652,0.8338613914375372,0.0490679502528741,0.3552906805320429,-0.8558210047485719,-0.04713397150709613,0.35161528316242663,-0.8547787604743204,-0.1045236302446243,0.6380567886474477,0.8989968553877382,0.10878263014898056,0.647199723163193,0.8891163757180964,0.0,0.0,0.0,0.0
0.006774324472814405,-0.02042288508397183,0.7512919571132085,-0.005769028503688269,-0.5519868939033068,-0.008617377715767599,0.8337882993124854,0.0492670218318026,0.35522032291604444,-0.8550322721572534,-0.04692162170832945,0.3519270453067193,-0.8547309769333107,-0.10419824679299156,0.6385508052960823,0.8988563695631714,0.10934263708751107,0.6476541173562154,0.8895063115055019,0.0,0.0,0.0,0.0
0.006796194213640524,-0.02050846790967906,0.7512983137002747,-0.00576339057466043,-0.5520549228452144,-0.008623446259552353,0.8337432348547464,0.04947717781345223,0.35510581743530345,-0.8544251235438222,-0.04670429609456337,0.35220585599766785,-0.854905983453811,-0.10385926348894309,0.638836978813632,0.8987391566060571,0.10983351746393624,0.6478797294615279,0.8899277513207652,0.0,0.0,0.0,0.0
0.006810161532219291,-0.02060586463773101,0.7512897665043154,-0.005753952201864668,-0.5520969191949809,-0.008632426136815087,0.8337153981236414,0.04972139451677869,0.3549312702129142,-0.8538879319846842,-0.04645692394640818,0.35248115156315907,-0.8552756762222992,-0.10346176045343831,0.6389679797767244,0.8986555923097126,0.11033367308379888,0.6479285327279158,0.8904566179595057,0.0,0.0,0.0,0.0
0.006820209667974016,-0.020728067891519753,0.7512643968502998,-0.005740171186601792,-0.552123458222118,-0.008644931470754343,0.8336977884554232,0.050031295158715704,0.3546813507092037,-0.8533430003048318,-0.04614710942423047,0.3527968401770322,-0.8558786061193272,-0.102952530595025,0.638972061313979,0.8986183596973386,0.11092186188149575,0.6478212255573503,0.8911878695546521,0.0,0.0,0.0,0.0
0.006830473622141656,-0.020888279774636916,0.7512179083457367,-0.005720878170379604,-0.5521415499160169,-0.0086619858660057,0.8336857623890164,0.050439802562999854,0.35434278333291436,-0.8527408518150918,-0.04574195506086744,0.3532000801242639,-0.8567865086859999,-0.10227969078998485,0.638856917429131,0.8986534643113031,0.111670595364896,0.6475555180776276,0.8922303169253574,0.0,0.0,0.0,0.0
0.006846877514278617,-0.021093164082675482,0.7511473097969145,-0.005695461037886434,-0.5521566124368817,-0.008683922327143545,0.8336757322597373,0.05096320984319088,0.35393000612107406,-0.8520850450747047,-0.045225649143805904,0.3537352100444962,-0.85806263959234,-0.10142072768339751,0.6386345549276129,0.8987904697358688,0.11262146874712246,0.6471396531355198,0.8936544101051999,0.0,0.0,0.0,0.0
0.006886964336539777,-0.021322373571787047,0.7510751773413519,-0.005667441764794178,-0.5521761420370336,-0.008706553392762606,0.8336627520748179,0.0515454774970462,0.35360435442094695,-0.8515337679473486,-0.0446545246641067,0.35446728347968604,-0.8596607559436923,-0.10046294144848592,0.6384750449331142,0.8988958845386502,0.11370986208031679,0.6467740071345638,0.8951971220968564,0.0,0.0,0.0,0.0
0.007042412240383108,-0.02147401990964496,0.7511932190567074,-0.005677698622207615,-0.5522101712792188,-0.008695167960802545,0.8336402608609211,0.05189312815956971,0.35428763670220154,-0.851931184817585,-0.04432319244834605,0.3558254968322841,-0.8612794424442954,-0.09960468713874421,0.6395668391356963,0.8974099017086203,0.11476525042443735,0.6478929058519955,0.8946810329954235,0.0,0.0,0.0,0.0
0.0071674779089321615,-0.02172428195352648,0.7511309576704203,-0.00594975576136805,-0.5523130961956009,-0.00843687848986118,0.833572830206549,0.0521344843639195,0.3544370954457984,-0.8525157515250457,-0.04409962073279476,0.35698257998326305,-0.8622987514193089,-0.09560235071802768,0.6390472083063841,0.8973869835068423,0.09263993198522717,0.6424004522322264,0.8922729006841043,0.0,0.0,0.0,0.0
0.007303918808205828,-0.022077699444475758,0.7511105312312829,-0.006188959563375908,-0.5524153662347144,-0.00821498207156341,0.833505533273087,0.05267778343187908,0.3544524023903811,-0.852553939073787,-0.043571454760537205,0.3584892187713191,-0.8638850897999196,-0.09137559418732391,0.6389027411501469,0.8966306448985291,0.07406089595525298,0.6371650033708175,0.8911094016527377,0.0,0.0,0.0,0.0
0.007435007593183805,-0.022459148176026993,0.7511317693391383,-0.006340790310732837,-0.5524930535693987,-0.008072144443139227,0.8334542942596709,0.053395438631122775,0.35440231196535144,-0.8521850861549604,-0.042866600340656216,0.3600993275466554,-0.865845662453516,-0.08782957627944686,0.6391590826096141,0.8953449770426183,0.06198691071491195,0.6331573929405545,0.8913207485882314,0.0,0.0,0.0,0.0
0.007549726128113193,-0.022822328088195742,0.7511785302131587,-0.00643057282513569,-0.5525488598423748,-0.007986910747097486,0.8334174311092553,0.054148449404243584,0.3543122890958234,-0.8515972100024342,-0.04212321915117613,0.3616147322357886,-0.8678150664786868,-0.08497961594755057,0.6396367917307345,0.8938291508610939,0.05440563493608158,0.6300958215562037,0.8924954684530699,0.0,0.0,0.0,0.0
0.007645820268188591,-0.023147190525107778,0.7512449950815705,-0.006487570293825313,-0.5525891444827157,-0.007933240364162748,0.8333907922030741,0.054853269854278186,0.3542095052588198,-0.850917649484609,-0.041424276424205805,0.36295820885553054,-0.8695694007961831,-0.08265431678678725,0.6402337139797893,0.8922032042909819,0.04923951442116957,0.6275816989164823,0.8942526271677731,0.0,0.0,0.0,0.0
0.007725461244953856,-0.02342828628566324,0.7513301934217765,-0.006530601694505758,-0.5526187846003484,-0.00789410319423237,0.8333711737773872,0.05547345277714156,0.3541191295029606,-0.8502216923413403,-0.04080633290307081,0.36412213531343973,-0.8710223231519506,-0.08070218922068585,0.6409100197346632,0.8904959766874396,0.04517781645680919,0.6253393269964066,0.896328779734079,0.0,0.0,0.0,0.0
0.00779222061530247,-0.023667447987373736,0.7514332071260503,-0.006569421581069911,-0.5526410738722842,-0.007860458126444949,0.8333564059677114,0.0560009475569066,0.35405840494803886,-0.8495505885473659,-0.04027800859722812,0.36512801588201776,-0.8721709741599953,-0.07901953170792934,0.6416502649024111,0.8887150018598267,0.041538905483603804,0.6232140502201042,0.8985614494203096,0.0,0.0,0.0,0.0
0.00784960247863784,-0.02386999073934161,0.7515517811395098,-0.006608301696469351,-0.5526582602048393,-0.007828110239946071,0.8333450056645926,0.05644269507245029,0.3540351047167667,-0.8489238369550658,-0.03983309013508021,0.3660059075457917,-0.8730535789033027,-0.0775365002077615,0.642443748393919,0.8868711269993965,0.03801414693075126,0.6211282078689316,0.9008574850569194,0.0,0.0,0.0,0.0
0.007900456338103122,-0.02404280992708579,0.7516825491518638,-0.006648689060200359,-0.5526719298371762,-0.007795411595641739,0.8333359253397676,0.056812936128450585,0.35404847952407464,-0.8483461362762021,-0.03945803053045437,0.36678559629318436,-0.8737241531392645,-0.07620179079847306,0.6432782127288655,0.8849812299860162,0.03448338803354649,0.6190462035501048,0.903166502308483,0.0,0.0,0.0,0.0
0.007946785770775093,-0.024193377827601774,0.7518215185924952,-0.006690738018266277,-0.5526832201924005,-0.007761924246740775,0.8333284134568539,0.05712897004663041,0.35409081137387716,-0.8478116304181271,-0.039136103018788566,0.3674930340929354,-0.8742390797824707,-0.07497325938388921,0.6441384979494571,0.8830659096327308,0.030911288767088953,0.6169541448188736,0.9054619825496444,0.0,0.0,0.0,0.0
0.007989707100227469,-0.024329185134482945,0.7519642452061704,-0.006734122247430482,-0.5526929136252748,-0.007727423676664511,0.8333219556385649,0.05740818730915925,0.35414859638636437,-0.84730766698332,-0.038850360358985696,0.3681488615028977,-0.8746506238433537,-0.07381174970957086,0.6450049299340519,0.881148917607635,0.027298923922902146,0.614849764510856,0.9077290539634216,0.0,0.0,0.0,0.0
0.008029799142559484,-0.024458147869878617,0.7521060239177101,-0.006778199604468508,-0.5527016542548076,-0.007692484773633049,0.833316124332254,0.05767054142542361,0.3542039849878874,-0.8468143126874015,-0.03858118812937347,0.3687712594605557,-0.8750107236139311,-0.07268111145780974,0.6458565775282151,0.8792553701554986,0.023654907977284246,0.612740898209852,0.9099518045224454,0.0,0.0,0.0,0.0
0.008066973485412438,-0.024587789516911963,0.7522412578140184,-0.006822266834947937,-0.5527099113640564,-0.007657562584643134,0.8333106097311085,0.05793470226074873,0.354235340832196,-0.8463103144766374,-0.03831021154580244,0.36937303763352375,-0.8753667109587312,-0.0715468987519826,0.6466651776568945,0.8774199786697159,0.01999558310611388,0.6106453275222312,0.9121049344748833,0.0,0.0,0.0,0.0
0.008100563783589743,-0.02472485090548782,0.7523627700534148,-0.006865515598774116,-0.5527180555424437,-0.0076231193334815,0.8333051684854538,0.058217410308520505,0.35421819535422994,-0.8457770261330464,-0.03802101704190244,0.3699607284865305,-0.8757622738933575,-0.07037962539862921,0.6473916211041668,0.8756960723578726,0.016347321684911258,0.6085970444699851,0.9141393310252569,0.0,0.0,0.0,0.0
0.00812944615262742,-0.02487484142351453,0.7524608226481249,-0.00690688235634311,-0.5527264347129635,-0.00758976584676744,0.833299573262823,0.05853264704991628,0.35412629728024303,-0.8452035363737798,-0.03770008741477821,0.3705335527422481,-0.876239505476924,-0.06915903279278045,0.647980876983522,0.8741679919577434,0.01275725860395249,0.6066599646668439,0.9159598224514433,0.0,0.0,0.0,0.0
0.008152189461677235,-0.025041312567667777,0.7525221195172439,-0.006944840082072047,-0.5527354434125804,-0.007558372157029307,0.8332935675991195,0.05889002397933346,0.3539334397349974,-0.8445932961648783,-0.037338529867647685,0.37108193092880043,-0.876840163307215,-0.06788003448247704,0.648356778680571,0.8729646097409641,0.009312001248987498,0.6049524755250925,0.9173877560459923,0.0,0.0,0.0,0.0
0.008167447229267951,-0.02522511987852523,0.7525300554862405,-0.006977312229019533,-0.5527456331829127,-0.007530033131364846,0.8332867937945015,0.05929287997039735,0.35361758548327493,-0.8439696549375963,-0.036934032913734864,0.3715882048765536,-0.8776048882092485,-0.0665572103249914,0.6484243538489164,0.8722598942523698,0.00615339069534565,0.6036866865672103,0.918098172838456,0.0,0.0,0.0,0.0
0.008175067158743821,-0.025424917657476342,0.7524698919170346,-0.007002503064438479,-0.5527581772899044,-0.007505047239806,0.833278486855327,0.05973765766091289,0.3531695773911688,-0.8433693245379941,-0.036491196261472465,0.37203743939849615,-0.8785652126166965,-0.06521231824372378,0.64810118854805,0.8722177172923188,0.0034516841680268997,0.6032101019750762,0.9175420994774738,0.0,0.0,0.0,0.0
0.008174612447662676,-0.025642780181731276,0.7523407305312889,-0.007020217838418628,-0.5527731138603394,-0.007483539877014205,0.8332686228135285,0.06022945078033511,0.3525811156583297,-0.8427803436410425,-0.0360048067390494,0.3724305023648777,-0.879727807700484,-0.0638350589346655,0.6473819129192405,0.8728400624289152,0.001215759236529136,0.6035242595987858,0.9157269645557051,0.0,0.0,0.0,0.0
0.008165361480688946,-0.025884400132374998,0.7521554183401118,-0.007031878293629483,-0.5527893233643804,-0.007465427726690522,0.8332579336861256,0.06078239503541506,0.3518441206006758,-0.8421414898150779,-0.03545943873400077,0.37278449846698236,-0.8810756809907992,-0.06238214266929433,0.6463379777917105,0.8739666883984359,-0.0007077453447589749,0.6042840106223303,0.9132136417482981,0.0,0.0,0.0,0.0
0.008147732731128721,-0.026153732641627698,0.7519284725721259,-0.0070391953357564025,-0.5528062452389908,-0.007449797379776826,0.833246785456022,0.06140475179899947,0.35096178905226405,-0.8414031855350924,-0.03484554500477685,0.3731200438083784,-0.8825852564400145,-0.06081521068033801,0.6450524740774942,0.8754269350516817,-0.0024447949719896677,0.6052778381374785,0.9103355429274189,0.0,0.0,0.0,0.0
0.008122139453881445,-0.026452666021895704,0.7516707831286331,-0.007043324061014371,-0.5528234424050356,-0.007435947213450185,0.8332354648013109,0.062099977170875266,0.3499393089083056,-0.8405332866934344,-0.034158691880925386,0.37345057056991654,-0.88423507089807,-0.05911233848404355,0.6435877976406469,0.8770962607379652,-0.0040663841313849595,0.6063868624294759,0.9072769690682733,0.0,0.0,0.0,0.0
0.00808861429568799,-0.026781857262452836,0.7513891971677342,-0.007044956975995246,-0.5528405308629187,-0.007423410787274259,0.8332242249170964,0.0628688538461078,0.3487795118321467,-0.8395116003393802,-0.03339739023287211,0.37378173277275195,-0.886007302141218,-0.05726279408757229,0.6419823552715693,0.8788973552777335,-0.005603514289479285,0.6075467825001765,0.9041358588170663,0.0,0.0,0.0,0.0
0.008046732500014,-0.027141443805940524,0.7510873578894612,-0.007044576622809176,-0.5528571335670026,-0.007411793778859822,0.8332133154944552,0.0637109997520457,0.34748140461682675,-0.8383244826613684,-0.03256149775024414,0.37411309519058694,-0.8878872271901614,-0.05526068760284635,0.6402549540709143,0.8807882741359548,-0.007066065054702061,0.6087246990002081,0.9009600190029496,0.0,0.0,0.0,0.0
0.007995640540150284,-0.027531290111229914,0.7507665947878387,-0.007042703154747107,-0.5528728235233544,-0.007400586711656761,0.8332030200724857,0.06462520902055155,0.34604044118847244,-0.8369624270437555,-0.031651816297840876,0.3744394396783704,-0.8898615753573181,-0.053101172472759695,0.6384095384429963,0.882751631670382,-0.008456152809476118,0.6099071597938136,0.8977663058938083,0.0,0.0,0.0,0.0
0.00793415928016521,-0.027950725224411378,0.7504265836859286,-0.007040154973573455,-0.5528870611388338,-0.0073889449248075115,0.833193697369411,0.06560852813674663,0.34445030054707965,-0.8354214463002629,-0.03067100720601768,0.3747512302508041,-0.891916087439132,-0.05077932115328242,0.6364384820767406,0.8847880323481805,-0.009777204339428391,0.6110957349229662,0.8945490125684294,0.0,0.0,0.0,0.0
0.007860990998078504,-0.028397779475276344,0.750065770295384,-0.007038399580336746,-0.5528991340191454,-0.007375369492620898,0.833185821084993,0.0666540063301193,0.34270638149048394,-0.8337087961645221,-0.02962590206612882,0.3750344325516679,-0.8940323912692836,-0.04829088504891017,0.6343242854033544,0.88691374979332,-0.011042706843820306,0.6123075499491705,0.8912804724243304,0.0,0.0,0.0,0.0
0.007775066516108043,-0.028867884936408045,0.7496815904451914,-0.00704010708099683,-0.5529081064998983,-0.007357182142752642,0.8331800132803856,0.06774689193164568,0.34081141647421503,-0.8318538945683001,-0.028531457789554664,0.375269856114442,-0.8961839730276253,-0.04563399021943026,0.6320396569617007,0.8891623347122042,-0.012289245669408208,0.6135788205601852,0.8879040734985536,0.0,0.0,0.0,0.0
0.0076760303494708935,-0.0293519115030887,0.7492704628956517,-0.00705007525146588,-0.5529127791462992,-0.007329604347672292,0.8331770712134191,0.0688586808790248,0.33878357785793917,-0.8299257919714973,-0.027416977360758373,0.37543172604630876,-0.8983302893678008,-0.0428106159863606,0.6295452963557812,0.891590592510411,-0.01359851833701231,0.6149691797681436,0.8843171388288169,0.0,0.0,0.0,0.0
0.007564731439608449,-0.02983332058060952,0.7488273570994903,-0.007076886349432794,-0.5529115271027182,-0.007283186922686952,0.8331780818437236,0.06993590581802656,0.3366667157650401,-0.8280607721622543,-0.026337770370801056,0.3754844473223846,-0.9004062355618607,-0.03982104920788554,0.6267810747408077,0.8942898104056225,-0.015125155932621728,0.6165641020986583,0.8803413308237136,0.0,0.0,0.0,0.0
0.007444572958325467,-0.03028654048572924,0.7483463815592739,-0.007134697542954813,-0.5529024554292987,-0.007203256168405345,0.8331843037238491,0.07089661598424293,0.33454422608644274,-0.826486400567735,-0.025379138590095548,0.37538723483574205,-0.9023223821614043,-0.03666086812893584,0.62366927506494,0.8973857489425362,-0.01714921008358574,0.6184818297120134,0.8756620791629323,0.0,0.0,0.0,0.0
0.007321232809673414,-0.03067275355094437,0.7478217614733085,-0.007247150850431015,-0.5528791181013073,-0.007056570005263681,0.8332000746470397,0.07159295324251552,0.3325516887781845,-0.8255890752298641,-0.024694943772372597,0.3750904330065978,-0.9039470278591862,-0.03325806729824849,0.6200816106560373,0.9010156796168758,-0.01998508671257571,0.6208748598409605,0.8697756312662326,0.0,0.0,0.0,0.0
0.007196703039619702,-0.03095486190845487,0.7472796017240723,-0.007442635566426947,-0.5528429738779976,-0.006816668620829352,0.8332243314008964,0.07189745582523745,0.33081404157012634,-0.8255673623544765,-0.024413772100173446,0.37454309372442207,-0.9049860253002145,-0.029538393198499796,0.6160900958606885,0.9050124932698511,-0.023935045596376114,0.6240496826089624,0.861831867950702,0.0,0.0,0.0,0.0
0.007096528174758251,-0.031100481858295535,0.7468399602632237,-0.0077375493795439135,-0.5528098145016761,-0.0064747195945282715,0.8332463725251936,0.07171950883157226,0.3296390346489699,-0.8264243933683355,-0.024620157243749986,0.3739111755350748,-0.9050905575162839,-0.025554314770217707,0.6124267087669046,0.9083299630925802,-0.027843671655457078,0.6287313427024447,0.851025924779347,0.0,0.0,0.0,0.0
0.007096657673322113,-0.031103913792902057,0.7468362705469827,-0.007737548450971571,-0.5528104738944085,-0.006473790488778163,0.8332459422843389,0.07172454488654015,0.32962211391526225,-0.8264068669080613,-0.024614484064203444,0.37391237687612844,-0.9051048052008842,-0.02554246888239188,0.6124147095063568,0.9083315503704995,-0.02784602459960602,0.6287307040442621,0.8510220444151329,0.0,0.0,0.0,0.0
0.007096657673322113,-0.031103913792902057,0.7468362705469827,-0.007737548450971571,-0.5528104738944085,-0.006473790488778163,0.8332459422843389,0.07172454488654015,0.32962211391526225,-0.8264068669080613,-0.024614484064203444,0.37391237687612844,-0.9051048052008842,-0.02554246888239188,0.6124147095063568,0.9083315503704995,-0.02784602459960602,0.6287307040442621,0.8510220444151329,0.0,0.0,0.0,0.0
0.006900286284306366,-0.03134426660051509,0.7469584767164857,-0.007434371076634788,-0.5530362552318557,-0.006778263511947651,0.8330964443985962,0.06710127462768035,0.3373480569570835,-0.8409300176040291,-0.02353444899444893,0.37322099974883227,-0.9034445875165439,-0.027320144887836007,0.6141535766254288,0.9071180069894818,-0.029563645268558276,0.6285547969726129,0.8508020330297118,0.0,0.0,0.0,0.0
0.006442940103720096,-0.03189689640800409,0.7470140801118176,-0.007184137718217149,-0.553189531602343,-0.007045194641921781,0.8329946551588933,0.062372568543250406,0.34100640464040477,-0.8503309159663787,-0.021721562994745095,0.3716513261927711,-0.9010589205597511,-0.02686442083731304,0.6147670625683728,0.9050206119670833,-0.0291353406836723,0.6273092858027547,0.8522243447053116,0.0,0.0,0.0,0.0
0.005846548237238266,-0.032642794402596396,0.7470086267358144,-0.0069694653476675425,-0.5532783626437925,-0.00726961072082579,0.832935551374138,0.05871860732445562,0.3422224186406858,-0.8563314818512541,-0.019504884847921348,0.3696623982058683,-0.8985541287136202,-0.024921269678993174,0.6145475138297989,0.9025005015918924,-0.0272810917641396,0.6253317573483262,0.8548369769852996,0.0,0.0,0.0,0.0
0.005210976736540758,-0.033414532113608765,0.7470137248091233,-0.006790119693929385,-0.5533294299453418,-0.007449269063488871,0.8329015215626184,0.05610707392946634,0.34216256200796297,-0.8602026831004338,-0.017303261853322892,0.36751568511242916,-0.8958232566754742,-0.02243456332263809,0.6141346619113234,0.899562973088913,-0.024893026603579907,0.6233846090597879,0.8573378683877942,0.0,0.0,0.0,0.0
0.004584479847344556,-0.03412600429400624,0.7470298867176012,-0.006643162786294036,-0.5533586491705537,-0.007590407195529149,0.8328820201534793,0.05422000098823637,0.3414302850542213,-0.8628448123807313,-0.015316986774898664,0.3652999183590505,-0.8928926390265512,-0.01993856874449229,0.6136603520229259,0.8965944611616707,-0.02248007603973024,0.6216172724114124,0.8594473735982248,0.0,0.0,0.0,0.0
0.0040100943664489325,-0.03474666657071055,0.7470505334359473,-0.006524711181942852,-0.553375735533657,-0.00770064803024123,0.8328705922809923,0.05273203332448527,0.3403606988108702,-0.8647979302012506,-0.013607958760250657,0.3631966571690461,-0.8900354055984474,-0.01766315292083625,0.6131995450783455,0.8938482691025136,-0.02026726821314095,0.6200843647860902,0.8611691157606788,0.0,0.0,0.0,0.0
0.003530621974728751,-0.03527955439240228,0.7470711588719785,-0.006430415651003439,-0.5533851898547446,-0.007787024288456742,0.8328642408320306,0.05142505763512746,0.33914050033936766,-0.8663493080446918,-0.01215784673822098,0.36146752581051644,-0.8876910545431687,-0.01565002743787028,0.6128314348846859,0.8914267149237438,-0.018300479393296296,0.6188285645989007,0.8626062104333084,0.0,0.0,0.0,0.0
0.003143942217750629,-0.035729503795575344,0.747090044567898,-0.006355787436270156,-0.5533923518885983,-0.007855960115271536,0.832859407540035,0.05012530887206001,0.3378631584309173,-0.8677130583636956,-0.010941716597654494,0.3601107811126861,-0.8858600149790008,-0.013919658643344848,0.6125624862964376,0.8893616017214881,-0.01660377296709347,0.6178256047600477,0.8638101735879374,0.0,0.0,0.0,0.0
0.002834750373514695,-0.0361073187432449,0.7471071150299967,-0.006296453475320084,-0.5533994963565473,-0.007912514532095995,0.8328545756731677,0.048747242968958784,0.3365686693272606,-0.8690192171334742,-0.009922940491145454,0.35905997992720284,-0.884446525563254,-0.012452655414303557,0.6123777551990155,0.8876217129776648,-0.015161302012815197,0.6170305342226677,0.8648190544984238,0.0,0.0,0.0,0.0
0.002585554714307369,-0.03642670386968022,0.7471228451365578,-0.006248519080107478,-0.5534074584912266,-0.007960461341259266,0.8328491891998341,0.047268601589753996,0.3352714583646314,-0.8703369523930443,-0.00906087217580129,0.3582413890839085,-0.8833458214567852,-0.011207677487506337,0.6122591275449208,0.886148834429198,-0.013934607976987558,0.6163968612640367,0.8656696078154723,0.0,0.0,0.0,0.0
0.002380084963105357,-0.03670106942075029,0.7471377631743483,-0.006208778475836876,-0.5534163410930275,-0.008002505505749784,0.832843181149173,0.04569928003761586,0.3339733609350791,-0.8716984003996442,-0.008317950283431207,0.3575873394962292,-0.8824628583756994,-0.010138455938339936,0.6121889846112952,0.8848805174275585,-0.012879450105554592,0.6158824745818079,0.8663951126123126,0.0,0.0,0.0,0.0
0.0022029805088899343,-0.036940953000116156,0.7471522318027943,-0.0061747837264283165,-0.5534261986760178,-0.008040559743067952,0.8328365170091683,0.044055504054093746,0.33267301545644695,-0.8731176573031995,-0.007665050967648883,0.3570285545817807,-0.8816966359429584,-0.009207636770908145,0.6121484348400732,0.8837647006629341,-0.011959696666107033,0.6154495892002891,0.8670198270337743,0.0,0.0,0.0,0.0
0.0020449911587930992,-0.03715514418098227,0.747166254385714,-0.0061448238329041395,-0.5534367344844517,-0.008075871584246037,0.832829395711633,0.0423561757027933,0.33137815490826233,-0.8745864057902014,-0.007078757671397724,0.35652852550591996,-0.8809989972520469,-0.00838175285650736,0.6121257467916248,0.8827621639216536,-0.011142737099133075,0.615072108693237,0.8675687604383369,0.0,0.0,0.0,0.0
0.0019033170010554809,-0.03735108295006555,0.74717940127669,-0.006117822963604881,-0.5534472037359157,-0.008109171440379174,0.8328223137366291,0.04061862791806255,0.3301211753655723,-0.8760694748839981,-0.00654007464967921,0.3560867745505515,-0.8803814072961414,-0.0076299860934809696,0.6121164625493911,0.8818464925317614,-0.01039840642484871,0.6147350402826167,0.8680701135507707,0.0,0.0,0.0,0.0
0.001775135424574196,-0.037533391429701385,0.7471909232509469,-0.006093183877427023,-0.553456897106765,-0.008140888469378958,0.8328157431809972,0.03884666468025239,0.3289771242557645,-0.8775066329594634,-0.006037125763970466,0.35569627911300855,-0.8798431523204022,-0.006932555443670215,0.6121122504564096,0.8810044417388977,-0.009707269998812287,0.6144237669566417,0.8685448555555455,0.0,0.0,0.0,0.0
0.0016578300969739756,-0.03770533020656113,0.7471999934353342,-0.006070647756348839,-0.5534648875614122,-0.008171201761148522,0.8328103006893168,0.037034148653271384,0.3280792472051986,-0.8787962128559673,-0.00556165083757406,0.3553484149468208,-0.8793806830741947,-0.006273979374041673,0.6121029834718115,0.8802277057529047,-0.009054066746339679,0.6141245476773445,0.8690092608241767,0.0,0.0,0.0,0.0
0.0015490956606926268,-0.037869812984918226,0.7472062816175439,-0.006050195210652287,-0.553470526691344,-0.008200088877328277,0.8328064179413623,0.035168854409995724,0.32761197156639077,-0.8797867581962225,-0.005106513549122963,0.35503578817638376,-0.8789882863363682,-0.005638570919013716,0.6120819594779524,0.879504954508212,-0.00842329143838194,0.6138285121249012,0.869474416627826,0.0,0.0,0.0,0.0
0.0014469501448725421,-0.03802964092832928,0.7472106429336239,-0.006031992048952162,-0.5534744035008556,-0.008227346840427762,0.8328037046659078,0.033240454475077015,0.32774031783166524,-0.8802978960535183,-0.004665113180597057,0.35475250620419163,-0.8786513661754035,-0.005009707861307375,0.6120522033276403,0.8788168184513422,-0.007798486205796841,0.6135375105081072,0.8699428835377578,0.0,0.0,0.0,0.0
0.0013499988795625181,-0.038185742501381584,0.7472131113578702,-0.006015873790476598,-0.5534764390043516,-0.008253077110035006,0.8328022138826331,0.03125201367903221,0.32846236544387375,-0.880325297777201,-0.004235005243526202,0.3544922306511399,-0.8783608623250342,-0.004383685794333064,0.6120117647018856,0.8781581688104264,-0.00717594393992959,0.6132481753775094,0.8704164409812466,0.0,0.0,0.0,0.0
0.0012573723623946582,-0.03833734187153203,0.7472129023084676,-0.006001323573740631,-0.5534758867991094,-0.008277705081529061,0.8328024414264681,0.02921943611256943,0.3296093539191513,-0.880041587449169,-0.003817451217464285,0.35424819702503185,-0.8781134353142959,-0.0037689747110270532,0.6119536811873117,0.8775375274881164,-0.006564040987754958,0.6129516846492982,0.8708966738456719,0.0,0.0,0.0,0.0
0.0011683130701483802,-0.038484085949939295,0.7472104152694959,-0.0059879295484366974,-0.5534732516112594,-0.008301541478142833,0.8328040518991662,0.02716043691942154,0.33099276439199804,-0.8795907906796416,-0.003412848168268288,0.35401502953769715,-0.8778971401591235,-0.0031708949079032535,0.6118806681475389,0.8769534452632817,-0.005968097803456531,0.6126491182443699,0.871378594002594,0.0,0.0,0.0,0.0
0.0010820708353913003,-0.038626275030849755,0.7472065390553891,-0.005975365026631661,-0.5534693541965011,-0.008324813600770144,0.8328065000086268,0.025088271416118867,0.3324750690150142,-0.8790664410052769,-0.0030201364855924877,0.3537888669142733,-0.877699134418417,-0.00259055479614072,0.6117990494409317,0.8763978538719414,-0.005389275189817123,0.6123450826857334,0.8718557707574719,0.0,0.0,0.0,0.0
0.0009978458933564847,-0.03876451540358327,0.7472020780204991,-0.00596338835914658,-0.5534648530286281,-0.00834768373316283,0.8328093483130266,0.02301036777316524,0.33397780590417203,-0.8785188951391567,-0.00263760539931692,0.35356624524535973,-0.8775083111865041,-0.0020267087452914,0.6117141614174653,0.875861759058588,-0.004826387286709398,0.6120433432408059,0.8723234002793668,0.0,0.0,0.0,0.0
0.0009147939132583371,-0.03889930304330423,0.7471975614817659,-0.005951845792970446,-0.5534601151055721,-0.008370260943883049,0.8328123529647689,0.02092889202696939,0.33546664592547093,-0.8779698973721368,-0.0022638708305194604,0.3533432082391162,-0.8773150226098791,-0.001477960516012314,0.6116288080882178,0.8753383809328301,-0.004278082676139816,0.6117455927048627,0.8727782613208726,0.0,0.0,0.0,0.0
0.0008320444956364378,-0.03903069358429787,0.7471932696118583,-0.0059406750023905525,-0.5534552436288719,-0.008392608840284406,0.8328154452200536,0.01884133836415523,0.3369337351747676,-0.8774254244559612,-0.001898650545335774,0.3531147164314127,-0.8771097035246802,-0.000944499176562144,0.6115433666294309,0.8748242414148213,-0.0037445771408440237,0.6114518161771907,0.8732172665619723,0.0,0.0,0.0,0.0
0.0007487058787929188,-0.03915804816725472,0.7471893363463319,-0.005929914521909722,-0.5534501456195985,-0.008414747288777343,0.8328186864230858,0.016740264977419442,0.33838501165938456,-0.8768840957066644,-0.0015433640133241053,0.3528741588707209,-0.8768811865696401,-0.00042937460873072343,0.6114564154346314,0.8743192814926359,-0.003228936847321921,0.6111611499520547,0.8736356397686418,0.0,0.0,0.0,0.0
0.0006638572312803482,-0.03927979626496298,0.7471858684872236,-0.005919724186014914,-0.5534445914268967,-0.008436641909220595,0.8328222284252338,0.014612223009348786,0.3398335272909547,-0.8763414802253496,-0.001201710714347791,0.3526128448406249,-0.8766149372714449,6.043632625992866e-05,0.6113653892744426,0.873826698563395,-0.002738157447813399,0.6108728194359023,0.8740249823922279,0.0,0.0,0.0,0.0
0.0005765564518084205,-0.03939317323787162,0.7471830789950936,-0.005910416982236323,-0.5534382648093561,-0.008458170612260547,0.8328262804245546,0.012436929255270148,0.3412967647575286,-0.8757918709195686,-0.0008803551294615916,0.3523195582572601,-0.876291316090717,0.0005129982501352775,0.6112672646153122,0.8733526909025517,-0.0022842114099218807,0.6105872304787674,0.8743711162949119,0.0,0.0,0.0,0.0
0.00048592386385838774,-0.039493952527393496,0.7471814664591178,-0.005902492864883097,-0.5534308316190086,-0.008479052918676701,0.8328310638137092,0.010189092522747715,0.342794566288235,-0.8752296009958562,-0.0005897139292736452,0.35198059175826146,-0.8758842796304683,0.0009105263767527797,0.611159634341157,0.8729058298147275,-0.0018849559428187304,0.6103075826627506,0.8746515922354382,0.0,0.0,0.0,0.0
0.00039140969746841696,-0.039576311186103254,0.7471820831735941,-0.005896646506005373,-0.5534220728562305,-0.008498729934373369,0.832836724949734,0.00784719702428208,0.3443434221708655,-0.8746523822072809,-0.0003445661423726979,0.35158121590492475,-0.8753617709841852,0.0012292419827164274,0.611042799077202,0.8724953273674063,-0.001564291572241644,0.6100424936762678,0.8748331810022436,0.0,0.0,0.0,0.0
0.0002934194870601929,-0.03963317971886226,0.7471869053170422,-0.005893688143481722,-0.5534121330053997,-0.008516201055122744,0.8328431723932602,0.005415745726541301,0.34594232602113273,-0.8740695801378832,-0.00016368171532712958,0.35111037096636605,-0.8746906772649782,0.0014414112553229417,0.6109236338522167,0.8721270680620575,-0.001350124576545196,0.6098099445509622,0.8748708043491201,0.0,0.0,0.0,0.0
0.00019454469873565001,-0.039657788839524165,0.7471991666159328,-0.0058942627662596,-0.5534019166170723,-0.0085298778454312,0.8328498169147516,0.002968899694343449,0.3475461779412456,-0.8735185130059613,-6.671198575113449e-05,0.35057148895507834,-0.8738521030870965,0.0015223300683643202,0.6108215093179559,0.871796568697078,-0.0012673577081533539,0.6096417694773016,0.8747122318422326,0.0,0.0,0.0,0.0
0.00010166337464176251,-0.039647695213428875,0.7472228148996176,-0.005898164128480277,-0.5533936424471924,-0.00853765489548924,0.832855207468758,0.0007216762677131274,0.3490269329648264,-0.8730915910967587,-6.496331168273804e-05,0.3500031670880846,-0.8728776219325176,0.0014668574777332002,0.6107729635809354,0.8714832806821242,-0.0013213098841232977,0.6095831797621339,0.8743220566343762,0.0,0.0,0.0,0.0
2.87924423877558e-05,-0.03961334284923042,0.7472565443229441,-0.005902779786369465,-0.5533925459952802,-0.008538018741981679,0.8328558995790428,-0.0008733142092858148,0.35012802203204707,-0.8729686763676913,-0.0001395542715065899,0.3495089495995983,-0.8719218270535719,0.0013199773293645087,0.6108128022593631,0.8711895479355518,-0.0014671820117219327,0.6096594751038681,0.8737816574103198,0.0,0.0,0.0,0.0
2.874153031346462e-05,-0.03961317415769493,0.7472564048544186,-0.005903096809733157,-0.5533921287432095,-0.008538179918982744,0.8328561729235036,-0.0008754641516983317,0.35013169932693794,-0.8729665411278638,-0.00013931237647285278,0.3495078722999181,-0.8719222809391188,0.0013201366809405437,0.6108110337867875,0.8711901076572979,-0.0014669754218634926,0.6096581532676558,0.8737806105180169,0.0,0.0,0.0,0.0
2.874153031346462e-05,-0.03961317415769493,0.7472564048544186,-0.005903096809733157,-0.5533921287432095,-0.008538179918982744,0.8328561729235036,-0.0008754641516983317,0.35013169932693794,-0.8729665411278638,-0.00013931237647285278,0.3495078722999181,-0.8719222809391188,0.0013201366809405437,0.6108110337867875,0.8711901076572979,-0.0014669754218634926,0.6096581532676558,0.8737806105180169,0.0,0.0,0.0,0.0
2.874153031346462e-05,-0.03961317415769493,0.7472564048544186,-0.005903096809733157,-0.5533921287432095,-0.008538179918982744,0.8328561729235036,-0.0008754641516983317,0.35013169932693794,-0.8729665411278638,-0.00013931237647285278,0.3495078722999181,-0.8719222809391188,0.0013201366809405437,0.6108110337867875,0.8711901076572979,-0.0014669754218634926,0.6096581532676558,0.8737806105180169,0.0,0.0,0.0,0.0
3.425239336304929e-05,-0.0396247520634972,0.7472599373081861,-0.0059039522540567215,-0.5533947401727983,-0.00853650558704729,0.8328544488499927,-0.0008509695939917909,0.3501446465000717,-0.8729573801287703,-0.00011482150882681989,0.3495663357902659,-0.8719932289658029,0.0013908342775136029,0.6108497007540111,0.871120775771471,-0.0013962989598982015,0.60969415316093,0.8738027413487927,0.0,0.0,0.0,0.0
4.1794483682598714e-05,-0.03964305452689094,0.7472627512386211,-0.0059039000486904615,-0.5533978204359818,-0.008535589649534953,0.8328524119015653,-0.0008093114935004376,0.35015663412484205,-0.8729413401747546,-7.316620257031497e-05,0.3496507643405772,-0.8721129991012329,0.0014878057465138612,0.6108942464029052,0.871038037554277,-0.0012993516174068843,0.6097257912148955,0.873859943661142,0.0,0.0,0.0,0.0
5.124679558620706e-05,-0.0396680792812805,0.7472644734581206,-0.005903318298172895,-0.5534013237045962,-0.008535042153342028,0.8328500938407295,-0.0007510894362512659,0.3501666959272294,-0.872919569486731,-1.4944300835239774e-05,0.3497600389597495,-0.8722804483977087,0.0016147605554745563,0.6109411191454416,0.8709449078436998,-0.0011724025768923981,0.6097516456117648,0.8739563253724145,0.0,0.0,0.0,0.0
6.329393018444079e-05,-0.03970206560902163,0.7472652254107311,-0.005902217782397721,-0.5534053326079438,-0.008534767367321375,0.8328474406590477,-0.000671144119346886,0.35017492039245113,-0.8728901951732309,6.50060605589538e-05,0.3499030736348394,-0.8725102490567905,0.0017836373571973034,0.6109934081100701,0.8708324158740882,-0.0010034830416057882,0.609773240453149,0.8741000493523267,0.0,0.0,0.0,0.0
7.884844341673325e-05,-0.03974898203130094,0.7472650261972511,-0.005900444799814703,-0.5534097730236701,-0.008534828194773757,0.8328445020414915,-0.0005599169929785869,0.3501796476016795,-0.8728482848122051,0.000176248768131882,0.3500939137189183,-0.8728279848360159,0.0020137075909067276,0.6110549520963925,0.8706860616007693,-0.0007732574687764461,0.6097905060925393,0.8743063917938927,0.0,0.0,0.0,0.0
9.905016512271153e-05,-0.039814740408865,0.7472637058553584,-0.005897739071209689,-0.5534142762668328,-0.008535394581558619,0.8328415230626068,-0.00040300662065027176,0.3501771245102551,-0.8727863226514896,0.00033319697270185104,0.3503521993956287,-0.8732718853164415,0.0023332151361422078,0.6111295045319577,0.8704853775027185,-0.0004533508651840649,0.6098010760497389,0.8745990743399705,0.0,0.0,0.0,0.0
0.00012569741059035265,-0.039907809380521506,0.7472609889148137,-0.005893667066147656,-0.5534181073488018,-0.00853682043087232,0.8328389915487353,-0.00017958336166183273,0.3501631515523742,-0.8726963513140606,0.0005567058328705952,0.35070718139090745,-0.8738998701176485,0.00278180247974537,0.6112224003017045,0.8702009888185482,-3.867167399265194e-06,0.6098010596606152,0.8750117022303053,0.0,0.0,0.0,0.0
0.00016299188931320316,-0.04004022755268429,0.7472572563709248,-0.005887160418087715,-0.5534205813392751,-0.008540137125363246,0.8328373596028161,0.00014075010261776187,0.3501421668647021,-0.8725777833705269,0.0008772280430157752,0.3512106864829486,-0.8748072877035608,0.0034109402051246437,0.6113510497078699,0.8697864045219063,0.0006271176215525639,0.6097920813974191,0.8755856286922107,0.0,0.0,0.0,0.0
0.0002236610787038552,-0.04022951437030681,0.7472582200725884,-0.005873786831111475,-0.5534249370065147,-0.00855049694081875,0.8328344533757371,0.0006081156875426355,0.35016164178889814,-0.8724462910778805,0.0013450076942332445,0.35197855579977394,-0.8761657681570695,0.00426367087801824,0.6116017680569041,0.8691444291695067,0.0014832600269886584,0.6098192086489927,0.8763408376801287,0.0,0.0,0.0,0.0
0.000338618689506349,-0.04050183899810595,0.7472996259889955,-0.005827273469183866,-0.5534892903306761,-0.008630996345374385,0.8327911828755429,0.001410892235167876,0.35034791912959723,-0.8719428032663568,0.0021487096259395913,0.35321977162906987,-0.8780268809674947,0.00505764033951734,0.6125084628936541,0.8680908525937221,0.002280044648809592,0.6101303626715452,0.87712854985698,0.0,0.0,0.0,0.0
0.0005341054240135078,-0.04075848325819153,0.7472796365390556,-0.005798487752019706,-0.5534480551951809,-0.00864776259701523,0.8328186140706314,0.0020364294451502706,0.3510980420280611,-0.8732372197092205,-0.002118032213987541,0.35047607501947353,-0.8752611474168684,0.0061399497096790295,0.6128556887494552,0.867404874226614,0.0033694671604803713,0.6101497570702922,0.8783080654404836,0.0,0.0,0.0,0.0
0.0007639197201823844,-0.041060444803865184,0.7472641408132698,-0.0057617681513042595,-0.553426969220159,-0.008697306216603688,0.8328323652645437,0.00284110669069774,0.3519660704181761,-0.8745223689701502,-0.0076306015171450055,0.34791872683077085,-0.8737134920639953,0.0072688288141674285,0.6134200469272715,0.8666313517830062,0.004507398362568349,0.6102276058491041,0.8796565313034085,0.0,0.0,0.0,0.0
0.0009992807538958441,-0.041395667962325834,0.7472555240351507,-0.005720377421765049,-0.5534180744229247,-0.008761158062436644,0.8328378919655252,0.0037564769362463013,0.35280002285253276,-0.8756180467955771,-0.013081043383626582,0.34563000100991087,-0.8728928054458466,0.008482896560987154,0.6141065296582819,0.8657154666627772,0.005733509771835852,0.6103456825976977,0.8810776920595924,0.0,0.0,0.0,0.0
0.0012282842241652103,-0.04174770265561307,0.7472504421757098,-0.005678138296130117,-0.553413783047474,-0.00882731295029983,0.8328403340524826,0.004718198881719378,0.35355905760221695,-0.8765398138085264,-0.018055989820458425,0.34356129570442956,-0.8724384170965231,0.009770921592182793,0.6148259888273542,0.8647043756760869,0.007037265079072916,0.6104759546331345,0.882525855422619,0.0,0.0,0.0,0.0
0.0014485152688789107,-0.04210377372510188,0.7472464579149931,-0.005636904671377133,-0.5534110982262989,-0.008890832137884509,0.8328417225197016,0.005685330673218533,0.3542524148926135,-0.8773439710946217,-0.022554904759176424,0.3416538788195173,-0.8721606381997559,0.011098405166756573,0.6155370175664892,0.8636545106441416,0.008384225775195753,0.6106077914107068,0.8839732960113227,0.0,0.0,0.0,0.0
0.0016612915622109072,-0.04245655712084924,0.7472424246911302,-0.005597290124796273,-0.5534091771623881,-0.008950646143704031,0.8328426255357717,0.00663802452744079,0.35490204338180903,-0.8780815371268459,-0.02671648894245867,0.33985229343184575,-0.8719646447953875,0.012435254926528092,0.6162274440408644,0.8626034567643781,0.009743994815066506,0.6107399248313242,0.8854045277111643,0.0,0.0,0.0,0.0
0.001868793148866047,-0.04280324266427978,0.7472379906552196,-0.005559265612301854,-0.5534078782897647,-0.009007320167143791,0.8328431322860742,0.007570643285752815,0.35552695946336094,-0.8787863675867544,-0.03068579122050208,0.3381117308347799,-0.8718039466547389,0.013764149277676755,0.6168984020663646,0.8615683729759375,0.01109886933457718,0.6108738928935762,0.8868136621206563,0.0,0.0,0.0,0.0
0.002072988756708298,-0.04314387639375306,0.7472331602907806,-0.005522522508771691,-0.5534071759552767,-0.009061850583865367,0.8328432518849758,0.008485268987704684,0.3561396256910869,-0.879477019926665,-0.03456740163595943,0.3363999330756921,-0.8716557854415967,0.015079214565943177,0.6175554240411731,0.8605523841230751,0.012442695037568155,0.6110112436806272,0.8882013940579297,0.0,0.0,0.0,0.0
0.0022754445691972776,-0.04347993177278858,0.7472280406441045,-0.005486667484684534,-0.5534070170367815,-0.009115144925941402,0.8328430128825858,0.00938719070718923,0.3567472912480004,-0.8801624703495677,-0.038421484518819216,0.33469514213879525,-0.8715092988693893,0.01638193371162805,0.6182045492550748,0.8595513547427186,0.013776834443455123,0.6111529734770113,0.889572251200847,0.0,0.0,0.0,0.0
0.002477455714003416,-0.04381339713802588,0.7472227218300953,-0.005451311256241393,-0.55340732480194,-0.009167876404274241,0.8328424617557534,0.01028242073683375,0.35735442316862837,-0.8808473765907116,-0.04227545054823687,0.3329826558440132,-0.8713602268004753,0.01767751902047663,0.6188510842647991,0.8585585840717694,0.015106529394311017,0.6112997368243834,0.8909326973484595,0.0,0.0,0.0,0.0
0.0026802284639686237,-0.04414634205451756,0.7472172172344277,-0.005416096867050477,-0.5534080117904435,-0.009220503076864672,0.8328416540398809,0.011176706104305406,0.3579646177366644,-0.881535620107605,-0.04613738316152968,0.3312524502696546,-0.8712081749668379,0.018972731047506963,0.6194993898885268,0.8575673473989188,0.016438690284846402,0.6114520158903479,0.8922902973089191,0.0,0.0,0.0,0.0
0.002885014837382154,-0.044480807048050665,0.7472114061883839,-0.00538069251428985,-0.5534089567402519,-0.009273338757707127,0.8328406689973884,0.012075418982022192,0.3585816387311704,-0.8822322864506514,-0.05000581794563664,0.32950009722161494,-0.8710537577693451,0.02027496227757658,0.6201528028248648,0.8565720791875082,0.017780959492792646,0.6116099102440299,0.8936538468454721,0.0,0.0,0.0,0.0
0.0030931833937864603,-0.044818846659650136,0.7472049515717228,-0.005344773359496472,-0.5534099305912741,-0.00932661565049572,0.8328396582543393,0.012983794949967478,0.35920978344715654,-0.8829448088840163,-0.0538748852462386,0.3277330981314284,-0.8708935338185517,0.0215920917661975,0.6208132623587745,0.855568995142117,0.01914156383566661,0.6117725099028251,0.895034121856125,0.0,0.0,0.0,0.0
0.003306243494075057,-0.04516257077115565,0.7471972076110794,-0.0053080036825556565,-0.5534105053289721,-0.009380521133807995,0.8328389060987101,0.0139071109897256,0.35985395807334963,-0.8836837995569885,-0.057735634760515096,0.3259842358844808,-0.870710927708774,0.022932443601999794,0.6214807149444502,0.8545566942027983,0.020529278188311774,0.6119371338773024,0.8964446531892428,0.0,0.0,0.0,0.0
0.0035258513741619974,-0.0455140616828532,0.7471871979098639,-0.005270024575166136,-0.5534100206053336,-0.009435214373500627,0.8328388515579154,0.014850520584570816,0.36051987331595314,-0.8844636202343656,-0.06157502706034713,0.3243310454637659,-0.8704623002520885,0.024304221107434836,0.622152919540784,0.8535366499961914,0.02195284815130407,0.6120991391883241,0.8979015100280759,0.0,0.0,0.0,0.0
0.0037538303536287076,-0.04587512611680025,0.7471738297578023,-0.00523044157079738,-0.5534077473821725,-0.009490851246032328,0.8328399794444247,0.01581850077416105,0.36121465726597946,-0.8853018090643415,-0.06537452841339245,0.3229136554825278,-0.870060215240249,0.025714061155824457,0.6228270222672978,0.8525125069980993,0.02341948892680674,0.6122535693463712,0.8994206780852658,0.0,0.0,0.0,0.0
0.003992221649459173,-0.04624705400321168,0.7471565356694402,-0.0051887738529070694,-0.5534034495584449,-0.009547683195211668,0.8328424463176219,0.016814435114408798,0.3619476462118307,-0.8862149944630112,-0.06911089010235857,0.32192906672645266,-0.8693624864359155,0.027165128570635872,0.6235047278758283,0.8514862042296113,0.02493287746969745,0.6124000008106445,0.9010122694447952,0.0,0.0,0.0,0.0
0.00424325924066704,-0.046631029879410195,0.747136034982447,-0.005144319143127422,-0.5533983570559237,-0.009606277232894754,0.832845432133768,0.017841966278500068,0.3627292158708141,-0.8872085045542721,-0.07276251943708496,0.3215567870078333,-0.8681902515132216,0.02865767011047312,0.6241995277284155,0.8504515639026412,0.02649367752326125,0.6125483569883712,0.9026769101066041,0.0,0.0,0.0,0.0
0.004509468172315012,-0.047030980253107486,0.7471120410262476,-0.005096768128418022,-0.5533924858082216,-0.009666859900596477,0.8328489247308329,0.018910972319528967,0.3635664829192925,-0.8882915659110308,-0.07632188056828337,0.32180081968509333,-0.8665568149231133,0.030209626554390724,0.6249175012807681,0.8493978948189566,0.028121090821778313,0.6127013225617263,0.9044321458759979,0.0,0.0,0.0,0.0
0.0047935768203673556,-0.04745437103705794,0.747083238782315,-0.005046133994391124,-0.5533846966621625,-0.009729406549494356,0.8328536802344285,0.020039689283607772,0.36446104135366286,-0.8894727029761759,-0.07979350426689566,0.3224900995615549,-0.8646694685975416,0.03185993649222719,0.6256578574300411,0.8483070768843971,0.029856619809876042,0.6128539781908748,0.9063152096518653,0.0,0.0,0.0,0.0
0.005101550419300724,-0.04790945910314743,0.7470495421289858,-0.004991571646028829,-0.5533752928326855,-0.009794700406668872,0.8328594919545468,0.021249418431800258,0.3654320016292264,-0.8907739462179626,-0.08318362458970034,0.3234370537642652,-0.8626949129170001,0.03364388645391797,0.6264390963628784,0.8471527164881171,0.03173851655565787,0.6130162629007947,0.9083584058182561,0.0,0.0,0.0,0.0
0.005442903127656976,-0.048405993436635035,0.7470112909346236,-0.0049312814606842295,-0.5533649777913507,-0.009864343702524246,0.8328658826848725,0.02256625389212136,0.3665165846808897,-0.8922393768601073,-0.08648967635041802,0.32451046825699253,-0.8607413277694771,0.03559630311484908,0.6272932618051844,0.8459026012154772,0.03380520423673437,0.6132067169615372,0.9105965930791761,0.0,0.0,0.0,0.0
0.005830366929162619,-0.048956713576907486,0.7469685983610862,-0.004862368853659129,-0.5533540726907092,-0.009940896297541451,0.832872623026197,0.024025041053746445,0.3677650503381322,-0.8939318679670004,-0.08969550269129531,0.3256382705639933,-0.858868892003513,0.037758042037239696,0.6282611611849535,0.844516643168894,0.036102316177836026,0.6134460716534099,0.9130759453113637,0.0,0.0,0.0,0.0
0.006280876725784459,-0.04957817336722762,0.7469211804884879,-0.00478034191577779,-0.5533421760660033,-0.01002834146780263,0.8328799534657522,0.02567217376841994,0.36924472135320624,-0.8959398079192498,-0.09277374300826123,0.3267859407133112,-0.8570994965657225,0.040175783399862545,0.6293945343931956,0.8429451915824151,0.03868286656664891,0.613756646374568,0.9158569185783136,0.0,0.0,0.0,0.0
0.0068164999513402455,-0.05029090747874686,0.7468685158918946,-0.004678488326648753,-0.5533280995405209,-0.01013273547329851,0.8328886202114187,0.027567180057011045,0.371044707057467,-0.8983820895495263,-0.095693787977476,0.32793106758536356,-0.8554177080335437,0.04289714814879351,0.6307608746290018,0.8411272389520482,0.04160255531129501,0.6141640739884243,0.9190118045716639,0.0,0.0,0.0,0.0
0.0074649627414965156,-0.05111833167622853,0.7468102797702585,-0.004547219321284879,-0.5533099217218549,-0.010262943795688064,0.8328998290942587,0.029781484376218907,0.37328043500077573,-0.9014114632920652,-0.09843961258876037,0.32904030489832864,-0.8537574008813182,0.04595886593734244,0.6324490419479926,0.8389906287952575,0.04490763203123039,0.6147002904525066,0.9226147948225718,0.0,0.0,0.0,0.0
0.00825842958359133,-0.052083714052114594,0.7467471613807053,-0.004373701391971942,-0.5532849765155743,-0.010431181449287685,0.8329152393562422,0.03239233424168829,0.3760914706674255,-0.9052073698562326,-0.10104241213480557,0.3300466314941125,-0.8519714081511531,0.04936726135559758,0.6345722553094864,0.8364538481303321,0.048614152942669644,0.6154058512220003,0.9267204656567848,0.0,0.0,0.0,0.0
0.009227216519699011,-0.05320470490860404,0.7466823185855301,-0.004142598256680859,-0.5532491674599949,-0.010652605650741559,0.8329374043572279,0.035469454764345085,0.3796148536268173,-0.9099341575208766,-0.10362868181973184,0.33081892360306586,-0.8497842376450733,0.05307506013463625,0.6372600085510051,0.833423702374235,0.05268225988290451,0.616325982382512,0.9313245493437633,0.0,0.0,0.0,0.0
0.01038017438211787,-0.05448639875581129,0.7466234555182165,-0.0038398027922235834,-0.5531940295241237,-0.010942341621599398,0.8329717202721928,0.03905414408893841,0.38388564679186943,-0.9155996895189534,-0.10646474813637559,0.33110939226008,-0.8467402202183487,0.05697367906225514,0.6406154580837851,0.8297727902641199,0.05700541771151444,0.6174815187902486,0.936305618855501,0.0,0.0,0.0,0.0
0.01164919506908686,-0.05592080909238015,0.7465822106674065,-0.0034612293202584874,-0.5531084906771491,-0.011309186502705857,0.8330252815689845,0.04314798870447093,0.38851212865473717,-0.9215515153062386,-0.10990014377046062,0.33048093080499846,-0.8422128892938757,0.06095271567596762,0.6445880994205403,0.8253057238899812,0.06147115661741612,0.6187629263436895,0.9414198228695464,0.0,0.0,0.0,0.0
0.012925443215281572,-0.05743111575405842,0.7465579725530259,-0.003009663843871297,-0.5529879285508794,-0.011754882282161889,0.8331009035783642,0.04756995393100756,0.3929954784301157,-0.9270543704077321,-0.11442460456096554,0.32826268237131634,-0.8351931394441554,0.06460064950907386,0.648923036907005,0.8202410415177397,0.06562697637690834,0.619923258382523,0.946337385441435,0.0,0.0,0.0,0.0
0.014108870372976857,-0.0587637792327956,0.7464198605792337,-0.0024954519797645105,-0.5528421815949546,-0.012258500769393148,0.8331920691699092,0.05166275150499079,0.3971379372791918,-0.932488680725022,-0.12077452810630811,0.32335924625829776,-0.8241348776548416,0.06674753928668765,0.652427664194357,0.8170272950270011,0.06815366003429642,0.6200740046501816,0.951521604404442,0.0,0.0,0.0,0.0
0.015047208700195129,-0.059732260859476985,0.7461511839281033,-0.001913985672710885,-0.5526448935847602,-0.012799813052330413,0.8333163403170245,0.05491091879809592,0.4004457714763869,-0.9374297958905877,-0.12863789353155464,0.3138822203877451,-0.806111442373667,0.0664335270949612,0.6544766969180672,0.8165289115022727,0.06793605681482426,0.6186935689286379,0.9564463541304595,0.0,0.0,0.0,0.0
0.015520521933900841,-0.060153086599687905,0.7458000784662269,-0.001255092977331393,-0.5523401027303478,-0.013315099701679406,0.8335115738712818,0.05668822778101738,0.40210751835640623,-0.9409078555148263,-0.13600869945578606,0.2971480512352359,-0.7770374017755123,0.06282602881060045,0.6545925734562882,0.8187069896891238,0.06402456872326572,0.6154260785126026,0.9599282927055145,0.0,0.0,0.0,0.0
0.015543958220010886,-0.06018339564018319,0.7457936472999341,-0.001226325958386992,-0.552331833641885,-0.013320249060032267,0.8335170140047626,0.05676225773311271,0.4021412682501446,-0.9409391456571073,-0.13602757414837297,0.2971454927606274,-0.7770193782990013,0.06280551750639012,0.6546542563595097,0.8186268079528827,0.06402997155759668,0.6154023352822021,0.960035739035725,0.0,0.0,0.0,0.0
0.015543958220010886,-0.06018339564018319,0.7457936472999341,-0.001226325958386992,-0.552331833641885,-0.013320249060032267,0.8335170140047626,0.05676225773311271,0.4021412682501446,-0.9409391456571073,-0.13602757414837297,0.2971454927606274,-0.7770193782990013,0.06280551750639012,0.6546542563595097,0.8186268079528827,0.06402997155759668,0.6154023352822021,0.960035739035725,0.0,0.0,0.0,0.0
0.01562671653877315,-0.060576228000660474,0.7468352717628822,-0.002030003863150154,-0.5522347159062155,-0.01254990788877826,0.8335917450672602,0.05654208842387295,0.402862014629663,-0.9403398961388437,-0.13614028410702417,0.29929983097007434,-0.7744834040687767,0.05026224621939388,0.6449835617817312,0.8416838286273399,0.07464807932911921,0.6234300440597105,0.9518824696468742,0.0,0.0,0.0,0.0
0.01573557895914768,-0.06124878031432751,0.7480214629882798,-0.0025640512200853366,-0.552187658701054,-0.01201430330806993,0.833629337137082,0.05731711938752638,0.40321611596369317,-0.9374199911928938,-0.13526051786344923,0.30261474192677124,-0.7740992061356556,0.038276153086866535,0.6391384807177876,0.8572339978360912,0.08421388192984362,0.6317048719506021,0.9429336991531287,0.0,0.0,0.0,0.0
0.015843652697028317,-0.06210294684972989,0.7490833205554127,-0.0028728262191528124,-0.5521631819829905,-0.01169050700301349,0.8336491464506791,0.058848944694946496,0.4030185394730195,-0.9332651790411092,-0.13366759056651947,0.3064676034593639,-0.7758566969448382,0.02991550449560683,0.635268014531777,0.8675658448641942,0.09253063304853709,0.638749579867183,0.9354488522559399,0.0,0.0,0.0,0.0
0.015953270084888154,-0.06304308755413202,0.7499875401921203,-0.003037411393744274,-0.5521436687159987,-0.011510464905505167,0.8336639925212805,0.06081172081711569,0.4024656461747,-0.9286834696602261,-0.13168463137776137,0.3105442499873689,-0.7791255317192414,0.024099230803598853,0.6326461471632976,0.8748571687567787,0.0998333487021479,0.6445438028461893,0.929554681440912,0.0,0.0,0.0,0.0
0.016053967927916885,-0.06398972849806422,0.750760634181053,-0.0031221869534500298,-0.5521251917003912,-0.011406194907081323,0.8336773496720273,0.06290266728551965,0.4016930845056094,-0.9240473802576621,-0.1295924550251316,0.31451988527954144,-0.7830002392422077,0.019697098666232267,0.6308565758611139,0.8804110639888958,0.10635740220438361,0.649380688497337,0.9248458845378277,0.0,0.0,0.0,0.0
0.016139101502772153,-0.06489578105290733,0.7514288968915737,-0.0031668990892333446,-0.5521049989146655,-0.011340813274443995,0.8336914458466453,0.06495284043600041,0.4007957565544887,-0.9195564124376637,-0.12754617262906623,0.3182074856324456,-0.7869210503283963,0.01589836321520425,0.6295892232164727,0.8850071644899177,0.11223065172967948,0.6534859587628206,0.9209685818471847,0.0,0.0,0.0,0.0
0.016205717331905442,-0.06573819211440604,0.7520139368072315,-0.0031936175121489076,-0.5520822989859392,-0.011294245660454765,0.8337070084679313,0.06687750320041749,0.39983404362654945,-0.9152996549547713,-0.12562325075390574,0.3215254160890289,-0.7905881682430833,0.012258312206536464,0.6286137598548877,0.8890898794697955,0.11753775821069354,0.6570264069813544,0.917667244552169,0.0,0.0,0.0,0.0
0.016253631548335642,-0.06650968331763253,0.7525330085264852,-0.0032138819571121357,-0.5520571964604447,-0.011256128747921904,0.8337240684810593,0.06864454852740642,0.39884491653422166,-0.911302795323202,-0.1238527293897779,0.32446093308618046,-0.7938732306900055,0.008566457233200857,0.6277738226855029,0.8929103351560143,0.12234874576714427,0.6601263528221909,0.9147661874418492,0.0,0.0,0.0,0.0
0.016284447022924607,-0.06721175729774616,0.7529998392773326,-0.0032334073577652343,-0.5520299605078937,-0.011221061769051004,0.8337424995472447,0.07025000198869519,0.397851687536245,-0.9075618113776011,-0.12223786147084775,0.3270393431010273,-0.7967469180299981,0.004741728624963423,0.6269758253657012,0.8966081087328077,0.1267287727618524,0.6628810976419629,0.912144877507379,0.0,0.0,0.0,0.0
0.016300539407616797,-0.0678502977579978,0.753425023402171,-0.003254841782947134,-0.5520008472115114,-0.011186269238395679,0.8337621591696686,0.07170407389106455,0.3968682787982101,-0.9040591412429678,-0.12076885760719364,0.3293024136232528,-0.7992310667896629,0.0007656327790050935,0.6261721192451043,0.9002579876039106,0.1307396065612791,0.6653630951519797,0.9097232565407565,0.0,0.0,0.0,0.0
0.016304319451959794,-0.06843276093639394,0.7538162670479032,-0.0032792405900178546,-0.5519699810593524,-0.011150438695459532,0.8337829779429355,0.0730228535471437,0.39590177384416636,-0.9007729578985307,-0.1194305358647503,0.33129474348528676,-0.801369744650121,-0.003354346439216435,0.6253451345773307,0.903894584853822,0.1344368845237091,0.6676246158723607,0.9074520325059958,0.0,0.0,0.0,0.0
0.016297810653354783,-0.06896650041613868,0.7541784721146182,-0.003306931499904839,-0.5519374805134434,-0.011112967877985576,0.8338048835030112,0.07422323332956447,0.39495405414578066,-0.8976823451995372,-0.11820703817213453,0.3330558568791031,-0.8032117850062528,-0.007602325204387646,0.6244969783298964,0.9075238747735751,0.13786882902256944,0.6696995776641667,0.9053082393063439,0.0,0.0,0.0,0.0
0.016282432710042045,-0.06945789319902562,0.7545136430495997,-0.003337985071471503,-0.551903552884914,-0.011073563104019206,0.8338277414243621,0.07532029277147426,0.3940227359520796,-0.8947706012719241,-0.11708432245390726,0.33461621192924507,-0.8048023597489932,-0.011963984262446898,0.6236451578612238,0.9111254449768554,0.14107577658586018,0.6716037933539631,0.9032946073758763,0.0,0.0,0.0,0.0
0.016258890087801688,-0.06991211948034531,0.7548205606253346,-0.0033724800182769747,-0.5518685126124168,-0.011032040271389338,0.8338513448168897,0.07632659111212081,0.39310111960808514,-0.8920272044371144,-0.1160509103016546,0.3359958326012235,-0.8061812113359467,-0.0164355944724868,0.6228248827992335,0.9146455639613302,0.14409147531301844,0.6733334369747751,0.9014428970651137,0.0,0.0,0.0,0.0
0.016227114510335212,-0.0703335379176724,0.7550942057221418,-0.003410692894642429,-0.5518327405541402,-0.010988188642879204,0.8338754423394622,0.0772530051522282,0.39217694615008464,-0.8894485229277058,-0.11509720393780731,0.3372049275168531,-0.8073859934685047,-0.021036670330805734,0.6220994959572569,0.9179781631230143,0.14694732034787344,0.6748619529545534,0.899821366464952,0.0,0.0,0.0,0.0
0.016186306996309113,-0.07072656773564247,0.7553251762802421,-0.0034532528484256583,-0.5517965472105316,-0.010941701304012771,0.8338998289386286,0.07811092773618339,0.3912306308812934,-0.8870376313906942,-0.1142135303072593,0.33824664758041945,-0.8084600429082702,-0.025828329298907778,0.6215823450439782,0.9209275982891207,0.14967909938646018,0.6761368155015796,0.8985434815391021,0.0,0.0,0.0,0.0
0.01613534751627718,-0.07109675801886639,0.7555002251484074,-0.0035011460007937987,-0.5517600625818625,-0.010892242580594411,0.833924417659002,0.07891502652706758,0.39023587890283196,-0.8848027370021438,-0.11338756247783885,0.33912322490189684,-0.8094615787890357,-0.03092870623960202,0.6214747226767583,0.9231442993225943,0.15233312198441676,0.6770831825616386,0.8977655137920839,0.0,0.0,0.0,0.0
0.016074193244515454,-0.07145091841058687,0.7556074542007827,-0.003554941613629344,-0.5517237949375194,-0.010840334820018735,0.8339488615202106,0.07968452706255519,0.3891705226893489,-0.8827484344452885,-0.11260251860818092,0.3398474828359182,-0.8104617865975067,-0.036486561982962656,0.6221102359531743,0.9240467998106741,0.1549572905745259,0.677635511949548,0.8976342926438573,0.0,0.0,0.0,0.0
0.01600290022523641,-0.07179283486837316,0.7556483350322515,-0.003614175554277782,-0.5516877184076211,-0.010786255668988502,0.8339731744977769,0.08042872511930958,0.38802824103420847,-0.8808549009690602,-0.11184915090651405,0.34043216205404114,-0.8114796801650171,-0.04248352011938082,0.6234843266170468,0.9236210365177385,0.15757058256699918,0.6778013233354496,0.898146944429168,0.0,0.0,0.0,0.0
0.01592150929751103,-0.07212372909949434,0.7556380306006989,-0.0036773626309655324,-0.5516511389791793,-0.010730055966872579,0.8339978200007494,0.08114812455084905,0.3868169080599886,-0.8790743518429004,-0.11112460952576694,0.34089096781952455,-0.8124834993130701,-0.04873877540072318,0.6252561443201892,0.9224236476385078,0.1601648013341191,0.6776625066217422,0.8991479822999027,0.0,0.0,0.0,0.0
0.015830863121145646,-0.07244738744473792,0.7555937490546957,-0.003742566666941557,-0.5516134489743095,-0.010672924233557266,0.8340231919999078,0.08185147629902947,0.3855441653617289,-0.8773456947462266,-0.11041785814115908,0.341251053106158,-0.8134591183336191,-0.05510834661229144,0.6272198136418721,0.9207845891535661,0.16273776247312052,0.6773123594386291,0.9004674105590819,0.0,0.0,0.0,0.0
0.015731261052988138,-0.07277011035903788,0.7555299962293612,-0.0038082130211423274,-0.5515735145922165,-0.010615780117707887,0.834050034905861,0.08255349945773567,0.3842070716422043,-0.8756033269459066,-0.10971239995585003,0.3415423623460522,-0.8144108840312226,-0.06150198450444619,0.6292605903091384,0.9188824819301712,0.16530578837722845,0.6768271997990823,0.9019693301985857,0.0,0.0,0.0,0.0
0.015621863679172279,-0.07310023315330356,0.7554584299453256,-0.003873075657151059,-0.5515295645401593,-0.010559201392878526,0.8340795177853493,0.08327349924183257,0.38278964448629854,-0.8737747366899962,-0.10898742969055443,0.3417925454348411,-0.8153540932973727,-0.06786570767803145,0.6313158480301171,0.9168091334480454,0.16790062544638126,0.6762637647543821,0.9035516386748957,0.0,0.0,0.0,0.0
0.015500279178067693,-0.07344808587305997,0.7553888561835161,-0.003936153420946536,-0.551478939422584,-0.010503758451909631,0.834113395844937,0.08403580527114639,0.38126127383979935,-0.8717744082918834,-0.10821710457908994,0.34202502843969457,-0.816309857288296,-0.07416829699356256,0.633351096240191,0.9146103576102317,0.17056542972572417,0.6756623572955119,0.9051342736748457,0.0,0.0,0.0,0.0
0.015362347101049908,-0.07382555951599588,0.7553304138119983,-0.003996780949362697,-0.5514177152360501,-0.010449668877860908,0.8341542624036876,0.08486792589876455,0.3795773231761171,-0.8695027961744566,-0.10737216569309023,0.34225739374547287,-0.8172984275121725,-0.08039330148655886,0.6353483047289168,0.9123106303319806,0.17335317227430358,0.6750525996210802,0.9066445460444064,0.0,0.0,0.0,0.0
0.015201912661758379,-0.07424562676237606,0.7552924655784184,-0.004054963483514931,-0.5513401160289907,-0.010396426619480134,0.834205938627766,0.08579878087629904,0.3776798092960275,-0.8668479392579316,-0.10642159149056205,0.3424995266074348,-0.8183338898349957,-0.08654963901454875,0.6373012948937286,0.9099318519387452,0.17632579725838368,0.6744571579933888,0.9080047823940042,0.0,0.0,0.0,0.0
0.01501068817440437,-0.07472156926120098,0.7552851557006844,-0.004112148498381543,-0.551237637622253,-0.010342060991167034,0.8342740550189848,0.08685584710843786,0.37549940399627,-0.8636932747533965,-0.10533551544058886,0.3427514132246679,-0.8194194715073797,-0.09271104496035397,0.6392164107369879,0.9075115975272066,0.1795556525195034,0.6738940766176306,0.9091219738815696,0.0,0.0,0.0,0.0
0.01477844337655528,-0.07526553227602975,0.7553195921318598,-0.004172784301858307,-0.5510977507328562,-0.010281711625308092,0.8343669117447138,0.08805997505960472,0.37296140447812365,-0.8599379621947726,-0.10409080654200367,0.34300100744346473,-0.8205436057371673,-0.09910919874540054,0.6411202885108895,0.9051264954487878,0.18313052819883785,0.6733786412077574,0.9098785900268539,0.0,0.0,0.0,0.0
0.014494055816436285,-0.07588578397869768,0.7554075911879163,-0.00424719652669701,-0.5509020049932415,-0.010205029164892306,0.8344967343230493,0.08941589200508156,0.37000097571964674,-0.8555413620911285,-0.10268161543473601,0.3432237143279276,-0.8216783025547375,-0.10632261317627464,0.6430813021005273,0.9029273972563233,0.18716427487889378,0.6729266210769943,0.9101233046691753,0.0,0.0,0.0,0.0
0.014148491420528615,-0.07658158644848201,0.7555608206471383,-0.004356189654682673,-0.5506234270772017,-0.010091936267698802,0.834681387109967,0.09089536888226098,0.3665977083561682,-0.850611251413482,-0.10113848176412522,0.343387090869303,-0.8227846641117943,-0.1156057217484612,0.6452546523661998,0.9011937988995194,0.19181171996817933,0.6725613650586452,0.9096604627467154,0.0,0.0,0.0,0.0
0.013741435311620795,-0.07733407655988259,0.7557880357518221,-0.004536126647308567,-0.550223682064265,-0.00990752720507688,0.8349462043481383,0.0924103635646432,0.3628437717254774,-0.8455602720814817,-0.09955956366427036,0.3434665607148221,-0.823839921142768,-0.1293157437213817,0.6479464291198835,0.9004069636644008,0.19726893279604021,0.6723198477627919,0.9082484541652294,0.0,0.0,0.0,0.0
0.013292502672768304,-0.07809285214040874,0.7560818520200305,-0.004835942270210006,-0.5496529164842963,-0.009603604330797115,0.8353239227069484,0.09378549394828187,0.3590433386624718,-0.8413237373621584,-0.09814553309931114,0.3434728425810552,-0.8249323787705882,-0.15097933918452394,0.6515990836669655,0.9012944346077192,0.20367619636842213,0.6721978758923666,0.9056978391806838,0.0,0.0,0.0,0.0
0.012848494390846782,-0.07876865985998514,0.7563530569395991,-0.005272281466346558,-0.5488649862724354,-0.009160383251046228,0.8358441943753588,0.0948010426557046,0.35571593321270356,-0.8394311503787736,-0.09716621325247256,0.3434419839938031,-0.8265665765129869,-0.1830721234700517,0.6562468027718067,0.9046487129907803,0.21064868455950259,0.6717227455610025,0.9025456338521348,0.0,0.0,0.0,0.0
0.012494176419114017,-0.07918465721346697,0.7561614314726941,-0.005610885794653116,-0.5479290161272534,-0.00878484915684104,0.836459884077958,0.095342199566226,0.3534406106468852,-0.8417081565924007,-0.0968260619694281,0.34317736392381537,-0.8304196042353148,-0.21688104760014387,0.6590487393484243,0.9108856003710035,0.21502812847303726,0.6682142422729905,0.9029318667297372,0.0,0.0,0.0,0.0
0.012491966121000519,-0.07919121200406025,0.7561585894229148,-0.005617952436825128,-0.5479228966537237,-0.008775372661976717,0.8364639446907761,0.09534105637085849,0.35340547725883037,-0.841711427659491,-0.09682816080544623,0.34317384187951566,-0.8304333295207658,-0.21690337180434188,0.6590593462689107,0.9108924478109461,0.21505721421661778,0.6681929045840408,0.9029028042724895,0.0,0.0,0.0,0.0
0.012491966121000519,-0.07919121200406025,0.7561585894229148,-0.005617952436825128,-0.5479228966537237,-0.008775372661976717,0.8364639446907761,0.09534105637085849,0.35340547725883037,-0.841711427659491,-0.09682816080544623,0.34317384187951566,-0.8304333295207658,-0.21690337180434188,0.6590593462689107,0.9108924478109461,0.21505721421661778,0.6681929045840408,0.9029028042724895,0.0,0.0,0.0,0.0
0.01255702032738519,-0.07933225564594443,0.7563085423721612,-0.005688689307683056,-0.5486102159750429,-0.008716731655591607,0.8360134498505523,0.0954925668158806,0.3528672024470264,-0.83713232965904,-0.09645000675962292,0.34329340600251035,-0.8267466640957234,-0.21680698051356345,0.6618241912625088,0.9110323281513978,0.2178753754150225,0.6712821984757775,0.9038218765388949,0.0,0.0,0.0,0.0
