zhuoxili-jackie/tripod-support-walk/examples/trajectory_tripod_lowstep_p2_left_v0.05.csv
root_pos_x,root_pos_y,root_pos_z,root_rot_x,root_rot_y,root_rot_z,root_rot_w,FL_hip_joint,FL_thigh_joint,FL_calf_joint,FR_hip_joint,FR_thigh_joint,FR_calf_joint,RL_hip_joint,RL_thigh_joint,RL_calf_joint,RR_hip_joint,RR_thigh_joint,RR_calf_joint,FL_foot_joint,FR_foot_joint,RL_foot_joint,RR_foot_joint
0.0,0.0,0.745913,0.00590261038931276,-0.5534150365010598,0.008528410562500121,0.8328410549308913,-2.4067e-06,0.349062,-0.872669,9.86e-07,0.349071,-0.872662,3.27e-06,0.610866,0.872669,-2.38753e-06,0.610854,0.872668,0.0,0.0,0.0,0.0
1.677859634988637e-06,1.2335271109541366e-05,0.7459148854109604,0.005902750056559971,-0.5534073371035322,0.008527812188722485,0.8328461761940322,-3.077178251791026e-05,0.34910691170329805,-0.8727774674804851,-2.7378949807923814e-05,0.34906690596037415,-0.872679281076171,-6.417307059495234e-05,0.6108610196952791,0.8726751851003508,-6.982863535563075e-05,0.6108569045912938,0.8725793492042997,0.0,0.0,0.0,0.0
4.053296657148325e-06,3.0752651397950086e-05,0.7459162358396471,0.0059019308163322706,-0.553402762805344,0.008528036465696812,0.8328492192024263,-7.495420338912186e-05,0.34916581068944763,-0.8729015312763582,-7.155988830310707e-05,0.34905244550409925,-0.8726609230710165,-0.0001540136897480493,0.6108557668160065,0.8727189630827427,-0.00015965355345918885,0.6108696856640536,0.8724846617820472,0.0,0.0,0.0,0.0
8.07436310634035e-06,5.4795133965585823e-05,0.7459169228573121,0.005900440347907906,-0.5534006261724622,0.008528794299081618,0.8328506417260129,-0.0001333589391301322,0.349244023785526,-0.8730526179281367,-0.00012996010517599366,0.3490349019903378,-0.8726236184097691,-0.000266637528420684,0.6108508743730183,0.8727989847468103,-0.00027223759222605264,0.6108909470354843,0.872385402729331,0.0,0.0,0.0,0.0
1.4346588170256604e-05,8.661211294715775e-05,0.7459169851504293,0.005898268106061653,-0.5534001440234206,0.008530033418127756,0.8328509647938771,-0.00021101270533614285,0.3493505425325436,-0.8732500970763817,-0.00020760365402114464,0.3490147629614707,-0.8725706570635785,-0.000413324109276455,0.6108453843430081,0.8729211849487399,-0.000418841757893611,0.6109213594530443,0.8722711842032045,0.0,0.0,0.0,0.0
2.357655323325009e-05,0.00012999586333697924,0.7459163862882252,0.005895166882564838,-0.553400730463956,0.008531919834036988,0.8328505777588991,-0.0003172260313388132,0.349498219419467,-0.8735204944116545,-0.00031379558869961603,0.3489898193502803,-0.872498771547581,-0.0006116178951160443,0.6108372394809918,0.8730988858657228,-0.0006169712897694436,0.6109631358577559,0.8721271796942527,0.0,0.0,0.0,0.0
3.690576261731062e-05,0.00019017021998421832,0.7459149785957884,0.005890694853947537,-0.553401924202791,0.008534796676033211,0.8328497867253642,-0.00046500697199476724,0.34970537966783366,-0.8739003584651477,-0.0004615326760174714,0.3489576631772393,-0.8724029150456304,-0.0008846268241473473,0.6108237713122855,0.8733524472903372,-0.0008896549305726787,0.6110200924824482,0.8719353193384755,0.0,0.0,0.0,0.0
5.64342756292721e-05,0.00027365242609438367,0.7459125681794223,0.005884214933491411,-0.5534033779851226,0.008539186745755347,0.8328488215390553,-0.0006707128676086132,0.34999875783938506,-0.8744407171900868,-0.0006671499935540403,0.348919239529731,-0.8722818843880782,-0.001260271373868807,0.6108031402951879,0.8737084130295671,-0.0012646616741401394,0.6110989533094461,0.8716745801637319,0.0,0.0,0.0,0.0
8.659652863440682e-05,0.00038744881675779284,0.7459095154072869,0.00587485190396709,-0.5534051979475461,0.008545862265229522,0.8328476098530195,-0.0009521815241122404,0.350420312017623,-0.8752137146541444,-0.0009484443631371525,0.34888901912560755,-0.8721510557469144,-0.0017664883329109005,0.6107814043813597,0.8741922278430624,-0.0017696617047642115,0.6112160123411223,0.8713202070341844,0.0,0.0,0.0,0.0
0.00013819613831499253,0.0005361067475060546,0.7459105830985386,0.005860929459959688,-0.553410393089767,0.008556895040462939,0.832844142606143,-0.0013234455773980516,0.3510462922832757,-0.8763165881497637,-0.001319381224552472,0.3489263552020786,-0.8720653329173869,-0.002407965117661235,0.6108068371041714,0.8747865626196608,-0.0024089711076852624,0.6114335874462016,0.8708276582191893,0.0,0.0,0.0,0.0
0.00023344586547093606,0.0007117485486217275,0.7459463153518376,0.005832612888335955,-0.5534611987355751,0.008602933298264028,0.8328101054020302,-0.0018286358393437736,0.3519755362899246,-0.8776337721833832,-0.001823975252217879,0.34917438455837346,-0.8718765578250259,-0.0029541233574661772,0.6111315062910961,0.8752539812721066,-0.0029525208281208984,0.6121189101095389,0.8700983195210286,0.0,0.0,0.0,0.0
0.00034186408497370927,0.0009008818890720282,0.7459350424550928,0.005811017447963201,-0.5534350226962083,0.008616343768203458,0.8328275129638399,0.0003272329051699544,0.34982656364453635,-0.8760765934422854,-0.0022890961260632766,0.34950453498636846,-0.8724329842306403,-0.0037530688933016592,0.6111028798689605,0.8760722056188641,-0.0037470453484238966,0.6123378061861565,0.869539958858902,0.0,0.0,0.0,0.0
0.00047503609764093854,0.0011091740472155608,0.7459274347415269,0.005787608527224881,-0.5534206831653325,0.008644604859486997,0.832836911909634,0.003142609978032042,0.3477013193379071,-0.8754980283877892,-0.0028331272193040536,0.3499476046100386,-0.8730648768136564,-0.004575249519408831,0.6111359027419132,0.8769611416494536,-0.004563385727293943,0.612685162655114,0.8689472448452238,0.0,0.0,0.0,0.0
0.0006131815876924253,0.0013236955417845642,0.7459252615547761,0.0057632714560807855,-0.5534167058611638,0.00867922915377078,0.8328393634772542,0.005939274334344867,0.34573930821408677,-0.8754927852523122,-0.0034065075965699354,0.35040511267708563,-0.8736332073933919,-0.005397725545520762,0.6112199783100147,0.8778430932551498,-0.005378806031202326,0.613110383452583,0.8683168674834362,0.0,0.0,0.0,0.0
0.0007464993240365441,0.0015342948335560413,0.7459261636604464,0.005739767760752211,-0.5534179582621316,0.008714074534870024,0.832838329715934,0.00849806929113997,0.34394121750695716,-0.8757703547557604,-0.0039720947345915,0.3508369904400276,-0.8741243710040597,-0.006205183099648396,0.6113274376252961,0.8786883441643953,-0.006178197699197873,0.6135536761091378,0.8676791749498384,0.0,0.0,0.0,0.0
0.0008715955116891523,0.0017352167934341267,0.7459283341692005,0.005718039062613041,-0.553421535957895,0.00874658193862969,0.8328357610427602,0.010814029371157682,0.34227591630218845,-0.8761783551583837,-0.0045108262818439136,0.3512340144993366,-0.8745531049771841,-0.006984149961494375,0.6114421436709282,0.8794858692522691,-0.0069483355982646305,0.6139839064624851,0.8670597421959934,0.0,0.0,0.0,0.0
0.000988158310649607,0.0019244617543494845,0.7459308610070473,0.005698359583621778,-0.553426051256007,0.008776248495084066,0.8328325833873167,0.012957376996119117,0.3407026403384489,-0.876642365175236,-0.005016876164978287,0.35159872928273705,-0.8749363032827299,-0.007727692468925957,0.6115567790544976,0.8802341367879669,-0.007682518487510445,0.6143900206130336,0.8664708090025223,0.0,0.0,0.0,0.0
0.0010971251011245755,0.0021025146044683753,0.745933420044855,0.005680594437583757,-0.553430903403436,0.0088034847149777,0.8328291929692219,0.015004027441950908,0.3391838316833347,-0.8771279785977387,-0.00549219242029148,0.3519365761826954,-0.8752860833006249,-0.00843550112241063,0.6116687321128097,0.8809370670301852,-0.00838060313780767,0.6147715723208809,0.8659137570084348,0.0,0.0,0.0,0.0
0.001199827656856531,0.002271155348961011,0.7459359780588438,0.005664408942286288,-0.5534358616600723,0.00882896236209008,0.8328257386293465,0.01700983423779401,0.3376903372548822,-0.877620193755265,-0.005942297075026917,0.3522528404184268,-0.8756099390639611,-0.009111818345023214,0.6117776009862229,0.8816014336346443,-0.009046915251807949,0.6151326501945525,0.8653837638926067,0.0,0.0,0.0,0.0
0.0012976600227684722,0.0024326259349888475,0.7459386074236924,0.00564940642812761,-0.553440858462227,0.008853312074950192,0.8328222615041618,0.019007421734820517,0.3362013741687091,-0.8781133164486463,-0.006373687272163824,0.35255216834515546,-0.8759128021201139,-0.009763208444644593,0.6118839781220841,0.8822351326107257,-0.00968802897096203,0.6154786816897151,0.8648735704194428,0.0,0.0,0.0,0.0
0.0013919837444627743,0.002589175557932833,0.7459413880414423,0.005635201342235896,-0.5534458907795623,0.008877026833913955,0.832818761123715,0.021011767403121957,0.33470236845838786,-0.8786063538784215,-0.006792572129207552,0.3528388587402379,-0.8761988858218777,-0.010397006662204195,0.6119888732415522,0.8828462557139953,-0.010311234695628712,0.615815004594565,0.8643757334380078,0.0,0.0,0.0,0.0
0.0014841197001840703,0.0027428952673371407,0.7459443492468734,0.005621444647566231,-0.5534509600314792,0.008900465928192108,0.832815235155175,0.023027132170760717,0.3331834405309053,-0.8791004648121512,-0.0072045027763488565,0.3531171536737948,-0.8764728082180895,-0.011020566722505865,0.6120932985514802,0.8834428974853767,-0.010923802308988546,0.6161462732807131,0.8638836892347563,0.0,0.0,0.0,0.0
0.0015753583173902536,0.0028957226813650073,0.7459474122385211,0.005607819652285682,-0.5534560097511315,0.008923894718058604,0.8328117204579698,0.025052222873308848,0.3316409152288634,-0.8795960256663796,-0.007614473382129783,0.353391321109406,-0.8767401981371241,-0.01164108058166933,0.6121977411211394,0.884033548479998,-0.011532809071415587,0.6164760731606284,0.8633922147998135,0.0,0.0,0.0,0.0
0.0016669625944011684,0.0030495007010771635,0.7459503139943244,0.0055940237760534,-0.5534608452831206,0.0089475260977616,0.8328083461476695,0.027082805037958006,0.33008394201243696,-0.8800873754101723,-0.008027146419670434,0.3536655842065747,-0.8770081623761591,-0.012265600912423024,0.612301442380025,0.8846278092347832,-0.012145164983708781,0.6168064209664799,0.8628978136256535,0.0,0.0,0.0,0.0
0.0017601593020240781,0.003205985505917021,0.7459525273668801,0.0055797481396521595,-0.5534650493886596,0.008971549625491756,0.8328053895197988,0.029112067855292908,0.32854751883938493,-0.8805537581447255,-0.008446925930420237,0.3539440664827371,-0.8772858574729208,-0.012900841916058725,0.6124016606223172,0.8852369421380163,-0.012767418497159514,0.6171371699964383,0.862399297684336,0.0,0.0,0.0,0.0
0.0018561284581930877,0.0033667208423492066,0.7459532465064166,0.005564662136915411,-0.5534679521274255,0.008996148592954228,0.8328032959911178,0.031129589096984923,0.3271105952889938,-0.8809461697130445,-0.008877683220547692,0.35423097811806814,-0.8775850261679193,-0.013552354471687528,0.6124934943358965,0.8858734327607545,-0.013404949185540135,0.6174658215569867,0.8618983563763829,0.0,0.0,0.0,0.0
0.001956017662805234,0.003532760062726603,0.7459515797591726,0.005548400844352652,-0.5534687775355189,0.009021520523730026,0.8328025814734538,0.03312026931878992,0.325911480159534,-0.8811728213790934,-0.009322120675412321,0.35453125009370456,-0.8779196526392038,-0.014222889876287583,0.612571379613779,0.8865484134617458,-0.01406037110303703,0.6177889093541113,0.8613991234934855,0.0,0.0,0.0,0.0
0.002061014652826919,0.003704390138650073,0.745947115539011,0.005530532908860384,-0.5534671525267074,0.009047937530147956,0.8328034936923433,0.03506531168190065,0.32514014649585943,-0.8810920293542351,-0.009781206719621988,0.35485149844375524,-0.8783028107656753,-0.014910478244538651,0.6126335457235358,0.887266370777741,-0.014731668132330435,0.6181065490760409,0.860905060958599,0.0,0.0,0.0,0.0
0.0021724370828424978,0.0038813824373958084,0.7459406043978745,0.005510467317785831,-0.5534640405219382,0.00907588259063026,0.8328053908052415,0.03694809671067787,0.3249672562422697,-0.8805338682826244,-0.010255000053398177,0.35519981128786415,-0.8787385874660468,-0.015608627571846386,0.6126877201202677,0.8880218086321345,-0.015412412960005306,0.6184290394212204,0.8604139916400486,0.0,0.0,0.0,0.0
0.0022920733499086766,0.004065188914021365,0.7459319713649353,0.005487988408027756,-0.5534595622806104,0.009105489990824753,0.8328081921759748,0.03876505685261542,0.32539477786586046,-0.879503062788242,-0.01074712628165514,0.3555841263261148,-0.8792381802038538,-0.016323286911739298,0.61273650154839,0.888822147147544,-0.01610835613258513,0.6187607807069587,0.859923153832814,0.0,0.0,0.0,0.0
0.0024222938495349635,0.004259171015382929,0.7459203182540699,0.005463210353642355,-0.5534529803763187,0.009136581062345111,0.8328123886756807,0.040525630420507795,0.32625645227448974,-0.8781793914714097,-0.011265389184412434,0.3560124455688363,-0.8798200540111893,-0.017073722241048073,0.6127774513384128,0.8896884251562058,-0.01683819533942549,0.619100706869088,0.8594283409723632,0.0,0.0,0.0,0.0
0.0025658240417383944,0.00446684507104317,0.7459059089182069,0.005435970524520093,-0.5534448408734576,0.009169288116012328,0.8328176165826797,0.04224069416419255,0.3273668663574234,-0.8767141786968239,-0.011818448392237396,0.3564943213658033,-0.8804933685692524,-0.017877285247027593,0.6128175829998207,0.8906338908555178,-0.01761864256258733,0.6194589156264397,0.8589171582940615,0.0,0.0,0.0,0.0
0.002725642839596391,0.004692157591626733,0.7458894879845663,0.005405844473896288,-0.5534359739644116,0.009203989051135548,0.8328233222917895,0.04391506584166729,0.3285915642108878,-0.875208560903392,-0.0124163637575435,0.3570400461370142,-0.881264201543136,-0.01875126487650947,0.6128671370759287,0.8916689840244013,-0.018466229643406183,0.6198503964439789,0.8583717841374774,0.0,0.0,0.0,0.0
0.00290475755969453,0.004940502491103515,0.7458717163591696,0.005372068019931886,-0.55342690009874,0.009241348923127748,0.83282915691177,0.04554389898914595,0.3298534357422515,-0.873721302181625,-0.013073114891527347,0.35765737527803687,-0.8821346226849692,-0.019717713411786124,0.6129341816192055,0.8928087773995536,-0.019401972034267623,0.6202907145970109,0.8577688812890009,0.0,0.0,0.0,0.0
0.0031058479462525855,0.005220106706462029,0.7458529263384904,0.005333342730133798,-0.5534181989795341,0.009282492261092068,0.8328347302022139,0.04710913441783257,0.3311171784591137,-0.8722845765633698,-0.013810212661498759,0.3583461121154251,-0.8830917950699221,-0.020809110241560572,0.6130224767488373,0.894081010272,-0.02045677834777851,0.6207958670583646,0.8570776847679135,0.0,0.0,0.0,0.0
0.0033419964847542227,0.005538675840388505,0.7458331173814567,0.005287034966366541,-0.5534096911751831,0.009329620887762135,0.832840152219346,0.048602715757204214,0.3323709478205922,-0.870888449034858,-0.01464915787924996,0.3591708156398343,-0.8842296501871902,-0.022043359449928735,0.6131502306573204,0.8955181560602625,-0.021647059245062997,0.621401099175596,0.8562810955700656,0.0,0.0,0.0,0.0
0.0036282816807007697,0.005906242981308969,0.7458121192967597,0.005229481544004848,-0.5534011660151843,0.00938595267549762,0.8328455474265253,0.05001937558056039,0.3336080643195085,-0.869499632751307,-0.015618724724681916,0.36020297725865963,-0.8856496972857612,-0.023441295845446512,0.6133358901882814,0.8971619679793122,-0.02299173079192319,0.6221486015891199,0.8553569905524747,0.0,0.0,0.0,0.0
0.0039804823986603925,0.006333878318747392,0.7457898835815125,0.005155965983741837,-0.5533918673118706,0.009455913929489544,0.8328513930465707,0.05137387692986391,0.3348118249017395,-0.8680504971987928,-0.01675236756536809,0.36151598269732865,-0.8874544564924202,-0.02501899126049765,0.613596428453011,0.8990527786893099,-0.024504691574482287,0.6230855876981627,0.8542773879775161,0.0,0.0,0.0,0.0
0.004413460392922875,0.006830894846431359,0.7457669035415607,0.0050607752745524225,-0.5533799638430779,0.009545266332615945,0.8328588668323665,0.052726076406684856,0.33594003913565534,-0.8664157151871115,-0.018081906658474343,0.3631810845976269,-0.8897431257552598,-0.02677249191461926,0.6139461096837113,0.9012120320199848,-0.026180149471959634,0.6242615641915034,0.8530118242415774,0.0,0.0,0.0,0.0
0.004932553752458499,0.007402242640953051,0.7457449330915186,0.004937862557352169,-0.5533611916558084,0.009660705744077815,0.8328707461828364,0.05419945749993062,0.33689761309518373,-0.8643894134898921,-0.019631016383830763,0.36522158265256893,-0.8925439591365616,-0.02866846629146979,0.6143820395131001,0.9036164595026048,-0.027983989276340836,0.6257110491006541,0.8515177452577353,0.0,0.0,0.0,0.0
0.005506408117076241,0.008051094128914502,0.7457275445629125,0.004782388928202675,-0.5533306058561781,0.009808626689753786,0.8328902450031669,0.05594453820778008,0.3374961840601937,-0.8616941387165371,-0.02141994919496652,0.3674426602116588,-0.8955313076821435,-0.03067032505073442,0.6148377515776781,0.9061915406904266,-0.029879433648164783,0.6274065372069081,0.8497052332896289,0.0,0.0,0.0,0.0
0.006091330049031093,0.008758026278066341,0.7457196622831855,0.004589540375639465,-0.5532816829875525,0.00999517018378943,0.8329216121356192,0.058163791348375314,0.33740378505405483,-0.857847458348622,-0.023413206110279566,0.3696229217808873,-0.8983537606555878,-0.03261661437067415,0.6152275943034985,0.9087593907486738,-0.03171138566922812,0.6292896535273842,0.8475465080657831,0.0,0.0,0.0,0.0
0.006645105981618464,0.009454514256805938,0.7457211742830708,0.0043544757758442396,-0.5532053209732909,0.010224577899998696,0.8329708094491203,0.06106640234229066,0.33605013854340876,-0.8520141734722102,-0.02545083848094903,0.37164613872986096,-0.9008970252184694,-0.034080600531256,0.6154400770298146,0.9110218234007219,-0.03307569828744573,0.6312384840352763,0.8452608460119059,0.0,0.0,0.0,0.0
0.007080221781938039,0.010000407506750438,0.7456815751565506,0.004077088161203601,-0.5530881109040775,0.010490563416054503,0.8330467375891333,0.06466606081417178,0.33240959488472327,-0.8429913850408428,-0.027178742612295727,0.3732276456616589,-0.9030692744813287,-0.03431129601583024,0.6150001287596164,0.9129161001023206,-0.03326723504302566,0.632664405220566,0.8438377817788606,0.0,0.0,0.0,0.0
0.007273009905850775,0.010251512761378765,0.7455663551777445,0.003749309851108256,-0.5529244923273063,0.010779937583396229,0.8331531920396926,0.06820377776293728,0.32505401309880105,-0.8292577460608073,-0.028207690705372275,0.37388237567685634,-0.9043647371989204,-0.03251958774499355,0.613461403007866,0.9142199521877463,-0.031545014211842345,0.6330089836242172,0.8441191014744964,0.0,0.0,0.0,0.0
0.0072815515816953185,0.01026486774856795,0.7455648615248919,0.0037375878628159807,-0.5529212926936743,0.010782892512156384,0.8331553299067318,0.06821259953228384,0.3250561906929204,-0.8292483787419914,-0.02823955770914121,0.37389767758775405,-0.9043785277333304,-0.03251910305178995,0.6134467126799709,0.9142665157665741,-0.031538823653772086,0.6330371363455273,0.8440791120271884,0.0,0.0,0.0,0.0
0.0072815515816953185,0.01026486774856795,0.7455648615248919,0.0037375878628159807,-0.5529212926936743,0.010782892512156384,0.8331553299067318,0.06821259953228384,0.3250561906929204,-0.8292483787419914,-0.02823955770914121,0.37389767758775405,-0.9043785277333304,-0.03251910305178995,0.6134467126799709,0.9142665157665741,-0.031538823653772086,0.6330371363455273,0.8440791120271884,0.0,0.0,0.0,0.0
0.007340983351600082,0.010463493835162338,0.7461232432124619,0.004110028484448414,-0.5528993692693237,0.010395958420557658,0.8331730427564007,0.06831274133665566,0.32627048199954384,-0.8280690708454225,-0.02810965987760035,0.3743726142874927,-0.9039111313892862,-0.037415642808275244,0.617762215018734,0.9098299881456209,-0.02552535772236113,0.6271924984319593,0.8574019031710778,0.0,0.0,0.0,0.0
0.007412444607724681,0.01083517426047506,0.7467860193650335,0.004355280774210608,-0.5528977187886386,0.010125382327350435,0.8331762242889689,0.06782777804029903,0.32808593949875253,-0.8278377043326888,-0.02856330124967637,0.3746323938495621,-0.9021389801814133,-0.04202699095281945,0.6223744399326118,0.904820595624611,-0.019925547622265522,0.6232928815737963,0.8668140610805017,0.0,0.0,0.0,0.0
0.007495388225666172,0.011327629087042893,0.7474039434123559,0.004491556123305514,-0.5528950986569917,0.00996745844793795,0.8331791437480629,0.06688877971549313,0.33027275523965943,-0.8288108629459692,-0.029484978460607696,0.3746685036045768,-0.8998137619097142,-0.046186297669045334,0.6264283113949712,0.9004991069432926,-0.01618174330893637,0.6204321485428801,0.8734875225752761,0.0,0.0,0.0,0.0
0.007586515231150019,0.011884943690798488,0.7479559694989459,0.004557527891096151,-0.5528884696217032,0.009883541960601532,0.8331841841377007,0.06568843577993215,0.33264557385678795,-0.8306280827670944,-0.030679732552147964,0.37455712689081455,-0.897298053572729,-0.049977594728901606,0.6299051849176073,0.8969397183069205,-0.013813679577667447,0.6182177689403279,0.8785468606179893,0.0,0.0,0.0,0.0
0.007677291481177617,0.01245971119789416,0.7484526829882865,0.004584357040353232,-0.5528798488942541,0.009837766673208351,0.8331902992138571,0.06439422049498135,0.33502646496836386,-0.8328128473102332,-0.031973410309198855,0.37434902803474296,-0.8947428203617332,-0.0534779715278501,0.632953280829446,0.8939278973201703,-0.01223578365045869,0.6164353859561705,0.8826808149652755,0.0,0.0,0.0,0.0
0.007761561255604796,0.013023435486665015,0.7489037896727286,0.00459094895459678,-0.5528689821216873,0.009812922265744643,0.8331977666508906,0.06309606422268066,0.3373056500393134,-0.8350759607292497,-0.03327212634560577,0.3740756500083181,-0.8922272982173884,-0.056713089868341456,0.6356683136854967,0.8912903352700081,-0.010997292451308042,0.6149232865075516,0.8863083534980185,0.0,0.0,0.0,0.0
0.007836422056859445,0.01355929163024447,0.7493173617585863,0.00458837273280136,-0.5528562576125328,0.009798089865751756,0.8332063986128001,0.06184892646585483,0.33942554298000444,-0.8372463241956979,-0.03451880434322514,0.3737624818647067,-0.8897986951023842,-0.05970059789501166,0.6381241093349023,0.8889035539983575,-0.009855711106197602,0.6135656941910658,0.8896658507589674,0.0,0.0,0.0,0.0
0.007900971665790882,0.014059166292367316,0.7496996363547127,0.004582597710810821,-0.552842169164214,0.00978755716415702,0.8332159021026818,0.0606798370447635,0.3413638777763748,-0.8392386769690905,-0.0356855373057911,0.3734277853477125,-0.8874800814441011,-0.06245394258731857,0.640372677264159,0.8866866420351529,-0.00869304068275822,0.6122839733096545,0.8928882099880031,0.0,0.0,0.0,0.0
0.007955496925991248,0.01452053316754696,0.7500554665051737,0.004576675588571857,-0.5528271176094528,0.009778437782809693,0.8332260282964695,0.059598786452214975,0.3431199655558998,-0.8410210209469634,-0.03676215353567179,0.37308422302631017,-0.8852802268221807,-0.06498838587717753,0.642451566865328,0.8845883286516065,-0.007459359080885073,0.6110299446885953,0.8960513948800719,0.0,0.0,0.0,0.0
0.008000882674004338,0.014943911909558006,0.7503885239597549,0.00457209564738901,-0.5528113929808463,0.009769245061300669,0.8332365940013075,0.05860676831161407,0.34470403092841073,-0.8425905568069463,-0.03774781980593722,0.37274054899894715,-0.8832009350258577,-0.06732118654970591,0.6443880706110001,0.8825777364370448,-0.0061391679043528245,0.6097786369528397,0.8991958507080132,0.0,0.0,0.0,0.0
0.008038157545670017,0.015331176224495814,0.750701238666481,0.004569542798348802,-0.5527952041209956,0.009759231498826916,0.8332474656307052,0.057700592397755775,0.34612973373984757,-0.843958412217755,-0.038646032901041814,0.37240233820631535,-0.8812412870711767,-0.06946951968917629,0.6462001807713943,0.8806400012709038,-0.004732286369207312,0.6085216651108868,0.9023387208886404,0.0,0.0,0.0,0.0
0.00806820424317997,0.01568447888851199,0.7509945942534297,0.004569331580990731,-0.5527787294795035,0.009748017057288883,0.8332585274735445,0.05687588693429839,0.3474093922135205,-0.8451406152979763,-0.03946152750077065,0.37207237316711345,-0.8794006146254745,-0.07144866296954828,0.6478961354159526,0.8787753158849896,-0.003243675132955859,0.607263323249945,0.9054783025378599,0.0,0.0,0.0,0.0
0.008091593802922724,0.01600568083012203,0.751267766752723,0.004571666190405759,-0.5527621642303744,0.009735374129966464,0.8332696515259305,0.05612872113004337,0.34855124661422254,-0.8461538640781449,-0.04019863666957795,0.3717506548923987,-0.8776807549148957,-0.07327131545057913,0.6494727521703582,0.877001232752802,-0.0016765805345023857,0.6060205854480968,0.9085922102329961,0.0,0.0,0.0,0.0
0.008108493366461978,0.016296252235154768,0.7515175513827854,0.004576824000981945,-0.552745747623475,0.00972108924991042,0.8332806799572549,0.05545601327350434,0.349558265836117,-0.8470152733771715,-0.04086092083663882,0.3714337593022431,-0.8760876864163206,-0.07494881552468302,0.65091233552813,0.8753587205870055,-2.4540215372861884e-05,0.6048282751655587,0.9116283185205107,0.0,0.0,0.0,0.0
0.008118619014513233,0.016557653685777884,0.7517375626711713,0.004585326104013397,-0.5527297577656506,0.00970485319247282,0.8332914289066926,0.05485475525210257,0.3504282958342791,-0.8477457205554718,-0.04145202361902484,0.37111334442287486,-0.8746324917409826,-0.07649489536687684,0.6521781329132503,0.873922159108849,0.0017414585482211416,0.6037516308452997,0.914485098318006,0.0,0.0,0.0,0.0
0.008121273178137507,0.016792163927096374,0.7519174508333404,0.00459810601524462,-0.5527144729700602,0.009686176291123297,0.8333017141344176,0.05432012608052198,0.35115584853547366,-0.8483762522024058,-0.04197766326760424,0.3707742727520427,-0.8733314590197456,-0.0779318330741106,0.6532098758051395,0.8728106020964874,0.0036917090028069383,0.6029098926856467,0.9169749335354621,0.0,0.0,0.0,0.0
0.008115677713730764,0.017003852457157975,0.7520432636693524,0.004616530007670555,-0.5527001721074059,0.009664465055765608,0.833311349687689,0.05384300991678862,0.3517367696064206,-0.8489548932224649,-0.04244816759409265,0.3703949175605241,-0.8722043771223391,-0.07929570948439064,0.6539263369804041,0.8721874730122445,0.00595272871123565,0.6025146854220205,0.9187609858036031,0.0,0.0,0.0,0.0
0.008102124871331625,0.017198494857955614,0.7521025008938518,0.004641596475723942,-0.5526876502391395,0.009639976060230529,0.8333197991868747,0.053408614023992905,0.35217799544770517,-0.8495422205035975,-0.04287954673819936,0.36995717213558943,-0.871265452230464,-0.08062648730040436,0.6542562107565216,0.8722079767369854,0.008678837552958837,0.6029113036572513,0.9192791879349899,0.0,0.0,0.0,0.0
0.008080790401712775,0.01737847624169942,0.752095922858833,0.004673081948544029,-0.5526768788317824,0.00961281167868878,0.8333270809001058,0.05301117591508528,0.3524873068347241,-0.8501500304706835,-0.04327761654794329,0.36945820887195496,-0.8705051766506404,-0.08193612927168113,0.6542034183106751,0.8728728392023287,0.011859494607081602,0.604097610436117,0.9185221680231392,0.0,0.0,0.0,0.0
0.008051706045116831,0.017542970592296,0.7520377346728284,0.004709526492125108,-0.552666954608518,0.009582955885148531,0.8333338014268169,0.052653480786268456,0.3526738149113223,-0.8507418324312607,-0.04363849259624678,0.36890997407558346,-0.8698888757615889,-0.08320891545366592,0.6538480173040949,0.8740263625543381,0.015321596850740707,0.6057249971125719,0.917040852780826,0.0,0.0,0.0,0.0
0.008015913298538409,0.017693390703027865,0.7519440122368363,0.004749083068067258,-0.5526573846082695,0.009551281490221851,0.8333402873195646,0.05233130397520706,0.35275909392348426,-0.8512951388697533,-0.043965303827437484,0.36832658205985885,-0.8693725781658616,-0.08443503756613757,0.6532819367679213,0.8755012635693898,0.01892210417159661,0.6075798715464629,0.9151614954828136,0.0,0.0,0.0,0.0
0.007974245733468412,0.017833806259913088,0.7518276930288081,0.004790263912213102,-0.5526475229124308,0.0095188431749573,0.8333469628042189,0.05203343849524809,0.35276785590552534,-0.8518073248273333,-0.044268450082904726,0.3677134055413894,-0.8689099883282904,-0.0856210247485255,0.6525773838954239,0.8771719114370014,0.02257678895199922,0.6095417689476963,0.9130642091680846,0.0,0.0,0.0,0.0
0.007927139526800363,0.01796958688673445,0.7516984884432238,0.004832038080360456,-0.5526366142096332,0.009486136722107458,0.8333543287539774,0.051746533278725755,0.35272347836955403,-0.8522863791393445,-0.04456070550944077,0.36706859654827023,-0.8684572464969659,-0.08678642501307315,0.6517875693433228,0.87895150847228,0.026238660349035707,0.6115457379929397,0.9108448036226355,0.0,0.0,0.0,0.0
0.007874401698847342,0.018106919396640754,0.751563707946074,0.004873626250706864,-0.5526236859612219,0.009453506487508005,0.8333630305556468,0.051455415963312455,0.3526460227167202,-0.8527455583357061,-0.04485678184415965,0.36638337195195175,-0.8679700052508242,-0.08795768718137906,0.6509499997441024,0.8807807644190835,0.029882529009388786,0.6135574327064726,0.9085540316713584,0.0,0.0,0.0,0.0
0.007815066069900926,0.018252527944477098,0.7514291821492167,0.004914397036214866,-0.552607391946155,0.009421287331311791,0.8333739607242716,0.05114347677671423,0.3525514211627552,-0.8531993125629296,-0.04517285196505599,0.3656424603053839,-0.8674010131609843,-0.08916496243661276,0.6500909406231045,0.8826163928311718,0.03349647430120936,0.6155592343247539,0.9062210531218372,0.0,0.0,0.0,0.0
0.007747372448033104,0.018413225635428052,0.7513000175493866,0.004953940646545435,-0.5525858321213651,0.009389592498727159,0.8333883801466857,0.05079415590411083,0.3524509302425534,-0.8536595010106641,-0.045525013781439985,0.36482554186059446,-0.8667009722569813,-0.09044070483922789,0.6492298786408236,0.8844212457395164,0.03708174207585853,0.6175442165456899,0.9038687844483799,0.0,0.0,0.0,0.0
0.007668776038340208,0.01859545510331923,0.7511810423912564,0.0049923184888419556,-0.5525562746910769,0.009358060764270069,0.8334081033649464,0.050392428306143676,0.35235056583514707,-0.8541329694586403,-0.04592780664075754,0.36390884227677994,-0.8658216325988526,-0.09181935985109554,0.648382240291811,0.8861574968878113,0.04066824102059973,0.6195149667226926,0.9015272654482686,0.0,0.0,0.0,0.0
0.007576056083635132,0.018804654181300923,0.751077025613572,0.0050306528181172545,-0.5525147389706646,0.009325317352012615,0.8334357768950684,0.04992711914430638,0.3522506196900909,-0.8546198048694443,-0.04639196371111508,0.3628677648026501,-0.8647231198392251,-0.09333931728438338,0.6475615417646756,0.887781597932961,0.04435511954952688,0.6214869684196729,0.8992486818087563,0.0,0.0,0.0,0.0
0.007465647119110472,0.019044214407206304,0.7509928363605294,0.00507230419862478,-0.552455348457521,0.00928792337792479,0.8334753110741322,0.0493949379614424,0.35214559770989406,-0.8551117432313747,-0.04692054454077959,0.36168210302404563,-0.8633885664234341,-0.09504824342819644,0.6467826923925178,0.8892385074152336,0.048395038590951366,0.6234980846937717,0.8971279119681606,0.0,0.0,0.0,0.0
0.007334446852427802,0.019313613061015165,0.7509340047296217,0.005124894897908142,-0.5523693217982089,0.009238566670007572,0.8335325528582288,0.048807622112554,0.3520255283178634,-0.8555900458722873,-0.04750210294412103,0.3603468742542331,-0.8618507439315054,-0.09701193933149002,0.6460700743720245,0.890449049559444,0.053343409569332936,0.6256259847652944,0.8953325640628529,0.0,0.0,0.0,0.0
0.0071815897128355115,0.019604915492810366,0.7509086621312235,0.005202918959904009,-0.5522434804963456,0.009163627311978331,0.8336162761235328,0.0482040749634226,0.3518806247689524,-0.856022739755679,-0.04809904974851561,0.3588943699028161,-0.8602364268151421,-0.09931982703853756,0.6454762541535501,0.8912774622979699,0.060261815925689854,0.6280073321405502,0.894144124216395,0.0,0.0,0.0,0.0
0.007011830750680114,0.019896503456722024,0.7509316791855246,0.00532828102398241,-0.5520585020986535,0.009042242810128638,0.8337393222865784,0.047667629812564546,0.3517116192605462,-0.8563667097829105,-0.04863107310563009,0.3574337121248529,-0.8588284206936824,-0.10205520265774984,0.6451112972453125,0.8914657647309507,0.07080841973142142,0.6308134084208493,0.893997902194344,0.0,0.0,0.0,0.0
0.006839951252500288,0.02014444335227814,0.7510256977376991,0.005517651784063536,-0.5517893463083863,0.008858679948186308,0.8339182193770137,0.047329441543607055,0.3515393530007391,-0.8566076434420897,-0.048972359692448904,0.3561952630616591,-0.8581016237564629,-0.10511482061649537,0.6451244172844703,0.8905854502609967,0.08652604357619564,0.6340047729017667,0.8954636277786805,0.0,0.0,0.0,0.0
0.006691618400459178,0.020278587286506375,0.7511864786934481,0.005724557136071299,-0.5514361461044508,0.008642909709700351,0.8341526876578512,0.04733237515932026,0.3513639913038399,-0.856824604913701,-0.04898518290045746,0.35547462143952263,-0.8584909762428928,-0.1076961236518301,0.6454498753154913,0.888429924073423,0.10486777850594457,0.6363909314005894,0.8988707721822453,0.0,0.0,0.0,0.0
0.0066903260073008074,0.02027994289684154,0.7511858512910556,0.005726026080818216,-0.5514338806834193,0.008640484328929018,0.834154200307298,0.04733367895120274,0.3513607522353233,-0.8568278282643887,-0.04898375612458101,0.35546501811248404,-0.8584934713330343,-0.10770763884042944,0.645442888844516,0.8884230210072125,0.10487666121038947,0.6363963521622936,0.8988740502513423,0.0,0.0,0.0,0.0
0.0066903260073008074,0.02027994289684154,0.7511858512910556,0.005726026080818216,-0.5514338806834193,0.008640484328929018,0.834154200307298,0.04733367895120274,0.3513607522353233,-0.8568278282643887,-0.04898375612458101,0.35546501811248404,-0.8584934713330343,-0.10770763884042944,0.645442888844516,0.8884230210072125,0.10487666121038947,0.6363963521622936,0.8988740502513423,0.0,0.0,0.0,0.0
0.006717231854286912,0.0203386852617473,0.7512381184934445,0.0057509719834835,-0.5516990173599893,0.00862656397467931,0.833978838436119,0.04718152442219843,0.35143728398022106,-0.8554701060628436,-0.0490921730228755,0.35529078766601935,-0.8567532455766608,-0.10846308450043322,0.6464896002932097,0.8888918146999873,0.10461110601116883,0.6373690946148237,0.8989476421995267,0.0,0.0,0.0,0.0
0.006757789746134992,0.020409400824638067,0.7512776366326144,0.0057606342037367355,-0.5518755498676189,0.008621728629299595,0.8338620139731314,0.047003531632282713,0.3517066676341966,-0.8549360063051499,-0.0492456615274762,0.35524537481908636,-0.8556530495910133,-0.10909814990923648,0.6472468972819062,0.8892669334586489,0.10433038866184619,0.6381151070175279,0.8988668004620334,0.0,0.0,0.0,0.0
0.006789077136774819,0.020482606342156113,0.7512992688349871,0.0057615068835262535,-0.5519856027650577,0.008622991139283142,0.8337891480478375,0.046818403168715966,0.35198051346739545,-0.8548184460280592,-0.04941716240457782,0.35518692345576114,-0.8548984231744878,-0.10961488800775165,0.6477000459413771,0.8896254253323619,0.10404569136798879,0.6385951895828882,0.8987609438818733,0.0,0.0,0.0,0.0
0.00680951090951332,0.02056244274418451,0.7513053456240598,0.005756977328531358,-0.5520534118382022,0.008628191115681316,0.8337442305694895,0.04661571982908657,0.3522363101159156,-0.8549518917332225,-0.04961241431080656,0.35507623178151027,-0.8543060938365175,-0.11008318169724987,0.6479238425097916,0.8900302769263446,0.10372740371920719,0.6388723014854357,0.8986624621264773,0.0,0.0,0.0,0.0
0.00682228474799,0.020658916214284454,0.7512965898625621,0.005747985223860661,-0.552095281144496,0.008636860606529078,0.8337164780923486,0.0463707298370471,0.3525018532655362,-0.8553056115505108,-0.04985402898901932,0.3548963141942887,-0.8537633120529327,-0.11058168892494108,0.6479697461525116,0.8905573744563656,0.1033302207756351,0.6389980307146064,0.8985823411772461,0.0,0.0,0.0,0.0
0.006831207986470437,0.020785088352825803,0.7512710330185399,0.005734038339533177,-0.5521217615257182,0.008649588766708708,0.8336989060015765,0.046050861687296836,0.352820086295049,-0.8559168376571546,-0.05017376643107554,0.3546305639744622,-0.8531906845188042,-0.11118999195299761,0.6478578898221825,0.8913021918075508,0.10279999425531618,0.6389998297186915,0.8985332671579855,0.0,0.0,0.0,0.0
0.006840333208833554,0.020954695410893127,0.7512243069445668,0.005713946659991004,-0.5521398655415415,0.008667431173675919,0.8336868688723511,0.04562186112355612,0.3532388290137948,-0.856859053198403,-0.05060587907794388,0.3542639160280083,-0.8525356730758502,-0.11198342997262312,0.6475853400890633,0.8923758359778874,0.10208208978693051,0.6388850122707627,0.8985401668322416,0.0,0.0,0.0,0.0
0.0068556710259993344,0.021175330825546804,0.751153284427688,0.005687015300246392,-0.5521550774328193,0.008690808080183382,0.8336767348181461,0.04506554863338567,0.35380491944530695,-0.8582005939269566,-0.051169019556868305,0.35380905947144087,-0.8517983531097622,-0.11300822881668587,0.6471596954020421,0.8938531634583705,0.10114984115280116,0.6386656127357053,0.8986312483938892,0.0,0.0,0.0,0.0
0.0068953415548751755,0.021427339731551715,0.7510802809392382,0.005656676982611037,-0.5521750602427574,0.008715625467786297,0.8336634469161562,0.04443650815901416,0.3545880973032188,-0.8599036843916809,-0.051808977078005275,0.35342896935059465,-0.8511390530119171,-0.11420340687311482,0.6467813506474296,0.8954766310422041,0.10008820639942542,0.6385123033496893,0.8986743653948663,0.0,0.0,0.0,0.0
0.007054626287876155,0.021607167106456087,0.7511968881435719,0.0056644381510350195,-0.5522072841277277,0.008705596522767398,0.8336421546958231,0.04403722768211,0.35603804558682334,-0.8617080045759499,-0.05222564085593944,0.35407413490883255,-0.8514654594906881,-0.1154000428625027,0.6478889400267234,0.8950612284103844,0.09909339350324835,0.639610718585532,0.8971098461157523,0.0,0.0,0.0,0.0
0.007185161740248405,0.021878591775724363,0.7511244217939446,0.005939901463529183,-0.552315282521091,0.008445161067305341,0.8335713679816493,0.043765591293107156,0.3572651833258144,-0.8628629407519441,-0.05251625509364554,0.3542002361589484,-0.8520230444725062,-0.09294741501433751,0.6422864325058829,0.8924146029636428,0.09495337522720446,0.6390541143596608,0.8971384113250602,0.0,0.0,0.0,0.0
0.007326311780422735,0.022251956399995693,0.7510974187135737,0.006179475103327366,-0.5524199787369775,0.008222848370311692,0.8335024690691465,0.043190805268542215,0.35883986500726683,-0.8645854697465253,-0.053107207446443344,0.3541936608362014,-0.8520290303738887,-0.07427845900564212,0.6370282595923228,0.8911904618664033,0.09061685331080717,0.6388911414402526,0.8963922586463499,0.0,0.0,0.0,0.0
0.007459893961846466,0.022649823653793883,0.7511136687807417,0.006330301760703439,-0.5524983802387603,0.008080356245089718,0.8334507633664493,0.042446900138041296,0.3604987324920959,-0.8666534043738436,-0.05386449765343759,0.35411751187502927,-0.8516222920223925,-0.062234279395701794,0.6330663397836682,0.8914250423810277,0.08698895925709857,0.6391313083320831,0.8951054030828283,0.0,0.0,0.0,0.0
0.007575141794412598,0.02302575701906044,0.7511565938516265,0.006418838048912682,-0.5525541645715987,0.007996026949433882,0.8334139171418415,0.04167186161937334,0.36204340428531995,-0.8686963411399891,-0.0546492759366361,0.3539985530030259,-0.8509918289846747,-0.054702432420030075,0.6300664727617842,0.8926417726912163,0.08407994225219773,0.6395940504865996,0.8935854166589066,0.0,0.0,0.0,0.0
0.0076704165383467155,0.023359926202699853,0.751220164144518,0.006474889238566955,-0.5525941540011575,0.007943065713162495,0.8333874755959377,0.04094952568128082,0.3634006317159801,-0.8704937810662269,-0.05537726119375266,0.35386695212197766,-0.8502702636885702,-0.04957576534609692,0.6276013165366913,0.8944354616593325,0.08171133554616045,0.6401765721294568,0.8919551808153894,0.0,0.0,0.0,0.0
0.007748599930203035,0.023647523828408543,0.751303307697369,0.006517328569987931,-0.5526234647458214,0.007904352618329597,0.8333680770525829,0.04031519584933863,0.3645685623075331,-0.8719682183653104,-0.05601342721117769,0.3537507127004901,-0.8495365826713424,-0.04554003586494252,0.6253884749838898,0.8965367379923362,0.0797279048754589,0.6408404327128954,0.890243719018329,0.0,0.0,0.0,0.0
0.007813802847619709,0.02389109164931798,0.7514049457341655,0.0065558209366412485,-0.5526454939406892,0.007870906476458562,0.833353483265137,0.03977581601691176,0.3655735505187883,-0.8731254502730548,-0.056551531397681404,0.3536687018558392,-0.8488341769104663,-0.04191748762917359,0.6232767849219663,0.8987846467106901,0.07802312156613998,0.6415709871297723,0.8884586524071567,0.0,0.0,0.0,0.0
0.007869844973815418,0.024096563927193507,0.7515226341685795,0.006594540105100127,-0.5526625190893001,0.00783861305039196,0.8333421915276565,0.03932363101592163,0.3664488821860619,-0.8740101703224094,-0.0570001382551715,0.35362913254991957,-0.8481832316436929,-0.03840338185365411,0.621194534522775,0.9010893533884667,0.07652478348709635,0.6423575521991082,0.8866110944137121,0.0,0.0,0.0,0.0
0.007919708790183753,0.024271324915541462,0.7516528387306662,0.006634862497749134,-0.5526761197075571,0.007805885574407163,0.8333331587396684,0.038943855253782134,0.3672261538975532,-0.8746805064007285,-0.05737476475133646,0.3536308751346529,-0.8475880314324888,-0.03487998154151964,0.6191111944983042,0.903403409429854,0.07517959055945786,0.6431874484288136,0.8847181244187954,0.0,0.0,0.0,0.0
0.007965416771444857,0.024423219739781385,0.7517914496064811,0.006676897007224997,-0.5526874133252275,0.0077723278864422546,0.833325646501684,0.03861880618139092,0.3679321922242844,-0.8751951660507061,-0.05769367276592203,0.353665413797463,-0.8470416214157436,-0.031313102380337604,0.6170162541045651,0.9057023003623071,0.07394375427056937,0.6440450307261695,0.882800257513908,0.0,0.0,0.0,0.0
0.00800806123559014,0.024560022513452726,0.7519339924221983,0.006720268901017387,-0.5526971780445376,0.007737909938776175,0.8333191418161965,0.03833043295658237,0.36858804855396254,-0.8756077592114934,-0.05797534125809149,0.3537184461389128,-0.846529627096769,-0.02770313042674632,0.6149094417326013,0.907971726298333,0.07277772302963004,0.6449108371507587,0.8808807237211042,0.0,0.0,0.0,0.0
0.008048018460055933,0.02468945999295226,0.7520756094228699,0.00676439903852273,-0.552705979181714,0.007702843408756479,0.8333132722367084,0.03806034284539202,0.3692102234694859,-0.8759677213474228,-0.058238482093093256,0.3537711698461843,-0.8460323460105068,-0.024062127514404407,0.6127985835055266,0.9101972360504405,0.07164413888028223,0.6457617021273947,0.8789860695089022,0.0,0.0,0.0,0.0
0.008085172823532306,0.024819246334206697,0.7522107477662445,0.006808535914213438,-0.5527142902659442,0.007667791102920771,0.8333077235656228,0.03778924642727277,0.36981174860910365,-0.8763230527016049,-0.05850265610297376,0.3538013751709074,-0.8455268637339606,-0.020405053248657372,0.6107020681784776,0.9123533048178066,0.07050875205368369,0.64657002105545,0.877150077173479,0.0,0.0,0.0,0.0
0.008118822973330005,0.02495625598475403,0.7523322224164593,0.0068518651943283385,-0.5527224726098525,0.0076332155825461585,0.8333022586284523,0.03750040115528415,0.37039921437102963,-0.8767177006022161,-0.058784917592785764,0.35378404817024656,-0.8449936200839419,-0.016758190929247647,0.6086541441122789,0.9143910924840988,0.06934134132695872,0.6472965797189129,0.8754256277533049,0.0,0.0,0.0,0.0
0.00814782525269398,0.02510609983262418,0.752430278793275,0.006893320920452491,-0.5527308697994995,0.00759972420678666,0.8332966529930126,0.03718004577268893,0.37097190781917766,-0.877194012302442,-0.059099481754917124,0.35369255595365423,-0.8444210956856172,-0.013168580551758704,0.6067187593818103,0.9162155953331573,0.06812106046883577,0.6478862143485412,0.8738968412763132,0.0,0.0,0.0,0.0
0.008170748481530396,0.025272420008754563,0.7524915959426004,0.006931369449870938,-0.5527398784513409,0.007568191802088244,0.8332906487894803,0.03681905599574156,0.3715204000512747,-0.8777941523670889,-0.059456186963711716,0.35350045704825883,-0.8438123617787565,-0.009722829813642982,0.6050140349953934,0.9176480421131421,0.06684236146921806,0.6482626396646308,0.8726925528117048,0.0,0.0,0.0,0.0
0.008186263990200998,0.0254561594472229,0.7524995220171762,0.006963912455745701,-0.5527500581686166,0.007539739009174854,0.8332838828716017,0.03641486355839213,0.37202726862610447,-0.8785594184353492,-0.05985863125731731,0.35318559170787317,-0.84319057835238,-0.006563358801030397,0.6037511537239276,0.9183626061347554,0.06551956378345583,0.6483307271821221,0.8719870091068941,0.0,0.0,0.0,0.0
0.008194260706887078,0.0256560386951345,0.75243924106784,0.006989103943843292,-0.5527626054728115,0.007514724343159291,0.8332755746660389,0.0359718125433056,0.3724778857223645,-0.8795222438424016,-0.06030352293577281,0.35273884526641214,-0.8425925140078542,-0.0038616173227269297,0.6032752236572224,0.9178080950520562,0.06417461954832938,0.6480078906033978,0.8719448626822552,0.0,0.0,0.0,0.0
0.00819430549270981,0.025874101916344462,0.7523098681774124,0.007006751979486817,-0.5527775592861766,0.007493268437838207,0.8332656997047424,0.03548476836917435,0.3728730649740126,-0.8806891219721001,-0.060795873920201686,0.3521520035073383,-0.8420063147058372,-0.0016264758187956403,0.6035878014198902,0.9159919519035943,0.06279735809842213,0.647288831191132,0.8725680494007163,0.0,0.0,0.0,0.0
0.00818563957625433,0.026115913185366043,0.7521243550065243,0.007018333601363581,-0.5527937775908476,0.007475218741008184,0.8332550051185258,0.034938723280015106,0.3732294755671115,-0.8820417747413996,-0.06134938555287664,0.35141710243328494,-0.8413708972101305,0.0002967314612625086,0.6043460746125828,0.9134772029404331,0.06134457343448978,0.6462453125998117,0.8736954459797655,0.0,0.0,0.0,0.0
0.008168658835314467,0.02638527569769086,0.7518972956844375,0.007025586436140543,-0.5528106917739772,0.007459626255492485,0.8332438623666744,0.034324555523674874,0.37356732049749053,-0.8835554962336807,-0.06197188369204146,0.3505375741886003,-0.8406369914825276,0.002034706671281707,0.6053392684131548,0.910597999996974,0.05977845485132269,0.6449607178073767,0.8751559833863777,0.0,0.0,0.0,0.0
0.008143757212804366,0.0266839221232284,0.7516396398387313,0.0070296772292198035,-0.5528278603104398,0.007445773448057432,0.8332325611498832,0.03363823454458969,0.3738996260919917,-0.8852078088032406,-0.06266641581710002,0.34951887134289716,-0.8397728136032142,0.003658601703238,0.6064485119606199,0.9075386182052032,0.05807781445832696,0.6434976836671458,0.8768249667390627,0.0,0.0,0.0,0.0
0.008110947870770907,0.02701234803639894,0.7513582933076823,0.007031305788930211,-0.5528448961350991,0.007433184900593227,0.833221356734516,0.03287867602778131,0.37423163173808666,-0.8869798757951096,-0.06343335664505327,0.3483641134683931,-0.8387585538134869,0.005199517163411009,0.6076092110757917,0.9043967038076387,0.05623273335711531,0.6418948567546549,0.8786249993893996,0.0,0.0,0.0,0.0
0.008069780419917344,0.027370516747871283,0.7510569664207661,0.007030961951470898,-0.5528614164733979,0.007421458962699537,0.8332105026317959,0.03204616905126562,0.3745624375607962,-0.8888558560247395,-0.0642718904547791,0.3470726049675403,-0.8375809528883393,0.006667617425451581,0.608788092783877,0.9012197283141993,0.054238198904128815,0.6401713039995195,0.8805140144618585,0.0,0.0,0.0,0.0
0.008019360917772882,0.027758102526726735,0.7507370656459715,0.007029172505898045,-0.5528769813160351,0.007410080976847322,0.8332002910253136,0.031141980907994974,0.37488625986807816,-0.8908211911237137,-0.0651803438449758,0.34564006599449976,-0.836230842088361,0.00806550869630852,0.609971379640385,0.898024263433622,0.052090328177121566,0.6383312315846034,0.8824744443061387,0.0,0.0,0.0,0.0
0.007958446924031267,0.02817423447096387,0.7503983476230203,0.007026757069908907,-0.5528910264562512,0.007398208015874725,0.8331910969683888,0.030169250684040305,0.37519286714982414,-0.8928601809619864,-0.06615528381143611,0.3440603473977938,-0.8347044519397953,0.00939716908486566,0.6111604834452389,0.8948044697151764,0.04978525601361704,0.6363672305755584,0.8845066813033083,0.0,0.0,0.0,0.0
0.007885650228297783,0.028616754165040788,0.7500393295497045,0.0070251686730347825,-0.5529027999392391,0.007384359186562038,0.8331834204206592,0.02913523742464937,0.37546742144454903,-0.894953005417391,-0.0671893320834137,0.3423288474538663,-0.8330090379883585,0.01067629748479906,0.6123727069412457,0.8915329327684612,0.047319880500122175,0.6342619137396909,0.8866268228220681,0.0,0.0,0.0,0.0
0.007799784916802814,0.029080955793023906,0.749657488755766,0.007027028491037721,-0.552911310461149,0.007365905570760042,0.833177920416668,0.028055161642526878,0.3756899079015611,-0.8970719979387703,-0.06826747689578,0.34044802800283874,-0.8311736568394525,0.011938449298123793,0.6136449647113436,0.888154141971482,0.04469351757604517,0.6319879330917828,0.8888683739606221,0.0,0.0,0.0,0.0
0.0077003547639504615,0.029557682253367225,0.7492492247289704,0.00703702530784106,-0.5529152894046899,0.007338161152638659,0.8331754403534963,0.026958275547106895,0.3758338347634542,-0.8991761656014509,-0.0693612730198023,0.3384353678739787,-0.8292664089162736,0.013261340702394783,0.6150380425119425,0.8845681333268256,0.04190925088899655,0.6295056599469616,0.8912883590242916,0.0,0.0,0.0,0.0
0.0075880289340905386,0.03003056829454563,0.7488093611649906,0.007063611834704863,-0.5529130170741221,0.007291564441865511,0.833177132442934,0.025899852860490447,0.3758631172830535,-0.9012007951185548,-0.07041730802654615,0.33633323329488757,-0.8274221700201128,0.01478873631711803,0.6166382552173718,0.8806025213150752,0.03896650567240847,0.6267534827863663,0.8939785938700607,0.0,0.0,0.0,0.0
0.007466229523677272,0.03047510099851835,0.7483321616913811,0.0071204956235472435,-0.5529026415733325,0.007212164094192204,0.8331842246300541,0.024961331771065427,0.3757396117056344,-0.903062277999668,-0.07135745489365158,0.3342228205823023,-0.8258616875036059,0.016789207214181416,0.6185631506246034,0.8759500539137848,0.03586095189570626,0.6236566810031978,0.8970606727344949,0.0,0.0,0.0,0.0
0.007340424778544296,0.030853527627840716,0.747812070371106,0.007231040790738143,-0.5528781237988658,0.007067111970377588,0.8332007850465137,0.02429325422522311,0.37541470633359153,-0.9046294902770553,-0.07203702898216076,0.33223573184471755,-0.8249604403122716,0.019560334818097103,0.6209562991169926,0.8701161282962339,0.03251825057245325,0.62008990807795,0.9006676022571362,0.0,0.0,0.0,0.0
0.0072127368991593945,0.031129398170130565,0.7472749775232376,0.0074230825650403835,-0.5528413146250446,0.006830452943185719,0.8332254938499397,0.024021926705107215,0.3748393514224003,-0.9056122669345903,-0.07233081039843314,0.3304955957127087,-0.8249119224075548,0.023407528479698913,0.6240937577236909,0.8622595067094483,0.028866209198209272,0.6161267311907889,0.904634202294825,0.0,0.0,0.0,0.0
0.007113247564592244,0.03127188839342302,0.7468391299882691,0.007712219378440283,-0.5528079378929656,0.006493087775317871,0.8332477094393527,0.024229943025099097,0.37420881367657266,-0.9057179256068366,-0.07215121311934175,0.32933375884293103,-0.8257636364003341,0.027231408310717336,0.6286606073794316,0.8515861099728325,0.024953055580720963,0.6124989776250799,0.9079301009842838,0.0,0.0,0.0,0.0
0.0071132963641228125,0.0312752798899937,0.7468354956071614,0.007712189020921776,-0.5528084644447301,0.006492192183109548,0.8332473673642316,0.024224310593303225,0.3742096852838036,-0.9057321066542965,-0.07215623204703617,0.32931670405013624,-0.8257462344076072,0.027233835304320067,0.6286604896818261,0.8515825873379119,0.024941463819096482,0.6124868128019553,0.9079313591436625,0.0,0.0,0.0,0.0
0.0071132963641228125,0.0312752798899937,0.7468354956071614,0.007712189020921776,-0.5528084644447301,0.006492192183109548,0.8332473673642316,0.024224310593303225,0.3742096852838036,-0.9057321066542965,-0.07215623204703617,0.32931670405013624,-0.8257462344076072,0.027233835304320067,0.6286604896818261,0.8515825873379119,0.024941463819096482,0.6124868128019553,0.9079313591436625,0.0,0.0,0.0,0.0
0.006912454941833087,0.03151891200125878,0.7469619514043012,0.0074131684100353454,-0.5530379786515276,0.006795995246440025,0.8330953448146059,0.023133673923584064,0.3734980042660587,-0.903999472723341,-0.06735242825198332,0.3371147435759536,-0.840560723668593,0.028909638721857162,0.6285136943766201,0.8513414027003926,0.02667447630251476,0.6142444344304304,0.9066695018239911,0.0,0.0,0.0,0.0
0.0064490001540226955,0.032079173183622404,0.7470217944880853,0.007164216200650773,-0.5531927206573332,0.0070633375243747765,0.8329925552374312,0.021299631490393725,0.371909554296433,-0.9015626247548973,-0.06252614528363083,0.34082260119465235,-0.8500935290551422,0.028435739872012283,0.6272831223297277,0.8527483501652204,0.026171866722947815,0.6148755175874436,0.9045006486907168,0.0,0.0,0.0,0.0
0.0058444598516324605,0.03283983117993202,0.7470160194828428,0.006948674358286724,-0.5532816960013409,0.007288997545170033,0.8329333414561628,0.01904449369535699,0.3699022798233151,-0.8990402910665758,-0.05887963363065772,0.34207917118822123,-0.8561424412850324,0.026513406138098747,0.6252799218705941,0.85541381674095,0.024159965626528643,0.6146474045997246,0.9019239486539746,0.0,0.0,0.0,0.0
0.005199336666932052,0.033627225350831756,0.7470206181250247,0.00676772818293728,-0.5533325187305654,0.007469536557293344,0.8328994702808674,0.01680375271379536,0.3677307848444997,-0.8962847796880381,-0.05632546481153777,0.34205225360137553,-0.8600170038326782,0.02405475401660096,0.6233022225532455,0.8579697324727851,0.021603213812021075,0.6142229439402221,0.8989243700510379,0.0,0.0,0.0,0.0
0.004561447431594556,0.03435187079837926,0.7470366463356077,0.006619079518073989,-0.5533616856395414,0.007611180209557575,0.832880004915664,0.014785321322141866,0.3654737807228584,-0.8932985100283295,-0.054500612063231924,0.3413409288487461,-0.8626471752946712,0.021583028983177103,0.6215050308402286,0.8601193724237117,0.019050241822264356,0.6137355710085988,0.895896463826033,0.0,0.0,0.0,0.0
0.003979212863894768,0.03498409489558874,0.7470573361272173,0.006499151636985549,-0.5533784536539326,0.007721644143988543,0.8328687917501144,0.013048939900449077,0.3633470894307665,-0.8904130229596956,-0.05306687077074366,0.34028219720338276,-0.8645786207315782,0.01931849199893032,0.6199509744623536,0.8618747348437745,0.01672531530926162,0.6132685771031827,0.8930960849971638,0.0,0.0,0.0,0.0
0.003493877003181044,0.03552599112460005,0.7470779724759292,0.00640371966954168,-0.5533877009220859,0.007808188260186132,0.8328625799245968,0.011577640854652089,0.36160069118769905,-0.8880479023877094,-0.05179613213438515,0.339066986264404,-0.8661108793393666,0.017311612594071782,0.6186793792793716,0.8633376637867449,0.014674594760757977,0.6128970039145234,0.8906317111010102,0.0,0.0,0.0,0.0
0.003102682883939604,0.03598255680970863,0.747096847450999,0.006328254346103746,-0.5533947188280426,0.00787729732423913,0.8328578429462187,0.010345894145733302,0.36022960020854355,-0.8861988618996147,-0.05051589879786855,0.3377902734739283,-0.8674606004859475,0.01558578225956101,0.6176644614980544,0.8645598493044455,0.012917586155872246,0.6126258075531184,0.8885343054047563,0.0,0.0,0.0,0.0
0.0027899920971856842,0.0363650146558048,0.7471139087864086,0.006268324561189849,-0.5534017601753122,0.007934033657190783,0.8328530789112737,0.00931606325648026,0.35916639958785773,-0.8847689369352604,-0.04914588414619976,0.3364941036967036,-0.8687573463743175,0.014123193803931346,0.6168604503497765,0.8655805592836519,0.011432765017708162,0.6124395297698905,0.8867707584331493,0.0,0.0,0.0,0.0
0.0025382121182004006,0.03668748331694308,0.7471296369529118,0.006219988365739663,-0.5534096803236666,0.007982153482359521,0.8328477187905189,0.008446577643866044,0.3583376605128363,-0.883654013014327,-0.047668793857399805,0.3351949691469778,-0.8700690091692125,0.012883412809716648,0.6162205333361975,0.8664381230134075,0.010176756303334145,0.6123200919623935,0.8852812853288566,0.0,0.0,0.0,0.0
0.0023314903422404307,0.036963857739756786,0.7471445403606383,0.006180006862502161,-0.5534186721515828,0.00802434439028998,0.8328416360426899,0.0076988078972876324,0.3576791894218915,-0.8827645937236609,-0.046098335765899674,0.3338963851890589,-0.8714258583253892,0.01181990285874226,0.6157032617580219,0.8671684710729993,0.00910098393546065,0.612251005815166,0.8840024525268171,0.0,0.0,0.0,0.0
0.002156394298847623,0.03720585901875754,0.7471589636055674,0.0061458953428024,-0.5534285157132671,0.008062470178129603,0.8328349791768308,0.0070410571717457225,0.3571361635389119,-0.8820250688648854,-0.04445700245806905,0.3325970975170955,-0.8728369396599042,0.010890684880037853,0.6152734499420855,0.8678012738986329,0.008162185778315486,0.6122169134068012,0.8828788394281658,0.0,0.0,0.0,0.0
0.0020006862003598275,0.03742161394621338,0.7471729717817167,0.006115883333463562,-0.5534391452407468,0.008097817948882886,0.8328277936228533,0.006451265257887824,0.35665242596150865,-0.881353948996062,-0.04276008106518875,0.3313022853887915,-0.8743000453314063,0.010066614677868091,0.614900259165739,0.8683566537014905,0.007330523740744728,0.6122010457950243,0.8818710271601233,0.0,0.0,0.0,0.0
0.0018598560012788958,0.0376183932173767,0.7471861530751175,0.0060888528749013255,-0.5534497839942619,0.00813114156785047,0.8328205971301239,0.0059107231530126075,0.35621677103447563,-0.8807454277132563,-0.041023804692259414,0.33004145932871565,-0.8757845975741632,0.009318468612319254,0.6145654638610496,0.8688604740545,0.006576202779816317,0.6121957375001504,0.8809513593947865,0.0,0.0,0.0,0.0
0.001731614091071597,0.037801274741588245,0.7471977065958222,0.0060641938576581796,-0.553459593840726,0.008162860657982135,0.8328139475563516,0.005406531891071173,0.35582641171079965,-0.8802067102680226,-0.0392535873791887,0.3288882919906183,-0.8772310387412999,0.008624576117471763,0.6142547324019211,0.8693359733471072,0.005877199897686179,0.612193348032164,0.8801054667308224,0.0,0.0,0.0,0.0
0.0016137574300131112,0.03797368846565097,0.7472067370439076,0.006041652465333719,-0.5534676441830911,0.008193151491598301,0.8328084639018404,0.004930054619642272,0.3554755154004899,-0.8797391293483654,-0.03744320446615848,0.3279778064496554,-0.8785371437773786,0.007968845603983612,0.613954654238275,0.8698010553171793,0.0052172165382009614,0.6121842371913776,0.879325441204432,0.0,0.0,0.0,0.0
0.0015043220674106374,0.038138614939025414,0.7472128991507168,0.006021199249126781,-0.5534732750345638,0.00822200768433668,0.8328045854651348,0.004473987422347091,0.3551588881594967,-0.8793407125514767,-0.035579902923145196,0.3275006495325579,-0.8795449010694854,0.007335607442093333,0.6136568436472946,0.8702673920708899,0.004580424679150316,0.6121623409908312,0.878600125695893,0.0,0.0,0.0,0.0
0.001401586072077596,0.03829891158738813,0.7472171641346808,0.0060029260842244195,-0.5534771228637689,0.008249300081256876,0.8328018902434366,0.00403149914074243,0.3548723884657179,-0.8789992255138841,-0.033653342319103746,0.32762888992105577,-0.8800572751764651,0.006708862951295878,0.6133642123738514,0.8707367738168842,0.00395069039323565,0.6121322164565132,0.8779091947335661,0.0,0.0,0.0,0.0
0.0013043037096599633,0.03845543997344284,0.7472195633263351,0.005986680789437954,-0.5534791208893312,0.008275123896195646,0.8328004231009979,0.00360032076964353,0.3546104252777009,-0.878706702518586,-0.03166634191592706,0.3283606822062194,-0.8800700851667369,0.0060851838793164435,0.6130737388839113,0.8712109057894332,0.0033245938036202093,0.6120921648147166,0.8772479525948269,0.0,0.0,0.0,0.0
0.0012116638059966032,0.038607242541100276,0.747219188822272,0.005972045566510689,-0.5534785002772762,0.008299818781396275,0.8328006948908993,0.00318227448003103,0.3543661167078975,-0.8784598667085263,-0.029634243876128567,0.32952034614455533,-0.8797728727241105,0.0054730066917289995,0.6127762576231536,0.8716920594358221,0.00271064908197658,0.6120342267895672,0.8766267562792233,0.0,0.0,0.0,0.0
0.001122948293650016,0.03875380901658065,0.7472164423150426,0.0059586433547581365,-0.5534758064814546,0.008323668173749174,0.8328023431506467,0.0027781745387444132,0.3541339599867191,-0.8782461883601478,-0.027574671986815184,0.33091327513053925,-0.8793162604377692,0.004878172792287775,0.6124731627808783,0.8721748241671916,0.002114687775398057,0.6119611325563202,0.8760448556481515,0.0,0.0,0.0,0.0
0.0010374867807674622,0.03889527062462255,0.7472122605490842,0.005946162422234884,-0.5534718942832207,0.008346890965897108,0.8328047999394547,0.0023873825924116978,0.3539102304515709,-0.8780525585681797,-0.025500686833411383,0.3324004086567439,-0.8787938594713942,0.004302611160037872,0.6121696611393015,0.8726518129381287,0.0015385823884419875,0.6118796028607759,0.8754944911967865,0.0,0.0,0.0,0.0
0.0009546061897699945,0.03903199084351138,0.7472074834345951,0.005934383207111028,-0.5534674321384793,0.008369635397231614,0.8328076211594766,0.002008797454249976,0.3536917412567775,-0.877867937091759,-0.023419271115753638,0.3339047830268845,-0.8782537811592735,0.003746225452529797,0.6118701313795888,0.8731170842037305,0.0009821745269447215,0.6117952870356799,0.8749673444248847,0.0,0.0,0.0,0.0
0.0008736235502752319,0.03916410130816795,0.7472026523638389,0.0059231923384573185,-0.5534627789408397,0.008391980286563657,0.8328105683686264,0.0016419626389479844,0.35347476538217515,-0.8776827319634105,-0.02133199647979775,0.33539435957088165,-0.8777156786358018,0.0032092184950456614,0.6115768625284776,0.8735660567902728,0.00044561689806786294,0.6117110864639241,0.8744579720809563,0.0,0.0,0.0,0.0
0.0007938445582408062,0.039291139629949304,0.7471980444898143,0.005912589482913623,-0.5534580201142404,0.00841393867230616,0.8328135847192036,0.0012879247698796587,0.35325425712437036,-0.8774870175361905,-0.019235792722401182,0.3368629983634046,-0.8771845277438297,0.002693955063804745,0.6112904681259004,0.873993872064374,-6.876523749938857e-05,0.6116272602338307,0.8739649356595887,0.0,0.0,0.0,0.0
0.0007145419660572569,0.03941177345230294,0.7471937852555157,0.0059026969622998395,-0.5534530380495725,0.008435458131249988,0.8328167480835058,0.0009498878973424879,0.3530231650456062,-0.8772684616945462,-0.01712284213449011,0.3383173686540153,-0.876659052853384,0.0022063480509218122,0.6110107661924175,0.8743933829935303,-0.0005550991302215331,0.6115420502898542,0.8734908880044344,0.0,0.0,0.0,0.0
0.0006349121464690189,0.03952355392198625,0.7471899723461604,0.005893778392878451,-0.5534475682700262,0.008456411393613125,0.8328202336990813,0.0006338116313616461,0.3527716947955277,-0.877010186249997,-0.014979574501698708,0.33977047517796793,-0.8761356339503168,0.0017569958068431413,0.6107376686502397,0.8747530989334165,-0.0010028422543032632,0.6114522878997244,0.8730423562073018,0.0,0.0,0.0,0.0
0.0005540333630913993,0.03962267164420565,0.7471868098653932,0.005886264958222646,-0.5534412429242658,0.00847656909143596,0.8328242853637996,0.00034903935172075754,0.3524866069878774,-0.8766886688105165,-0.012785718825693727,0.34123946120762233,-0.8756095210731857,0.0013621836290880756,0.6104721458352236,0.8750550229809678,-0.001395796019268273,0.6113540008883099,0.8726293485353612,0.0,0.0,0.0,0.0
0.00047088315060966483,0.0397037686159958,0.74718478840139,0.005880775256455052,-0.553433654855819,0.008495545080625978,0.8328291732817099,0.00010886321236466584,0.3521510162494111,-0.8762721688871562,-0.010515711579996074,0.342744086012927,-0.8750755128211366,0.0010445113656047632,0.6102176376973552,0.8752723648563775,-0.0017114890963809775,0.611243437555154,0.8722643575716307,0.0,0.0,0.0,0.0
0.000384525420218537,0.039760006578269357,0.7471849578964406,0.005878092320752693,-0.5534244965553965,0.00851270853396549,0.8328351027883553,-6.941063886291922e-05,0.35174578724994415,-0.8757211498438937,-0.00814674469928436,0.3443014141211899,-0.8745306435874289,0.0008322882507413131,0.6099824100968118,0.8753676477698584,-0.0019217805708525227,0.6111192344755175,0.8719597807360591,0.0,0.0,0.0,0.0
0.00029465794520702954,0.03978385351948793,0.7471893101645374,0.005879022259008662,-0.5534138387509979,0.008527076487794955,0.8328420313257093,-0.0001659740942728687,0.35125463919489197,-0.8749941103741912,-0.0056802744355547875,0.345911602910974,-0.8739820286126299,0.000755788101398246,0.6097831779214266,0.8752930895217917,-0.0019965758369354858,0.6109866493776559,0.8717222389034904,0.0,0.0,0.0,0.0
0.00020281259144387247,0.03976950170849398,0.747201131455744,0.0058839936003129804,-0.5534026020702998,0.008537256972027344,0.8328493584583748,-0.00016384632012606394,0.350676554597152,-0.8740657561451826,-0.0031860083799422918,0.3475304000331277,-0.87346350073666,0.00083674535063227,0.6096492164336027,0.8749984397510726,-0.0019142646756436213,0.6108643981674399,0.8715423346083853,0.0,0.0,0.0,0.0
0.00011457140230273144,0.039718565194362156,0.7472244772232348,0.005892146793805297,-0.5533932589307035,0.008541658397928148,0.8328554638399324,-6.227227972126751e-05,0.35005059333248006,-0.8729706031247865,-0.00087694583322224,0.34902866983434955,-0.8730647047088088,0.0010649630744336831,0.6096214083575853,0.8744614201396991,-0.0016850394451728564,0.6107912332247032,0.8713831904283619,0.0,0.0,0.0,0.0
4.286406542560447e-05,0.039651770484641705,0.7472582094837597,0.005899374658603815,-0.5533918479472988,0.008539785616248803,0.8328563694093596,9.380795618358286e-05,0.34949489610517553,-0.871891529629303,0.0007823533071410916,0.3501461401619308,-0.8729668267333621,0.0013547501801812489,0.60971843260335,0.8738006214101562,-0.001394539821548202,0.6108107770600278,0.8712092539823667,0.0,0.0,0.0,0.0
4.2890572948425734e-05,0.03965147019447547,0.7472580635635535,0.005899744816661184,-0.5533914169456271,0.008539895627791005,0.832856652038438,9.392418316408319e-05,0.34949390379360346,-0.871891975316361,0.0007842301096889488,0.35014959114693256,-0.872964845678896,0.001354545631447665,0.6097175188503798,0.8737991098290266,-0.0013946289670985982,0.6108088015560565,0.8712103696458402,0.0,0.0,0.0,0.0
4.2890572948425734e-05,0.03965147019447547,0.7472580635635535,0.005899744816661184,-0.5533914169456271,0.008539895627791005,0.832856652038438,9.392418316408319e-05,0.34949390379360346,-0.871891975316361,0.0007842301096889488,0.35014959114693256,-0.872964845678896,0.001354545631447665,0.6097175188503798,0.8737991098290266,-0.0013946289670985982,0.6108088015560565,0.8712103696458402,0.0,0.0,0.0,0.0
4.2890572948425734e-05,0.03965147019447547,0.7472580635635535,0.005899744816661184,-0.5533914169456271,0.008539895627791005,0.832856652038438,9.392418316408319e-05,0.34949390379360346,-0.871891975316361,0.0007842301096889488,0.35014959114693256,-0.872964845678896,0.001354545631447665,0.6097175188503798,0.8737991098290266,-0.0013946289670985982,0.6108088015560565,0.8712103696458402,0.0,0.0,0.0,0.0
4.948347533873066e-05,0.03966352989658788,0.7472616721148749,0.005900735245484754,-0.553394573731902,0.008538013543604641,0.8328545667836481,6.86713552517995e-05,0.3495595462392613,-0.871971406675629,0.0007589973294937192,0.3501679060790548,-0.8729616067848417,0.0012798511177557856,0.6097575269859884,0.8738249961049988,-0.0014693236674008104,0.6108507884482186,0.8711408964242604,0.0,0.0,0.0,0.0
5.8257472860442474e-05,0.03968329139582311,0.7472645703646356,0.005900662975488735,-0.5533982578552094,0.008537019915643982,0.8328521295345463,2.3736692914420507e-05,0.34965413291641206,-0.8721051160459357,0.0007140713444749018,0.3501843083051659,-0.8729487051563242,0.0011752842254184055,0.6097928269898868,0.873889742700433,-0.0015739025798997117,0.6108999696420336,0.8710547271487876,0.0,0.0,0.0,0.0
6.893210123567247e-05,0.0397110997499342,0.7472663780896536,0.005899927728209119,-0.5534023596648366,0.008536510994459885,0.8328494144503159,-4.1120348246702714e-05,0.34977633647645123,-0.8722921119900428,0.0006492192933149588,0.3501962550102762,-0.8729249168773999,0.0010351004323058126,0.6098214559299481,0.8739985280745765,-0.0017140709623934256,0.6109524266751187,0.8709532678278261,0.0,0.0,0.0,0.0
8.220280088392016e-05,0.03974961090563099,0.7472672168018746,0.0058985038411023686,-0.5534069707984983,0.008536419435855279,0.832846361502097,-0.00013210749628565885,0.3499360053045166,-0.8725488599620896,0.000558239608720036,0.3502031118893684,-0.872886832202523,0.0008454803246708267,0.6098447443787516,0.8741610770225947,-0.0019036027812474117,0.6110115673094647,0.870826043911353,0.0,0.0,0.0,0.0
9.899484668354175e-05,0.03980339604368828,0.7472671033002926,0.005896178538108456,-0.5534120077655144,0.008536862934272794,0.8328430264526626,-0.00026032608440746855,0.3501485357620869,-0.872903682114002,0.0004300393828907754,0.3502021731654634,-0.8728273858917153,0.000584508251757911,0.6098622425278304,0.8743948665091761,-0.002164326150918609,0.6110816609440218,0.8706563440361419,0.0,0.0,0.0,0.0
0.00012040121210908677,0.039879244367873636,0.7472658589688335,0.0058926199325031806,-0.5534170320552021,0.008538088372188711,0.8328397004877296,-0.00044243550615463863,0.35043517066637375,-0.873398474569912,0.0002479753513262374,0.3501878055447963,-0.8727356904858261,0.00021995124241668446,0.6098707826425945,0.8747266554731448,-0.002528299272323383,0.61116680300666,0.8704202849622623,0.0,0.0,0.0,0.0
0.00014809578845142115,0.039986822875074476,0.7472631873029764,0.005887316033806997,-0.5534211503530703,0.008540549792683014,0.8328369761610258,-0.0007023683195445887,0.3508270066788572,-0.8740959154715745,-1.1851077069769734e-05,0.3501529130319392,-0.8725990193292605,-0.0002935030796348534,0.6098651228595768,0.8751940431114247,-0.0030404980704765174,0.6112724786975651,0.8700836395571471,0.0,0.0,0.0,0.0
0.00018611820274960403,0.040139616892111755,0.7472594096047115,0.005879113939055758,-0.5534234287486881,0.008545407501086595,0.8328354702712761,-0.0010743266114085432,0.3513780036985458,-0.8750973479564709,-0.0003835693752308903,0.35009837245858705,-0.8724113324269751,-0.0010143727905981537,0.6098449421718747,0.8758433133273569,-0.0037588356736236663,0.611415961567987,0.869594180817314,0.0,0.0,0.0,0.0
0.0002471586464879303,0.04035641724824493,0.7472599830093404,0.005863407050516129,-0.5534268357277796,0.008558053366332748,0.8328331871849706,-0.001612075674915551,0.35220629874857684,-0.8765816792771662,-0.0009207874066510175,0.3500690035286675,-0.8721850294457747,-0.0019911126700516953,0.6098522663077036,0.8767004936750165,-0.004730910892682299,0.6116827157843877,0.8688517376871381,0.0,0.0,0.0,0.0
0.00036247706792155363,0.04066271371669167,0.7472992320473162,0.00581190341538198,-0.553488529896774,0.008644881978834097,0.8327916516554247,-0.002508720680004893,0.35352079097997346,-0.8786173222520937,-0.0018162315113406154,0.35019427290538757,-0.8715696789592511,-0.002910979809232544,0.6101182586048995,0.8776216246569024,-0.005646231559469693,0.6126042569046805,0.8676906269261129,0.0,0.0,0.0,0.0
0.0005604106739986261,0.04094656832626099,0.7472792719213702,0.0057797844952904515,-0.5534453734408418,0.00866252410789641,0.832820372820091,0.0016729149489238394,0.35067070462726024,-0.8756874828722943,-0.0025067513534080795,0.35090880008324105,-0.8727946439849843,-0.004121271992560929,0.6101246177015284,0.8788962614539682,-0.00684700354311573,0.612971128520703,0.8668971465698561,0.0,0.0,0.0,0.0
0.0007953493392968263,0.04127055952545579,0.7472631978868686,0.005740119279402635,-0.5534226754476426,0.008713679524262363,0.8328351968548039,0.0071609969394584635,0.3480602938049172,-0.8740373826081449,-0.0033659142507905288,0.3517669556523314,-0.874055178252024,-0.0053524629347424316,0.6101934223536547,0.8803280050124933,-0.008066472785496572,0.6135556396110853,0.866045843963323,0.0,0.0,0.0,0.0
0.0010371944993277688,0.04162272374728292,0.747253807259318,0.005696220306461071,-0.5534130088328308,0.008779316849834453,0.832841232363326,0.01263402703356726,0.34574595901422617,-0.8731627782375783,-0.004324243170534368,0.3526079564746104,-0.8751533716179563,-0.006647358464190148,0.6103082442798341,0.8818181054853507,-0.009346531658097911,0.6142628966305775,0.8650770792856123,0.0,0.0,0.0,0.0
0.0012728055807574284,0.04198746224913302,0.747247977418591,0.005651996826884611,-0.5534085349404013,0.008847151362778954,0.8328437886541219,0.017650057832489713,0.3436636031418884,-0.8726852817975496,-0.005318901902511658,0.35338211891046917,-0.8760908381790368,-0.00800144785482425,0.6104395216077668,0.8833206351616028,-0.01068203493949845,0.615002048629082,0.8640303373440589,0.0,0.0,0.0,0.0
0.0014989774271002322,0.04235287061245539,0.7472433441083208,0.005609284626686615,-0.5534059927564984,0.008912053463760342,0.8328450746748943,0.02218715426062914,0.3417483501579017,-0.8724014636978248,-0.006310608620354233,0.35409250735513864,-0.876914675849738,-0.009385473024961146,0.6105747913324086,0.8848094178315116,-0.012043722239168003,0.6157301624702941,0.862956370816645,0.0,0.0,0.0,0.0
0.0017166654823069882,0.042712334554174114,0.7472387561689947,0.005568629967195848,-0.553404352375978,0.008972875832584147,0.8328457844228461,0.026374487721896593,0.339942521281854,-0.8722075017277483,-0.007280996299787101,0.35475771601641654,-0.8776710735610235,-0.010772632292556721,0.6107113390756097,0.8862710872358818,-0.013405146647119594,0.6164342092957651,0.86188925550522,0.0,0.0,0.0,0.0
0.0019279838694785515,0.043063607999430535,0.7472338322944846,0.005529921189995141,-0.5534033608784011,0.009030197766404395,0.8328460816191802,0.030356497055932533,0.33820013019181344,-0.8720518928979435,-0.008225750110181354,0.3553954125392258,-0.8783919538038648,-0.012147588372010468,0.6108497690384265,0.8877018710382811,-0.014751385151104602,0.6171151479147964,0.8608440260496798,0.0,0.0,0.0,0.0
0.0021349949109060154,0.043407201058127544,0.7472285498181505,0.005492767018912797,-0.5534029402753936,0.009085083859546872,0.8328460100500512,0.03424147110506903,0.3364878061042994,-0.871909613098025,-0.009148155720919173,0.35601781872291965,-0.8790954023336359,-0.013505810344947744,0.6109911247314436,0.8891043669367271,-0.01607820212612689,0.6177788297886989,0.8598223897813657,0.0,0.0,0.0,0.0
0.002339419697824935,0.04374498090467167,0.7472229982690667,0.0054567012104732755,-0.5534030196546824,0.009138525869245245,0.8328456096984098,0.038094078649029445,0.3347826760160907,-0.8717691195104329,-0.010054581200016236,0.3566324176075824,-0.8797905031201328,-0.014849917443931805,0.6111361825149243,0.890484739308254,-0.017388335857464823,0.6184318511922207,0.8588191097165943,0.0,0.0,0.0,0.0
0.0025427149797299766,0.044079269787601356,0.7472172570727458,0.0054212742801484064,-0.5534035124867114,0.009191274633510159,0.8328449331197021,0.041945237962560424,0.3330691703286889,-0.8716261698920897,-0.010951970040996137,0.3572440518031994,-0.8804822369999649,-0.01618621033337911,0.6112855116047072,0.8918508089871234,-0.01868804415994532,0.6190800991237302,0.8578265405920944,0.0,0.0,0.0,0.0
0.002746234806126441,0.04441241350079836,0.7472113314590598,0.0053860821340029645,-0.5534043304931275,0.00924384734999969,0.8328440360576936,0.04580504720829058,0.33133702217329514,-0.8714803779624668,-0.011846830620951784,0.35785670179184453,-0.8811748405611306,-0.01752252260685045,0.6114395934078016,0.8932112799937261,-0.019984989525623297,0.6197284531797963,0.8568371854284045,0.0,0.0,0.0,0.0
0.002951360662823032,0.04474666970086691,0.7472050934599166,0.005350758453774323,-0.5534053442284775,0.009296597734114868,0.8328430029927006,0.04967278729304566,0.3295824657786959,-0.8713318305795121,-0.01274512118056481,0.35847451552099924,-0.8818738615838394,-0.018867273870928503,0.6115985549974351,0.8945758359909489,-0.021287315823929648,0.6203806517749053,0.8558448524305305,0.0,0.0,0.0,0.0
0.003159576856669323,0.045084250750551565,0.7471982042133402,0.005314957952933672,-0.5534063206440631,0.009349777324343453,0.8328419881088753,0.05354252872061481,0.3278146884289652,-0.871175601024811,-0.013652485262172347,0.359102198554937,-0.882587271436027,-0.020229331614310758,0.6117616039378397,0.8959558841847308,-0.022603514498243216,0.6210389738525371,0.8548452704215477,0.0,0.0,0.0,0.0
0.003372498453889172,0.04542736408766771,0.7471900315042277,0.005278336734997606,-0.5534068259381313,0.009403579042341249,0.8328412795170455,0.057404921321421776,0.32606869627626434,-0.8709926904040639,-0.014574441545897208,0.35974512984178275,-0.8833263404273198,-0.02161792595255733,0.6119263016487982,0.8973652082471517,-0.023942337532507674,0.6217037083802386,0.853836589098891,0.0,0.0,0.0,0.0
0.003591881728828268,0.04577813557595482,0.7471796366062903,0.005240537577118615,-0.5534062127846722,0.009458158181429532,0.8328413076097054,0.06124654487423822,0.32442343245499505,-0.8707369652437045,-0.015516241543459968,0.360409563027988,-0.8841060702566564,-0.023042070362450158,0.6120884609955496,0.8988197487942347,-0.025312233237653286,0.6223730745521243,0.8528198291920756,0.0,0.0,0.0,0.0
0.0038196505836893976,0.04613837922712899,0.7471659762129879,0.005201163843486891,-0.5534037942332743,0.009513671314195674,0.8328425292220699,0.06504870484420265,0.32301739663729573,-0.8703208270754461,-0.016482379914992816,0.3611032253000274,-0.884944552176334,-0.024509016961202643,0.6122437106752234,0.9003351940202027,-0.026719862845598727,0.6230448005338866,0.8517982975704815,0.0,0.0,0.0,0.0
0.004057969482211713,0.046509384367949144,0.74714848289065,0.005159699089113532,-0.5533993926708642,0.00957039882866981,0.8328450619191354,0.06878815490226027,0.3220414274415819,-0.8696083436997561,-0.017476276360226188,0.36183614752541465,-0.8858591656578061,-0.026022135249739838,0.6123919246967139,0.9019218619667582,-0.028168090303274766,0.6237210289304704,0.8507742569184611,0.0,0.0,0.0,0.0
0.0043092963056451045,0.04689232420949602,0.7471277457928492,0.005115321558560619,-0.5533942717085221,0.009628998563703263,0.8328480629215674,0.07244303797760676,0.3216681835849672,-0.8684369361434907,-0.01850165788349563,0.36261993400867576,-0.8868573119370163,-0.027581002065400113,0.6125425318862724,0.9035817765959573,-0.02965611951542162,0.6244152306629993,0.8497433694375689,0.0,0.0,0.0,0.0
0.004576578117906777,0.04729090465538779,0.7471034758835028,0.005067647905985192,-0.5533885353041609,0.009689747097848117,0.8328514613902026,0.07600619499142373,0.3219019738155945,-0.8668189269785753,-0.01956792078010992,0.3634645871363484,-0.8879524219700716,-0.02920305545051478,0.6126991691779861,0.9053321543096725,-0.03120018970545853,0.6251344919587816,0.8486965415873153,0.0,0.0,0.0,0.0
0.004863199299992079,0.04771206766922669,0.7470744982542625,0.005016691539161339,-0.5533809840349347,0.009752590828298753,0.832856053761191,0.07948414274049975,0.3225787294699086,-0.8649427456898077,-0.020691965628792015,0.36437682500755336,-0.8891613594184318,-0.030927155550606298,0.6128591369130524,0.907207181665355,-0.03283669098451036,0.6258796643013413,0.8476165812053409,0.0,0.0,0.0,0.0
0.0051725248968210735,0.04816481214600101,0.7470407207097782,0.004962008473011459,-0.5533717111496441,0.009818062779060345,0.8328617732940413,0.0828789656569793,0.32351555070094823,-0.8629736130196826,-0.021896684300309527,0.3653586949281954,-0.890480026809254,-0.03279886129331436,0.6130273592118032,0.9092397934966098,-0.0346078399212519,0.6266634603096196,0.8464708119755715,0.0,0.0,0.0,0.0
0.005512769108969715,0.048659176930525086,0.7470024417744618,0.004901987221136136,-0.5533612825508016,0.00988765717107777,0.8328682343148182,0.08618604427068813,0.32458197168852493,-0.8610218268725423,-0.023208787643760477,0.3664390881363054,-0.8919401121969556,-0.03485968549357789,0.6132195321191506,0.9114651511281275,-0.03655131209233797,0.6275147454461634,0.8452245180160172,0.0,0.0,0.0,0.0
0.005898340017686105,0.049207105149465705,0.746959762668141,0.004833479826777578,-0.5533500835374954,0.00996410521322104,0.8328751641927563,0.08939215146618855,0.32570531854846335,-0.859145701263856,-0.024661361910020056,0.36767991004730205,-0.8936229508990745,-0.03714889288130168,0.6134594730983195,0.9139277794545374,-0.038701837042816836,0.6284776866006915,0.843842819807532,0.0,0.0,0.0,0.0
0.0063466150917887015,0.04982487159340966,0.7469123901583127,0.0047519160166180855,-0.5533378601287161,0.01005148171521953,0.8328827045614965,0.09247091920680726,0.32684968412939597,-0.8573683075361156,-0.026300276474606185,0.369151555374748,-0.8956211302571799,-0.03971723014164666,0.6137705340476809,0.9166878122285533,-0.04110391855313169,0.6296051962469066,0.842278204019753,0.0,0.0,0.0,0.0
0.006879680736479929,0.05053280710725615,0.746859819054677,0.004650601925292942,-0.5533234852842428,0.010155880402319144,0.8328915599451615,0.09539417965152819,0.32799186131124264,-0.8556747040280792,-0.02818467900089993,0.37094360014679983,-0.8980539937296915,-0.04261927059061533,0.6141786529949144,0.9198167866961384,-0.043804114247970885,0.6309649691502254,0.8404705162707005,0.0,0.0,0.0,0.0
0.007525151132594405,0.051354068601107875,0.7468017557491815,0.004520007748679279,-0.5533050984810741,0.010286184184926873,0.8329028946640264,0.09815096552589096,0.3290992210139266,-0.8539977711466306,-0.030385463834569335,0.3731712960830477,-0.901073763897129,-0.04590009122137887,0.6147159358025542,0.9233877969853062,-0.046838104220195,0.6326457907481043,0.8383484107647012,0.0,0.0,0.0,0.0
0.008315046192191597,0.05231159449972448,0.7467389236426489,0.004347381632717864,-0.5532801265541383,0.010454596154120886,0.8329183052691485,0.10077999213837682,0.3301068417534016,-0.852188231307694,-0.03297911412759832,0.37597399923275987,-0.9048592682221732,-0.049574342296615816,0.6154231275390932,0.9274542712890833,-0.05021104783496491,0.6347606843308914,0.8358315622487744,0.0,0.0,0.0,0.0
0.009279461411343658,0.053422733797554335,0.7466745000268287,0.004117495052567328,-0.5532445714522575,0.010676180598519039,0.8329402797085322,0.10341522172427044,0.33088619973528327,-0.8499685942329243,-0.03603446546803001,0.3794880816893642,-0.9095737221971757,-0.053601243222254964,0.6163454198962179,0.9320112888725388,-0.05387510056052553,0.637438536121723,0.8328280028526294,0.0,0.0,0.0,0.0
0.01042665222535038,0.05469264721542569,0.7466161417932587,0.0038163649508102305,-0.5531898785672849,0.010965856311906165,0.8329742754759126,0.10632405501194483,0.331191294543428,-0.8468841039192279,-0.039592521776404294,0.3837451624679591,-0.9152206124286462,-0.05787561331955962,0.6175019253960694,0.9369383070774291,-0.057723341394365836,0.6407803879701439,0.829209924369469,0.0,0.0,0.0,0.0
0.011686671205219183,0.056114660454211845,0.7465751192332954,0.003439651527719814,-0.5531044364349569,0.011332422551256834,0.8330277470723627,0.109840701563722,0.3305883383186857,-0.8423213533980408,-0.04365767083308466,0.38834032435085536,-0.9211294468058951,-0.06228951130799578,0.6187746225692327,0.9419977080305315,-0.061649875358280766,0.6447299758018034,0.824777980657656,0.0,0.0,0.0,0.0
0.012955401805217318,0.05761232935707729,0.746550972869731,0.0029895144520381686,-0.5529838179120877,0.011776754052397557,0.8331033957407096,0.11443081338782563,0.32841248971524584,-0.8352767165711994,-0.04804719290728642,0.3928018722600813,-0.9266075269420161,-0.06639308486197686,0.6199281852493833,0.9468640888082301,-0.06524600754116205,0.6490419063755373,0.8197515970658364,0.0,0.0,0.0,0.0
0.014131631494337915,0.05893712021044486,0.7464163193052334,0.002475031813293621,-0.5528361786396147,0.01227882754312798,0.8331958138390023,0.12076197119044499,0.3235510918791149,-0.8242193470699832,-0.05211704813819275,0.39691968527225413,-0.9320031519141727,-0.06888204262237287,0.6200833032468672,0.9519770801249985,-0.06735611344435469,0.65254508429397,0.8165171482005096,0.0,0.0,0.0,0.0
0.015063755439593637,0.059898426875172155,0.7461489429121412,0.001890896063437468,-0.5526397729464763,0.012818666736261957,0.8333194991435452,0.1285049976419678,0.3141002368852715,-0.8063021716654456,-0.05534182184674709,0.4002037935655485,-0.9368995444600332,-0.06861532486360464,0.6186993528859125,0.9568640767936679,-0.06699746574137518,0.6545884872904089,0.8160315378793962,0.0,0.0,0.0,0.0
0.015532229569665044,0.06031530991128237,0.7457992814763792,0.0012262405199482903,-0.552341907137197,0.013333903857976713,0.8335101204917296,0.13568789821363378,0.29735614514073444,-0.7775130115773775,-0.0571034932740183,0.4018397765881075,-0.940292706822864,-0.06464774507747621,0.6154389037717396,0.9603346609858823,-0.06334175874103486,0.65472076974985,0.8182319471007599,0.0,0.0,0.0,0.0
0.015555581916950154,0.060345734410067166,0.745792841908337,0.0011976092239195208,-0.55233353773016,0.013339294928342035,0.8335156219540503,0.13570732345562123,0.29735575783922896,-0.7774934490515413,-0.05717832473072935,0.4018734973902793,-0.9403243240528649,-0.06465295779551879,0.6154140245506193,0.9604423238505838,-0.06332104810675901,0.6547824304862021,0.8181513734910298,0.0,0.0,0.0,0.0
0.015555581916950154,0.060345734410067166,0.745792841908337,0.0011976092239195208,-0.55233353773016,0.013339294928342035,0.8335156219540503,0.13570732345562123,0.29735575783922896,-0.7774934490515413,-0.05717832473072935,0.4018734973902793,-0.9403243240528649,-0.06465295779551879,0.6154140245506193,0.9604423238505838,-0.06332104810675901,0.6547824304862021,0.8181513734910298,0.0,0.0,0.0,0.0
0.015642275144460534,0.060739717733758476,0.7468377555782212,0.0020060345489067008,-0.5522376064082007,0.012566059017650408,0.8335896448821174,0.13582119469543028,0.2995376625407728,-0.7749729139027017,-0.056957822836636536,0.4026170043551729,-0.939754220014471,-0.07532367815612476,0.6234812737020701,0.9522692401995997,-0.05078185344342735,0.6449076460231995,0.8412835057919313,0.0,0.0,0.0,0.0
0.015748532389286606,0.06141659582852727,0.7480292177148304,0.002544159392921068,-0.5521889169710641,0.012027373856459812,0.8336283761397663,0.1349340740829743,0.302851904028352,-0.7745655840816413,-0.057738777932189476,0.4029513452106367,-0.9367976287291171,-0.08495558918422484,0.6317846704765223,0.9432799654891613,-0.038681424319861386,0.6390105949347024,0.8569138841653791,0.0,0.0,0.0,0.0
0.015854074463464058,0.06227691081410931,0.7490959185917913,0.0028559078566076875,-0.5521614378108567,0.011701643870211045,0.8336502035720358,0.133328005143391,0.30671078061731916,-0.776323612793585,-0.05928281228618594,0.4027299681336386,-0.9326026299868212,-0.09333540015227781,0.6388497594940576,0.9357573459550992,-0.030215666778233972,0.6351654439090966,0.8673121540135714,0.0,0.0,0.0,0.0
0.015961518672584253,0.06322435076299301,0.7500042774396385,0.0030223868662003018,-0.5521389508522307,0.011520527845157202,0.8336670327940274,0.13132822991380735,0.31079850320107755,-0.7796076638940649,-0.06126169770472281,0.40215137252760413,-0.9279763604549578,-0.10069672991505411,0.6446591588426142,0.9298336726969546,-0.024350152714973025,0.6325801061825004,0.8746440268906822,0.0,0.0,0.0,0.0
0.016060513356068982,0.06417827704013297,0.7507809820537292,0.0031080929265822886,-0.5521183979858418,0.01141595387809136,0.8336817680391965,0.12921828169599975,0.3147866999477605,-0.7835006095261685,-0.0633696058356395,0.4013540802626176,-0.9232924156860884,-0.10727008919920428,0.6495093992234057,0.9251015573448605,-0.019938330467191397,0.6308177460612178,0.8802180984884471,0.0,0.0,0.0,0.0
0.016144589441550814,0.0650904376390061,0.7514523340058897,0.0031531280108031134,-0.5520968386449039,0.01135064432065312,0.8336967682650307,0.1271567307999563,0.31848622795161824,-0.787438008233841,-0.0654341987154059,0.4004368613389705,-0.9187593335947093,-0.1131806965135475,0.6536270749065675,0.921203912406774,-0.016149039108210667,0.6295659548011375,0.8848223071484853,0.0,0.0,0.0,0.0
0.016210752223699335,0.06593759669814009,0.7520398043386117,0.003179884582995006,-0.5520734036543061,0.011304383616954176,0.8337128139968997,0.12522155587482484,0.32181473593348014,-0.7911190152117127,-0.06737029757483236,0.3994605589948119,-0.914468704582432,-0.11851483084165895,0.6571784874563606,0.9178863121361678,-0.012522301277651818,0.628598233227548,0.8889085310147855,0.0,0.0,0.0,0.0
0.01625870619234222,0.0667125001121256,0.7525606484341254,0.0032000677126223513,-0.5520479492650243,0.011266674991729815,0.8337301021994746,0.12344193549042039,0.324759247136665,-0.7944156232162498,-0.069145736680672,0.3984618733032315,-0.9104474163203374,-0.12334415069833117,0.6602874466096667,0.9149727850203901,-0.00884120164590386,0.6277620629260094,0.8927312719350691,0.0,0.0,0.0,0.0
0.016289915445241252,0.06741683380617035,0.7530286511395645,0.003219521723145528,-0.5520206252769192,0.011231952785060357,0.8337485875162773,0.12182094039422581,0.3273449704830313,-0.79729836245347,-0.07075673588365962,0.3974631966508793,-0.9066906600613076,-0.1277364136654469,0.6630493772033152,0.9123426887126925,-0.005023915099106646,0.6269663982569383,0.8964312784473782,0.0,0.0,0.0,0.0
0.016306615523396926,0.06805669212361261,0.75345451175995,0.0032409071495245983,-0.5519915196704247,0.01119744713488408,0.8337682387273124,0.12034824612705818,0.32961372144813905,-0.7997896794124646,-0.07221405085787318,0.39647746985906096,-0.9031795577526254,-0.13175446190386986,0.6655365454576231,0.909915087737276,-0.001052203875302294,0.6261645833680206,0.9000834994363275,0.0,0.0,0.0,0.0
0.01631111359400298,0.06863975731199834,0.753846039576816,0.003265296317279262,-0.5519607029204009,0.011161818025674217,0.8337890225290443,0.11900815628459975,0.33161024874709416,-0.8019338273793759,-0.07353426269298567,0.3955108253164928,-0.8998905264018694,-0.13545541844739736,0.6678014904685223,0.9076401892835958,0.003065358044103025,0.6253393802717594,0.9037223987750811,0.0,0.0,0.0,0.0
0.016305365194742436,0.06917358054219697,0.7542082292613789,0.003293018823104968,-0.5519282700475906,0.011124457836506639,0.8338108821472339,0.11778433197546054,0.3333743084083995,-0.8037798911041012,-0.07473472036467815,0.3945643998028667,-0.896801076875527,-0.13888866627069005,0.6698784536101602,0.9054945951360993,0.007312060268360531,0.6244928262205651,0.9073537645935406,0.0,0.0,0.0,0.0
0.016290748771252677,0.06966469418105377,0.7545431655160858,0.0033241341390313015,-0.5518944085068022,0.01108509328339953,0.8338336960677777,0.11666231010250291,0.33493661526569696,-0.805373397179443,-0.07583090671641585,0.39363528873221737,-0.8938932890268163,-0.14209525461224695,0.6717835138936463,0.9034805856572934,0.011673192404546557,0.6236421194468404,0.9109569846485728,0.0,0.0,0.0,0.0
0.016267944033564748,0.07011840062072186,0.7548496945714535,0.003358710754029563,-0.5518594296137854,0.011043553348329268,0.833857259330313,0.11563028804109554,0.3363174245853331,-0.8067543427702816,-0.07683568818642054,0.39271641105203964,-0.8911556603469043,-0.14510952383471712,0.6735131299262179,0.9016295734801708,0.016144860534778573,0.622822078322236,0.9144780737502637,0.0,0.0,0.0,0.0
0.016236863192573687,0.0705391567258812,0.7551228520188868,0.0033970179187490577,-0.5518237060080431,0.01099964674027272,0.8338813258062551,0.11467838592237317,0.337527133646036,-0.8079606236661976,-0.07776021063533126,0.3917952101163986,-0.8885837859374032,-0.14796330414866612,0.6750409658963835,0.9000094820349995,0.02074662054597165,0.62209569789987,0.9178106824028146,0.0,0.0,0.0,0.0
0.01619668960441555,0.07093146672627783,0.7553532918027954,0.003439678262285888,-0.5517875403197424,0.010953082552543984,0.8339056954739772,0.11379668596031903,0.33856905056268444,-0.8090357448633263,-0.07861609778038868,0.3908518441806757,-0.886180038759726,-0.15069276983320534,0.6763147428205312,0.8987333829846672,0.02553960431845325,0.6215763669139741,0.9207591516984113,0.0,0.0,0.0,0.0
0.016146287762885594,0.07130095222472987,0.7555278384628945,0.0034876650291858877,-0.5517510522707856,0.010903554405034844,0.8339302878610786,0.11297261898043799,0.33944554560644846,-0.8100380350164141,-0.07941824272862541,0.38985981231777533,-0.8839519288645342,-0.15334443248200819,0.6772599290311649,0.8979569210514495,0.030641641102958823,0.6214663659972889,0.9229748529496322,0.0,0.0,0.0,0.0
0.01608559226818553,0.07165446015208807,0.7556346870741165,0.003541513915971983,-0.5517147388610468,0.01085164126533003,0.8339547628525893,0.11218919550325011,0.3401694445913403,-0.8110385370758835,-0.0801860514141781,0.3887967782602851,-0.8819032827353165,-0.15596589665232297,0.6778113202065807,0.8978259327891625,0.03620104181885025,0.622102037910546,0.9238791430132015,0.0,0.0,0.0,0.0
0.01601467080255671,0.07199570868319867,0.7556752988039427,0.0036007627854228483,-0.5516785868683579,0.010797625745659626,0.8339791259837092,0.11143731579637202,0.3407533228821783,-0.8120559299873846,-0.08092866518431699,0.387656598436841,-0.8800145814508147,-0.15857573515483334,0.6779764318617928,0.8983374595469205,0.0421996170232366,0.6234788288305453,0.9234580719071845,0.0,0.0,0.0,0.0
0.01593360996640884,0.07232574297182488,0.755664732427113,0.0036639641155728916,-0.5516419368191119,0.01074150936920032,0.834003818268172,0.11071464761622599,0.3412105528993979,-0.8130578901677126,-0.08164608434300305,0.38644769554078917,-0.8782394333439295,-0.16116523450600556,0.6778368590585191,0.8993367296729258,0.04845706384253483,0.6252530828708819,0.9222654894357238,0.0,0.0,0.0,0.0
0.01584330108719643,0.07264812443010715,0.755620170696565,0.003729226176661372,-0.5516042056056778,0.010684292479997552,0.8340292195867326,0.11001109441556581,0.3415679016080977,-0.8140290749295661,-0.08234612100772602,0.38517841560711275,-0.8765184018374951,-0.16373216982369104,0.6774862796810317,0.9006535904151756,0.05482828526673669,0.6272177716272308,0.9206298537687014,0.0,0.0,0.0,0.0
0.015743959530116577,0.07296932724402047,0.7555560268840201,0.003794941263705342,-0.5515642291238566,0.010627178785780556,0.8340560908253508,0.10930911950956805,0.34185523807601836,-0.8149748938783635,-0.08304452707536003,0.3838448850285868,-0.8747842507014164,-0.16629205632257263,0.6769996564816109,0.9021532630451207,0.06122637397267948,0.6292570808781441,0.9187307832067717,0.0,0.0,0.0,0.0
0.015634745008615534,0.07329748872833196,0.7554839600032895,0.003859908002424409,-0.5515202383132092,0.010570601623316802,0.8340856012559352,0.10858869534601306,0.34209962291922885,-0.8159092246358955,-0.08375981140297893,0.3824314958517885,-0.8729654679164591,-0.1688763326072934,0.6764339879749561,0.9037331461069076,0.06759626512474992,0.6313087641421382,0.9166602303054224,0.0,0.0,0.0,0.0
0.015513225242581323,0.07364274494634665,0.7554137508550844,0.003923148038042037,-0.5514695630750611,0.01051511294740979,0.834119513205977,0.10782445275631976,0.34232364161585765,-0.8168517541835281,-0.08451580425272567,0.3809077902839982,-0.8709771248876848,-0.1715271190014788,0.6758293295678635,0.9053128074759436,0.07390704261983749,0.6333392404572953,0.9144651446690031,0.0,0.0,0.0,0.0
0.015375181586643803,0.07401678379087333,0.7553545053879871,0.003984027977923259,-0.5514082495139079,0.010460903713682615,0.8341604398331127,0.10698763856490692,0.34254391908610565,-0.817821210166348,-0.08533948389967792,0.3792292166896034,-0.8687203079980044,-0.17429633480531334,0.6752149343387527,0.906819189288939,0.08014306438248121,0.6353321532995073,0.912171714358775,0.0,0.0,0.0,0.0
0.015214413894307787,0.07443234840797326,0.7553155456512538,0.004042598389618831,-0.5513304781404393,0.010407423704829775,0.8342122312718286,0.10604783630404564,0.3427694051197366,-0.818830219604075,-0.08625915455405878,0.3773380372887553,-0.8660841070762014,-0.1772448522153831,0.6746130824420189,0.908174240501275,0.08631469708461176,0.6372843172700805,0.9098044356120416,0.0,0.0,0.0,0.0
0.015022649038793537,0.0749024525443789,0.7553069684769025,0.004100369920671877,-0.5512276920930064,0.010352635117987,0.8342805531608929,0.10497593342359003,0.3429994322081703,-0.8198809873219255,-0.0873015637529827,0.37516565828212894,-0.8629539565408494,-0.1804439551336677,0.6740415588685829,0.9092845636237908,0.09249845729750837,0.6392069962903743,0.9074047126310508,0.0,0.0,0.0,0.0
0.014789797365879513,0.07543893814277394,0.755339841959514,0.004161879344560186,-0.5510873111095351,0.01029158287098082,0.8343737397691717,0.10374971386994991,0.3432220031262414,-0.8209619190696088,-0.08848673390156434,0.3726390299977933,-0.8592325631479397,-0.1839805443398514,0.6735158042634453,0.9100321650421469,0.0989314861706084,0.6411338436850675,0.9050543085594649,0.0,0.0,0.0,0.0
0.014505079956192834,0.07604977294769621,0.7554259932974915,0.004237562532899919,-0.5508908618564758,0.010213807250373151,0.8345040320623149,0.10236430005031003,0.3434138661243509,-0.8220467102955471,-0.08981859380167298,0.36969632595622454,-0.8548847507327412,-0.1879680254102121,0.6730526392027276,0.9102649644903404,0.10620193223063473,0.6431409477900152,0.9029096799602094,0.0,0.0,0.0,0.0
0.01416005736865805,0.0767340406556726,0.7555772306053529,0.004348291142292731,-0.5506114346152675,0.010099182074646305,0.8346892517317339,0.10085085002237852,0.34354586236372897,-0.8231006358881787,-0.0912685516400688,0.36632156226879947,-0.8500249056866128,-0.19256131015747752,0.6726778864671312,0.9097859509613255,0.1155767815852715,0.6453867598502357,0.9012531925650328,0.0,0.0,0.0,0.0
0.013755167861717422,0.07747312053562858,0.7558026379004482,0.004530206276396751,-0.5502109648962265,0.00991304909249674,0.8349545513360271,0.09930670059547378,0.3435988961830057,-0.8241081770578816,-0.09274963795538366,0.3626113507116903,-0.8450694575643024,-0.19795635686608848,0.672432214785211,0.9083519597354573,0.12941619628590192,0.6481643017373354,0.9005575817791135,0.0,0.0,0.0,0.0
0.01331045836996964,0.07821795312298437,0.756095192212835,0.004831133783118722,-0.5496403177791312,0.009608179415863909,0.8353321878787731,0.09792804618268851,0.3435901324852441,-0.8251675418078258,-0.09409092337494361,0.3588690188045905,-0.8409436174371503,-0.2042916517365565,0.6723137148375945,0.9057755151692147,0.15119988259876277,0.6518688497651813,0.9015114971957167,0.0,0.0,0.0,0.0
0.012871534873748751,0.07888322638552368,0.7563654183353368,0.005265024750950202,-0.5488556090648116,0.009166576391314497,0.8358503297778429,0.09697295331637193,0.3435577445943624,-0.8267870912341788,-0.09508332060164691,0.35559379814101677,-0.8391253298739338,-0.21118467468321764,0.6718461678571384,0.9026126656449514,0.18323062013711988,0.6564517049619213,0.9048168391088067,0.0,0.0,0.0,0.0
0.012521109968983294,0.0792987003243985,0.7561682434212738,0.005594757269410888,-0.5479260026763958,0.008795859854986633,0.8364618503742859,0.09663113675961874,0.3433090514255039,-0.8306793025794768,-0.09562680054558262,0.35333132278489887,-0.8413955904307302,-0.2154990851135478,0.6683144254786032,0.9030721103071407,0.2166057486717618,0.6591028627469984,0.9107716081310363,0.0,0.0,0.0,0.0
0.012518781864304995,0.07930519979705988,0.7561654605249444,0.005601673735412479,-0.5479196619850055,0.008786356322329731,0.8364660574130766,0.09663353906381682,0.3433049712392308,-0.8306930428365671,-0.09562541539609389,0.3532959728930608,-0.8413992688272421,-0.2155281261179424,0.6682926259155253,0.9030425692939976,0.21662772418022247,0.6591146828257599,0.9107792817304765,0.0,0.0,0.0,0.0
0.012518781864304995,0.07930519979705988,0.7561654605249444,0.005601673735412479,-0.5479196619850055,0.008786356322329731,0.8364660574130766,0.09663353906381682,0.3433049712392308,-0.8306930428365671,-0.09562541539609389,0.3532959728930608,-0.8413992688272421,-0.2155281261179424,0.6682926259155253,0.9030425692939976,0.21662772418022247,0.6591146828257599,0.9107792817304765,0.0,0.0,0.0,0.0
0.012581249663536749,0.07943260842563078,0.7563148911341756,0.005675736319853429,-0.5486069533539667,0.008726404627211528,0.8360155779716,0.09628740438608939,0.34336982110881914,-0.8269031189720217,-0.09574364427368395,0.35277539146666037,-0.8368679167959246,-0.2182939573741137,0.6713796463579225,0.9039278572673723,0.2165802992549857,0.6618635721508753,0.9109585297931988,0.0,0.0,0.0,0.0
0.012664494609418705,0.0795787018214478,0.756429413371078,0.005701361573915225,-0.5490636417657299,0.008703719258395765,0.8357157752718497,0.09590369751601659,0.3438437010132126,-0.8251245144387098,-0.09599284966244913,0.3525194596603961,-0.8338326787198836,-0.22036357274312782,0.6735911959774245,0.9045307419871659,0.2164612375335133,0.663940507883995,0.9107784707745286,0.0,0.0,0.0,0.0
0.012724816735322322,0.079700859622014,0.7565026046157746,0.005702609081856572,-0.5493493936444147,0.008702689103678102,0.8355279691036908,0.09557631894032152,0.34427895449956,-0.8242949986147584,-0.09623999012133802,0.35232274139006886,-0.8318033539590046,-0.22171915391371788,0.6749785249317987,0.9049679057923478,0.21636991681176945,0.665311072559452,0.9105725519918577,0.0,0.0,0.0,0.0
