zhuoxili-jackie/tripod-support-walk/examples/trajectory_tripod_lowstep_left_v0.10.csv
root_pos_x,root_pos_y,root_pos_z,root_rot_x,root_rot_y,root_rot_z,root_rot_w,FL_hip_joint,FL_thigh_joint,FL_calf_joint,FR_hip_joint,FR_thigh_joint,FR_calf_joint,RL_hip_joint,RL_thigh_joint,RL_calf_joint,RR_hip_joint,RR_thigh_joint,RR_calf_joint,FL_foot_joint,FR_foot_joint,RL_foot_joint,RR_foot_joint
0.0,0.0,0.72963,0.0,-0.5231245161092812,0.0,0.852256264656019,0.0,-0.81,0.872,0.0,-0.81,0.872,0.0,0.65,1.0,0.0,0.65,1.0,0.0,0.0,0.0,0.0
1.554539763065937e-05,-7.215329190691876e-05,0.7296249561966257,-3.6720098414397987e-06,-0.5231180678197556,-0.0001300993677756151,0.8522602127174519,0.0005424941179924783,-0.8097870415265385,0.871826562966415,0.0005424941179924776,-0.810489864721869,0.8725836569624076,-0.00031451806256681237,0.6502879113993115,0.999899238569713,-0.0003145180625668144,0.6497214784647711,1.0001385025118463,0.0,0.0,0.0,0.0
3.8898853846444374e-05,-0.00016207221689573312,0.7296137552679627,1.9383529791617186e-05,-0.523118238531083,-0.00025273108926684523,0.8522600801794087,0.0010918157980391694,-0.8095194509106641,0.8715962153980997,0.0010920508194233076,-0.811074458471675,0.8733215175526488,-0.0006286121589216101,0.6505992646239226,0.9997983635277279,-0.0006277158609755995,0.6494413210508668,1.0004025365540594,0.0,0.0,0.0,0.0
6.854008040543381e-05,-0.0002551257826851767,0.7295966976282683,4.563717768220661e-05,-0.5231199316418919,-0.00037571871229498914,0.8522589945971116,0.0016479068030196336,-0.8092807603949622,0.8714112011414279,0.0016486482229605198,-0.8117139788956806,0.8741391696103362,-0.0009442527175248887,0.6509093118144431,0.999738508436164,-0.000941831532605922,0.6491514502160604,1.000727032964059,0.0,0.0,0.0,0.0
0.00010258570185803089,-0.00034623855265984255,0.7295738525375662,6.648076477740505e-05,-0.5231194785927835,-0.0005023794552717454,0.8522592060588169,0.0022127533017540467,-0.8091042698952171,0.8713046717856278,0.00221423830717657,-0.8123992246707135,0.8750079580339546,-0.0012631894088134792,0.6512011600826818,0.999732046270793,-0.0012586128313651506,0.6488391016596206,1.0010864903044856,0.0,0.0,0.0,0.0
0.00013748808055545644,-0.000428704717561592,0.7295459315246479,7.071399608088075e-05,-0.5231113827212461,-0.0006369039163743391,0.8522640850231799,0.0027883548330257333,-0.8090302825565294,0.87131236530591,0.0027907441101999455,-0.813114445875875,0.8758823781978717,-0.001587542679947202,0.6514503753930038,0.999789165951595,-0.0015800300467174104,0.6484857996764742,1.0014414090405899,0.0,0.0,0.0,0.0
0.00016660074488242789,-0.0004818597036397878,0.7295174651112588,2.5191279349478126e-05,-0.5230846232013002,-0.0007903831682375978,0.852280383225028,0.0033748556183233855,-0.8091630075723478,0.8715494481813442,0.003378068640040782,-0.8137904798776305,0.8766292014228582,-0.0019208267421042,0.651618555492108,0.9999269613930449,-0.0019090694808620414,0.6480764890026945,1.0016589466478794,0.0,0.0,0.0,0.0
0.00018083410530536357,-0.00043790595304176453,0.7295086690568482,-0.0001747994914271778,-0.5230458398768454,-0.000993117907690402,0.8523039554932763,0.0039529052637700055,-0.8096376768699888,0.8722626927517085,0.003956015205805865,-0.8139896322734181,0.8766847646943481,-0.0022621579951910675,0.6517466870963214,1.0002245665725138,-0.0022429564297487842,0.6477463484236998,1.0013369346111312,0.0,0.0,0.0,0.0
0.0002712668150772041,-0.00018510304522975727,0.7295211735592394,-1.3099309274761779e-05,-0.5230897447043422,-0.0006172172891081533,0.8522773831660513,0.007178557531871993,-0.8098057733550339,0.8699260696613798,0.002174329633188446,-0.8132981874597187,0.8763427706153653,-0.0025990734950151876,0.6516122272466445,1.0006538625476378,-0.00258412638797518,0.6487615895377801,1.0007032089953396,0.0,0.0,0.0,0.0
0.0004187031846762968,0.00019458183821829874,0.7295253018279555,-3.106508501655254e-05,-0.5231145933321593,-0.00028314061479543703,0.8522623076901162,0.010470311694640242,-0.8116914365896282,0.8688951397783969,0.00030456561016659273,-0.8125162844348183,0.8759574038089685,-0.0029423297421432622,0.6514571535170713,1.0015077978552147,-0.0029282876665994296,0.6499581772561066,0.9996141059032234,0.0,0.0,0.0,0.0
0.00059749052760278,0.0006091146215298916,0.7295205035998478,-0.00010846030389469016,-0.5231260653645994,2.8912986906379444e-05,0.8522553063117616,0.013762946500175252,-0.8138104831213026,0.8676478416528131,-0.0015535192162294998,-0.8118541050096764,0.8757593595818539,-0.003291945423158313,0.6513033983639931,1.0025130320432312,-0.0032769378890277305,0.6511885796622638,0.9984173552988079,0.0,0.0,0.0,0.0
0.0007981159979175084,0.0010308662158864282,0.7295050160751431,-0.00020193463377347974,-0.5231316088082275,0.0003324573562498085,0.8522518222686447,0.017054839167279914,-0.815912107238268,0.8662888669865013,-0.0033959833353722994,-0.811337372771347,0.8757754062707109,-0.0036452820019259643,0.6511515469299508,1.0036095573989576,-0.0036279127531387593,0.6524184140085801,0.9972516808227168,0.0,0.0,0.0,0.0
0.00101460852839218,0.0014529294582792899,0.7294798462793869,-0.00029861166876351083,-0.5231348225717412,0.0006330292069097611,0.8522496509344708,0.020348110409883914,-0.8179526300294389,0.8649084501336817,-0.00522935247266243,-0.8109388773109324,0.8759654349945352,-0.004000653150483003,0.6510003900811844,1.0047741543243223,-0.003979729098933324,0.6536422749188029,0.9961472737236824,0.0,0.0,0.0,0.0
0.0012440012564175036,0.0018751009717104831,0.7294467395401629,-0.0003956999395712001,-0.5231369893238228,0.0009333541667250149,0.8522480053791641,0.02364527274666658,-0.8199473528734977,0.8635273840960502,-0.007062647207360467,-0.8106307409838626,0.8762924388064667,-0.004356740549434238,0.6508503451375913,1.0059931793056938,-0.0043311495992462675,0.6548659282207189,0.9950963814874609,0.0,0.0,0.0,0.0
0.0014858921759252851,0.002299282415419212,0.7294070660535915,-0.0004935758024035048,-0.5231385949344697,0.0012352898269360397,0.8522465845821616,0.026948910367829905,-0.8219205758542832,0.8621389970009509,-0.008905689530309359,-0.8103955528441743,0.8767378480818304,-0.004712279428342649,0.6507040602155336,1.0072598347860235,-0.0046809131224125845,0.6561004498916723,0.9940831197146991,0.0,0.0,0.0,0.0
0.0017417891166732,0.0027280569028970735,0.7293614283225596,-0.0005936376668204743,-0.5231397480715242,0.0015404294641056318,0.8522453160088642,0.03026164705422197,-0.8238752348916546,0.8607342549899173,-0.010768634297810163,-0.8102275312656051,0.8773013761209798,-0.005065970804267526,0.6505647341003442,1.0085740729751225,-0.005027667687723028,0.6573585032808099,0.9930935173306029,0.0,0.0,0.0,0.0
0.002014422528224367,0.003164293720885591,0.7293096014349262,-0.0006977164011484156,-0.5231401504916983,0.0018502589171150515,0.8522443738020724,0.03358615985144074,-0.8257667719611833,0.8593174114759825,-0.012661838772852076,-0.8101308673298812,0.8779965638792235,-0.005416479744887859,0.6504340512472746,1.0099422364922181,-0.005369975794779296,0.6586516510785619,0.9921180036071977,0.0,0.0,0.0,0.0
0.002307062125520319,0.003610963722196942,0.7292506374122449,-0.0008077985780315674,-0.5231390349753415,0.0021662278546667585,0.8522442167614911,0.036925214782255904,-0.8274769553196174,0.8579216203662889,-0.01459580827789811,-0.8101168787658817,0.8788450583786134,-0.005762446708536161,0.6503106648804337,1.0113759039574295,-0.005706330111727219,0.6599885340260753,0.9911516007811022,0.0,0.0,0.0,0.0
0.002622955179795191,0.0040708393933635454,0.7291831474333292,-0.0009255569667536017,-0.5231353843430933,0.0024898913915735047,0.8522454537475477,0.04028173131787674,-0.8287948032336888,0.8566263410020423,-0.016581145712854642,-0.8102000605363561,0.8798709648913813,-0.006102464175454776,0.6501906633731848,1.0128892046678881,-0.006035143669734631,0.6613749437774631,0.9901934092742021,0.0,0.0,0.0,0.0
0.002965283321282376,0.004546075807654769,0.7291058821159125,-0.0010516631203005655,-0.5231287623196326,0.0028231497038502936,0.8522483334476872,0.043658885796152555,-0.8294292491167573,0.8555659199101127,-0.018628570734522665,-0.8103927972752905,0.8810972813937055,-0.006434977008508972,0.6500726207746944,1.0144937955338755,-0.00635467724048191,0.6628184585524839,0.9892446128818357,0.0,0.0,0.0,0.0
0.0033382925450372524,0.005038286774968427,0.7290185743026477,-0.001185811859718806,-0.5231208017382113,0.0031683324769403534,0.8522518303343912,0.047060220789399185,-0.8291010374862452,0.8548921607282653,-0.02074924977682757,-0.8106993781007078,0.8825471062347947,-0.00675811967544502,0.6499687556860212,1.0161933843257218,-0.006662883535831004,0.6643400359656434,0.9883025187251988,0.0,0.0,0.0,0.0
0.003749263763623966,0.005551165486674813,0.7289207894833366,-0.001330717352319684,-0.5231125213202101,0.00352703817951134,0.8522552899401805,0.050489857418745426,-0.8277972360579129,0.8545952594138384,-0.022955790049396005,-0.8111347366890919,0.8842647101359143,-0.007070053403527702,0.649896716548154,1.0179957500462649,-0.0069575829401514,0.665969221852488,0.9873539844287919,0.0,0.0,0.0,0.0
0.00420827559462535,0.006090826357918343,0.7288123048693912,-0.0014926529186304847,-0.5231042819888265,0.003899972522323923,0.8522584539718828,0.053952550348016014,-0.8257657409904027,0.8544998837055636,-0.025262374799427764,-0.8117202903078607,0.8863100362033912,-0.0073690172465063685,0.6498805648864844,1.0199103405389407,-0.007236438206848357,0.6677455414225246,0.9863705217048999,0.0,0.0,0.0,0.0
0.004725437722105829,0.006663784109293444,0.7286950980885494,-0.0016783450792374973,-0.5230983935236594,0.0042878596260518985,0.8522598594974359,0.05745355820761108,-0.8232498237436627,0.8544323055563304,-0.027683921339329273,-0.8124558790768197,0.8887246198148776,-0.0076530687039898775,0.6499602060403615,1.0219310565577506,-0.007496777065236529,0.6697254303061358,0.9853051402530008,0.0,0.0,0.0,0.0
0.005308375224011913,0.007277530256432088,0.7285736516544377,-0.0018959077341910656,-0.5230975117900225,0.004691086163667314,0.85225782038275,0.06099860732041919,-0.8203873587882684,0.8542413220165999,-0.030235811024921996,-0.8133127975669349,0.8915115831975923,-0.007920339707688462,0.6501807890565262,1.0240347204720757,-0.007735784100268551,0.6719723137066427,0.984086304381094,0.0,0.0,0.0,0.0
0.005959989409615149,0.007941694946517494,0.7284559188795618,-0.002156654469323107,-0.5231036265571378,0.005109125525172075,0.8522510437427686,0.06459386267111784,-0.8171920466484082,0.8537646347856279,-0.03293381241699,-0.8142202958990817,0.8946109459473621,-0.008169294202204153,0.6505870948108914,1.0261766923627131,-0.007950625931490585,0.6745526403677312,0.9826047879509706,0.0,0.0,0.0,0.0
0.0066753258175574915,0.008668730304215354,0.7283547209174953,-0.002476156909357283,-0.5231177424852883,0.0055402019981097205,0.8522388176478913,0.06824593347976905,-0.8135703370205805,0.8527734452993434,-0.035793714580409516,-0.8150443971287096,0.8978650804059153,-0.008398941652320833,0.6512191441069173,1.0282835277208977,-0.008138524854845602,0.6775327113847248,0.9807007804471303,0.0,0.0,0.0,0.0
0.007436412058065763,0.00947240540148213,0.72828789379945,-0.00287194570215084,-0.5231406440323944,0.005981924188395704,0.8522205319471362,0.07196186757235261,-0.8093499025372848,0.8509062970592333,-0.03882993635650195,-0.8155640077748749,0.900974116081959,-0.00860884192795091,0.6520995678214452,1.03025409170452,-0.008296766966835978,0.6809644608643451,0.9781750516295358,0.0,0.0,0.0,0.0
0.008203493492933242,0.010359074718370538,0.7282705081469927,-0.003350263928221723,-0.5231768418855293,0.006435014738061878,0.8521932635450811,0.07574891867035402,-0.8043075405029967,0.8475994041770961,-0.042051260452564465,-0.8154675790393389,0.903454574381386,-0.008798234004542986,0.6531850735992014,1.03201788323759,-0.00842253917526909,0.6848247005868453,0.9749107651406171,0.0,0.0,0.0,0.0
0.008896751035180213,0.0112963680806589,0.7282706919730653,-0.0038596867496927165,-0.5232452832437504,0.006915848680781104,0.8521453205987732,0.07961265437840626,-0.7981804474322873,0.8419712741799165,-0.04544694701610678,-0.8144770958547204,0.904656572336676,-0.008962571810766009,0.6541502700255168,1.0338671680785796,-0.008512889809272544,0.6887472657744197,0.9714422719215685,0.0,0.0,0.0,0.0
0.00937926758658461,0.012143520899690518,0.7281207983842135,-0.0041911015680235475,-0.5233804773445706,0.007480826414295943,0.8520559534668923,0.08354872857443271,-0.7904660053611086,0.8322735745667226,-0.048951177945627304,-0.8128497916009354,0.9041487855857556,-0.009087227205854734,0.6539666530462253,1.03704523122361,-0.008567891033611467,0.691474836532727,0.9700727366383615,0.0,0.0,0.0,0.0
0.009601532418800358,0.012656366803570553,0.7278244092333843,-0.004003002973241226,-0.5235582128421907,0.008198376149118836,0.8519410545109356,0.08747412276984658,-0.7788982176944084,0.8139420160549142,-0.052361441472908374,-0.8115829416327534,0.9031125661214271,-0.009161691797496842,0.6525902565278565,1.0407650388509817,-0.008607308364359583,0.6925667808777966,0.9716953238467627,0.0,0.0,0.0,0.0
0.00962259710141311,0.012696622753198406,0.7278156831976935,-0.004014917349897561,-0.5235450819199908,0.008228751932756042,0.8519487750315113,0.08771884850031067,-0.7788447587449496,0.8139528375686601,-0.05254289268955904,-0.8115879103550042,0.9031455032636356,-0.00916836261387939,0.6525207917134557,1.0408780205402992,-0.008604589257670705,0.6926440148963894,0.9715972566623413,0.0,0.0,0.0,0.0
0.00962259710141311,0.012696622753198406,0.7278156831976935,-0.004014917349897561,-0.5235450819199908,0.008228751932756042,0.8519487750315113,0.08771884850031067,-0.7788447587449496,0.8139528375686601,-0.05254289268955904,-0.8115879103550042,0.9031455032636356,-0.00916836261387939,0.6525207917134557,1.0408780205402992,-0.008604589257670705,0.6926440148963894,0.9715972566623413,0.0,0.0,0.0,0.0
0.009621415295942128,0.01289934226754802,0.7284094015773844,-0.0036199993379079356,-0.5231349495366241,0.007953053445736283,0.8522050628334689,0.08773377749928613,-0.7788601243279296,0.81546542550291,-0.052576018737339976,-0.8127139712738584,0.904788306567903,-0.015071245315268579,0.6556428666258436,1.0358627404404426,-0.002721945633728351,0.6835095942066385,0.9873266017565592,0.0,0.0,0.0,0.0
0.009707201552836655,0.013232967612598845,0.7291903378831427,-0.0034085102553516986,-0.522832794302422,0.0076443192975864755,0.8523941668279041,0.08762439354792691,-0.7787977749076324,0.8179447260092231,-0.05270215627077539,-0.8124579643925312,0.9055911438237203,-0.020885725245474912,0.6600850802619705,1.0296532103878184,0.0031591737871480103,0.6772849589483432,0.9989740147557344,0.0,0.0,0.0,0.0
0.009832524814621244,0.013640441299690238,0.7299755783301811,-0.003300918763912886,-0.522614652001328,0.007326208391588381,0.8525311467151495,0.08741847350773757,-0.7788176487751525,0.8208595954844949,-0.05291279193948055,-0.8115336691536628,0.9058137263948896,-0.026619671036237764,0.66483064458524,1.0236812300512859,0.009038519145480144,0.6733682713056743,1.0079519468087885,0.0,0.0,0.0,0.0
0.009968621933131472,0.014084353780707496,0.7307049811401259,-0.003242409096763343,-0.5224552577530719,0.007013660768523051,0.8526316901171599,0.08713328039667063,-0.7789103061615364,0.8238661744872838,-0.05319717932904199,-0.8102984825085675,0.9056310782371465,-0.03228685122763923,0.6694627439929008,1.0183593265982145,0.014923061784892354,0.6709508405530612,1.0154249461486107,0.0,0.0,0.0,0.0
0.010095493780740719,0.014544176870083764,0.7313644076756349,-0.0032021668925576174,-0.5223337976372537,0.0067136925956768,0.8527086702413477,0.08678041949950917,-0.7790319810255864,0.8267512419197636,-0.05354514429499084,-0.8089141782257794,0.9051172628275217,-0.037900395559800314,0.6738072652341536,1.0137475620914569,0.02081987520276992,0.6694088324782942,1.0220459495770626,0.0,0.0,0.0,0.0
0.0101869365045707,0.015001798572171939,0.7319545500292906,-0.003151846739926624,-0.5222364108621034,0.0064317147593785,0.852770678481179,0.08636786327794341,-0.7790288342352051,0.8291924179504907,-0.05394383516704762,-0.8074168951013213,0.9042148497357734,-0.043473015656980495,0.6777595214562915,1.009797826635365,0.026736079264073807,0.6682875161642969,1.0281368925593932,0.0,0.0,0.0,0.0
0.010245205721218733,0.015456919507294484,0.7324847033939226,-0.0030902223434600205,-0.5221532562309886,0.006166112385106574,0.8528237840206485,0.08590207380135718,-0.7789423770856876,0.8312614306405215,-0.05438923003511784,-0.8058535077535428,0.9029958617111679,-0.04901506910701006,0.6813444879011642,1.0064145854993676,0.03267870993205559,0.6673624052645177,1.0339040067537852,0.0,0.0,0.0,0.0
0.010274642301226142,0.01591104370959816,0.7329644961457386,-0.0030188849052847524,-0.5220788460060954,0.0059147597472245725,0.8528713739503776,0.08538786083046056,-0.7788056521479376,0.8330352904413232,-0.054878227932639405,-0.8042452732791137,0.9015146033650608,-0.05453623398248028,0.684606927331875,1.0035072596018795,0.038654861518969325,0.6665209889596617,1.0394447903475161,0.0,0.0,0.0,0.0
0.010275746208886551,0.016365336061467704,0.733399622018787,-0.0029388613820201005,-0.522009076527228,0.005675766112005664,0.8529159822608612,0.08482895162452377,-0.7786321427875202,0.834543906562437,-0.05540775059691596,-0.8025994753802019,0.8997870204107592,-0.06004621543736658,0.6875657891203804,1.0010243941086197,0.044671679599611804,0.6657162004793375,1.0447412722421476,0.0,0.0,0.0,0.0
0.010242816380300862,0.016820690916996665,0.7337908449663832,-0.002850495586980106,-0.5219395830375699,0.005447313042314978,0.8529602998464204,0.08422813333748073,-0.7784168492502217,0.835758350988972,-0.05597456246207624,-0.8009109286807288,0.8977787925796036,-0.06555516014845628,0.6901973011183893,0.9989638816991714,0.050736380131725246,0.6649489541162433,1.049640464891941,0.0,0.0,0.0,0.0
0.010161715449931313,0.017278344417467114,0.7341344492293218,-0.0027539951915023166,-0.5218639827467904,0.005227219285467903,0.8530082503708182,0.08358720566031683,-0.7781361769444225,0.8365819762339378,-0.05657514111443423,-0.7991577674311965,0.8953895638402557,-0.07107413247272068,0.6924248370031578,0.9973708366663059,0.056856275208956544,0.6642777776941865,1.053797944654186,0.0,0.0,0.0,0.0
0.010007504873972584,0.017740680195469347,0.7344243316325665,-0.0026500180802197064,-0.5217715892884695,0.00501234599627006,0.8530663880397428,0.08290687742903227,-0.7777450443409728,0.8368409869371174,-0.057205467102077336,-0.7972936986123041,0.8924350151830688,-0.0766157413039626,0.6941148404084484,0.9963194031308668,0.06303879833835613,0.6638673143273829,1.056572132674054,0.0,0.0,0.0,0.0
0.009743467980310207,0.018211028353651848,0.7346592254457166,-0.0025383814511886647,-0.521645729961459,0.004798413446354455,0.8531449257078089,0.08218654955655337,-0.7771551189908429,0.8362689339670252,-0.057860305537799514,-0.7952318056332542,0.8886373315836624,-0.08219456516339924,0.6951038329605655,0.9958425882505962,0.06929152306780866,0.6640745865836754,1.0569203145328003,0.0,0.0,0.0,0.0
0.009328393496129022,0.018692466773291047,0.7348569942175088,-0.0024157180001846824,-0.5214662418296617,0.004580509588825255,0.8532561994327957,0.08142436027460101,-0.7762047681628563,0.8345330864998736,-0.05853233657538936,-0.7928252448405482,0.8836661319717993,-0.08782583055949564,0.695296613802319,0.9957911198297544,0.07562123117752995,0.6648750558196976,1.0547456709441794,0.0,0.0,0.0,0.0
0.008733924390652587,0.01919631480309376,0.7350599842968499,-0.0022889116298434207,-0.5212075489933334,0.0043497592897301495,0.8534158021445549,0.08061798344276942,-0.7747872317075827,0.831475023232339,-0.05921684564296888,-0.7899066285271438,0.8772518675799359,-0.09352486573769465,0.694735913541636,0.9957855043917442,0.08203395284850959,0.6658966597043589,1.0509336373535365,0.0,0.0,0.0,0.0
0.007920633972626403,0.019736827999984226,0.7353213809082437,-0.002164879075513854,-0.5208319537382164,0.004094489213131003,0.8536466625143593,0.07976485289406661,-0.7727730556378345,0.8268770952214911,-0.05990811899350381,-0.7862780031488994,0.8690436566490969,-0.09931000800147109,0.6934502578759028,0.9953356142290287,0.08853600525235404,0.6669183513229101,1.0459713125199566,0.0,0.0,0.0,0.0
0.0068377711102843835,0.020332279015894097,0.7356989337552969,-0.0020509419926742736,-0.5202851795555659,0.0037992416675267458,0.853981669202874,0.0788638166030592,-0.7700553444440877,0.8204954628203132,-0.06060019530886174,-0.7817496685029283,0.8586287863691792,-0.10520292022727479,0.6914145688793089,0.9938865915247306,0.0951340398235341,0.6677248349515786,1.0400242453181525,0.0,0.0,0.0,0.0
0.00542875349657348,0.021003976404293447,0.736252645495851,-0.001952097371225628,-0.5194933725821976,0.003444844667683066,0.8544653054420891,0.07791744864581364,-0.7665938123417879,0.812122040564289,-0.061287562613880735,-0.7761948778667952,0.8456058311579724,-0.111228037363082,0.6885570276833679,0.990810609745613,0.10183510721242407,0.667963853974011,1.033028147502232,0.0,0.0,0.0,0.0
0.0036445433529050117,0.02177299700870546,0.7370391011416554,-0.001865554046828713,-0.5183608212360239,0.003009800503286269,0.8551546759601701,0.07693595593217258,-0.7624999670751982,0.8017182115201378,-0.061966909729054706,-0.7696624683390394,0.8297554463770698,-0.11741067508410676,0.6847833447155363,0.9854062085838095,0.10864670329951559,0.6670265258444071,1.0247593263202084,0.0,0.0,0.0,0.0
0.0014719871239071234,0.022652412032914543,0.738092621152902,-0.0017713208528410535,-0.5167713158132196,0.0024746337862702928,0.8561180676534831,0.07594388704966051,-0.7582168626545287,0.789695922270925,-0.06264144945415642,-0.7626148955318308,0.8114110086670208,-0.12377200303184395,0.680000832908465,0.9769907970180651,0.11557675772859312,0.6640273273655554,1.014943350627434,0.0,0.0,0.0,0.0
-0.0010087348970521273,0.02363506066612555,0.7393659820358844,-0.0016228826064744017,-0.5145892755665384,0.0018304313813781318,0.8574333170835553,0.07499336701358086,-0.7550095537009864,0.7776105019407035,-0.06333395311979222,-0.7564971751036966,0.7922905744088353,-0.1303186436272627,0.6740286813135259,0.9653420907289774,0.12263374534354311,0.6581100428311245,1.0034074021853292,0.0,0.0,0.0,0.0
-0.0034904982908818215,0.024662250038516326,0.740584205805614,-0.0013175807629732766,-0.5116111481056939,0.0010974442163953913,0.8592153936767537,0.07420836901971607,-0.7564499860466491,0.7701367713137981,-0.06412160748270136,-0.7554795383502048,0.777901876534611,-0.13703064342377677,0.6661349569121042,0.9518121481986096,0.1298303808658872,0.6495927359088488,0.9894662846795228,0.0,0.0,0.0,0.0
-0.005688592250633888,0.025653324838733255,0.7411849714677978,-0.0007492569679727139,-0.5076666010436799,0.0003161962028864391,0.861553225760727,0.07372204074897624,-0.7668060761705009,0.7721611815705104,-0.06510586546146313,-0.7646300170534482,0.7743804415427586,-0.14384556013096242,0.6540982907434426,0.9406709604468622,0.13718142010670975,0.638132398026781,0.9720506522346136,0.0,0.0,0.0,0.0
-0.00742753485890402,0.026436802878594595,0.7409154634871479,0.0002843052196529888,-0.5028426509989231,-0.0004141320460336878,0.8643778201698408,0.07359605840709504,-0.7866369758180642,0.7843717597010642,-0.06631266328577906,-0.7860696060907685,0.7848866458218833,-0.15055886073518795,0.6374382742569039,0.9338820268519475,0.14462348287211554,0.6225076139598791,0.954879399803079,0.0,0.0,0.0,0.0
-0.007436310745293282,0.02648590119984265,0.7408367057976581,0.0003560811366714421,-0.5028264040748514,-0.00045662300758362163,0.8643872234518551,0.07357719945695097,-0.7867710544838634,0.7843119164951897,-0.06636718263074458,-0.7862708614113422,0.7846590124482349,-0.1508899590274149,0.6375070587414825,0.9337993120943561,0.14509546969200912,0.6224991140643935,0.954873610625339,0.0,0.0,0.0,0.0
-0.007436310745293282,0.02648590119984265,0.7408367057976581,0.0003560811366714421,-0.5028264040748514,-0.00045662300758362163,0.8643872234518551,0.07357719945695097,-0.7867710544838634,0.7843119164951897,-0.06636718263074458,-0.7862708614113422,0.7846590124482349,-0.1508899590274149,0.6375070587414825,0.9337993120943561,0.14509546969200912,0.6224991140643935,0.954873610625339,0.0,0.0,0.0,0.0
-0.00770613205638556,0.02660654622864203,0.7414193792847795,0.00033207032036200587,-0.5045807953073134,-0.0002774608225359451,0.8633643690538968,0.0724018209276798,-0.7733244153104779,0.7703262279130402,-0.06678750971355317,-0.7712842946671218,0.7688371464685687,-0.15206262937708137,0.6441503265344384,0.9326706139187195,0.14726109858377562,0.629600526439115,0.9538382735583535,0.0,0.0,0.0,0.0
-0.008125173896806318,0.026746356768810462,0.7418828064512668,0.00027895655173059856,-0.5057063550261857,-0.00010720558869492465,0.8627056237073766,0.07133545227477985,-0.7631769881820355,0.7585572034713046,-0.06729020115565013,-0.7594036815564442,0.7549117563062719,-0.1525092497387758,0.6480250876437517,0.9313415483612602,0.14864457949940474,0.6340827405820145,0.9522265093744036,0.0,0.0,0.0,0.0
-0.00862712489542421,0.026887877094251916,0.7422724152889352,0.00022371672930670332,-0.5063136476560758,6.169063205341766e-05,0.862349370233602,0.07035817123439018,-0.7559146275070882,0.749098353003334,-0.06786116430389318,-0.7503844256153317,0.7432347640713898,-0.15229191576916232,0.6498590028773888,0.9295070143170602,0.14932152085132333,0.6365766732475722,0.9499797674942299,0.0,0.0,0.0,0.0
-0.009104596914359442,0.02705758278116168,0.7426503820104929,0.00012648489214940763,-0.5064341459880405,0.00021822529408477986,0.8622786047192966,0.06946334497112426,-0.7519896503558638,0.7432283524565617,-0.06851389932740055,-0.7444129366961127,0.7347086560792392,-0.15146931255929297,0.6503665567570049,0.9266145449497832,0.1493573587386106,0.6378005769746693,0.9464431126119395,0.0,0.0,0.0,0.0
-0.009223277166602636,0.027281919990067374,0.7429929786687517,-5.343162338052441e-05,-0.5059258370139458,0.0003507498966551305,0.8625769076211754,0.06871842827844934,-0.7545846476961979,0.7461349458176134,-0.0693267972476328,-0.7444309634593929,0.7341914168491357,-0.15012205703040818,0.6500402516528669,0.9223903926756137,0.14883932646788967,0.6382728119818882,0.9412015487564727,0.0,0.0,0.0,0.0
-0.008948124719807974,0.02765320914824026,0.743017413187009,-0.0004584183924479123,-0.5046540301500556,0.00041644250967437095,0.8633214501456108,0.06815853890987347,-0.7661573639799065,0.7603066073892162,-0.07036304763503741,-0.7520080529380232,0.7429060003600187,-0.14824546705782063,0.647124076430951,0.919560784883996,0.14775533569356894,0.6364032784431378,0.9363074398863813,0.0,0.0,0.0,0.0
-0.00827114906261027,0.02813761239319141,0.7420612753690143,-0.0010484511616726138,-0.5024557121922593,0.00041842273198543597,0.8646022108218023,0.06789618298027375,-0.7894647160320138,0.7872070980940815,-0.07168434122976183,-0.7703977572541507,0.7631504694092481,-0.14596488014068087,0.6378301980216244,0.9242268336275601,0.1462247021236422,0.6283973479842453,0.937952920679743,0.0,0.0,0.0,0.0
-0.005721802454189526,0.028970232814814745,0.7418494724416367,0.00015433347567991716,-0.5081051755244115,-0.00034785549595489455,0.8612949470321065,0.06656592317510915,-0.7687538740835176,0.7809305752085305,-0.07199745454313414,-0.7516937304148379,0.7553587825280375,-0.13824755777708087,0.6531027210034035,0.9529784756591676,0.13991238234127906,0.6465958222576119,0.9516121379372927,0.0,0.0,0.0,0.0
-0.0029120872664768374,0.029773827883359475,0.7406923472140352,0.001064993778079284,-0.5124028286649946,-0.0010344728583216996,0.8587439297196052,0.06560578555365587,-0.7613641461466455,0.7878038055119563,-0.07264981331471332,-0.7453466227095634,0.7600637487636895,-0.13064410229562692,0.6622512043163311,0.9773764993171161,0.13362180083917807,0.6587206574198137,0.9687089805452916,0.0,0.0,0.0,0.0
0.00013387477540240241,0.030655593551607106,0.7392598380368584,0.0015359561715675028,-0.5153633005478768,-0.0016743377552594315,0.8569687893267287,0.06489460179872356,-0.765529359043937,0.8073873400297298,-0.07358944512610778,-0.748514358470415,0.7752089866776422,-0.12321107379536245,0.6693160021654442,0.9950661846567825,0.1273962336835423,0.6677692526452976,0.9832710608636731,0.0,0.0,0.0,0.0
0.0028542039294722774,0.03149580918772014,0.7380386190383472,0.001794481683153728,-0.5174590956130178,-0.0022223911107429203,0.8557031758621662,0.06425063060925827,-0.7725857486763523,0.8281837122060675,-0.07459680730675262,-0.753853464736009,0.7911036258465659,-0.11592727206197277,0.6731059044357808,1.0086682891253986,0.12122046063453952,0.6751197850661371,0.9934144027646276,0.0,0.0,0.0,0.0
0.00510800011428178,0.032268665310303694,0.7371170315384492,0.0019374352904365827,-0.5189286825993129,-0.002683448857567102,0.8548111299126058,0.06361898485277104,-0.7797939016277926,0.8468043172135904,-0.07559690275609511,-0.7590789286262499,0.8048940124484224,-0.10878339673249876,0.6744584257490344,1.0192986376061268,0.11509320649155765,0.6809752618418081,0.9997048025438839,0.0,0.0,0.0,0.0
0.006890509021981706,0.032966880026563804,0.736466110951217,0.002032448747182787,-0.5199501426623284,-0.0030706179610138487,0.8541886733051732,0.06298197103461363,-0.786124996948184,0.8622592659883594,-0.07655513806534928,-0.7634363201110572,0.8158575481689615,-0.10177047978718547,0.6743931786974059,1.0278406085844252,0.10901709010721834,0.6854386012160661,1.0031792518176936,0.0,0.0,0.0,0.0
0.008254713898333576,0.03359711047411906,0.7360318159947742,0.002115244300864393,-0.5206555316852025,-0.0034003039141902195,0.8537574485768413,0.06233644616582916,-0.7912930053082559,0.8745742404404284,-0.07745772170424664,-0.7667494297091252,0.8240703449351313,-0.09488010840717451,0.6736213374961504,1.0349246438893505,0.1029940894205072,0.6886940915459315,1.0046915074502454,0.0,0.0,0.0,0.0
0.009272229563995532,0.034171721534770605,0.7357587358370915,0.0022010812676754097,-0.521140400201562,-0.0036883270967789233,0.8534601541737236,0.06168569664913488,-0.7953381607134877,0.8841595307508232,-0.07830179458398479,-0.7690805158997086,0.8298950464973478,-0.08810441975265389,0.6725292152997945,1.0409442483406064,0.09702438305431921,0.6909499115225118,1.0048815394829829,0.0,0.0,0.0,0.0
0.010013851191179852,0.03470412355748538,0.7355947491976016,0.0022938967068415897,-0.5214731422248146,-0.003948364293256577,0.85325547779987,0.061035606927041394,-0.798434527642169,0.8915238552833664,-0.07908981306859071,-0.7705852294173651,0.8337591454083452,-0.0814360283537556,0.6712936792551099,1.0460972437878893,0.09110631400668638,0.6923806872736071,1.004250974574695,0.0,0.0,0.0,0.0
0.01053968695089743,0.03520680610496979,0.7354905936457246,0.002391654543519184,-0.5217021384056877,-0.004191635751250619,0.8531140538997151,0.060392683292731175,-0.8007984424531398,0.8971432614300354,-0.0798262766048108,-0.7714433570938649,0.8360497805304566,-0.0748679389186603,0.6699968316616419,1.050398551341775,0.08523659068156657,0.6930927807004158,1.0032314809761491,0.0,0.0,0.0,0.0
0.01089418461392236,0.03569086493484883,0.7353988889777874,0.00248898906659866,-0.5218607276643737,-0.004427166631346522,0.853015583709146,0.05976298759855607,-0.8026422851111539,0.9013995793347719,-0.08051575531694541,-0.7718206098756072,0.8370582333188987,-0.06839347977876802,0.6687136617569805,1.053642847626077,0.07941049037411826,0.6931089441421914,1.0022259791748267,0.0,0.0,0.0,0.0
0.011106682387932613,0.03616561489529406,0.7352759428094563,0.002579427883630927,-0.5219716121331085,-0.004662080275094422,0.8529462161745401,0.05915180282980039,-0.8041473673773796,0.9045658437963946,-0.08116167167459316,-0.7718499924366391,0.8369729074447948,-0.06200626957515611,0.6676006341768495,1.055325578625007,0.07362225174693783,0.692387841795143,1.0016072283506703,0.0,0.0,0.0,0.0
0.011215471967857275,0.03662889365521303,0.7350906402227413,0.002672450652541788,-0.5220499039209253,-0.004898160946894786,0.8528966900176134,0.05856862135079323,-0.805491814783087,0.906949864676405,-0.08176698170949291,-0.7717683891880154,0.8361750446301494,-0.05570011974743157,0.6670730189568913,1.0545775115978995,0.06786709467334293,0.690944572578884,1.0016473124990195,0.0,0.0,0.0,0.0
0.01124254326668048,0.03708462126404785,0.7348312985141795,0.002765152313866522,-0.5221065886269443,-0.005139012849145177,0.8528602784700154,0.05801793750688473,-0.8067669057285378,0.9087370175662007,-0.08233240592506594,-0.7716502283587529,0.8348191128795401,-0.0494681729711992,0.6671461211180804,1.0514636804354707,0.062137542267918566,0.6888245714530354,1.0024311518324354,0.0,0.0,0.0,0.0
0.011207527452963528,0.03753659171732062,0.7345051820777685,0.0028533746696989505,-0.5221491752638444,-0.005387886568017928,0.8528323796049324,0.0575028565832488,-0.8080135067229026,0.9100819734028818,-0.08285731303069666,-0.7715146762811256,0.8330236143695589,-0.043302805932590754,0.6674773839630694,1.046992797437272,0.05642466513972867,0.6861447534588999,1.0038658291223626,0.0,0.0,0.0,0.0
0.011121124166361983,0.03798734327358609,0.734124319732372,0.0029338223817668525,-0.5221802030451035,-0.005647291790668272,0.8528114306981571,0.05702617448858564,-0.8092380510124626,0.9110673794437337,-0.08333941028390297,-0.7713522280539914,0.8308442090366582,-0.037196536359145015,0.6679145498135379,1.0417689159808188,0.050718862424458465,0.6830019549601515,1.0058192712741107,0.0,0.0,0.0,0.0
0.010982272477640137,0.03843950948334991,0.7336968829497286,0.0030025893619889843,-0.5221978873540393,-0.0059197100939547215,0.8527985154375591,0.05659039071270057,-0.8104275538767461,0.9116936671327813,-0.08377497101688333,-0.7711277652852897,0.8282452844212027,-0.031142017486286408,0.6683943207786279,1.0360850580501808,0.045009928518477155,0.6794260558949874,1.00819966194246,0.0,0.0,0.0,0.0
0.01078017666570175,0.038896965484473175,0.7332251314781258,0.0030538893503501982,-0.5221974850121062,-0.006208277235294076,0.8527965277254808,0.05619787389536419,-0.8115621299649608,0.9119000155386735,-0.08415914224885535,-0.7707841323663771,0.8251071287478586,-0.025132018552376078,0.6688943672853145,1.0300191490978465,0.0392872216931926,0.675381266760113,1.0109701602444106,0.0,0.0,0.0,0.0
0.010499438289755976,0.03936499306650852,0.7327068111724113,0.003080134452282506,-0.522173330558281,-0.00651704375541036,0.8528089198443682,0.055851322085894974,-0.8126234463630777,0.9115999605925971,-0.08448621239146635,-0.7702515631915123,0.8212622377712389,-0.01915940978330587,0.669432763722225,1.023490532486841,0.03354014647408068,0.670794831254474,1.0141325606991791,0.0,0.0,0.0,0.0
0.01013448253608846,0.039845545840478974,0.7321401486908294,0.0030795197016307155,-0.5221246302015707,-0.0068491175484617205,0.8528361370650799,0.05555572551536894,-0.8135939852691122,0.9107498434447342,-0.08474984493123314,-0.7694984685273059,0.8166373958971042,-0.013217179294005229,0.6701284429001821,1.0163178466829548,0.027759948849925508,0.6656391184124499,1.0176918508956048,0.0,0.0,0.0,0.0
0.009742087908391352,0.04030679102980646,0.7315288410175822,0.0031028205710403483,-0.5220560309735081,-0.007193642294590727,0.8528752104142956,0.05533259253104576,-0.8145624565774845,0.9096560121622365,-0.08494656314681359,-0.7689560872096587,0.8120259080332209,-0.007298056373955268,0.671421068654997,1.008257827534572,0.021944886106117105,0.660101974754019,1.0216566302540362,0.0,0.0,0.0,0.0
0.009356715429363512,0.04072639583718932,0.7308818039286239,0.003184582971287245,-0.5219841017739565,-0.0075428364220076136,0.8529159170429672,0.05519432807406897,-0.8154706266858222,0.9084026900918011,-0.08506985225417511,-0.7688036709195497,0.8078494392389273,-0.0013949080422474176,0.6738181799400502,0.9987264455415398,0.016092707757090756,0.6543633391699398,1.0260090637856034,0.0,0.0,0.0,0.0
0.009029679101408861,0.04105937749759606,0.7302357690401029,0.0033929368837235145,-0.5219408215875063,-0.007878397127573294,0.8529385661339052,0.05515568946388019,-0.816070629971061,0.9069771156922775,-0.08510831182968549,-0.7692524048201413,0.8047510281567025,0.004498767649673341,0.6780032504062761,0.9867310653519306,0.01020311996917531,0.648813416073978,1.0305735234541007,0.0,0.0,0.0,0.0
0.008828267060199693,0.041257241294539185,0.7297371013638632,0.0037990298119035333,-0.5220176395498941,-0.008177652741187558,0.8528870249727625,0.05520801234613956,-0.8155004362817414,0.9050307138487548,-0.08504189972077604,-0.7699123720957046,0.8030485307122588,0.01038504353590965,0.6848489369399605,0.971051904928727,0.00428011719344806,0.6445620026208194,1.0343206691032711,0.0,0.0,0.0,0.0
0.008837742951683533,0.041276520603173564,0.7297272929110625,0.003816544820680817,-0.5220320461634532,-0.008197246302631932,0.8528779408081111,0.0552009557602029,-0.8154774806737617,0.905074173033966,-0.08504699214949973,-0.7699022186703882,0.8030168805331539,0.010751759556320269,0.6848491835078023,0.9710480857229126,0.003937458891826332,0.6445043164341098,1.0343099157623477,0.0,0.0,0.0,0.0
0.008837742951683533,0.041276520603173564,0.7297272929110625,0.003816544820680817,-0.5220320461634532,-0.008197246302631932,0.8528779408081111,0.0552009557602029,-0.8154774806737617,0.905074173033966,-0.08504699214949973,-0.7699022186703882,0.8030168805331539,0.010751759556320269,0.6848491835078023,0.9710480857229126,0.003937458891826332,0.6445043164341098,1.0343099157623477,0.0,0.0,0.0,0.0
0.008748414952830021,0.04175081188429433,0.7299953870493884,0.004123916078907084,-0.522407914030092,-0.007406784900094002,0.8526535663517427,0.05153572413204057,-0.8140862616403495,0.9040549211173082,-0.08074893358831164,-0.782870327131832,0.8270699135164566,0.010728404067934587,0.6854721636601587,0.9704254407677811,0.003825756025420742,0.6477274955463468,1.0318604935791575,0.0,0.0,0.0,0.0
0.008416152241767082,0.042641660219478725,0.7300726519570252,0.0037892104829441078,-0.5226447417467178,-0.00680812854085666,0.8525149647919347,0.0478037044503081,-0.8146997373984624,0.9042654285272402,-0.07646554244091644,-0.7918904469375363,0.8403887706296356,0.010642937164263646,0.6837627959625174,0.9731422760029179,0.003661288725533577,0.6491537678502944,1.0297124013585863,0.0,0.0,0.0,0.0
0.007837857831920243,0.043639326694186596,0.7300194855370503,0.003247621308190982,-0.5228076925559301,-0.00630478251098019,0.8524211513551689,0.044204076123650765,-0.8153290367929301,0.9032861841854096,-0.07227523966212317,-0.7988561185877173,0.8479528475253925,0.010502074172572793,0.6804680062131573,0.9776081608151073,0.0034605450994730576,0.6490321839608794,1.028439327718844,0.0,0.0,0.0,0.0
0.007142129361446611,0.04458478686919848,0.7300023193940535,0.002733154493576994,-0.5229188719987738,-0.005834200166022229,0.852358108591962,0.040803187643670226,-0.8152646641837873,0.9010332542434404,-0.068180920192343,-0.8043532905507806,0.8522901498016685,0.010314938840361618,0.6769832399271477,0.981573229115821,0.0032388363717694604,0.6485043659972766,1.0269826221007214,0.0,0.0,0.0,0.0
0.006420415032904631,0.045438407945137906,0.7300516246534272,0.0023074538895242946,-0.5229915318737584,-0.005377659012605941,0.8523177893417639,0.03761505311452977,-0.81462798302422,0.8980478736641099,-0.06417676271938196,-0.808779936816222,0.8547496115036143,0.010091231282834803,0.673790491706578,0.9845438178584627,0.002999974734172761,0.6480097741316228,1.0251307017563054,0.0,0.0,0.0,0.0
0.005722946145565555,0.046206207455567874,0.730143957166558,0.0019648987486267614,-0.5230390358919363,-0.004934192195043169,0.8522921798617676,0.03463085587416959,-0.8137060432240687,0.8948277874137476,-0.06025457241383904,-0.8124793195648842,0.8561128631588825,0.009838898412906536,0.6709484465791098,0.9867405048155,0.0027441318136391542,0.6476343824957224,1.0230502783313271,0.0,0.0,0.0,0.0
0.005076300659313703,0.04690261649288264,0.7302563300089494,0.0016869988881722234,-0.5230720858812427,-0.004506357382882167,0.8522748616202023,0.03183527579655755,-0.8127178132042261,0.8917067408729652,-0.05640613753871519,-0.8157174493558298,0.8568404218079481,0.009563637990641943,0.6684353685056447,0.9884265530508919,0.0024715111001627306,0.6473896229432708,1.020898517642727,0.0,0.0,0.0,0.0
0.004491824241296173,0.047540833843600486,0.7303736742142082,0.0014570373911222377,-0.5230976523058571,-0.00409622048362718,0.8522616641454025,0.029211579096975488,-0.8117953945423292,0.8888707765837796,-0.05262368907451156,-0.8186705762252728,0.8571990064083662,0.009269499360095407,0.6662139549982413,0.9897941194439452,0.0021829251907790007,0.6472660797827189,1.0187755247556805,0.0,0.0,0.0,0.0
0.003971138563087474,0.048131143002164416,0.7304873346354737,0.0012627129639917075,-0.5231194441090901,-0.0037046141760813606,0.8522503907800649,0.026743257332635634,-0.8110056671561445,0.8863995348466008,-0.04889996712108648,-0.8214124260725559,0.8573492782548562,0.008959454765033731,0.6642427513585638,0.9909678586839364,0.0018796424968779472,0.6472446454406443,1.0167370499711037,0.0,0.0,0.0,0.0
0.0035097305746945146,0.04868138043897868,0.7305927259115549,0.0010954372294467716,-0.5231386499146966,-0.0033313451210730573,0.8522403740274155,0.024414488972630825,-0.8103733799352281,0.8843027096182047,-0.04522820993266151,-0.8238991778451245,0.8574099842182779,0.008635765942179179,0.6624772849585568,0.9920261028259025,0.0015631696673319947,0.6472992199798355,1.0148108518968468,0.0,0.0,0.0,0.0
0.0030991823539932807,0.049197937522687,0.7306877605738745,0.0009487744598347807,-0.5231547956241945,-0.0029756604588634166,0.8522319549789629,0.022210166456780478,-0.8098969164289834,0.8825454833889281,-0.0416021518520128,-0.8259596023853035,0.8575076316314392,0.008300199359114226,0.6608707914868612,0.9930184755485663,0.0012350834947133552,0.6473991075057484,1.0130065381864672,0.0,0.0,0.0,0.0
0.0027288905588373005,0.04968678356273967,0.730772237709884,0.0008168227986717069,-0.5231670177797568,-0.0026367492851091003,0.8522257047643884,0.020115816851188635,-0.8095561955620804,0.8810657590495807,-0.03801606694589432,-0.8273170635990886,0.8578085259982996,0.007954179323620513,0.65937906420924,0.9939762344616072,0.0008969046346061119,0.6475152912930712,1.0113183615488424,0.0,0.0,0.0,0.0
0.002388399787668539,0.05015379428737634,0.7308478198903066,0.0006936488253775618,-0.5231759442165501,-0.00231395260253859,0.852221271658823,0.018117730133190898,-0.80931533574921,0.8797892071254471,-0.03446482108551344,-0.8276969961972043,0.8584988781598136,0.00759897914091591,0.6579719927137965,0.9949154688019306,0.0005500185482905425,0.6476323808745693,1.0097259386565267,0.0,0.0,0.0,0.0
0.002070135153090521,0.05060251061903588,0.7309157168676294,0.0005766930579169996,-0.5231812830830453,-0.0020057950762803365,0.8522188622899678,0.016204001189054677,-0.8091494234721648,0.8786610084387035,-0.030943977992070642,-0.8271013197881679,0.8595827461482684,0.007235892601915976,0.6566256253746401,0.9958429574441108,0.00019588167954274588,0.6477377271652351,1.0082157444201634,0.0,0.0,0.0,0.0
0.0017696699229724693,0.0510343848560569,0.7309764955863013,0.00046636796311867837,-0.5231819461838288,-0.0017101059378327108,0.8522191673659456,0.014364387330859844,-0.809047424292148,0.8776504827923503,-0.027449721951449534,-0.8258123252911846,0.8608869175496894,0.006866288242643151,0.6553220699704071,0.9967590748109905,-0.0001640038702114027,0.6478215345982553,1.006782330116048,0.0,0.0,0.0,0.0
0.001483616921585901,0.051451455706947424,0.731031922840889,0.00036198471072901816,-0.5231787721304061,-0.0014251811079337548,0.8522216907694848,0.012589144034565533,-0.8089906786464375,0.8767279430563457,-0.023978682085647244,-0.8241252353141673,0.8622709122583496,0.006491516489067776,0.6540572937074901,0.9976583209968872,-0.0005283117564840382,0.6478882086429544,1.0054099932528813,0.0,0.0,0.0,0.0
0.0012084292385667569,0.05185649319803606,0.7310842363852083,0.0002615999043025353,-0.5231730512847003,-0.0011497844471483594,0.8522256555459191,0.010868850139698249,-0.8089583018333009,0.8758629020380184,-0.02052782842726111,-0.8222488524843027,0.8636584521111828,0.006112810627725014,0.6528299754824319,0.9985346309542011,-0.0008958297210782018,0.6479455872061775,1.0040769659142028,0.0,0.0,0.0,0.0
0.0009407577051540007,0.05225257888375358,0.7311355566623261,0.00016269000325546868,-0.5231658239975473,-0.0008829329498840862,0.8522304351302741,0.009194479024755084,-0.8089333307946354,0.8750300363779361,-0.017094363822904603,-0.8202937830576842,0.8650243359487295,0.00573129998873819,0.6516381512475427,0.9993834176720966,-0.001265408081840484,0.6480011123707496,1.0027604431380377,0.0,0.0,0.0,0.0
0.0006786450846178525,0.05264273192468625,0.7311876422517036,6.271901586009516e-05,-0.5231578253622935,-0.0006237343525036704,0.8522355876070762,0.007557526180485159,-0.8089086175524712,0.8742198488367072,-0.013675664343714639,-0.8182955164309029,0.8663747668538485,0.005348077525132003,0.6504816781121866,1.0002012493928814,-0.001635940717172258,0.6480637820795286,1.0014389535206782,0.0,0.0,0.0,0.0
0.00042312965450237,0.0530294667349626,0.7312418906293812,-4.021361453354502e-05,-0.5231497204652402,-0.0003712152512156871,0.8522407116297857,0.0059502065765490685,-0.8088921754536735,0.8734512076993705,-0.010269262261257545,-0.8162470843764404,0.86772924808682,0.004964295964639944,0.6493678876771645,1.0009833657417264,-0.0020063580120586264,0.6481491327397227,1.0000930404589448,0.0,0.0,0.0,0.0
0.0001800878347967139,0.05341354349320458,0.7312994776316483,-0.0001455232095456226,-0.5231423234711005,-0.0001238188172843139,0.8522453126214039,0.004365977920125246,-0.8089101387746278,0.8727815466480423,-0.006872889347679696,-0.8141369318283539,0.869098682674866,0.004581310669772425,0.6483191088700312,1.0017169298080573,-0.002375594926871879,0.6482849119026771,0.9987073703405798,0.0,0.0,0.0,0.0
-3.8014922609605446e-05,0.053789772854244494,0.7313613754407712,-0.00024389398934322157,-0.5231365982614795,0.00012230731554827844,0.8522488047020366,0.0028012774670116963,-0.8089986199941757,0.8723001467594165,-0.003484773581402487,-0.8120040125937474,0.870451420202879,0.0042009628951731395,0.6473808127572591,1.0023647452925968,-0.002742471409749538,0.6485130869463839,0.9972841345225579,0.0,0.0,0.0,0.0
-0.00021110128238749067,0.05413341614859209,0.7314268886709678,-0.0002974536096842389,-0.5231350735887703,0.00037842196681735186,0.8522496483422196,0.001262750435611253,-0.8091483802429219,0.8720521939580114,-0.00010623400569107324,-0.8100733870602341,0.8717438575457183,0.0038263171699779368,0.6466312579522656,1.0028333883773675,-0.0031054755841007824,0.6488786262490284,0.995906864829732,0.0,0.0,0.0,0.0
-0.0003052310830356329,0.05435694840737679,0.731480939954792,-0.0001902395913812053,-0.5231476311938902,0.0006655781545971974,0.8522417947923226,-0.00016248680649127664,-0.809164159194617,0.8718421903223351,0.003210773058591585,-0.8095930399833335,0.8741569372240431,0.0034606717960697737,0.6462001380545291,1.00295554087018,-0.0034656137289262347,0.6493524926361149,0.9950061520670339,0.0,0.0,0.0,0.0
-0.00030388652949188904,0.05435562142460215,0.7314803660543796,-0.00018870078405626374,-0.5231466621296249,0.0006649298435388367,0.8522423904987062,-0.00015781170990101763,-0.8091672174715292,0.8718470882557035,0.0034193883285054925,-0.8095849378000304,0.8741534389168462,0.003456159220886428,0.6462026093896514,1.0029526772447321,-0.003469582722316973,0.6493491700487141,0.9950102701602804,0.0,0.0,0.0,0.0
-0.00030388652949188904,0.05435562142460215,0.7314803660543796,-0.00018870078405626374,-0.5231466621296249,0.0006649298435388367,0.8522423904987062,-0.00015781170990101763,-0.8091672174715292,0.8718470882557035,0.0034193883285054925,-0.8095849378000304,0.8741534389168462,0.003456159220886428,0.6462026093896514,1.0029526772447321,-0.003469582722316973,0.6493491700487141,0.9950102701602804,0.0,0.0,0.0,0.0
-0.00030388652949188904,0.05435562142460215,0.7314803660543796,-0.00018870078405626374,-0.5231466621296249,0.0006649298435388367,0.8522423904987062,-0.00015781170990101763,-0.8091672174715292,0.8718470882557035,0.0034193883285054925,-0.8095849378000304,0.8741534389168462,0.003456159220886428,0.6462026093896514,1.0029526772447321,-0.003469582722316973,0.6493491700487141,0.9950102701602804,0.0,0.0,0.0,0.0
-0.0002660673619376754,0.05420616139803916,0.7314612950728439,-0.00018862099859573577,-0.5231373235592378,0.0003930069308468075,0.8522482916773424,0.0009671943469237243,-0.8087405606570113,0.8715140169140008,0.00454417927153784,-0.8106405074223613,0.8754129453144134,0.0027455141505350186,0.6467998607598713,1.0028332380198768,-0.00417735596561545,0.6487405945124922,0.9953752726503556,0.0,0.0,0.0,0.0
-0.0002245968160303162,0.05402272229060571,0.7314270415155429,-0.000135358232145867,-0.5231389197912559,0.0001379498572047416,0.8522474014320159,0.002096542363844882,-0.808170027430296,0.8709693901223129,0.005674531315205072,-0.8118337774111116,0.8768619935391625,0.002039279257591548,0.6473846401000833,1.0027475813881184,-0.004878913315003555,0.6480761321114841,0.9960229107523917,0.0,0.0,0.0,0.0
-0.00017901569593726065,0.05383346320178428,0.7313790326733397,-7.429836157854407e-05,-0.5231382317816191,-0.00011561211528003801,0.8522478345892075,0.003231128196599958,-0.8076516741377466,0.8704628310882551,0.006811464107024272,-0.813125967524266,0.878413044796982,0.0013319561998347937,0.6479152566678119,1.0027576751997342,-0.005579288579837587,0.6473462770828163,0.9968076057543841,0.0,0.0,0.0,0.0
-0.00013257070491024328,0.05364903706433725,0.7313160521769935,-2.3384170696459427e-05,-0.5231261932751857,-0.0003746804158819978,0.8522551525084372,0.004375335230502288,-0.8072713611523977,0.8700808470753233,0.007959207756565449,-0.8145151901240433,0.8800244491992204,0.0006186273484188788,0.6483485506627794,1.0028986499141979,-0.006282368977643855,0.6465167461414874,0.997683668145947,0.0,0.0,0.0,0.0
-9.244053408734076e-05,0.053486228161774486,0.7312368690735609,-1.010922153147016e-05,-0.5230876655873922,-0.0006494642413151382,0.8522786353090963,0.0055333370814878045,-0.8071567088368902,0.8699426633949066,0.00912159506048684,-0.8159907467444458,0.8816144958034303,-0.00010768999157938078,0.6486103963004894,1.0032189619311418,-0.006992668845406202,0.6455294064204496,0.9985743240760381,0.0,0.0,0.0,0.0
-7.02355213093989e-05,0.05339846591048646,0.7311433730380315,-0.00011932669579805558,-0.5229941597502064,-0.000968391641053686,0.8523357066590281,0.006704927701208045,-0.8076381014104637,0.8704181536194262,0.010297231676837673,-0.8174392806301972,0.8829161924269731,-0.0008597370658281037,0.6485713374626441,1.003847229658164,-0.007716448560211872,0.6443169685850508,0.9992183546034986,0.0,0.0,0.0,0.0
-1.0764347671794824e-05,0.053596399877648714,0.7310223483732973,-0.0006771929315949318,-0.5228008644193591,-0.0014282002388650281,0.85245337574332,0.007840839374954918,-0.8102211673923707,0.8736310556558059,0.011432400090094094,-0.8185975869976722,0.8835418806902546,-0.0016461320126429048,0.648073204552666,1.005513617138911,-0.008445349864242006,0.6430092418462925,0.9988411584416864,0.0,0.0,0.0,0.0
0.0003145050409446471,0.054045494594221095,0.7310898954575679,-0.00027743860509848626,-0.5229899572503514,-0.0006608755749713311,0.8523385424152603,0.014214904805404893,-0.808249041959417,0.8687514430945537,0.007918212280225467,-0.8175022240095271,0.8840516492501216,-0.002324659746430934,0.6487531825176377,1.0058703297906233,-0.009168144953732613,0.6458714467488845,0.9974696389087842,0.0,0.0,0.0,0.0
0.0006828568780273062,0.054780527917554625,0.731105100783599,-0.00028270047299819073,-0.5230855643325781,8.9096395877162e-06,0.8522801255385046,0.02072410650997502,-0.8094655053629172,0.8670302122241331,0.004215539833172546,-0.8161673913474683,0.88394343057618,-0.003033297287579696,0.6488537524973734,1.0074545798228147,-0.009896734563787547,0.6486069561552802,0.9953235281777449,0.0,0.0,0.0,0.0
0.0010785551561264,0.055604581955769096,0.7310944482063857,-0.00043392446663621727,-0.5231184178688284,0.0006271564778796505,0.8522596665751133,0.027235705094013987,-0.8110429346518618,0.8650247391489885,0.0005263394049925653,-0.8150319515899238,0.8839381869612195,-0.0037642922313231146,0.6487144535973801,1.009430068063724,-0.01063497159988234,0.6511950860721941,0.9929105193892471,0.0,0.0,0.0,0.0
0.0015041218668938629,0.05645313663356278,0.7310565669600222,-0.0006303139812307241,-0.5231220510883227,0.0012261981220854645,0.852256662518749,0.033746428155618326,-0.8125992152901423,0.8628181824488462,-0.003142843209369931,-0.8141752208914466,0.8842454894810989,-0.00450513063474739,0.6484632309183591,1.01164188054362,-0.01137630214603104,0.6536827349394713,0.9905454801463266,0.0,0.0,0.0,0.0
0.001959717822710518,0.0573071688116872,0.7309931575826051,-0.0008383725768659878,-0.5231131427768773,0.001819770175073152,0.8522608904684238,0.04026087937706667,-0.8140942279244614,0.8605550282144013,-0.006805155280471216,-0.813571190375828,0.884883392788545,-0.005248991274341518,0.6481597625558244,1.0140357038791408,-0.012116416990951614,0.6561144983427232,0.98832057642428,0.0,0.0,0.0,0.0
0.0024452543527049664,0.0581637815233138,0.7309079529305806,-0.0010490010288760215,-0.5230985360016734,0.0024143750910396813,0.85226814561068,0.04678449898605124,-0.8155560637576674,0.8582766753088503,-0.010478218407933896,-0.813178325000354,0.8858263423741329,-0.005991849579607755,0.6478366974661235,1.0165759810204185,-0.01285221984985752,0.6585299930570494,0.9862305499675943,0.0,0.0,0.0,0.0
0.002961770347307286,0.05902562277107488,0.7308044275108614,-0.001261464269893233,-0.523081023684166,0.0030140507621417,0.8522766961893443,0.053322912658669855,-0.81701598278561,0.8559819784061706,-0.014181153535749955,-0.812962080247064,0.8870497966690827,-0.006730693487106568,0.6475147969774838,1.0192395394559641,-0.013580944576379773,0.6609646950231823,0.9842422630178804,0.0,0.0,0.0,0.0
0.0035117126381500555,0.05989716986719221,0.7306848412030867,-0.0014777481452896537,-0.5230617263271214,0.0036220723497098297,0.8522858248874048,0.05988187740637684,-0.8184787467706076,0.8536630097614303,-0.01793375458702505,-0.8129003188510846,0.8885423683880722,-0.007462804107102994,0.6472078596587256,1.0220155147174486,-0.014299809276655875,0.663449765712346,0.982321598826613,0.0,0.0,0.0,0.0
0.004098742950864716,0.06078354688886115,0.7305501143434984,-0.001700776491378557,-0.5230408814426746,0.004241482740271703,0.8522953440698596,0.0664673140148177,-0.819899329135141,0.8513235770230599,-0.021756279459926732,-0.8129827846942779,0.890306392026387,-0.008185523619338917,0.6469244978280028,1.0249039068061836,-0.015005904068011404,0.6660120982615846,0.9804407427739004,0.0,0.0,0.0,0.0
0.0047273336632733835,0.061690139328189446,0.7304000753922539,-0.001933828995056384,-0.5230181388614173,0.004875263824371013,0.8523054138804939,0.07308537119603097,-0.8211588320220563,0.8489950047895426,-0.025669434245725584,-0.8132079312932167,0.89235393204051,-0.008896192582076768,0.6466692541103279,1.0279127941263246,-0.015696151407250315,0.6686748405623768,0.978578292330017,0.0,0.0,0.0,0.0
0.005402370344026875,0.06262230740409329,0.7302339615059265,-0.002180077515864441,-0.5229929761351345,0.005526492047534098,0.8523162863990034,0.07974252111093565,-0.8220459101148905,0.8467532042042848,-0.02969441931302726,-0.8135778742029308,0.8947012473136733,-0.009592080296893962,0.6464451220064488,1.031053901831957,-0.016367265546803803,0.6714595933601014,0.9767169280324269,0.0,0.0,0.0,0.0
0.006129186906230651,0.06358508423022251,0.7300512881392793,-0.0024420404401676453,-0.5229656750629263,0.006198569417541542,0.8523277051003576,0.0864456912687444,-0.8222676738920827,0.8447267683757054,-0.03385308959620611,-0.8140912025861509,0.8973640549221292,-0.010270193423262615,0.64626047511812,1.0343355537511802,-0.017015659146512634,0.6743932481422945,0.9748384870337827,0.0,0.0,0.0,0.0
0.0069146678944685975,0.06458355526377774,0.729853144538761,-0.002722014894030104,-0.5229388736078097,0.006895239409848934,0.8523379498638982,0.09320238967553261,-0.8215365716755442,0.8430576045525527,-0.03816846847427686,-0.8147336232229112,0.9003554940224494,-0.010926994327839779,0.6461422638497076,1.037754168224737,-0.017637252022081953,0.6775223090652787,0.9729125594369482,0.0,0.0,0.0,0.0
0.007769048672669687,0.06562629934232395,0.7296418171974298,-0.0030273473654867005,-0.5229148809107234,0.007619030962292049,0.8523454774076344,0.10002105723007722,-0.8198154324072704,0.8417158924227961,-0.04266592795798143,-0.8154890184767832,0.9036983072480741,-0.011559122326688964,0.6461309453106935,1.0413016999669966,-0.01822749592394157,0.6809123670276113,0.9708790175665508,0.0,0.0,0.0,0.0
0.008705588908961972,0.06672659873625833,0.7294219579483815,-0.0033722958119072484,-0.5228955793034515,0.008370723009684446,0.8523489729929636,0.10691118115572724,-0.8173027966392916,0.8404877211607639,-0.04737351646375258,-0.81632820863703,0.9074115499994071,-0.012163687579956898,0.6462845115938548,1.0449587151376343,-0.018781212255086072,0.6846539462809388,0.9686317309351918,0.0,0.0,0.0,0.0
0.009737709859514443,0.06790131247856371,0.7292034452432857,-0.0037762095539803347,-0.5228848678904577,0.009149934639487683,0.8523458417031645,0.11388309430164419,-0.814160609711488,0.8391293067501826,-0.05232114992695858,-0.8171748887276383,0.9114703165018107,-0.012738096443581691,0.6466904972957063,1.0486723568554661,-0.019292342050502995,0.688873942406391,0.9660030733042735,0.0,0.0,0.0,0.0
0.010876016372864271,0.06917294078238051,0.7290030193993137,-0.00426673547519637,-0.5228867365476133,0.009954084565388441,0.8523333690003205,0.12094798024557511,-0.8104058670168321,0.8373619389096233,-0.05754015937138111,-0.8178873398158707,0.9157722246112279,-0.013280984267462022,0.6474584578720589,1.0523478358794502,-0.019753896183966217,0.6937315427266274,0.9627384566777102,0.0,0.0,0.0,0.0
0.012125070833223731,0.07057215534225006,0.7288464554284404,-0.004883751440038341,-0.5229038248158678,0.010777181874860731,0.8523095630788406,0.12811787833162155,-0.8058870365736951,0.8347957577115578,-0.06306261096189134,-0.818232248289629,0.9200954372190189,-0.013793246790403531,0.6487149218286623,1.0558381194862188,-0.020157654937401123,0.6994178811447075,0.958464772308339,0.0,0.0,0.0,0.0
0.013478456314401104,0.07213775913121181,0.7287693152313871,-0.0056793436015643425,-0.5229373760793585,0.01160980824148556,0.852273112393021,0.1354057267902686,-0.8003023944241807,0.8308176558904452,-0.06891921583693945,-0.8178578281201674,0.9240505278952612,-0.014278689752871991,0.6505911159288695,1.058942551658774,-0.020493626773893256,0.7061458356127086,0.9526853352633955,0.0,0.0,0.0,0.0
0.014910251777566027,0.07390664304681688,0.7288089093071185,-0.006702485364173675,-0.5229919750057346,0.01244356673850676,0.8522204107015793,0.14282534655496995,-0.7932341786620556,0.8244762541262451,-0.07513343580106176,-0.8162949855273659,0.927046735782505,-0.014742475761118666,0.6531763112220036,1.061464122249745,-0.020749493940771694,0.7140912907903426,0.9449082613820263,0.0,0.0,0.0,0.0
0.016357220623431444,0.07587205196285352,0.7289570248673124,-0.007936630241138016,-0.5230960509906409,0.013288790416444906,0.8521331699844104,0.15039010899854563,-0.7841601147446449,0.8143944797201299,-0.08170459264182144,-0.813093065871006,0.9283394978852235,-0.015181149018887119,0.6563206274408935,1.0635520276894488,-0.02091164611262112,0.7231248857824678,0.9353167006406278,0.0,0.0,0.0,0.0
0.01765179879446179,0.07784024214348305,0.7289164601898077,-0.009099159540392579,-0.5233375410878348,0.01422458837491431,0.8519581471348,0.1581016518673421,-0.7723696801318087,0.7982712568475282,-0.08854360720586624,-0.808723244742761,0.9274520643380072,-0.015550993641116409,0.6584911363670454,1.0675408736142524,-0.020979711275865048,0.7313278292058497,0.9278446414135059,0.0,0.0,0.0,0.0
0.018707019844257988,0.07946771868944374,0.7284565698590016,-0.009705506117868998,-0.52375357876774,0.015359768678523546,0.8516760354648492,0.16591425750382344,-0.7550002323793301,0.7705672064036292,-0.09543096897927157,-0.8049100566805302,0.9259124478782642,-0.015785795849445828,0.6586464866051782,1.0745949075195909,-0.02099066514109962,0.7369760388044608,0.9263379988818722,0.0,0.0,0.0,0.0
0.019270617137600404,0.08038272688818598,0.7277159817952868,-0.009240130879022413,-0.5241883763845586,0.016769369766615843,0.8513870766474491,0.17367257519572676,-0.727269903027736,0.7220288624679351,-0.10198169555190549,-0.8027938765302088,0.9245665723777068,-0.015887784173146454,0.6563586750634206,1.0825189358103715,-0.02105305913522923,0.7390693917868437,0.931062602761845,0.0,0.0,0.0,0.0
0.019327498516250385,0.08047476959755884,0.7276846173623224,-0.009276617443864085,-0.5241543382164243,0.016829698772584386,0.8514064454400886,0.1741848633550543,-0.727179969535562,0.7220330470538656,-0.10237243926482398,-0.8028082073506173,0.9246275649558292,-0.015911366679284448,0.656223196790108,1.082799946967247,-0.02103112679103943,0.7392493711252666,0.9308391958614094,0.0,0.0,0.0,0.0
0.019327498516250385,0.08047476959755884,0.7276846173623224,-0.009276617443864085,-0.5241543382164243,0.016829698772584386,0.8514064454400886,0.1741848633550543,-0.727179969535562,0.7220330470538656,-0.10237243926482398,-0.8028082073506173,0.9246275649558292,-0.015911366679284448,0.656223196790108,1.082799946967247,-0.02103112679103943,0.7392493711252666,0.9308391958614094,0.0,0.0,0.0,0.0
0.01943186634372901,0.0807136278409762,0.7287402569747978,-0.00845989451689341,-0.5231335703816542,0.01642000157862974,0.852050515681238,0.17440413833492593,-0.7290026653101581,0.7270902758100549,-0.10254816269669588,-0.8073152923046502,0.9306694805733776,-0.026264765378639594,0.6610900363908043,1.0731490057827617,-0.010681603001758352,0.7206150414932647,0.9610449455418698,0.0,0.0,0.0,0.0
0.01964560496764024,0.08116961783009319,0.7300701243948045,-0.007932954320745077,-0.5223790002298724,0.01596060353573091,0.8525271300605977,0.17435885454148825,-0.7303179789088649,0.733214185777279,-0.1028284094337953,-0.808922428000639,0.9344622359510695,-0.03639962788634165,0.6681271475449093,1.0618910458247965,-0.0003482304482624581,0.7084129577640865,0.981460665859296,0.0,0.0,0.0,0.0
0.019882368383202516,0.0817737300552784,0.7313458797400786,-0.007621590261207086,-0.5218254824184859,0.015479576837316418,0.852877752061538,0.1741080199644376,-0.7316431545863359,0.7397131335461036,-0.10323706546814206,-0.8088879053469198,0.9364091745616191,-0.04633908446122185,0.6754664484371178,1.0516453938020418,0.009970005148545118,0.7010410428203983,0.9955936450584219,0.0,0.0,0.0,0.0
0.020078887778177772,0.08245337080274577,0.7324808799236161,-0.00742361115337789,-0.5214083023941152,0.015004285234814948,0.8531430967994307,0.1736867304818864,-0.7328378870386125,0.7457671605564694,-0.1037584907789936,-0.807892267470268,0.9368666800619883,-0.05611909817894643,0.6823510731110151,1.042985837737078,0.02028293162662196,0.6967391592384191,1.006072764366272,0.0,0.0,0.0,0.0
0.020172742893751983,0.08314962116468144,0.7334640106826026,-0.007247665479983359,-0.52107349612724,0.014554035681101812,0.8533569376434569,0.17311419332338002,-0.7335488903837495,0.7505233689893599,-0.10436421522060109,-0.8062816798207961,0.9359694593193922,-0.06577373931923154,0.6883924292730907,1.0358827342074033,0.03060090858850638,0.6941263229364303,1.0143083772762658,0.0,0.0,0.0,0.0
0.02016958995432902,0.0838560584520973,0.7343222598981333,-0.007079047100977889,-0.5207891309498873,0.014129227266855273,0.8535390636130515,0.1724066777934059,-0.73388923709109,0.7541756929769103,-0.10505195842437562,-0.8042271768265102,0.9339655412235839,-0.07532471991541317,0.6936367181467578,1.0300550009163651,0.04093422180972031,0.6923835090926325,1.0212375587593878,0.0,0.0,0.0,0.0
0.020081253568498162,0.08457329744701174,0.7350883711960828,-0.006913610979807846,-0.5205356243255438,0.013727644796293473,0.8537015974915257,0.17157510248412347,-0.7339439061311415,0.7569403706505573,-0.1058199436998443,-0.8018021105735633,0.9310314486537015,-0.08479028908580266,0.698214098115105,1.0251848542157167,0.0512932671350757,0.6910154947326828,1.0274008657979319,0.0,0.0,0.0,0.0
0.01991547612167745,0.08530301020932861,0.7357891559106916,-0.0067491678725150805,-0.5202992442333783,0.013346551968520535,0.853853040478135,0.17062710831542616,-0.7337567816737209,0.7589574139455142,-0.10666547694015989,-0.799037908498705,0.9272704916595376,-0.09418732754955715,0.7022347184837261,1.021013303532651,0.061688492532985785,0.6897403567053237,1.0330524919392434,0.0,0.0,0.0,0.0
0.019673182139250612,0.08604721805315751,0.736444087255227,-0.006584133370126608,-0.5200689404026028,0.012982832966776757,0.8540002297800834,0.16956780619391484,-0.7333383452018659,0.7602832486892701,-0.10758487717737043,-0.7959390679291399,0.9227136740237046,-0.10353232008627028,0.7057628067952912,1.017354792152834,0.07213040525218621,0.6884117430986519,1.0382419385051571,0.0,0.0,0.0,0.0
0.019346205143107028,0.08680881177171847,0.7370668456314335,-0.00641757024716346,-0.5198331941689367,0.012632507420548864,0.8541502706131475,0.1684000580873647,-0.732670551832134,0.7608897062475375,-0.10857335665485966,-0.7924849072881566,0.9173115716885024,-0.11284240247435885,0.7088062860506184,1.0140854886169877,0.0826295881549571,0.686974896907724,1.042832598264135,0.0,0.0,0.0,0.0
0.018912495862635995,0.08759165205130556,0.7376670908248036,-0.006247917114362709,-0.5195759265898395,0.012290079316624247,0.8543130421516651,0.1671244793576998,-0.7316964197894761,0.7606326408545061,-0.10962408839276734,-0.7886268091550461,0.9109100780445969,-0.12213686751934141,0.711297755585435,1.0111274446675436,0.09319672439852499,0.6854580129685998,1.046449008215301,0.0,0.0,0.0,0.0
0.01832821050155771,0.08839822006657419,0.7382540157361407,-0.006066907148649066,-0.519272345292648,0.011948452845599509,0.854503749861005,0.16573877150112826,-0.7302677634624283,0.7591567316325444,-0.11072528478938418,-0.7842785554444124,0.9032111114206144,-0.13143901483321557,0.713075330253433,1.0084110329174667,0.10384262312432159,0.6839961700063932,1.0483737704603096,0.0,0.0,0.0,0.0
0.017558359702266647,0.08924651609388734,0.7388526613018339,-0.005885433278161808,-0.5188897162770639,0.011593589154454081,0.8547423077791072,0.1642409291316497,-0.7283616443188663,0.7563451924711228,-0.11187184075812841,-0.7793162638099842,0.8939077881308967,-0.1407733374762479,0.7140509941587829,1.0057323621977476,0.11457817069191187,0.6829838808039572,1.047563575054101,0.0,0.0,0.0,0.0
0.01655621028726406,0.09015767640030947,0.7395101877069599,-0.00571090117395345,-0.518382362372931,0.011207295376012881,0.8550564358677124,0.16262710992411822,-0.7258850651980653,0.7519877845192624,-0.11305437644326767,-0.7735559265066464,0.882593870360773,-0.1501681546830579,0.7141688386438768,1.0026695899450209,0.1254134430905162,0.6824575093644453,1.0439086764341723,0.0,0.0,0.0,0.0
0.0152638526883745,0.09115950664158853,0.7402980516362311,-0.0055493978079751765,-0.5176852289680772,0.010764650354631318,0.8554854354078629,0.1608940183191975,-0.7227182332136062,0.7458373370193914,-0.11426084663289492,-0.76676967743618,0.8687703883674479,-0.1596567836449421,0.713403853670356,0.9985465227442729,0.13635781715768783,0.6820779272975089,1.0382265943977522,0.0,0.0,0.0,0.0
0.013610221733748738,0.09229052655065065,0.7413045372206999,-0.005407778974564908,-0.5167043750760535,0.010230857768323243,0.856085669926294,0.1590428572888753,-0.7187928443032867,0.7376735296564463,-0.11547979064345487,-0.7587351214340098,0.8518526693287493,-0.16927967747946895,0.7117057682562674,0.9924727892743985,0.14742102968601617,0.6816179251189043,1.0309310647658452,0.0,0.0,0.0,0.0
0.011511058649136149,0.09359801794661446,0.7426274100532958,-0.005286264473083637,-0.5153106261780437,0.009560378017840434,0.8569338440790334,0.15708406796660612,-0.7141243683114967,0.7273118553479659,-0.11670119826801631,-0.7493025438022126,0.8312142524610951,-0.17908467357484587,0.7089735623108637,0.9833491712586264,0.1586133399807999,0.6807133812951306,1.0220961694120492,0.0,0.0,0.0,0.0
0.008877611887105164,0.09513113282919948,0.7443618494207997,-0.005164969520495866,-0.5133373352798344,0.008698721323842511,0.8581272839998629,0.15504451261724608,-0.7088597321595332,0.7146522012471529,-0.11791872514475643,-0.7385167939142085,0.8063316318540907,-0.1891245069801329,0.705069213612584,0.9698690378386094,0.1699456372522204,0.678583183987485,1.0115281875290736,0.0,0.0,0.0,0.0
0.005638765394824663,0.09692433598178767,0.7465652656268987,-0.004983093752299904,-0.5105898099574016,0.0075905838745323004,0.8597764812907852,0.15297867573544238,-0.7033756637845455,0.6997924326657562,-0.11913571858407306,-0.7268577778944433,0.7771150569795255,-0.19944817929718606,0.6998237572616676,0.950683621293004,0.18142937002258488,0.6737973966701893,0.9988480237580047,0.0,0.0,0.0,0.0
0.0017887261901434652,0.09897311792413387,0.7491390576424706,-0.004630727502123345,-0.5068841019303384,0.006199283129551889,0.8619794849425102,0.15098816182100497,-0.6986680615674634,0.6834560256795791,-0.12038731424046047,-0.7157439331101723,0.7445825545609792,-0.2100782203312891,0.6927915196874791,0.9253967616767201,0.19307660441840221,0.6644429396219729,0.9835671318462914,0.0,0.0,0.0,0.0
-0.0025219420318014617,0.10128074873313143,0.7513373532589502,-0.0041012826176868005,-0.5020763711863818,0.004518872827825384,0.8648017557599952,0.1492933705724634,-0.6990035100809937,0.6697701710006199,-0.12186673235917223,-0.7091926155665089,0.7123830938467661,-0.22097314989695754,0.6809578705032878,0.8997397932039413,0.2049150921358907,0.649794623116576,0.9639318176212945,0.0,0.0,0.0,0.0
-0.006751235874064975,0.10364558547790431,0.7524588026018474,-0.0031979155090363573,-0.49615833459562125,0.0026718781983891865,0.8682220576641608,0.14821279161912762,-0.7094120114199407,0.6656144751954924,-0.12381216048770649,-0.7137373414992597,0.6899132724781465,-0.23196877228363466,0.6626351843318943,0.8791950006493292,0.21695629947370115,0.6311771673360795,0.9389337487586709,0.0,0.0,0.0,0.0
-0.010715989866801282,0.10580812529550909,0.7523988289250557,-0.0015181587623543365,-0.4889072647234446,0.0007563312761603608,0.8723341158395749,0.1479963211334346,-0.7313065743386516,0.6728068548421504,-0.1263094291803747,-0.7343812782344313,0.6845061292227287,-0.24294287709634574,0.6373379072358647,0.8634569640347685,0.22920424333403835,0.6098477842742426,0.9062433389193315,0.0,0.0,0.0,0.0
-0.013784506513914978,0.10731017268518292,0.7513130100236858,0.0011865295514706304,-0.481230369938792,-0.0008645663208036905,0.8765929361575268,0.14856624330403553,-0.7605271252940983,0.6891106683581611,-0.12929607327783604,-0.7703620149069966,0.7002604414064314,-0.2532890134840744,0.6099053606355264,0.8518880375915043,0.24144100918041886,0.5877483480728011,0.8761855116336021,0.0,0.0,0.0,0.0
-0.013779740442083814,0.10739905985240243,0.7510505052246569,0.001376223157175622,-0.4812142498555254,-0.0009471921845919661,0.8766014228671837,0.14863545152928878,-0.7608821809281513,0.6889643452540448,-0.12944600172145146,-0.7709069718438668,0.6996678422660221,-0.2538108190030055,0.610081734570711,0.8516470859350136,0.2422711467400365,0.5877939933167776,0.8762193359393907,0.0,0.0,0.0,0.0
-0.013779740442083814,0.10739905985240243,0.7510505052246569,0.001376223157175622,-0.4812142498555254,-0.0009471921845919661,0.8766014228671837,0.14863545152928878,-0.7608821809281513,0.6889643452540448,-0.12944600172145146,-0.7709069718438668,0.6996678422660221,-0.2538108190030055,0.610081734570711,0.8516470859350136,0.2422711467400365,0.5877939933167776,0.8762193359393907,0.0,0.0,0.0,0.0
-0.014235839523511647,0.10760089446177029,0.7524118460129191,0.0013466519411687817,-0.48373405741399267,-0.0005589952701061509,0.875213822874521,0.14582541329096851,-0.739534584722809,0.6660670511004941,-0.1298786043677531,-0.7459723997319317,0.6726227910959639,-0.25547002055962276,0.6223198328187238,0.8441938388817637,0.24611169355128426,0.600269168735132,0.870066586041507,0.0,0.0,0.0,0.0
-0.014891601295704838,0.10780021270764356,0.7535558902209686,0.0013251199888438135,-0.4854230411342015,-0.00016746562199131693,0.874278380808026,0.1433215575741833,-0.7222073232225286,0.645449542140298,-0.13055454643716205,-0.725046218757334,0.6476691456547434,-0.25592921846622385,0.6307038684920067,0.8368609503092299,0.24861844302004737,0.6093047929218365,0.8632272403981673,0.0,0.0,0.0,0.0
-0.015495603985913141,0.10803980387752406,0.7545523683967892,0.0012526366970649573,-0.48635946742703007,0.00021100810474181426,0.8737578925657729,0.1411161587268336,-0.7104057182843438,0.6306937212234808,-0.13150925188900836,-0.7091016268289493,0.6276317398131033,-0.2553147225590055,0.6365397516537823,0.8289806598751853,0.2499423381991143,0.61606097934852,0.8551898482475643,0.0,0.0,0.0,0.0
-0.01579136344726191,0.10843243636210409,0.7554094614988487,0.0009688313951248437,-0.48650620996360494,0.0005326027421306927,0.8736764191432064,0.13925075955806415,-0.7071699097102291,0.6272453162714321,-0.13284222707287133,-0.6997957831611927,0.6158879363004176,-0.25374204406229317,0.640463643327495,0.8204745427983965,0.250209710386599,0.6212771395120184,0.8453695620645556,0.0,0.0,0.0,0.0
-0.015811672480340662,0.109061515021181,0.7554836282140998,0.00035224234196956877,-0.4857079492812684,0.0007612782879101214,0.8741207493165265,0.13785676377888553,-0.7163154625571464,0.6385686808740185,-0.13470710687021878,-0.7000274534580468,0.6145693442455648,-0.2513062659387368,0.6382216417250995,0.8182702905107339,0.2495200216745618,0.6209207565941712,0.840020435412753,0.0,0.0,0.0,0.0
-0.01543127928771053,0.10995994064796316,0.7544529029890996,-0.0006595272090238951,-0.4837378403710352,0.0008699357785596412,0.8752122656983097,0.13711149114298424,-0.741163221085241,0.668346025254812,-0.13725367531252186,-0.7131635656707422,0.6276626974858861,-0.24797581652089712,0.6277171754807426,0.8253873352646824,0.24784925958478343,0.6129623952162033,0.8419057872650211,0.0,0.0,0.0,0.0
-0.014311896808275078,0.11125152447152059,0.7523922112679188,-0.0022778694451214433,-0.4803883422256187,0.0007675937115587517,0.877052599770622,0.13724198746379598,-0.7843151457940677,0.7205099249636305,-0.1406041986388635,-0.7412271879703523,0.6586696900582094,-0.24382880022758643,0.6099600982293669,0.8403577034634475,0.24518676156261543,0.5985090547154375,0.8488799477229946,0.0,0.0,0.0,0.0
-0.009831392844661658,0.11299471813276846,0.752491258036038,0.001036875355500766,-0.4907267423946136,-0.0010852197154988439,0.87131223535908,0.13344757041115712,-0.7422599189832949,0.7047157522546302,-0.14024431897091008,-0.7074557775920728,0.6428195368215998,-0.23134651288555327,0.6381306716716505,0.8876728357477564,0.23601265778282698,0.6282226178209369,0.8811799213903267,0.0,0.0,0.0,0.0
-0.004826755760308098,0.11502772137875122,0.7514702299138649,0.0031565462865344165,-0.498996336612517,-0.0029286001545774936,0.8665933969076635,0.1307914985412983,-0.722657309054917,0.7135823030556664,-0.14105272488162376,-0.6899267685012098,0.6443908514572212,-0.2188615743737675,0.6587021463265097,0.9303588771186045,0.22654975730894367,0.6542007217187991,0.9090493302808261,0.0,0.0,0.0,0.0
0.000305239632233301,0.11710864312995095,0.7493001833012075,0.004412244988327978,-0.5051472749617597,-0.004583858891377979,0.8630097050036779,0.12904344631711057,-0.7229715159412083,0.7424933577779218,-0.14277155530191538,-0.6885241382401646,0.6623112890523427,-0.20661556319402322,0.6733883650641129,0.9615203315077688,0.21706368594381573,0.6727198077026818,0.9370157781901606,0.0,0.0,0.0,0.0
0.005082781676545463,0.11910025105725669,0.7466740545693568,0.005069638892601896,-0.5095888121911925,-0.00598801010344275,0.8603822900234925,0.12778444999136923,-0.7339101924337389,0.7792019347293517,-0.14496009680291305,-0.695650228638231,0.6867444151075799,-0.19460677850591693,0.6835201264642907,0.9838488926733647,0.20755473781202669,0.6855864530731057,0.9621076139156073,0.0,0.0,0.0,0.0
0.009153727452325493,0.12092705250139055,0.7444083153192599,0.005324285668713273,-0.5128006835255898,-0.0071345875871631995,0.8584615358988233,0.12664471218727935,-0.746906403244769,0.8136383630740693,-0.14722823178588004,-0.7036154719539661,0.7086770134426144,-0.18279746119168447,0.689076252978487,1.0009691737915498,0.19798447437379219,0.6958836303274883,0.9798949254479717,0.0,0.0,0.0,0.0
0.012456735954198465,0.12252964260720108,0.7426098357198088,0.005400270145698844,-0.5150850208117617,-0.008044361467272979,0.85708432879518,0.12553064349963539,-0.7591724666379737,0.8429509107766509,-0.14942641554669117,-0.7107647584340897,0.7265784131538988,-0.17117511277918887,0.6917581019513944,1.0143817141646676,0.1883690297760612,0.7037259335558814,0.99186363122156,0.0,0.0,0.0,0.0
0.015055796160090146,0.12391172754042866,0.7412324840587738,0.005430386481154952,-0.5166980551565561,-0.008763349605745143,0.8561056210560618,0.12441101173814835,-0.769766908525469,0.8668227044051651,-0.1514869170190879,-0.7166514694401761,0.7404770661632579,-0.15972767960294906,0.6929985764441503,1.0251588350536849,0.17872988926601602,0.7093205298111691,0.9997427663852939,0.0,0.0,0.0,0.0
0.017061189271101347,0.12510805032499087,0.7401983390635462,0.005473008808157476,-0.5178371764578151,-0.009341387314704094,0.8554106869427224,0.12328066195543742,-0.7785328121374864,0.8858727739773957,-0.15338575721177417,-0.7212249785483636,0.7508441022256828,-0.1484435105366584,0.6936058034106484,1.0340077052690713,0.16908397586271426,0.7130491911385237,1.0047805302697472,0.0,0.0,0.0,0.0
0.01858993241557708,0.12616054067096194,0.7394262771171544,0.005545845217733508,-0.5186477565770924,-0.00982225068126954,0.8549136047519214,0.12214688263009542,-0.7856379001173445,0.9009684196005457,-0.15512181079307397,-0.7246014448312023,0.7582590256986902,-0.13731159813023638,0.6939241982152147,1.041330478357634,0.15944238137551303,0.7153060125550477,1.007866456336594,0.0,0.0,0.0,0.0
0.01974658512147801,0.1271073465293272,0.7388387322806752,0.005648188698199843,-0.5192341655530794,-0.010240831652950042,0.8545519906090457,0.12102247808320407,-0.7913676960631394,0.912946149255181,-0.15670454675603013,-0.7269690676544197,0.7632761607597366,-0.12632152360824409,0.6940612896805178,1.0472792650120462,0.1498108958060334,0.7163990956340397,1.0096922025295183,0.0,0.0,0.0,0.0
0.020614753636437097,0.12797900344086152,0.73836340067195,0.0057729422873251555,-0.5196693424868848,-0.010623268474115873,0.8542819170411621,0.1199219395782902,-0.7960281927001539,0.9225033826289527,-0.15814685904138723,-0.7285377067092091,0.7663633887173822,-0.11546332440035105,0.6940649432385514,1.0517526563860902,0.14019080098637104,0.7165139145539948,1.0108480538776397,0.0,0.0,0.0,0.0
0.021255211078840906,0.12879760000347695,0.7379350600545743,0.005912945412229546,-0.5200020231382446,-0.010988038533601408,0.8540738820604857,0.11885952245385045,-0.7998980752110808,0.9301675000966845,-0.15946104751227685,-0.7295120895911048,0.7678847427408478,-0.10472737472496398,0.6940611470716724,1.054321680162003,0.130579627120508,0.7157190984211469,1.0118569414485863,0.0,0.0,0.0,0.0
0.021710436956310065,0.12957736545030774,0.7375019707890788,0.006063847387213952,-0.520262602366839,-0.011347469380257099,0.8539094151442606,0.117848423145952,-0.8032033281582229,0.9363184278751486,-0.16065683605379952,-0.7300761631778222,0.7681247784688366,-0.09410429565798732,0.694389980003604,1.0541427022474694,0.12097182985736993,0.7140228545724159,1.013131453388495,0.0,0.0,0.0,0.0
0.02200993970699073,0.13033004277635787,0.7370365197231831,0.006218563813353408,-0.5204705274714823,-0.01171091237011465,0.8537766769062713,0.11689730624184189,-0.8060924393626647,0.9412260405232984,-0.1617396363814978,-0.7303231629165925,0.7672508539587233,-0.08358404904896909,0.6950599063613144,1.0513096672511306,0.11135836046372866,0.7114630318645792,1.0148704675944598,0.0,0.0,0.0,0.0
0.022176596602167743,0.13106453723730543,0.7365338989592435,0.0063702862165650985,-0.520638326961852,-0.012085546311799452,0.8536680218458625,0.11601176407492333,-0.8086419070417601,0.9450867118259488,-0.1627109633613163,-0.7302818146687224,0.7653732787555024,-0.0731558691544094,0.6957523165674844,1.0468631629592686,0.10172759800854785,0.7081349121655687,1.0170715122041802,0.0,0.0,0.0,0.0
0.02222664309006506,0.13178331634628698,0.7359971102971122,0.006519743975708773,-0.5207703174641302,-0.012475415742527987,0.8535807714498092,0.11519879948792,-0.8108907611346873,0.9480268451472145,-0.1635701055980646,-0.7299999494231268,0.7626176015313602,-0.06280913761616082,0.6963705121154464,1.0414267033138667,0.09206681614987923,0.7041187981926169,1.0196757720513476,0.0,0.0,0.0,0.0
0.02214219951402375,0.13249840042418282,0.735422916825113,0.006650446587663339,-0.5208599761683306,-0.012887262904459839,0.853518936662182,0.11445785628006198,-0.8128539445901826,0.9499973048860708,-0.16431030678044967,-0.729355650305442,0.7587240561942254,-0.052533455775143144,0.6968453344736403,1.0352390283503987,0.08235861727295177,0.6993270508360462,1.0226787850885273,0.0,0.0,0.0,0.0
0.021907360140387234,0.1332160321643473,0.7348041611175128,0.006756587948199739,-0.5208984565857241,-0.013326292622031704,0.8534878771083164,0.11379301443979077,-0.8145468691101012,0.9509399676254731,-0.16492478204756436,-0.7282995353291449,0.7535233761453256,-0.04231854718171672,0.6972057567297419,1.0283049486968558,0.07258652167104346,0.693651718540472,1.0261205409283185,0.0,0.0,0.0,0.0
0.021500822501520266,0.1339447554443191,0.7341266074266366,0.0068301804029764586,-0.520876655108673,-0.013799198833258045,0.8534930819344838,0.11320871847257383,-0.8159894051937153,0.9507676008806961,-0.16540524584015528,-0.7267591378240209,0.7467718161712038,-0.03215429903492294,0.6975504088411127,1.0204015513599916,0.06273431237246113,0.6869368212831883,1.0301003769681742,0.0,0.0,0.0,0.0
0.020907536202394876,0.1346909315225178,0.7333690918233493,0.006868768125386488,-0.5207923880816735,-0.01431263952056306,0.8535357384963922,0.11271195444877505,-0.817193724795855,0.9493975643628142,-0.1657430685702877,-0.7246859675455211,0.7382688953901381,-0.02203072014249071,0.6981434224044171,1.0110528690102334,0.05278917868885182,0.6790369703140766,1.0347835013624942,0.0,0.0,0.0,0.0
0.020137878764280158,0.1354466174532645,0.7325084797385147,0.006894208013226816,-0.520669428023961,-0.014868180635941057,0.8536010507383696,0.11231331686035752,-0.8180717384323004,0.9467374065447027,-0.1659283877705458,-0.7221072511359733,0.7280502938638524,-0.011938017013420746,0.6995938308140118,0.9995123440104803,0.04274804561996006,0.6699519561508224,1.0404016978803103,0.0,0.0,0.0,0.0
0.0193276463207493,0.1361134751955501,0.731533669999406,0.007067188642373708,-0.5205835568820754,-0.015431681474119526,0.8536420083123729,0.11206429247606803,-0.8183481701860577,0.9429456349195109,-0.1659651333707419,-0.7199881737104401,0.7180521711854295,-0.0018657449897134457,0.703382002967173,0.9847252013134141,0.032633872972319344,0.6602480655154677,1.0472878060765975,0.0,0.0,0.0,0.0
0.018573935978080033,0.1366063423877684,0.7304838723146951,0.00751706512402552,-0.5206749455913929,-0.015969148395394286,0.8535725400133529,0.1119685636738568,-0.8171525677467207,0.9375443818215289,-0.16582203298816048,-0.7184624167539386,0.7092312090620537,0.008194910704512233,0.7111477508824515,0.9646450421834314,0.022462962073315693,0.6507725819662019,1.055475552019529,0.0,0.0,0.0,0.0
0.018036893576075755,0.13685986430961747,0.72963030776991,0.008327803089031773,-0.5212310286557996,-0.016448601409952062,0.8532164473179029,0.1119369466284761,-0.8125011440340791,0.9297176948099607,-0.1654257648303447,-0.7162526502038172,0.7017495428149473,0.018249882090420416,0.7254909557171437,0.9363107608596054,0.012236776610525925,0.6440332826954425,1.0631286805700777,0.0,0.0,0.0,0.0
0.018060612480175306,0.13689041622900835,0.729608926757575,0.008360130475472438,-0.5212583887709751,-0.01648245505645676,0.8531987629091078,0.11192933758948267,-0.8124620710895092,0.9298028090765117,-0.1654307071900089,-0.7162385564013587,0.7016873302988854,0.01887811435099488,0.7254935682361673,0.9363053965325395,0.011635921535351717,0.6439372306338195,1.0631164737323697,0.0,0.0,0.0,0.0
0.018060612480175306,0.13689041622900835,0.729608926757575,0.008360130475472438,-0.5212583887709751,-0.01648245505645676,0.8531987629091078,0.11192933758948267,-0.8124620710895092,0.9298028090765117,-0.1654307071900089,-0.7162385564013587,0.7016873302988854,0.01887811435099488,0.7254935682361673,0.9363053965325395,0.011635921535351717,0.6439372306338195,1.0631164737323697,0.0,0.0,0.0,0.0
0.017745987730719705,0.13770261220014698,0.7302668995590111,0.009102509631729323,-0.5218856580289035,-0.014937052393106038,0.8528360854982323,0.10478592424905596,-0.809559741823108,0.9271421435099875,-0.15697045578090787,-0.7472084383565722,0.7620738841480122,0.01888129177004254,0.7266181033598512,0.93348646894359,0.011398441929595604,0.6498434690582718,1.057592301694607,0.0,0.0,0.0,0.0
0.016925081067886302,0.1392996060080016,0.7306646517270092,0.008654185614170813,-0.5222257964659256,-0.013720808424335285,0.8526529551893125,0.09747915642868797,-0.810279494846459,0.9266688721273862,-0.1485217522951181,-0.7673288824098023,0.7971772746121231,0.018771006300740457,0.7234427305304251,0.9364193310315025,0.01104310001472827,0.6525008289775641,1.0520140131634776,0.0,0.0,0.0,0.0
0.01581164364850761,0.1413334897879557,0.7306318665301114,0.007516005906625608,-0.5224038560772931,-0.012726497417546646,0.8525700892444371,0.09024253720400074,-0.8137111307293959,0.9275416746790538,-0.14019997464647357,-0.7808096260601373,0.816902194155334,0.018565566434290155,0.7165003268871317,0.9452328580414171,0.010582896663986516,0.6520048537343622,1.0488327873538241,0.0,0.0,0.0,0.0
0.014436012377498246,0.14338415027182624,0.7304168184552496,0.006266058566888289,-0.5225585233098197,-0.011835529178741913,0.8524982384001483,0.08329987242364119,-0.8164212489764768,0.9261786005163326,-0.13205468708852885,-0.7907240787953572,0.8286233214712417,0.018255750462303693,0.7079820727642157,0.956021620578514,0.010075244223106735,0.6497547204840763,1.0473105737771928,0.0,0.0,0.0,0.0
0.013003073735731157,0.14522929787612784,0.7303549762278443,0.005222923434007947,-0.5226827106429416,-0.010964770242192863,0.8524407773442596,0.07675613480402786,-0.8173781943970437,0.9226950983409923,-0.12408656318404163,-0.7980518666688109,0.8357325935305184,0.017851377471129304,0.7003701909809944,0.9644510460854792,0.009549715831546315,0.6477963593175002,1.0449278660897736,0.0,0.0,0.0,0.0
0.01160899935838823,0.14686201853075592,0.7304360742627859,0.0044069999120687365,-0.5227747589125866,-0.01010230966540041,0.8523995970993219,0.07061770657375728,-0.8171016608226203,0.9180346053486622,-0.1162821767386413,-0.8036109747108847,0.8400851544582846,0.01737425903187048,0.6938524431461811,0.9705595864453695,0.00900438352752958,0.6463793708071821,1.0417013345306938,0.0,0.0,0.0,0.0
0.010303463124105447,0.14832052189165223,0.73060243491832,0.003769839497008929,-0.5228439520184216,-0.009255476830351118,0.8523698295320923,0.06486105985972627,-0.8161780177809337,0.9129869631921219,-0.10862602143986078,-0.8080313057076389,0.8428341851486414,0.016841408131311,0.6882546806291968,0.9750448047267366,0.008434645299098377,0.6454372539273956,1.0380015431144893,0.0,0.0,0.0,0.0
0.009108721687576211,0.14964301641602798,0.7308085876277938,0.003260871812352231,-0.5228992605622824,-0.008433049532899025,0.8523465338077097,0.0594544433034585,-0.8150175952343915,0.9080606684442413,-0.10110312485432717,-0.8117527501947213,0.844671038998451,0.016264175543934545,0.6833936807883727,0.9784928655704797,0.007838634150574461,0.6448694957050233,1.0341224327387146,0.0,0.0,0.0,0.0
0.008029377506235204,0.15085899474743794,0.7310260889058815,0.002841770326377619,-0.5229465115408091,-0.007640844148660994,0.8523265148459283,0.05436480540880569,-0.8138625250601111,0.9035283175657043,-0.0936994334302591,-0.8150301425010066,0.8460014945550322,0.015650233370010876,0.6791199859139101,0.9812996898742604,0.007216791148397902,0.6445857233542813,1.0302476586008924,0.0,0.0,0.0,0.0
0.0070589218064821,0.15198992777813589,0.7312389285696274,0.002486057626570923,-0.5229884166374347,-0.0068815364136752336,0.8523083831789604,0.049560006316483295,-0.8128360139620621,0.8994977288907864,-0.08640184742985198,-0.8179369723929144,0.8470802781905569,0.015005087805633546,0.6753114575799303,0.9837155451590711,0.006570870714455555,0.6445076503875348,1.0264798309292842,0.0,0.0,0.0,0.0
0.006184152198767949,0.1530518237268515,0.7314390279681308,0.002175423077666045,-0.5230254340663075,-0.006155590725967911,0.8522920693969868,0.045009398240947115,-0.8119852464324409,0.8959711087580934,-0.07919820720738785,-0.8203728212375732,0.8481071617851886,0.014332941415659295,0.6718643526710308,0.9858954012963599,0.005903249279694635,0.6445665547880484,1.0228680613609398,0.0,0.0,0.0,0.0
0.005388433057451354,0.15405764778352105,0.7316234484306179,0.0018960367439896436,-0.5230572035615748,-0.005462313232028291,0.8522779652092185,0.040683886268963396,-0.8113096355350434,0.8928880128470374,-0.07207731069993076,-0.8220998482224235,0.8492866879565206,0.01363718958951416,0.6686914824242284,0.9879340899047111,0.0052165098277190585,0.6447056281423447,1.0194240531277077,0.0,0.0,0.0,0.0
0.004655054692835298,0.1550186143471224,0.731792975019436,0.0016365190300278293,-0.5230845814300429,-0.004800489813917285,0.8522656849675267,0.036556070644681804,-0.8107769011196712,0.8901578291867609,-0.06502893531709189,-0.8228612908399622,0.8508239995746718,0.012920806635699677,0.6657297443638468,0.9898855351595148,0.004513215033037214,0.6448894600117603,1.0161313961174738,0.0,0.0,0.0,0.0
0.0039706082963714895,0.1559424426363452,0.7319490223754122,0.0013906186921337905,-0.523107389044284,-0.004167621432848325,0.8522554526892261,0.03260144404319248,-0.8103567138511156,0.8877009270404038,-0.05804399931029372,-0.8226637820672562,0.8527320431057283,0.01218660691115833,0.6629302493120282,0.9917776849070299,0.003796048873681589,0.6450920370251865,1.0129721898857629,0.0,0.0,0.0,0.0
0.003325613317063399,0.1568341043098197,0.7320929780507216,0.0011559961013957517,-0.523124640301864,-0.003560301695623377,0.8522479678086038,0.028798113995846975,-0.8100294890013744,0.8854614094798285,-0.05111442450009809,-0.8217881086254436,0.8548413966636286,0.011437379219271454,0.6602567365652579,0.9936219803558076,0.0030677283184346173,0.6452958616907274,1.0099311890183844,0.0,0.0,0.0,0.0
0.002712651161420003,0.15769899683848265,0.7322277423614817,0.0009293300471775623,-0.5231373562367364,-0.0029756465496156227,0.8522426816247313,0.025125352759522226,-0.809770004761769,0.8833911967903089,-0.04423283877059431,-0.8205271915633496,0.8570122000866033,0.010675841736205236,0.6576922928882174,0.9954190242451826,0.0023307555560961217,0.6455027288935896,1.0069790052809542,0.0,0.0,0.0,0.0
0.0021254270194833425,0.1585433371937879,0.7323568477543113,0.000705793235822782,-0.5231471840493047,-0.0024114018312708365,0.8522386466350839,0.021563387701352493,-0.8095553333532229,0.8814523700643663,-0.03739245102295002,-0.8190894069638026,0.8591667600571735,0.009904536776016052,0.6552281610686662,0.997166456700088,0.0015875006761794212,0.6457233439911634,1.0040768520452859,0.0,0.0,0.0,0.0
0.0015594545934005883,0.15937392980134088,0.732483800485093,0.00047943376581203925,-0.5231557253427164,-0.0018658233905851946,0.8522349299855502,0.018093466219415443,-0.809373600648442,0.8796276194033882,-0.030586916088803113,-0.8175863556726777,0.8612771384692505,0.009125861110791021,0.6528609166303733,0.9988621718351913,0.0008402738634628443,0.6459742886009773,1.0011813408565842,0.0,0.0,0.0,0.0
0.0010136261516493726,0.1601978743092858,0.7326118216175062,0.00024358325975917382,-0.5231644152950992,-0.0013375872611383688,0.8522306883094808,0.01469804739778645,-0.8092327699458758,0.877935830685427,-0.023810251007672145,-0.8160512578787266,0.8633463187486194,0.008342170080405014,0.6505957215881845,1.0005040491368313,9.137386455786243e-05,0.6462807860678911,0.998246305262511,0.0,0.0,0.0,0.0
0.0004920845105992857,0.16102169884052964,0.7327438301202543,-7.92860559287834e-06,-0.5231744644135,-0.0008255055344690015,0.8522252039592569,0.011361315888612116,-0.8091676445590827,0.8764469123582374,-0.01705682017569005,-0.8144610982973172,0.8653904721843583,0.007555941873025194,0.6484521874428515,1.002085481428884,-0.0006568430885474986,0.6466811291409222,0.9952244238984503,0.0,0.0,0.0,0.0
5.652997240095819e-06,0.161847776040552,0.7328821340697053,-0.000275540574947416,-0.523186254002212,-0.0003271435341463319,0.8522182588267119,0.008070837923018815,-0.8092374512748521,0.8752797449691249,-0.010321487934770985,-0.8127587676458112,0.867412721240203,0.006770111094547235,0.6464679590803747,1.0035834375041728,-0.0014018104793146655,0.647224810286105,0.9920805438004884,0.0,0.0,0.0,0.0
-0.00042944217616464075,0.16266135166164303,0.7330249016657153,-0.0005347790609913691,-0.5231976819487035,0.00016641760043165148,0.8522111662727974,0.0048230953497967145,-0.809486318996651,0.8745275306386878,-0.003600497708728296,-0.810902437497718,0.8693505068868979,0.005989042123284993,0.6446825584801121,1.0049431889563871,-0.0021404766439522584,0.64793684637094,0.9888685848411405,0.0,0.0,0.0,0.0
-0.0008021730492196303,0.16338731570765513,0.7331438662101761,-0.0006730751705084605,-0.523205747795999,0.0006873025656376935,0.8522058554470436,0.0016449054943979526,-0.8097678941083921,0.8739173135902464,0.00310200075835566,-0.8091103968310318,0.871132854178348,0.005221834949808736,0.6430337850139817,1.0061429616776074,-0.0028693794490691924,0.648645637605847,0.986105570836889,0.0,0.0,0.0,0.0
-0.0011332349263250166,0.16375156967084203,0.7330611669925016,-0.00031747249694558636,-0.5232199346190095,0.001313140260423469,0.8521966175074562,-0.0012308300747088277,-0.8093391205470712,0.8718426338738708,0.009668206133302824,-0.8098552572387269,0.8752417373564371,0.004484068548128801,0.6408542009715528,1.007902772336664,-0.003594660997828336,0.6481852484761683,0.9864380168153528,0.0,0.0,0.0,0.0
-0.0011299838427277775,0.1637507930273883,0.7330596166530164,-0.00031683978696318144,-0.5232179104507169,0.0013114139115600611,0.8521978631689283,-0.0012220211285293627,-0.809344741839639,0.8718517176613906,0.010082511757960419,-0.8098439425874023,0.8752318604328427,0.004474543511642639,0.640859239490624,1.0079011507374025,-0.003601535580303794,0.6481819046224743,0.986440448363483,0.0,0.0,0.0,0.0
-0.0011299838427277775,0.1637507930273883,0.7330596166530164,-0.00031683978696318144,-0.5232179104507169,0.0013114139115600611,0.8521978631689283,-0.0012220211285293627,-0.809344741839639,0.8718517176613906,0.010082511757960419,-0.8098439425874023,0.8752318604328427,0.004474543511642639,0.640859239490624,1.0079011507374025,-0.003601535580303794,0.6481819046224743,0.986440448363483,0.0,0.0,0.0,0.0
-0.0011299838427277775,0.1637507930273883,0.7330596166530164,-0.00031683978696318144,-0.5232179104507169,0.0013114139115600611,0.8521978631689283,-0.0012220211285293627,-0.809344741839639,0.8718517176613906,0.010082511757960419,-0.8098439425874023,0.8752318604328427,0.004474543511642639,0.640859239490624,1.0079011507374025,-0.003601535580303794,0.6481819046224743,0.986440448363483,0.0,0.0,0.0,0.0
-0.0010985608276740666,0.16359652456145268,0.7330461027903656,-0.0003201024261213963,-0.5232053984872198,0.0010133745609271464,0.852205950225804,-9.952472857127723e-06,-0.8088351819271189,0.8714170203309356,0.011293672133090356,-0.8108950315685309,0.8764514257801048,0.003657870093157805,0.641510899519078,1.007740874048385,-0.004402168576063887,0.647522447514888,0.9867441479225192,0.0,0.0,0.0,0.0
-0.0010672540804400623,0.16340657287435684,0.7330199064580444,-0.000265920253261681,-0.5232047747013865,0.0007350874629024111,0.8522066373025454,0.001199472536460371,-0.8081455734672641,0.870718078493877,0.012503951181085023,-0.8120539232452394,0.8778199235452993,0.002849640515506006,0.6421511566445355,1.0075897440355424,-0.005194059024289714,0.6468087327183295,0.9873257665358368,0.0,0.0,0.0,0.0
-0.0010346855969240317,0.16321123359067874,0.7329817637231046,-0.0002030687158763204,-0.5232032725016015,0.00046003681403189656,0.8522077697210001,0.00240724669764315,-0.8074828036077454,0.8700216089462962,0.0137144048969978,-0.8132796151193961,0.879248189784147,0.0020434704557789657,0.6427381881986608,1.0075231737814103,-0.005981632030132342,0.646035216409522,0.988035569851207,0.0,0.0,0.0,0.0
-0.0010039261117313588,0.16302186999373797,0.7329307418767359,-0.00015069993346063863,-0.523192487334848,0.0001807443917135335,0.8522145069273168,0.00361812580004235,-0.8069306062372364,0.869414365448978,0.014929550161022017,-0.8145642914311302,0.8806892719967034,0.001233899509086332,0.6432324521711067,1.0075771825224795,-0.006768564707179113,0.6451726254230613,0.9888223767967811,0.0,0.0,0.0,0.0
-0.0009820549625414498,0.162855338266413,0.7328657590475247,-0.00013647532646164653,-0.5231588113210544,-0.00011316066982870511,0.8522351944776099,0.00483663639064928,-0.806607145697866,0.8690072077524087,0.016153552101334127,-0.8158891448715841,0.88205481464254,0.0004134335282858743,0.6435652770465363,1.0078017631966532,-0.007558865066566076,0.6441692719419211,0.9896088841730398,0.0,0.0,0.0,0.0
-0.0009799886762373695,0.16276442568516614,0.7327877422811785,-0.0002441223771061111,-0.5230773631489366,-0.0004498994958224053,0.8522850521720208,0.006062807509182499,-0.8068246998644459,0.8691534598720911,0.01738529063599556,-0.8171323304231684,0.8830744440384536,-0.00043155938186250525,0.6436152758886837,1.008337718210568,-0.008357048695068746,0.6429678582524856,0.990147496413465,0.0,0.0,0.0,0.0
-0.0009362483160246378,0.1629601246316547,0.7326799147300679,-0.0007993394607767233,-0.5229097804094863,-0.000926303278130536,0.8523871565027046,0.007246506139299387,-0.8090965682461062,0.8720132788656729,0.018571495904899687,-0.8180513072820317,0.8834130076188474,-0.0013128433963218006,0.6432439382287747,1.0099539235930974,-0.009148959875137032,0.6417238456710053,0.989696478926786,0.0,0.0,0.0,0.0
-0.0006102993638609087,0.1634022376733836,0.7327351895637475,-0.00039827870361559576,-0.5230765656986612,-0.00017686538817041723,0.8522855838916922,0.013643805833014583,-0.8075218199596609,0.8677055667079299,0.01512935043760082,-0.8172133770823337,0.8841727683382508,-0.0020717869353129355,0.6438537172356255,1.0103732525559377,-0.009955875168657561,0.6444145687242867,0.9884130765911878,0.0,0.0,0.0,0.0
-0.00024053953424552521,0.16413008051334946,0.7327360348809717,-0.00039899759176738455,-0.5231595274581019,0.0004774924239417728,0.8522345461383986,0.020174843927926466,-0.8089886773838989,0.8663162711592124,0.01149129000974548,-0.816111568483558,0.8843027862855232,-0.0028622901887778297,0.6439017433442469,1.012050335699398,-0.01075970537617135,0.6470074833992182,0.9863881879442667,0.0,0.0,0.0,0.0
0.00015660734279101645,0.16494813314180923,0.7327130616219149,-0.0005453971478689304,-0.5231859872196304,0.0010819082750000873,0.8522176686700742,0.0267073108234747,-0.8107164321534674,0.8644978808746896,0.007859531372643676,-0.8151685223740569,0.8845028115286481,-0.0036744945051903504,0.6437339749796747,1.0141135266676735,-0.011568322695981402,0.649486182255953,0.9840853435092745,0.0,0.0,0.0,0.0
0.0005828215833272874,0.16579225772364653,0.7326658500699341,-0.00073773364862872,-0.5231866292997138,0.0016682988469841687,0.852216183518023,0.03323793705068572,-0.8123600753579854,0.8623951144887002,0.004241520177331659,-0.8144666266413415,0.8849795725086116,-0.00449516904086549,0.6434723663892555,1.016396810697125,-0.01237734936670435,0.6518883931308076,0.9818080490613039,0.0,0.0,0.0,0.0
0.0010377206982596465,0.1666434213669465,0.7325958609852224,-0.0009427317075824062,-0.5231765314295493,0.0022502200606384372,0.8522208426974501,0.039771333650239514,-0.8139031453710164,0.8601872261814983,0.0006248199703839117,-0.8139857186903002,0.8857527100255442,-0.005317404849651367,0.6431696023764519,1.0188458335589825,-0.013183417008685118,0.654250258800809,0.9796489644743459,0.0,0.0,0.0,0.0
