zhuoxili-jackie/tripod-support-walk/examples/trajectory_tripod_com_left_tilt_v0.20.csv
root_pos_x,root_pos_y,root_pos_z,root_rot_x,root_rot_y,root_rot_z,root_rot_w,FL_hip_joint,FL_thigh_joint,FL_calf_joint,FR_hip_joint,FR_thigh_joint,FR_calf_joint,RL_hip_joint,RL_thigh_joint,RL_calf_joint,RR_hip_joint,RR_thigh_joint,RR_calf_joint,FL_foot_joint,FR_foot_joint,RL_foot_joint,RR_foot_joint
0.0,0.0,0.72963,0.0,-0.5231245161092812,0.0,0.852256264656019,0.0,-0.81,0.872,0.0,-0.81,0.872,0.0,0.65,1.0,0.0,0.65,1.0,0.0,0.0,0.0,0.0
-8.442466908600812e-05,-0.0002455049489194344,0.7296097644129517,9.420132691200139e-05,-0.5230921063949034,-0.00010295218548270541,0.8522761458320305,0.0008428392191105346,-0.8089229126721396,0.8701746829459995,0.0008428392191105338,-0.8106935382257435,0.8725281500119624,0.0004226269763254518,0.6498474649493097,0.9994682486577011,0.00042262697632544963,0.6492888514118901,1.000914570255672,0.0,0.0,0.0,0.0
-0.00017673633519882517,-0.0005368865443868354,0.7295908693914542,0.00020049164628964202,-0.5230705778075176,-0.00021575315248948445,0.8522893193545173,0.0018202893930144024,-0.8075841057606995,0.8679902701393742,0.0018214824231925506,-0.8114142270900915,0.8731066787794333,0.0010168468478780784,0.6497293128682275,0.9988060332071954,0.0010181166616797875,0.6485697686001384,1.0019894870569153,0.0,0.0,0.0,0.0
-0.00025207131696718067,-0.0007946067983643296,0.7295747183915855,0.00029373748457504195,-0.523061227796567,-0.0003094591219890998,0.8522950017038055,0.0026678121450782427,-0.8063772046934401,0.8660621063345934,0.0026712348249722283,-0.8120115313025845,0.8736139045619312,0.00158410491588231,0.6496571203241646,0.9982216381729653,0.0015881230072195334,0.6479978596469137,1.002953338007487,0.0,0.0,0.0,0.0
-0.0002891587716826459,-0.0009845570758152521,0.7295590296623811,0.000359168688397774,-0.5230677814279657,-0.0003693768478933216,0.852290930721795,0.0032690197704723905,-0.8055317684697778,0.8647646560455587,0.0032747802568761286,-0.8124604961105348,0.8740870064146664,0.0020799869316602947,0.6496486785853162,0.9978260911580848,0.002087412481301322,0.6476761720586562,1.0037180924139955,0.0,0.0,0.0,0.0
-0.00029642758076625457,-0.0010981992886649043,0.7295429403063926,0.000400134614973027,-0.5230860233687906,-0.00039786830341528097,0.8522797039407475,0.003607085986714815,-0.8050463770163111,0.8640681145164134,0.003614554916063972,-0.812734676657682,0.8744437630649267,0.002411999570519129,0.6496773612249458,0.9976597376667602,0.002422392441423721,0.6475492869249329,1.0042592281755254,0.0,0.0,0.0,0.0
-0.0002944645237528172,-0.0011317614291805579,0.7295270422017954,0.00042845715422589056,-0.5231037428237277,-0.00040448086415025415,0.8522688115046243,0.003691029746278873,-0.8048607018769324,0.8638199915887778,0.0036992985483090654,-0.8128204434558043,0.8745588871842889,0.002420763238651029,0.6496955236696631,0.9977358171882837,0.002432214436147016,0.6474838799556101,1.0045398707405881,0.0,0.0,0.0,0.0
-0.00029867879937212646,-0.0010759161884782464,0.7295122717381979,0.00045602825132446117,-0.5231052949130731,-0.00039764745266687804,0.8522678477736,0.003512559788549956,-0.8049757901504266,0.8639612045213109,0.0035206784842282575,-0.8127362815448831,0.8743572500030644,0.0019151243018118796,0.649663868764667,0.998070563934339,0.0019243639772524614,0.6473544515104982,1.0044901117879848,0.0,0.0,0.0,0.0
-0.0003228238917595439,-0.0009190290300820662,0.7294995082626047,0.0004970956181528696,-0.5230726249963285,-0.00038586441903659636,0.8522878815189425,0.003056061008979623,-0.8054174860325503,0.8644677584169697,0.0030632140582664696,-0.8125220320825289,0.8737892143740148,0.000672848358546987,0.649546274452654,0.9986822814622213,0.0006768456118642549,0.6470296836436101,1.0040250433195366,0.0,0.0,0.0,0.0
-0.00037804285566173627,-0.0006561935389650129,0.7294930296293275,0.0005574339892317759,-0.5230089409014999,-0.00036105432219485085,0.8523269364769691,0.0022827975032764514,-0.8061058156356286,0.865213349542653,0.0022883470247114634,-0.8120700359096491,0.872697914772449,-0.001324153385502827,0.6493298393330138,0.999556896080646,-0.001323409425371102,0.6465170390479371,1.0031104744532586,0.0,0.0,0.0,0.0
-0.00045987344013431573,-0.0003379345492369413,0.729593555581929,0.00043751239717576345,-0.5233279462011439,1.9280693789069802e-05,0.8521312510030657,0.0005099397703268612,-0.8049110030683506,0.8640843703578278,0.0005111011957090279,-0.8078901668754499,0.8681151117411393,-0.00032312536365071854,0.6494414516946243,1.0000652026139831,-0.0003222914483307748,0.6485642326857753,1.0022389002404568,0.0,0.0,0.0,0.0
-0.0003220656534534716,0.00011477665319551046,0.7295821703269373,0.0005429764898447615,-0.5232510430494589,6.824935389656238e-05,0.8521784123446278,0.012850234123177996,-0.8192227154019375,0.8580573882566698,-0.0008368423454593967,-0.8081436151004955,0.8684132242853172,-0.003735983165597779,0.6498309143117427,1.001427346343408,-0.003735193716962129,0.6484703994181754,1.000530110658448,0.0,0.0,0.0,0.0
1.2189683095227967e-05,0.0007171322329632566,0.7295893597969864,0.0005125376033436045,-0.5233568823023699,0.00035587438981257057,0.8521133635880659,0.029880676495330542,-0.8398546840413099,0.8480414110207215,-0.003131311267958782,-0.8073656655217348,0.8686288406819423,-0.005821172025920579,0.6506598418392747,1.0030645427663532,-0.005800323783223131,0.6502488990560458,0.9986007265019419,0.0,0.0,0.0,0.0
0.0004962992635170499,0.001487002399846973,0.7296019233280456,0.0003734044416234537,-0.523556505410446,0.0008016909679425412,0.8519904949605462,0.04741060560426516,-0.8629792665736195,0.836264010720684,-0.006212155747507132,-0.8059850822785695,0.8688471443089141,-0.007382348737289428,0.651751794763447,1.0050943421443543,-0.00734104132779268,0.653217637134064,0.9962701901947506,0.0,0.0,0.0,0.0
0.0011061409502611896,0.0024378648568668445,0.7296006532670499,0.00015279146845636294,-0.5237611795353178,0.0013381849209121524,0.8518640811348117,0.0636252515704047,-0.8865173395032909,0.8236718260079251,-0.009944898128334627,-0.8045585909822762,0.869394828444468,-0.009108843575941975,0.6529327358200517,1.007634528328258,-0.009040262285073444,0.656777013398663,0.9934145315791258,0.0,0.0,0.0,0.0
0.001849718164920081,0.0035918888026685238,0.7295639193192478,-0.00015820251419041055,-0.5239351358033109,0.001952973911337874,0.8517559124160116,0.0779548060235923,-0.9093373339284493,0.8107723840452292,-0.014347779619623528,-0.8033394267505727,0.8704742621009938,-0.011184611513683407,0.6540713361163696,1.0108699722531251,-0.011072213220168447,0.6607327856944689,0.9900449707449855,0.0,0.0,0.0,0.0
0.0028730178731698553,0.004912077834401594,0.7294565197928625,-0.0006208145689671186,-0.5240855864832074,0.002674667429530503,0.8516611760459466,0.09061534176244879,-0.9299565008997497,0.7976020942947479,-0.01937177480931422,-0.8030904361611776,0.873561457733484,-0.012796573955939233,0.6552908178273282,1.0148113042296367,-0.01262559828268878,0.6655545702330784,0.9865147291003664,0.0,0.0,0.0,0.0
0.0041105692917531795,0.006471620220958604,0.729254502768677,-0.0012264875700612797,-0.5241602207094374,0.0035029271669669237,0.851611582973915,0.10168023869731811,-0.9471444945792695,0.7849940436279251,-0.025217888412070136,-0.80363039020439,0.8779796837564885,-0.014504522042790931,0.656221686848601,1.0198409022645318,-0.014247191815390775,0.6707675760965212,0.9827044815333525,0.0,0.0,0.0,0.0
0.005463273967066072,0.008308277711659795,0.7289472316533894,-0.001938407434851884,-0.5240853186356795,0.00441967111458575,0.8516520932131816,0.11143921409473037,-0.9588253960599296,0.7743393434258603,-0.03197130124053746,-0.8048346782710155,0.8830028625558012,-0.016938478311978533,0.656475414891227,1.0261120462714612,-0.016542650650339382,0.6757296277241356,0.9784657467967425,0.0,0.0,0.0,0.0
0.006847428086949279,0.010356642250126072,0.7286098766405458,-0.002708612582325748,-0.5238596355864136,0.005383150312872314,0.8517832865898801,0.1200866660639959,-0.9625075450879514,0.7682753960875864,-0.03939298918426137,-0.8062769110969689,0.8879822305818958,-0.020245976445564647,0.656317146710404,1.032834670236451,-0.019637146662479028,0.6804131181390787,0.9733486928186077,0.0,0.0,0.0,0.0
0.008218248494794415,0.01255579232870826,0.7283073095558951,-0.0035246395855160835,-0.5235436036065703,0.0063919105352928315,0.8519676141251776,0.12774823955320086,-0.9565640328702768,0.7694894386098273,-0.047329003225497004,-0.8072988269610636,0.8922479323532476,-0.024096796845760486,0.656068121487509,1.0393894735174574,-0.02318862621359102,0.6851754854564738,0.9671211840906969,0.0,0.0,0.0,0.0
0.0096385626345783,0.014955480061315835,0.7280085376499248,-0.004405690187356271,-0.5230751486194218,0.0074628455351686655,0.8522425034737829,0.13473395802985552,-0.9423687242201738,0.7747719378941121,-0.05595318667673532,-0.8084684781609297,0.8965375403813638,-0.02860993079585728,0.6555697949382147,1.0460024291194407,-0.02729009286103123,0.6899666764951675,0.9596890758017456,0.0,0.0,0.0,0.0
0.011212075199422989,0.017592170849622606,0.7276493934262956,-0.005411091919554968,-0.5224618158592086,0.008656048333947465,0.8526015739374264,0.14154470840052671,-0.9221012554818742,0.7809811439257864,-0.06550834152419467,-0.8100997498144049,0.9015099885445974,-0.0332663359848822,0.654662403971522,1.053168254110775,-0.031414355749141844,0.6950705104773383,0.9514441384355422,0.0,0.0,0.0,0.0
0.013057296149368111,0.020308968268055044,0.7272176716729616,-0.006573335548779522,-0.5217952516600053,0.00999271711933266,0.8529869003738615,0.14932066208475547,-0.8972430800717915,0.7857702884419373,-0.07565374686703077,-0.8125139231585704,0.9082641411347472,-0.03656799250950946,0.6537012505510741,1.0604878578784114,-0.034142973471014706,0.7012153253726048,0.9431286539843919,0.0,0.0,0.0,0.0
0.015021895773794902,0.022798964064969476,0.7265531176144362,-0.007814674293354255,-0.521166252134756,0.011373309953223266,0.8533436097623328,0.15943023680910354,-0.8690645579733437,0.7870958732952623,-0.08540005427033029,-0.8159990966748824,0.9164885047231136,-0.03745538612857911,0.6518711721843168,1.0688515319094265,-0.034549160942306534,0.7070866488993055,0.9376725450041399,0.0,0.0,0.0,0.0
0.016959286970996856,0.02485699625282787,0.7257214032755761,-0.009038630491531465,-0.5205743847445823,0.012678661402767178,0.8536743317282482,0.17254053941052572,-0.8380674456972792,0.7817977990483844,-0.09394771561068203,-0.8206437167364651,0.9259550642320141,-0.03577439771121218,0.6492538917609297,1.0773631914602149,-0.032561626323388534,0.7121333893861681,0.9353731158898603,0.0,0.0,0.0,0.0
0.0186270882146165,0.02625860517965618,0.7248173242963958,-0.010063886814320865,-0.5198630148931238,0.013652968435314826,0.8540812375771549,0.18826300441294241,-0.8046221833787314,0.7640671421877758,-0.10013459967716098,-0.8274461802776167,0.9368895939968521,-0.0327194850447907,0.6457366241354946,1.0848477574544808,-0.02935685580135961,0.7147714900907095,0.9359853859856071,0.0,0.0,0.0,0.0
0.01959314910439874,0.026872574016391752,0.7240708470740146,-0.010694265791120244,-0.5189902193513666,0.014092206092074035,0.8545970949074586,0.2040350298619227,-0.7711660522654252,0.727799381244542,-0.10307505262777818,-0.8351929996258785,0.946613953567513,-0.029992707223146554,0.6414840990850535,1.0897141245653565,-0.026596706584909244,0.7138320250700461,0.9381699660402157,0.0,0.0,0.0,0.0
0.01964704670553448,0.026924257989766612,0.7240480071384242,-0.010760786202706133,-0.518963627784313,0.014085952002387042,0.8546125113017192,0.20403848335456376,-0.7710903513787473,0.7278130110079074,-0.10320832209334133,-0.8352302441685324,0.9466679178058172,-0.030002910064328186,0.6414760007852998,1.0898953829854534,-0.02656055172570269,0.713901209398569,0.9380441541551369,0.0,0.0,0.0,0.0
0.01964704670553448,0.026924257989766612,0.7240480071384242,-0.010760786202706133,-0.518963627784313,0.014085952002387042,0.8546125113017192,0.20403848335456376,-0.7710903513787473,0.7278130110079074,-0.10320832209334133,-0.8352302441685324,0.9466679178058172,-0.030002910064328186,0.6414760007852998,1.0898953829854534,-0.02656055172570269,0.713901209398569,0.9380441541551369,0.0,0.0,0.0,0.0
0.02000248895432781,0.027154586510205535,0.7239976348025302,-0.01044788133997276,-0.5189714713461607,0.01377371424442591,0.8546167202320698,0.2043036577475452,-0.7727605446349876,0.7319794287005242,-0.10326394087992484,-0.8374130042139561,0.9497899685250314,-0.0363114780545234,0.6441412693747919,1.0908953664730412,-0.03250849575597133,0.713375595953531,0.9366881301113171,0.0,0.0,0.0,0.0
0.02045116119272767,0.02748292406156296,0.723903027681678,-0.010322124186855956,-0.5191573894447779,0.013639660865009394,0.8545074712304404,0.2039342278079441,-0.7752525452101399,0.7375358333406454,-0.10389207589959369,-0.8382444961582509,0.9519287565985497,-0.040983297968314354,0.646768580898253,1.0925601768404354,-0.03676655356824573,0.7141066533299663,0.9358139246347542,0.0,0.0,0.0,0.0
0.0209554585968656,0.027959631730176508,0.7237729592668769,-0.010336550652720175,-0.5194485234397326,0.013659993018858554,0.8543300251118475,0.20285239389368614,-0.7787876496708911,0.7446526136492934,-0.10520697068602203,-0.8378935024109833,0.9529809065445902,-0.04485577994772798,0.6492773220286988,1.0948957253124276,-0.04019471544467645,0.7156780421035457,0.9349973389546801,0.0,0.0,0.0,0.0
0.0215093855443717,0.028653861725317708,0.7236226037830171,-0.010468289976000019,-0.5197946640254387,0.01382310614511488,0.8541152404050407,0.20091934867646144,-0.7837589985150754,0.7538834319454019,-0.10738083544617866,-0.8364124875573776,0.9528658440619243,-0.048684683668554184,0.6517280179940736,1.097891687339543,-0.043504559475352915,0.7179378016079221,0.9336947971443188,0.0,0.0,0.0,0.0
0.022138155780626317,0.02964043097856349,0.7234638176454709,-0.010725628587644007,-0.5201790281311441,0.01414837930113186,0.8538726854438485,0.19791441463319248,-0.7906829166133602,0.7660386832978519,-0.11065713401338499,-0.8336852909469519,0.9514860706072772,-0.052871238826838224,0.6542432333802695,1.1015658407403193,-0.04704262682471733,0.7210313078937378,0.9314295157629817,0.0,0.0,0.0,0.0
0.022906526499903476,0.031004727197263243,0.7233067165681212,-0.011144160481343365,-0.5206070746851544,0.014685863656911295,0.8535973329876229,0.19352643820162016,-0.800290432645939,0.7823150566408672,-0.11536883399530944,-0.8295049227605023,0.9488295032786307,-0.057518038817846645,0.6570271666878584,1.1059282140875157,-0.05086037729844785,0.7254038522790908,0.9277112114938831,0.0,0.0,0.0,0.0
0.02385287316143962,0.03277849133828451,0.7231839139133358,-0.011736535368969504,-0.5210731535085218,0.015453227230209919,0.8532914040340432,0.18762894910426386,-0.8127475687547498,0.8030666672893833,-0.12162772242668284,-0.823769511675368,0.9449583466745113,-0.06270016590445592,0.6603390387176796,1.1106783337044368,-0.054984747489024426,0.7314084228022857,0.9220034711914449,0.0,0.0,0.0,0.0
0.0249682420665982,0.03488289659358157,0.7231279922721338,-0.012466739142941908,-0.5215474989701022,0.01642290202227066,0.8529730798931112,0.18044280114891295,-0.8274247175179141,0.8273339933361841,-0.12916889995758807,-0.8167767687093961,0.9402485666884072,-0.06825337315382786,0.6642748318220663,1.1152717761559288,-0.059251653563456914,0.7390366302108758,0.9141617191377576,0.0,0.0,0.0,0.0
0.025951189863859313,0.03669280531695345,0.7229970427165586,-0.013095117919858505,-0.5219463900260654,0.01723191609490209,0.8527036676906706,0.17428498225971226,-0.8399034699400484,0.8476295497513913,-0.13558434327493427,-0.8110459448667192,0.9363265669888472,-0.07351942605659915,0.667620731315368,1.1197773958137556,-0.06320674278870841,0.7452162914820831,0.9079455690771064,0.0,0.0,0.0,0.0
0.02679470388202322,0.038106942822558415,0.7228221422620118,-0.013600515392858125,-0.5223046432713513,0.01786874906432975,0.8524632504718963,0.1694464844694845,-0.849737495512317,0.8635606658059026,-0.14060357500764217,-0.8067346080084075,0.9335974291836416,-0.07779210517936014,0.670442262147145,1.1237914763451624,-0.06631049579554517,0.750093363808884,0.9036526058337763,0.0,0.0,0.0,0.0
0.027538928166609702,0.039148742020632774,0.7226324140160859,-0.014005550918699837,-0.5226572186074194,0.0183684337390619,0.8522299437493343,0.16581717773985305,-0.8572602815002153,0.8759056621228832,-0.144367700522814,-0.8036385419550922,0.9321238762075977,-0.08073067680890413,0.6729235036923669,1.1271459119165022,-0.06832472764076701,0.7541354028558811,0.9010260674416298,0.0,0.0,0.0,0.0
0.02821257266080542,0.03988474211347547,0.722447430040014,-0.014340071867760304,-0.5230223228558968,0.018771430770666474,0.851991575967786,0.16315507292893136,-0.862933632172924,0.8854976906876546,-0.1471323749205389,-0.8014235351536528,0.9316755100458177,-0.0822831838545164,0.6751754310793415,1.1298316055541484,-0.06923441310218713,0.7577173076183803,0.8996682814142641,0.0,0.0,0.0,0.0
0.028825529110837043,0.0403916359765175,0.7222839023425685,-0.014630871208374356,-0.5234028337143075,0.019110403109611606,0.8517453866975183,0.16119976484269866,-0.8671676375097678,0.8929981670209239,-0.1491562178330404,-0.7997248971540821,0.9318612770065119,-0.08258724146411868,0.6772482584277945,1.1318850901728925,-0.06916220628221713,0.7610829775074964,0.8991319971839343,0.0,0.0,0.0,0.0
0.02937307038749925,0.04074643354744595,0.7221631841570595,-0.014899929929749272,-0.5237886263790252,0.019408854824023193,0.8514967782196726,0.15970511299258017,-0.8703010766018564,0.8989187987368839,-0.15067478044600188,-0.7981817715547533,0.932220347200633,-0.08190450511475353,0.6791690298291778,1.1333069773239912,-0.06831914459277656,0.7643901935023989,0.8989015187546091,0.0,0.0,0.0,0.0
0.029816789479862896,0.04105021147084176,0.7221252763359112,-0.015161243203296457,-0.5241405865445787,0.019677522043242027,0.8512693917717664,0.15838621920309454,-0.8726393113995833,0.9036609066148182,-0.15195097925286077,-0.7963413282499089,0.9320242327605994,-0.08086985469965483,0.6809363242318107,1.1340207258610802,-0.0672198713274664,0.7676484857086939,0.8981618427354673,0.0,0.0,0.0,0.0
0.030081293144718548,0.04146552711392873,0.7222615524392392,-0.015419622570194823,-0.5243673809387581,0.01991245551742557,0.851119603324049,0.15683378825437996,-0.8745972673554647,0.9077833145978579,-0.15336348404885033,-0.7935616299784328,0.9301548856883899,-0.08084440352230295,0.6826411284162519,1.133678588240038,-0.06698294236639747,0.7707851041012787,0.8952870445930607,0.0,0.0,0.0,0.0
0.030099451902527153,0.04230533925511488,0.7228493098547901,-0.015673373108125534,-0.524281119533225,0.02010200124723117,0.8511636520800556,0.1542925128041159,-0.8770853667282715,0.9130123016012134,-0.15563569943311706,-0.7887412982785473,0.9251161472237392,-0.08455746267998585,0.6851365399739205,1.1306427392822294,-0.0698581328088125,0.7743815988974824,0.885976523321996,0.0,0.0,0.0,0.0
0.03013258086457552,0.04429260641931544,0.7251049268801404,-0.016029610951839305,-0.5236130306320032,0.02047296848954225,0.85155933632738,0.14844049708888502,-0.8823152721675328,0.9262993233569317,-0.16090256349027726,-0.7777746762730747,0.9149420480393787,-0.09474598088111413,0.6934614189582647,1.115691601979259,-0.07798801496267707,0.7857795441008919,0.8542813675103925,0.0,0.0,0.0,0.0
0.029346707242092974,0.04654115874742523,0.7288209574690739,-0.015085565508428695,-0.5215415854611544,0.019416006778360664,0.852871513786654,0.14517921741065482,-0.8823369591242958,0.9344701096926957,-0.1639131490325035,-0.7707949938187143,0.9058522836328389,-0.12762407586706204,0.7078508617912683,1.0892151012244022,-0.040075861130678396,0.74111978843624,0.9356709862715263,0.0,0.0,0.0,0.0
0.028788460308335692,0.04890291738166414,0.7326683151896837,-0.014341471001274716,-0.5197730015997332,0.018578357732641222,0.8539819632998588,0.14106844118590808,-0.8823173160273814,0.9438312327028578,-0.1675396464883099,-0.7613793048064761,0.8953354114791576,-0.15547946726173872,0.7230058394851938,1.0601835666897728,-0.008373694046972302,0.7085646203827599,0.9970315146847855,0.0,0.0,0.0,0.0
0.02846623618240843,0.05120341395991216,0.736130848195231,-0.013885336762826307,-0.5183250738422699,0.017964531046038533,0.8548822087712927,0.13664917397672216,-0.8832970753369995,0.9541071394593925,-0.17142231082770787,-0.7514266145476106,0.8847263477770283,-0.1777579295980547,0.7370356253499104,1.0329179736182754,0.012371192102545982,0.6851607838791941,1.0442989489003112,0.0,0.0,0.0,0.0
0.028255041046599566,0.05330713371176668,0.7391258703947012,-0.013606868965857204,-0.5171059312610764,0.017489723293190054,0.8556345122484766,0.13244197125360485,-0.8847021591107035,0.9638530173015767,-0.17510469953731367,-0.7420156975101513,0.8746418075946059,-0.19570937795009158,0.749329436907475,1.0084959555722612,0.02633759646643586,0.6678293023788713,1.0836570079189631,0.0,0.0,0.0,0.0
0.028057620294955433,0.05516936899859492,0.7416830222296653,-0.013405036374385358,-0.5160269824617602,0.017075362093958813,0.8562971974615893,0.12871615659478214,-0.886096277353106,0.9722757263837299,-0.17835223708898382,-0.7336802754120846,0.8653318965489901,-0.21063338977982599,0.7597401151668435,0.9870379232771774,0.036875122200992316,0.6541919359575112,1.118419211197742,0.0,0.0,0.0,0.0
0.027804640417224632,0.056802783500469745,0.7438434622606944,-0.013209897620828812,-0.5150148081200667,0.016662797656418957,0.8569174973100732,0.12555682065627394,-0.8873244169566542,0.9790887029991988,-0.18110370803274203,-0.7266626171620253,0.8567967664913271,-0.22362715758589727,0.7682038112902593,0.9685055329115916,0.04595260457113383,0.6426745235763369,1.1497909057481746,0.0,0.0,0.0,0.0
0.027420409890207477,0.05823825728374038,0.7456291985690392,-0.012964515478908457,-0.5140043985908205,0.016198057370825983,0.8575366012626502,0.12299087988851387,-0.8882878090559936,0.9840137713162213,-0.18334478150446207,-0.7210782061642661,0.8487958908329107,-0.2356385734364509,0.7745291663377712,0.9529933682522482,0.05483802751060812,0.632416923882214,1.1771848090319268,0.0,0.0,0.0,0.0
0.026815851201038462,0.0595203968654471,0.7470331984359403,-0.012613201447494697,-0.5129264315380396,0.015623222060209638,0.8581977032778374,0.1210186062724081,-0.8889628364989958,0.986747173839718,-0.185087823923211,-0.7170413167680199,0.8409298623650535,-0.24761993914960811,0.7783277770549245,0.9408516621582688,0.06470562843498986,0.6233491943910395,1.1980425914823682,0.0,0.0,0.0,0.0
0.025899810973722095,0.060708031798059,0.7480241552909983,-0.012098196853340073,-0.5117040282386746,0.014875461028999153,0.8589478108572058,0.11961894104933646,-0.8894473567101998,0.9870643386914683,-0.1863753005582139,-0.7147256264743173,0.8327636473511119,-0.26056810959340576,0.7790662440099021,0.9326380373868811,0.07700356979907552,0.6166715571342118,1.2072952047355614,0.0,0.0,0.0,0.0
0.02463152199425802,0.06186001189665167,0.7485898752573898,-0.01138158217253396,-0.5102801343975272,0.013914251432128997,0.8598203519535781,0.11873532024740888,-0.8899514372312707,0.9850838352150302,-0.18728767493144693,-0.7142550826054055,0.8240754432181697,-0.27510913358703515,0.7764361449553556,0.928604117825689,0.0931949299580144,0.6156817406270719,1.1973964355187774,0.0,0.0,0.0,0.0
0.023020015868452995,0.0629558833218329,0.7487929420630021,-0.010474495523700417,-0.5086812168845375,0.012738830101565967,0.860796971846459,0.11843630097301783,-0.8901260337575837,0.9805829140682977,-0.18772603843499552,-0.7153429158583586,0.8147384029412077,-0.29068002744389393,0.7707106264532263,0.9280569695492509,0.11222917831470917,0.6171081116741838,1.1761613893008993,0.0,0.0,0.0,0.0
0.02111773412263503,0.06397755374406704,0.748726595986304,-0.009389059635814502,-0.5069255258132396,0.011354317677249056,0.8618639314347768,0.11878360430208458,-0.8897564425426531,0.9737021962824224,-0.18761787556731538,-0.7178173689442534,0.8049871961566119,-0.3067556096557778,0.7624801942583391,0.929869180674101,0.13357772648535948,0.6196312158517708,1.1490819347163008,0.0,0.0,0.0,0.0
0.01898561639422343,0.06491284827582067,0.7484717931915407,-0.008118661212697036,-0.5050078006271583,0.009748755705786986,0.8630215353095325,0.1198659545578724,-0.8887696926256435,0.964744783332423,-0.18689194886496283,-0.7217844441618133,0.7953476507082416,-0.32314067613764375,0.7523314693876858,0.9329859945966394,0.15788671570941748,0.6230217560319549,1.1195647049904758,0.0,0.0,0.0,0.0
0.01671661024038374,0.06573652967340385,0.7480861491116795,-0.006645711956966788,-0.5029188506981918,0.007905499827606681,0.8642719289653406,0.12182176544924969,-0.8872607971484751,0.9542607993269493,-0.1854598303071682,-0.727711879724644,0.7868799855785016,-0.3397585541718376,0.7408665495462945,0.9365250848056365,0.18742737170627324,0.6278024858481259,1.0899197927204323,0.0,0.0,0.0,0.0
0.014538806612496069,0.06642051159877592,0.7475758584119033,-0.0049669403247953525,-0.5006410899548885,0.005842497402302389,0.8656209873707402,0.12475413816350199,-0.8862364445035428,0.9441951680779189,-0.18336789760143882,-0.7369143756081232,0.7821635814967249,-0.35653617458275677,0.728814078938,0.9399732568893567,0.22638921936010703,0.6356095918891695,1.062057262236032,0.0,0.0,0.0,0.0
0.012805122038845075,0.06684279681025448,0.7469350389930632,-0.0031719570965142224,-0.49824893993363517,0.0036938731381524997,0.8670203503058195,0.12876088965678634,-0.8869653199407165,0.9371405060518425,-0.18067029984667254,-0.7508121865475934,0.7847730735637757,-0.3721271601211351,0.7172420528586726,0.9429118683925853,0.2779859848028337,0.6479672286812103,1.0378256583745766,0.0,0.0,0.0,0.0
0.011667291759117258,0.06698590876084194,0.746114405101154,-0.0017356978656009824,-0.49610764758202225,0.0019735656107436068,0.8682570439693141,0.13272297279344814,-0.8901554746704728,0.9342243370214711,-0.17819637455299292,-0.7661697725799331,0.792290893049697,-0.38225925291338353,0.7063417876261779,0.9466814922893825,0.3288800110145402,0.6607588461026255,1.019554657807871,0.0,0.0,0.0,0.0
0.011683329242802,0.06701642452988353,0.7460820724897974,-0.0016785715839030579,-0.49611433880993905,0.0019405327542969253,0.868253407455015,0.13274399051169666,-0.890112798670956,0.934258025106011,-0.17817419466047232,-0.7662593674040088,0.7922022604194547,-0.3822712130652703,0.7062689042407796,0.9466212460469964,0.32891207580498216,0.6607588947307929,1.0195579365187146,0.0,0.0,0.0,0.0
0.011683329242802,0.06701642452988353,0.7460820724897974,-0.0016785715839030579,-0.49611433880993905,0.0019405327542969253,0.868253407455015,0.13274399051169666,-0.890112798670956,0.934258025106011,-0.17817419466047232,-0.7662593674040088,0.7922022604194547,-0.3822712130652703,0.7062689042407796,0.9466212460469964,0.32891207580498216,0.6607588947307929,1.0195579365187146,0.0,0.0,0.0,0.0
0.011930886677275862,0.06703528017603545,0.745996910972343,-0.0013915253915070072,-0.4968651894702002,0.0016807845609160554,0.8678249950958353,0.1330964460090656,-0.8863977590583612,0.9320346052431887,-0.1775259634992765,-0.76456891992293,0.7914155549800153,-0.3890652160462063,0.7100374381336633,0.9490952016866849,0.32853038173170884,0.6630487360366912,1.021874558032898,0.0,0.0,0.0,0.0
0.012155128121220885,0.06682923770093634,0.7459014468476376,-0.0011355682947802033,-0.4974665987597894,0.0014236349598400501,0.8674812198926936,0.1340769235016272,-0.8827975949801723,0.9293499816062466,-0.1763822419610939,-0.7644336855446643,0.7925878090864003,-0.3939324993810781,0.713152099033637,0.9509222452698606,0.32934175134535754,0.6648485985836272,1.0244112606081255,0.0,0.0,0.0,0.0
0.012307551363515745,0.06632859160713905,0.7458319217401772,-0.0008842543263008285,-0.49793137900028717,0.0011438021659380656,0.867215227966947,0.13589603846663792,-0.8785725407536913,0.9252167556324552,-0.17448305293675145,-0.7657569908826458,0.7955526936886153,-0.396338678343318,0.715626474388126,0.9516407259632761,0.33144511976824653,0.6661459208072531,1.0270729723378167,0.0,0.0,0.0,0.0
0.012395136429147618,0.06546374439898245,0.7457831552263231,-0.000602727593122926,-0.4982813458591756,0.00080743052432288,0.8670148125286934,0.1387977207394628,-0.873276972337486,0.9191125373997315,-0.17158215606598598,-0.7688407778634239,0.8007602625819555,-0.3961933322052924,0.7175612503144498,0.9511955475527063,0.3350061919757737,0.6669492466357523,1.0301077583352312,0.0,0.0,0.0,0.0
0.012447668314848944,0.06414971689735345,0.7457420609783855,-0.0002589128225507618,-0.498523663001304,0.0003818312703306085,0.8668759684042426,0.14307162008153915,-0.8666154060425855,0.9107057333222792,-0.16741032116150717,-0.7742395318524057,0.8090377098835728,-0.39337151822323524,0.7190717341841045,0.9495130426785257,0.34032125606302177,0.667282631446598,1.0337964103518713,0.0,0.0,0.0,0.0
0.01246639324793767,0.06233608665029866,0.7457089864583207,0.00015605578590026167,-0.4986564706826551,-0.0001403361882393646,0.8667996770873097,0.14884909124426868,-0.8583400671186003,0.8996257802154103,-0.16181595706480745,-0.7820970232258498,0.8205761425000867,-0.38760050819847364,0.7201686940093036,0.9464378426462312,0.3476491193239827,0.6671623097193422,1.0382072123724575,0.0,0.0,0.0,0.0
0.012461487105724214,0.06000747813758692,0.7456863425351712,0.0006378374099150515,-0.49867271302062977,-0.0007507461217804602,0.8667897985280767,0.15613599220935886,-0.8484015034498305,0.8857704093994404,-0.1547627451651012,-0.7924014886531303,0.8353596375481817,-0.3787071114034946,0.7208796899944309,0.9418213250352627,0.3571777836543334,0.6666571080810204,1.0432773858684128,0.0,0.0,0.0,0.0
0.012477473424044509,0.05726136567601206,0.7456565309040375,0.001172126817999671,-0.49858160338710444,-0.0014570618069943701,0.8668407511495737,0.16471044940923157,-0.8372163437239207,0.8698307638750127,-0.14644606174915403,-0.8048875249517928,0.8529959399811022,-0.3675742338542544,0.7214034530976412,0.9359577012684763,0.368387884022073,0.6658479479022329,1.048869852865961,0.0,0.0,0.0,0.0
0.012523046391458325,0.05489335676516702,0.7456224881737684,0.0016621764385794195,-0.49849725370269715,-0.0020610000456664987,0.8668872345923474,0.17202370711808923,-0.8274085519134114,0.8558246231338795,-0.13925559048908379,-0.8155569606450339,0.8679772083180156,-0.3582636139845174,0.7220195175185304,0.9307630183823014,0.3780148723573637,0.6652519812891848,1.0535870341801568,0.0,0.0,0.0,0.0
0.012572835455500815,0.053005517621839804,0.7455981508214915,0.0020812741813420687,-0.4984530632469701,-0.0025678038619160247,0.8669103866149146,0.17785945323169317,-0.8191915846887218,0.8441959372988126,-0.13342786668467968,-0.8238780512673491,0.8796313041258091,-0.3513493087832324,0.7227863288479802,0.9265384192184325,0.385490139262372,0.6648854948639606,1.0572667853712236,0.0,0.0,0.0,0.0
0.012629736328068675,0.05157176142022212,0.7455856340843454,0.002428164156507155,-0.4984508522444583,-0.002980920554058649,0.8669094335789943,0.18231735655529274,-0.812606589923137,0.8350506629916269,-0.1289177364564666,-0.8300899866876643,0.888383302386894,-0.3466316744491297,0.7236854401007515,0.9232827012061483,0.39098543868341196,0.664760416829966,1.0600096397032637,0.0,0.0,0.0,0.0
0.01270146254203436,0.05052017811779358,0.7455884734091346,0.0027131894064640434,-0.4984868224893283,-0.003316218618000569,0.8668866875790717,0.1856322380765607,-0.8074791128834806,0.8281839338640766,-0.1255286018796408,-0.8346057096122091,0.8948765099881121,-0.34376458303444807,0.7247429788859462,0.9208244035594075,0.39483583695932345,0.6648918044947952,1.0619455652512466,0.0,0.0,0.0,0.0
0.01278371767654557,0.04975827178539298,0.745614541728388,0.0029495114783014754,-0.49855354749474984,-0.003592669627934257,0.8668464416419923,0.18808448742564754,-0.803447845123589,0.8230789743159452,-0.12299201982566417,-0.8378131888436312,0.89967480470373,-0.34227395767798996,0.7259698060313918,0.9188751634049931,0.3974352221308183,0.665265138214363,1.0631844362398966,0.0,0.0,0.0,0.0
0.012883574759134058,0.049215551339655335,0.745668238592408,0.0031534691376325693,-0.498652207014905,-0.0038311254615233108,0.866787952471226,0.1898985069723077,-0.8002087023508405,0.819350452742629,-0.12108817439481391,-0.8400309558800795,0.903261447078663,-0.3419371131770678,0.7274509434545768,0.9172314790350787,0.39905831089817473,0.6659105371941759,1.063822273237027,0.0,0.0,0.0,0.0
0.01306017195484286,0.048888123528376765,0.745738572125718,0.0033498177557009265,-0.4988097802448652,-0.00406008912504913,0.8666955045051113,0.19115867369294345,-0.797820189910058,0.8173441570639449,-0.11975880727627593,-0.8415434629883086,0.9061799386416073,-0.3433132109678816,0.7295103699637773,0.9160244302472101,0.3996671829884011,0.667025700106437,1.063975886399867,0.0,0.0,0.0,0.0
0.01339841529779804,0.04881720594434364,0.7458063611160768,0.003570311726803735,-0.499082919326709,-0.004319454910053732,0.8665361128191849,0.19186197339521827,-0.796453786144079,0.8177356741435969,-0.11903362148113653,-0.8425108528470714,0.9088748875016457,-0.3475823628333143,0.7326699900226794,0.9156344639609478,0.3989833059296263,0.6689290968040916,1.0637903006686371,0.0,0.0,0.0,0.0
0.014060207563764766,0.049032758142675076,0.7458630632907817,0.0038760896379750535,-0.49956118045691694,-0.00468514027463439,0.8662572668498759,0.19212125139913533,-0.7962592932172663,0.82156755790771,-0.11884743270393117,-0.8433946091273077,0.9124732914497381,-0.3566394076854297,0.7380136474081401,0.9163189282044859,0.39668250734638316,0.6723006534398754,1.063327718534172,0.0,0.0,0.0,0.0
0.015367465215580963,0.049651968356203266,0.7462035904169337,0.004486156376472429,-0.500652988696714,-0.005438752414494859,0.865619361660879,0.19210476175211694,-0.7949720001189888,0.829039068185368,-0.11883331381938128,-0.8430680245225325,0.9175687805376084,-0.376939795513577,0.7504691348226805,0.9161444415884118,0.39060586381705553,0.6802361846612823,1.060256957432497,0.0,0.0,0.0,0.0
0.016942991359951566,0.050665203580733446,0.7481467579349519,0.006129575706252157,-0.5022842414738772,-0.007235937204268269,0.8646505712028698,0.19254282043280477,-0.7839414015216589,0.8320430555157896,-0.11749248358653991,-0.8384748732231626,0.9211223902408106,-0.3030654447070941,0.7141258335461674,0.9632431757413591,0.36712751044837105,0.6939595338080813,1.0424971124761686,0.0,0.0,0.0,0.0
0.019052538037904354,0.05204348280962054,0.749939384017916,0.00793880970776163,-0.5043574805817362,-0.009232080884507382,0.8634091010431899,0.1924296681339478,-0.7738671070868298,0.8390585990451588,-0.11680829817991692,-0.8338488121088677,0.9261485856147053,-0.23693174712206977,0.6888085834884909,1.002645961689158,0.3402382926108775,0.7095272452735051,1.0250271551152763,0.0,0.0,0.0,0.0
0.021274845899750247,0.05348107643875709,0.7513649139436614,0.009487450555005163,-0.5064002017746267,-0.010943199015874443,0.862176936782632,0.19168395106509456,-0.7668020471939505,0.8488419154331485,-0.11702135279598411,-0.8297916368296676,0.9316194482225832,-0.18902360601771215,0.6727856104845915,1.0375502793577236,0.31535282844872664,0.724254114564762,1.0098060887538995,0.0,0.0,0.0,0.0
0.023404050243330088,0.05482613727305406,0.7524951020656808,0.010752749922281384,-0.5082624798808097,-0.012338637706810034,0.8610466816230455,0.19063632799325775,-0.7619736109136309,0.8594592621357061,-0.11774248750939104,-0.8263569375510668,0.9370201020320124,-0.15413090243224137,0.6623211680560593,1.0699997242858574,0.293392069003635,0.7374708569790355,0.9966650327544624,0.0,0.0,0.0,0.0
0.025346212506334034,0.056070385211522564,0.7534040878581617,0.011790157634932219,-0.5099227883849978,-0.013482682483749337,0.8600336966315067,0.18941710197155034,-0.7585964461828016,0.869850674384711,-0.11876022045142338,-0.823276965036091,0.9417695433694795,-0.1266382202993978,0.6548334842921386,1.1007786477267096,0.27381147505972586,0.7490127973634848,0.9852558542174928,0.0,0.0,0.0,0.0
0.02706771606112117,0.05726732324931856,0.7541018565762254,0.012653945205368793,-0.5114080142779261,-0.01444084547840378,0.8591234967016772,0.18801311153936962,-0.7563234406089623,0.8797012104949861,-0.12003832136089533,-0.8203173052487004,0.9453938747953594,-0.10304951826850403,0.6489192587579492,1.1297436297546566,0.25576067275961606,0.7587159664700492,0.975645757240005,0.0,0.0,0.0,0.0
0.028544893740105652,0.05848086693396516,0.7545241628672891,0.013378861721045403,-0.5127567962555087,-0.015257174839357538,0.8582940594975343,0.18635834855211028,-0.7551393493948954,0.8889596775638984,-0.12162090065144368,-0.8173651196456466,0.9474600569459504,-0.0817835152356867,0.6440058111021566,1.1556812846155502,0.238558760981709,0.7661728229173386,0.9685379948104553,0.0,0.0,0.0,0.0
0.02973602033173501,0.059756932980362575,0.7545395711087334,0.013980214947703433,-0.5140001952586604,-0.015951993109318538,0.8575277760981945,0.1843992398806062,-0.7552268090105156,0.897527562310425,-0.12355674295602054,-0.8144656512715696,0.9475445026569872,-0.06263316213316149,0.6402741745992997,1.1758106360848402,0.22190738520070397,0.7706473822316658,0.9653118804280364,0.0,0.0,0.0,0.0
0.030580791375279973,0.06110751109613777,0.7539763643736195,0.014459950511091448,-0.5151488484765979,-0.016526839453755424,0.8568193726347004,0.18214115227556382,-0.7568743722489619,0.9051786646749794,-0.12584889673921154,-0.8118578188948509,0.945330352407424,-0.04635399527124476,0.6390858162783672,1.1849876334786036,0.20595550575666505,0.7711803193447935,0.9677837663972682,0.0,0.0,0.0,0.0
0.031083990416392204,0.06254343378732487,0.7528070567499757,0.014816454484207603,-0.5162003571472521,-0.01697771284180588,0.8561713737472353,0.1795632907647763,-0.7602721354520136,0.9121009538299949,-0.12852699190299327,-0.8096102222228365,0.9408392897794691,-0.03395175684194754,0.6437585966596528,1.1755163496942183,0.19080078251426488,0.7677068003936618,0.9761734425643155,0.0,0.0,0.0,0.0
0.03124129500275373,0.0641050202442841,0.7509686261194296,0.015085620464391164,-0.5172020461112693,-0.01733894517168049,0.8555546905568657,0.17662192574786723,-0.7653170795860087,0.9181436705061538,-0.1316122118618617,-0.8076134227570814,0.9337349753531504,-0.023879996746789693,0.6511918952298608,1.1548288204436183,0.17578135637782197,0.7599913868973457,0.9909137126953635,0.0,0.0,0.0,0.0
0.031125008268651937,0.0658218862333783,0.748541276790681,0.015311229117093558,-0.5181883944584706,-0.017652567417129107,0.8549472153151093,0.17329881636856911,-0.7717568181150011,0.9235506500407615,-0.1351068170993223,-0.80570529770881,0.9241880425375618,-0.01451322930638466,0.660285070059351,1.1276731939178708,0.1599997565579867,0.7486625963130425,1.0108000371441586,0.0,0.0,0.0,0.0
0.030810034066291712,0.06765412213491148,0.7455925581107373,0.015548504214634112,-0.5191696944424169,-0.017963758118104863,0.8543409013874551,0.169761412203618,-0.7792437949285635,0.9283202066752996,-0.13884579468970465,-0.8041311590973624,0.9128824891136239,-0.004411883650781139,0.6712113464521994,1.0962093602304324,0.14296856618121223,0.7342568103891859,1.034846870505225,0.0,0.0,0.0,0.0
0.030393594850472386,0.0694534126824024,0.7421823625906396,0.01587927717191871,-0.5201251258805109,-0.018337068301462013,0.853745544006168,0.16650367221120943,-0.7872761723838191,0.9321987859625448,-0.14237538465001415,-0.8038750556779231,0.9015343357399355,0.007988049978053162,0.6849759280813601,1.0606180652408732,0.12476614917388267,0.7172722594417283,1.0623481746421586,0.0,0.0,0.0,0.0
0.029976380648685966,0.07103143351652723,0.7384526333546181,0.016403482719331435,-0.5210110929167332,-0.018888724364080477,0.8531832059436505,0.16423928842755492,-0.7949838441891347,0.9346995876459366,-0.1450181620508072,-0.8061329206945991,0.8923088180586302,0.024299719723997734,0.7028593530841692,1.0193299185356792,0.10513371148160994,0.6983141298835654,1.0919625032502505,0.0,0.0,0.0,0.0
0.0295861154413577,0.0722760287845901,0.734746988713977,0.017200402577676473,-0.5217381083291546,-0.01969869595414111,0.8527047870429646,0.16336455422137297,-0.8012191633510944,0.9352396673183662,-0.1463383915165395,-0.8111216163005214,0.8863007221658357,0.047151532133347746,0.7260065751188143,0.9683171431302325,0.0833883186968106,0.6783341299821865,1.1206530478987597,0.0,0.0,0.0,0.0
0.029319028105587334,0.07303803308429692,0.7319081864282052,0.018287313516937093,-0.5221849797114477,-0.02079975112092729,0.8523824209129348,0.16417353045370336,-0.8039732163375211,0.9335602326265883,-0.14589377605853993,-0.8179655840598032,0.8848254300037481,0.0739949905685206,0.7552724433162404,0.9040309017345619,0.05999225530180105,0.6606098840500404,1.1415768374837707,0.0,0.0,0.0,0.0
0.029351153367251224,0.07303177137071243,0.731828180114228,0.018293000983891857,-0.5222247194809301,-0.020791499344217233,0.8523581536144808,0.16418887432703255,-0.8040413496696147,0.9335507198877692,-0.14588809292684718,-0.8179884642116764,0.8847640636185378,0.07400329260268317,0.7552504135216597,0.9040062583431239,0.059948960234321946,0.6606299319091246,1.1415956832015792,0.0,0.0,0.0,0.0
0.029351153367251224,0.07303177137071243,0.731828180114228,0.018293000983891857,-0.5222247194809301,-0.020791499344217233,0.8523581536144808,0.16418887432703255,-0.8040413496696147,0.9335507198877692,-0.14588809292684718,-0.8179884642116764,0.8847640636185378,0.07400329260268317,0.7552504135216597,0.9040062583431239,0.059948960234321946,0.6606299319091246,1.1415956832015792,0.0,0.0,0.0,0.0
0.029265748153607357,0.0727988936210774,0.7315682073321843,0.01789193281073867,-0.5220891076125851,-0.020292363490970317,0.8524617659675657,0.16386412388780594,-0.8062350145185991,0.934132279027645,-0.1464001229139284,-0.8180497806051897,0.884629620623324,0.08231780613593319,0.7510288100622903,0.904659720655454,0.06958413541419492,0.6618605149745986,1.1443934667559463,0.0,0.0,0.0,0.0
0.029031560385630307,0.07268086775842902,0.7313546061687294,0.017580628825303167,-0.521915228153578,-0.019862016105662583,0.8525848441226972,0.1633142598629021,-0.8078948458509999,0.933835669099685,-0.14703414724290914,-0.8174449061437212,0.8829748449040962,0.08833825804401697,0.7469240800681874,0.905648060692559,0.07687086233327486,0.661995913065811,1.1467374236741488,0.0,0.0,0.0,0.0
0.028589635087154893,0.07277417402859795,0.7312510658160456,0.017288254617146556,-0.5216614237352131,-0.019465346204300807,0.8527552846719801,0.16223880930600473,-0.8093076168660728,0.9329304768465405,-0.14806373442831283,-0.8153803951349469,0.8786394127759296,0.09205861902652168,0.7427747642961477,0.9067667081667239,0.08148369512163581,0.6609763323361751,1.1478435232071273,0.0,0.0,0.0,0.0
0.027877377304364917,0.07311806296249967,0.7312814720773385,0.016964028389456123,-0.5212816736034934,-0.019053283154629393,0.8530032889192,0.1604397477634913,-0.8106904416818927,0.9314183050271534,-0.14967149199743024,-0.8113814845598762,0.8708116979695891,0.09384790218177078,0.7381782266907724,0.9079066900953265,0.08370071326908904,0.6586971999457003,1.147436112392844,0.0,0.0,0.0,0.0
0.026833636584079234,0.07375175986626775,0.7314462051097596,0.016572943401620042,-0.5207397682446596,-0.018593199455194696,0.8533520517638217,0.15775410589175604,-0.8122091499338777,0.9292194780555577,-0.15200173203932618,-0.8050334586209887,0.8586728093381533,0.09386504491470317,0.7327227093965456,0.9091953940906814,0.08365939118219266,0.6549607566015829,1.1454235880308323,0.0,0.0,0.0,0.0
0.025408473089281448,0.07472648837665175,0.7317143223807469,0.01609241952082666,-0.5200175446583051,-0.018068254710961414,0.8538128164025258,0.15402714851307903,-0.8140424272222988,0.9262856574857142,-0.15519010678303338,-0.7959369828699568,0.8413416003928655,0.0920563763134727,0.7259852000918198,0.9111145498867045,0.0813091450203728,0.6495112412732825,1.1419148875291676,0.0,0.0,0.0,0.0
0.02359019933397471,0.0760766307768466,0.732007555279191,0.015517960918855623,-0.5191281216221428,-0.017473856961105618,0.8543768785219373,0.14917840904505117,-0.816379522146762,0.9226398301345942,-0.15931171770952712,-0.7838878186577429,0.8181990242490051,0.08840899712711262,0.7175487167697943,0.914498549506055,0.07671890280933584,0.642170926860314,1.137407388584898,0.0,0.0,0.0,0.0
0.021481717184776507,0.07771024195743913,0.7322232640516219,0.01488375664555857,-0.5181347501144242,-0.016812153953651893,0.855004214019684,0.1434540128694907,-0.8192251498054816,0.9183892735826142,-0.16416478508814678,-0.7694855368172994,0.7901569519458842,0.08363650881244095,0.7073972493837695,0.9197649120794761,0.0709016829450726,0.6333644151561364,1.132841230820415,0.0,0.0,0.0,0.0
0.019661994558231616,0.07903302660508443,0.7325187625688961,0.014374644489498475,-0.517177617466451,-0.016246181315684616,0.855603145845189,0.13872406262636813,-0.8213952311868358,0.9143857978280945,-0.16813055938668445,-0.757064592562682,0.7658362871825941,0.079917005514298,0.699094719708013,0.9224187675813998,0.06659221924424685,0.6262578128086269,1.1277954048241299,0.0,0.0,0.0,0.0
0.018281330316069794,0.08004655385070363,0.7327930640885781,0.014006354337302044,-0.5163879878771622,-0.015784669824298013,0.8560946864762633,0.13501928813063918,-0.8232260725533741,0.9115574385777337,-0.17125631594780716,-0.7473831104828539,0.7468701383950148,0.07718186958504265,0.6929002789377982,0.9236527010234267,0.06352666967185562,0.6211318414530528,1.1232599123641303,0.0,0.0,0.0,0.0
0.01730585153450644,0.08077842802263586,0.7329825173598876,0.013761234882126092,-0.5157953677103223,-0.015410668275291209,0.8564626543909555,0.13223272702303637,-0.824808779561027,0.9098047349288585,-0.17364531259381175,-0.7404127570872442,0.7331410080844851,0.0753967108965333,0.688350366727929,0.9244130603269978,0.0615778342400033,0.6175855231435393,1.1199286306765446,0.0,0.0,0.0,0.0
0.016658594261236895,0.08126068952637251,0.7330860141641415,0.013611832309615315,-0.515376862219109,-0.015094636159483667,0.8567225687873369,0.13021051610264375,-0.8261561940874813,0.9088346586426435,-0.1754231056316004,-0.735800624685526,0.7239714187699754,0.07459200110970116,0.6850215167381829,0.9249412339809715,0.060748451518281836,0.6152783889620649,1.1178793939255822,0.0,0.0,0.0,0.0
0.016247474282490404,0.08152996535050021,0.7331439903928371,0.013527598290093684,-0.5150777940736281,-0.01480286108135019,0.8569088314637405,0.12877542220513127,-0.8272684605288628,0.9083324437932442,-0.17672917909162242,-0.7330258367362974,0.7184050733567701,0.07479889405985092,0.6825866524888828,0.92500146435916,0.061071355655790624,0.6139642952444881,1.1167423373985998,0.0,0.0,0.0,0.0
0.015908574491813324,0.08174552123419926,0.73323766391585,0.013450039156556388,-0.5148295951832998,-0.01450083025921796,0.857064355980273,0.12743400452314882,-0.8281850335170874,0.9079569122053748,-0.17794877242211296,-0.7304917363738868,0.713697488604807,0.07539386721309276,0.680652138919951,0.9245166375372745,0.06182714699703466,0.6132380202203601,1.115494995769719,0.0,0.0,0.0,0.0
0.015512234500914289,0.08208379384205423,0.733376474617371,0.013330876141042872,-0.5145861603807707,-0.014167117770430516,0.8572179793144604,0.12569650259481335,-0.8291964249643565,0.90768049852008,-0.17949130927264798,-0.7268203124270927,0.7072988027555468,0.0755825118504068,0.678657092137581,0.9241675024170978,0.062092178491337253,0.6125287881614676,1.113644474449529,0.0,0.0,0.0,0.0
0.014801206596361126,0.08296147197347424,0.7334073896645631,0.013071358971116777,-0.5142992904940681,-0.013738028761913804,0.8574010997996697,0.12239197083916777,-0.8314010711032045,0.9077588610146597,-0.18238871380518135,-0.7192051128584507,0.6936034173397069,0.07363287048684256,0.6746344468736194,0.9272837667830076,0.05982229876226205,0.610114925875283,1.111572663828298,0.0,0.0,0.0,0.0
0.013435571000120505,0.08473059774171857,0.7335380175514709,0.012548348893900753,-0.5138580003886236,-0.01317595761226817,0.8576822771385929,0.11651016776616925,-0.834511974303993,0.9072143885521726,-0.18735562826575008,-0.7035654507813754,0.6657665296561799,0.06801875418526197,0.6681439306232814,0.933417560665617,0.053290103715961934,0.605427514100014,1.1067088472068147,0.0,0.0,0.0,0.0
0.01097291461882476,0.0879353979288131,0.7345340457652397,0.011501425659878807,-0.5137709654193545,-0.012367441488213787,0.8577611314876014,0.10609584844588692,-0.8334614395280068,0.901225371598773,-0.19526457876808076,-0.667275453389901,0.6069535278185184,0.057533890807588306,0.662378816361347,0.9387589169539363,0.04124315189025547,0.602258716422814,1.092412733437906,0.0,0.0,0.0,0.0
0.00862361008229346,0.09054838511182296,0.7355663784486156,0.009893165239861244,-0.5151250572588202,-0.011336776332673408,0.8569829509202718,0.09664323025884101,-0.8237605025499112,0.8862861011591039,-0.17594413311952908,-0.7258460269383795,0.6971659397658696,0.05653600563657189,0.6592546640456707,0.9433782121867476,0.039892222152332464,0.6063820436643985,1.0819082485400113,0.0,0.0,0.0,0.0
0.006022012160068884,0.09369533353962134,0.7367013307335788,0.008209261503609861,-0.5163245887138168,-0.010095942423938494,0.8562941078050496,0.08546376420526891,-0.8148163600058722,0.8715140561478449,-0.15725638871818876,-0.7754328627395226,0.7469298516382401,0.05361320058817479,0.6550953449231318,0.9487240927840848,0.03642732115484042,0.6100411569952533,1.0689089142143187,0.0,0.0,0.0,0.0
0.003382085001275683,0.0971929052435773,0.7375797630137751,0.006556379515988642,-0.5173312249422954,-0.008847425596289656,0.8557144036696265,0.07361542011496752,-0.8077640812349584,0.8582041579974173,-0.14318005569141712,-0.8167004841846324,0.7706772328184961,0.04830935778260867,0.649275104332319,0.957228707851309,0.0304871283615812,0.6118817332580646,1.0563920377339167,0.0,0.0,0.0,0.0
0.001071712338770008,0.10067608066145287,0.7382195414479853,0.005052134314687376,-0.5182192810023769,-0.0076978917167744125,0.8551982198293929,0.06221924951605506,-0.8026240719756458,0.8477319461147379,-0.1334318468186033,-0.8511461395588865,0.7796691031146796,0.04173426315422748,0.6435466829931232,0.9671150112632872,0.02338440382318079,0.6131873859065896,1.0449936001077222,0.0,0.0,0.0,0.0
-0.0008765005799402895,0.1038545968245776,0.7387409967595457,0.0037366322104618955,-0.518990152739244,-0.006637614334630794,0.8547462787373599,0.051878286889453895,-0.7985570974725702,0.8392729265966755,-0.12605700862185645,-0.8806232554203429,0.7807073514006646,0.0354825044918745,0.6385993061005697,0.9761523368028433,0.016849602027417362,0.6146728089336981,1.0346240825500586,0.0,0.0,0.0,0.0
-0.0024743010245622645,0.10664707970588914,0.7391982882264664,0.002617899484209451,-0.5196216255923737,-0.0056671462703929655,0.8543736865518387,0.042744047250170863,-0.7954679923549289,0.8327307322936855,-0.1195954579269513,-0.9058220484909137,0.7773631141681534,0.029989440054207624,0.6345546284990711,0.9836279385562006,0.011261838976961201,0.616418982490082,1.025137148680596,0.0,0.0,0.0,0.0
-0.0037792123160904846,0.10904289843071706,0.7395791409684094,0.001691813172677019,-0.5200985099005245,-0.0047886270227915865,0.8540911817942387,0.0348140576874331,-0.7933466270155015,0.8278400231307429,-0.1130022930032006,-0.9263114811895549,0.7720186603185285,0.02533201297289498,0.6310841536861048,0.9897521967847599,0.006627388782922494,0.6180818024817543,1.0167823630007469,0.0,0.0,0.0,0.0
-0.00486614177176325,0.11108475125430717,0.739884703147848,0.0009384480722563482,-0.5204280141762807,-0.003996098803038288,0.8538956801448904,0.02794507469467614,-0.7920345499580459,0.8241775840453072,-0.10552090265482522,-0.9407105163010777,0.7672565892550952,0.021395350655525447,0.6279191713597172,0.9948161014339658,0.002778518817242018,0.6194292693289807,1.0095660292529554,0.0,0.0,0.0,0.0
-0.005824426122827147,0.11284407027499127,0.7401301507544928,0.0003261122550624836,-0.5206451718779066,-0.0032794014567190917,0.8537667973030503,0.021926029317315323,-0.791119443807185,0.8210358843893055,-0.0966888963465079,-0.9470674196462381,0.7664583191745492,0.01797776163195505,0.6248862993515919,0.9991138854898698,-0.0005176235187376193,0.6203673157398273,1.003321326990197,0.0,0.0,0.0,0.0
-0.006723554589559396,0.11439477044718496,0.7403801190322642,-0.00018407263040925263,-0.52077221331448,-0.002628828033474678,0.853691605452446,0.016557156715794046,-0.7901919250204349,0.8178817956168506,-0.08658962965338197,-0.9437623561017631,0.7728767240559993,0.01489503836326137,0.6220852284173065,1.0024285660268386,-0.003454570237381801,0.6210967016426234,0.9973558459601066,0.0,0.0,0.0,0.0
-0.007527030219084685,0.11568069345966017,0.7405860183781744,-0.0005685082754513306,-0.5207867200484342,-0.0020486093890034252,0.8536841759216963,0.011977586304743593,-0.789583958265584,0.8150699480757021,-0.07514721916161261,-0.9323419222338439,0.7836964997201017,0.0123491017305024,0.6193405901454171,1.0049561159115445,-0.005842396854548281,0.6213951207862753,0.992233710823665,0.0,0.0,0.0,0.0
-0.008166011565258986,0.11663341557887667,0.7407141066657155,-0.0008012955429527439,-0.5206794346067937,-0.0015505853023687188,0.8537504787631001,0.00837047851801305,-0.7896562087765737,0.813173633557216,-0.062386409118958305,-0.9150452567931429,0.7962123529561266,0.010555389614623033,0.616693906867624,1.0067319106993113,-0.007489333257417358,0.6212021104911828,0.9884441730239923,0.0,0.0,0.0,0.0
-0.008560890994775715,0.11722411599505143,0.7407605879095763,-0.0008701722355020793,-0.5204978049816621,-0.001135376845414139,0.8538618089181476,0.0057944728608435815,-0.7905307491361631,0.8126968278492449,-0.048127615016461664,-0.8940407940226551,0.808929308562646,0.009618752413015123,0.614474145592315,1.0077635487680952,-0.008320556930519455,0.6207990918402848,0.9862069262991944,0.0,0.0,0.0,0.0
-0.008657570553661205,0.11748238662369859,0.7407218550938068,-0.0007782434136629594,-0.520283332459659,-0.0008041003462534931,0.8539929752196409,0.004176789938595615,-0.7923779563617667,0.8141432556364069,-0.03246569351361204,-0.8708095945312941,0.8206039959343355,0.009356376924704918,0.6129223376470697,1.0082609742861226,-0.008531418788255033,0.6203917788635273,0.985537011590819,0.0,0.0,0.0,0.0
-0.008567836074414087,0.11747093515231714,0.7407024344900183,-0.000575658034801441,-0.5200082283284986,-0.000545439952411085,0.8541608827286234,0.003361613982292895,-0.7946640971174718,0.8166643887915717,-0.01620239628363681,-0.8470180801888794,0.8302665464807996,0.009718464610949185,0.6120816806098394,1.0074968444301209,-0.00814442567279999,0.6201904660571725,0.9852905869308022,0.0,0.0,0.0,0.0
-0.008388276073132498,0.1173168813635532,0.7407595441316422,-0.0003224145693238711,-0.5196852926666663,-0.0003653299253261402,0.8543576295491558,0.0030876842326444743,-0.7969762186724694,0.8196343154667117,-0.0014001649779158618,-0.8250885957476365,0.8362236613647998,0.010217185935772357,0.611959194758357,1.0054759060026663,-0.007620663793620459,0.6202861230191252,0.9845848878540293,0.0,0.0,0.0,0.0
-0.00825501896536905,0.11724947391013028,0.7407510707857211,-0.00010482405426393724,-0.5193950657410294,-0.0002693216809978965,0.8545341901653914,0.002851322301763418,-0.7991783134790541,0.8223169072631648,0.00801971178029999,-0.8092147789483797,0.8359423834252886,0.009897364198708514,0.6116363667232538,1.004529396847889,-0.007905437651477063,0.6198482698037979,0.9842055844560227,0.0,0.0,0.0,0.0
-0.008246648432538525,0.11723485226053439,0.7407486625601917,-8.518466795519969e-05,-0.5193896728736396,-0.00026615140181598777,0.8545374711615736,0.0028666615765672344,-0.7991961023901253,0.8223426269099978,0.00803455484400486,-0.8091755604481755,0.8359432664505304,0.009891160058498707,0.6116527436453559,1.004480488996378,-0.007910616322149386,0.6198317666963744,0.9842588836428452,0.0,0.0,0.0,0.0
-0.008246648432538525,0.11723485226053439,0.7407486625601917,-8.518466795519969e-05,-0.5193896728736396,-0.00026615140181598777,0.8545374711615736,0.0028666615765672344,-0.7991961023901253,0.8223426269099978,0.00803455484400486,-0.8091755604481755,0.8359432664505304,0.009891160058498707,0.6116527436453559,1.004480488996378,-0.007910616322149386,0.6198317666963744,0.9842588836428452,0.0,0.0,0.0,0.0
-0.008461177872377521,0.11678605016488525,0.7405523087971764,6.40227061116897e-05,-0.5193759141101383,-0.0002640535269139918,0.8545458361135968,0.003893874298207279,-0.7973036866317289,0.8183218685023921,0.009066898314855161,-0.8099894906849469,0.8359653728308758,0.01182348417617098,0.6101420078121135,1.0048366644052877,-0.005994708461359437,0.618110400504944,0.9877266996473837,0.0,0.0,0.0,0.0
-0.008723683537322538,0.11622447421756155,0.7404082339171286,0.00021595215899055103,-0.5192904121382431,-0.00026257697014990766,0.8545977722176049,0.005204060242651991,-0.7951108727510592,0.8136565116206939,0.010385411095551036,-0.8110862071516748,0.8362625073314859,0.014412238616566238,0.6085579031937272,1.0041930578507352,-0.0033933689539032523,0.6163649894104156,0.9909535689875699,0.0,0.0,0.0,0.0
-0.008981199561917062,0.11568280083506927,0.7403261683185073,0.0003586444311461638,-0.5191801248494623,-0.0002733051252671743,0.8546647264511256,0.006501994969476504,-0.7929323902548573,0.8091574148284818,0.011693981565581754,-0.8121170319856998,0.8365837891673652,0.016831802356139715,0.6072622393839708,1.0029982943847986,-0.0009316601198418001,0.6148669301692864,0.9934513557136606,0.0,0.0,0.0,0.0
-0.009208945669367658,0.11521024966327795,0.7402705503200409,0.0004909431032613388,-0.5190798413646043,-0.00030376831928496457,0.8547255612116528,0.007685779559059596,-0.7909272820778649,0.8051357143427417,0.01288948379561032,-0.8130088024058939,0.8368530710344599,0.018756539707360693,0.6062607253590742,1.0018179207151328,0.0010463953039213394,0.6135657771354189,0.9954407615397961,0.0,0.0,0.0,0.0
-0.009411393845862502,0.1148199871293143,0.7402159403811492,0.0006152321164464412,-0.5190085619905471,-0.00036081711029038857,0.8547687429246347,0.00874016045855683,-0.7890575239326265,0.8015156217856092,0.013955568891884998,-0.8136817237061564,0.8369055539436774,0.02007078817151902,0.6054769357842636,1.0009872715854082,0.002409329951106836,0.6123483255845262,0.9971551484772347,0.0,0.0,0.0,0.0
-0.009577501636978928,0.1145502871188827,0.7401577744895222,0.0007324003823496287,-0.5189889017052637,-0.00044660456312713446,0.8547805472990178,0.009574529709120316,-0.7873594382223182,0.7984474086223784,0.014799976980439975,-0.813986766321675,0.8365909406751365,0.020540558563606887,0.6049806800825738,1.000734178273377,0.00290769386117616,0.6112653039461863,0.9985516725366699,0.0,0.0,0.0,0.0
-0.009579538841970638,0.11454000903909166,0.7401533165025767,0.0007344686579257013,-0.5189886372804159,-0.0004482774096563976,0.8547807051969362,0.009602650943525843,-0.7873205240205055,0.7983674132574334,0.01482957794435307,-0.8140171937470458,0.8366145957305783,0.020576550442327243,0.6049605010180394,1.0007379245699612,0.0029483585927777595,0.6112342494176546,0.9986211685868521,0.0,0.0,0.0,0.0
-0.009579538841970638,0.11454000903909166,0.7401533165025767,0.0007344686579257013,-0.5189886372804159,-0.0004482774096563976,0.8547807051969362,0.009602650943525843,-0.7873205240205055,0.7983674132574334,0.01482957794435307,-0.8140171937470458,0.8366145957305783,0.020576550442327243,0.6049605010180394,1.0007379245699612,0.0029483585927777595,0.6112342494176546,0.9986211685868521,0.0,0.0,0.0,0.0
-0.008823735030097474,0.11482460958371134,0.7406188752599373,0.0007848586536526288,-0.5194410671927704,-0.0004282624088798784,0.8545058094020419,0.008796215555597198,-0.7881210587709025,0.8043807604302758,0.014017285743457918,-0.8134058589755906,0.8403605417957242,0.018798802728642736,0.6105201081604067,0.9980504910721927,0.001032169719767619,0.6166865999657807,0.9939738625654037,0.0,0.0,0.0,0.0
-0.0076262205250243595,0.11508269102169137,0.7409165004786071,0.0006023953633780856,-0.5200991054837283,-0.0002294855492912475,0.8541056755058092,0.00772384283868318,-0.7912474559459012,0.8146247754365634,0.01293626506240712,-0.813949005397821,0.8473360216947469,0.019586387961332368,0.6163071071816341,0.9966806197311561,0.0016212465759073097,0.6237843817247323,0.9913162711986954,0.0,0.0,0.0,0.0
-0.00638370566916314,0.11525094369867361,0.7410322111267811,0.0003779562387862172,-0.5207939313056501,-1.0377213678276683e-05,0.8536823403096733,0.006851527336949381,-0.7947324498223276,0.8249344932991703,0.01205945412109542,-0.8151343141538261,0.8549547348506731,0.021355983990892082,0.6213252332728413,0.9965833608985362,0.0031741551357672426,0.6303851618232624,0.9906314516420248,0.0,0.0,0.0,0.0
-0.005314403913493569,0.11540008762878623,0.7410537705565412,0.00020332168956818645,-0.5214175685365364,0.00016039520884095866,0.8533016185119503,0.0061268448569512255,-0.797689054420273,0.8335839905663434,0.011332892882434862,-0.8162264949232833,0.8613979428743831,0.022711869785836804,0.6254144385396183,0.9972244202711968,0.004331785495585452,0.6357465689360033,0.9906992312094963,0.0,0.0,0.0,0.0
-0.0044759491732667064,0.11557215790762514,0.7410291433907297,0.00010254152550476902,-0.5219134635952306,0.00026539058183335825,0.8529983913062817,0.00547519559238642,-0.8000853137166615,0.8404301557899194,0.010680479030534965,-0.8171048187954719,0.8662894374732347,0.023079180198856238,0.6285878072163826,0.9983000606895455,0.004527474142963788,0.6396736615518753,0.990869016106192,0.0,0.0,0.0,0.0
-0.003867366134955148,0.11579394917075513,0.7409876438027267,6.76403818371087e-05,-0.5222752757771384,0.00031539515453238726,0.852776894775292,0.004803963018644779,-0.8020035335223835,0.8456702568268211,0.010008258513135006,-0.817657757446037,0.8695599074296175,0.02234516419224145,0.6309449042828044,0.9996487174886529,0.0036483988742345764,0.6422835908554577,0.990815322319038,0.0,0.0,0.0,0.0
-0.0034621285215413597,0.11608124735036739,0.7409449714257104,8.526340595896921e-05,-0.5225135510965783,0.0003262083073429315,0.852630913841819,0.004038511398098951,-0.803578187082586,0.8496310285236793,0.00924101116356804,-0.8178502704697663,0.871332083668333,0.020558349990933818,0.6326098176379374,1.0011877976833643,0.0017464693789517732,0.6437840358829833,0.990383395863159,0.0,0.0,0.0,0.0
-0.0032280446121502023,0.11644363571184715,0.7409082076923513,0.00014896043813919413,-0.5226389211685005,0.000308882586627646,0.8525540689493901,0.003128667708051521,-0.8049567132534052,0.8526500386276841,0.008328595411407827,-0.8177266738608147,0.8718204460409353,0.01775839979474636,0.6336994874941247,1.0028792271691904,-0.0011301981193430066,0.6443556992009901,0.9894940062211066,0.0,0.0,0.0,0.0
-0.003134859848262054,0.116880137687731,0.7408849837631253,0.0002509638970372805,-0.5226788921740619,0.0002845190944656352,0.8525295488965192,0.0020240632286809886,-0.8061549792375542,0.854901012493694,0.007220629435995533,-0.8172191713835619,0.8711377566643637,0.014137573143160328,0.6343407314102609,1.0046600392963478,-0.004778220402710329,0.6442607273618679,0.988137995782779,0.0,0.0,0.0,0.0
-0.0031449197098240467,0.11733026212529017,0.7409852276358668,0.00018406344202067434,-0.5230714035448516,0.0006027932642874783,0.8522886304266583,4.947244357671708e-05,-0.8050352507170903,0.8544254946696633,0.005233062160566307,-0.8128439172393183,0.8665293819854217,0.01356077403132562,0.6351235927648827,1.0057969679670777,-0.005396274483268723,0.6464226867844469,0.9868190396245868,0.0,0.0,0.0,0.0
-0.0029535704199195063,0.11788632486175443,0.7409607016602333,0.0003244912181441558,-0.5230940841108003,0.0006102879596421019,0.8522746631352704,0.012186734879373403,-0.8201777491275534,0.8508369531611305,0.00371497002921133,-0.8127010145660871,0.8665374886336106,0.009089606416350681,0.6360347882593099,1.0078623756710667,-0.009873531620226618,0.6465378960465615,0.9849604479057243,0.0,0.0,0.0,0.0
-0.0025862978967981323,0.11856650994168252,0.7409556981406784,0.00032501619789755026,-0.5232832143076973,0.0008597014779386589,0.8521583379288409,0.029161849674171937,-0.841233738660723,0.8423523025374238,0.001304979935051821,-0.8115760349991279,0.8664535647290796,0.006132343754521085,0.637259223131031,1.0100905370866509,-0.012848606692548111,0.6484159733092392,0.9829646536714779,0.0,0.0,0.0,0.0
-0.00207941897033037,0.11939511756904912,0.7409580995631885,0.00021358402877639797,-0.5235507592455612,0.0012663224148004115,0.8519935171718156,0.04663513520546329,-0.8645654305608935,0.8314778223992172,-0.0018399037558295504,-0.8099340243646029,0.8664388239233342,0.0038307397310771854,0.6386741589992952,1.012606685887844,-0.015192605832934485,0.6514183432779689,0.9805959377290738,0.0,0.0,0.0,0.0
-0.0014463289830083288,0.12038969694223287,0.7409462819684061,1.2933688467288063e-05,-0.5238169823622528,0.0017685247662891331,0.8518289975938681,0.06276888321823537,-0.8881791954959197,0.8194202088745853,-0.005607250985379809,-0.8083167401386528,0.8668516580600347,0.001542511865684553,0.6401312207956453,1.0155655621532511,-0.017527682669719474,0.6550213157230546,0.977747549856814,0.0,0.0,0.0,0.0
-0.0006688435790414734,0.12157168761764343,0.7408951853348414,-0.0002866260375260931,-0.5240480600706088,0.002354127004117354,0.85168539183656,0.07702077872216732,-0.9109542999106407,0.8068029285224672,-0.01001316810029718,-0.8070324812827521,0.8679953434458082,-0.0009008703210836217,0.6415155551614314,1.0191741118884021,-0.02000886640634655,0.6590539763827762,0.9744596685853283,0.0,0.0,0.0,0.0
0.000385773210676674,0.12291563837160141,0.7407734777356657,-0.0007405174785616581,-0.5242506686138921,0.003049757101845942,0.851558211206592,0.0895955584505039,-0.9315217256880185,0.7938260756688097,-0.01503560001903001,-0.8067531469264436,0.8711794623918182,-0.0028153093496052104,0.6429445395625163,1.0234633772102044,-0.021977288144999402,0.6639271263141163,0.971032165927521,0.0,0.0,0.0,0.0
0.0016522176449030685,0.12449555643525136,0.7405559217837778,-0.0013374855945553921,-0.524370484801577,0.0038528408526145768,0.851480452751916,0.10058444585317923,-0.948659828737036,0.7813452096583832,-0.02087384135987855,-0.8073187296806805,0.8757441765355188,-0.004795780767599675,0.6440514508693578,1.0288234434518586,-0.023993315128487305,0.6691599148399427,0.9673366961869305,0.0,0.0,0.0,0.0
0.003031290531422722,0.12635084766274446,0.7402290253499788,-0.002040721412572953,-0.5243352471684936,0.004746086324917693,0.8514962470248869,0.11027622992904731,-0.9603091952205389,0.7707799720634289,-0.02761986646883309,-0.8085955408237291,0.8809458357694295,-0.007482783615406751,0.6444426586351704,1.0354358147303917,-0.026640382869713458,0.6741188013018836,0.9632364971160478,0.0,0.0,0.0,0.0
0.00444054391182376,0.1284146300301491,0.7398678672766845,-0.0028039141243843026,-0.5241480025983525,0.005690286790491164,0.8516035639157357,0.11888311249368794,-0.963974064988308,0.7647892913888643,-0.035037202192490575,-0.8101309158675126,0.8861186195274836,-0.010991795617235128,0.6443905325532003,1.0425132850861658,-0.029996400576134306,0.6788107142352371,0.9582887480909091,0.0,0.0,0.0,0.0
0.005836316463551555,0.13062545925564756,0.7395380639808414,-0.003615345043231813,-0.5238718362942734,0.006684988064917447,0.8517631944105453,0.12653575688645,-0.9580384717519695,0.7660891744045358,-0.04297382008232964,-0.8112498680377749,0.8905847728258522,-0.014980717372585842,0.6442251828896992,1.0494347211441335,-0.03371546608335926,0.6836086889000325,0.9522608791619432,0.0,0.0,0.0,0.0
0.007281272215537496,0.13303387630240848,0.7392079000037098,-0.004493489374708179,-0.5234448531024578,0.007747171778884437,0.8520124856146265,0.133531932662672,-0.9438789178150001,0.7714653033058477,-0.0516056087882108,-0.8125241191443154,0.8950833229871357,-0.019577860938882537,0.6437858119814154,1.0564367020565468,-0.037894658878952714,0.6884588904236965,0.9450643462187047,0.0,0.0,0.0,0.0
0.008878810745325788,0.1356789705626862,0.7388135535431418,-0.0054960677392899785,-0.5228719776845293,0.008936364457634497,0.8523466604509895,0.14035311625869223,-0.923694689086906,0.7777769619455948,-0.06118220317588481,-0.814280969770191,0.9002812252961511,-0.024297567416608493,0.6429108924348381,1.0640139972571583,-0.042062029002595994,0.6936174176482689,0.9370857962631016,0.0,0.0,0.0,0.0
0.01075214924020502,0.13839985106729208,0.7383532576861531,-0.006657187618739062,-0.5222507881185099,0.010274554336333301,0.8527040692384398,0.14811229787249586,-0.8989768521280684,0.7827268751361381,-0.07135219646054555,-0.8168035323674008,0.9072847260056177,-0.027597163569781594,0.6420215146437184,1.0716714681089448,-0.04481465878380359,0.6998647465444033,0.9290192262296066,0.0,0.0,0.0,0.0
0.012761534819409935,0.14088464271076362,0.7376667757538453,-0.007904153949230764,-0.5216719286813448,0.011664837425338092,0.8530298088250334,0.15819872343536812,-0.8709440724423444,0.7842361483856924,-0.08111712343666344,-0.8204228098233384,0.9158818748796013,-0.028326052837840877,0.6403244628242348,1.0802474361107794,-0.045174687694697735,0.7059047213269413,0.9238406534950353,0.0,0.0,0.0,0.0
0.014748919706772676,0.14293339597152854,0.7368240313165739,-0.009139512331053746,-0.5211353024100145,0.012989626646704416,0.8533262772796536,0.17126340642661647,-0.8401362729597963,0.7792035198253414,-0.08969166591079078,-0.82512610771676,0.9256850630076187,-0.026357143792858015,0.6378849482735266,1.0888375336037193,-0.04308128113565958,0.7111862571456942,0.9217960562833228,0.0,0.0,0.0,0.0
0.016466351692880517,0.14432221777167656,0.7359256438119334,-0.010180699392735986,-0.5204811272164391,0.013991101550485528,0.8536978380251314,0.18688249143042493,-0.8069180624482076,0.76184293808947,-0.0959038449256555,-0.8318760659697284,0.9368614872632449,-0.0229126653708363,0.6345985957163884,1.096226507980333,-0.039653842201371324,0.714163816358103,0.9225564706741497,0.0,0.0,0.0,0.0
0.0174703308972384,0.14492346606585063,0.735198513037501,-0.010831705246897265,-0.5196625431764432,0.014463392571143112,0.854180499459083,0.20247610004960845,-0.7736996441059149,0.7260503885015448,-0.09887093532902365,-0.8394234044799709,0.9466364072069314,-0.019754723705020467,0.6305810115799317,1.1008784559628637,-0.036504284198675234,0.7136545627885312,0.9247581496764615,0.0,0.0,0.0,0.0
0.017523641422205003,0.14497372786080337,0.7351754317995671,-0.010895906825407536,-0.5196371747007182,0.01445694615686977,0.8541952251044984,0.202478250791425,-0.7736242051850917,0.7260649885722997,-0.09900111426209111,-0.8394609909627956,0.9466900281544679,-0.019764564660471728,0.6305756741808142,1.1010586315898465,-0.03646677958769614,0.7137243483220025,0.9246390277121606,0.0,0.0,0.0,0.0
0.017523641422205003,0.14497372786080337,0.7351754317995671,-0.010895906825407536,-0.5196371747007182,0.01445694615686977,0.8541952251044984,0.202478250791425,-0.7736242051850917,0.7260649885722997,-0.09900111426209111,-0.8394609909627956,0.9466900281544679,-0.019764564660471728,0.6305756741808142,1.1010586315898465,-0.03646677958769614,0.7137243483220025,0.9246390277121606,0.0,0.0,0.0,0.0
0.017831767662403665,0.14526295660943792,0.7351222579890168,-0.010567444620233804,-0.5195823039934979,0.014111006956780938,0.8542385135157933,0.20269212196479722,-0.7755419070601188,0.7304022051655983,-0.09912610966729317,-0.8417072123413141,0.9495279881054299,-0.02676596115192348,0.6330707596028191,1.1022462307841723,-0.04301276376072745,0.7127894705346811,0.9229521257695962,0.0,0.0,0.0,0.0
0.018233213783708284,0.14564982965954532,0.735027095154097,-0.010429753127604365,-0.5197130103489324,0.013945693120006777,0.8541634063615405,0.2022609696919945,-0.7782402267142181,0.7360873035859199,-0.0998285069773349,-0.8425508851387868,0.9513451826958518,-0.03208070504879321,0.6355365676960568,1.1040821420738578,-0.047868564603447,0.7131295430446366,0.9217604454029191,0.0,0.0,0.0,0.0
0.01870273419843214,0.14617504590122982,0.7348948563211616,-0.01044048937961503,-0.5199685513963659,0.013942555150359692,0.8540077908872717,0.20111995390429802,-0.7819342536546048,0.7433135711508259,-0.10120869997590545,-0.8421714864304544,0.9521192061415865,-0.03641541849102084,0.6379243089316774,1.106581392162696,-0.05176065336477482,0.7144085391402986,0.9207233178093126,0.0,0.0,0.0,0.0
0.019234736451901723,0.14690289114478838,0.7347385570218169,-0.010573259428132727,-0.5202978146852032,0.014086779840707707,0.8538032284154159,0.19914953220761028,-0.786996300662082,0.752600208174962,-0.10342060223152824,-0.8406620434389961,0.9518133076194767,-0.040535561218319846,0.640296705345379,1.1097411732236433,-0.055396876591708555,0.7164619878804065,0.9193195611080298,0.0,0.0,0.0,0.0
0.019849115652572382,0.1479053743847158,0.7345690979593247,-0.010831398297392365,-0.5206804079563722,0.014392418822148704,0.8535616274539038,0.1961461888843211,-0.7939037617926255,0.7646849364242075,-0.10668981520508355,-0.8379343543066122,0.9503333247142147,-0.04488815619598397,0.6427649493553913,1.1135859442034672,-0.05916155583951682,0.7193922292212565,0.9170772408406388,0.0,0.0,0.0,0.0
0.02059956400551352,0.1492615430429302,0.734396872788831,-0.011245614373740657,-0.5211218967658522,0.014902105838175812,0.8532780508779687,0.1918260217189291,-0.8032777859123809,0.7805891111027422,-0.11131479232682938,-0.8337759448585444,0.9476202412597517,-0.04960918847756367,0.6455191251762152,1.1181287058495963,-0.06314498069740469,0.7235876476973279,0.913531408054473,0.0,0.0,0.0,0.0
0.021528394301903134,0.15101325442490407,0.734251784041499,-0.011830192691738146,-0.5216156947226103,0.01563754355174445,0.8529552044460438,0.18603139282545406,-0.8153865485499234,0.8008186738033666,-0.11744513268201337,-0.8280831900394534,0.9437366617527209,-0.05481346719098319,0.6488144059540981,1.1231145045497601,-0.06741104006801152,0.729410452432138,0.9081238885402624,0.0,0.0,0.0,0.0
0.02261723064051538,0.1530813177567835,0.7341729594654306,-0.012544354776890611,-0.5221248998767755,0.0165655977968141,0.8526158625439318,0.17899723543364782,-0.8295606043833267,0.8243522193119975,-0.12480128526035311,-0.82115384742856,0.939023457505574,-0.06041061855511622,0.6527465867752018,1.1279519867260517,-0.07185542675223903,0.7368161083959983,0.9006426238158943,0.0,0.0,0.0,0.0
0.023584410524822623,0.15486461317668526,0.734022913186108,-0.013161222265658539,-0.5225543022288434,0.017343253941961113,0.8523279855743945,0.1729547938067368,-0.8416948579161208,0.8441686433259555,-0.13108087900819596,-0.8154861182881559,0.9351366034730861,-0.06570226638247695,0.6561103124126964,1.1326570505224185,-0.07595542811012726,0.7428347551200134,0.8947209430114403,0.0,0.0,0.0,0.0
0.024427260457388352,0.15626422247972932,0.7338337788088716,-0.013660686033600647,-0.5229379531166508,0.017960563327044803,0.8520720045936458,0.16818474741297035,-0.8513581646925992,0.859898886373337,-0.13602312483619117,-0.8112373171933005,0.9324958978333077,-0.06998243263195797,0.6589821688423518,1.1368163390092174,-0.07918764601313916,0.7476285792702493,0.8906322547281543,0.0,0.0,0.0,0.0
0.02518618719968909,0.15730041528371072,0.7336332044651446,-0.014065567386730189,-0.52331493611781,0.018452641411041,0.8518234191867804,0.1645806928955718,-0.8588441953191497,0.8722632878684792,-0.13976065280577732,-0.8081932488567581,0.9311588583946129,-0.07288011103637257,0.6615458054947517,1.1402739727468054,-0.08130584578347287,0.7516678450920037,0.8881517977615125,0.0,0.0,0.0,0.0
0.025886990868025476,0.1580362629661246,0.7334394441512447,-0.014403925625008498,-0.5237047367879791,0.018857105248855,0.851569307322696,0.1619131360488966,-0.8645718650997606,0.8820274567133539,-0.14253401137293617,-0.8060243419387919,0.9308899378780776,-0.07434610801917763,0.6639058757517167,1.1430323994432066,-0.08230574677944617,0.7553074457845965,0.8869068902555808,0.0,0.0,0.0,0.0
0.026531454651942163,0.1585494040726033,0.733269066629981,-0.014700582983728594,-0.5241086851343704,0.01920343928830687,0.8513079389657776,0.15992343938564746,-0.8689129707579001,0.8897807741159351,-0.1445964731369953,-0.804346952142196,0.9312403583086987,-0.07456166204264437,0.666093793443388,1.1451442367185563,-0.0823432619000877,0.7587558802509571,0.886445125135814,0.0,0.0,0.0,0.0
0.027112614542074226,0.15891429492777107,0.7331432579138801,-0.0149768213871133,-0.5245174762511711,0.019513355404470665,0.8510442649410779,0.15837510671230728,-0.872179310913522,0.8959951054788768,-0.1461728591649626,-0.802801706964197,0.9317460266134433,-0.07378574278384174,0.6681333324747307,1.1466123211279355,-0.08161742727277763,0.7621687415420656,0.8862574367856011,0.0,0.0,0.0,0.0
0.027588192739266066,0.1592310673236713,0.7331025701852725,-0.015246121644657004,-0.524891662820138,0.01979555651421801,0.8508022296744404,0.15698954673171694,-0.8746510737503029,0.9010313481232918,-0.14751850710649173,-0.8009294407182769,0.9316591776230209,-0.07266768030115378,0.670018156262872,1.1473625189734666,-0.08062302782799488,0.7655590661559586,0.8855141629579057,0.0,0.0,0.0,0.0
0.027875800423436885,0.1596632714935647,0.7332410444223055,-0.015511485049520799,-0.5251362382785739,0.020042302628196427,0.8506407180376137,0.1553628800982756,-0.876716608839447,0.9054015526223596,-0.14900567741194118,-0.7980816426901342,0.9298292850433434,-0.07262972108732113,0.6718355604765894,1.1470430657672739,-0.08045679725051381,0.7688637041794628,0.8825263180994408,0.0,0.0,0.0,0.0
0.027899218645820425,0.1605292620070464,0.7338489200983347,-0.015769537955252946,-0.5250579626145954,0.020237336591289817,0.8506796740109515,0.15273543664565575,-0.8792488910130541,0.9107976305919528,-0.15135779439291638,-0.7931158648304802,0.924701017345391,-0.07651324668252775,0.6744735008697341,1.1439595479270925,-0.08331879605242207,0.7727607564490663,0.8727669825944889,0.0,0.0,0.0,0.0
0.02792625698435793,0.16258797226410193,0.7362252905179686,-0.01612875313113815,-0.5243691357843293,0.02061103836264285,0.8510887485197087,0.14668565453530105,-0.8845249749127343,0.9245151658038682,-0.15680066977161564,-0.7817465156296209,0.9142870326819015,-0.08732197679812566,0.6832782632101866,1.1283804366772971,-0.09137799938824681,0.7852268099633916,0.8390215737072196,0.0,0.0,0.0,0.0
0.02708873975829866,0.16492428516107016,0.7401471270882558,-0.015132811612377998,-0.5222000278512905,0.019502147243315372,0.8524657149573323,0.14333080026156722,-0.8844066909002901,0.9329510888398274,-0.159893238881584,-0.7744737867074325,0.9049351850938993,-0.12176619296615299,0.6984041358224923,1.100715008863688,-0.050177296663929706,0.7392561182938095,0.9240923899875886,0.0,0.0,0.0,0.0
0.02649451664184937,0.16736790308762087,0.7441925158538093,-0.01434911462927717,-0.5203633955515479,0.018624082481838212,0.8536212175380419,0.13910629331029334,-0.8841856690037314,0.9425425148562232,-0.16360988418115274,-0.7646632303271552,0.894122152529921,-0.15072950920257222,0.7142639516781789,1.070429992720889,-0.016042316505408022,0.7059796026534421,0.9876239782649324,0.0,0.0,0.0,0.0
0.02615195066701433,0.16973585090791554,0.7478192599833431,-0.013868930267105044,-0.5188776823678868,0.01798113579985629,0.8545468285993013,0.1345804771924876,-0.884945522083715,0.9529851826420606,-0.16757017439644262,-0.7542985571070452,0.8832230871969682,-0.1737213064553041,0.7289210332285095,1.0420543848372956,0.005993419006154216,0.6821433586193962,1.0360217858662202,0.0,0.0,0.0,0.0
0.02593477557268345,0.17189185945900015,0.7509416906674485,-0.013577338986762713,-0.5176420201818877,0.017488417244560548,0.8553107915081704,0.1302793582524236,-0.8861610085866743,0.9628756198991336,-0.17132005636324113,-0.7445214056104467,0.872909699011299,-0.19212370614816676,0.7417572559877458,1.0167296670127783,0.020573365990968904,0.6645683645048602,1.075914021916046,0.0,0.0,0.0,0.0
0.02574067769904869,0.17378797857804718,0.753592534297807,-0.013369364594179279,-0.5165624352545344,0.017066282717459896,0.855975030341692,0.126482955590435,-0.8873833855437221,0.9713931981540072,-0.1746156123927768,-0.7358870505171666,0.863448229765602,-0.2072815628716969,0.7526122643846889,0.9945828568808937,0.03141724999679347,0.650810153984874,1.1108906611400098,0.0,0.0,0.0,0.0
0.025499994751328726,0.17543762802180968,0.755817389568443,-0.013172640012327872,-0.5155622717693243,0.01665504297229432,0.8565889533648855,0.12327741478879693,-0.888464476603512,0.9782716150268589,-0.17739637694308036,-0.7286499355717277,0.8548625829825935,-0.22033854241875628,0.7614352635149656,0.9755617668350892,0.040677678134753696,0.6392578255453497,1.1423270662962466,0.0,0.0,0.0,0.0
0.02513744384081065,0.1768728494680189,0.7576418754613835,-0.012929275983947634,-0.5145753281156196,0.016199933350045496,0.857194626486125,0.12068913248865507,-0.8893078788490903,0.9832489041045043,-0.17964917195537733,-0.7229256070136073,0.8469231320942815,-0.2322738359490508,0.7680513764996725,0.9597455789894562,0.04970410852187501,0.6290418868352813,1.169740152677875,0.0,0.0,0.0,0.0
0.02456499937783529,0.1781391378325904,0.7590611272026528,-0.012583865114666177,-0.5135323358096797,0.015643099360598847,0.8578353454241814,0.11871669598489001,-0.8898933605531596,0.986036331629966,-0.1813880792825311,-0.7188236890964669,0.8392361794806336,-0.24405531624755722,0.7720867064152723,0.9474746676784256,0.05970329743144533,0.6201089970128343,1.1906414361004798,0.0,0.0,0.0,0.0
0.0236926652362683,0.17929561006908556,0.7600451515854714,-0.01207957084264882,-0.5123572531178465,0.014922588491335056,0.8585577706238006,0.11733673107953578,-0.8903204035543809,0.9864192936722568,-0.1826571238176939,-0.716510250648641,0.831368883993042,-0.25668609331139,0.7730212600829481,0.9393003791225553,0.07214024670759903,0.6136910927489879,1.2000164481774744,0.0,0.0,0.0,0.0
0.022479813864205396,0.18040108340601932,0.7605835856306852,-0.011379125986455872,-0.5109936386614832,0.013998928954419928,0.8593951633139502,0.11648985827105686,-0.8907943204248652,0.9845159116941098,-0.18353792096695848,-0.7160994507086454,0.8230962174744826,-0.27080327885894157,0.7705603277475201,0.9354651133292403,0.08848588796022631,0.6131057533990781,1.1903520066640179,0.0,0.0,0.0,0.0
0.020934363159103395,0.1814358498378662,0.7607407399330598,-0.010494585597681485,-0.5094654045677846,0.012871854488046158,0.8603308553014678,0.11624198602330153,-0.8909749946293011,0.9801123716802815,-0.1839347943709668,-0.7173052628593191,0.8142906369554089,-0.28586104246824195,0.764976398580386,0.9352699133664278,0.10765501790850032,0.6150523491147953,1.1694065386463792,0.0,0.0,0.0,0.0
0.019106397324230556,0.18238316911041533,0.7606120844112673,-0.009438940465630723,-0.5077887395820718,0.011547512156929014,0.8613525162902368,0.11664844902296485,-0.8906500968325403,0.97334827404471,-0.18378034470448582,-0.7199446269840617,0.8051678904446896,-0.3013468263972657,0.7568562617488825,0.9375815807886032,0.12908115438606108,0.6181871629617302,1.1425926403467574,0.0,0.0,0.0,0.0
0.017052934077272222,0.18323434193599097,0.7602808576253275,-0.00820639493999184,-0.505956488609543,0.010015368640998678,0.8624618131297033,0.11778448519504835,-0.8897479840098113,0.9645208746998762,-0.18301357318394393,-0.7240937777000439,0.7962029075038747,-0.31708391358184945,0.746777681069638,0.9413447071688915,0.15335923404713755,0.6222783375977168,1.113213545251684,0.0,0.0,0.0,0.0
0.014859449135249834,0.1839728403160097,0.7598083215745092,-0.0067793774325050436,-0.5039560226512387,0.00825951675690917,0.863663214255484,0.1197621552730818,-0.8883662065220593,0.9541702526328296,-0.18156642528742245,-0.7301583662363484,0.788341966522719,-0.3330419860609551,0.7353259639573794,0.9456735280842538,0.18263384061618243,0.6278464679906143,1.0834068501181986,0.0,0.0,0.0,0.0
0.012715413452125332,0.18457205318159658,0.759214653305426,-0.0051508071249216116,-0.5017777408081879,0.006293506730885657,0.8649583572568226,0.12267539079967929,-0.8872403708759465,0.9438334391140734,-0.17945799126152612,-0.7391743339976165,0.7836934481228066,-0.34914404526147036,0.7231952204313565,0.9499883857478347,0.22077529576422736,0.6363702280353937,1.0548580468683506,0.0,0.0,0.0,0.0
0.011009533001605735,0.18493223462845862,0.7585038988883587,-0.003398616575531608,-0.4994842077895162,0.004249739325390612,0.8663059016824936,0.1265709274138378,-0.8878796989596403,0.9365450242532931,-0.1768169371946368,-0.7527215918681078,0.7861365846581946,-0.36426883654357345,0.7116045915929307,0.9537457801357071,0.2711857764943048,0.6497397708618303,1.0291581611286305,0.0,0.0,0.0,0.0
0.009910769662618812,0.1850431080346987,0.7577125221175798,-0.001968560655680988,-0.49743012001403036,0.0026027923303948656,0.8674979112043193,0.13039365183725773,-0.8907574109495158,0.9334655210747616,-0.17440715258001144,-0.7675743733587352,0.7934586070108778,-0.3744087571672328,0.7012444585603732,0.9573751631736268,0.321397578152255,0.664114951744364,1.0083952536719254,0.0,0.0,0.0,0.0
0.009926027812217617,0.18507157115852152,0.7576827529249364,-0.0019148144833984859,-0.49743548821199207,0.0025719750901548157,0.8674950452290358,0.1304136259363773,-0.8907167704905512,0.9334950700307029,-0.17438543517233218,-0.7676596058900713,0.7933765190525754,-0.37442210191121644,0.7011742742223966,0.957317701354842,0.32143048558038495,0.66411425996559,1.008398960243703,0.0,0.0,0.0,0.0
0.009926027812217617,0.18507157115852152,0.7576827529249364,-0.0019148144833984859,-0.49743548821199207,0.0025719750901548157,0.8674950452290358,0.1304136259363773,-0.8907167704905512,0.9334950700307029,-0.17438543517233218,-0.7676596058900713,0.7933765190525754,-0.37442210191121644,0.7011742742223966,0.957317701354842,0.32143048558038495,0.66411425996559,1.008398960243703,0.0,0.0,0.0,0.0
0.010154517805911896,0.1850408091156569,0.7575540049272718,-0.001641479029163891,-0.4981672415720155,0.002298823342581516,0.8670763636395387,0.13095531291874205,-0.8869913172091018,0.9310108604647275,-0.1735798824520827,-0.7662930493169661,0.7928541332868319,-0.38082768874548734,0.704630364415979,0.9600918635959661,0.3212499337977779,0.6660335375998144,1.0112291407724259,0.0,0.0,0.0,0.0
0.010366667986681758,0.18478599252771022,0.7574232338028581,-0.0013910177790257626,-0.4987577688867575,0.0020267038392346197,0.8667379335855736,0.1321187822985194,-0.8833301365953551,0.9280676183317065,-0.17227826618855782,-0.7664549173458337,0.7943029161288302,-0.38537618730362444,0.7075230887510047,0.9621438781832418,0.3222377399416705,0.667543023671693,1.014220276452148,0.0,0.0,0.0,0.0
0.010518336284863252,0.1842415557106046,0.7573310741651856,-0.0011392813072087862,-0.49921666005324894,0.0017311333910361396,0.8664747148881866,0.1341054648666773,-0.8790355889747357,0.9237523200275575,-0.17023329864693784,-0.7680497018908532,0.7975756878600786,-0.38755120446160946,0.7098881275830914,0.9629717189157312,0.3244742202918028,0.66865704398374,1.0172122284231524,0.0,0.0,0.0,0.0
0.010623725586667522,0.18333498635194878,0.7572685660199535,-0.00085082293605991,-0.4995639747917889,0.0013784387296086277,0.8662754822210017,0.13716957573031208,-0.8737067219845287,0.9176065630836845,-0.16719600905536663,-0.7714455378821882,0.8032231963298124,-0.38726729058899234,0.7118286278457516,0.962541360512198,0.328149968374419,0.6693832934440342,1.0204883425859874,0.0,0.0,0.0,0.0
0.010712325380609778,0.1819854323297106,0.757220504636488,-0.0004942916464608301,-0.49980743732189986,0.0009382003889365826,0.8661359021848208,0.1415845952445867,-0.8670697111736312,0.9093211109306861,-0.1629114049422111,-0.777170247861268,0.8120269150212897,-0.38441302329213667,0.7134481579223111,0.9608084111683382,0.3335523289417712,0.6697368969686639,1.0243465815806774,0.0,0.0,0.0,0.0
0.010787995500303984,0.18014454537571806,0.7571847758512849,-5.999410962390106e-05,-0.4999454687666765,0.000404618259821925,0.8660567885216527,0.14747324036214443,-0.8589046113768828,0.8985651009646782,-0.1572380864730685,-0.7853721043267984,0.8241830945243933,-0.37873288734307553,0.7147537917151783,0.9576434883888039,0.3409420815565025,0.6697348813281557,1.0288743088459367,0.0,0.0,0.0,0.0
0.010861724860087322,0.17779646496454687,0.7571617399900955,0.0004491927301942282,-0.49997156641247165,-0.00021392677374059479,0.866041676387624,0.15484263329390252,-0.8491684535847243,0.8852460138712412,-0.15013929311356097,-0.7960469725176921,0.839680958492944,-0.3700589076926964,0.715766682551608,0.9529184876272541,0.35051446803477804,0.6694429423910093,1.0340306963550565,0.0,0.0,0.0,0.0
0.010972076986273387,0.17503274146242787,0.7571326854233045,0.0010187680564580947,-0.49989354987541257,-0.0009280187152357019,0.8660857576971634,0.16349393963368092,-0.8382401457525751,0.8699834234166547,-0.14178526117932252,-0.8089361232950806,0.8581118676851188,-0.35922571041174267,0.7166580930078552,0.9469300628071537,0.36176800372244516,0.6689118147692323,1.0397018491060952,0.0,0.0,0.0,0.0
0.011099548054079216,0.1726460668426288,0.7571001790010828,0.0015391929180893983,-0.49982119508184475,-0.0015432424907979839,0.8661258697410741,0.17089641667090075,-0.8286344093391225,0.856551085466879,-0.134536590241183,-0.8199539813342401,0.8737723082350228,-0.3501657908667586,0.7176031198776173,0.9416148710584255,0.37145011822692264,0.668564769324512,1.0444850711404503,0.0,0.0,0.0,0.0
0.011217193432029355,0.1707440030744621,0.7570778471944446,0.0019814498910531836,-0.4997861858910762,-0.00206100826931196,0.8661440956871401,0.1768097547925427,-0.8205945053370248,0.8454177130058966,-0.12865571687890337,-0.828553891917947,0.8859713173201801,-0.3434566165057648,0.7186460692842449,0.9372857158317103,0.37897445159535426,0.6684100396583535,1.0482038229810229,0.0,0.0,0.0,0.0
0.011324079571694155,0.16929592650596742,0.7570697666442914,0.0023454467980050945,-0.49979103329037317,-0.00248703367885104,0.8661392708943171,0.18134781618634782,-0.8141079061934001,0.83660973029529,-0.12408059941295294,-0.8349733569682072,0.8951296218090888,-0.33888852913821205,0.7197721333721755,0.9339168218823806,0.3845006189226082,0.6684480055068047,1.0509556278376937,0.0,0.0,0.0,0.0
0.01143359642016315,0.16823216637705493,0.7570791825990638,0.0026436692443560427,-0.49983291046851963,-0.0028360021718296046,0.8661131737349206,0.1847363974127318,-0.8090281447637285,0.8299777373316619,-0.12062691358427309,-0.8396425416011333,0.9019313759241424,-0.3361531227518396,0.7210293297172025,0.9313410403602251,0.3883527912377874,0.6687114673425735,1.0528698429065995,0.0,0.0,0.0,0.0
0.011543963668823622,0.16745935266305914,0.7571146820921866,0.0028914834403837484,-0.49990510310538694,-0.0031277413325697225,0.8660697110780765,0.18725942768544246,-0.8049908836745814,0.825013253002577,-0.11802340607747909,-0.8429608642550867,0.906964144880826,-0.3347941396196844,0.7224441560358645,0.9292606604042287,0.390915960228216,0.6691949080923638,1.054053966430925,0.0,0.0,0.0,0.0
0.011669560685966788,0.16691132571742123,0.7571800849542749,0.003107298852439552,-0.5000103942800643,-0.0033829826942377646,0.8660072203704925,0.18913121823039583,-0.8017340965593966,0.8214168050648791,-0.11606425654836193,-0.8452617225981148,0.9107498188387512,-0.33464956407790003,0.7241315211981811,0.927485764771334,0.3924454218049839,0.6699524815417408,1.0546013857211773,0.0,0.0,0.0,0.0
0.011865375190820883,0.16657752772748527,0.757265573473278,0.0033159022301572478,-0.5001756152847997,-0.00362916672909472,0.8659100344814838,0.19044820572932877,-0.7992707352842212,0.8194547779227574,-0.1146751547301465,-0.8468234593907332,0.913818677260439,-0.3362163041105451,0.7264053274688435,0.9261209379312193,0.3929405642570991,0.6711734689939193,1.054636682887287,0.0,0.0,0.0,0.0
0.012219220141269216,0.16649790860504354,0.7573491640787426,0.0035490505440271785,-0.5004584587736886,-0.003904971498522632,0.8657444695056942,0.191208899520298,-0.7977869212068415,0.8198220186465802,-0.11388611344129525,-0.8478238279615347,0.9166441273287104,-0.34067640622720685,0.7297928277750322,0.9255686347342862,0.3921487717410568,0.6731776951861116,1.0543346515963052,0.0,0.0,0.0,0.0
0.012866865643840078,0.16670800370366778,0.7574138048204062,0.0038601880424807395,-0.5009513095670001,-0.004277492497760981,0.8654562885838406,0.19148526897559837,-0.7973669435123917,0.8233575733499877,-0.1136566273601107,-0.8485619852078828,0.9200491890807537,-0.3498304526169647,0.7352419857273289,0.9262133669351904,0.38975999386960286,0.6765383197099336,1.0538562926967987,0.0,0.0,0.0,0.0
0.01412354170927118,0.16731458324685383,0.7576708122816039,0.004457517424183842,-0.5020436348008375,-0.005006788894968209,0.8648163107616192,0.19145292264440156,-0.7961147964927769,0.8304277886897709,-0.11365676449439929,-0.8482233866413068,0.9248029228409622,-0.3698873776570715,0.7471549469152857,0.9269191809732975,0.38392104223153817,0.6839685658873385,1.0516040969734157,0.0,0.0,0.0,0.0
0.015619262816530198,0.1683009718037234,0.7594781870125624,0.006063221061487838,-0.5036108443291055,-0.006782730780799365,0.8638827173798769,0.19198618894532682,-0.7855198746170334,0.8332060473383524,-0.11227746566166116,-0.8440181207859503,0.9282445414652839,-0.2962023104005862,0.7117471316269002,0.9713658302801136,0.3607045689697857,0.6967146156154774,1.0349346912622275,0.0,0.0,0.0,0.0
0.01762743863327785,0.16964066870881797,0.7610959589842424,0.00782384074582996,-0.5056061562365083,-0.0087350056460959,0.8626847060010339,0.19196113853859847,-0.7760255252740598,0.8399451821341481,-0.11156923292055468,-0.8398740224461533,0.9331310408948219,-0.2300685097271408,0.6867086836664215,1.0092762714859158,0.33440205206652407,0.7110553923792355,1.019011328675282,0.0,0.0,0.0,0.0
0.019739278615579683,0.17104057376410914,0.7623802050581475,0.009333945335227606,-0.5075856461413095,-0.010408910826504266,0.8614878663516939,0.19129443826249537,-0.7693028857897367,0.8492426548200718,-0.11173339094625714,-0.8361186316056642,0.938300181281335,-0.1820683219602514,0.6705680157516475,1.0433978214142936,0.3100764411066969,0.7246867000967017,1.0051744624381362,0.0,0.0,0.0,0.0
0.02176647364513811,0.1723567010459441,0.7634089324285391,0.0105746222523278,-0.5093972059513634,-0.011779106728447028,0.8603859114245448,0.19031011530964914,-0.7646573748462191,0.8593501894959935,-0.11239968678671834,-0.8328611402097843,0.9433598281348253,-0.1470988674909484,0.6598303103319655,1.0754523457679663,0.2885138547904484,0.7370058092077291,0.9931143558662804,0.0,0.0,0.0,0.0
0.02362021477499027,0.17358229976408188,0.764246615052583,0.011598677634157626,-0.5110158525814426,-0.012908344115678157,0.859396092462487,0.1891370535209679,-0.7613806155949673,0.8692910552982596,-0.11336923810666515,-0.8298881692317569,0.947786219548614,-0.11956732395141137,0.6520130353157165,1.1060524632249435,0.26915736688019815,0.7478177052004499,0.9825155060114128,0.0,0.0,0.0,0.0
0.02526581037580103,0.17476879436865422,0.7648929800955441,0.012456652832830505,-0.512464778688876,-0.013859176437434487,0.8585060312147141,0.18776592614827475,-0.7591706764714425,0.8787639631238549,-0.11460875102318058,-0.8270034187993169,0.9511256041917625,-0.09597756643439273,0.6457486933856353,1.1349458440698696,0.2511936878249728,0.7569084576763757,0.9735152898793045,0.0,0.0,0.0,0.0
0.026677570993568597,0.17597727433065793,0.7652800983065335,0.013180086639345279,-0.5137795036939881,-0.014673161867496658,0.85769552011244,0.1861349903258523,-0.7580263522304143,0.8877054048195945,-0.11616081224154823,-0.8241075100705513,0.95294756924419,-0.07473521033818203,0.6404795987980147,1.1608434285492413,0.23398524094795087,0.7638477276970739,0.9668414860151294,0.0,0.0,0.0,0.0
0.027814068952501846,0.17725210554275606,0.7652815310177165,0.013782068838457008,-0.51498924232947,-0.01536905510014864,0.8569480305180585,0.18419092272385776,-0.7581206133638938,0.896008167304742,-0.11807388994763622,-0.8212321055386808,0.9528244111549052,-0.05561269979744422,0.636408660930338,1.1809072891326764,0.21725735904096927,0.7679241604732476,0.9638161849947572,0.0,0.0,0.0,0.0
0.02861856072102915,0.17860608776339612,0.7647385030922473,0.014263208161828451,-0.5161051503253412,-0.015946960856707063,0.8562579804825319,0.18193067993298864,-0.7597139642344991,0.9034511527096045,-0.12035699858045389,-0.8185710973721751,0.9504254074934378,-0.039344343011280695,0.6349428373853782,1.1899449900041714,0.20115914504030172,0.7682540760996321,0.9661188037275896,0.0,0.0,0.0,0.0
0.02908251637245222,0.18004112122230378,0.7635913141564628,0.014623879555831271,-0.5171251919184392,-0.0164042773128464,0.8556275928906788,0.17936217739954158,-0.7629971385809342,0.9100915950148777,-0.12301223805875831,-0.8162709497850558,0.945752911362323,-0.026941043803385835,0.6394549555623265,1.1801977374026518,0.18585768250756263,0.7645817608671822,0.974323971926348,0.0,0.0,0.0,0.0
0.029213546251618757,0.18160546027686394,0.7618163138117784,0.014896847222521638,-0.5180940747666762,-0.016774112356593037,0.8550293812432055,0.17641548615115138,-0.7678452706825277,0.9158914966482005,-0.12608429967507714,-0.8141259129311733,0.9384776525322176,-0.0168223240326029,0.6467873422674243,1.1591400273912136,0.17062355154858813,0.7568748826804087,0.9884518537139292,0.0,0.0,0.0,0.0
0.02907874921318581,0.18332750697600242,0.759487380206751,0.015126217300716229,-0.5190434478339432,-0.01709990742784764,0.8544429120642193,0.173081364911653,-0.7740162702379049,0.921074054272118,-0.12956705788648606,-0.8120005413183788,0.9287688799122474,-0.007353041670882543,0.6557852787779215,1.1315411834996005,0.15456653048867824,0.7456918423672183,1.0073908694023443,0.0,0.0,0.0,0.0
0.02875099466771382,0.1851694822199622,0.7566691926992606,0.015368507821562538,-0.519983946363135,-0.017427162529722876,0.8538599407971552,0.16952339869878658,-0.7811725121969156,0.9256435537366776,-0.13329822428680171,-0.8101408872914189,0.9172958228152274,0.002946128125232615,0.666580933038291,1.09958694417675,0.13718916101653217,0.7315327201690459,1.0302129945892897,0.0,0.0,0.0,0.0
0.028328162063822535,0.18698834322751912,0.7534180278592087,0.01570875294900374,-0.520898497831036,-0.01781862212269527,0.8532880444163072,0.16621676341593283,-0.7888301395073314,0.9293759912658714,-0.13684006083880415,-0.809513569399485,0.9057432873871966,0.015763894508769916,0.680131712198683,1.063498600587063,0.1185379979642398,0.7148734601148355,1.0562710431767532,0.0,0.0,0.0,0.0
0.02791399251289901,0.1885975136581624,0.7498637031359695,0.016253190261439364,-0.5217483771847623,-0.018390940643981384,0.8527462917032368,0.1638714501247077,-0.7961468477098113,0.9318151223513264,-0.13951889142827248,-0.8113480780418821,0.8962987523377369,0.032916283882198784,0.6976356533293077,1.0217942016540742,0.09832438144418425,0.6962741374308579,1.0843515138873845,0.0,0.0,0.0,0.0
0.02753535425258362,0.18988288254389363,0.7463208382627069,0.017087724705255696,-0.5224529157020418,-0.019222789633399323,0.8522801446106455,0.16288586330325588,-0.8020068231341696,0.932358034386115,-0.14089990290482896,-0.8159220743784481,0.8900769351465544,0.057340173937184366,0.7201141422530202,0.9705866071336744,0.07591291941540615,0.6766145980467103,1.1116743392058135,0.0,0.0,0.0,0.0
0.027289071000180486,0.19068285395210693,0.7435796554776004,0.01823080516542886,-0.5229016260076894,-0.02034385198933055,0.8519551953875103,0.163589389577286,-0.8044820914319004,0.9307202133045686,-0.14051911739285092,-0.8225127017626485,0.8884963939863172,0.08629722142160451,0.7484077025950626,0.9066553034645215,0.051967426884078335,0.6590973356597747,1.1318121427201695,0.0,0.0,0.0,0.0
0.027320360494353345,0.19067720456719628,0.743504471568768,0.018237883303547444,-0.5229404998501381,-0.020335932634397362,0.8519313722788844,0.1636010243787549,-0.8045430838274776,0.9307154031363083,-0.14051428679326325,-0.8225302791786727,0.8884381533568245,0.08630302990229555,0.7483894432382977,0.9066338325077291,0.051930712016545234,0.6591056299648232,1.1318268798021882,0.0,0.0,0.0,0.0
0.027320360494353345,0.19067720456719628,0.743504471568768,0.018237883303547444,-0.5229404998501381,-0.020335932634397362,0.8519313722788844,0.1636010243787549,-0.8045430838274776,0.9307154031363083,-0.14051428679326325,-0.8225302791786727,0.8884381533568245,0.08630302990229555,0.7483894432382977,0.9066338325077291,0.051930712016545234,0.6591056299648232,1.1318268798021882,0.0,0.0,0.0,0.0
0.027189135883650767,0.19040921855931034,0.7432305080065624,0.017841763780799637,-0.5227352455693138,-0.01980592335769926,0.8520782005806322,0.1632927725716172,-0.8068910129812032,0.9311235312664576,-0.14103222082662514,-0.8228758459074259,0.8884178802014965,0.09482911451568041,0.7437289108497936,0.907151984486363,0.061847180823885704,0.6599507317745509,1.1348489978190386,0.0,0.0,0.0,0.0
