zhuoxili-jackie/tripod-support-walk/examples/trajectory_walking_sideways_v0.20.csv
root_pos_x,root_pos_y,root_pos_z,root_rot_x,root_rot_y,root_rot_z,root_rot_w,FL_hip_joint,FL_thigh_joint,FL_calf_joint,FR_hip_joint,FR_thigh_joint,FR_calf_joint,RL_hip_joint,RL_thigh_joint,RL_calf_joint,RR_hip_joint,RR_thigh_joint,RR_calf_joint,FL_foot_joint,FR_foot_joint,RL_foot_joint,RR_foot_joint
0.0,0.0,0.72963,0.0,-0.5231245161092812,0.0,0.852256264656019,0.0,-0.81,0.872,0.0,-0.81,0.872,0.0,0.65,1.0,0.0,0.65,1.0,0.0,0.0,0.0,0.0
-0.00018637234716100266,-0.00013655755918381109,0.7296492988137769,0.0001835740377629794,-0.5235749991322459,-5.990548408257013e-05,0.8519795672406553,0.00038918414848078804,-0.8054943741343431,0.8665206601105409,0.00038918414848078734,-0.8069056661261906,0.868273608998876,-0.0006014452836896346,0.6510799846119939,1.0005477347107234,-0.0006014452836896343,0.6503713857959145,1.0012884666928903,0.0,0.0,0.0,0.0
-0.000641990382311793,-0.0005703381493364962,0.7296204478010967,-8.531042183142649e-05,-0.5233872695440653,0.0001417074829851191,0.8520949118028631,0.001112018048401295,-0.8039380674150769,0.861919020758562,0.0011122999809209818,-0.8060104573811818,0.8657365199436836,0.005325273340266286,0.6479982026245251,0.9990694589465289,0.0053218597887462835,0.6494959467870018,1.0033240925025195,0.0,0.0,0.0,0.0
-0.0011626681418346794,-0.0011718005991827388,0.7295376197248105,-0.0006653840657537768,-0.5227586028616659,0.0005263643473253969,0.8524803360422679,0.0019625178605923756,-0.8052323931088852,0.8593614481000449,0.001963654746679216,-0.8072679645263879,0.8651689254895267,0.015316043452324315,0.6423836793843866,0.996365860598074,0.015448875762540554,0.6479778466646167,1.005795022933255,0.0,0.0,0.0,0.0
-0.001178592424090038,-0.0016315832750860289,0.7294390923242133,-0.0009440481212036162,-0.5225166397438652,0.0007090102551673843,0.8526282702727975,0.002806928185049492,-0.806516553055598,0.8596201877202114,0.0028103653401848577,-0.8093685158749392,0.8676945987102954,0.021000177081804496,0.6402738073506524,0.9948741317859062,0.021402921425084504,0.6478635543385887,1.0079612776968203,0.0,0.0,0.0,0.0
-0.0006422452100682876,-0.0018586096028717063,0.7293257993404413,-0.001000468498977446,-0.5226235671638019,0.0007368228242564994,0.8525626447363802,0.0033445983245943773,-0.8087057128359696,0.8639607298202163,0.0033495706886314033,-0.8123777340285656,0.8734998199660241,0.02299273457683111,0.6413446630032439,0.9948112263834625,0.02356174368661045,0.6494592302700496,1.0095379524692474,0.0,0.0,0.0,0.0
0.000433885563845978,-0.0018781926985237884,0.7291565471733459,-0.0011043396252961495,-0.5226907117483544,0.0008102892331298739,0.8525212863719881,0.00326888141172344,-0.8148628025370788,0.875101377172102,0.0032745049241855394,-0.8180385932551798,0.88422272857849,0.024330533606047214,0.6434854500548676,0.9953791873181423,0.025008457447335267,0.6524049014688971,1.0104265972608735,0.0,0.0,0.0,0.0
0.0020914222885347594,-0.0016456478623207507,0.7289299671274451,-0.0012894767879655892,-0.5226842264625292,0.0009617855446391546,0.8525248451660788,0.0023953889457982757,-0.8255020579427653,0.8936840863590344,0.002400837418115343,-0.826476453208089,0.9000536893144875,0.025099406102224765,0.6466510890813165,0.9965506447797132,0.025841892686740465,0.6568510679531795,1.0103760198761593,0.0,0.0,0.0,0.0
0.00446961221332646,-0.0010225912990496377,0.7287677943473275,-0.001199168595924236,-0.5231791966144481,0.0009405635850910923,0.8522213360182209,0.0008143330125743283,-0.8366959980844964,0.9169086936153896,0.0008192965371241904,-0.8350152714212153,0.9189084607093891,0.020736168127980178,0.6545462155751384,0.9990445111175387,0.021293529950115367,0.6641503378630433,1.0084971275886625,0.0,0.0,0.0,0.0
0.007740862252416401,5.03021911797089e-05,0.7288892215754218,-0.00012988725638564665,-0.5252026048458834,0.0002525508645840534,0.8509771696176462,-0.0007302217772373327,-0.8406869956734399,0.9387485599792084,-0.0007303505761589687,-0.8393033894251684,0.9375250768249683,0.002961275570654169,0.6740243484334376,1.0034602987688654,0.002851650853296174,0.6762395290916527,1.0036778759173142,0.0,0.0,0.0,0.0
0.011628793754919913,0.000976022758648083,0.7290214010963598,0.0016104180254243989,-0.5279925853286794,-0.00094919821738144,0.8492469225228105,-0.0009599838061958618,-0.840721059432098,0.9596172381453806,-0.0009604820123048398,-0.8439785587205948,0.9593490981790372,-0.024411017190421887,0.7012465818504637,1.0079383461728735,-0.024399950436887835,0.6896345613579716,0.9985653048982832,0.0,0.0,0.0,0.0
0.014167148561770133,0.0010239531409544907,0.728610043330318,-0.00010288034247870106,-0.5255123765809259,0.00012893899317008468,0.8507859394998476,-0.008215150320397694,-0.847998013811443,0.9361376710241247,-0.002938775385835744,-0.86757100987587,0.993096759455456,-0.006691008927982925,0.6954176271045656,1.0020300599535947,-0.006583352618435633,0.6945097400003711,0.9952168813115234,0.0,0.0,0.0,0.0
0.01663592647974656,0.0012047623157538485,0.7281690957069559,-0.0008942788322530812,-0.5244634516816097,0.0006241507428498547,0.8514322630435331,-0.01929279988662396,-0.8567522870176393,0.9202280882566212,-0.004337775285434376,-0.8838654284429802,1.0186306116146908,-0.0005387638373593236,0.6963161354420323,1.0005811648530782,0.00024312884668161415,0.699671768443624,0.9938467840899133,0.0,0.0,0.0,0.0
0.019080014869786832,0.0016808205824130112,0.7278034481062569,-0.0003110497387031226,-0.5256896486635579,0.0002063789953722233,0.8506763508783791,-0.030951670757249944,-0.8638105213174152,0.915438155462461,-0.004854304738651547,-0.8893824712448628,1.0334262210021217,-0.012156046294407733,0.7086990088369475,1.00500348138008,-0.010902325764021477,0.7064074596406539,0.9938911386046312,0.0,0.0,0.0,0.0
0.021100663722063838,0.002033252209969495,0.7274701482803948,0.0004834168257002581,-0.5273314687953575,-0.0003512032849101708,0.84965944058932,-0.04158111659201527,-0.8720692176901517,0.9150004245775197,-0.0047733547391335665,-0.8913470024512262,1.043241244439069,-0.026404495067968922,0.7223052805444741,1.0098631760617411,-0.02436203879060713,0.7123401283908563,0.9948673169211183,0.0,0.0,0.0,0.0
0.02227919824708583,0.0019277437595357802,0.7272289822734753,0.0004185798296737544,-0.5276128805989179,-0.0003471334186171854,0.8494847570824493,-0.0513546692003592,-0.8836807668780615,0.9121359604737176,-0.004491126166527297,-0.8958140390578514,1.0523730521987755,-0.026446317344221492,0.726245478785522,1.0101652929777312,-0.023944022138302115,0.7158418917481133,0.9959439006944266,0.0,0.0,0.0,0.0
0.022718467477934302,0.0014418409709817798,0.7271812691451534,-0.00012717864964262933,-0.5270037680281294,-3.561644928521377e-05,0.849862936620496,-0.0604180227974641,-0.8963067724476976,0.9068685787604003,-0.003738887752933006,-0.901039700725191,1.0596894715022651,-0.0159038647818747,0.7233084060206705,1.0067061926236514,-0.013792390614362668,0.7177600626998741,0.9967010139871256,0.0,0.0,0.0,0.0
0.022717760347107176,0.0007069461760686194,0.7272968067052131,-0.0006370577603664803,-0.52635955728952,0.0002745968861638409,0.850261803919205,-0.06887979874933577,-0.9082649927971072,0.9008272598419533,-0.0023350945032542575,-0.9046115978318728,1.0641113611520996,-0.0034976024254062543,0.7193119459015904,1.00157346515013,-0.001618904554459618,0.7191227804463248,0.9974800405637548,0.0,0.0,0.0,0.0
0.02243472639581902,-0.00027788835167487987,0.7273570477817762,-0.0013172323714416177,-0.5253768243529249,0.0006278213370571839,0.8508684170728658,-0.07707314760767825,-0.9228490098895211,0.8947544421974889,-0.00027493859855796596,-0.9092473752100442,1.0684338414737036,0.012222061497172105,0.7125693288694077,0.9958065002724946,0.014229455549931314,0.7190119137296483,0.9995374931422224,0.0,0.0,0.0,0.0
0.022453252435840097,-0.0008999053568026816,0.7275170182950289,-0.0004274659769002722,-0.5270682731389625,6.520077125111283e-06,0.8498228360550445,-0.08482301347078827,-0.9320705501015347,0.8964358680637358,0.002557078939039603,-0.902959914969749,1.06387282375256,0.005677448494909112,0.7212142387385133,0.995837258456297,0.00798312370863077,0.7217892942586901,1.0022323042814327,0.0,0.0,0.0,0.0
0.02260177481949961,-0.0011532006401415188,0.7279399152887889,0.0023711412101499177,-0.5316765764327348,-0.0018057559903999812,0.846942226487398,-0.09085300148518373,-0.9310043509138545,0.9034545981991325,0.0064452664224626775,-0.8837246142915168,1.0479880621102662,-0.027528642484674227,0.7475895748580138,1.001171369182303,-0.02526044699970609,0.7269799273293484,1.0043775547091236,0.0,0.0,0.0,0.0
0.021082708942515807,-0.0027554502470042057,0.7283963519793971,0.0005600355991389515,-0.5287787662950376,-0.0006546701191937842,0.8487592556683319,-0.10028867250990124,-0.9470841285194667,0.8904048010875287,0.008612419218203536,-0.890769907286599,1.0503807980272015,0.010443533508475714,0.7269532646086351,0.9874402882035639,0.01165097851816101,0.7248102078439059,1.004856623641,0.0,0.0,0.0,0.0
0.018915286728294768,-0.004672172122853006,0.72813715518504,-0.002528401084229433,-0.5237358254682776,0.0013597804475135925,0.8518758966575787,-0.11138117372120279,-0.9688768921480835,0.8698151115187349,0.010103545517163685,-0.9069239677076488,1.0574164557866124,0.06049712217829778,0.6920466883780299,0.9744193970227142,0.06523960957839525,0.715491332530745,1.0106510394407011,0.0,0.0,0.0,0.0
0.018008613087110617,-0.005950702069939311,0.727928981561942,-0.0037460288683157576,-0.5223337559295543,0.002353336757939582,0.8527296620209398,-0.12198965243964811,-0.9841164649010389,0.861023857634194,0.011439491605602817,-0.9108894415940749,1.0583313225625433,0.07709001130745038,0.6817717323817925,0.9676240074897327,0.08783708616396473,0.7124056785976537,1.01537207236937,0.0,0.0,0.0,0.0
0.019292501529907878,-0.00570313106998153,0.7288028890385503,-4.796307533348623e-05,-0.5280441520486798,-0.00014735296875258887,0.8492169036670412,-0.12535793872406056,-0.9783978418973206,0.8727170059739282,0.015345307882456392,-0.890198989968715,1.0462769358741688,0.036541529489033296,0.7179591130849803,0.9727662568592111,0.043178080394932095,0.7240444791749233,1.012199816769083,0.0,0.0,0.0,0.0
0.020436214842846967,-0.005301020588070955,0.7285350029338127,0.0036095222884656403,-0.5337335469532549,-0.0023720670194957868,0.8456416767778192,-0.12988764956494483,-0.9727568629279058,0.881163615164299,0.017824104806359195,-0.871354645124632,1.0330302678941512,-0.012267136434102786,0.7512354584812914,0.9874964763977399,-0.006808032140707222,0.7285381666151863,1.0177050517889312,0.0,0.0,0.0,0.0
0.01933693919320201,-0.0071406546146252445,0.72831795440646,-0.0006427783068349193,-0.5268456535062233,0.00023781406239307458,0.8499606977161477,-0.14479604613096644,-1.001471345564491,0.8585502007128297,0.018411820620997697,-0.9002244498666667,1.0567118856977995,0.053226170685639444,0.709768373440546,0.9689003999429162,0.061166313849804595,0.7219739054144609,1.019198026784559,0.0,0.0,0.0,0.0
0.01830513533067773,-0.008706719038298949,0.7271413881563571,-0.004506980218766491,-0.5212645095164745,0.003089513525362896,0.85337767322214,-0.1631169520487566,-1.0269099478437753,0.8407055785746826,0.017143387964316352,-0.9243434698961321,1.0741792876887666,0.09729624765600461,0.6750081339901742,0.9595878088971493,0.11715410354928751,0.7113893407451641,1.0282370257447728,0.0,0.0,0.0,0.0
0.01921348734756234,-0.007699179561561886,0.7276680703283804,-0.0006932105108327741,-0.527757686499666,0.0007787656297189502,0.8493943355849518,-0.17140399430723088,-1.0119502118865467,0.8602883414853586,0.01826806427748079,-0.8967692673115342,1.0528105818019329,0.0499518294996824,0.7114109107041627,0.9719451967175393,0.06553246025983578,0.7216956414223712,1.0271883927595113,0.0,0.0,0.0,0.0
0.02027346193537912,-0.005824860808289194,0.7275877375314295,0.006834336831435204,-0.5377277680220233,-0.00558481155075333,0.8430723273943168,-0.16416023816482805,-0.976886783208042,0.8868793751251064,0.02565378262141842,-0.8606241386076978,1.0203656591614325,-0.06696694719441298,0.7774523810423338,1.0032417196062282,-0.060912795875119025,0.7174962681967838,1.029026589779675,0.0,0.0,0.0,0.0
0.017983458273278567,-0.00814783989335683,0.7284792131940551,0.0015156797472226104,-0.5293147805188279,-0.002444830828470548,0.8484206436912229,-0.17967429187223455,-0.9922537946899249,0.8728259663703257,0.02665024935593018,-0.8878429507240889,1.0392586683053087,0.010431061875821074,0.7307249914116302,0.9711953420840482,0.022969316412010277,0.7112418921301462,1.0218811760411406,0.0,0.0,0.0,0.0
0.0158108029414457,-0.010405757071066812,0.7286166315813326,-0.0026777806997883733,-0.5233628176264533,0.0008916532211612553,0.8521052725873469,-0.19441323678405514,-0.9960673189463634,0.8589509736893266,0.02601394255890331,-0.9051719652461823,1.0484882473229857,0.0578689708356336,0.6991003144335752,0.9464875796227686,0.08536216501349894,0.7028927576015478,1.0212656160912965,0.0,0.0,0.0,0.0
0.014570284787670907,-0.012040193708000916,0.7282658365175907,-0.004729772406627183,-0.521140050584825,0.002774811467582441,0.8534535589888572,-0.20625856909535673,-0.9918352793331915,0.8580150504566484,0.02621700706623379,-0.9109117269919548,1.0497568760155576,0.07700896550057665,0.686415313624713,0.9352034882137331,0.11491194729304458,0.6970151635365184,1.0257507906263608,0.0,0.0,0.0,0.0
0.015613444390744878,-0.011840799050546793,0.7289761960953663,-0.0007063621575978038,-0.527089112775666,2.4705416673181487e-05,0.8498097243709947,-0.20745073065259045,-0.9647225248621009,0.8807719266369464,0.03050772173058441,-0.8886738283490068,1.03486376255491,0.029546155068737923,0.7241416365397751,0.9424036374290599,0.06595734077473793,0.7063380408885608,1.024393944719718,0.0,0.0,0.0,0.0
0.016532926549712203,-0.011506126356991933,0.7284902713891204,0.003617698497888741,-0.5333231903075661,-0.0029512900685955746,0.8458986799993655,-0.20947195833496368,-0.9388062723340058,0.900382818713495,0.03459565745037662,-0.8679016924185688,1.0182278888775327,-0.031312327972322404,0.7606776632627297,0.9614848632283037,0.0072890443259486445,0.707655639760375,1.0327478195490993,0.0,0.0,0.0,0.0
0.01521231020913784,-0.013701005464147936,0.7279983071500021,-0.0004625891161328183,-0.526854604612995,-0.0003990070056271534,0.8499552061154775,-0.22444536884515393,-0.950670139243208,0.8903707558197883,0.03625134057772993,-0.8957020614180888,1.039851828095713,0.03151549779863891,0.7210348271951077,0.9441638508861134,0.07099625123810385,0.6984581932524757,1.0372948249520773,0.0,0.0,0.0,0.0
0.013837339190619453,-0.015512107039695855,0.7268336848254405,-0.002724777057069786,-0.5239294067543173,0.001384538085578141,0.851756206541724,-0.23864340644399273,-0.9536726842766088,0.8884080110409103,0.037515391027408695,-0.9077014622307182,1.0448362090384393,0.05950334333059851,0.6984610570915979,0.9403595673076215,0.1072994778683333,0.6883882405551051,1.0498207192888371,0.0,0.0,0.0,0.0
0.013891510205728654,-0.014184492675999303,0.7275532580281956,0.006005122548269391,-0.534372896469501,-0.006300541579187722,0.8452040281481065,-0.22809159224840805,-0.9085402148197534,0.9142224416304443,0.0490842026208207,-0.8652652475565866,1.0039410275743303,-0.057724113546392036,0.7653162836704186,0.9688603955708833,-0.019045213841827696,0.6857842768994032,1.0499022384946943,0.0,0.0,0.0,0.0
0.011074917998445967,-0.017110593258934367,0.728925091409141,0.0018633746843409358,-0.528465290576754,-0.003630362340145233,0.8489451012637342,-0.24173851409654473,-0.9150533000118755,0.9097179557002509,0.051838197023176574,-0.877554049258709,1.0077588044921724,0.0011661590156752527,0.7348948447116486,0.933495803858224,0.04736507818658112,0.6810731318455324,1.0420875819575748,0.0,0.0,0.0,0.0
0.00805006452043619,-0.020256168889740342,0.7296497216873205,-0.001013696438525259,-0.524568558788049,-0.0014353626307900802,0.8513663954401054,-0.25147263784124707,-0.9114953500363399,0.9026813484915616,0.055624359948637195,-0.8824830639882514,1.0031677644934487,0.041162680714088656,0.7140852442492931,0.9051726981766289,0.09646923946939223,0.6735189847484487,1.0413633619237808,0.0,0.0,0.0,0.0
0.005539837068781587,-0.022763168739950705,0.7300237863059855,-0.001652054624411066,-0.5243291269183559,-0.00086665782473231,0.8515136442152688,-0.26089548923988365,-0.9023653174422318,0.9086126120698129,0.060541908841213854,-0.8736965233564893,0.9867483727629975,0.05295357194729601,0.7106287626476547,0.8905658879741052,0.11506777088763016,0.6684950576616043,1.0456181560730995,0.0,0.0,0.0,0.0
0.0038799287556636583,-0.024640346717445957,0.729950190649208,-0.0007877306647616584,-0.5261507431051564,-0.0016455972719006285,0.8503893620100795,-0.27255796116636377,-0.8952509434852801,0.9261972424755199,0.0664673752315005,-0.8605841209805202,0.9683514515944905,0.049259940098843255,0.7155675939360119,0.8891429334929224,0.11494392236651162,0.6654282727286038,1.05470816078536,0.0,0.0,0.0,0.0
0.002907545382012252,-0.02571047572090079,0.7299293218967144,0.0005444171154356797,-0.5290113336777906,-0.002755516927923281,0.8486101104611643,-0.290127070731322,-0.8931086211634414,0.955961388889894,0.0707739471704564,-0.8436071262402275,0.9485363142203815,0.038913346246150705,0.7254293786274832,0.8931862946806678,0.10685827893823983,0.6666076917845086,1.0626494512664058,0.0,0.0,0.0,0.0
0.002746470390696716,-0.02590898712799134,0.7301950537010033,0.002399629755757023,-0.5330302690162341,-0.0037668979555670378,0.8460843838349155,-0.31266965710499617,-0.8962838517454309,1.0037133274957135,0.07205511273226035,-0.8214672389122419,0.9271900292991776,0.0211973800802276,0.7424533583601964,0.8996263459688982,0.09142119195566534,0.6742771025340099,1.0672077986887079,0.0,0.0,0.0,0.0
0.003429828007537057,-0.0255082614362154,0.7306227147257562,0.004510730282736589,-0.5374351195934833,-0.003950860883096431,0.8432837815576302,-0.33578560444613165,-0.9069159976473994,1.0692407751913464,0.06939492484592254,-0.7988967226762814,0.9092898563570867,0.0017281956363712839,0.7630835221566861,0.9054635380402611,0.07544549618427314,0.6877391889595678,1.0688643602652859,0.0,0.0,0.0,0.0
0.003446199766221494,-0.02555564669245851,0.7305568187834011,0.0044040749712437235,-0.5374089927253735,-0.003870278943599526,0.8433013693825273,-0.33580825133848047,-0.9069548788718546,1.0692275040316952,0.06933858371636153,-0.798984798945845,0.9091458512858389,0.001288108643339083,0.7633003374276037,0.9052371003688297,0.07586567346719264,0.6875821079075112,1.0690855086387256,0.0,0.0,0.0,0.0
0.003446199766221494,-0.02555564669245851,0.7305568187834011,0.0044040749712437235,-0.5374089927253735,-0.003870278943599526,0.8433013693825273,-0.33580825133848047,-0.9069548788718546,1.0692275040316952,0.06933858371636153,-0.798984798945845,0.9091458512858389,0.001288108643339083,0.7633003374276037,0.9052371003688297,0.07586567346719264,0.6875821079075112,1.0690855086387256,0.0,0.0,0.0,0.0
0.0007879252809321669,-0.02853258513954081,0.7315303304934203,-0.003240043127308059,-0.5238503038075748,0.003346239803453725,0.8517976074164698,-0.35094416878110285,-0.9769393251349816,1.1164205260675255,0.06425587742920379,-0.8519716981254156,0.9543424699648826,0.04876958326923993,0.6432637390001343,0.9317382544608852,0.20283822258259254,0.6789491427234797,1.0568350437068754,0.0,0.0,0.0,0.0
-0.0010394064873024372,-0.0324947743620054,0.7309771890086126,-0.012239330481984062,-0.5117775828208591,0.011724890101518845,0.8589507735973574,-0.3690700750673782,-1.0457581064740105,1.1598681100003112,0.058183063646112046,-0.9011032500910697,0.9970383227095609,0.14755787813488336,0.5225150984475837,0.9503495431704031,0.31448701636176246,0.6607737072551455,1.051416847331541,0.0,0.0,0.0,0.0
0.0027050601182701394,-0.031071273932513296,0.7350974928899601,-0.0008720037465695851,-0.5264743682355107,0.000522571681793359,0.8501903940408425,-0.33511283660573626,-0.9578936769844631,1.1160713653364673,0.07714274574673444,-0.8462859600642424,0.9657047204330229,0.05987076289397017,0.6282680328072062,0.990876337970701,0.18732271721216273,0.6994802456782168,1.0311005212122542,0.0,0.0,0.0,0.0
0.006670242040251555,-0.03074681820039819,0.7372336550164572,0.007612655864469522,-0.539469975329624,-0.007906876015119628,0.8419332957546135,-0.31278673390093953,-0.8839355916043871,1.0753615227792694,0.09059468144442841,-0.7988741788404081,0.9397630988278859,0.015846805361365984,0.7070459471997192,1.0343502691827715,0.06020758527863265,0.7210983303199734,1.0186449892913902,0.0,0.0,0.0,0.0
0.010128887408836001,-0.03132212538226271,0.738423566365385,0.014546348703505891,-0.5498365041166736,-0.014569891017946153,0.8350185271931853,-0.2961183547423116,-0.8254303821327327,1.0409625239505644,0.10192582730839084,-0.7634425984877269,0.9220880793965027,-0.014184772610927227,0.7748033484641279,1.0552176350269207,-0.0669007355149698,0.7259858110163177,1.008268504789574,0.0,0.0,0.0,0.0
0.008055848641112976,-0.03460530854022387,0.7419985345816699,0.007398646997390613,-0.5354761959804134,-0.007745345910402989,0.8444823936457657,-0.30905179746798644,-0.8940833689618931,1.0937761933900192,0.09896819766453807,-0.8174633507255219,0.9748024569526468,0.004576116124896081,0.6738284034750452,1.068065906641341,0.06201108061863314,0.7298352307432197,0.9700089147524644,0.0,0.0,0.0,0.0
0.006280926861179048,-0.03863459917259096,0.7449519535065128,0.0006992429921631278,-0.5272311913223496,-0.0009379501000074961,0.8497210731797016,-0.31780255282309744,-0.9280459613751585,1.113931606338493,0.09606444994563111,-0.8381484156640465,0.9956161763355499,0.04697319101175207,0.6031341340817047,1.0650278505590711,0.15796240217543653,0.7377855048793344,0.9382991840309828,0.0,0.0,0.0,0.0
0.0050095089521405714,-0.04282808004622133,0.7466172564691411,-0.0045294179919139,-0.5212891282176508,0.005026057239265841,0.8533533077942358,-0.3239116483415415,-0.953799822145388,1.1279368952543751,0.09474666102807143,-0.8549238128477052,1.0134135491200087,0.08598390217421953,0.5516937434187262,1.058329078199089,0.23388980859403058,0.7409288573989463,0.9192406321488732,0.0,0.0,0.0,0.0
0.003979502209267675,-0.04735091830858583,0.74656626395544,-0.009972332618192047,-0.5152226049105463,0.010087562062905241,0.8569390066177232,-0.32758211873724613,-0.987191244985136,1.147568764687839,0.09715802736269513,-0.8805976276004673,1.0378588463680007,0.13969364245385751,0.4891629351849493,1.064574210115167,0.30485386258219815,0.7326644640938882,0.9160521356129744,0.0,0.0,0.0,0.0
0.006698311073105326,-0.04677106751826284,0.749504191198403,0.0018722968926362733,-0.5283212125679653,-0.0017903075300591527,0.8490406266216055,-0.2939269169297121,-0.9038766228593041,1.0992528212915902,0.11769517021657959,-0.8334185961796974,1.007626558250282,0.02977255794059816,0.6090050679069327,1.0962435097758134,0.17847394642658307,0.7592587286110937,0.9072397529327806,0.0,0.0,0.0,0.0
0.009249886897711064,-0.047050273408456564,0.7504755218321806,0.010637527619161907,-0.5391026207863935,-0.010945414948820061,0.8421017783848884,-0.2711156828133219,-0.8371287925477909,1.0552468971004467,0.1332666629183459,-0.7955189097019366,0.9827367652226201,-0.04970946425221781,0.6961574576199471,1.1296461632692283,0.05212333904851818,0.764729860723751,0.9059233187460698,0.0,0.0,0.0,0.0
0.010035930340416806,-0.04930908571517218,0.7509750678573274,0.011876472843096756,-0.5425742334073707,-0.011360863027002769,0.8398470583543726,-0.26588137313487525,-0.8135161077859961,1.0351707588468253,0.13714400483455555,-0.7796986829098426,0.9739774522851604,-0.038291885892186836,0.7068759736624075,1.1434844363263716,0.03680376186010226,0.7702122267934631,0.9060930715093842,0.0,0.0,0.0,0.0
0.007083449905775275,-0.05285352602741565,0.7524225033442583,0.0037611921483022767,-0.5297205018044991,-0.004051502614290041,0.8481542481932043,-0.27583710339206147,-0.8777922635897967,1.0771946803094519,0.13543802014866213,-0.8265182296608146,1.0112849537319057,0.008581344455684994,0.6001197264176099,1.1485468820178333,0.16311429100205213,0.764929105656972,0.8864851429560685,0.0,0.0,0.0,0.0
0.004801448653526873,-0.056627862172180056,0.7526619117446123,-0.003199693472880838,-0.521293790353561,0.0034029001628767454,0.8533644979555797,-0.2861708356319021,-0.9211194309644117,1.0994031307921406,0.1316128831342464,-0.8549567174017696,1.0322799535955693,0.06379733461520004,0.5254276832116599,1.1411623089194487,0.25431583327538576,0.7557436537234054,0.8763844534057431,0.0,0.0,0.0,0.0
0.0033930211616557534,-0.060011608820858195,0.7517567102352277,-0.00749705904891998,-0.5173812538546189,0.00804112643250298,0.8556843883997978,-0.2904888964637691,-0.9428362599645884,1.1059981890556039,0.13123585906842486,-0.8696299396092642,1.041825123383528,0.1027637473296937,0.4814066613896659,1.1470006558890913,0.3063876170852792,0.7440891587822344,0.8817298928301421,0.0,0.0,0.0,0.0
0.005102791956873309,-0.05868000363681668,0.7538322843780709,0.003724206623098135,-0.5290806388802104,-0.0034274043707710907,0.8485564570176908,-0.2624855260991936,-0.863714325561487,1.0531820596567463,0.1476817996450883,-0.8230968897603312,1.0054881120578385,-0.010589895564264096,0.5957224083885851,1.1746195317479646,0.17992160538627142,0.7607001088442851,0.8784109095362813,0.0,0.0,0.0,0.0
0.0065685210585692535,-0.05818450834209433,0.754033259660811,0.012224296950129342,-0.5377509293020242,-0.012626032204834575,0.8429205703443515,-0.24308992978815258,-0.8059791271926477,1.0098959254492195,0.16126622564105053,-0.7918752217433239,0.9795756775046714,-0.09553976241498635,0.679106849748126,1.1939204137977855,0.05315288923214531,0.753779488175625,0.8809985289978607,0.0,0.0,0.0,0.0
0.004966546405917156,-0.06109796741883309,0.7556177266651999,0.005531577163598861,-0.5293823185125471,-0.006732194816703654,0.8483386352473363,-0.25078029386704825,-0.8480059901726381,1.038288160644404,0.15953620545936148,-0.8198454433042829,1.004173907211046,-0.05367199102432155,0.6084392747866295,1.204239148958077,0.13861155008683565,0.7542133956580458,0.8568661064964789,0.0,0.0,0.0,0.0
0.003441061328274723,-0.064117666107767,0.7568255102770696,0.0014974021246627889,-0.5250753564240351,-0.0023962183313961626,0.8510510478230773,-0.25411268648924956,-0.8643712972876546,1.0431499560426145,0.15894196747707273,-0.8294025967174323,1.0109253090238979,-0.04137471754147516,0.5776783913137046,1.1911440466776948,0.1909654938623435,0.7547868478757387,0.8405824253266547,0.0,0.0,0.0,0.0
0.002229171224899981,-0.06689845152255952,0.7570983348726015,-0.0005272047811651732,-0.5231002338881642,-6.46555846088976e-05,0.8522710033674277,-0.2529283304580111,-0.8695706449401847,1.0394527575808228,0.16123780327390844,-0.8335977212456165,1.0122136076132122,-0.05231634430483974,0.571778364347989,1.1761831767695379,0.22143447613544642,0.7516280069398116,0.8381437245831579,0.0,0.0,0.0,0.0
0.0016971726722043324,-0.06893846329566886,0.7570886683147493,-0.0003390020383758732,-0.523414196896988,-8.008856806794575e-05,0.852078316324339,-0.2477581477624033,-0.8632490796900495,1.0297727985565208,0.1658869173997165,-0.8318336035908322,1.0095553819123444,-0.07474100186597216,0.5832932345499103,1.1643438441561318,0.22754978234220602,0.7492277472603102,0.8424609024530064,0.0,0.0,0.0,0.0
0.0016886499526476818,-0.07026490595682428,0.7568555358002707,0.001090389300374448,-0.524802493745033,-0.0014335519218159096,0.8512221205649296,-0.24127621260842552,-0.8526960870262085,1.019435078643297,0.17126757488067199,-0.8283482399565907,1.006527101040763,-0.09692963211934891,0.6016002929329269,1.154488302358052,0.21927295678247588,0.7470686889437285,0.8504955444186627,0.0,0.0,0.0,0.0
0.0017168053273845783,-0.07125401581442722,0.7559987247772734,0.002777332514704141,-0.5262331611080026,-0.003063143282704072,0.8503302674417814,-0.2352297684883841,-0.8440245772418974,1.0103705370209066,0.17645743101969963,-0.8269068890412707,1.0043631968572093,-0.11477369008517216,0.6194565862163268,1.1440232968366784,0.2072655021510794,0.7411671857945619,0.8648602854986597,0.0,0.0,0.0,0.0
0.0013383739853815217,-0.07252774302574784,0.7550892792958808,0.0029680873625981975,-0.5260937155556474,-0.003235085390612547,0.8504152674621834,-0.23187960087405507,-0.8447172777500422,1.0071566406885981,0.1800709105758592,-0.8307979492322004,1.005784219628727,-0.12408834735828694,0.6248493071884306,1.1317995771537228,0.21237738939404036,0.7341252808430879,0.8774531722262606,0.0,0.0,0.0,0.0
0.0005826722144388778,-0.07406814092564776,0.7544235528250277,0.0027388923419939043,-0.5254801017624131,-0.0029928158510889417,0.8507962177712031,-0.22859204370300543,-0.8459325174869509,1.0026208474329077,0.18357838798338755,-0.8344674253080139,1.0057889491111904,-0.1334581388338759,0.6268313469900898,1.1180138523649616,0.2233504832289176,0.7274826690326407,0.8873913838250226,0.0,0.0,0.0,0.0
-0.0004822540728551219,-0.07583364398017572,0.7540008138279811,0.0028190664940593163,-0.5251560747309579,-0.003040311194343416,0.8509958322724712,-0.22378945318572363,-0.8423723356759328,0.9924514394239713,0.18791124724115887,-0.8348033838051733,1.0015577905027224,-0.145106877961406,0.6308418634613779,1.103835155237901,0.23216224624565238,0.7212572307429327,0.896007430804499,0.0,0.0,0.0,0.0
-0.0019013093105262583,-0.07793790188784173,0.7538081292768845,0.003055221897667752,-0.5249241383922684,-0.003239899574243169,0.8511373670583612,-0.21755715223800104,-0.8350469079045735,0.9771432852831516,0.19314151315149422,-0.8326119702620045,0.9937015697942027,-0.1572958669794437,0.6354641158995178,1.0895647809652604,0.24084208733727408,0.7151196350791679,0.9033151621178666,0.0,0.0,0.0,0.0
-0.0037709414028742356,-0.08049818322998717,0.753850584525872,0.003125607846972629,-0.5244565928053512,-0.003274464739217106,0.8514251527405451,-0.21037247048363997,-0.8256588887162946,0.9574787178041394,0.1990218543491318,-0.828888378520688,0.9827970019166452,-0.16876473161077152,0.6382386078753509,1.0750415764755563,0.2530775159591296,0.708792893487225,0.90884444769694,0.0,0.0,0.0,0.0
-0.006128761312258703,-0.08350312221847042,0.7541195682489954,0.002928586866961714,-0.5237001793643473,-0.003034175901664807,0.8518922110744475,-0.20252656426245286,-0.8143855951000576,0.9332265399383967,0.2052893673299115,-0.8235400609755333,0.9684946882374651,-0.18063584953591602,0.6387953420183298,1.06050791866087,0.26949648575817986,0.7021901498801394,0.9123627066021115,0.0,0.0,0.0,0.0
-0.008888133201354334,-0.08680350579235024,0.7545594245299262,0.002404032350806083,-0.5226661311135862,-0.0024475300752179376,0.8525305540634557,-0.19462022756340522,-0.8018697478716499,0.9052267975618044,0.21144845955295333,-0.8167891793748822,0.9511645703336352,-0.19585521429969444,0.6380875623942247,1.0469401374755047,0.28954012563719483,0.6953634880436097,0.9137906350047877,0.0,0.0,0.0,0.0
-0.011782883904159111,-0.09011524246119859,0.7549685123937445,0.001192038010473447,-0.5210062800187978,-0.0010647935035109953,0.8535513466928341,-0.1886342746537636,-0.7932223290902126,0.8793245564125309,0.2161912258047067,-0.8119493925762166,0.9348832184860806,-0.2167823833012983,0.6367331394596077,1.035652073717967,0.3152006075505763,0.6879426411345384,0.913377097172791,0.0,0.0,0.0,0.0
-0.014404490872938958,-0.09311484301874476,0.7549288968339481,-0.0005018554561477813,-0.5188774027866458,0.0009356330834356387,0.8548480061444954,-0.18521746780416815,-0.7913963654586815,0.8603994128420078,0.21929366958848656,-0.8117766161762413,0.9236078093176378,-0.24887842144361977,0.637528753383256,1.0289587939161122,0.34271301605446464,0.6785879294375917,0.9145967915004136,0.0,0.0,0.0,0.0
-0.01662815949265088,-0.09549136888572231,0.7539751049688154,-0.0021720235819191113,-0.5167371231786463,0.0030276409712618768,0.8561360062704787,-0.1840549686615062,-0.7956053405996887,0.8484066474348886,0.22098022415173382,-0.816312409378196,0.9171906387278032,-0.2924845326873669,0.6397798623736856,1.02973037633761,0.36628062189421556,0.6651809114205836,0.9228062395646828,0.0,0.0,0.0,0.0
-0.01809800674696217,-0.09686009758373249,0.7525939331333487,-0.0032653030075381635,-0.5150408826916432,0.0046373833642427715,0.8571468495118062,-0.18478742244690124,-0.8029375813072203,0.8437466009441871,0.22126092784167625,-0.823331090323291,0.9156738072762658,-0.3415126153178292,0.6401851965233396,1.041301675191091,0.38024699498937053,0.6516196956606324,0.9339180818336091,0.0,0.0,0.0,0.0
-0.01806980683568988,-0.09692157420275667,0.7525480140695122,-0.0033228345969594027,-0.5150607085634001,0.004680554575986673,0.8571344805065717,-0.18478622178379678,-0.802904128541452,0.8435736416421727,0.22132355222770086,-0.8233856554002826,0.9157698977213301,-0.34153586002328673,0.6401494991438271,1.0412947385794222,0.38028201844525994,0.6515299386890677,0.9338024681743536,0.0,0.0,0.0,0.0
-0.01806980683568988,-0.09692157420275667,0.7525480140695122,-0.0033228345969594027,-0.5150607085634001,0.004680554575986673,0.8571344805065717,-0.18478622178379678,-0.802904128541452,0.8435736416421727,0.22132355222770086,-0.8233856554002826,0.9157698977213301,-0.34153586002328673,0.6401494991438271,1.0412947385794222,0.38028201844525994,0.6515299386890677,0.9338024681743536,0.0,0.0,0.0,0.0
-0.018414982813556524,-0.09710810474929515,0.7532065033149496,-0.0015028991524176165,-0.5166773299282407,0.002749417702890152,0.8561744674624773,-0.17932743466066875,-0.7847860131156511,0.8254630383397062,0.22455234138473656,-0.8118834670903631,0.9032876672212912,-0.3676249771066336,0.6530834795383338,1.0395220374711576,0.36506065559469436,0.6546641566907544,0.9318735530641862,0.0,0.0,0.0,0.0
-0.019070890051406924,-0.09799779564967488,0.7534538730433479,-0.0009634563795380125,-0.5173905707841427,0.002021530761574071,0.8557464475116702,-0.1749986788108831,-0.7730570499061107,0.8100498167438218,0.22752786259507934,-0.8045197197793323,0.8932623092862324,-0.37105981214650274,0.6562077482335293,1.0375544501554816,0.3637638563693373,0.6546631244949783,0.9328503183626171,0.0,0.0,0.0,0.0
-0.019781288868969356,-0.0992680630737709,0.7534405295378942,-0.0010890237874762792,-0.5175274462912606,0.0020164349794243907,0.8556635380524348,-0.17150387378503057,-0.766229320545203,0.7981342623663428,0.23030401885048915,-0.8007546555491059,0.8864799683778005,-0.36077639802504774,0.6535815413263184,1.0356769133943218,0.370577049503651,0.6530562034554976,0.9357068665684204,0.0,0.0,0.0,0.0
-0.020143358218733597,-0.10047008737663729,0.7533827590219603,-0.0011932770007528164,-0.5175671905046794,0.0020586905881026037,0.8556392587978621,-0.1684883006055141,-0.7623415437389247,0.7910090577513577,0.2330117715931042,-0.7995968403510089,0.883965339061535,-0.3512620483358074,0.6515484350248918,1.0339230253816332,0.3776103745827429,0.6519972498764298,0.9386554494114643,0.0,0.0,0.0,0.0
-0.020115783194384826,-0.10145272765319964,0.7533438592750609,-0.0011978201489841775,-0.5176427994227317,0.0020377362709226446,0.8555935630096677,-0.16602558842415555,-0.7606803216649478,0.7885205608864533,0.23546003973401877,-0.8002241595896703,0.885134789448253,-0.3452153512038776,0.6513465797930182,1.0323939255457566,0.3834446951739953,0.6521032219551602,0.9411475735076001,0.0,0.0,0.0,0.0
-0.019682840912110002,-0.10217932925360086,0.7533237885058706,-0.0011630078020441336,-0.517739761534337,0.0020024616472545565,0.8555350237638266,-0.1643043681157359,-0.7616248363533625,0.7911788911777081,0.23749225975550864,-0.8027120928229686,0.8901434731334599,-0.34209511658532904,0.6528093968779713,1.031148586875409,0.38847221320337777,0.6534982259132186,0.9430941344962398,0.0,0.0,0.0,0.0
-0.018825439193157066,-0.10266422086172793,0.7533159395273183,-0.00112941201052311,-0.5178330821471125,0.0019869076796222187,0.8554786237308358,-0.16336955983672788,-0.7655098479080354,0.799374971135758,0.23911128612212465,-0.8072851347994427,0.899294235700239,-0.3412952181700949,0.6557710868347483,1.0301451791363128,0.3931593365853188,0.6562195641771876,0.9445162114717914,0.0,0.0,0.0,0.0
-0.017519998597489855,-0.10295867356683286,0.7533157023092717,-0.00111088229559604,-0.5178996534771759,0.001994072768346763,0.8554383312329072,-0.1631139806093423,-0.7725042194885753,0.8132821055211108,0.24047412870216234,-0.8142007167106726,0.9129207096362971,-0.34238344971373563,0.6601888606055348,1.029233117644075,0.3978911993768256,0.6602797712662912,0.9454665149591567,0.0,0.0,0.0,0.0
-0.015728868559936954,-0.10312669223025697,0.7533546393186756,-0.0009769187671187394,-0.5180153555255694,0.0018560743566369293,0.8553687462477355,-0.16300363925447447,-0.7817157837166454,0.8321375182469251,0.2420656270468802,-0.8231976988716322,0.9308834391089398,-0.34723455091155947,0.667085973583402,1.0281731462915564,0.4017702476581878,0.6658812328618589,0.9459264402094055,0.0,0.0,0.0,0.0
-0.013370164393138841,-0.1031579355626726,0.7535769636328763,3.645468748983417e-05,-0.5186927310573669,0.000556558872742236,0.8549605485994819,-0.16067659966720574,-0.7880649597191501,0.8518336907487949,0.2457491392007356,-0.8319035642277427,0.9510239895698309,-0.3697795340466876,0.6822437721431244,1.0271491816488043,0.3968031649808987,0.6735749579222718,0.9458053787458265,0.0,0.0,0.0,0.0
-0.011022716699629705,-0.1029061979339547,0.7533526942195404,-0.00037888808663117995,-0.5180936796881107,0.0011859703567357206,0.8553229734932671,-0.1637954508424831,-0.8070435996016571,0.8824488709566485,0.215459938929045,-0.8249412099303325,0.9212552441028858,-0.36884177941116214,0.6857743200619825,1.0268873227074444,0.4044235186657772,0.6789502195418665,0.9458046444854951,0.0,0.0,0.0,0.0
-0.008633245848790893,-0.10263636314756476,0.7532479515109122,5.9638933529644246e-05,-0.5182506079208322,0.0006409766789934212,0.8552285618369995,-0.16415392827603778,-0.8186928190883068,0.9062147887805482,0.18322388287146663,-0.8241417741991935,0.9020716262100434,-0.38467849891348643,0.696238060427936,1.0276701721752062,0.40348932250500447,0.6851260870748737,0.9465807256387524,0.0,0.0,0.0,0.0
-0.006741822178734383,-0.10272742917198088,0.7531013893816101,0.0010360735855684815,-0.5190029799233618,-0.0006831713563028965,0.8547715289240124,-0.1614768827763023,-0.8221661179690797,0.9192965096290471,0.15624985344298242,-0.8264941449880403,0.8904009528665708,-0.40954512503523754,0.7095421817118805,1.0298201097737685,0.39827996473521204,0.690002654358025,0.9499446992803294,0.0,0.0,0.0,0.0
-0.005630506427925942,-0.10340283212312808,0.7529698153364028,0.002319737304377525,-0.5201333734983233,-0.0023493690082785766,0.8540786691267703,-0.1561892829289788,-0.8176776649344191,0.9204818012926583,0.1371830903571658,-0.8292920692365098,0.880793929850999,-0.43628371734921506,0.7229957517633421,1.0318200647910232,0.392244282569686,0.6930995319318829,0.9552128698493351,0.0,0.0,0.0,0.0
-0.005852827468913874,-0.10624550849593216,0.752574785235004,-0.002077898600784343,-0.5152229285529868,0.00330057802468594,0.857047327990346,-0.1628949508630553,-0.8533808394391288,0.9480044566035624,0.10325866289031316,-0.8453637172807241,0.866109068972359,-0.31032022855502583,0.6786143325451223,1.017425325096935,0.45176454851498926,0.6878715712190057,0.9522212193480877,0.0,0.0,0.0,0.0
-0.004819448221910181,-0.10724025558313091,0.7528957424890121,-0.0009254564742603303,-0.5164846387646013,0.001629531416645303,0.8562944038576193,-0.15662661116757326,-0.845857998500744,0.9461557065985531,0.0911811892975616,-0.8504099353353227,0.8608855078250167,-0.3391799965418191,0.6948851021443159,1.0129152137063846,0.44654717193604127,0.6929273443458343,0.9528498933774251,0.0,0.0,0.0,0.0
-0.0036435986438084354,-0.10801601952763122,0.7527107834096188,-9.96236327229659e-05,-0.5173615687238758,0.00028273406495429995,0.8557668592228556,-0.15182144989489507,-0.8439996203696893,0.9497993192166186,0.07561102334922225,-0.8583215619513713,0.856531375286392,-0.36123544455974105,0.7062844372745499,1.013483788534286,0.44433716355710057,0.6958149417861408,0.9575943934287159,0.0,0.0,0.0,0.0
-0.0025317198948094223,-0.1086764064752171,0.7523384100670081,8.419901353057592e-05,-0.517706386107918,-0.00033524823658600986,0.8555582845734272,-0.14899798166660674,-0.8471201303613767,0.957402902062792,0.05628630106689922,-0.8671892072265452,0.8517662341934062,-0.37063562590538396,0.7119888166009646,1.01514049969389,0.4479500673187757,0.6976827088595084,0.9627377728649841,0.0,0.0,0.0,0.0
-0.001286344489660177,-0.10863880204398929,0.7524222661600348,0.0018364262528245718,-0.5195801225550631,-0.0029388621075244776,0.8544147042705881,-0.14301309879557622,-0.8376690709071631,0.9560353568895569,0.04194399008705958,-0.8720905326427852,0.8487763854812617,-0.41657837874706605,0.7329573220462444,1.0184903911293723,0.43284354618358495,0.7031895095437292,0.9663867912289394,0.0,0.0,0.0,0.0
-0.0006978798487524015,-0.10883190087355767,0.7524575546884957,0.00421487485496396,-0.522100568265358,-0.006266057247116402,0.8528504956752521,-0.13460678545848917,-0.8193070755167506,0.9429879012499979,0.03477184458039162,-0.873814018234965,0.8439966410813468,-0.47844974682241437,0.7581498059042513,1.0235843486437455,0.41096238275951924,0.7066932721597031,0.9724171251985038,0.0,0.0,0.0,0.0
-0.0016082578029784217,-0.11162639379752122,0.75241636767437,0.0007136146187231277,-0.5177445297450197,-0.001026128683902732,0.8555343591774723,-0.14020813021443654,-0.8457206269409318,0.9585208171166706,0.008156577037051829,-0.8846244789543646,0.8307496549906748,-0.35189723858684585,0.7138409852115604,1.0079347101576657,0.463774939243233,0.7011737243764398,0.9676850627278716,0.0,0.0,0.0,0.0
-0.00239218672012916,-0.11465061572408325,0.751492804677898,-0.0045200035980247815,-0.5119176990465217,0.006262127960407602,0.8589997815621353,-0.15072514315512883,-0.8877061090791946,0.9863955196315731,-0.02826973168497698,-0.8967171359328523,0.8143780215415456,-0.22590039224945865,0.6622975787408332,0.9921564458406237,0.5279855163921108,0.688728902230376,0.9654644539165517,0.0,0.0,0.0,0.0
-0.000973197950113319,-0.11420321834289827,0.752888940599943,-0.0006700112044933102,-0.5158706900474062,0.0007413023290736921,0.8566658816048739,-0.13829468688915436,-0.8580422747048256,0.9706975048841527,-0.030213911026772403,-0.8975014438700613,0.8110064477308196,-0.31632247265639035,0.7065817700396443,0.9885064341940588,0.48861071874819223,0.7023909900870183,0.9605450274489503,0.0,0.0,0.0,0.0
0.000751577645611571,-0.11396410037596043,0.7529310275663758,0.0012221902429484011,-0.5183679143175713,-0.0025532315174522056,0.8551530229531317,-0.13143789997674593,-0.8464045858001091,0.9697138075270376,-0.04599015536445873,-0.9046183674582283,0.8091227296886006,-0.3839784015730213,0.7355747020421923,0.9921953931140832,0.46842040917958333,0.7094235987130557,0.964441711866056,0.0,0.0,0.0,0.0
0.0025651615784840335,-0.11367749925547851,0.7526059064039269,0.0032557447772667194,-0.5208272428727599,-0.005967743308534532,0.8536350328139701,-0.12451191088978229,-0.8364401831788785,0.9704411191561372,-0.06210055879320404,-0.9085449886828327,0.8047200251644688,-0.4583311946503994,0.7648772730585555,0.9996884075320898,0.44721239859101164,0.7148101583425926,0.9719683809893366,0.0,0.0,0.0,0.0
0.003584118417558458,-0.11402610170946383,0.7523669083083262,0.005790805258778758,-0.5237275292443334,-0.009916512219713706,0.8518084317917245,-0.11451975671212561,-0.8173928637368022,0.9585441144618063,-0.06787152279985077,-0.9080222808661836,0.7992696435376022,-0.5451097713678204,0.7979863780011853,1.0065238030267354,0.42253306244750993,0.7183997878584149,0.9808152956327304,0.0,0.0,0.0,0.0
0.0027542897592910537,-0.1175764450595603,0.7523810311983686,0.003199227498932936,-0.5195613626495792,-0.0054320225104900225,0.8544098832039385,-0.11656934721184756,-0.8399820797859425,0.9703141235147728,-0.08963710341694271,-0.9127713798224167,0.7894860977437096,-0.4184435792402569,0.7554654259993759,0.9892036279783913,0.47120281956291177,0.7120474891650055,0.9771167954214457,0.0,0.0,0.0,0.0
0.0016046999611394376,-0.1217826605083784,0.7521101674230244,-0.0005940653288619852,-0.5144636351816765,0.0006304243914492323,0.8575117595270205,-0.12075582507532191,-0.8693397977457504,0.9847125967762898,-0.1110487713309519,-0.9101752034641588,0.7783157930205951,-0.2923099394456415,0.7098154153542218,0.9679309415697471,0.5301760522857664,0.7015349432602839,0.9729327585635426,0.0,0.0,0.0,0.0
0.0009010877903835732,-0.1256591344799463,0.7508805806399588,-0.005200061589063136,-0.5093561878180971,0.007335812902270306,0.8605088140977687,-0.1278232699724593,-0.9059351617189269,1.006035600345951,-0.14055679412673336,-0.9055924654264851,0.7726766463432311,-0.19177864846198303,0.6674501387810833,0.9519478999128398,0.5882319687910365,0.6863747963450554,0.9738167831363439,0.0,0.0,0.0,0.0
0.0024389733528472216,-0.1254673340019973,0.7523506147621737,-8.854184803000131e-06,-0.5142819765252951,-0.0005128111885223253,0.8576210034552116,-0.10869842788674677,-0.8663346984444773,0.9832694182830803,-0.13202514614783212,-0.8901127674792201,0.7753359718086072,-0.29942070351950884,0.7202697946803224,0.9514613638643391,0.5391270160945546,0.7022807344187412,0.9726812572293195,0.0,0.0,0.0,0.0
0.004473027600847082,-0.12575592092693066,0.7525120996762311,0.0024976747263171896,-0.517391643570916,-0.004992301981353237,0.8557305216625586,-0.0977685114185376,-0.8486083148538087,0.9782319735304128,-0.14254899781016472,-0.8786477899562257,0.7817005687227914,-0.380162222136871,0.756573285220197,0.9544821451898605,0.5160850560388441,0.7117069636049077,0.9776652992521047,0.0,0.0,0.0,0.0
0.0064822836181948635,-0.12672257547374305,0.7517622802559369,0.004001931342585696,-0.5193110577407479,-0.008011433431008597,0.8545383705768251,-0.08873925925310538,-0.8423599462109064,0.9812021627365521,-0.15600806987412186,-0.8667589971192334,0.7853034084172915,-0.4403716362214767,0.7810235516718668,0.961471072590986,0.5080183658745157,0.7158990542224599,0.9893960989222597,0.0,0.0,0.0,0.0
0.007738462384986177,-0.12863552086376823,0.7509218511132969,0.005987526566203086,-0.5215864769087728,-0.011687102348414071,0.8530973615421694,-0.07546140407329627,-0.8275606651475926,0.9718205494156633,-0.15859773641598307,-0.8529534750727177,0.7868064776563304,-0.5039482769282834,0.8063171977649863,0.9690659272728793,0.5003839186235673,0.7182555230482567,1.0047868404933045,0.0,0.0,0.0,0.0
0.007416755911513065,-0.13384670413811475,0.7502041169238235,0.004364210346653187,-0.5167598328402402,-0.007494489967763525,0.8560864801240002,-0.07306474213387767,-0.854197821298301,0.986497309368225,-0.17993133150140941,-0.8467422196503721,0.7822029457486505,-0.3764594108011895,0.7622863973102744,0.9521045590615264,0.5482800425495745,0.7057559292288891,1.0074069735939468,0.0,0.0,0.0,0.0
0.007323755909164421,-0.13981514269694267,0.7490983814077874,0.001222035140559608,-0.5109126692461555,-0.001666378209029897,0.8596301380346946,-0.07240161164368675,-0.8914491630045506,1.009358855719865,-0.20564688665891973,-0.8388710883949521,0.7760160230723745,-0.2504210444478985,0.7166628419496069,0.9300452900984828,0.6084618327680128,0.6898589241634822,1.0091281966256838,0.0,0.0,0.0,0.0
0.00885852461007708,-0.14329456842684182,0.7497323930583175,0.004969281297962777,-0.5143632603954832,-0.008080381722862313,0.8575199414765367,-0.04782333359887444,-0.8574180859539879,0.9853659474578531,-0.19421292643615728,-0.8233670412489734,0.7789956858158769,-0.32496986747086576,0.7585084335403417,0.9209265066241393,0.5908231612206384,0.7009051822468451,1.0147142046949498,0.0,0.0,0.0,0.0
0.010578447347653433,-0.1474231577757027,0.7493093052910825,0.008052696253611427,-0.5167592427309082,-0.013313057484073887,0.8559893700482799,-0.02543289207193607,-0.8329495360097324,0.9672586139046434,-0.18894602015976927,-0.8103031517268647,0.7802734211758667,-0.3843513231475115,0.78946984015098,0.9180901899768686,0.585583649935549,0.7065377122218583,1.0284858140940616,0.0,0.0,0.0,0.0
0.011700787864003689,-0.15471604135957917,0.7484039220866807,0.00634619897444929,-0.5116805771555252,-0.009524614091016126,0.8590995253442889,-0.016294696983144515,-0.8620712764451276,0.9872912660427982,-0.20841470189344105,-0.8037161940957397,0.7749094189901407,-0.27247901601200275,0.7567507510131446,0.8918383832728927,0.6416637182443374,0.6956737686611872,1.030662057058908,0.0,0.0,0.0,0.0
0.013352374441829698,-0.1617120981357606,0.7472008697422597,0.006275904655546385,-0.5092881220792367,-0.008948870233505692,0.8605266639978699,0.00012318261120622745,-0.8724281143659723,0.9931391842723448,-0.2158536592901211,-0.7927004794684033,0.7696116915313862,-0.2286831750281072,0.7493414273840319,0.872525186401026,0.67901845837268,0.6891011197967616,1.0394142844227998,0.0,0.0,0.0,0.0
0.01567804582245507,-0.168165444558222,0.7455774594147304,0.007595987667404676,-0.5080434996662427,-0.01061016093204674,0.8612325631925613,0.02073638004764825,-0.8756571558559174,0.9964299150459995,-0.22181934968882708,-0.7806644654640877,0.7615663286469176,-0.21367196915337489,0.7516639086799544,0.8629270510704234,0.7039001801511434,0.684767092361606,1.0545431475704625,0.0,0.0,0.0,0.0
0.018570687896469196,-0.17403496856730058,0.7435581254588934,0.009240331454025537,-0.5065752307907042,-0.012635940505368414,0.8620536438247386,0.041011007384596586,-0.8829086773992797,1.006081906740417,-0.23372195307356636,-0.7661569044306846,0.7460877549812638,-0.20348382067108847,0.7534382954436248,0.8587608009749034,0.7249876939744511,0.6801452714344975,1.072092855537858,0.0,0.0,0.0,0.0
0.021890965960263353,-0.17892498883825717,0.7412006714367951,0.01115885763344006,-0.5048230565996902,-0.014940989551161833,0.8630213950145701,0.05981942351565642,-0.8948153760365619,1.0225605706680017,-0.25212978516781837,-0.7469500360920881,0.7175613011083214,-0.20145405447693945,0.7546645533016947,0.8602887088119283,0.7389078472438714,0.6746016944709399,1.0910203436747128,0.0,0.0,0.0,0.0
0.025550730860101036,-0.1823235070628765,0.7387294554326805,0.013365031848123314,-0.5027052638903257,-0.01757873567677904,0.8641757816744592,0.07600618931481423,-0.9119689566508957,1.0470442297871418,-0.27756405196290046,-0.7218927117461048,0.6686736757017668,-0.21236288896248282,0.7564623650252408,0.8667463004508289,0.7397140066513496,0.6678075487623669,1.108965120733187,0.0,0.0,0.0,0.0
0.02802094146608719,-0.18404808749485352,0.7366741606086178,0.015144755585043464,-0.5001539359302335,-0.01946089317442433,0.8655853224198171,0.08627649916200411,-0.93037771548891,1.0693311372485768,-0.30304963346662395,-0.6905247049675914,0.5942983220036637,-0.22389132681868093,0.7530644080334602,0.8740370930811615,0.7260821694088471,0.6561284838367726,1.1213588866103616,0.0,0.0,0.0,0.0
0.028208663120779746,-0.1842253499317577,0.7365804801817325,0.015383728131472447,-0.500007302355795,-0.019415404780001037,0.8656668415486909,0.08684277600969918,-0.9305442876434467,1.0693509947351083,-0.30309234716349437,-0.6904492182887598,0.5943229978551221,-0.2240687473204916,0.7530298624574733,0.873666486974303,0.7262906773195645,0.6559708117604743,1.121696433148359,0.0,0.0,0.0,0.0
0.028208663120779746,-0.1842253499317577,0.7365804801817325,0.015383728131472447,-0.500007302355795,-0.019415404780001037,0.8656668415486909,0.08684277600969918,-0.9305442876434467,1.0693509947351083,-0.30309234716349437,-0.6904492182887598,0.5943229978551221,-0.2240687473204916,0.7530298624574733,0.873666486974303,0.7262906773195645,0.6559708117604743,1.121696433148359,0.0,0.0,0.0,0.0
0.030695275012856252,-0.18458052054804747,0.738107594367478,0.012171103471818325,-0.5036691895929645,-0.015471127856716208,0.8636723081689524,0.07814317177399172,-0.9282894828267766,1.0789228310273635,-0.30924599035534744,-0.6606834408987622,0.5800180109190454,-0.18573556857584744,0.7682940317133636,0.8602508534237385,0.6496235097717147,0.6638854336192032,1.0873637576884392,0.0,0.0,0.0,0.0
0.034022509289627176,-0.18465380962663036,0.7381452717387359,0.009750585194264104,-0.5073938892696023,-0.012591500878687474,0.8615670730278973,0.0716883406578314,-0.9309185331974735,1.095239455106123,-0.31438337998566185,-0.6436119219504953,0.5797003668060882,-0.1591668516557515,0.7809902023711864,0.8616036572166551,0.5556000658668064,0.6704826202965881,1.0788480523324957,0.0,0.0,0.0,0.0
0.03829374898534908,-0.18405875868504307,0.7371503497126423,0.009401799979527812,-0.5131427968578537,-0.013598687707313881,0.8581440158170909,0.07275729768133514,-0.9209832961397191,1.105877549310473,-0.31214655683195347,-0.6371756315585657,0.590501920160011,-0.18275034968847098,0.8098163989894541,0.881717011582366,0.4527199457676728,0.6912424886319789,1.088658136881307,0.0,0.0,0.0,0.0
0.04311666424176866,-0.18332278574468275,0.735356718457198,0.009858168384124774,-0.5193489510342307,-0.016068446060645284,0.8543543109371841,0.07697099467142354,-0.9097021208746726,1.1172132437920954,-0.30761478756633065,-0.6396469889093842,0.6116174057036687,-0.23976527612078452,0.8498986314416127,0.9087332720882081,0.3621654211112547,0.7183557512024698,1.1030469183623628,0.0,0.0,0.0,0.0
0.046301412870125166,-0.1851686817786106,0.73263075749592,0.0063838218406555595,-0.5156989914462503,-0.008500495668116847,0.8567038803538964,0.06532976268002644,-0.9648857381228567,1.1694910800570655,-0.32524791475628523,-0.6678741527376127,0.6644006779290669,-0.11310973731018892,0.8043426391382598,0.908608440550715,0.3345008358669184,0.6998316316680868,1.1133535476233984,0.0,0.0,0.0,0.0
0.050974991108416155,-0.18408355868617904,0.7316781315374438,0.008685774019790139,-0.5227404133272291,-0.014719279163240829,0.8523205737426907,0.07735137726661374,-0.9367578218919086,1.1680916097534122,-0.3126717493586819,-0.6736528825188741,0.6850920480088348,-0.22964185122324085,0.8699952065470644,0.9300647422297368,0.24759922462932407,0.7285710905733658,1.133996935373055,0.0,0.0,0.0,0.0
0.054847078649158484,-0.18370565420537757,0.7307414910349453,0.008604262988333432,-0.5285804874675977,-0.01767526297289366,0.8486555367201604,0.08351269066760471,-0.9194898936592102,1.1700704067643806,-0.3052328494418312,-0.6693179326215049,0.6945105604005146,-0.35581553386930453,0.9393798866594909,0.9414528343309809,0.20164339719847446,0.7586546302415932,1.1498246276565283,0.0,0.0,0.0,0.0
0.05569109901953077,-0.1864440589198491,0.7300924015136139,0.007351264112266776,-0.5247833145165113,-0.012491271500144839,0.8511124484210801,0.07852480620731776,-0.9489752146337205,1.1912842633235585,-0.31449498899419814,-0.6924032983412964,0.7328606723911947,-0.2264341325813542,0.8936634848464264,0.9249983826800026,0.19262410279440542,0.7325619418662873,1.1692620447990711,0.0,0.0,0.0,0.0
0.05583556661767778,-0.18956388559020707,0.729236953909939,0.004840350493134128,-0.5206713365784419,-0.006307863296851308,0.8537201773024641,0.07243062296624231,-0.9808993982253577,1.2097489834557085,-0.32428768684890347,-0.7082406847007647,0.7600902152720087,-0.09835735567238471,0.8439008354489556,0.9090550673242149,0.2005054649232338,0.711251985114571,1.181372984567137,0.0,0.0,0.0,0.0
0.05730142507775897,-0.19008300762056288,0.7295610394985483,0.006221176260787807,-0.5273516597910092,-0.012398095771720843,0.8495338787257606,0.08869338062835508,-0.9362903469771588,1.1810202543313404,-0.3050704578979534,-0.7007260952429959,0.7578777020288063,-0.22504960813275426,0.9139889890377537,0.9150629744326867,0.12402720835590271,0.7238910563042473,1.2009853808867719,0.0,0.0,0.0,0.0
0.056818631006580037,-0.19320418806084533,0.7293841998226362,0.004103016285733057,-0.5230733309385146,-0.006278518955531833,0.8522546778504482,0.08222877239244815,-0.9637601120269135,1.193782265227924,-0.3144653975172849,-0.7132614917484639,0.7797307303484164,-0.09628716929603084,0.8633195024180169,0.8939415412305148,0.137437726562467,0.7019646245737933,1.21536309080853,0.0,0.0,0.0,0.0
0.05650809793295196,-0.19628484329754653,0.728237771074074,0.00017560357962029952,-0.5177534942438373,0.002000270763442072,0.8555274906620783,0.07091534929615503,-1.0072212473664472,1.218227153475225,-0.3291210930138051,-0.7238144733772793,0.7990950660919073,0.031040044374914894,0.8055525962799488,0.8761341613821266,0.17275720568919165,0.6873200845659154,1.2206771910827694,0.0,0.0,0.0,0.0
0.05845948345348289,-0.1960157659353649,0.728619758753107,0.003265839265513451,-0.5236660971088369,-0.005535859315197519,0.851899352796052,0.08851441752826165,-0.9649707215048933,1.195596662933347,-0.3102608734340335,-0.7277979119868878,0.8086553594163068,-0.0947390714186013,0.8726887169633901,0.8848308199662894,0.09088602884333483,0.69477966505879,1.247651549854299,0.0,0.0,0.0,0.0
0.06071054914179084,-0.19597389717187652,0.7280795582273368,0.003953858832454907,-0.5290688321848991,-0.010096445665120716,0.8485096343564823,0.09926645021707059,-0.937596552758689,1.1827750878947072,-0.29745526035809505,-0.7243717202052228,0.8122653442815779,-0.22144749939018354,0.9366808099100304,0.8950891155818562,0.046479342522284056,0.7154545704305528,1.2685075888674613,0.0,0.0,0.0,0.0
0.06220486021282299,-0.19651083351388066,0.7275664958182552,0.003111214020628978,-0.5334965269856956,-0.012014664840846834,0.8457111941261514,0.10533294239193204,-0.9182853157132059,1.171497245384852,-0.28908752657044057,-0.7139982839952433,0.8080803675093255,-0.347785603532794,0.9988785366638538,0.899997979239749,0.025822497605792985,0.738488285170809,1.2811305652816594,0.0,0.0,0.0,0.0
0.0610984363332466,-0.19957109753177366,0.7269409126065077,0.003552573717430562,-0.5293277508715325,-0.008517762190898394,0.8483672312769549,0.10442754167205599,-0.9354039919483518,1.1734669845732226,-0.2933071439627333,-0.7374596630872338,0.8358857121321828,-0.21679534387631905,0.9407997766075635,0.8893158500450721,0.013651162113153942,0.704470821581524,1.2960619209338717,0.0,0.0,0.0,0.0
0.059277950631660185,-0.2028515001271507,0.7263562537694372,0.001990996232730504,-0.524872922660834,-0.0029861692745579652,0.851173033985769,0.09977631273119135,-0.9577119676313534,1.1756486384112794,-0.30041245360395086,-0.7492140469519464,0.8492420767282298,-0.08732956127342209,0.882062161956975,0.8758832348700967,0.02321595509146349,0.6766010356480703,1.2985520054823143,0.0,0.0,0.0,0.0
0.0576991998631314,-0.2061603921318608,0.7249291156614636,-0.001845882304304618,-0.5195865851251524,0.004888385823830178,0.8544018240620386,0.09014353076106763,-0.9957990779416485,1.1896198660901747,-0.3127625283996427,-0.757020947616319,0.8591129588803398,0.04008721828110587,0.8184338234404913,0.863938752142868,0.0678439606558295,0.6666796983325879,1.283957067284546,0.0,0.0,0.0,0.0
0.05854335918148403,-0.20636918341434607,0.725063957085299,0.0011661703572738071,-0.5250572509822014,-0.0025126471315057852,0.8510624006746532,0.10863633403680198,-0.9510986711930749,1.1588954770728843,-0.292511610384568,-0.7601311043049873,0.8635138570259769,-0.08376577089543194,0.8797934050339998,0.8742791378977042,-0.005245091947764083,0.6695567522931575,1.287447981014489,0.0,0.0,0.0,0.0
0.05968096068691403,-0.20669798851220073,0.7242639661573312,0.0021999303735208003,-0.5300906883582681,-0.007480298158206809,0.8479051052810529,0.12114923237517902,-0.9195694762145392,1.1366100012278113,-0.27750967988431285,-0.7574746527625184,0.8631612136178064,-0.21027072890079748,0.9377636094187884,0.8882789481570442,-0.04729474003896223,0.6874237326946198,1.280554909939978,0.0,0.0,0.0,0.0
0.0601919872321593,-0.207528981686937,0.7233590151255638,0.001963628939062761,-0.5340549268206353,-0.010014220561861284,0.8453881917122654,0.12910549768141177,-0.8968335794297061,1.1168149028174155,-0.2670313052293527,-0.7502245829157327,0.8575704942093583,-0.3363354332914384,0.9926464904479483,0.8986243895794961,-0.07108875639604045,0.7070636373752726,1.2653946767418547,0.0,0.0,0.0,0.0
0.05817269962686178,-0.2107712973472316,0.7224727464533751,0.0023900970235850357,-0.5299232626484071,-0.006853483893817378,0.848014535782732,0.12936149890820176,-0.9094574702687968,1.1100560379736917,-0.2692845088860656,-0.7710104734713814,0.8772645002548769,-0.20627315859941006,0.9304967186302688,0.8927247787297705,-0.07775693488617488,0.6800791189641961,1.2498710050346846,0.0,0.0,0.0,0.0
0.05548453107593289,-0.2145089972360813,0.7218624476178855,0.0007457540189315529,-0.5256237277730078,-0.0015917620799803136,0.8507153501297781,0.12639985670521456,-0.9256742811255322,1.1022646929400994,-0.27393089804200876,-0.7805856484933194,0.8848352021059614,-0.07782354517284706,0.8700251520513189,0.8802780284644225,-0.06685634383978564,0.6583284756418455,1.2282773700042409,0.0,0.0,0.0,0.0
0.05299288427027268,-0.21839150036168045,0.7203518388269475,-0.003252670395665578,-0.5207723753558813,0.006050273687669873,0.853667937426371,0.1187888543287811,-0.9564108180277903,1.105057914592359,-0.28352157353327995,-0.7855492974424101,0.888292859088345,0.04839883964845185,0.8055021190643739,0.8695106710027517,-0.016778654584830376,0.6563270555134215,1.197903963053166,0.0,0.0,0.0,0.0
0.052448126056742546,-0.2193465127844871,0.7199160900402564,-0.0006862992844878749,-0.5249311172021237,-0.00014558052016418185,0.8511444236981962,0.13577031203877213,-0.9144404655084141,1.0665959073711941,-0.264173165410594,-0.788548329688411,0.8875741274975523,-0.05189056310594803,0.8487136471881409,0.88189909277861,-0.08090768105793192,0.6528620272850296,1.1870302372146613,0.0,0.0,0.0,0.0
0.05212086029567971,-0.22031623855411475,0.7182366133387148,0.0013543583187427357,-0.5286862250958121,-0.0055463654035926855,0.848798137921081,0.15051194026766138,-0.8806497045700312,1.0323545554144071,-0.2471803055460663,-0.7936005215123886,0.8878855891861245,-0.1562181959210424,0.8860299138529037,0.9048720027277036,-0.14002086273025974,0.6549087795342845,1.170653300614155,0.0,0.0,0.0,0.0
0.05105984415909441,-0.22189294251504865,0.7162042156350743,0.0024570972795469057,-0.5313189146048859,-0.009051025133494891,0.8471199753282163,0.16212869792499013,-0.8537828432374892,0.9977465255115006,-0.23323055106001578,-0.7969818601082382,0.8847841050714499,-0.24241186505904522,0.9117721741453262,0.9268060335688517,-0.18047417055418072,0.6569877963677966,1.1510466571934885,0.0,0.0,0.0,0.0
0.048130854245136336,-0.2265432428822286,0.7152106770694118,0.0020696924153230283,-0.5276618617481457,-0.005745840818751492,0.8494325525567479,0.1655591816956666,-0.8562891302617889,0.9739366154921998,-0.23095184184883433,-0.8139881253467708,0.898489880879699,-0.11482599066636695,0.8515218618098039,0.9183756053490227,-0.1798567791912497,0.6405618144573089,1.1277736342885603,0.0,0.0,0.0,0.0
0.04472657262087709,-0.23232359587463752,0.7149331553434015,-0.000491567008910124,-0.5238399591388014,-0.00041663705668881253,0.8518164602688173,0.16755257930591125,-0.8597847342986598,0.9468452749768476,-0.2295116254004868,-0.8223246087646283,0.9058097656609789,0.01088796166807876,0.7962598170105012,0.8944885897275457,-0.1557235944656651,0.6345235983468901,1.1018907434393161,0.0,0.0,0.0,0.0
0.04154431656805379,-0.23737785850719625,0.7137463159211694,-0.002260696805577289,-0.5225274301749947,0.002292925767837442,0.8526163946676679,0.17343743042513118,-0.8479338811387148,0.9070765525396189,-0.2224349520345532,-0.8263077639154439,0.9051922502423445,0.05607935546606439,0.770163170615497,0.883552592211536,-0.16660416547487872,0.6284935767805894,1.0810545772708715,0.0,0.0,0.0,0.0
0.03854394212666983,-0.24176750572974456,0.7118190548343644,-0.0032190240248688162,-0.5217463035690146,0.003439796587087379,0.8530876862291686,0.18131639514422732,-0.832166629754068,0.8641945904409783,-0.21341405414438425,-0.8332523437272399,0.9043998305575163,0.08465752257668516,0.7472277008920765,0.8853510861927174,-0.19970988683831775,0.6202030826675909,1.0567842805370273,0.0,0.0,0.0,0.0
0.03561437486200498,-0.24533298982839352,0.7094167138902163,-0.0038476938587001176,-0.5211372031628451,0.0038445184591219257,0.853455581977993,0.18892481396553198,-0.8162498145405388,0.8215958657039351,-0.20474745500030989,-0.8400701675596893,0.9004748851493722,0.10523609755951249,0.7238061721003315,0.8966153864649474,-0.24707567920921636,0.609737955377364,1.0277758249823434,0.0,0.0,0.0,0.0
0.03322342752112472,-0.24795269156791172,0.7063951811166755,-0.004267442005270495,-0.5206569908999811,0.003917613503887697,0.8537462966655509,0.1951945819637374,-0.8049714607350642,0.7862068931650611,-0.19803625490573093,-0.8478831544324481,0.8964101722860721,0.11940122588425614,0.6997547436664285,0.9174609155757762,-0.3123030335861071,0.5956109431256347,0.9961129495027952,0.0,0.0,0.0,0.0
0.031722742901801534,-0.24935837896403676,0.7032184347425848,-0.0045588648954167175,-0.5205340294031369,0.0038635449240748557,0.8538200126518581,0.1989781695927364,-0.8000131022917488,0.7634733553871437,-0.1943610914773625,-0.8543380492305808,0.8921134120171693,0.1268968310809982,0.6789271313916714,0.9435742325054961,-0.386046318479973,0.5784924777532237,0.9680515588238131,0.0,0.0,0.0,0.0
0.031805592395485645,-0.24937586108916232,0.7030959016599219,-0.004696927356406551,-0.5205435385676513,0.003930756320525405,0.8538131601724263,0.19894179340443652,-0.8002146357604292,0.7631740152284384,-0.19447046943316051,-0.854375270554974,0.8921676433304844,0.12684515313917993,0.6789792581645449,0.9435411648130652,-0.3860741389133737,0.5784711507629425,0.9680286693716996,0.0,0.0,0.0,0.0
0.031805592395485645,-0.24937586108916232,0.7030959016599219,-0.004696927356406551,-0.5205435385676513,0.003930756320525405,0.8538131601724263,0.19894179340443652,-0.8002146357604292,0.7631740152284384,-0.19447046943316051,-0.854375270554974,0.8921676433304844,0.12684515313917993,0.6789792581645449,0.9435411648130652,-0.3860741389133737,0.5784711507629425,0.9680286693716996,0.0,0.0,0.0,0.0
0.031805592395485645,-0.24937586108916232,0.7030959016599219,-0.004696927356406551,-0.5205435385676513,0.003930756320525405,0.8538131601724263,0.19894179340443652,-0.8002146357604292,0.7631740152284384,-0.19447046943316051,-0.854375270554974,0.8921676433304844,0.12684515313917993,0.6789792581645449,0.9435411648130652,-0.3860741389133737,0.5784711507629425,0.9680286693716996,0.0,0.0,0.0,0.0
0.03300617962408195,-0.24694144282432512,0.7032863778339662,0.002825012268937027,-0.5258017275826855,-0.00856767609192316,0.8505593203904873,0.2211364147557792,-0.7389320805875773,0.7188909435641966,-0.16845316911940067,-0.8658970288984674,0.8980762970150001,-0.006386206327504196,0.7403709492737586,0.977149539783109,-0.509742615808682,0.5492542534834266,0.9360151027661527,0.0,0.0,0.0,0.0
0.03293992689664044,-0.2486899046691864,0.7051880563414397,-0.0017410333296296403,-0.5227183013939574,-0.002425235485414086,0.8525002430636611,0.21218173567527,-0.7687311429884901,0.7455212924655653,-0.17928684026470565,-0.8602114867311894,0.9025260577308529,0.067719379213319,0.7202023402043455,0.9384812145006861,-0.4404363136926295,0.5756809181943968,0.9351046410162797,0.0,0.0,0.0,0.0
0.03287229111483693,-0.25047923690260987,0.7060247929613619,-0.004922325413403217,-0.5208765298009753,0.00261644015158028,0.8536138270060715,0.20494063075645663,-0.7879370762420892,0.7591889154715803,-0.18730982731887738,-0.8556232971405798,0.90548934654232,0.1184464910769256,0.7060081433691124,0.9112668358757763,-0.38491156740168325,0.593369565015219,0.9419487218246421,0.0,0.0,0.0,0.0
0.03315383424331857,-0.25222278295668676,0.7058023345147197,-0.006637403308245934,-0.5202669910083673,0.005898109942357957,0.8539575020125597,0.2012887029553757,-0.7976983035488262,0.7639363240217094,-0.19127465785832914,-0.8556265082046168,0.9115243362624431,0.15009072300645646,0.6969459928924642,0.8982722940787653,-0.34848252931023416,0.6020884783965633,0.9553596880642874,0.0,0.0,0.0,0.0
0.03377658624514566,-0.2536603042610688,0.7044856216491016,-0.007776678199258443,-0.520102480980482,0.008664428283497852,0.8540245079836133,0.19818185339017483,-0.8086748326198375,0.770556741793958,-0.19522131852973887,-0.8591756900165476,0.9195530460165332,0.1771997463398962,0.6848651758847152,0.898926358526029,-0.3213702308706992,0.6051429555125143,0.9761745778954141,0.0,0.0,0.0,0.0
0.03497723502973131,-0.25441531346791185,0.7026413007669337,-0.008813658553085257,-0.5202977939678693,0.011684209796121961,0.853859475708104,0.1927978382666301,-0.8252370136703587,0.7860829239379851,-0.20194766326457514,-0.8621265365617855,0.9273935667210739,0.20408701898356316,0.6709769282409012,0.9073755136329068,-0.2990476192072699,0.6089440102062675,0.9981470583896116,0.0,0.0,0.0,0.0
0.036976999080689084,-0.25406810077120456,0.7006412173672615,-0.008952001380609823,-0.5216961223806535,0.014294078233696491,0.8529646516073927,0.18502822643098235,-0.8407527955258874,0.8066746658111704,-0.21075497936257476,-0.8615001756218973,0.9328590016016576,0.22116995189318622,0.6627150258709575,0.9237977531036851,-0.29383996090371634,0.6145234759387537,1.0154977860143877,0.0,0.0,0.0,0.0
0.039659651117629056,-0.25069623097420934,0.6992172959535555,-0.0032412192318573866,-0.5241657006787983,0.0013736404267061897,0.8516090217005533,0.21040423347599843,-0.8163900278709324,0.8069540654984906,-0.18760134120478583,-0.8944755044932744,0.9603004483709996,0.10437566129943215,0.7091891563119394,0.9716757125225134,-0.429737522774677,0.5735834015263924,0.9903440186838294,0.0,0.0,0.0,0.0
0.042676360405606815,-0.2481118613706473,0.698172564244669,0.003133441688180229,-0.5293559280078067,-0.006073006428136643,0.8483723248781188,0.2192326811543163,-0.783392119415852,0.7959395247437062,-0.1759018089829143,-0.903176599527761,0.9711695904219315,-0.024246037591384217,0.7696769017284647,1.0021322638801904,-0.5250645284742851,0.5556950180182181,0.9669870810528127,0.0,0.0,0.0,0.0
0.04381750894942891,-0.2512285703471482,0.7002041741219306,-0.0010661067509918321,-0.5254770695148288,-0.0011926380042816358,0.8508062590537836,0.21790409163294583,-0.8142523878591962,0.8270848913376515,-0.18066072476421005,-0.9144779446727592,0.9989222744522597,0.052120156584589156,0.7527022802515576,0.9562768816365748,-0.45079213353603065,0.5832559754521452,0.9661671470734067,0.0,0.0,0.0,0.0
0.04393089929122076,-0.2538943889288027,0.7017288355485357,-0.004245498200031191,-0.5231391976962555,0.0034817079932586183,0.8522295660725467,0.1912958306869606,-0.8435060101719742,0.8407770784265867,-0.1856458118875918,-0.9147741380687482,1.0097891111596973,0.11038892232785882,0.7398540081679308,0.9192236235940893,-0.38632019256805467,0.6052171790385528,0.9694494678954608,0.0,0.0,0.0,0.0
0.04385748988953351,-0.25635692123903736,0.7022778455832616,-0.005901273810246912,-0.5225123568035314,0.006731471372599571,0.852584716757341,0.1601115602361594,-0.8665443859061212,0.8466108871061967,-0.18740114599979668,-0.913433772984746,1.0155135757064098,0.1471607574164967,0.7332041570007728,0.896380741543799,-0.34183199652254326,0.6182350832235377,0.9792882939203673,0.0,0.0,0.0,0.0
0.04380077029494618,-0.25871199092547453,0.7016065223080512,-0.006444427013352043,-0.5228104563763285,0.009103799390852057,0.8523759832965121,0.12884371756047017,-0.8880082262088428,0.8495058854220998,-0.18756788247009118,-0.9145984605709425,1.0207003323932309,0.17498954667782066,0.7251260286181855,0.8892470099788443,-0.31160566760986486,0.6229480248896643,0.9987001525384905,0.0,0.0,0.0,0.0
0.043930747091067354,-0.2600944429440309,0.700409481401083,-0.004818511580922258,-0.5261930163006263,0.01051598937872871,0.8502864843745194,0.09557838996225364,-0.9047498949539583,0.8596074827400207,-0.1877240773548684,-0.9052530112455158,1.0141465650778914,0.18499099701930938,0.7262209148811161,0.8991265183461495,-0.31398844275658366,0.6250518905026816,1.0196904256565607,0.0,0.0,0.0,0.0
0.04413033745533593,-0.2589299656586088,0.6997511722230398,0.0005281748282769048,-0.5308716077148024,-0.004185083476145552,0.8474417633265129,0.11490557898852419,-0.9003026514606265,0.878674132482532,-0.15083222134773444,-0.922615963868323,1.0203761634048711,0.05447857848967946,0.7844884285564236,0.9383447464662803,-0.44995449813486227,0.5785985680082979,1.002502402956831,0.0,0.0,0.0,0.0
0.04183115520905653,-0.26204155183292677,0.7013709705838058,-0.0030703759696611155,-0.5255974862115196,-0.00031863301414420455,0.8507277788767325,0.08302115611770361,-0.9291374052014435,0.8641033081164358,-0.15206667203058502,-0.9294993146418801,1.02673339859191,0.11149500207581356,0.7568186128867886,0.8998903584892313,-0.3617596436671282,0.5915759400993231,1.0057006138944247,0.0,0.0,0.0,0.0
0.03980698035812548,-0.2651304408999024,0.7020481976425881,-0.005360808614562438,-0.5228101389557852,0.003150486881477146,0.8524264746993961,0.05879325413406547,-0.9465484735494059,0.8505726463523388,-0.15253028205266334,-0.9308685353091148,1.0274246066926547,0.15165681162576308,0.7394005330461922,0.8716839474964975,-0.2979255709060037,0.5983435038399623,1.0158613517307917,0.0,0.0,0.0,0.0
0.03824900452197899,-0.26774216787279365,0.7018726475310609,-0.0062849341128134815,-0.5222184556804593,0.005716840900994836,0.8527694306669455,0.03922252274011333,-0.9599351638774288,0.8429470746469367,-0.15207730498044011,-0.9283482608872905,1.023882552993451,0.17791498694256475,0.7286659118224706,0.8578526527549887,-0.2582860472404599,0.6006438828230017,1.031349707638546,0.0,0.0,0.0,0.0
0.03719604560325868,-0.26954645884496264,0.700968163195273,-0.0059078750575502536,-0.5236887104010642,0.0075680288024200645,0.8518555960670918,0.01789385827438367,-0.9750660658996892,0.8429799902563677,-0.15208047889281065,-0.9207093236551421,1.0149140064741253,0.1936776800789285,0.7220556664886566,0.8600010593528253,-0.24098390044785337,0.6008494015693036,1.0507648095982685,0.0,0.0,0.0,0.0
0.03684639307148098,-0.2697360632417745,0.6999169392032292,-0.001860686830240475,-0.529929308126891,0.00736441706052839,0.8480078016115377,-0.0062042751312414435,-0.9805352195906926,0.8564706918909487,-0.15114441666990988,-0.8973305416443225,0.9910697185047024,0.1775286263487608,0.7354735039464416,0.88370595161866,-0.2791494917874152,0.5998075766216677,1.0668465938229545,0.0,0.0,0.0,0.0
0.035855017436374315,-0.2679809133104882,0.6989491756154107,0.002814324801304478,-0.5347617587063064,-0.0072376979189785655,0.8449671926945357,0.01954047377181291,-0.975116295555182,0.8679154631550794,-0.11532590143219959,-0.902504123963322,0.979120163173292,0.0462860451308596,0.7877495273403206,0.9305608253602448,-0.4160564050324352,0.5493216083520832,1.0535844515332982,0.0,0.0,0.0,0.0
0.030930091390443896,-0.2705748816417461,0.6997054972225162,-0.002762024091708494,-0.5240441380493889,-0.0031759205350392105,0.8516807066781219,-0.01547815214704516,-1.0152379304907577,0.8345074443629247,-0.11820779582939175,-0.9245351041455895,0.983937235195697,0.11316760138475943,0.7286607402354923,0.8971264930351207,-0.29627434160917043,0.5471677121172231,1.0586018109496291,0.0,0.0,0.0,0.0
0.027548716908179817,-0.2735235832264205,0.7003264369379263,-0.006169614645569749,-0.5194074926443614,0.0004979048197368506,0.8545042682929169,-0.04419652049124471,-1.0299838979625977,0.8094511289863159,-0.1195455192257445,-0.9270133335265675,0.9784658883955288,0.14890044707103908,0.7058266723260326,0.8641897543375752,-0.22771384401718586,0.5459736165336966,1.0630805514483124,0.0,0.0,0.0,0.0
0.0265725589117775,-0.2754559771076481,0.7014550295281279,-0.00537655054218045,-0.5212943662050624,0.0009893210312204325,0.8533594188330184,-0.06312854612843427,-1.0310658083156965,0.8084221737299453,-0.1153721186149942,-0.9150066247083383,0.9690919390949665,0.14657694461823795,0.7203875322852511,0.8445706898435076,-0.22350130807435512,0.5505748492945639,1.0612356376289365,0.0,0.0,0.0,0.0
0.026470100350085544,-0.2768361943867862,0.7018107296060656,-0.003387891396419054,-0.5242096517878306,-1.734381004344818e-05,0.8515825050243574,-0.0777566643059522,-1.0358697830474162,0.8132989550563477,-0.1091441601594454,-0.9069615356555092,0.9641013522503611,0.13419289779711244,0.7370876523737973,0.8406420203899219,-0.23859639961525925,0.5513595704529426,1.0642973312310755,0.0,0.0,0.0,0.0
0.026386967809890607,-0.2781755138799985,0.7010912643808477,-0.002082847747229226,-0.5260866850694709,-0.000742147629717048,0.8504280750038612,-0.09359314873922502,-1.045150618565935,0.8145334911094567,-0.10396956732660853,-0.9056234527595446,0.9632196428109386,0.12901371999303995,0.7423972658169914,0.8464000496970104,-0.24703546839487764,0.54717350290947,1.076053443203583,0.0,0.0,0.0,0.0
0.026229800307717602,-0.27972150652570943,0.7004844304209007,-0.001982160798847421,-0.526394467252082,-0.0006787586936446812,0.8502378932814039,-0.11208400209018676,-1.0538715669291174,0.8121976796260088,-0.1001732975249508,-0.9092620417592322,0.9673929041567542,0.13735626229362155,0.7400789629074185,0.8461023934414025,-0.23969465377666108,0.5446481194650185,1.087273260919587,0.0,0.0,0.0,0.0
0.026194836098198383,-0.2812673162683799,0.7001576130609479,-0.0022593539264691926,-0.5261548946970109,-0.0003976722377589901,0.8503856560190814,-0.13124805275008555,-1.0579396330149413,0.8116224919636869,-0.09687932771862431,-0.9147016177399235,0.9743540841202356,0.14966610120693147,0.736884869834791,0.8414800244622099,-0.22743371214048347,0.5441821051211287,1.095871345746636,0.0,0.0,0.0,0.0
0.02649664790900294,-0.2825985538649649,0.6999696289889958,-0.0022809224296426157,-0.5262978357950144,-0.00029036462580237003,0.85029718400024,-0.1501053300674708,-1.0565016447752482,0.8159258469997244,-0.09373612353662059,-0.919395922654649,0.9819979075939184,0.15891966913086583,0.7369178554731325,0.8370216882077458,-0.2196026739245619,0.5452290447817206,1.102482632719482,0.0,0.0,0.0,0.0
0.027195148351597666,-0.2837556937286831,0.699853675560778,-0.0019943357860251303,-0.5268686265695273,-0.0003735022347429052,0.8499443119743747,-0.168549083577094,-1.05109602268104,0.8238255839850442,-0.09064068098594372,-0.9237691962856613,0.9909358399229137,0.16525516211216165,0.7401715151727847,0.8332759164044661,-0.21669870387087442,0.5475740644390117,1.1077598674485587,0.0,0.0,0.0,0.0
0.028027586367444506,-0.2848402541659688,0.699849874589998,-0.00151933475513277,-0.5277840167188528,-0.0005454227283486318,0.8493770810612109,-0.1868429407263279,-1.043339092315877,0.8340739643161208,-0.08751207282193663,-0.9267891221667645,0.9993020037954686,0.170339924026446,0.7455480302298148,0.8293548938874424,-0.2165258452203004,0.5510056163554327,1.1120577206356381,0.0,0.0,0.0,0.0
0.028760773161604622,-0.2860934462232362,0.6999710085535753,-0.000978647177823847,-0.5288482650505048,-0.0007014493444470538,0.8487155370155477,-0.20442923775918664,-1.033633069901986,0.8451131222218627,-0.08394791579896851,-0.9286720207789515,1.006699241820617,0.17652316278574035,0.7516645173294902,0.8237352312892742,-0.21571642058520515,0.5551449372217033,1.1162889233375606,0.0,0.0,0.0,0.0
0.029136133943801858,-0.28760713994161075,0.7004474315706295,-0.0007443317751740091,-0.529608081694603,-0.0005133759696158134,0.8482419832919643,-0.22172066663509335,-1.0219583775056618,0.8547604396966223,-0.08046967113655881,-0.9290881414597547,1.0123639710306516,0.18753353639898573,0.7568456218513586,0.8124014457143643,-0.20814492741708687,0.5610322233506165,1.1191202901682604,0.0,0.0,0.0,0.0
0.028605580933786918,-0.28938029938433857,0.7009507222588078,-0.0018082375511822703,-0.528468284672838,0.0005872712439269397,0.8489509158275246,-0.24093408028691962,-1.012581885461067,0.8575184169891339,-0.07840429114167062,-0.9325162293340177,1.0172923331965549,0.20930045105741382,0.7517422064937352,0.7951696690742608,-0.1803844729899657,0.5657121102672429,1.1225206032718478,0.0,0.0,0.0,0.0
0.027511923462647896,-0.2910082876453358,0.700853764400838,-0.003070651921729283,-0.5271798759538944,0.0019925931669641187,0.8497458320336047,-0.26229561192513057,-1.0060188152571101,0.8595625806850039,-0.07747143550839806,-0.9345744916485267,1.0171275810462166,0.23058068112856153,0.7410950607262019,0.7844606861425287,-0.14982259492630903,0.5667562475192015,1.1306634465278806,0.0,0.0,0.0,0.0
0.0262925618405673,-0.292202249681947,0.7000142705002952,-0.0031787894890115665,-0.5280512402298222,0.0029665657287471525,0.8492013792245678,-0.28540769228616547,-0.9985429495210105,0.8684683184818688,-0.07674072521578508,-0.9277660649341041,1.0063001170117678,0.24330591053155123,0.7324698623816459,0.7895838890136623,-0.13563838826063213,0.5654179280875464,1.1452713238174403,0.0,0.0,0.0,0.0
0.025240374934424062,-0.29240623641588387,0.698916205697752,0.00043926646939694385,-0.534059766214838,0.001657338238851751,0.8454449872022919,-0.3060183711892042,-0.9781610420368199,0.8885279292827539,-0.07318735851374845,-0.9014547375624461,0.9758854644641517,0.22857510551504395,0.741295038160714,0.8186531738196181,-0.17320650476928348,0.5621459005037608,1.1620812683023143,0.0,0.0,0.0,0.0
0.023278771443849496,-0.2914902363641456,0.6974252594677705,0.006730089916012247,-0.5391627677830101,-0.011003830538632471,0.8421028033677144,-0.28724868292968425,-0.9600771778711286,0.9060295679287965,-0.0418102122621024,-0.8967568537630454,0.9519727637609477,0.12106554926598043,0.7783544495541455,0.8726143872291605,-0.3093582057752299,0.5108589908458613,1.1627446267303867,0.0,0.0,0.0,0.0
0.017207181601678678,-0.29522029697047436,0.6983135228083698,0.0010340817935977698,-0.5266386092226953,-0.007403624263798864,0.8500564053629558,-0.3210034022737047,-0.9777153457668692,0.879138408525508,-0.03957432571534131,-0.9289846893420677,0.9612211781182795,0.1767882386595952,0.7201257110351768,0.8269977046043481,-0.1819412423727116,0.49954023435469264,1.1657333781979957,0.0,0.0,0.0,0.0
0.012288328607235452,-0.2991468637197914,0.699014820687538,-0.0033898806794196348,-0.5213296367330579,-0.0036786341992596063,0.8533407210623346,-0.35218910427334843,-0.975857442377629,0.8699950807639367,-0.037794358777055684,-0.9289446298323979,0.9464052504508845,0.21715620818515602,0.6967791975173558,0.7807736252363103,-0.10573601307414515,0.4925743552691262,1.1688605632425653,0.0,0.0,0.0,0.0
0.009719648246283163,-0.30198476034423055,0.7001300938582675,-0.0034816837396525677,-0.5232976669333124,-0.0029373677739579582,0.8521377831847674,-0.37784637463372417,-0.9642756671242949,0.8901979924251057,-0.03199012888956563,-0.9071783739844266,0.9211163782131981,0.2252086568633469,0.7086446351453812,0.752580515007265,-0.09126937496870231,0.49501338474042306,1.1701450656035262,0.0,0.0,0.0,0.0
0.008489931846682737,-0.3036712590110577,0.7007537885260141,-0.0018335860129748808,-0.5275191252598537,-0.003889740348594844,0.8495322715279463,-0.4067088786095821,-0.9631319852557113,0.9311092716051104,-0.02528461336481228,-0.882508547701424,0.895581692758348,0.22105265050721293,0.7256619958759992,0.7465225657209742,-0.10195130270822504,0.4989821517095835,1.1749233965759753,0.0,0.0,0.0,0.0
0.008288424534722142,-0.30440297561754265,0.700956003304083,8.295627199050761e-05,-0.5322664350425153,-0.005007072172789159,0.8465620854217635,-0.4406544624202572,-0.9755482841201092,0.9921549395578724,-0.02104883301956341,-0.8587721709644112,0.8730693673236355,0.21436118269691085,0.7414371296435994,0.7529402930400251,-0.12109962861872789,0.5045094902275676,1.181124819143291,0.0,0.0,0.0,0.0
0.009036516489939205,-0.3044643305188694,0.7010404159325834,0.00122770363510361,-0.5364739137540673,-0.00478458408862807,0.8439024471823012,-0.4760217882624551,-1.002417056952023,1.0756516828453764,-0.02218332428271609,-0.8383558807885606,0.8574557946169392,0.21604874924232534,0.7533241356051381,0.7596420049246403,-0.13334584506128486,0.5150215342246356,1.186382432209095,0.0,0.0,0.0,0.0
0.009085682454900499,-0.30451853273120055,0.7009399244282835,0.001149061765238675,-0.5364903592324953,-0.00474235958284798,0.843892341553847,-0.47609156602108393,-1.0024694188493224,1.0756373021593684,-0.022209134474228072,-0.838411341674883,0.857325590877228,0.2163715463060442,0.7535512703485512,0.7593141459516831,-0.13364524674771988,0.5146533773930843,1.1866655647256263,0.0,0.0,0.0,0.0
0.009085682454900499,-0.30451853273120055,0.7009399244282835,0.001149061765238675,-0.5364903592324953,-0.00474235958284798,0.843892341553847,-0.47609156602108393,-1.0024694188493224,1.0756373021593684,-0.022209134474228072,-0.838411341674883,0.857325590877228,0.2163715463060442,0.7535512703485512,0.7593141459516831,-0.13364524674771988,0.5146533773930843,1.1866655647256263,0.0,0.0,0.0,0.0
0.010475958145775012,-0.3062329549667125,0.7045445495309165,0.00398635562272049,-0.5439479305013204,-0.0052932176202736495,0.8390928075722043,-0.4623332308046277,-0.9541491826725601,1.0491063810180041,-0.017659127644660762,-0.8004539196154249,0.8375191241228365,0.18847194333647593,0.7548144593008107,0.8480674061611096,-0.15342337246181761,0.5469074818277447,1.1742245549862458,0.0,0.0,0.0,0.0
0.007270035793938655,-0.3113152423072068,0.7100913288508948,-0.0018287572370672713,-0.5300547943920046,-0.0001603222093045113,0.8479614053043963,-0.47068757693537583,-1.007174829240171,1.088224385652923,-0.01597486836679156,-0.8476015996890808,0.8874853421109178,0.1410748205814062,0.6524573355790932,0.8930552705767086,-0.023084352357512855,0.559686050111124,1.1383828640903246,0.0,0.0,0.0,0.0
0.004558011741952845,-0.31756158816742625,0.7136909066097206,-0.010093671746770448,-0.5153654374741671,0.006635932350746877,0.8568853762607722,-0.4831818170526066,-1.072440503095463,1.1340474603074753,-0.014723421802621144,-0.9018197299076889,0.9430065560759825,0.18022232939684374,0.5274966962714872,0.9173376864373349,0.10503757295572802,0.5580383858940019,1.1074772903742298,0.0,0.0,0.0,0.0
0.007049414031227027,-0.32044414350485073,0.7196470561913597,-0.0034787672274264937,-0.5262323640614253,0.0017209033809947977,0.8503319561703265,-0.45115868699089756,-1.0048651451157908,1.1036998458800795,0.0038120792748015594,-0.8584536059571305,0.9276078098116263,0.13503480036613053,0.5992856970179411,0.9573338632450865,0.04673592369439744,0.5986942192977794,1.073953640794711,0.0,0.0,0.0,0.0
0.009828161130140822,-0.3235463602572648,0.7242220593935612,0.0030203827406284824,-0.5370052076512732,-0.003689726200617243,0.8435654510256317,-0.4221475115358276,-0.9394569309085112,1.0706901484979436,0.02217181819894347,-0.8179712514839061,0.9125837810712962,0.08827428607324139,0.6758755301656219,0.9954713797163282,-0.015569316631840475,0.6327992435586811,1.0521930216792477,0.0,0.0,0.0,0.0
0.012080291502150302,-0.32758466738503433,0.7274350970398634,0.006657718929007572,-0.5446803606763811,-0.006294299468043257,0.8385936806739699,-0.4026312398306909,-0.8917977640905245,1.0445130825066604,0.03568253504191454,-0.7885796030722688,0.9046866103325848,0.07647349524915198,0.7250530500246145,1.0085365447863717,-0.04241818026322813,0.6612020220804596,1.041522359950386,0.0,0.0,0.0,0.0
0.009594543999768567,-0.33335195836247006,0.7313858541781797,0.00014947400379506246,-0.530796368214232,-0.00011427813109546759,0.847499368783607,-0.41111554583361304,-0.9517856592387253,1.0884877723186825,0.03808425699514035,-0.8404746679327807,0.9578924026267588,0.08994457142711372,0.6235407373800972,1.0040028861591443,0.08823227157212676,0.6666855264043737,1.0093734151735854,0.0,0.0,0.0,0.0
0.007204001012545146,-0.3399733198638468,0.7335220528806113,-0.00901293163516109,-0.5166759648066885,0.007973898902965343,0.8560964498178361,-0.4231708075056899,-1.019620795847926,1.1342002310909574,0.039380142765763834,-0.893892577076389,1.0094412772942305,0.1647024492047054,0.4977722695560946,0.9943784435689049,0.21685846948959317,0.6587805615244116,0.983294263442843,0.0,0.0,0.0,0.0
0.00855779731073159,-0.34327016133715954,0.736580214431445,-0.005661824509370155,-0.5233719523806832,0.005562076164985802,0.852067372050586,-0.40393393277226103,-0.9760292327438234,1.10870528686805,0.05186641268746952,-0.8655731803557088,0.9972791232041338,0.15310194149217812,0.5337353819021637,1.0145488418012327,0.19326074112261782,0.6832271647283853,0.9664322545608071,0.0,0.0,0.0,0.0
0.010983461524732684,-0.3445512502877227,0.7390091047053944,0.006182173376986767,-0.5364638103565418,-0.005949169971971767,0.8438797119771998,-0.3655180882797727,-0.8980639472073038,1.061030958737515,0.07737657459718358,-0.8244694754481727,0.9716238481407862,0.045450272866183875,0.653619785723305,1.0550310681370365,0.06711136191695596,0.7004151774233206,0.9629432963844841,0.0,0.0,0.0,0.0
0.012794725561543454,-0.34662966366685705,0.7396892208096038,0.015059499629268195,-0.5459193624517847,-0.016164283340117273,0.837546402962399,-0.3349387867954658,-0.8396801171271764,1.0203205141417968,0.10138833792604394,-0.7976141323037942,0.9540469059049156,-0.04796266237547196,0.7427577909345708,1.0816087605100546,-0.06100110233506262,0.6919104804649188,0.9636870196597366,0.0,0.0,0.0,0.0
0.008931789776777875,-0.35200121357187153,0.7434286971307322,0.007750344378670703,-0.5324889522545037,-0.00883720387801999,0.8463553341927557,-0.3433451661875154,-0.891283968454995,1.0490374680595889,0.10148806548258608,-0.8371354810839537,0.9862140736874986,-0.041785376497854534,0.6473440373544891,1.087927212697865,0.06956954461713627,0.6945836107191208,0.9281443705634742,0.0,0.0,0.0,0.0
0.005320268835762464,-0.3583394126815133,0.7455642774267693,-0.001983577646833004,-0.5194834238982073,0.0001737955305112174,0.8544782077442513,-0.35329804867523584,-0.9483977026252945,1.0799854453056548,0.10143012000669184,-0.8775525513099582,1.0185281410120781,0.02498243282662306,0.5398864292232761,1.0839388410775381,0.19635642399780548,0.6881908965007844,0.8980485731830788,0.0,0.0,0.0,0.0
0.004096122884069887,-0.3631841746590851,0.7478176980354678,-0.004581035196799492,-0.5186382165352733,0.0032246730902604193,0.8549754475709215,-0.3482553441370612,-0.9397892730552533,1.0666609916395957,0.10644773527270093,-0.8699834665392553,1.0146952171161099,0.024626832223849524,0.5313103829763308,1.0915950263716834,0.22896885679972342,0.6960739344643203,0.8747045793050501,0.0,0.0,0.0,0.0
0.004602698850785499,-0.3658609703749063,0.7508358438453969,0.0002840339163819994,-0.5245640051991473,-0.0010679326789023293,0.8513702973994082,-0.32777561342848377,-0.8928621338299045,1.0332997906472061,0.1199378949794112,-0.8416727426493624,0.9967826714417222,-0.045416465747545154,0.5875169345537692,1.1130155414437124,0.19024278037317424,0.7150206280686467,0.8566530471521387,0.0,0.0,0.0,0.0
0.004877049987021752,-0.3692986660190495,0.7521420314086393,0.00279564798506336,-0.5275058611230631,-0.0036289084916689713,0.8495390408076124,-0.31244896318406457,-0.8681520903504205,1.0135809183626547,0.13253343391017242,-0.8307415592792795,0.991904156134089,-0.08110635000427982,0.6105276396370163,1.1340487257032834,0.1782380272650579,0.7218061027962424,0.8544233995739694,0.0,0.0,0.0,0.0
0.004895689471058728,-0.3729208432556334,0.7523006806298621,0.0046197321706884075,-0.5290585683744642,-0.005349739278264548,0.8485558729947533,-0.2996051742037347,-0.8544660470592393,1.0003933981132604,0.14427081361663288,-0.8289903922958188,0.993114299462495,-0.10510891602462782,0.6232748029959152,1.145610112241186,0.1780438363304115,0.7208823546014824,0.864135136593038,0.0,0.0,0.0,0.0
0.003906613150504036,-0.3767701811148549,0.7522878621462544,0.004277330803889567,-0.528341731109567,-0.004969911705404826,0.849006489720179,-0.2909951985983984,-0.8517928350383286,0.991268351263901,0.15302041741422984,-0.8324549189846115,0.9948730573435658,-0.11919365573911092,0.6197974128899055,1.1444348169764174,0.20244231956711423,0.7171253013385147,0.8728831377090912,0.0,0.0,0.0,0.0
0.001890431481103618,-0.38097206868211503,0.7521758084410575,0.0008445560877848088,-0.524353462990248,-0.001761063539303666,0.8514984622595391,-0.2882219665705034,-0.8671284390242117,0.9923525273200658,0.1581887685635579,-0.8458425771952279,1.0017685884537442,-0.1158814509224991,0.5914685035446124,1.1335613375327707,0.25770222530097026,0.7095553315728615,0.8767294548386276,0.0,0.0,0.0,0.0
0.0002482933468360097,-0.3846373585990736,0.7515688150907643,-0.0011028698451348727,-0.5221921642506261,0.00024210990003982257,0.8528271036125366,-0.28386805918052854,-0.873757113678588,0.9870176524425045,0.16376234837341036,-0.8538328629423296,1.003801708470416,-0.12625905552162497,0.5806597415129287,1.119774889330539,0.2935921445515869,0.7002675117080195,0.8860997022889612,0.0,0.0,0.0,0.0
-0.0005717125356636631,-0.38723702864144327,0.7512601233834146,-0.00044241836564166937,-0.5226369267945817,-0.00031811548015696876,0.8525551863775424,-0.27565595116995084,-0.8655437598985908,0.9739701712929221,0.1710267379930085,-0.8525838722282081,0.9999626870197661,-0.15421912873785099,0.590680438052533,1.1095691872156865,0.3003229550809223,0.6955729213506308,0.895467974337387,0.0,0.0,0.0,0.0
-0.0008615543297549093,-0.38913658981852045,0.7508686243801096,0.0018477516491829133,-0.5242910190330258,-0.0025413603278102437,0.8515333549913582,-0.26534787746573896,-0.8513506569584439,0.9587738788682391,0.17959333939013727,-0.8487574098338823,0.9950721907294056,-0.1907058644970466,0.6110586424301832,1.1008142836097543,0.2894459640089919,0.6916250517822055,0.9074826327271339,0.0,0.0,0.0,0.0
-0.0013355595243140501,-0.3912822360745652,0.750347019490465,0.002954465787498034,-0.524843424820427,-0.0036078952290875327,0.8511860158899999,-0.25747298815016856,-0.8441968602712564,0.9482580719818028,0.1868154875879173,-0.8490198652068538,0.9934154772589291,-0.21670969587239086,0.6222088837640819,1.0901205101700875,0.29061794525607826,0.6864192120054978,0.9187632817725531,0.0,0.0,0.0,0.0
-0.0022113899417386734,-0.3939282024346302,0.7500862989147236,0.0027304074317725004,-0.5241790616239462,-0.003367582080296791,0.8515970382881966,-0.2513759022756816,-0.84266840447471,0.9405795461876277,0.19300080499738673,-0.8520152451485199,0.9934518801026184,-0.23486781852567062,0.6236002863673918,1.0765991674353528,0.3063684923812451,0.6815483881946897,0.9256126649489612,0.0,0.0,0.0,0.0
-0.003434040444164942,-0.3969419044517079,0.7500479533511032,0.0022810416961827865,-0.5232609761616257,-0.0028957238117909567,0.8521645160758389,-0.24469548557954304,-0.840061724095187,0.9301320236602808,0.1995723441156931,-0.8540774667698037,0.9914995417326341,-0.25281432571084145,0.623060500907853,1.0614375601423391,0.3252455086675649,0.676678302582191,0.9301292078129102,0.0,0.0,0.0,0.0
-0.004865068449613107,-0.4002286257679304,0.7501498588975767,0.002199235712852551,-0.5225710355596953,-0.0027696511731791955,0.8525884148806656,-0.2363617387854704,-0.8336033184015372,0.9150620677112767,0.20727621789579562,-0.8540123133662011,0.986720245698214,-0.2734239777851547,0.6247363313715213,1.0459200366746337,0.34127625624925984,0.671654021905561,0.9339327486083325,0.0,0.0,0.0,0.0
-0.006544922211060706,-0.4038117989358193,0.7503767821819834,0.002349790666630552,-0.5219755818017452,-0.0028745759639517833,0.8529523476136167,-0.2266294578762657,-0.8238960984904814,0.8955050359372367,0.21596562363942753,-0.8521555769949752,0.9791991794840993,-0.29547337608827823,0.627672545201557,1.030363704381017,0.35572575115111094,0.6662823721373643,0.9369108756376241,0.0,0.0,0.0,0.0
-0.008565802101914679,-0.4077407594821608,0.750750917123022,0.002387895888527371,-0.5212129951215743,-0.002868698715600411,0.8534184684182211,-0.21619602260601017,-0.812211947484358,0.8718868303317213,0.22512223693607203,-0.8489707865223797,0.9690129053555018,-0.3177730215244052,0.6300469166059721,1.0145467283043312,0.3716583968454559,0.6604768297362091,0.9381686265109396,0.0,0.0,0.0,0.0
-0.010977630765341891,-0.41198037363132806,0.7512532361148586,0.0020302693945105765,-0.5201090013408675,-0.002470785125981677,0.8540939058155446,-0.20581502672466515,-0.7997054522655791,0.844751170465822,0.23414058081290678,-0.8448426548257035,0.9562263864386732,-0.34170436099310947,0.6313994477769319,0.9984206480205113,0.3909107254990005,0.6540613170239131,0.9370870459183709,0.0,0.0,0.0,0.0
-0.013778738968060932,-0.41631589485672615,0.7517587119283679,0.0008350955994813772,-0.5184126472764515,-0.0011712763319941394,0.8551293807786722,-0.1972612853617109,-0.7892433175635397,0.8164752714517145,0.24158045021666744,-0.8409684195966034,0.9417587199671913,-0.3683068958935306,0.6316806251145065,0.9821013447818061,0.41587826384762283,0.6465445689710857,0.9334062928992884,0.0,0.0,0.0,0.0
-0.01687889040641043,-0.4204441375691912,0.7517804322371215,-0.001374421278695653,-0.5160534694280234,0.0012743623616061348,0.8565543203195114,-0.19201449339265492,-0.7842116180635541,0.7902561941238739,0.2463955612828252,-0.8395757076958245,0.9273777698580588,-0.4007496679537463,0.632520755971173,0.9662304556137554,0.4461947618492228,0.6355946487897914,0.9307172116141731,0.0,0.0,0.0,0.0
-0.01972469898551203,-0.42399816612688146,0.7508645202074341,-0.0038070868741882525,-0.5135015799077255,0.00404464227266529,0.8580706698114604,-0.1894640735632829,-0.7857566905762887,0.7703733157283541,0.24950368980730464,-0.8430492636055293,0.9171525391998173,-0.448946011919216,0.6392520938821897,0.9520172087863413,0.4739803338628998,0.6199322590098629,0.9343526310453267,0.0,0.0,0.0,0.0
-0.022104912630164935,-0.4267225101801006,0.7490734056089934,-0.006468720758916012,-0.5107713127707536,0.007085691338121808,0.8596630820736954,-0.19021439140698482,-0.7954649509448015,0.76020537601606,0.250482787061837,-0.8520799726624245,0.9129212239497215,-0.5115289032075176,0.6502730433460678,0.9393968945462435,0.4988979624053557,0.6005513908216382,0.9439020905322891,0.0,0.0,0.0,0.0
-0.02356108241349066,-0.4281716660262065,0.7471660885307639,-0.008304428590841854,-0.5086014956584732,0.009204016184072829,0.8609127953316915,-0.19245445220063653,-0.8077650042160659,0.7589312269388264,0.2503683516472906,-0.8628967013331506,0.9140283769897931,-0.5778463950203471,0.6642979573953733,0.9281314228527234,0.5123531970118282,0.5832301572194344,0.9546332668037228,0.0,0.0,0.0,0.0
-0.023528124943577675,-0.4282672205333286,0.7470926719087041,-0.008405636542799895,-0.5086156168252622,0.009269764168271476,0.8609027651645876,-0.19248371269320189,-0.8077792092811635,0.7586474084720807,0.2504677178429472,-0.8630371918727457,0.9141580016712338,-0.5779616147128949,0.6642608621867989,0.9281346746398075,0.5124883421781103,0.5830441386434455,0.9543657049490106,0.0,0.0,0.0,0.0
-0.023528124943577675,-0.4282672205333286,0.7470926719087041,-0.008405636542799895,-0.5086156168252622,0.009269764168271476,0.8609027651645876,-0.19248371269320189,-0.8077792092811635,0.7586474084720807,0.2504677178429472,-0.8630371918727457,0.9141580016712338,-0.5779616147128949,0.6642608621867989,0.9281346746398075,0.5124883421781103,0.5830441386434455,0.9543657049490106,0.0,0.0,0.0,0.0
-0.024105365082346446,-0.42707545108617706,0.7475448378798618,-0.0033582771090849978,-0.5098349151459355,0.004504964380557759,0.8602539081974142,-0.1843473552497982,-0.7876657841217696,0.7386351922012357,0.25609012230609235,-0.8557805354502132,0.902607564400511,-0.635901813896613,0.6763088045626806,0.9243979824034341,0.465758665440976,0.5805675949948818,0.9546384453275923,0.0,0.0,0.0,0.0
-0.024626427848435536,-0.4271820748841991,0.7478507742546651,-0.002252912577262173,-0.5108063642227821,0.003112023971800617,0.8596872093739796,-0.18033088987979107,-0.7740169289406754,0.7224869697136062,0.25842280220922975,-0.8470016111716449,0.8914393499136323,-0.6505617222453677,0.6809253004745425,0.922469628256444,0.4561500303250269,0.5811466047041983,0.9541452655577887,0.0,0.0,0.0,0.0
-0.025075781937886874,-0.4281460986308566,0.7480816499629921,-0.0027443091906028893,-0.5112559943760525,0.0033105544673066836,0.8594177198608015,-0.17786077922991667,-0.7661392236826968,0.7110641275117189,0.25995937229178817,-0.8409548504737384,0.884036268467384,-0.6429341935016645,0.6815755372853588,0.9209306720997446,0.46384999799723575,0.5826395025616699,0.953609785379857,0.0,0.0,0.0,0.0
-0.025282359933916893,-0.429420092617745,0.7482030713258866,-0.0031630974159204935,-0.5115144533956938,0.003586185132887384,0.8592613677212741,-0.17505733933274775,-0.7611474322223332,0.703538498204302,0.2623102048190165,-0.8381620827722396,0.8810189099697224,-0.6335546021603176,0.6817874463427546,0.9198532376501897,0.47326956064467496,0.5837429419310325,0.9543559353545118,0.0,0.0,0.0,0.0
-0.025151613480849606,-0.430727554532978,0.7482443414113815,-0.003256407820341383,-0.5117902878845181,0.003643623182908428,0.8590965143947976,-0.17190014809193457,-0.7581021470497832,0.6999364110086204,0.26533729699730946,-0.8378139702754718,0.8819613658654357,-0.627943363838486,0.6830608654947454,0.9194298708669715,0.48141008978552896,0.5849820900316645,0.9564509221305635,0.0,0.0,0.0,0.0
