zhuoxili-jackie/tripod-support-walk/examples/trajectory_trot_sideways_p3_v0.20.csv
root_pos_x,root_pos_y,root_pos_z,root_rot_x,root_rot_y,root_rot_z,root_rot_w,FL_hip_joint,FL_thigh_joint,FL_calf_joint,FR_hip_joint,FR_thigh_joint,FR_calf_joint,RL_hip_joint,RL_thigh_joint,RL_calf_joint,RR_hip_joint,RR_thigh_joint,RR_calf_joint,FL_foot_joint,FR_foot_joint,RL_foot_joint,RR_foot_joint
0.0,0.0,0.664888,-0.0038739181747107386,-0.3883128170371229,-0.008248016113749812,0.9214825658214358,-1.78e-06,-0.523593,-0.523596,-4.59e-06,-0.523609,-0.523606,8.76624e-06,-1.88e-06,1.04721,-2.47e-06,-1.36e-05,1.04719,0.0,0.0,0.0,0.0
0.0004310009854248223,-0.0002352203884136559,0.6643160750773008,-0.0037795059601190496,-0.38857711960563285,-0.008175900522437324,0.9213721789289789,0.00039951268295918696,-0.5218147000083772,-0.5274936649254591,0.00039671295777875666,-0.5206121008916433,-0.5303149271777196,0.0005327672477358665,-0.0020070089052932278,1.0531803949225536,0.0005214815702286884,-0.0026105531802187716,1.054926711642408,0.0,0.0,0.0,0.0
0.0013253975149756373,-0.00074763636291691,0.6634320973719517,-0.0037495535660069597,-0.3887086367116355,-0.00806616526921313,0.921317791845836,0.0015426698549781258,-0.5172004756603168,-0.5384683265466843,0.001541084917184836,-0.5135621959284135,-0.546754705353166,0.002132853327573576,-0.004797159683939072,1.0611569476453253,0.0021231620430580815,-0.0065231799897497705,1.0665263041110715,0.0,0.0,0.0,0.0
0.0027653025682937687,-0.0016309523479861331,0.6624958031606204,-0.0037552144446960645,-0.3888181600692834,-0.007933198433103833,0.9212727072520017,0.0037958066067706525,-0.5088429584613225,-0.5562853079905172,0.0038003535991978955,-0.5013904235475355,-0.5734408033301079,0.004988706848016504,-0.0066344456104688075,1.069190421445678,0.004987841304845438,-0.01024438739385334,1.0805750074474672,0.0,0.0,0.0,0.0
0.00490577755174976,-0.003172441111407128,0.6621460291974949,-0.0037410916236732313,-0.3892065233032511,-0.007852632839594227,0.9211094520246471,0.008419318424182809,-0.49474996540296845,-0.5795639211737198,0.00844927178419318,-0.4814164237752924,-0.6116863893627548,0.0096706899982575,-0.00328716149587098,1.0725356965915542,0.009699914733188441,-0.010325673485999734,1.0939693354166935,0.0,0.0,0.0,0.0
0.008138043676663478,-0.006058788163715452,0.66407928830343,-0.003692385760417555,-0.39057728362743344,-0.00799681529786175,0.9205280021524079,0.018353296730607226,-0.4689203505791182,-0.606770284236465,0.018491484115325002,-0.4460088653818124,-0.6658868577836194,0.017883656033012077,0.016132506962254923,1.0584769838069361,0.018006465718539907,0.0023069069719147146,1.0980664637361188,0.0,0.0,0.0,0.0
0.011270826204548298,-0.009085225759200554,0.6652424868252527,-0.003392648434948995,-0.3901130458850187,-0.008001401221547213,0.9207259521407019,0.028045237627653145,-0.44742971920139046,-0.6390246916993824,0.017929272994469586,-0.4788555732584697,-0.6203518039833931,0.019727834084139976,0.008586535538774007,1.069954801526457,0.026458353691623228,0.009700819510858903,1.1009203764384958,0.0,0.0,0.0,0.0
0.014975778000755127,-0.012287910481910365,0.6664934433409568,-0.0032290372525215862,-0.3895682613661361,-0.007945663226254172,0.9209576589021249,0.03825045614123873,-0.42294931286605797,-0.6766253121556178,0.01547261857678135,-0.5033005882967431,-0.596405851075896,0.02109205300509763,0.0019472783059694496,1.0820310411841967,0.036066141109169364,0.018538225958937053,1.1038274053989103,0.0,0.0,0.0,0.0
0.018483899725117648,-0.015706066302859437,0.6678251682006354,-0.0030405274647456334,-0.38930890921597244,-0.007936831362889784,0.9210680404322598,0.049444339419577286,-0.40142083571427417,-0.7060302030594949,0.01432922296401335,-0.5211829337808405,-0.5852179757383815,0.023373056425097436,-0.0035737226840919026,1.094148164563082,0.04632012150057519,0.027742815092235744,1.10692647524266,0.0,0.0,0.0,0.0
0.021582620018220828,-0.019249036571816775,0.669265566736835,-0.002826893312887498,-0.3892476662636126,-0.007952379618241903,0.9210944699871648,0.061123194131496486,-0.3833127511200032,-0.7270250113548659,0.014613027845443946,-0.5346029141356745,-0.5812452687979681,0.026861062413510106,-0.008539855590781853,1.1059495247616216,0.056979016965022014,0.03713005845231338,1.1090871908123356,0.0,0.0,0.0,0.0
0.024191740614190126,-0.022837899692994684,0.6707879625765567,-0.0026033481987053817,-0.38929049721090325,-0.007968634813911286,0.9210768872459272,0.07284998827080999,-0.36867538189871607,-0.7404679592428846,0.015982677039752684,-0.5451307601456921,-0.5813188194424117,0.03131040915176442,-0.013341623022723594,1.1172738345518873,0.06785137187609577,0.04637811170167121,1.1099219377010063,0.0,0.0,0.0,0.0
0.026315330191623246,-0.026401891627830132,0.6723554948799587,-0.002382671851157063,-0.389376738335715,-0.007973967787303183,0.9210409840803051,0.08430090719092773,-0.35727004303671506,-0.7475543212905299,0.01799989713529969,-0.553868903617037,-0.5836070386861325,0.036309250721198796,-0.01817127309748247,1.128108782235958,0.07872769627545426,0.055253126291340784,1.109411742852278,0.0,0.0,0.0,0.0
0.028005319282776373,-0.02987927307746094,0.6739372520420518,-0.002173545237926079,-0.3894719662974036,-0.007964503374368737,0.9210013191388666,0.09524517917571729,-0.3486730308432946,-0.7495842822313471,0.02026426727445646,-0.5615738413606701,-0.5870483733781391,0.041480163152405804,-0.02312323857454786,1.1385321497608827,0.0894010285720252,0.06365421964403296,1.107666955767164,0.0,0.0,0.0,0.0
0.029335843737410376,-0.03321933036923312,0.675510895337837,-0.0019810048860444333,-0.3895588819332546,-0.007940608078649733,0.9209652001405348,0.10552874916957972,-0.3423684737997607,-0.7478326529330509,0.022461312550141672,-0.5687539208864709,-0.5910326551118712,0.04654767935747542,-0.02824779125177198,1.1486638236389346,0.0996896165178611,0.0715828685665172,1.1048349926407255,0.0,0.0,0.0,0.0
0.03038608363115167,-0.036383411377657465,0.677060364616334,-0.001807322436915626,-0.38963041510245733,-0.007904770265406912,0.9209356045998802,0.11506058815073714,-0.3378233349333862,-0.7434671166827855,0.024366204491786576,-0.5757448734607108,-0.5952179099237423,0.05133984730619407,-0.03357184548222248,1.1586337365952049,0.10945035096103711,0.07909398368496898,1.101075993144531,0.0,0.0,0.0,0.0
0.031229639328899463,-0.03934447731431623,0.6785724057987967,-0.001652883290741544,-0.38968501837018765,-0.007860338701417089,0.9209131715369004,0.12379911266534412,-0.3345421802721435,-0.737500382843885,0.02582985052948149,-0.582764811909704,-0.5994231539959866,0.055767116315460157,-0.03910330894945042,1.168562200353334,0.11858238675337922,0.08625208225463975,1.0965636025404562,0.0,0.0,0.0,0.0
0.031928732420837116,-0.04208535937199424,0.6800330502424834,-0.0015169606763761033,-0.389723484930141,-0.007810736440915585,0.9208975494160374,0.1317384801336341,-0.33210347952304087,-0.7307690896840532,0.026761436657588643,-0.5899471329421143,-0.6035630747997467,0.05979764329039836,-0.0448266935724771,1.1785466357848757,0.127023420341085,0.09309781032679909,1.0914945124962705,0.0,0.0,0.0,0.0
0.032531673950297345,-0.04459613183437359,0.6814241333237464,-0.00139840454893211,-0.38974671987787846,-0.0077589589007182646,0.920888341421439,0.1388955801386988,-0.3301814148635977,-0.7239330804296567,0.02711276282738936,-0.5973468095799609,-0.6076029164396123,0.0634312920980151,-0.050692196984369525,1.188647203898412,0.13474167543834603,0.09962265922775669,1.0861027267709955,0.0,0.0,0.0,0.0
0.03307216291870272,-0.0468710083975208,0.6827198808832279,-0.0012962937345110238,-0.3897542205569379,-0.007707303422129796,0.9208857500551124,0.1452985009137856,-0.32855794319332876,-0.7174867103628255,0.026864664837284048,-0.6049136721822599,-0.6115177980401222,0.06666439673585602,-0.05659801502822403,1.1988606740183996,0.14172601892881198,0.105748913034834,1.0806771668010353,0.0,0.0,0.0,0.0
0.033569176372041785,-0.04890510218027489,0.683884169178525,-0.001210572098376908,-0.38974352952486147,-0.007657461549020602,0.92089080731177,0.15097697739725693,-0.32712910906215553,-0.711770557467811,0.026013046827396743,-0.6124276650408609,-0.6152442508567608,0.06943292534448534,-0.062363291386298314,1.2090664475023958,0.1479754047493136,0.11131537070867994,1.0755779653877455,0.0,0.0,0.0,0.0
0.03402669917504628,-0.050691459144222725,0.6848700115071842,-0.001142564200408052,-0.3897119226079768,-0.007611269844521474,0.9209046533141181,0.15595504654382836,-0.32590655998600404,-0.7069681190964637,0.024551028999643395,-0.6194015043437109,-0.6186148037125953,0.07152743810708276,-0.06768300864722583,1.2189233056226756,0.15348812783840993,0.11607623643503144,1.0712422287328658,0.0,0.0,0.0,0.0
0.03445481807234603,-0.05220921691040651,0.6856266255734952,-0.0010962160788183532,-0.3896543374530506,-0.0075718621613872945,0.9209294014840343,0.16022472164880866,-0.3248357606244173,-0.7034311966241397,0.022368114834679247,-0.624977926875064,-0.6212894994059487,0.07246575137973038,-0.0720053150598153,1.227714112393383,0.15822580464583727,0.1197835460697736,1.0681094436599439,0.0,0.0,0.0,0.0
0.034810677994853476,-0.05345098928358473,0.6861124674979587,-0.001074225424172582,-0.389585718988718,-0.007548647579145247,0.9209586481050642,0.16381059201921913,-0.3242324338899264,-0.7006762120398544,0.019401887080402865,-0.6279484291782814,-0.6227083369997664,0.07153981381308769,-0.07446947677436129,1.2339604358174145,0.16216703743613384,0.1221402997390823,1.066585388324341,0.0,0.0,0.0,0.0
0.035071130304502984,-0.0544042194290791,0.686320625267584,-0.0010770361780766482,-0.3895355658623119,-0.0075587069313041546,0.9209797765808575,0.16672870036749762,-0.3242013812570647,-0.6983700272508907,0.015539065649771196,-0.627088321364046,-0.6222052287456407,0.06803336163346932,-0.07358678337113775,1.2351982465173494,0.16524842039772533,0.12308162571239183,1.0668234766197973,0.0,0.0,0.0,0.0
0.035222339005089226,-0.055073029597004955,0.6862568522998078,-0.001104698250282428,-0.38950508296390707,-0.007601110274938594,0.9209922872150689,0.16898665563196993,-0.3248213705086293,-0.696342966567327,0.010834355327712722,-0.6224048829673032,-0.619734656395477,0.0619695243835863,-0.06937001619682179,1.2313537339388714,0.16748308087687583,0.12260302981693849,1.0687959075998859,0.0,0.0,0.0,0.0
0.03526133565314194,-0.055479066245644144,0.6859402786691171,-0.0011560683666356558,-0.3894674907744692,-0.007657771714337399,0.9210076523396217,0.1705918280955395,-0.3261300095133934,-0.6946029645092207,0.005490063331844717,-0.6151168455138063,-0.6159013069088985,0.054101683746249095,-0.06332888643167302,1.224764751273217,0.16895769743047773,0.12076587750592885,1.0722876567458068,0.0,0.0,0.0,0.0
0.03518638595985771,-0.05564995729741326,0.6854230365881755,-0.001226210896047376,-0.3894161554953762,-0.007719479090806835,0.9210287530194733,0.17157462594993503,-0.3281018469246551,-0.692995137297046,-0.00030394543725252403,-0.6064246989856807,-0.6112171286474887,0.04519475681567864,-0.05637940582312687,1.2167895593940157,0.16974238707484093,0.11781716048062524,1.0768644860538383,0.0,0.0,0.0,0.0
0.03498687837281796,-0.055610261700207365,0.684765978922107,-0.0013108906971523754,-0.38935457588540395,-0.0077821699408832205,0.9210541426179508,0.1719610492069238,-0.3307498984837003,-0.6912033560862004,-0.006434821385440805,-0.5971794943051172,-0.6059836379984971,0.03574254535209673,-0.04906076837744617,1.2081097406941061,0.1698857132280145,0.11404084068724629,1.0820307453004323,0.0,0.0,0.0,0.0
0.03464191664422551,-0.05537976375499433,0.6840242668505214,-0.0014077618710083561,-0.38928827958404055,-0.007843820073522868,0.9210814991474243,0.17176753147700258,-0.3341609397916206,-0.6887982054310468,-0.012836271506934536,-0.5878777438304246,-0.6003366367529703,0.025990330046702606,-0.041699656357249024,1.199020882513452,0.16942179414102496,0.10967379904108097,1.0873290892322387,0.0,0.0,0.0,0.0
0.03412250365662956,-0.054974890471525026,0.6832425929024283,-0.0015160838569957425,-0.38922115119613826,-0.007902847198000083,0.921109191115503,0.17100513357142005,-0.33849453752210257,-0.6852758970839755,-0.019454943859095374,-0.5787570090292619,-0.59431992654246,0.016035309885492538,-0.03449487244661954,1.1896166564260373,0.1683793625304054,0.10488201581380248,1.0923760875459079,0.0,0.0,0.0,0.0
0.03339463540457284,-0.0544112254082441,0.6824558446321586,-0.0016361075749776776,-0.38915437003699016,-0.007957541384795151,0.9211367308756208,0.16968712837213762,-0.34396985027419974,-0.6800788718512655,-0.026236895775846418,-0.5698933089084217,-0.5879472278913634,0.005911653354710632,-0.027562704914879207,1.1798976611187704,0.16679056597126896,0.09976943448857746,1.096858975675159,0.0,0.0,0.0,0.0
0.03242289076781993,-0.05370614161519629,0.6816918172730072,-0.0017685815037179937,-0.38908649180325233,-0.008006052477488756,0.9211647394138738,0.16783756779612596,-0.3508479179850357,-0.6726091235933712,-0.03313633567008721,-0.5612642463266104,-0.5812434036128582,-0.004363697629003353,-0.020962498617578984,1.1698359474720956,0.16469909790528856,0.09439977412324073,1.1005181124899728,0.0,0.0,0.0,0.0
0.031175325588476684,-0.05288086723581116,0.6809739459706952,-0.0019144960321959455,-0.3890138881321501,-0.008046688656021603,0.9211947570122849,0.16549944666701671,-0.3594061645583303,-0.6622542473482822,-0.040149709204617426,-0.5527685823316529,-0.5742669298652184,-0.01478566202617181,-0.014706929790630614,1.1594214114113515,0.16216681369033503,0.08882164217764617,1.1031309939241432,0.0,0.0,0.0,0.0
0.029631103016924065,-0.05196121649403772,0.6803230525850387,-0.002075072846130633,-0.3889312651681371,-0.008078424827494133,0.9212290182683684,0.162740638794954,-0.36989406473835884,-0.648453294743665,-0.047382489702685986,-0.5442024758476711,-0.5671180914094611,-0.025396166027537366,-0.008753393234799409,1.1487121817439652,0.15927699538721227,0.08309435613622713,1.104506376811226,0.0,0.0,0.0,0.0
0.027792661778461694,-0.05097609869056256,0.6797574726201474,-0.0022519792130786644,-0.3888321966858632,-0.00810142157851653,0.921270220064926,0.15965461927737667,-0.38245135524536983,-0.6308414428906842,-0.05515110710691824,-0.5351987424386556,-0.5599405997048141,-0.03636249051572974,-0.0029697298143857055,1.137908334732346,0.15613216679776204,0.07731443515084388,1.1044951760732618,0.0,0.0,0.0,0.0
0.025704186941599885,-0.04995346174843017,0.6792897592606163,-0.0024475352648284385,-0.3887091875441002,-0.008117110807264766,0.9213214909042747,0.15635397260207662,-0.39696454084456506,-0.6095292907863175,-0.06408881383417414,-0.525153312326942,-0.5529414002503851,-0.04809149739374539,0.0029256032668227893,1.1274638396461267,0.15284621281115887,0.07163501515761586,1.1030358269134863,0.0,0.0,0.0,0.0
0.023476485975055562,-0.04891569605279597,0.6789126662756332,-0.0026639477629247007,-0.38854651690089115,-0.008135201097429656,0.9213893455481272,0.15299615479400042,-0.4128431527329537,-0.5855872286358152,-0.07509113699159944,-0.5132249292858847,-0.5465481060656425,-0.061350091836869416,0.00940009696132143,1.1182472180726302,0.14951650587335508,0.06622432908062938,1.100272782894655,0.0,0.0,0.0,0.0
0.02133478242482452,-0.04784125111967739,0.6785900100962154,-0.0029101606626383697,-0.3882709152610214,-0.008106133442823066,0.921505028704615,0.14944930038980006,-0.42843452241989777,-0.5626792693280857,-0.0881818241589095,-0.4989964883712161,-0.5414576789511079,-0.07714516467385774,0.01696264283098678,1.1116980594815424,0.1462617774769332,0.06131385678541358,1.0964922125411276,0.0,0.0,0.0,0.0
0.019685845374733814,-0.046772048353253694,0.6783921110622612,-0.003141312305110199,-0.3879020083763686,-0.008086711564262794,0.9216597903514386,0.1461018646408925,-0.4401034758893756,-0.5466538842120753,-0.10391751751808495,-0.4824414348263332,-0.539215158367889,-0.09525667981410856,0.024813466378915402,1.1098133328665323,0.14305250566758917,0.05792843940212916,1.0917985549414662,0.0,0.0,0.0,0.0
0.018758690458183288,-0.045920273755432985,0.6783982068101827,-0.003263996250621989,-0.38752233439906447,-0.008053727984764447,0.9218193554791106,0.14342878212815635,-0.4458615501655648,-0.5399684427621507,-0.11816203331228317,-0.46630701538549246,-0.5430808492405048,-0.11158910637307537,0.02942699477336603,1.1141895013315872,0.14039504639657574,0.05672873327106874,1.0867838823808853,0.0,0.0,0.0,0.0
0.018748270113016385,-0.04583517331814093,0.6783667542166879,-0.003346262567601915,-0.38753486736108406,-0.008091071298168183,0.9218134646833401,0.14336643305008087,-0.4459718777489004,-0.5399542212178572,-0.118191162364955,-0.46630049878979857,-0.5430856844787793,-0.11159391607082461,0.029455778763221856,1.114201602716543,0.14033539980166954,0.05670847537432358,1.0867386475250405,0.0,0.0,0.0,0.0
0.018748270113016385,-0.04583517331814093,0.6783667542166879,-0.003346262567601915,-0.38753486736108406,-0.008091071298168183,0.9218134646833401,0.14336643305008087,-0.4459718777489004,-0.5399542212178572,-0.118191162364955,-0.46630049878979857,-0.5430856844787793,-0.11159391607082461,0.029455778763221856,1.114201602716543,0.14033539980166954,0.05670847537432358,1.0867386475250405,0.0,0.0,0.0,0.0
0.01839713841111066,-0.045347356103921224,0.6780341843986707,-0.0035740754450131152,-0.38773113194009556,-0.00802448551738651,0.9217306563966216,0.14167698138061555,-0.4486109230715429,-0.5368876612506561,-0.11972879567756392,-0.47173994779913336,-0.5321514714676826,-0.1123609085577888,0.026785706504568175,1.1184473289937844,0.1397476823296851,0.05511144220999992,1.088724166775758,0.0,0.0,0.0,0.0
0.01841673938080236,-0.04477810723297585,0.6775214770889594,-0.003714224519090797,-0.38782572529412074,-0.007962319681195604,0.9216908444818173,0.13990411503758146,-0.4480328742644502,-0.5408350034415176,-0.12175206073353574,-0.47467630794135884,-0.526973306178519,-0.113782424851072,0.02373558209673102,1.1245233841557245,0.13872161231924238,0.05314335082472291,1.0922340369015657,0.0,0.0,0.0,0.0
0.018978575425717483,-0.04431682527474828,0.6770392744675137,-0.0037640907281787797,-0.3879347921214759,-0.007951942762959869,0.9216448314231204,0.1387190356505236,-0.4429274888471536,-0.552266435599232,-0.12344609723952234,-0.47238874094805705,-0.5315096232476654,-0.11542406915072523,0.021982424522881582,1.130961267004426,0.13777916494217426,0.052141464337175536,1.0965481329056528,0.0,0.0,0.0,0.0
0.020216493918961746,-0.04396891446968172,0.6768732619974246,-0.003728436942602071,-0.3882082663264755,-0.008023324458012463,0.9215292002852643,0.13813590926494415,-0.43182349818038535,-0.5718430728747206,-0.12457453761431075,-0.46315195023081446,-0.5470710662509175,-0.1173602142806363,0.023381528303172264,1.1361868007900031,0.13690052354918172,0.053946582414708434,1.0999698143873893,0.0,0.0,0.0,0.0
0.02237387049315016,-0.04355355512308923,0.6779010229912771,-0.003690216425305163,-0.38910388850921734,-0.008340039624771128,0.9211487339126067,0.13786828480092814,-0.4107467402845119,-0.6008240080200535,-0.12462070031500457,-0.4441673885032367,-0.5728966025836278,-0.12034077182898731,0.0331591356452485,1.1356734638295418,0.13539701862384407,0.06401290270260165,1.0965111348198489,0.0,0.0,0.0,0.0
0.024281489082180394,-0.042615388568128666,0.6779451357386079,-0.004057706562221729,-0.3889297705696314,-0.008135431679080707,0.9212225482116163,0.11812776071215492,-0.44283601114821547,-0.5745244690238354,-0.1288440062101248,-0.4313051150819513,-0.593859999205802,-0.12236777204928996,0.035647049627737765,1.1394216727659277,0.11193384964630289,0.05271986468272589,1.098167124315811,0.0,0.0,0.0,0.0
0.026630605703442844,-0.04185089631459757,0.6780934048005361,-0.004362602064066212,-0.3886690991734497,-0.00812244054041367,0.9213312786455246,0.09554475192886527,-0.46978022880534737,-0.5646876512858843,-0.1320006766057074,-0.41473582751771876,-0.6224081562185168,-0.1245448441310503,0.03972004083437988,1.142276602664317,0.08556446643516656,0.040860585998081185,1.1022552591680295,0.0,0.0,0.0,0.0
0.02891170410174409,-0.041276580261125205,0.6784072999294595,-0.00463398060464026,-0.38856949759151027,-0.008172578667052843,0.9213715215498947,0.07546084854653935,-0.49062667248893826,-0.5633794509142731,-0.1342179150560426,-0.3987252763913658,-0.64895553833235,-0.12637734161454808,0.04494836423328994,1.1437689412444276,0.062205187990877285,0.03075061617670563,1.108833384270297,0.0,0.0,0.0,0.0
0.030928531616998815,-0.04089590820350507,0.6788524930282148,-0.004871550083619177,-0.3885897899354107,-0.008239929142903942,0.9213611380590436,0.05900568532106752,-0.5068052308493078,-0.566235378507494,-0.13560328623639425,-0.38447185219176855,-0.6716101941221896,-0.1276653110966805,0.050701616445091115,1.14372310934581,0.04251917175598788,0.022175474901553263,1.1169162832704214,0.0,0.0,0.0,0.0
0.03256433611550594,-0.04068613285846585,0.6793692819710102,-0.0050822194501156295,-0.38868050443333013,-0.008308368753509886,0.9213211207432339,0.04533659733131974,-0.5199522111603889,-0.571078536194688,-0.13627325721416517,-0.3726728639903563,-0.6895540007921303,-0.12836281691992069,0.05633959278438765,1.1423783141260337,0.025613111173251147,0.014383133778866256,1.1256255405930455,0.0,0.0,0.0,0.0
0.03378456837264725,-0.04063859029566484,0.6799215149036074,-0.005272077833471306,-0.3888060784129723,-0.008376837184979167,0.9212664474424431,0.033332750962173405,-0.5313338405938985,-0.5767992076639586,-0.13626537578838827,-0.3634233499527014,-0.7029483762877126,-0.12844610330023362,0.061532745418970386,1.139926586311799,0.010476363425363424,0.0067806621821540096,1.1344049182945233,0.0,0.0,0.0,0.0
0.0346124180627479,-0.04075962639999938,0.680493650190792,-0.005444098030234116,-0.3889442703869718,-0.008449434046768118,0.921206449930781,0.022193392949376514,-0.541793494399954,-0.5828054810868526,-0.13556517650936054,-0.35644236701106974,-0.7125116839244163,-0.12789005266938946,0.06620819398797456,1.136467169159223,-0.0036135128687888717,-0.0009648833685703814,1.1429804580295466,0.0,0.0,0.0,0.0
0.03510226699270802,-0.041061768451017236,0.6810784670101586,-0.005598973884935762,-0.3890828012806781,-0.008530107033434674,0.9211462763931765,0.011498587936213469,-0.551849787073357,-0.5887713965607299,-0.1341478798325653,-0.35128850917034365,-0.7191654473119047,-0.12667495302835002,0.07042633525915587,1.1320703590893966,-0.01707484541813291,-0.008995759803739376,1.1512600067037662,0.0,0.0,0.0,0.0
0.03531948748051694,-0.04155657518043387,0.6816683938415485,-0.005736457787736743,-0.3892157836167835,-0.008620871268149633,0.9210884036910901,0.0010932389393473914,-0.5618109819534678,-0.5945215969911434,-0.1320023771072157,-0.34749934777992864,-0.7238206917103156,-0.12479423215837432,0.07428467161505571,1.1268294367992162,-0.0301173413690558,-0.017350231611809853,1.1592483515614742,0.0,0.0,0.0,0.0
0.03532767424559431,-0.04225156632680034,0.6822515706246858,-0.005856275382338383,-0.38934127957469894,-0.008722230466414684,0.9210336556030257,-0.009037969251152975,-0.5718581095474059,-0.5999728215620774,-0.1291348778967054,-0.34466637053134186,-0.7272708552276208,-0.12225650723513652,0.07786335971891865,1.1208833225908246,-0.04284013284124233,-0.026018407913868072,1.1669924536779577,0.0,0.0,0.0,0.0
0.03518171677685104,-0.043150409776775187,0.682810197963447,-0.005958505453629144,-0.38945876644751093,-0.008833455001933208,0.9209822666711184,-0.018857818740823408,-0.5820936742807672,-0.6050991969900393,-0.12556499599879536,-0.34246914930265526,-0.7301545885642089,-0.11907947841990542,0.081196171559922,1.1144189373761035,-0.055295239997576226,-0.0349662798561291,1.1745478735942465,0.0,0.0,0.0,0.0
0.0349246670006693,-0.04425483484136452,0.6833194530927819,-0.006043491656641521,-0.38956755590895764,-0.008953098151712809,0.9209345457877032,-0.02832181116724607,-0.5925505755708179,-0.6099028659597342,-0.12131675875592374,-0.34068802823427724,-0.7329533319888484,-0.11528210810272613,0.08425574834034197,1.1076713841662285,-0.06751446209524961,-0.04413451636138915,1.1819539004370374,0.0,0.0,0.0,0.0
0.03458655794990921,-0.045567146548216954,0.6837461036030812,-0.006111473222143915,-0.3896656287650341,-0.009079014988588768,0.9208913720635256,-0.037396044074472695,-0.6031643855562755,-0.6143813531896244,-0.11641061199526936,-0.3392079844836388,-0.736002877713979,-0.11087598267989941,0.08694327557866136,1.1009267288990692,-0.07949826832006468,-0.05342037778447796,1.1892024404771664,0.0,0.0,0.0,0.0
0.03418386552791145,-0.047092650015309115,0.6840473607043215,-0.0061620642637033,-0.38974930828101767,-0.009207921839848181,0.9208543423548968,-0.04605665224832846,-0.6137083494680822,-0.6184851763665058,-0.11085733580895688,-0.3380198409927532,-0.7395025599661713,-0.10585740359543797,0.08908243937414488,1.094524602536486,-0.09116492771755529,-0.06264374292234016,1.1961840800299062,0.0,0.0,0.0,0.0
0.033719000956781986,-0.048841557565887095,0.6841718267182001,-0.006193757456088668,-0.38981468058723645,-0.009334632151064828,0.920825182545444,-0.05427088982527792,-0.6236971148820932,-0.6220647688956793,-0.10465342219684118,-0.33721795151977535,-0.7435110305999624,-0.10020097617938421,0.09042636235173566,1.0888484331628037,-0.10226177685735756,-0.07148960392602632,1.2025907537374685,0.0,0.0,0.0,0.0
0.033180199574336385,-0.05082986568678396,0.6840654879834996,-0.0062035676151443765,-0.3898601736098862,-0.009450428862423902,0.9208046753660789,-0.06195927271640031,-0.6322990795197307,-0.6248190050124502,-0.09778164667556626,-0.33698516810373874,-0.7479331500365194,-0.09385377308596213,0.09069185000171007,1.0842758336323506,-0.11226356951828839,-0.07941288049258528,1.2077458311544156,0.0,0.0,0.0,0.0
0.03254430863974344,-0.0530776159034237,0.6836861130344406,-0.006187937948272174,-0.38989467069375633,-0.009542579506135834,0.9207892236364003,-0.06894484713027704,-0.6383361216704805,-0.6262796395421902,-0.09021249567715782,-0.3375436509859373,-0.7525003179556671,-0.08673835989704663,0.08964723725220843,1.0810858218913173,-0.12036258509773191,-0.08547070450842395,1.2103363133986804,0.0,0.0,0.0,0.0
0.031786783454229,-0.05560156889625845,0.6830251460299992,-0.006145909327842983,-0.3899444849985561,-0.009594449761977727,0.9207678713723181,-0.07498235004735526,-0.640594827306316,-0.6259493520856019,-0.08192390549400434,-0.33905084236376304,-0.7568093387036333,-0.07876834470834103,0.08724564131517112,1.079319857404472,-0.12577071212473898,-0.08814028567093438,1.208125662003241,0.0,0.0,0.0,0.0
0.03088959913745944,-0.058409126601163625,0.6820844039682271,-0.006078179927314299,-0.39001043248142536,-0.009602617956444704,0.9207403043273414,-0.08000860579388896,-0.6390781499426694,-0.6238244766737523,-0.07288086490233242,-0.3416396283962071,-0.760605633955813,-0.06990303507841303,0.08348690826215746,1.0788541492566432,-0.12843095704929355,-0.08740822897125569,1.2011854748583553,0.0,0.0,0.0,0.0
0.029841961497172588,-0.06149978481647133,0.680874548504224,-0.005987216220019179,-0.39006966986036323,-0.009577681353920531,0.9207160658513811,-0.08418642138809355,-0.6350032399263555,-0.6204038912555171,-0.06302293716180303,-0.34541764781622897,-0.7637879061940166,-0.06014918517205102,0.07841597712784475,1.0794229713581933,-0.12903251144292482,-0.08477795797687236,1.1918396958325934,0.0,0.0,0.0,0.0
0.028632678885314535,-0.06487111465699233,0.6794368488770155,-0.005877864277298631,-0.39011780043717004,-0.009528069691576062,0.920696892783697,-0.08765787605903123,-0.6295581788412865,-0.6161535739818689,-0.05228862649457516,-0.35042381987604937,-0.7661378680012684,-0.04951389085916127,0.07225474042441328,1.0805609408535495,-0.12830459404049196,-0.08120286556187285,1.1814288738153442,0.0,0.0,0.0,0.0
0.027241260997952835,-0.06852359579149539,0.6778216857207042,-0.00575396631138691,-0.3901602030359772,-0.009459470030304448,0.9206804148375038,-0.09048620149812714,-0.6235948600120877,-0.6113659888625061,-0.040615994484255055,-0.35672183260941054,-0.7672923248441655,-0.03799868953914547,0.06527138491578088,1.081734530494884,-0.12671060540039938,-0.07726162301058624,1.170620248993908,0.0,0.0,0.0,0.0
0.025637727751604087,-0.0724592904238035,0.6760755908853985,-0.00561772051310913,-0.39020492703865955,-0.00937539337167363,0.9206631621446126,-0.09269455594457592,-0.6176229592165612,-0.6061853147282976,-0.02795389024937292,-0.3644357287941702,-0.7667657667166836,-0.025609007875154376,0.05770727963841284,1.0824303853530222,-0.12446122245577403,-0.07330569448283825,1.1596916883698052,0.0,0.0,0.0,0.0
0.023786193246252942,-0.07667811894855643,0.6742371519128987,-0.005470123731999094,-0.39025940389376984,-0.009278309212307961,0.9206419436442144,-0.09430960143226715,-0.6118998179590521,-0.600671900501268,-0.014274408746783845,-0.3737491970982061,-0.7639792958348877,-0.012369194428683356,0.049759037513061516,1.0821913979479476,-0.12162202744179379,-0.06954125315623824,1.1487067271285367,0.0,0.0,0.0,0.0
0.021649531319259945,-0.08117309859684961,0.6723383154336553,-0.005311701008824532,-0.3903293011711933,-0.009170878269115782,0.9206143152652873,-0.09539152353918622,-0.6065245865683093,-0.5948622051926155,0.00041353887761590505,-0.3848897451188478,-0.7582830614499565,0.0016609449615793553,0.04159103888364852,1.0806201011257381,-0.11822089436349818,-0.06607530122442581,1.1376146093301631,0.0,0.0,0.0,0.0
0.019194574530210257,-0.08592481571441356,0.6704079786916715,-0.005143234565907208,-0.3904181003858031,-0.00905707958510815,0.9205787436926458,-0.09605342567430697,-0.6015013062380832,-0.5888112887747426,0.016048128657780058,-0.39810717050015143,-0.7489764884977441,0.016369118556292063,0.033358610538112135,1.0773725593527996,-0.11433359904320299,-0.06294100819503945,1.1263058232719478,0.0,0.0,0.0,0.0
0.016398441528626163,-0.09089504377517098,0.668475461419382,-0.004966426299029596,-0.3905265131523708,-0.008943026167070576,0.9205348442171227,-0.09647107425224674,-0.596760098871755,-0.5826166419740753,0.03249478369297823,-0.41364800886219255,-0.7353390305185085,0.03157370783033711,0.025227649312544675,1.0721636880391234,-0.11015159748890459,-0.06010552866540097,1.1146468264002998,0.0,0.0,0.0,0.0
0.013257146981960177,-0.09601914601641447,0.6665712898447121,-0.0047843998711254495,-0.390651088703481,-0.008837007267655834,0.9204839725466215,-0.0968743311114066,-0.5921349559526574,-0.5764274257558037,0.04952097711471623,-0.4317243295567297,-0.7166899667604134,0.04700786552644445,0.017375655138602772,1.0648082222360578,-0.10603491825093081,-0.057456232601863416,1.102509784804374,0.0,0.0,0.0,0.0
0.009797995504240604,-0.10119595020601853,0.664720542366062,-0.004601936876517736,-0.3907806093379358,-0.008747278332505912,0.9204307810282258,-0.09750823415921782,-0.5873051151556593,-0.57046002320508,0.0667588342812247,-0.45247659611316465,-0.6925045651788628,0.06230497371300958,0.009944240048911536,1.0553400248207612,-0.10253784442975092,-0.054758937295854695,1.0898022257509343,0.0,0.0,0.0,0.0
0.006097062006546956,-0.10627073568497149,0.6629182326021007,-0.004427011348271575,-0.3908801707035524,-0.008654274121444669,0.9203902418326234,-0.09870152788253993,-0.5817464532429738,-0.5651722577195901,0.08354874006424556,-0.47592777288542987,-0.6626383642052136,0.0770224242311513,0.0028544403059351615,1.0442438465820671,-0.10032262125411502,-0.05158392184986519,1.0764866789458274,0.0,0.0,0.0,0.0
0.00227093518900264,-0.11105666735999649,0.6611236457030806,-0.004254292053145791,-0.39086885788559983,-0.008622527775066545,0.9203961586996664,-0.10272107586155026,-0.5753152919661444,-0.5611457545497325,0.09954322995528447,-0.5020903806889085,-0.6276429117053117,0.09046033678752026,-0.004180996587117473,1.0325575186463107,-0.100164410397261,-0.047258909888199876,1.0626357100297856,0.0,0.0,0.0,0.0
-0.0011544323604167697,-0.11526346923885808,0.6593457412105507,-0.004103012401360607,-0.3906870581069476,-0.008548018072596333,0.9204747249675047,-0.10909799806366997,-0.5679155548965652,-0.5590974947241429,0.11341957017059015,-0.5276809211373894,-0.5934328130285023,0.10210077306781104,-0.01101702559766442,1.0220727801325131,-0.1026611521170917,-0.04149240340743602,1.048422637223862,0.0,0.0,0.0,0.0
-0.003919130466026949,-0.11848338326549454,0.6577178581104098,-0.003974396940618373,-0.3903367930282444,-0.008447761987259566,0.9206248027805847,-0.11829142098652472,-0.5604629127306461,-0.5602172528196525,0.12395882629058083,-0.5505448678671144,-0.5632004386473202,0.11084223341156654,-0.01750148819058396,1.0142888121404476,-0.10790618762804,-0.0347581212665767,1.0332032757176126,0.0,0.0,0.0,0.0
-0.005602077211756637,-0.1202750957821101,0.6565191888437777,-0.003888400623154246,-0.38988152941670107,-0.008325249756719475,0.9208191807172438,-0.12812110998503612,-0.554724566676751,-0.5651512941044953,0.12971440400048426,-0.5663254669345058,-0.5432097935125184,0.11562647190853916,-0.0226834194149616,1.0103988921853777,-0.11386208273622506,-0.027942139376743797,1.017265980292822,0.0,0.0,0.0,0.0
-0.005525630817201149,-0.12041575509490059,0.656414115837629,-0.003794349565926555,-0.3899079049947523,-0.008249665941422802,0.9208090852863202,-0.12814343376633922,-0.5547361961134025,-0.5651815189309755,0.12987438757769598,-0.566508102922853,-0.5431542705204884,0.11582416436799846,-0.02262009533879194,1.0103569333313056,-0.11390317972831136,-0.027910904790063133,1.0172611718863627,0.0,0.0,0.0,0.0
-0.005525630817201149,-0.12041575509490059,0.656414115837629,-0.003794349565926555,-0.3899079049947523,-0.008249665941422802,0.9208090852863202,-0.12814343376633922,-0.5547361961134025,-0.5651815189309755,0.12987438757769598,-0.566508102922853,-0.5431542705204884,0.11582416436799846,-0.02262009533879194,1.0103569333313056,-0.11390317972831136,-0.027910904790063133,1.0172611718863627,0.0,0.0,0.0,0.0
-0.005525630817201149,-0.12041575509490059,0.656414115837629,-0.003794349565926555,-0.3899079049947523,-0.008249665941422802,0.9208090852863202,-0.12814343376633922,-0.5547361961134025,-0.5651815189309755,0.12987438757769598,-0.566508102922853,-0.5431542705204884,0.11582416436799846,-0.02262009533879194,1.0103569333313056,-0.11390317972831136,-0.027910904790063133,1.0172611718863627,0.0,0.0,0.0,0.0
-0.005070632278068652,-0.12074694359992656,0.6556002856442662,-0.0037122811427399904,-0.3900635986388858,-0.008107593392672635,0.9207447392817287,-0.12799801558790458,-0.5537930529883369,-0.5694472079163792,0.130635507739606,-0.5645900466377936,-0.5495203683414523,0.11703616407775314,-0.0257588584370838,1.0169392409679967,-0.11333257943950986,-0.032205386914407615,1.0273459583387117,0.0,0.0,0.0,0.0
-0.004161503647078592,-0.12140348562599582,0.6544151045181079,-0.0036783046583340065,-0.3900912561885901,-0.007959932232999812,0.9207344467320066,-0.12710664382501335,-0.5505819405379507,-0.580130836694545,0.13282224874551793,-0.5590760765185735,-0.5654358913085027,0.11950100804836761,-0.029920894682920276,1.0257143014841845,-0.1118402818669329,-0.03840822488957317,1.0421630742172003,0.0,0.0,0.0,0.0
-0.0027007785720418293,-0.12255548489604054,0.6531779051528105,-0.0036634607281784046,-0.3901199724635815,-0.007813567648595587,0.9207235927796725,-0.1246972753453944,-0.5438182362132882,-0.5972351459751877,0.13694278949390398,-0.5485229560455019,-0.5917346447303817,0.1236040024634485,-0.03283716320103607,1.033904102943876,-0.10901109622287113,-0.04482114694618482,1.060323185118352,0.0,0.0,0.0,0.0
-0.0005094449324125109,-0.12463188850656577,0.652685961769564,-0.003613657743656743,-0.39047860904532194,-0.007736099921314593,0.9205724035151986,-0.1185615749539783,-0.5304965460029467,-0.6201711385466478,0.14445772533251672,-0.5293392250040898,-0.6304548177233319,0.13028576201085343,-0.029077930322318653,1.0348772176275165,-0.10381452894004327,-0.04748327330328526,1.0785089554032217,0.0,0.0,0.0,0.0
0.0028535328742296507,-0.12870876405680626,0.6551548237872095,-0.0035463694178581276,-0.39177865704100506,-0.008086963788001184,0.9200171238448718,-0.1024324926407163,-0.5018798579303002,-0.6496651336974891,0.1598315951137701,-0.4915067041724559,-0.6888357595227729,0.14187015107781845,-0.004041763589055645,1.0097711673846774,-0.0934267610133181,-0.03568308714161374,1.0858076084220358,0.0,0.0,0.0,0.0
0.006195192868718183,-0.1323396057156329,0.6573599225719667,-0.0033634486722618575,-0.39116580520528466,-0.007856529887721633,0.920280541459643,-0.09176773739121358,-0.47648349985746286,-0.6871483887440497,0.1448081181771215,-0.5194045491986059,-0.6393828158536241,0.1329696710556216,-0.014287935471751504,1.0338994166573021,-0.08284933407582405,-0.024788280573128988,1.0858419681472191,0.0,0.0,0.0,0.0
0.010137385936280607,-0.13632707622070667,0.6594975881649604,-0.0032992455838694776,-0.39054275162663593,-0.007768014191216331,0.9205461053559447,-0.07920972479735128,-0.4488334481318013,-0.7282921611036263,0.12784459330537284,-0.5394012867682885,-0.6119702376238807,0.1229826397874618,-0.021282563204683146,1.0541387965181095,-0.07116172691306236,-0.013609379375535666,1.0878779443462074,0.0,0.0,0.0,0.0
0.013877843103746113,-0.14070831143761686,0.661434330084384,-0.0031934486113485787,-0.390176276798909,-0.007763234474266804,0.9207019100120328,-0.06459875071676492,-0.42488265020892124,-0.7606038999379322,0.11554486837647125,-0.5542662525090265,-0.5983878494179854,0.1164959186763043,-0.0266825452027933,1.070950163526114,-0.058459583741225674,-0.0037806858600067574,1.0927480193723407,0.0,0.0,0.0,0.0
0.01719872728698,-0.1452978898190896,0.6633510433965614,-0.0030396679785299925,-0.3900213049753505,-0.007765241495188935,0.9207680723767665,-0.04897808657522637,-0.40457638295095716,-0.7840810206627595,0.10814534182504604,-0.5657329984228926,-0.5927188529649051,0.11384433961890335,-0.03143672708417174,1.085352206174439,-0.045049236649715295,0.005597168963682205,1.097888444338233,0.0,0.0,0.0,0.0
0.020015259529592856,-0.1499613372972117,0.6653145251255028,-0.002855525952175403,-0.389989068292628,-0.007749216183169222,0.9207824510883832,-0.033068567726829395,-0.387724088949541,-0.7996817505045224,0.10428264766759267,-0.5749000744624879,-0.5914902478575268,0.1139828503502569,-0.03597825121492359,1.0980835133678128,-0.031208044674728014,0.014811623837854176,1.1018963133311679,0.0,0.0,0.0,0.0
0.02232673826318895,-0.1546086131105413,0.6673242718519475,-0.002658113504957061,-0.39001837996964017,-0.00771344136419887,0.9207709272890696,-0.017320097224143273,-0.3740656918725176,-0.8085459787704505,0.10248467332492803,-0.5825368236825665,-0.5926612192104919,0.11571818792372121,-0.040475143288701165,1.1096575275146319,-0.017195368496654578,0.023836908395707644,1.1043253442962981,0.0,0.0,0.0,0.0
0.02418137464092933,-0.1591769569210499,0.6693558551462478,-0.002460520215302208,-0.39007132654428217,-0.007662803450897952,0.920749470535567,-0.0020186482730885167,-0.3632582245992463,-0.8118684307583623,0.10163442416963588,-0.5892254949998601,-0.595060326803611,0.11813070496773281,-0.04501523479223437,1.1204482127044995,-0.0032398568120000377,0.032583782781583165,1.1051774939912873,0.0,0.0,0.0,0.0
0.02565207765013911,-0.1636202232557968,0.6713829325254799,-0.0022712068771499195,-0.39012672847475666,-0.007602853061344251,0.9207269812350631,0.012651588874095116,-0.35488597546566136,-0.8108290335706724,0.101014060037092,-0.5954039021183312,-0.5980341974445597,0.12063608931889028,-0.049659394831205836,1.1307443101665775,0.010463761622407305,0.04100472955875922,1.1046147101526111,0.0,0.0,0.0,0.0
0.02681972141493354,-0.1679036922377271,0.6733840612068027,-0.0020948804563772614,-0.39017410227228794,-0.007538147603550646,0.9207078568811036,0.02657478040461785,-0.3484967979005814,-0.8065385691116516,0.1002063135060206,-0.6013888621001185,-0.6012334650826493,0.12291639025877305,-0.05445044716353915,1.1407762912927628,0.023757392533429213,0.04910573113465679,1.102838322271609,0.0,0.0,0.0,0.0
0.027761971411617854,-0.17200167641998018,0.6753419340123493,-0.0019336542551465505,-0.3902090879850018,-0.0074721924548439254,0.9206939203530413,0.039685258698311826,-0.343646482578951,-0.7999950016098988,0.09898348682901642,-0.607399165226734,-0.6044856997073488,0.12482872505140591,-0.0594103570996436,1.1507282995825345,0.0365203296970374,0.056918683048051144,1.1000576023151967,0.0,0.0,0.0,0.0
0.028546432072291142,-0.1758960262373855,0.677239770891642,-0.0017880639221874062,-0.390230238218632,-0.007407710090648876,0.9206857714977748,0.051955303646817545,-0.33993853127215584,-0.7920537646423323,0.0972265265732147,-0.6135734467675539,-0.6077200485173433,0.1263311197945336,-0.06453410119828124,1.1607412990679553,0.04866722378453068,0.06446525552960802,1.0964967095088725,0.0,0.0,0.0,0.0
0.029227001752737725,-0.17957467101320096,0.6790569732847035,-0.0016578730933345096,-0.3902368054536469,-0.007346844825430581,0.9206837193071516,0.06338510308884507,-0.3370547535119398,-0.7834124765363744,0.09487745794975147,-0.6199716256317558,-0.6109186997165545,0.1274281855611449,-0.06977993965662717,1.170907414307799,0.06014362165089303,0.07172388924355372,1.0924160667311433,0.0,0.0,0.0,0.0
0.029842254847460444,-0.18303001901132274,0.6807648019345602,-0.0015427298737433323,-0.3902273179761123,-0.007291278658984177,0.9206883824319844,0.07399421739214422,-0.33477756502429107,-0.7746054127927741,0.091916347433848,-0.6265486527348628,-0.6140771302511708,0.1281229482035905,-0.07505404051433481,1.1812485780156932,0.07092024722428926,0.07860208791639973,1.0881391337961734,0.0,0.0,0.0,0.0
0.030414688356742006,-0.18625747589814892,0.6823224889133626,-0.0014426828832567547,-0.3901998935176023,-0.007242477753870442,0.9207005529926301,0.0838154862566132,-0.3330069396038778,-0.7659942494929717,0.08835539065880638,-0.6330937991325958,-0.6171562164908502,0.12835859888232587,-0.08018557627514078,1.1916667025129688,0.08098740259609617,0.08491443202411252,1.0840841853548002,0.0,0.0,0.0,0.0
0.030975114437522766,-0.18924436589569357,0.6836780493933011,-0.0013596315107109588,-0.390149435166495,-0.007202028163995973,0.920722379673561,0.0928640128160247,-0.3315908332942624,-0.7581073328341456,0.08415954438198595,-0.639130796880345,-0.6200169859877477,0.1279155630399407,-0.08483850669219765,1.2018817751566024,0.09032346087822189,0.09043791568622742,1.080746746271569,0.0,0.0,0.0,0.0
0.031595815763952456,-0.191953105872506,0.6847800429349057,-0.0012990060556591961,-0.3900610816631673,-0.007173025302738317,0.9207601277547989,0.10109878845904634,-0.3300485766484948,-0.7521471334450412,0.07908115201148497,-0.6438030759758859,-0.6223512713462248,0.12626311293695017,-0.08835743563867947,1.2113022739796577,0.0988437283752815,0.09504119008837728,1.0785656370456245,0.0,0.0,0.0,0.0
0.032224964214298095,-0.19438375879274,0.6855880658522567,-0.0012620372109367185,-0.38995256303155973,-0.007166538022931668,0.9208061938214586,0.10859901502246036,-0.3287073594603673,-0.7475529265700237,0.07305707214048304,-0.6458956094506709,-0.6236012671687272,0.12264845047772695,-0.08986535999026336,1.218494508783171,0.10654666154185974,0.09840830523658159,1.077965518548239,0.0,0.0,0.0,0.0
0.032769500077888196,-0.19655336977031215,0.6861004611304987,-0.0012459918996838328,-0.38986552905624355,-0.0072018299468301844,0.9208427935338899,0.11548607693379193,-0.32812645052841183,-0.7430206444868672,0.06608643551449354,-0.6441586111853964,-0.6230963930801443,0.11634896111094446,-0.08795475156678871,1.220955705598586,0.11344222139778387,0.10034892318197791,1.0791105989537246,0.0,0.0,0.0,0.0
0.033217956519571226,-0.1984628276224756,0.6863294241185931,-0.0012518524779895153,-0.38979795369400155,-0.007276374672348433,0.9208708066460626,0.12176076279775452,-0.32833316623090814,-0.7384750568542061,0.058202246338392785,-0.6385872742829082,-0.6207636710870985,0.10738176779432566,-0.08262496588777808,1.2185675048688964,0.11954191992000925,0.10089064420041224,1.0819273714270288,0.0,0.0,0.0,0.0
0.03356796466400582,-0.20012852433253678,0.6862962612217978,-0.0012800108070878846,-0.38972268155444967,-0.007368648145341266,0.9209018927545175,0.12740687056442151,-0.3293316346316821,-0.734002652451047,0.04966007914407538,-0.6304118926899884,-0.617152135653013,0.09655738063968053,-0.0754057212023771,1.2135372703734906,0.12493644655023746,0.10010532413942831,1.086211792811394,0.0,0.0,0.0,0.0
0.03381732182661489,-0.20157421739504694,0.6860564919671466,-0.0013263289752614852,-0.3896330910266239,-0.007466821762344854,0.9209389457511596,0.13244735678762942,-0.3310543502503583,-0.7295242061258786,0.04068469191309543,-0.6208254701306921,-0.6127292864982328,0.08469123848995994,-0.06724386734839852,1.207127155131356,0.12969834647825085,0.09824914194782149,1.0915355145887013,0.0,0.0,0.0,0.0
0.033954382480973384,-0.20282296458008053,0.6856758589472138,-0.0013868407208657597,-0.3895329404267846,-0.007565289338710499,0.9209804185716978,0.13691191461352736,-0.3334739754692241,-0.7247792397597308,0.03140663726616341,-0.6106654905780166,-0.6077586016579161,0.07230821590820725,-0.058698967175215076,1.1999584121969085,0.13387980747354358,0.09561874316309919,1.0973968698833902,0.0,0.0,0.0,0.0
0.03395690237288749,-0.2038947477410503,0.6852150301206953,-0.0014592118952666577,-0.38942809689232083,-0.007661202711136005,0.9210238509531057,0.14082462819646954,-0.33664491125162765,-0.7193728956229624,0.02190154146375899,-0.6004179763989925,-0.6023434050331695,0.05966720348473393,-0.0501067272412474,1.1922916860569441,0.13751896172868344,0.09246472140270101,1.1033255185591364,0.0,0.0,0.0,0.0
0.033794297924240865,-0.20480642358646392,0.6847241167886344,-0.0015426583916726636,-0.3893227815956229,-0.007752569962019814,0.9210674728784626,0.14420205229363398,-0.34070290571262535,-0.7128222188704776,0.012226244438644195,-0.5903163616608006,-0.5964987710388312,0.046865447679168205,-0.04166903984875683,1.1842019783306923,0.14064530964217484,0.08896537421020374,1.1089218395895462,0.0,0.0,0.0,0.0
0.0334307114071887,-0.2055725749805091,0.6842429358881417,-0.001637465037402486,-0.3892184972644098,-0.007837527071787894,0.9211106628765541,0.14705583355819668,-0.34584963868034635,-0.7045863889454459,0.002430394255948957,-0.580439628254593,-0.5902104503313201,0.03392500440582165,-0.03350475977168605,1.1756816112116997,0.14328380123528836,0.08523429212865759,1.1138548673949198,0.0,0.0,0.0,0.0
0.03282851953122815,-0.2062064959786427,0.6838034651665974,-0.0017445839544344567,-0.3891141314064415,-0.007914276778134232,0.9211539032049506,0.14939690210359866,-0.3523322342939628,-0.694089170481815,-0.007455867850753979,-0.5707761241433146,-0.583472600973711,0.020836573467107593,-0.02567885250927067,1.1667018190649578,0.1454579910829532,0.08134161209730903,1.1178442573936642,0.0,0.0,0.0,0.0
0.03195313435024854,-0.2067205925343653,0.6834323325094979,-0.001865445981868646,-0.38900639542173093,-0.007981388814614824,0.921198589808338,0.15123919947152675,-0.36041519614758794,-0.6807534584286815,-0.017459314175770686,-0.561245016953408,-0.5763064331007197,0.007560297953688087,-0.01821400394687525,1.157258590307937,0.14719156581818812,0.07733899657954829,1.120642589924471,0.0,0.0,0.0,0.0
0.030780561027890754,-0.2071253001732322,0.6831523130339862,-0.0020019936989977135,-0.38889025058252463,-0.008038279402797168,0.9212468459036008,0.15260052788066145,-0.37033314582868404,-0.66407681783056,-0.027731400142018133,-0.5516760663848788,-0.5687635704474844,-0.006014414942019037,-0.0110809600617011,1.1474247942123208,0.14850636385624202,0.07328600398737391,1.1220260636482093,0.0,0.0,0.0,0.0
0.029309533001962373,-0.20742549101078353,0.6829823078284215,-0.002156871352909502,-0.3887592134708395,-0.008085586388196798,0.9213013867026687,0.15349710455809207,-0.38220396281934815,-0.6437901205780305,-0.038644825147310435,-0.5417543255171452,-0.560919823303949,-0.020148779945073345,-0.004160782419303786,1.137428537676055,0.14941471232019318,0.06927871424434762,1.1217989047888857,0.0,0.0,0.0,0.0
0.027579980328427005,-0.20761394441813016,0.6829342788504432,-0.0023335954157121465,-0.38860516100227044,-0.008124588936266303,0.9213656029120318,0.1539284298357854,-0.39587525011342845,-0.6201596362927799,-0.050882733464620196,-0.5309544115906982,-0.5528773085174448,-0.03535875136061126,0.0028204971717950156,1.127772829028615,0.14990713708775621,0.06547501902180956,1.1198273507573724,0.0,0.0,0.0,0.0
0.025698022896868088,-0.20766433993971037,0.6830002216360153,-0.0025359420596667835,-0.38841402537113423,-0.00815397277382049,0.9214454007812214,0.1538572768750741,-0.41068838969693566,-0.5945073221712736,-0.06539480808726997,-0.5185469402600104,-0.5448376536548998,-0.05247463197089845,0.010340677554596611,1.1193925668166966,0.14994569443429936,0.06207436196594396,1.1161594904250676,0.0,0.0,0.0,0.0
0.02385998667392472,-0.2075310983672955,0.6831062030498384,-0.002769495401859811,-0.3880944644318545,-0.008163551710000567,0.9215792819915437,0.1532469462373392,-0.42521375430565417,-0.5702575800983505,-0.08298442846342138,-0.5040666284091007,-0.5374373246924019,-0.07247460164266419,0.018754735886964004,1.1137715577778318,0.14946968655271367,0.05904704426622959,1.1111907623245247,0.0,0.0,0.0,0.0
0.022467211942477226,-0.20714920712730905,0.68330900109743,-0.002989545722106475,-0.3876671964077806,-0.008158435048084533,0.9217584539255785,0.15198063719722335,-0.4356326321059814,-0.5539670637435448,-0.10316229612240281,-0.48793506422586347,-0.5316946784570654,-0.0948322686094656,0.027305416368778333,1.1130257120212657,0.14824039683462992,0.05747718798245779,1.104902682120814,0.0,0.0,0.0,0.0
0.02170043579077333,-0.2066679756656938,0.6835995487065203,-0.0030884493038562484,-0.3872092773495762,-0.008122717654442172,0.9219508980814666,0.15039201223751678,-0.4403393642553525,-0.5478157917705413,-0.12083811651105936,-0.4733980904702241,-0.5305906204943321,-0.11449251555960907,0.03217741101267207,1.1186450494307048,0.14654745008456443,0.057556329681028265,1.098355918408722,0.0,0.0,0.0,0.0
0.021699550418724234,-0.20661629403157508,0.6835777955013188,-0.0031424535600439955,-0.38721039917925837,-0.008145628501640242,0.9219500422958804,0.15036380801618845,-0.44044019797691997,-0.5477986639224702,-0.12086912419453957,-0.4733904449135819,-0.5305933321946521,-0.114501673600935,0.0322050834453387,1.1186578273161798,0.14651653043564164,0.05755164500666383,1.0983137064217112,0.0,0.0,0.0,0.0
0.021699550418724234,-0.20661629403157508,0.6835777955013188,-0.0031424535600439955,-0.38721039917925837,-0.008145628501640242,0.9219500422958804,0.15036380801618845,-0.44044019797691997,-0.5477986639224702,-0.12086912419453957,-0.4733904449135819,-0.5305933321946521,-0.114501673600935,0.0322050834453387,1.1186578273161798,0.14651653043564164,0.05755164500666383,1.0983137064217112,0.0,0.0,0.0,0.0
0.02147208052979608,-0.20642552712588036,0.6833537956316109,-0.00336751843533473,-0.3873900375826908,-0.008107871771953778,0.9218741134323051,0.14968713823878754,-0.4425457719130974,-0.5447603709750123,-0.12138978824014104,-0.4766846648364684,-0.5237942358410299,-0.1144053568781164,0.0305567754747801,1.1214173735200799,0.14678320349536156,0.05647743810461587,1.1001407324486936,0.0,0.0,0.0,0.0
0.021621126496517967,-0.20620544821373346,0.6829665090765977,-0.003501686143245445,-0.38749752803432874,-0.008073006767937756,0.9218287425130351,0.14907186084760796,-0.44157054348585706,-0.5481693545819698,-0.12223439618608307,-0.4770741817620198,-0.5233541768737172,-0.11481585083012512,0.028704234633604074,1.1258593279495728,0.14679245478548766,0.0551408733026548,1.103576164064203,0.0,0.0,0.0,0.0
0.02226762512785213,-0.20599171663794968,0.682481961961443,-0.0035557296228052016,-0.3876230799736717,-0.008064188603120727,0.9217758260665916,0.14868294586457237,-0.4365135838111792,-0.5589936403863872,-0.12317894779186928,-0.4731977586132041,-0.5311193073992065,-0.11570118980368473,0.02733520566982868,1.131892072209301,0.146697241610311,0.05416957741242929,1.1086162544398397,0.0,0.0,0.0,0.0
0.02352516366593065,-0.20573553944205478,0.6821292941518802,-0.003538704823033923,-0.38790731034726394,-0.008111323771021238,0.9216559024787986,0.1483777683787348,-0.4260475136773595,-0.578010324332817,-0.12416291557930366,-0.46393090158890277,-0.5474761984705705,-0.11730187911792989,0.027947043053670056,1.138440615750279,0.14632705498522483,0.0551231799364151,1.1138375946673993,0.0,0.0,0.0,0.0
0.025633618335948526,-0.20528909385380198,0.6827670468566682,-0.0035225243097724884,-0.38877196002653336,-0.008402944024148006,0.9212889587156364,0.14804899334098923,-0.40633685336267994,-0.6063662101055923,-0.12449941778294309,-0.4463831865722111,-0.5722424063876348,-0.12035210032731641,0.035698321800425176,1.140892027141971,0.1449852090502385,0.0632587663867954,1.1133438106925753,0.0,0.0,0.0,0.0
0.027481928591273713,-0.20426375807452807,0.6824283702442032,-0.00391093608158458,-0.3886340827416948,-0.00816349196860678,0.9213477148771606,0.12798186032502182,-0.43982532148116327,-0.5790024690253841,-0.12919357444483767,-0.4351214287813425,-0.591370099937529,-0.12263354956004612,0.03619688539774597,1.1479613120570953,0.11998089383170596,0.05365785042679734,1.111306165117431,0.0,0.0,0.0,0.0
0.029759200505269326,-0.20341846785526316,0.6822178068295586,-0.004246342128241758,-0.38841695390970415,-0.008116649323080089,0.9214382011278905,0.1048181095483894,-0.467861161198141,-0.5684302343003516,-0.13278610772380378,-0.4200957443269511,-0.6180599793619181,-0.12502358006847933,0.03842237433572628,1.1538943919354923,0.0924222943583615,0.04264562363760797,1.11340712641303,0.0,0.0,0.0,0.0
0.03195862544973148,-0.20277977337047015,0.6822678993034835,-0.004543865816557362,-0.3883604473747779,-0.008145325678822455,0.9214603463350386,0.08424179476013538,-0.4894357415335707,-0.5667227026861048,-0.13531451929624225,-0.4053514060718514,-0.6429619568789783,-0.12703180049839707,0.042283022234241734,1.1576388787784133,0.06821199388825369,0.03281519527893358,1.1190438676398116,0.0,0.0,0.0,0.0
0.03390500448688409,-0.20236168049601375,0.6825297789331501,-0.004797935765366649,-0.3884035645514571,-0.00820094031885245,0.9214403916879269,0.06751530846308323,-0.5061169715376298,-0.5694008475732438,-0.13688258780746074,-0.3919746362990314,-0.6645593335424127,-0.12842781333581832,0.04707775879968726,1.159091581130025,0.04800181602064296,0.02428574434845176,1.1267662923212267,0.0,0.0,0.0,0.0
0.03549199741334379,-0.20214289892554602,0.6829239525876212,-0.0050162131806577226,-0.3885002120112663,-0.008264423904518455,0.9213979173896877,0.053785719162454775,-0.5196134382691564,-0.574202799896448,-0.13761959464922224,-0.3806881158034239,-0.6820336675852857,-0.12915806452601097,0.0520796182320077,1.1586838075800503,0.03081048441609755,0.016489663223470435,1.135435005180346,0.0,0.0,0.0,0.0
0.03668760608581362,-0.20211110548544903,0.6833961298920651,-0.0052070670918111135,-0.38862033784596517,-0.008331910062101232,0.9213455913713954,0.04187316815343337,-0.5312414842145469,-0.579962987532455,-0.13758752834444285,-0.3716526231053795,-0.6954471633814282,-0.1292042933900061,0.056873885697601594,1.1567841969658366,0.015540358256818215,0.008899896200325079,1.144346394725276,0.0,0.0,0.0,0.0
0.037512533185989065,-0.2022661814601499,0.6839162147451794,-0.005375908015204423,-0.388746625466774,-0.008405244217278065,0.9212906776207256,0.03091263522872873,-0.5418798238934586,-0.5860535966270493,-0.13680069165240127,-0.3646623328177822,-0.705390808426019,-0.12855545025045736,0.06131260061842319,1.1536344363825257,0.0014027569802088392,0.0011917558947950047,1.1531431998727346,0.0,0.0,0.0,0.0
0.038015964639681814,-0.20261329636585224,0.6844663503154969,-0.0055254756711928706,-0.3888704993440313,-0.008486844506832994,0.9212367650766267,0.020432727399707737,-0.552071998494558,-0.5921256008447376,-0.13526167008481874,-0.3593490460897211,-0.7126568063581098,-0.1272098495146498,0.06539507487622209,1.149410065103667,-0.01206519776298233,-0.006789051150061903,1.1616860428724998,0.0,0.0,0.0,0.0
0.03825711538819563,-0.20315711158026878,0.6850318520249343,-0.005657021240978576,-0.38898866512546426,-0.008577988402260938,0.9211852336145859,0.01024375159516425,-0.5621430150576471,-0.5979883144657695,-0.1329814778966964,-0.3553164086347218,-0.7180369838616285,-0.1251793257755422,0.06917301354857991,1.144275813762476,-0.02510107685184705,-0.01509483829638362,1.1699529873174144,0.0,0.0,0.0,0.0
0.03829361456487176,-0.203899491598077,0.6855964745135253,-0.005771264504839612,-0.38910053396262684,-0.00867877637536669,0.9211363340009123,0.0003091080949943325,-0.5722861265137789,-0.603548460806216,-0.12998334286387767,-0.35221189135217656,-0.7222238523531218,-0.12248773330214204,0.07269404095492082,1.138413246605219,-0.037819591180886666,-0.023725906509789806,1.177975549086028,0.0,0.0,0.0,0.0
0.03817525182522982,-0.2048399568736073,0.6861400837987488,-0.005868865715046335,-0.3892063235128611,-0.008788513813077077,0.9210899826714968,-0.009344939651668752,-0.5826112045158934,-0.6087729698677841,-0.1262977456508358,-0.3497593573990343,-0.7257757898600438,-0.11916454292212478,0.07597163333668415,1.132031006562096,-0.05028122986303879,-0.03265312828504307,1.1858000824848878,0.0,0.0,0.0,0.0
0.037941124865295266,-0.20597755742770607,0.6866369401665237,-0.005950474188215056,-0.3893056766435452,-0.00890594865760108,0.9210463430623645,-0.018678608377158634,-0.5931550868384073,-0.6136586224304011,-0.12195488660465645,-0.34777136279808146,-0.7291153479635583,-0.11523643642619849,0.07896793615208682,1.1253707579159797,-0.062521741215296,-0.04181824310979125,1.1934596214752755,0.0,0.0,0.0,0.0
0.03761848892065117,-0.2073131806754509,0.6870538810260752,-0.0060164806599002415,-0.3893967692764163,-0.009029151391909067,0.9210062065277848,-0.02765930218611176,-0.6038541965533383,-0.6181988336817635,-0.1169778876089271,-0.34615357416570963,-0.7325389812655396,-0.11071895193639766,0.08158160937506335,1.1187145775421696,-0.07454280893833959,-0.05111734384265775,1.2009405880550417,0.0,0.0,0.0,0.0
0.037222093677545,-0.20885172871963426,0.6873489117789184,-0.006066580644101539,-0.389476154810343,-0.009154991908073838,0.9209710677087535,-0.03626313765248309,-0.6144794774887558,-0.6223412267872278,-0.11137774262812523,-0.3449072221228142,-0.7362232511501365,-0.10560908711732026,0.08364031727754186,1.1123904273564171,-0.08626206678604523,-0.060368140128432675,1.2081268768579998,0.0,0.0,0.0,0.0
0.036753451963653594,-0.2106037920456335,0.6874719252879005,-0.0060992690667160815,-0.3895399095431026,-0.009278234288876626,0.920942654109627,-0.04445841162312213,-0.6245415660315851,-0.625935051585481,-0.1051501137246997,-0.34412873794316595,-0.7402185154950611,-0.09987925149181602,0.0849055095384204,1.106763296443445,-0.0974241505305227,-0.06925399526330664,1.214699796102502,0.0,0.0,0.0,0.0
0.03620058527096024,-0.21258623258370662,0.6873704027838357,-0.006111536484239151,-0.38958699093368493,-0.009390413077408033,0.9209215198697848,-0.0521672333196538,-0.6331999775573438,-0.6286800390715787,-0.09827448682900355,-0.34399674863460994,-0.7444301009130618,-0.09347383220084157,0.0851055297524885,1.1021926898219325,-0.10750069870085867,-0.07722695988258702,1.2199670168306234,0.0,0.0,0.0,0.0
0.03554068587284476,-0.21482019802518512,0.6870033315448185,-0.006099480004971169,-0.3896257687591545,-0.009479036153921863,0.9209042863056396,-0.059216841773982565,-0.6392693006316345,-0.6301147729634822,-0.09071852245387448,-0.3447251411753922,-0.7486037269541385,-0.08631267261077435,0.08401804907035118,1.0989392751739395,-0.11567924201299612,-0.08334171971400006,1.2225908961414933,0.0,0.0,0.0,0.0
0.034750192394061435,-0.2173233920924833,0.6863628502044128,-0.006061425086744485,-0.3896809509313926,-0.009528058393178726,0.9208806826676187,-0.06536610267542735,-0.641532456605824,-0.6297542687593101,-0.08245759120196224,-0.3464600587693906,-0.7523644772629811,-0.07830933255180676,0.08160130020766906,1.0970313057153518,-0.12116835420142576,-0.08607196120430369,1.2203048791458122,0.0,0.0,0.0,0.0
0.03381301368736753,-0.2201038100907976,0.685451496613923,-0.005997904427097751,-0.3897531601617443,-0.009534060363277388,0.9208504769936358,-0.07054792669256592,-0.6399898680357017,-0.627596900636174,-0.07345695282635523,-0.3493170205079979,-0.755486301173784,-0.06942286491420616,0.07786109330339767,1.096342182107538,-0.12390824547816447,-0.08539882128044517,1.2131821393858586,0.0,0.0,0.0,0.0
0.03272112992481813,-0.223161199262491,0.6842807624901063,-0.0059117391491403165,-0.38982066541207455,-0.009507083475025371,0.9208227383822137,-0.07491325957950737,-0.6358570380689578,-0.6241336736137219,-0.06365935163351281,-0.3533805263691128,-0.7578966772674145,-0.05965926985045141,0.07284941495573756,1.096612176487921,-0.1245863029754902,-0.0828193480481534,1.2035783249497771,0.0,0.0,0.0,0.0
0.03146642292739119,-0.2264931609364224,0.6828924905884882,-0.005807776197429309,-0.3898791050912362,-0.00945525997269198,0.9207991915763969,-0.07859411852169992,-0.6303237144909525,-0.6198275525260796,-0.05300707173529119,-0.35866551049763545,-0.7594154233552123,-0.04902687762121313,0.06679179823451468,1.0973842088350907,-0.12393153032086741,-0.07928078387044324,1.192858284238203,0.0,0.0,0.0,0.0
0.03003153722824383,-0.23010034000129478,0.6813378589384658,-0.005689607798502664,-0.3899332789548065,-0.009384087418021535,0.9207777176007157,-0.08164709524196054,-0.6242431570706579,-0.6149725591102821,-0.04144136116568359,-0.3652117414675166,-0.7597211164491705,-0.037528580314606506,0.059960250154060216,1.0981299342642168,-0.12240606556305153,-0.07535566784803867,1.181703512505876,0.0,0.0,0.0,0.0
0.028389615087671457,-0.23398542048880988,0.6796650887060053,-0.005559040436328243,-0.3899904810934639,-0.009296924953010958,0.9207551731662081,-0.08409089774693465,-0.6181241111533652,-0.6097170717439399,-0.028912459161679387,-0.3731182989238345,-0.7583710426189192,-0.02516992926358145,0.052604883656169096,1.0983317432937136,-0.1202182371652192,-0.07138857590556956,1.1703988765942965,0.0,0.0,0.0,0.0
0.026507805359059486,-0.23814960530388035,0.6779158137931345,-0.0054165783800697274,-0.39005736417995435,-0.009196160234360037,0.9207287026940036,-0.08594907481733713,-0.6122210608250672,-0.6041273714666756,-0.015391067399392156,-0.3825418942570737,-0.754829656461546,-0.011973731576971042,0.04493907758753801,1.0975143156391967,-0.11743181010257689,-0.06757748556026778,1.1590109672469995,0.0,0.0,0.0,0.0
0.024351775712510758,-0.24258799104614062,0.676126689763308,-0.005262105689738205,-0.39013868818397063,-0.009084587198228628,0.9206962498572688,-0.08727966865933157,-0.6066301715120977,-0.598248097029262,-0.0008808383327281784,-0.3936807234383287,-0.7484916562995566,0.002003026561310843,0.03715383224033286,1.095244452703205,-0.11407633544299185,-0.06402001972188937,1.147491381110895,0.0,0.0,0.0,0.0
0.02189062680050754,-0.2472841510335064,0.6743332558586087,-0.005095423933662121,-0.3902365605896013,-0.00896692585376827,0.9206568620690706,-0.08819272260736019,-0.6013541156350792,-0.5921463839003275,0.014567503802092584,-0.4067535249201884,-0.7387033282133891,0.01665058767404485,0.029442641260873356,1.0911208305852873,-0.11023721028568254,-0.06074063145151597,1.1357355191250644,0.0,0.0,0.0,0.0
0.01910285994477323,-0.25220360625151406,0.6725735774239587,-0.004918604527285103,-0.3903525171046896,-0.008848016061250923,0.9206098154654431,-0.08887596076021952,-0.5963183888528415,-0.5859350216946153,0.030824992544689782,-0.42197084378123495,-0.7247735008803812,0.031799112710792735,0.022021837936243262,1.084783733582999,-0.1061187371087434,-0.05768797326188819,1.1236254285216123,0.0,0.0,0.0,0.0
0.015984170519708393,-0.25728672464756275,0.6708889080685709,-0.004732949897629109,-0.3904797588564009,-0.008738970713693716,0.9205578675453155,-0.0895381647073525,-0.5913553650497648,-0.5797863398806591,0.04768489874849023,-0.439516253938663,-0.7060684550882445,0.047180098919307106,0.015133082091086276,1.0759344113472518,-0.10210916957612776,-0.054757670533723254,1.1110609102001843,0.0,0.0,0.0,0.0
0.012559192335538608,-0.26243786372364275,0.6693165983326592,-0.004542907330658675,-0.390606293958597,-0.00864942836264019,0.9205059872167669,-0.09037985874076804,-0.5861155185288691,-0.5739400058072219,0.06480041549454549,-0.4595051476411145,-0.6820768886593989,0.06243173804657237,0.008995018886984207,1.064474177767076,-0.09877699076061047,-0.05173410388545537,1.09800421198446,0.0,0.0,0.0,0.0
0.008898226715851575,-0.2675074309102909,0.6678620397297005,-0.004356476975338776,-0.3906968024006042,-0.008561916662957877,0.9204692951344782,-0.09159450374644926,-0.5799911296939494,-0.5688830779753933,0.0815321745564227,-0.4819564632856037,-0.6526329794084016,0.07711289631848857,0.003601767888801211,1.0507550166261117,-0.0967538047739264,-0.04824747778410155,1.0845057477606805,0.0,0.0,0.0,0.0
0.005108359954267617,-0.27230853740220773,0.6664799474991785,-0.004169816905007002,-0.39067340389444316,-0.00853924008872527,0.9204803015248154,-0.09525620172269843,-0.5726835101901054,-0.5652660868533621,0.09751795513708027,-0.5069431152262068,-0.6181714057050346,0.09052121570892684,-0.0013426210812187622,1.0358129012791162,-0.09668444623186707,-0.043727515618943974,1.070744279174594,0.0,0.0,0.0,0.0
0.0017109566170860967,-0.2765328556387715,0.6651081816299742,-0.004009214184558625,-0.3904772565812458,-0.008475584240287142,0.9205648281170599,-0.10100580930119259,-0.5640406749858371,-0.5639464608814198,0.11137522037174932,-0.5313840916883789,-0.5844944639161899,0.1021181911091802,-0.006070075540010419,1.0220467911044124,-0.09891026571139032,-0.038027766270043055,1.0570754326133631,0.0,0.0,0.0,0.0
-0.0010541478079053976,-0.27967830773153574,0.6636720623170351,-0.003867105741110073,-0.3901469583218621,-0.008410691402519354,0.92070606421133,-0.1099275890687248,-0.5553033062136632,-0.5666348474325579,0.12170630147340292,-0.5540323268658373,-0.5537271853811325,0.11051555726922699,-0.011684557302702535,1.0132408002880122,-0.10360933171106182,-0.03174351721394613,1.042520952101493,0.0,0.0,0.0,0.0
-0.002743349044808992,-0.2814363914952791,0.6626117706538326,-0.003781951491815838,-0.38972354414576016,-0.00832562051903436,0.9208864968194258,-0.11924256282130437,-0.5475894421972951,-0.5740061928629858,0.12742025945352284,-0.5696990964369322,-0.5332018108626776,0.11512626714248382,-0.01620477181707499,1.00862643741524,-0.10877798907735335,-0.026024294371895657,1.0285056809682658,0.0,0.0,0.0,0.0
-0.0026677363935605075,-0.2815779174908029,0.6625077986776922,-0.003688321068214479,-0.38975015678877684,-0.008252012336791795,0.9208762760888213,-0.11926359946880552,-0.547604528937944,-0.5740382420155168,0.1275783222339365,-0.5698823624783134,-0.5331453638410808,0.11532191889700522,-0.016128112660043863,1.008579536409943,-0.10882132608681508,-0.025993592945744114,1.0285025485621486,0.0,0.0,0.0,0.0
-0.0026677363935605075,-0.2815779174908029,0.6625077986776922,-0.003688321068214479,-0.38975015678877684,-0.008252012336791795,0.9208762760888213,-0.11926359946880552,-0.547604528937944,-0.5740382420155168,0.1275783222339365,-0.5698823624783134,-0.5331453638410808,0.11532191889700522,-0.016128112660043863,1.008579536409943,-0.10882132608681508,-0.025993592945744114,1.0285025485621486,0.0,0.0,0.0,0.0
-0.0026677363935605075,-0.2815779174908029,0.6625077986776922,-0.003688321068214479,-0.38975015678877684,-0.008252012336791795,0.9208762760888213,-0.11926359946880552,-0.547604528937944,-0.5740382420155168,0.1275783222339365,-0.5698823624783134,-0.5331453638410808,0.11532191889700522,-0.016128112660043863,1.008579536409943,-0.10882132608681508,-0.025993592945744114,1.0285025485621486,0.0,0.0,0.0,0.0
-0.002223543826244632,-0.2818863459849338,0.6617097417682298,-0.003614802646691789,-0.38990309145934726,-0.008111475770617178,0.9208130735567844,-0.11915855843029824,-0.5467149282944975,-0.5781742946763736,0.12824983185903552,-0.5679757854001164,-0.5393914557929718,0.11648735915703133,-0.019225743107471847,1.0150985815038314,-0.10826179991511078,-0.03008935662111275,1.038211958430198,0.0,0.0,0.0,0.0
-0.0013396725612456594,-0.2824976260785453,0.6605355407690202,-0.0035885827073197448,-0.3899328545646738,-0.0079605867018372,0.9208018896942817,-0.11837689804633313,-0.5437209704247089,-0.5884291362944996,0.13023413370093403,-0.5625390324076478,-0.5550022412090824,0.11884975450786626,-0.023421690858662088,1.023918283024109,-0.10682440147823037,-0.036051489129237314,1.0525415495258523,0.0,0.0,0.0,0.0
7.942981957953727e-05,-0.28358806052718527,0.6592999466697304,-0.003580629555502191,-0.3899670786178301,-0.007809350941750329,0.920788722087825,-0.11612525592818546,-0.5373659946117323,-0.604764711215744,0.13407109647103915,-0.5521304195292736,-0.5808504450632782,0.12280663216794244,-0.026458350386201854,1.032255463799248,-0.10407977561120768,-0.04222222729870444,1.0701510585457186,0.0,0.0,0.0,0.0
0.002214387364297596,-0.28559103124880864,0.6587986485171716,-0.0035360678235515004,-0.39033462783198053,-0.007731149884858818,0.920633805517196,-0.11018554389019108,-0.5246281722536826,-0.6266044692211173,0.14125991995451703,-0.5331193542324144,-0.6190789046613578,0.1293011122865764,-0.02289644292232902,1.033459741148107,-0.09899350023632084,-0.04465366693304329,1.0877337508742995,0.0,0.0,0.0,0.0
0.005513960201546264,-0.28957798485683084,0.661237570998604,-0.0034700957758702555,-0.3916562729928272,-0.00809422435861238,0.9200694570480572,-0.09433678175902394,-0.49675034420991626,-0.6546633465375427,0.15628959236487916,-0.4954231420280901,-0.6770793532970661,0.14063291339440986,0.001833242610495809,1.00877465865548,-0.0887815147266893,-0.03266640020826914,1.094438650402842,0.0,0.0,0.0,0.0
0.008810439720055331,-0.29312059205375335,0.6634619692968104,-0.0033010304679291728,-0.3910472705222463,-0.007856456116692705,0.9203311423135899,-0.08395653619269945,-0.4717500827699834,-0.6913125820526147,0.14161053157934841,-0.5213470390506237,-0.6312039829329703,0.13151300141361658,-0.009141324848160225,1.0338989039429434,-0.07830914330484706,-0.02140202700050752,1.0936088966016302,0.0,0.0,0.0,0.0
0.012697014831987517,-0.29701904813115293,0.6656197071906867,-0.0032457191625380626,-0.39042906923558257,-0.007759814595326985,0.920594586384474,-0.07168366410722998,-0.44453186175107484,-0.7315284961284592,0.1249288948390046,-0.5401139988725288,-0.6059465023018994,0.12133258810057412,-0.016629448603230415,1.0547086354589306,-0.06673561059655864,-0.00983988650017934,1.0947179843064514,0.0,0.0,0.0,0.0
0.01637679236473192,-0.3013234572168781,0.6675740206415288,-0.0031445521325250275,-0.3900738823374637,-0.007753215295838957,0.9207455488693066,-0.05730957345472912,-0.42098323862286485,-0.7629145428800572,0.11276583951793423,-0.5542513060268527,-0.5936068674937797,0.11468941425290753,-0.02235037867492593,1.0718150558442363,-0.05413496918125501,0.0003287446258152787,1.0987420566663808,0.0,0.0,0.0,0.0
0.019640182141029118,-0.30585081197380537,0.6694988643790342,-0.002993711952459461,-0.3899269351092882,-0.007757236291358167,0.9208082581352877,-0.041889867627931614,-0.40105503904433176,-0.7855640979686341,0.10540082909195467,-0.5653071897152008,-0.5886581382249053,0.11190414337820104,-0.027305219810361953,1.0863704976994089,-0.040798800413369175,0.00995270559709529,1.103190715066363,0.0,0.0,0.0,0.0
0.022406353112232963,-0.31046578456098095,0.6714620751953405,-0.0028113252204031037,-0.3898996884857589,-0.007745881943333093,0.9208204660421776,-0.026147715180010554,-0.3845542938049981,-0.8004400696085486,0.10151888654617561,-0.5742454377610817,-0.5878415618961216,0.11192346897375283,-0.031959519633810905,1.0991886357183158,-0.027006271177729864,0.019327485928629082,1.1066654894427614,0.0,0.0,0.0,0.0
0.024676202648287154,-0.315076067650327,0.6734664456823075,-0.0026150591299276406,-0.38993142459527846,-0.007715785577015273,0.9208078584763344,-0.010540714741057566,-0.37121565548830276,-0.8086796296099996,0.09967857097793383,-0.5817534038128582,-0.5892438686649005,0.11355355950367677,-0.03651182071950555,1.1108198758360939,-0.013019148459417188,0.028454017103407576,1.1086877924212455,0.0,0.0,0.0,0.0
0.026498277066934625,-0.31961657641374014,0.6754905633560296,-0.0024181575892012015,-0.38998520867160796,-0.007671023164156195,0.9207859930162117,0.0046400139163999266,-0.360690847097202,-0.8114691983217931,0.09878250693483384,-0.5883659231613401,-0.5917696803625737,0.11587536593414578,-0.041071391865851924,1.1216557668807179,0.0009291881421113306,0.0372683232733829,1.1092247978270893,0.0,0.0,0.0,0.0
0.027945165390824485,-0.32403910868933083,0.6775101076368377,-0.0022291737290219345,-0.39004059672602087,-0.007616721162212014,0.9207634599878692,0.019206155281638746,-0.35256116104018986,-0.8099806117068307,0.09812189233351203,-0.5944949248162872,-0.5948117099057482,0.11830450060389089,-0.04571308942828975,1.1319930052018499,0.014639394199569195,0.045741235221539715,1.1084101796434247,0.0,0.0,0.0,0.0
0.02909709127727129,-0.32830723298246967,0.6795046781562127,-0.0020528943958648413,-0.3900875611384409,-0.007557253227738358,0.9207444641122283,0.0330387100834201,-0.3463737966906772,-0.8053177077031235,0.09728196696680745,-0.6004436658080347,-0.5980483329425631,0.12052151817699415,-0.05048778658695188,1.1420657015863407,0.027949368552705273,0.053890066537349735,1.1064253141814144,0.0,0.0,0.0,0.0
0.03003092471781059,-0.33239387917120083,0.6814572935870309,-0.0018915057665050451,-0.39012199313623264,-0.007496072617357266,0.9207307215319058,0.04606966386419728,-0.3416855081994318,-0.7984727700346081,0.09603447579750216,-0.6064240363629633,-0.6013234554085944,0.12238103116527463,-0.055421492059188844,1.1520598039875976,0.040735164283112676,0.061752716854188885,1.1034666483011402,0.0,0.0,0.0,0.0
0.030813450343584882,-0.3362797999394453,0.6833510696946515,-0.0017456074303810825,-0.3901425704469796,-0.007435910370260867,0.9207227784825832,0.05826959640070328,-0.33810152359919626,-0.7902968224630456,0.0942589189863263,-0.6125712873869503,-0.6045754622817612,0.12383828104266645,-0.060510877359041516,1.1621173012499393,0.052908965344503504,0.06935342934588705,1.0997507099242156,0.0,0.0,0.0,0.0
0.03149780204892227,-0.3399520578341229,0.6851651021054455,-0.0016150203902848218,-0.3901485835598005,-0.007378924332076384,0.9207209272798799,0.06963742292451637,-0.3353054596581454,-0.7814844627741819,0.09189588090088333,-0.6189439257754659,-0.6077913774674857,0.12489544563370032,-0.06571474853383612,1.1723309166080533,0.06441457977254486,0.07667133090996779,1.0955336417264385,0.0,0.0,0.0,0.0
0.032121889005892065,-0.3434023641801852,0.6868703080547675,-0.0014994398337874594,-0.39013856010371073,-0.007326805621053172,0.9207257862793783,0.08019175096248538,-0.333081104688909,-0.7725682766356643,0.08892406690406308,-0.6254966572224793,-0.6109686235955789,0.12555379838295783,-0.07093925170247795,1.1827228766173028,0.07522152278730884,0.08361386169500852,1.0911365462222846,0.0,0.0,0.0,0.0
0.032707653870762965,-0.3466254990901553,0.6884256914545152,-0.001398965077808575,-0.39011049751442595,-0.007281005518039152,0.9207381981781816,0.08996447673045482,-0.3313290292984747,-0.7639101445839716,0.0853530688147653,-0.6320191553613109,-0.6140681223683672,0.12575529468562857,-0.07601339844466651,1.193194966141882,0.08531915368863359,0.08999574037833877,1.0869752838482558,0.0,0.0,0.0,0.0
0.03328328487335743,-0.34960881382970704,0.6897791371528903,-0.0013156793015216476,-0.3900590713062439,-0.007242806544010265,0.9207604094622293,0.09897083147540964,-0.3299117360185413,-0.7560136279267878,0.08114611222287618,-0.6380356648054291,-0.616951200888776,0.12528095591199945,-0.08060573887047706,1.203462083008863,0.09468772178538933,0.09559040804156106,1.083541515658659,0.0,0.0,0.0,0.0
0.03391744695775839,-0.35231513496748357,0.6908788635319242,-0.00125489079160454,-0.3899698824639006,-0.007215300275470375,0.9207984879777592,0.10717253299449855,-0.3283695303665126,-0.7500398601835239,0.0760609017797874,-0.6426905634301714,-0.6193060538542019,0.1236000802818054,-0.08406873381691815,1.212923731502647,0.10324361171203306,0.1002605885343322,1.0812732645471315,0.0,0.0,0.0,0.0
0.034553948061910936,-0.3547462877967647,0.6916837451312401,-0.0012175618101742548,-0.38986180489100586,-0.007209744119436202,0.9208443463583289,0.11465256930843773,-0.3270633452082692,-0.745361876716988,0.07005048894486655,-0.6447724682733632,-0.6205699721154013,0.11996588466561746,-0.0855392827409684,1.2201316690128476,0.11098946000984122,0.10367735111982054,1.0806077938823495,0.0,0.0,0.0,0.0
0.03510740828967859,-0.3569168549560097,0.6921919216867195,-0.0012013274414687635,-0.3897747109531973,-0.007245112342605571,0.9208809585722103,0.12152283265185033,-0.32650236675134736,-0.7407830408341729,0.06309917573740954,-0.6430356126957422,-0.6200701838324171,0.11365438172496223,-0.08360470411221033,1.2225816248281431,0.11792950754623477,0.10566293552057399,1.0817100910083821,0.0,0.0,0.0,0.0
0.03556624098655096,-0.3588284912199689,0.6924154335327762,-0.001207093521274589,-0.38970684931309274,-0.007318890151941902,0.9209090880052369,0.12778652466103557,-0.3267159215427829,-0.7362221615505411,0.05524524002375973,-0.6374757893704727,-0.617735443181616,0.10468553024546252,-0.0782664706791695,1.2201548254226222,0.12407775655836084,0.106243198768714,1.0845114641773244,0.0,0.0,0.0,0.0
0.035928619451465076,-0.3604985062188564,0.6923762348662471,-0.0012351462495735213,-0.38963116693235994,-0.007409739237236666,0.9209403476518475,0.1334314161482214,-0.3277044978217308,-0.7317663379572352,0.04674352593289114,-0.6293187220179179,-0.6141228582930894,0.0938705717649718,-0.0710498030445181,1.2150704217197723,0.12952750838606886,0.10549323316954115,1.08880491834516,0.0,0.0,0.0,0.0
0.03619314560703618,-0.36195168541240996,0.6921305289995439,-0.0012812227237504023,-0.3895410978407915,-0.00750606919270736,0.9209776058551029,0.1384837976591174,-0.3293966580130517,-0.7273377201808082,0.037819367348483984,-0.6197547900396817,-0.6097047960204878,0.08202501321939429,-0.06289460940669886,1.2085991886340837,0.13435381834556764,0.10367289020393297,1.0941586094247007,0.0,0.0,0.0,0.0
0.036348975019042336,-0.3632121331558656,0.6917445509515313,-0.0013412481533343725,-0.38944040663276464,-0.007602458775774522,0.9210193121513038,0.14297607097313633,-0.33176222442373554,-0.7226768452757961,0.02860493901022222,-0.6096198260468543,-0.6047476197767004,0.06967410796631415,-0.054355197307443995,1.201367412259366,0.13861136239572028,0.10108109490503787,1.1000693567508297,0.0,0.0,0.0,0.0
0.03637456502347805,-0.3643008178660026,0.6912792473495035,-0.0014127966259385337,-0.38933491757023503,-0.007696175283377204,0.9210630243649344,0.14693454995530275,-0.3348537827042731,-0.7173897134052816,0.019177636836838277,-0.5993985865743411,-0.5993560596972478,0.05707776483739254,-0.04576437204613952,1.1936383207829775,0.1423405834833312,0.09796907582824083,1.106067511754357,0.0,0.0,0.0,0.0
0.03623990351625804,-0.36523547793827227,0.6907848055751292,-0.0014950017456160703,-0.3892287543708511,-0.007785283101511109,0.9211070139282002,0.15037760999886637,-0.33880601683987177,-0.7109944783375396,0.009595891236840626,-0.5893234879432168,-0.5935451648404952,0.04433469528452563,-0.03732272297411475,1.1854881285170518,0.14557295410740198,0.09451418528375666,1.1117560735806191,0.0,0.0,0.0,0.0
0.03590953735850499,-0.3660314448621834,0.6903009047908686,-0.0015880687385046866,-0.3891232580994069,-0.00786793072897148,0.9211507280080867,0.15331829928716334,-0.34382027772503804,-0.7029517700210601,-8.920923067832522e-05,-0.579472853585315,-0.5872989018645525,0.0314683039009125,-0.029148292531963042,1.1769096287352472,0.14833490337683913,0.09082738375587679,1.1168084693378586,0.0,0.0,0.0,0.0
0.03534600916020531,-0.3667025969035086,0.6898591262633915,-0.0016928671984554745,-0.38901707257798107,-0.007942304302874514,0.9211947520724739,0.15576845372372936,-0.3501444387896282,-0.6926868064619753,-0.00984626128512533,-0.569835155695021,-0.5806072362729782,0.018469678266573593,-0.021304578563448723,1.1678738653518332,0.1506507919053022,0.08697413285598482,1.1209505452967943,0.0,0.0,0.0,0.0
0.034514542320404316,-0.3672617148978006,0.6894853752894663,-0.0018107378854674383,-0.3889065578216577,-0.008006944073822929,0.9212406305402614,0.15774233023986672,-0.35804548008436377,-0.6796231685238984,-0.019701415958636836,-0.5603315367792977,-0.5734838375824204,0.00529730976405981,-0.01381095854938326,1.1583754135323878,0.15254421449099664,0.08299885614817086,1.123942917799108,0.0,0.0,0.0,0.0
0.033390436805106456,-0.36771933964281134,0.6892013237690277,-0.0019435079432806072,-0.3887861908066659,-0.00806125558371894,0.9212906907015457,0.15925742614987512,-0.3677631173082669,-0.6632569496966567,-0.029807376082333303,-0.5507978547192706,-0.5659681805981961,-0.008164277015177055,-0.006631830365166348,1.1484830367606482,0.15403568739441384,0.0789508794857391,1.125571371592566,0.0,0.0,0.0,0.0
0.03197098594084667,-0.3680801008097966,0.6890244394069656,-0.00209364616044209,-0.38864883948655765,-0.008105925208207625,0.9213479202711784,0.16032906725776291,-0.379424097386003,-0.6433129730788241,-0.04054244276916106,-0.5409334761579315,-0.5581175223333342,-0.022185114635492047,0.0003618211562675987,1.1384150911624482,0.15513454669940577,0.07491326261436643,1.1256496964325997,0.0,0.0,0.0,0.0
0.0302936215676114,-0.36833606676542,0.6889653244875119,-0.002264335013270916,-0.3884855861130503,-0.008142427702623772,0.9214160423177226,0.1609553855035586,-0.3928902535403295,-0.6200416717898949,-0.052603494442890635,-0.5302416078066419,-0.5500056148571801,-0.037293039479825096,0.007456902131317371,1.1286537954404021,0.15582581690302233,0.07103029376294497,1.1240486181629128,0.0,0.0,0.0,0.0
0.028460371161915774,-0.3684594522292569,0.6890161011714103,-0.0024586573067825923,-0.3882818404637648,-0.00816992764784562,0.9215011772388293,0.1610968686158237,-0.40752478706223727,-0.5947267098560263,-0.06696691965184763,-0.5180415047786102,-0.5417870206865483,-0.05432883664899585,0.01514400228003766,1.1200926666546434,0.1560618862580684,0.0674952899309499,1.120802230760855,0.0,0.0,0.0,0.0
0.026661180854356654,-0.3684020449303934,0.6891082701483006,-0.0026803011615631265,-0.38795372699726993,-0.008178980234985953,0.9216386634559809,0.16070897631058795,-0.4219309480556693,-0.5706680541810344,-0.08447350267378437,-0.5039144358521346,-0.5340057934279736,-0.07426559589633079,0.023808738183291794,1.1141405874595074,0.15576666468432696,0.06430712514806129,1.1162684661286315,0.0,0.0,0.0,0.0
0.025298812281829442,-0.3680870911044093,0.6892832575539818,-0.0028842123718509916,-0.38750567897636984,-0.00817431445550476,0.9218265621380408,0.15965860085806588,-0.43229084207975993,-0.5545768770211692,-0.10467190663539509,-0.4883763379478523,-0.5275623905625554,-0.09666018073942093,0.032794145314548676,1.1128179120867103,0.15466475821193568,0.06248123497339508,1.1104509446384812,0.0,0.0,0.0,0.0
0.02454928734580963,-0.36765069953414176,0.6895496419402508,-0.002957825902668748,-0.3870171119521174,-0.008141550554682152,0.9220318440687053,0.15823324878749154,-0.4369779813253853,-0.5485965342071952,-0.12245829938075933,-0.47473087173238926,-0.5252078548308569,-0.11642247157540628,0.03830609736600407,1.117462499852235,0.15298790853894711,0.062314341801896184,1.1042125033129597,0.0,0.0,0.0,0.0
0.024548986441419254,-0.36760351387746143,0.6895294018336886,-0.003007645835265054,-0.3870166169357626,-0.00816230199685319,0.9220317072141494,0.15820875680608226,-0.4370758667503581,-0.5485805819552773,-0.12248862005082392,-0.4747223081245257,-0.5252095953178856,-0.1164320658103487,0.03833372725839268,1.117475126591579,0.15296039699845568,0.06230886145134765,1.1041713193378577,0.0,0.0,0.0,0.0
0.024548986441419254,-0.36760351387746143,0.6895294018336886,-0.003007645835265054,-0.3870166169357626,-0.00816230199685319,0.9220317072141494,0.15820875680608226,-0.4370758667503581,-0.5485805819552773,-0.12248862005082392,-0.4747223081245257,-0.5252095953178856,-0.1164320658103487,0.03833372725839268,1.117475126591579,0.15296039699845568,0.06230886145134765,1.1041713193378577,0.0,0.0,0.0,0.0
0.02435848981762881,-0.3674780326860403,0.6893282280340985,-0.003237091696453649,-0.38719218393184723,-0.00813532330319284,0.9219574558807948,0.1577780290777501,-0.43897382162100534,-0.5457170448644314,-0.12276704971249358,-0.4774646580171195,-0.519479216902498,-0.11614297551396131,0.03691979474840198,1.1199464416501288,0.1534313473763635,0.06136319968370636,1.105981823958819,0.0,0.0,0.0,0.0
0.02454516285334131,-0.367317230401696,0.6889713848234927,-0.0033742720536800775,-0.3873088455079443,-0.00810713197873908,0.921908209579723,0.15737476956543336,-0.43776752506933436,-0.549254944230482,-0.12339943587662537,-0.47725215413312444,-0.5200771936051269,-0.11638160085210014,0.035356962106128244,1.1240881746810498,0.15364134722352196,0.06023491203596324,1.109356692632335,0.0,0.0,0.0,0.0
0.025216983141431795,-0.3671245973184839,0.688499512221324,-0.003434759699798311,-0.3874490017659106,-0.00809639881193737,0.9218491860291911,0.15706020300771115,-0.43253462186903024,-0.5602364039684824,-0.12428102062675023,-0.4730231369141052,-0.5283712568765725,-0.11719416047777485,0.03414710947139535,1.1300392254515153,0.15366978627322042,0.05942642145507317,1.114381090509739,0.0,0.0,0.0,0.0
0.026483759075485225,-0.36684649432841154,0.688129690818243,-0.003428035285712244,-0.387748398704209,-0.00813479347261696,0.9217229806246341,0.15668309449064155,-0.421998925190148,-0.579425687101471,-0.12536277432253629,-0.4637442449266995,-0.5446509968051565,-0.11884198476010151,0.03471948244052495,1.1367985154805142,0.1533281166240876,0.06042945956611608,1.1196908033878494,0.0,0.0,0.0,0.0
0.02859052219576043,-0.36635451911458655,0.6887173574014408,-0.003422276792919715,-0.38861976863708103,-0.008422136437051685,0.9213533692692777,0.15621920583059082,-0.4023528656757817,-0.6079159747766665,-0.12586138911723602,-0.4464219749118607,-0.5690552257832612,-0.12204123282667277,0.04225587049422534,1.1396752818289477,0.15193349486134092,0.06845700815878175,1.1194163221571518,0.0,0.0,0.0,0.0
0.03042479274984147,-0.3652738401930022,0.6883593868756144,-0.0038277503540324618,-0.38848299604396713,-0.008168507430038816,0.9214117351099321,0.13585679229106487,-0.43649952802738495,-0.5798415265710153,-0.13076696744693803,-0.43541801335841074,-0.5876114810874716,-0.12443483474831987,0.042634162509074175,1.1469320777582612,0.12603736360188092,0.058980202508432555,1.1164657739080242,0.0,0.0,0.0,0.0
0.03259142670672242,-0.3643343926975737,0.6881317788860681,-0.004194537811855599,-0.38830994397117286,-0.008110085428399914,0.9214835971301896,0.11202611723779393,-0.46510066147098195,-0.5687202709022225,-0.13462185787300782,-0.42150197505276343,-0.6118789108637331,-0.12701696776142493,0.04459033655979556,1.1531480794207554,0.09759878072737765,0.04776917379893869,1.1179666225979097,0.0,0.0,0.0,0.0
0.03469867864643399,-0.3636175342098989,0.6881748943268946,-0.004513832088182502,-0.388280778100512,-0.008130825056230915,0.9214941955115321,0.09094770312611065,-0.48705656058045155,-0.5667090843325212,-0.137364484990843,-0.40752013301086903,-0.6350913923313594,-0.12920004707587593,0.04826041217708425,1.15701921403335,0.07280373710475216,0.03774816521512522,1.1232596379799664,0.0,0.0,0.0,0.0
0.036576096176988586,-0.36313911900990825,0.6884310142006139,-0.004780899672318597,-0.3883374136910014,-0.008181006695219904,0.9214685383970307,0.07391985902560869,-0.5039904544086345,-0.5692368519209854,-0.13910182610574676,-0.39463817619541997,-0.655605283216099,-0.13074387484844774,0.05290629620469912,1.1585377962467422,0.05224216408444561,0.029101902352159648,1.1308213116041568,0.0,0.0,0.0,0.0
0.038117429062403965,-0.36287745525722004,0.6888183304410768,-0.005005694144056158,-0.38843773032257206,-0.008240759629190082,0.9214245289597617,0.06005429672280285,-0.5176496005069069,-0.5739903323502819,-0.139965881969853,-0.3836449751516314,-0.6724629303473539,-0.1315879799222368,0.057791513608062096,1.1581737420836524,0.03484799763629297,0.02126715566435022,1.1394490519257108,0.0,0.0,0.0,0.0
0.039288261653243846,-0.36281805186489674,0.6892823470098519,-0.0051988140722386165,-0.38855538274406004,-0.00830562856224187,0.9213732703997036,0.04811722069572197,-0.5293801676143242,-0.5797698952635136,-0.14002402446921774,-0.3747510889705876,-0.6856080167877595,-0.1317131347229518,0.06249800729434677,1.1563128898097834,0.019458759411062784,0.013695721602252492,1.1483977335202666,0.0,0.0,0.0,0.0
0.04010544304797492,-0.3629574372842437,0.689793028769642,-0.005367451865898821,-0.38867598037218276,-0.008376942148595114,0.921320790811989,0.03719503881956994,-0.5400842021632,-0.5859242263230225,-0.13929921236989398,-0.3677910317462826,-0.6955323763137857,-0.13111248126738725,0.0668719865804683,1.153208392999895,0.005244091635602285,0.006037487159574024,1.1572830980698579,0.0,0.0,0.0,0.0
0.04061366728867958,-0.3632970120260402,0.6903325096127094,-0.0055156246642466475,-0.3887929714479909,-0.008456710909842265,0.9212698232753487,0.02678120371628908,-0.550322464084361,-0.592087842280476,-0.13780400998735395,-0.3624318125877882,-0.7029441415245502,-0.129791480862851,0.07090416051830552,1.1490445403145801,-0.008282988875874026,-0.001882378617311547,1.1659476018883028,0.0,0.0,0.0,0.0
0.040867647109740564,-0.3638378906539938,0.6908861740822113,-0.005645428975329739,-0.38890431437848627,-0.008545961518126905,0.9212212166093521,0.01666399688109412,-0.5604314473189375,-0.5980581335550509,-0.13555864112360874,-0.3583080808014526,-0.7085642430880785,-0.12776988070836306,0.07463724818011122,1.143991253742528,-0.02137275735943435,-0.01012942732250741,1.1743566506567749,0.0,0.0,0.0,0.0
0.04092093716123538,-0.364578991986307,0.6914380737964072,-0.005758100857606558,-0.3890100906788373,-0.00864468833911663,0.9211749361484365,0.006794547164068703,-0.5706112053563601,-0.6037328270608311,-0.1325936474021719,-0.3550935318983409,-0.713027236609389,-0.12507866605599374,0.07811157289996824,1.1382309224786895,-0.034145936173408324,-0.018710789020154668,1.1825326219778025,0.0,0.0,0.0,0.0
0.04081993420932799,-0.3655176359922505,0.6919686497381182,-0.005854587902578878,-0.3891108194283837,-0.008752204595995487,0.9211307686311279,-0.0028069185102425794,-0.5809749065428444,-0.6090717987471201,-0.1289445970168478,-0.35253267980770453,-0.7168464507208876,-0.12175290431936826,0.08133613633897181,1.1319688902277867,-0.04666543722951332,-0.027599683506431202,1.1905149872075649,0.0,0.0,0.0,0.0
0.04060112388304994,-0.3666514135358409,0.6924530006733997,-0.0059356834892433045,-0.3892062544515371,-0.008867332342203615,0.9210888282757824,-0.012103112562268332,-0.5915602120628387,-0.614066089247648,-0.12464474560880857,-0.35045267853751694,-0.7204118622746216,-0.11782308315726589,0.08427179314999865,1.125440176617764,-0.0589676120119056,-0.0367376603789977,1.198331222312186,0.0,0.0,0.0,0.0
0.04028992003070896,-0.36798042683188337,0.6928590352473338,-0.006001843988145272,-0.38929463541858966,-0.008988244448551279,0.9210498771319512,-0.02106210130929794,-0.6023024730282683,-0.6187042246448378,-0.11971857122550048,-0.3487676954197934,-0.7239988391372951,-0.11330676801547876,0.08681904178741053,1.1189177219453093,-0.0710538272868072,-0.04601962005039535,1.2059627054984934,0.0,0.0,0.0,0.0
0.03989992548930637,-0.36950938990245086,0.6931460129253718,-0.006052789633136916,-0.38937261485002933,-0.009111919777629547,0.921015365485546,-0.029659781603264903,-0.612969873219456,-0.6229295262771186,-0.11417702486976516,-0.3474817881254756,-0.7277730112136785,-0.1082013219190443,0.08881012667633015,1.112718652438535,-0.08284082946627291,-0.05526218769946154,1.2132878890960241,0.0,0.0,0.0,0.0
0.03943209411706572,-0.3712492244041215,0.6932651376972893,-0.00608699729342809,-0.3894363969021295,-0.009233237914297662,0.920986964375422,-0.03786390253268428,-0.6230687825011646,-0.6265876641137768,-0.10801457515118365,-0.34668955211780106,-0.7317825070986186,-0.10247810628590062,0.09001287031342818,1.1071965349239878,-0.09407180687243213,-0.06414853999779052,1.2199810264385422,0.0,0.0,0.0,0.0
0.03887436618383147,-0.373217525398921,0.6931649833627124,-0.006101348863753193,-0.38948496949135747,-0.009343879987683684,0.9209652132350792,-0.045596334775575606,-0.6317537323924867,-0.6293762342388939,-0.10120866524771523,-0.3465649120235924,-0.7359376512325092,-0.09607960297233686,0.09016190841048723,1.1027008992921004,-0.10421623963491355,-0.07213196049558043,1.2253395421691236,0.0,0.0,0.0,0.0
0.03820424910954199,-0.37543636110587286,0.6928049995275599,-0.0060916678283720336,-0.38952638397652334,-0.009431583010662624,0.9209468676374093,-0.05268542924761711,-0.6378357848285459,-0.6308341076437576,-0.09372449912345648,-0.34731667223569074,-0.7399949954020243,-0.08892392832390346,0.08903846435911773,1.0994867638709358,-0.1124588670741881,-0.07826979625075722,1.2280109158683812,0.0,0.0,0.0,0.0
0.03739891813666139,-0.37792425555115666,0.69217694163937,-0.0060558399163572665,-0.38958453568573204,-0.009480640252077505,0.9209220020272351,-0.05889263958092727,-0.6400989290507292,-0.6304782942193616,-0.08553501502057838,-0.34908702949155385,-0.7435951546214475,-0.08092417795943907,0.08660029669295109,1.097582601214909,-0.11800588425311025,-0.08103804899239554,1.2257109168362283,0.0,0.0,0.0,0.0
0.03644358590196993,-0.3806897488628123,0.6912828596713436,-0.005994270865661481,-0.3896599507871883,-0.009487685507269623,0.9208904252369172,-0.06414752203556542,-0.6385438031336608,-0.6283091216720937,-0.07660482178132573,-0.3519837100174748,-0.7465292098372909,-0.07203881638233092,0.0828532087071464,1.096866858093089,-0.12079633114905232,-0.08041611408043124,1.218515776066309,0.0,0.0,0.0,0.0
0.0353320366682427,-0.38373287598134415,0.6901337137943117,-0.005909976165591332,-0.3897314621714525,-0.009462503980512165,0.920860967026968,-0.06859217228011619,-0.6343851461117443,-0.6248196308220627,-0.06687801412520522,-0.35607965600443064,-0.7487432744437975,-0.062272789538845255,0.07784973399703975,1.0970887108474892,-0.12151792544286377,-0.07789584374116615,1.2088044497507762,0.0,0.0,0.0,0.0
0.03405817470762503,-0.38705143287522586,0.6887701784558187,-0.005807828956162088,-0.38979471166045737,-0.009413018173837315,0.920835352803755,-0.07235265678571386,-0.6288160787259391,-0.6204763429133943,-0.056298295176370174,-0.36138029572502406,-0.7500786907406161,-0.05163402029651011,0.07181241884358947,1.0978033976004389,-0.12090070495984426,-0.07441969814289977,1.1979611712002878,0.0,0.0,0.0,0.0
0.03260672281085952,-0.39064642572909336,0.6872419263570309,-0.0056912956483651436,-0.3898541390287259,-0.009344524879944902,0.9208116198717204,-0.07548241386661522,-0.6226938601804133,-0.61557869777857,-0.04480744880185502,-0.3679177472564104,-0.7502369290313547,-0.04012451216657103,0.06500823154894515,1.0984960663554606,-0.11940722243066629,-0.0705569362030148,1.1866809498752164,0.0,0.0,0.0,0.0
0.030952881462211788,-0.3945212384484485,0.6855957271848302,-0.005561968989956488,-0.3899165403807539,-0.00926014641700565,0.9207868405482315,-0.0779983835537847,-0.6165297542659126,-0.6102813584989528,-0.03235469423496363,-0.37578420288346914,-0.7487987393527741,-0.0277476229610763,0.05768242954956421,1.0986606866519597,-0.11724557957243284,-0.06664976734533325,1.1752577961163921,0.0,0.0,0.0,0.0
0.02906575448612775,-0.3986781454959954,0.6838720127845187,-0.005420094816733054,-0.38998802483061484,-0.009161956891429129,0.9207583948065926,-0.0799232361305337,-0.6105788865267333,-0.6046573174144605,-0.018907985192891635,-0.38512982232891546,-0.7452519052074711,-0.014522467203577426,0.05004474758247777,1.097829843069914,-0.1144791300764186,-0.06289356210723904,1.1637648585027167,0.0,0.0,0.0,0.0
0.026912731766189447,-0.40311361526900397,0.6821065256509183,-0.0052652955645049425,-0.39007278915549654,-0.009052275378926673,0.9207244713450023,-0.08131554882288519,-0.6049367156902784,-0.5987587928685941,-0.004466900516683137,-0.3961468433182389,-0.7390130542301575,-0.0005009732945080239,0.04228371618588808,1.0955739963409372,-0.11113717803435533,-0.059381491242475395,1.1521592572994543,0.0,0.0,0.0,0.0
0.024464200976995056,-0.4078127370928738,0.6803341739217015,-0.005097266868377369,-0.39017248469175525,-0.008934921443761703,0.920684320078673,-0.08228918475610249,-0.5996047419832403,-0.5926623138313183,0.010921736190180515,-0.40904918624998493,-0.7294459832821665,0.014213762233763116,0.03459099835270457,1.091491296560629,-0.10730447546688433,-0.05612956536118809,1.1403426377775332,0.0,0.0,0.0,0.0
0.02169908925262973,-0.412742680504997,0.6785928439520478,-0.004916431444161666,-0.3902854423187882,-0.008816240777007787,0.9206385697516939,-0.08301919592618821,-0.5945119226924389,-0.5864955034981788,0.027144229323316157,-0.4240493503819231,-0.715887250800031,0.029448593339626954,0.02718279028036793,1.0852073775104094,-0.10319140972747275,-0.05308777869698927,1.128201964390433,0.0,0.0,0.0,0.0
0.018612295724401692,-0.4178447770900358,0.676924591319665,-0.0047245346239040064,-0.3904053367968604,-0.008705436813310428,0.9205897930908244,-0.08371831411594713,-0.5894852577664846,-0.5804475348639987,0.043994297700351646,-0.4413316083407576,-0.6976946053417201,0.04494184272509974,0.0203036571113869,1.0764096249315627,-0.09918272431625108,-0.050137018676393336,1.1156472245178857,0.0,0.0,0.0,0.0
0.015225522889863976,-0.4230237825084217,0.6753689879113692,-0.004525228365372051,-0.39051831343452287,-0.008612662153342325,0.9205437475922202,-0.08456002262474978,-0.5841682329559665,-0.5747820710162189,0.06113323822013743,-0.4610229779723338,-0.674340896442697,0.06032623528692805,0.014180925572539946,1.064963830293312,-0.09584362761998633,-0.0470688073533948,1.1026512080682263,0.0,0.0,0.0,0.0
0.01160314205178095,-0.4281292784713234,0.6739357935532801,-0.004326436487030792,-0.39058889009963693,-0.008521769153038585,0.9205156056952862,-0.08567176029475197,-0.5779251433881483,-0.5700130990174006,0.07792779361614696,-0.483166127937263,-0.6455984271060464,0.07515039620814841,0.008827685156786445,1.0511727688314685,-0.09378959464283707,-0.04354547267435749,1.0892789719229354,0.0,0.0,0.0,0.0
0.007842857908901204,-0.43296977479113863,0.672584781422525,-0.004125582031937657,-0.3905464065348393,-0.008494537338799001,0.9205348047472304,-0.08898034767751133,-0.5703679977574131,-0.5668320251102645,0.09399044730547772,-0.5078806776602212,-0.6117343423011746,0.08869689329688822,0.003967839771334474,1.036046734082343,-0.09363500887988074,-0.03905830045448972,1.075713486838721,0.0,0.0,0.0,0.0
0.00446239699513124,-0.4372322086569015,0.6712268311342183,-0.003952651865149848,-0.39033372477736133,-0.00843376500353688,0.9206263256351782,-0.09432691681313307,-0.561312924697735,-0.5661076408527127,0.1079610089901693,-0.5321759007405827,-0.5784839988204187,0.10040895417870754,-0.0007578782103896831,1.022215076134778,-0.09565455536365426,-0.033483830187288614,1.0624288793447747,0.0,0.0,0.0,0.0
0.0016996734121694458,-0.44041371741429836,0.6697927134875191,-0.003804170381733981,-0.3899972965014626,-0.008382040307147126,0.9207699921313391,-0.10277262091654568,-0.5518770823250814,-0.569643365130746,0.11844937764901543,-0.5548252084647446,-0.5478552380113096,0.10890120181682073,-0.0064126058009239565,1.0134392495172353,-0.10002174368129962,-0.027533043058584634,1.048622308563891,0.0,0.0,0.0,0.0
5.083097590521512e-06,-0.4422037696463551,0.6687319474707946,-0.0037236959779817368,-0.3895841331737943,-0.008319955200503468,0.9209457723519602,-0.11161540921483833,-0.5431542280473407,-0.5782471760507593,0.12435344551578019,-0.5705621034853174,-0.5272330562719234,0.11359910429100949,-0.010947819128621802,1.0088903794975623,-0.1048223276325912,-0.022532159663356564,1.0360285077788915,0.0,0.0,0.0,0.0
7.98432021468176e-05,-0.4423472055295045,0.6686268839086598,-0.003628007353599569,-0.3896112338377209,-0.008245771425742262,0.9209353567344917,-0.11163597783562453,-0.543169155446898,-0.5782795250504115,0.12451446442888497,-0.5707458753125454,-0.52717841484706,0.11379524643811491,-0.010872313877591652,1.0088421397488918,-0.10486553366545973,-0.02250152599950165,1.0360256966069168,0.0,0.0,0.0,0.0
