zhuoxili-jackie/tripod-support-walk/examples/trajectory_walking_sideways_sc_v0.05.csv
root_pos_x,root_pos_y,root_pos_z,root_rot_x,root_rot_y,root_rot_z,root_rot_w,FL_hip_joint,FL_thigh_joint,FL_calf_joint,FR_hip_joint,FR_thigh_joint,FR_calf_joint,RL_hip_joint,RL_thigh_joint,RL_calf_joint,RR_hip_joint,RR_thigh_joint,RR_calf_joint,FL_foot_joint,FR_foot_joint,RL_foot_joint,RR_foot_joint
0.0,0.0,0.72963,0.0,-0.5231245161092812,0.0,0.852256264656019,0.0,-0.81,0.872,0.0,-0.81,0.872,0.0,0.65,1.0,0.0,0.65,1.0,0.0,0.0,0.0,0.0
-0.00011414264444247933,-7.139793561491216e-05,0.7296103016425838,-6.334674805119449e-05,-0.5231534164236842,6.77593264207816e-05,0.8522385195941864,3.7013355785908255e-05,-0.8093002334416722,0.8705763975094292,3.7013355785908255e-05,-0.8092487232007936,0.8707899291407735,0.0013108808316353204,0.649349988677872,1.0000114468961034,0.0013108808316353183,0.649937349504051,1.0006678540643825,0.0,0.0,0.0,0.0
-0.0002975726181842918,-0.00016439717026530684,0.7295864589552005,-0.0001632099611457147,-0.5231798686983103,0.00015668605722307706,0.8522222561050649,9.475291235954711e-05,-0.8082909811538963,0.8684533584299021,9.481695021712922e-05,-0.8081157283348158,0.8688866637088222,0.0031256208706596047,0.6483544939281115,1.0000114678684806,0.003131909717482429,0.6497599454926731,1.001531530531184,0.0,0.0,0.0,0.0
-0.0004905727340287737,-0.0002500875609525166,0.7295595898567478,-0.0002986368829678431,-0.5232431618548905,0.00026204963424415257,0.8521833345695621,0.00011223193927676372,-0.8071091772781331,0.8661123953252925,0.00011248376937742962,-0.8066156737310435,0.8665634211663453,0.00520899936617914,0.647325696821497,1.00012217342872,0.005231501780300865,0.6497263619408743,1.0025035852129938,0.0,0.0,0.0,0.0
-0.0003965677746299014,-0.00027036872812819207,0.7295006563845412,-0.0004187534764032427,-0.5233323225860371,0.0003630734141195699,0.8521284955685533,-3.414716721947711e-05,-0.8075423456443036,0.8668463695343267,-3.354916136178323e-05,-0.8064761197212369,0.8668743187515286,0.006732740088644897,0.6471162566309971,1.0005605287219594,0.0067760562074236745,0.650393206581255,1.0033361172936697,0.0,0.0,0.0,0.0
0.0001386120816341359,-0.0002470380256568,0.7294110033824693,-0.0004926668034175092,-0.5234589649495478,0.00042209392730011496,0.8520506388296916,-0.00020622201170158145,-0.8101959265310715,0.8720184470352219,-0.00020522998995213765,-0.8086125616755393,0.8715186616565185,0.007438211402812653,0.6483394667861586,1.0011732154402309,0.0074955963269773655,0.6521310480980433,1.0039377685543704,0.0,0.0,0.0,0.0
0.001147465037505215,-0.00015444297065651314,0.729298193428343,-0.000525640538838388,-0.5236512564501165,0.0004417474765219666,0.8519324446101376,-0.0004733251298473396,-0.8150875832504325,0.8818277969176228,-0.0004719733857961877,-0.8128987863395086,0.8804870079926451,0.0072070375398289,0.6512098535664389,1.0019874741566293,0.007264233246342588,0.6551594150794489,1.0041672118553935,0.0,0.0,0.0,0.0
0.0026638650364831434,3.219108878350777e-05,0.7291709122262192,-0.0005168375017130607,-0.5239234923613365,0.00042355885547280234,0.8517650659828644,-0.0009046847003296276,-0.8222621359084279,0.8964664079201771,-0.0009029372121149187,-0.8192689826711473,0.8938027843066452,0.005850360744702461,0.6559512446565312,1.002964708204803,0.005890655078978337,0.6596621217230401,1.00381868939276,0.0,0.0,0.0,0.0
0.004721249813001668,0.0003320854603560919,0.7290483074995163,-0.0004526240139088168,-0.5243013743485831,0.00035888920659087227,0.8515325802259279,-0.0015377926075313504,-0.8315650827832034,0.9159041904783157,-0.0015354683637774016,-0.8275627926652452,0.9113847779500962,0.003026511662435879,0.6629402248393693,1.0039592135187179,0.0030382526437472096,0.6658607258016173,1.002590939947504,0.0,0.0,0.0,0.0
0.007343287027105473,0.0007507138699547104,0.7289644599952392,-0.00030331179967459256,-0.5248302175742625,0.00022530070787256804,0.8512068491045496,-0.002349606328110589,-0.8425120320295351,0.9397272045206281,-0.0023463966954716626,-0.8374510416221671,0.9329550618839452,-0.0017820645518969425,0.6727457176704128,1.00467196656262,-0.0017872416838610647,0.6740137071138128,1.0000865825472511,0.0,0.0,0.0,0.0
0.0105186002444868,0.0012628617122987511,0.7289498020429739,-3.802612500619775e-05,-0.525537397243167,4.674163106932668e-06,0.8507704993892558,-0.003252141842969406,-0.8544781294536509,0.9671607616023712,-0.0032476794961747396,-0.8485965062101402,0.9580851879257846,-0.00898719343283605,0.6858018157544128,1.0046833184652837,-0.008932342158674464,0.6842210885066583,0.9960011249486782,0.0,0.0,0.0,0.0
0.013425238866455545,0.0015878609180401968,0.7287006218482113,-0.00022846366617754318,-0.5252703926582314,0.00011629030333236598,0.8509353376594405,-0.0027601018040200103,-0.8500289740186395,0.940632456011623,-0.00430384795955653,-0.863648191494533,0.9851723805704149,-0.009815201066245397,0.6928215687838387,1.0037941346229193,-0.009666313723375232,0.6916767294678491,0.9931631718100031,0.0,0.0,0.0,0.0
0.016122673682119934,0.002026488116713029,0.7282857383222396,-0.00035957614726188087,-0.525164800737003,0.00019481497932946124,0.8510004493647357,-0.004492097153696463,-0.8531245047389595,0.9224393463568249,-0.005619887102189114,-0.8767424154684028,1.0085952221996455,-0.012064205513853846,0.6991727747075526,1.0052684342992053,-0.01181729936598961,0.6979528108564571,0.9918214736988032,0.0,0.0,0.0,0.0
0.018423468714162318,0.0025258202231621856,0.7278831998591957,-0.00045936987750409754,-0.5252527093621555,0.00025694126932059594,0.8509461288872607,-0.006994924227736843,-0.8603924465155153,0.9113581312164758,-0.007082214889079435,-0.8865265296785468,1.0267942307074884,-0.015177365184845422,0.7051279788472589,1.0075786289207798,-0.014803240127246618,0.7034849848166589,0.990858436684532,0.0,0.0,0.0,0.0
0.020230284018653243,0.003010387793463129,0.7275400932715295,-0.0005651506871971882,-0.525421769395939,0.0003364975025594936,0.8508416607212954,-0.00955351349817683,-0.8696410450115037,0.9043323126392351,-0.008555390193285734,-0.8932962164608527,1.0399672379973848,-0.018077932580040083,0.7100419036824894,1.00996692739144,-0.01755695897568852,0.7080640268861629,0.9901196079455675,0.0,0.0,0.0,0.0
0.02153964066454978,0.0034223397907550443,0.7272724450490824,-0.0006795991483901812,-0.5256056150282693,0.0004317159035331472,0.8507279760400095,-0.01192832610557035,-0.8797302902482451,0.8993412668666683,-0.009872641428734404,-0.8976024277897148,1.0488152476262853,-0.020219597010225708,0.7136625197856881,1.0120557456902881,-0.019563344568967564,0.7115994741491254,0.989621322924948,0.0,0.0,0.0,0.0
0.022402146324228236,0.0037248199183727484,0.7270839620880553,-0.0007911643368581149,-0.5257746259678602,0.000526255600833787,0.8506233830564449,-0.014084690362671515,-0.8901138681369899,0.895207618082373,-0.010892431201399941,-0.900008473666471,1.0541843707989675,-0.021430540058529943,0.7160493939747515,1.0136461632212306,-0.020679283737178096,0.7141422010084242,0.9893779552581083,0.0,0.0,0.0,0.0
0.022892014076426034,0.0038998952915703525,0.7269706578685882,-0.0008861916186690698,-0.5259205902821981,0.0006030010745237538,0.8505329998132604,-0.016050987891708356,-0.9005419344396756,0.8912872641342436,-0.011525332009670054,-0.9010120602268957,1.0568941332887796,-0.021756014282281126,0.7174197081102602,1.0146505722622539,-0.020962472726874244,0.7158234578829241,0.9893826715941274,0.0,0.0,0.0,0.0
0.023087597568418848,0.003943511016377371,0.7269224561496105,-0.0009556173554748652,-0.5260428569465606,0.0006504483405231641,0.8504572748633094,-0.01786123881404888,-0.9109164625274926,0.8872522634218631,-0.011734425172569228,-0.901039535944866,1.057673108338066,-0.021317628995157017,0.7180155498831136,1.0150602119154992,-0.02053252078589577,0.7167945461361757,0.9896261890477087,0.0,0.0,0.0,0.0
0.023060909759431772,0.0038602920666118666,0.7269220047964987,-0.0009955579011072491,-0.526142264895764,0.0006623717874229096,0.8503957238947268,-0.019535465301052417,-0.9212185424472145,0.8829503801704827,-0.011519434085533608,-0.90045926377412,1.0571392991915711,-0.020251673784273512,0.718030498609847,1.0149519118993484,-0.01951541491607712,0.7171748070390711,0.9901397194233365,0.0,0.0,0.0,0.0
0.022872286072638793,0.003660975267053587,0.7269356233523339,-0.0010054429631477634,-0.5262180577482313,0.0006346115623112668,0.8503488355094584,-0.02106845816356378,-0.931484215206821,0.8782915980728444,-0.010901209930591045,-0.8996236092965493,1.0558068499729816,-0.01871379194319061,0.7175431473987316,1.0145738058183225,-0.01805195478885104,0.7169721324529171,0.9910925126499811,0.0,0.0,0.0,0.0
0.02260003413869664,0.00339765926654851,0.7269722112061907,-0.0009917795335436077,-0.5262831815291579,0.0005820305765147605,0.8503085854284386,-0.02254463532243799,-0.9417520138024819,0.8733374394740644,-0.010057834746287114,-0.8986221624940969,1.0540592037738137,-0.017001966845160928,0.716900525189129,1.0139087143235648,-0.016418629029257094,0.7165227888494249,0.9921368983018137,0.0,0.0,0.0,0.0
0.02230875642325581,0.003114858338253262,0.7270263449891262,-0.0009617742301266929,-0.5263435296112051,0.0005161383736245135,0.85027130812931,-0.02402362720476097,-0.9520479271195514,0.8681239769377103,-0.00913698196217783,-0.8975929648331743,1.0522482935934967,-0.015361587989142285,0.7163149297386824,1.0130553538261213,-0.014846661089247362,0.7160301323146698,0.9930904814955355,0.0,0.0,0.0,0.0
0.022044482775091693,0.002845837810271461,0.7270858382689102,-0.0009209826981615713,-0.526402882498067,0.00044423494809626583,0.8502346498137482,-0.025567515241020144,-0.9623135091454146,0.8627237285155464,-0.008244735435922449,-0.8966629329977199,1.0506362007771202,-0.013978481214861838,0.7158988221771491,1.012165931002457,-0.013515236509136934,0.7155952043024758,0.9938945887955419,0.0,0.0,0.0,0.0
0.02183586234938568,0.002613301724057139,0.7271407448797255,-0.00087441012585406,-0.5264620587258829,0.00037170670390361467,0.8501980933659891,-0.0272501473849622,-0.9723044990126763,0.8572915025731965,-0.007453248014041621,-0.8959212577272399,1.0493902995862254,-0.012960992331613266,0.7157004517783534,1.0113613215697363,-0.012531951064377465,0.7152690267932991,0.9945277056028607,0.0,0.0,0.0,0.0
0.021692770907277104,0.002428391477076201,0.727184987372128,-0.0008269850600975999,-0.526517889373629,0.00030310571013103635,0.8501635938995377,-0.029141292846884853,-0.9814755172408257,0.8521411747723682,-0.006801181052263706,-0.8954118710869411,1.0485731720117943,-0.01232415913979575,0.7157012180323432,1.0107104018066568,-0.011914741215600287,0.7150579183381722,0.9949937636449322,0.0,0.0,0.0,0.0
0.02160509321823875,0.0022887524671830737,0.7272165375186319,-0.000783734719741694,-0.5265630689901235,0.000242564687408803,0.8501356722888199,-0.031266186610447375,-0.9888973084946763,0.8478476551179595,-0.006289988733984137,-0.8951302261588576,1.0481362041834579,-0.011972302931660381,0.7158105249910938,1.0102214103710963,-0.01157317771276336,0.7149234540791533,0.9953278554592252,0.0,0.0,0.0,0.0
0.02154581683665525,0.0021785053888106025,0.7272374026268227,-0.0007482798353788334,-0.526590129565283,0.00019243087714910904,0.8501189554950906,-0.033555454191252755,-0.9933271656962774,0.845315778660342,-0.005881221537048302,-0.8950184620844963,1.0479287607292644,-0.011722547351625591,0.7158952226639597,1.0098453882456457,-0.011330882549068513,0.7147966955174231,0.9955966837076665,0.0,0.0,0.0,0.0
0.02148458829365665,0.002075964339091632,0.7272535643267084,-0.0007190485091884921,-0.5266022005133144,0.0001502768237995529,0.8501115119798417,-0.03585757048441493,-0.9936447693317116,0.8456250834727312,-0.005511142371419923,-0.8949587564882483,1.0477435241280288,-0.01142319576795958,0.7158796256910797,1.0095059438972929,-0.01104090665765407,0.7146280297963246,0.9958676246951844,0.0,0.0,0.0,0.0
0.021408929416807637,0.001973865845284963,0.727268345671898,-0.0006947350287153697,-0.5265987342063377,0.00011498413959455564,0.8501136848999493,-0.03813972627814385,-0.9898320872785097,0.8487466296614442,-0.00515811413736147,-0.8949074722094208,1.0474984006978287,-0.011031772181103877,0.7157349481840624,1.0091664509675893,-0.010661766763128576,0.7143928073762099,0.9961510861693648,0.0,0.0,0.0,0.0
0.02132491218964415,0.0018793309611439156,0.7272824292072826,-0.0006743398700699274,-0.5265760621857173,8.627007984789898e-05,0.8501277483744408,-0.04050701476554741,-0.9829835159791075,0.853572855835739,-0.004840977307870172,-0.8948962446758264,1.0472407679305555,-0.010618129310125962,0.7154843354425755,1.0088304391257048,-0.010260811718954982,0.7140936492295217,0.9964002808501838,0.0,0.0,0.0,0.0
0.021234954323430283,0.0017930723860305245,0.7273002156443098,-0.0006519266135862054,-0.526541883614274,5.857784609970385e-05,0.8501489377516499,-0.04300346292877635,-0.9743174669286288,0.8591803960014894,-0.004549878895396015,-0.8948943497016393,1.046958499259081,-0.010278741202668829,0.7152078859739731,1.0084770494157274,-0.009931741652184883,0.7137519002351839,0.9965755516770928,0.0,0.0,0.0,0.0
0.021122861865509365,0.0017012270976720333,0.7273295360990281,-0.0006209226800567555,-0.526503466511219,2.4784757477235418e-05,0.8501727551459237,-0.04558658390951199,-0.9647392294038569,0.8649687454705033,-0.004232291741493061,-0.8948147109774848,1.0465277303027811,-0.010003748260426682,0.7149295527998789,1.0080321288833434,-0.009665407757401368,0.7133526463288707,0.996681014763346,0.0,0.0,0.0,0.0
0.020950766884974874,0.0015754440065843072,0.7273799646224971,-0.0005759115583055117,-0.5264629196473636,-2.205381027428246e-05,0.850197895831247,-0.0481692363973881,-0.9547771860926709,0.8705991329539655,-0.003797064376882649,-0.8945262058958187,1.0457070728401099,-0.009650984541946406,0.714577805682235,1.007377232350259,-0.009323855197342976,0.7128222129117465,0.9967773233601315,0.0,0.0,0.0,0.0
0.02066056612548203,0.00137523512106167,0.7274535676288058,-0.0005119479790974172,-0.5264169320247997,-8.992417234986389e-05,0.8502264072001688,-0.0506496893848047,-0.9446817998728337,0.8758977421753616,-0.003117969673378247,-0.8938875582948667,1.0441553081740673,-0.008983019777015084,0.7139561444788651,1.0064385041356347,-0.008675695008266827,0.7119813932808737,0.9970523806143512,0.0,0.0,0.0,0.0
0.02019016361865105,0.0010599380667245025,0.72755188429835,-0.00042748736503820403,-0.5263562456017009,-0.00018384937643550135,0.8502640096876037,-0.052930507588318916,-0.9345421146029512,0.8807654682583188,-0.002075075008631226,-0.8927623657604575,1.0415151530467188,-0.007717391209121353,0.7128241327915358,1.0051345569801096,-0.00744345236153351,0.7106344424875511,0.9976952972754363,0.0,0.0,0.0,0.0
0.019494136618299386,0.0006202828691195866,0.727704491736664,-0.00032715783989790433,-0.5262812068493495,-0.00029493769023219204,0.8503104711202248,-0.05500820975264137,-0.9243837599712591,0.885254401921835,-0.0006671769015406254,-0.8908415945988419,1.0373552694865456,-0.005688248219462368,0.7111400794635393,1.0032107161315398,-0.005458333454892132,0.7088201549680975,0.9985339922109052,0.0,0.0,0.0,0.0
0.01852758402738291,5.0658285608044785e-05,0.7279272497317996,-0.0002184772820104385,-0.5261907001375616,-0.0004133462616859303,0.8503664671782912,-0.05690819505292509,-0.9142515166835234,0.8894711845637222,0.0010945324295737028,-0.8878481261224462,1.0312407119090234,-0.002751289361390464,0.7088054107710303,1.000533562364322,-0.002565272967570428,0.7065144288999133,0.999498235784165,0.0,0.0,0.0,0.0
0.017256082588548848,-0.0006483754723659649,0.7282303070274537,-0.0001122568567912006,-0.5260861899909102,-0.0005273946538293656,0.8504310847764945,-0.05872559561431309,-0.9042451894326239,0.8936551424191538,0.0031774371616166627,-0.8835230142115442,1.0227732249833348,0.0011986191276241983,0.7057483648105617,0.9970169849413235,0.0013617458675164564,0.7037113987458864,1.0005299871874118,0.0,0.0,0.0,0.0
0.015668656308276914,-0.001467791313600661,0.7286153107016815,-2.1206770738633092e-05,-0.5259757625178108,-0.0006263267508727111,0.8504993265775591,-0.06066024565483253,-0.8945639233811381,0.8982867859881805,0.005528503747304709,-0.8776694155377891,1.0116797615432394,0.006176236678121559,0.7019772560765305,0.9926475062255367,0.006368670383715073,0.700449849822155,1.0015869285526828,0.0,0.0,0.0,0.0
0.013797420334960793,-0.002388117123108024,0.7290602676259884,5.1308056776738405e-05,-0.5258900878281935,-0.0007133580140215148,0.8505522347345177,-0.06301927363346974,-0.8855489377883597,0.9042862515206208,0.008099141348358478,-0.8702324908129963,0.997946435453681,0.011930102593140956,0.6976651677102316,0.987653761002476,0.012238083207991964,0.6967911731483544,1.0027657036474535,0.0,0.0,0.0,0.0
0.01173999363533005,-0.0033790964896266667,0.7294683493947379,0.0001306170745072265,-0.5258966268740713,-0.0008293239069316758,0.85054807800824,-0.06612370868664408,-0.8778017613799091,0.9132197253147233,0.010899442482580285,-0.8615536872606576,0.9820757626515075,0.017700862500932977,0.6930764928021751,0.9830271008392227,0.018219063011303972,0.6925955051131624,1.0047540941634359,0.0,0.0,0.0,0.0
0.009766289594735605,-0.004309361490931991,0.7297562151685802,0.0002781644941096793,-0.5261288881784816,-0.001031722614499858,0.8504041693201155,-0.07034582956330858,-0.872249196900365,0.9276919821749591,0.013703250026686792,-0.8522356568320395,0.9655362239901015,0.021779967444693557,0.6893367468756146,0.9799942459479967,0.022527677314608963,0.6883408459930268,1.0077065312011766,0.0,0.0,0.0,0.0
0.008358747458221058,-0.0049835470819665825,0.7297798665058188,0.000626015462645062,-0.526775676062857,-0.0014131458003727934,0.8500029401314487,-0.07549739508135596,-0.8707641158920444,0.951289799434843,0.01618498678370858,-0.8438686219507665,0.9516179422838801,0.021542923266127938,0.6881781342000451,0.9805925642195824,0.022349026330651823,0.6847955572921323,1.0120178905915886,0.0,0.0,0.0,0.0
0.007819165769153556,-0.005251287875111373,0.7296774036140456,0.0012141778231714742,-0.527854884522205,-0.001883058848224714,0.8493316200093091,-0.08072202225207316,-0.8766803568177978,0.9864597579227049,0.017701052250626195,-0.8371153858862315,0.9425850842983261,0.016445539614642356,0.691016627406599,0.9838240941568508,0.017081246916939626,0.6836595592243476,1.0158177577452103,0.0,0.0,0.0,0.0
0.007817528718633667,-0.005277316885154196,0.729674083091016,0.0012361083272648525,-0.527852929613107,-0.0018794924112495064,0.849332811236761,-0.08071827173118805,-0.876702133287533,0.9864677006410695,0.017726415967839165,-0.8371136018466955,0.9425261466075124,0.016421933970271335,0.6910511374447672,0.9837288378098202,0.017098158369255084,0.6836209734750118,1.0158908446923687,0.0,0.0,0.0,0.0
0.007817528718633667,-0.005277316885154196,0.729674083091016,0.0012361083272648525,-0.527852929613107,-0.0018794924112495064,0.849332811236761,-0.08071827173118805,-0.876702133287533,0.9864677006410695,0.017726415967839165,-0.8371136018466955,0.9425261466075124,0.016421933970271335,0.6910511374447672,0.9837288378098202,0.017098158369255084,0.6836209734750118,1.0158908446923687,0.0,0.0,0.0,0.0
0.008458289427486046,-0.005473817793122189,0.7308430430821446,0.0008529367691544479,-0.5269957548856583,-0.0013216550916862434,0.8498664601331092,-0.08170579035523705,-0.8820604659028042,0.9959540618209811,0.016972926415264714,-0.8407411043986124,0.9514351814835565,0.010882186468919804,0.6741754978906198,1.0060353750883295,0.025101963425724655,0.6909908322065722,1.0043396138191283,0.0,0.0,0.0,0.0
0.009541793892454225,-0.005827539704504278,0.7323643315807705,0.0007736572236829063,-0.5266451364670884,-0.0011504282655995601,0.8500841006658504,-0.08135533924301142,-0.8842947730404273,1.005251671315635,0.01747554389374782,-0.8436877834850146,0.9624627722493005,0.00658060661925031,0.6629127538449945,1.0244028334377961,0.029476531862117954,0.7014305153477869,0.989923949663131,0.0,0.0,0.0,0.0
0.010663054168030737,-0.006405798637440709,0.7338827329267117,0.0008690259290841426,-0.5265531039374791,-0.001228729954503628,0.8501409081737213,-0.07978610994573167,-0.8841765750285941,1.0123861565486572,0.019122149834170835,-0.8462544780231276,0.9734436859582566,0.004498881616475573,0.6549975710293621,1.0403549047525826,0.032656102252217135,0.712039423600443,0.9761810562863957,0.0,0.0,0.0,0.0
0.011704952923756997,-0.007188353397469302,0.7352853516218779,0.0010276089112780853,-0.5265090618847118,-0.001425586421897962,0.8501677007958841,-0.07737901882328255,-0.8830874331391522,1.0178473523953526,0.021580053881316254,-0.8490883044326736,0.9842605265886557,0.00382371289869603,0.6491152558395968,1.0548508979621551,0.036133176161618735,0.7218154299185786,0.9640270467380044,0.0,0.0,0.0,0.0
0.01255441917859977,-0.008108925897913738,0.7365672830378535,0.0011968026497166141,-0.5264613149220672,-0.0016457964609313288,0.8501966495511228,-0.07452975254379356,-0.8811227391944412,1.0212139031709373,0.024450958657908646,-0.8516381143911554,0.9938092122348506,0.003993198985351843,0.6441647554683346,1.0685018071445291,0.04042444654037687,0.7304886981635993,0.9535054228195375,0.0,0.0,0.0,0.0
0.013185007195410074,-0.00910053357327404,0.737750490735667,0.0013597200175445492,-0.5264071017356735,-0.0018531677947287949,0.8502295455774557,-0.07149939829392046,-0.878316120968592,1.0224955701706102,0.02747089779889387,-0.8535482281738678,1.0016167092627397,0.004603820951635016,0.6395216970075409,1.0816810543464002,0.0453882753123353,0.7381177265186574,0.9443140478225309,0.0,0.0,0.0,0.0
0.013608278619394907,-0.0101013943731188,0.738852050100125,0.00150706298448003,-0.5263480652442242,-0.00202548868023956,0.8502654528854086,-0.0685082349874411,-0.8748292981906338,1.0219870057289648,0.03042236542603914,-0.8546725509623221,1.0075789271799638,0.005478014458193723,0.6348411513608176,1.0946185073825931,0.05076869928830594,0.7448342261499372,0.936133889611549,0.0,0.0,0.0,0.0
0.013862309086975493,-0.011070726422748608,0.739881147462372,0.0016361346045948603,-0.5262852170513551,-0.002160016222468294,0.8503037855417805,-0.06567640706320352,-0.8709019612891336,1.0201496919020523,0.033192608421863556,-0.8550893519450815,1.0119265219914584,0.006481305364171876,0.6300185408968072,1.107476819570475,0.05628226558475912,0.7507730854299122,0.9287201602347397,0.0,0.0,0.0,0.0
0.013990643973810576,-0.011979795835943925,0.7408446595153605,0.0017473195353681485,-0.5262234079595527,-0.002259671498686243,0.8503415582426826,-0.06307772651734031,-0.8667459250530566,1.0174305096911185,0.03571487615995259,-0.8549146734878568,1.0149543863328474,0.007496004475729173,0.6250540949049066,1.120382279219006,0.06168020307359234,0.7560811985616845,0.9218760736816505,0.0,0.0,0.0,0.0
0.014045712920660444,-0.012812259453515664,0.7417489045385405,0.0018442528153475451,-0.5261675975895178,-0.0023341926922351226,0.8503756872835111,-0.06073712488871623,-0.8625777041875727,1.0143125740416805,0.037972871289032505,-0.8543382526988108,1.0170757314258625,0.008422216060692241,0.6200288713201199,1.1334390384174133,0.06674511222779898,0.7609224574998384,0.9154288593374302,0.0,0.0,0.0,0.0
0.014110316978120289,-0.013573809926270978,0.7425973044514663,0.0019352377717678404,-0.526115283909327,-0.0024045610842140094,0.8504076557614985,-0.05859921069404568,-0.8587471613732164,1.011524213136594,0.04003939711800394,-0.8538010940100139,1.019095641844855,0.009257387353910268,0.615172343814808,1.1467042801117737,0.07132984727667747,0.7655060952255147,0.9092399912382791,0.0,0.0,0.0,0.0
0.014227774443752287,-0.014260754923230933,0.743390347876807,0.0020244060417842543,-0.5260728953299555,-0.0024792974171050446,0.8504334563407376,-0.056656326048411206,-0.8554131130930543,1.0094342119083326,0.04192949132347035,-0.8534750627073284,1.0213720594802167,0.00996210024942102,0.6106250799706961,1.160193302081647,0.07534028238398363,0.7699625658983149,0.903248069857004,0.0,0.0,0.0,0.0
0.014413175514506405,-0.014864734455445982,0.7441222264158488,0.0021120717667188105,-0.5260451240269969,-0.002559242989235538,0.8504501848524673,-0.05492773127243323,-0.8526555211762117,1.0081966492003978,0.04362617786700945,-0.8534080768915676,1.0240025559840877,0.010497488438808926,0.6064757089006867,1.173808833331733,0.07872358093590824,0.7743179916863085,0.8974800346143319,0.0,0.0,0.0,0.0
0.014659318168637405,-0.015375395038700989,0.744779594760302,0.0021962478519978942,-0.526034168749747,-0.0026410675707456916,0.8504564977500155,-0.05344544148921325,-0.850500850510248,1.0077976861950875,0.04509609772598093,-0.8535738821402391,1.0268987394202256,0.010813688475831243,0.6027950301886353,1.1872789017505192,0.08144797871295788,0.7784918845242585,0.89206204182439,0.0,0.0,0.0,0.0
0.014935035936002794,-0.015782786341298826,0.745339324696911,0.0022716420960183547,-0.5260389466400848,-0.0027163898210526708,0.8504531071648322,-0.05224988109407461,-0.8489249001452503,1.00804318726217,0.04629390472373069,-0.8538805055479344,1.0297868315154617,0.01080951902413751,0.5996449931483172,1.2000299620656836,0.08353223565753197,0.7822813450154895,0.8872548533469007,0.0,0.0,0.0,0.0
0.01517996117934558,-0.016079625793515892,0.7457667339926648,0.002327903786315549,-0.5260566046352203,-0.002768973729902955,0.8504418630148144,-0.051389725637898585,-0.8478284540680654,1.0085051143814443,0.04716113917320822,-0.8541442007955328,1.0321615194777476,0.010253766649347117,0.5971240042059112,1.2109817618679584,0.08509735094180632,0.785349556177102,0.883496144908464,0.0,0.0,0.0,0.0
0.01533021239875331,-0.01627402644007673,0.7460171222409274,0.002350249373961755,-0.5260742744279433,-0.002781096493537728,0.850430831764281,-0.050876310825565915,-0.847168422769415,1.0087564596752174,0.04767950141816109,-0.854281661843487,1.0335992686144446,0.008757310455884824,0.595615503720632,1.2182352723195708,0.08642076550066174,0.7872845473018577,0.8813716570839544,0.0,0.0,0.0,0.0
0.015361479662544593,-0.01639567731575,0.7460526421089982,0.002326728190350347,-0.5260630452982948,-0.002748488437856245,0.8504379486586422,-0.05063747661810224,-0.847095142412859,1.0087284016978078,0.04792644273896596,-0.8545182014585746,1.0341764502571418,0.005859860513404929,0.5962208167226283,1.218805349372914,0.08782877018438444,0.7877665330380248,0.8813696823578875,0.0,0.0,0.0,0.0
0.015274119099702213,-0.016448783343983437,0.745875020554727,0.002260107795209037,-0.5260238289970918,-0.002673810778321836,0.8504626235031814,-0.050657037768228885,-0.8475854125199881,1.0084004563283067,0.04791780641638474,-0.8548616296350425,1.0339097452586201,0.0015837457541370281,0.5989393124019072,1.2126756794367086,0.08931213807941442,0.7867971906458958,0.8834891820490283,0.0,0.0,0.0,0.0
0.015091189575997714,-0.0164133776769297,0.7455264919241286,0.002166546972128067,-0.5259854675240607,-0.0025661458110801,0.8504869246045992,-0.050971929841143244,-0.8484408003476619,1.0077887121509739,0.047610440123599766,-0.8551010897686366,1.03274910573418,-0.0035789587493196464,0.6026694968234079,1.202800809308103,0.09054677727684882,0.784699371133844,0.8872299342895212,0.0,0.0,0.0,0.0
0.014884247575369512,-0.016301315347038138,0.7450588587345275,0.0020656111960310848,-0.525954867507908,-0.0024514238127972374,0.8505064380217329,-0.051501554572857676,-0.8496966942246037,1.0073401759010534,0.047094042880963055,-0.8554210464861913,1.0312797520821797,-0.009176063075776859,0.6070735139531259,1.1910429748459153,0.091308824694174,0.7819149144014301,0.8919687788472223,0.0,0.0,0.0,0.0
0.014690286587814603,-0.016134700440593085,0.7445177388118799,0.0019695817781168355,-0.5259315889998635,-0.002347359863280472,0.850521354429958,-0.052152408764005974,-0.8512932427419668,1.007223920422154,0.04646578656176281,-0.8559143259926038,1.029846963266382,-0.014956228551612785,0.6120102244583153,1.1784440513785897,0.09155068705086289,0.7787552302965145,0.8972295081987555,0.0,0.0,0.0,0.0
0.014501916403293293,-0.01594278177857426,0.7439375544875166,0.0018826434023011497,-0.5259089317774136,-0.00225975689288719,0.850535798558382,-0.05283440949792866,-0.8530508763968828,1.0072561982270747,0.045811985686993566,-0.8565370104991019,1.0284589955824759,-0.0207761242138165,0.6173395935524184,1.1655119912186724,0.09140605745375854,0.7753540242423579,0.9027429801064722,0.0,0.0,0.0,0.0
0.014266842556135233,-0.015756645654573156,0.7433427722758303,0.0018022842541361042,-0.5258762440027951,-0.0021828782082570163,0.8505563842613305,-0.053474173030855575,-0.8546559742837663,1.0068932115807574,0.0451939941696611,-0.8570784649450913,1.0267516278104143,-0.026546285516572662,0.6228554879671284,1.1524339173063611,0.09113529260577967,0.7716738985085871,0.9084162636453473,0.0,0.0,0.0,0.0
0.013887257085263291,-0.01560186077888925,0.7427526587092995,0.0017213548465228141,-0.5258262242228705,-0.002100948914026022,0.8505876820591,-0.05403028327899451,-0.8556066219929426,1.0051947741336424,0.04463058008939095,-0.8570879669993614,1.023914558258849,-0.03224942343620269,0.6282483074686194,1.1392521860823874,0.09104562078287984,0.7675403589856279,0.914268380323075,0.0,0.0,0.0,0.0
0.013301949848695583,-0.01552876563448437,0.7421831823415268,0.0016381056440909277,-0.525738764104822,-0.002012953645356401,0.8506421201334052,-0.05436674731040472,-0.855580247738403,1.0015317654737252,0.04424673190839402,-0.8564343994499286,1.0196203380722277,-0.03781631629314827,0.6333531707105549,1.1259349518900539,0.09149549664104009,0.7628146952000233,0.9203420733868483,0.0,0.0,0.0,0.0
0.012436936658153187,-0.015584293045572264,0.7416472535749555,0.0015487820615294006,-0.5255995028191707,-0.0019134363816024082,0.8507285716793459,-0.054365437661824216,-0.8541759351689822,0.9951319551821505,0.04414579009500196,-0.8548841386802839,1.0133749661552245,-0.04325940244507691,0.6379492100095485,1.1124537969565085,0.09285674143284896,0.7573315804844358,0.926723792391064,0.0,0.0,0.0,0.0
0.011217407699738764,-0.015807781989617853,0.7411508835853231,0.0014461577734971396,-0.5253977187618164,-0.0017913431794698825,0.8508536518327854,-0.053942372871640804,-0.8509969691742374,0.9852028883931918,0.04439722631867177,-0.8521620476469431,1.004614063052698,-0.048699524071501604,0.6417754018210114,1.0988031094589887,0.09549442628262986,0.7509148001510967,0.9335403876812634,0.0,0.0,0.0,0.0
0.009590723162552068,-0.016222806126103488,0.7406908527881371,0.0013207177009133967,-0.5251303253121815,-0.0016321398425175149,0.8510192320164165,-0.053067966524201524,-0.8457436694425768,0.9711239496976325,0.04502133762802445,-0.8480226212808004,0.9928560220402675,-0.05443998979522918,0.6446236851858161,1.085090180529635,0.0996815834596454,0.7434384803259914,0.9409225637482946,0.0,0.0,0.0,0.0
0.0075652393734898,-0.01682614982289442,0.7402510223492941,0.001162861423711853,-0.5248047728387663,-0.0014227265304471981,0.8512206376775528,-0.05178884870512946,-0.8384014658283526,0.9528124161973642,0.04597595427565956,-0.8424111535109331,0.9780115445549435,-0.061115893243508045,0.6465642999243801,1.07169323735195,0.10548313356322102,0.734918890562902,0.948957101749803,0.0,0.0,0.0,0.0
0.005268256974504438,-0.017579080759882893,0.7397886397504069,0.0009593524974909872,-0.5244203012598022,-0.0011578783429537825,0.851458211885414,-0.05023819719685457,-0.8297169975661205,0.9314631505720808,0.047164138157797166,-0.835896676990583,0.9610430388225717,-0.07001362727385149,0.6483589141014142,1.0594283903896575,0.11270991151400793,0.7255613409801457,0.957700876320304,0.0,0.0,0.0,0.0
0.003030402411960276,-0.018371103488481134,0.7392356213924094,0.000666914958237906,-0.5239019728961857,-0.0008011055839141863,0.8517779266039748,-0.048828408303839305,-0.8222645619671842,0.9110867148776367,0.04827339112734569,-0.8303780321073821,0.9450658132991825,-0.08334006911900319,0.651793606632992,1.04934096680018,0.12115274324956841,0.7159555353553873,0.966912147545323,0.0,0.0,0.0,0.0
0.00125471492070644,-0.019031791107759724,0.7386066639935822,0.00024523012155172407,-0.5232086161623807,-0.00034225407134611246,0.8522045333708245,-0.04804161594518015,-0.8188241500990842,0.896665625514734,0.04891560475010119,-0.8277076401380097,0.9336735797573492,-0.10431479885108738,0.6581047572409081,1.0429452919805204,0.13006589097050383,0.7072975185577364,0.9754401686850928,0.0,0.0,0.0,0.0
0.00015264526928323533,-0.019452591003783378,0.7381094374490714,-0.0002236085121091652,-0.5224911193418218,0.00014580378316469313,0.8526446850531704,-0.047995041863462394,-0.8191673848430121,0.8897369021708651,0.04895744965923337,-0.8275094242619977,0.9278428284787046,-0.13042701703586218,0.6647971539807546,1.0417981580232423,0.13790862182418778,0.7013240133802932,0.9811471660462148,0.0,0.0,0.0,0.0
0.00016337323603579258,-0.019454635873263484,0.7380927741848395,-0.0002402055093766741,-0.5224896204911058,0.00015081627377987961,0.8526455981442846,-0.04800398333478137,-0.8191824606451023,0.8896894336006032,0.0489561368355154,-0.8275147651182666,0.9278209693232684,-0.1304005280128645,0.6647855882650673,1.0417845657876272,0.13787827211834494,0.7013006449082533,0.9811327200469061,0.0,0.0,0.0,0.0
0.00016337323603579258,-0.019454635873263484,0.7380927741848395,-0.00024020550937667426,-0.5224896204911063,0.00015081627377987975,0.8526455981442844,-0.04800398333478137,-0.8191824606451023,0.8896894336006032,0.0489561368355154,-0.8275147651182666,0.9278209693232684,-0.1304005280128645,0.6647855882650673,1.0417845657876272,0.13787827211834494,0.7013006449082533,0.9811327200469061,0.0,0.0,0.0,0.0
-0.000689514845497096,-0.019548170890127056,0.738138121503807,-0.00014221971695474664,-0.5225529498637639,0.00010527953045293264,0.8526068163452901,-0.04760717661726881,-0.8136310736536395,0.8799221693110861,0.049146360267543314,-0.822978463401361,0.9194025131074602,-0.13000130378020933,0.662620411035054,1.041984367325889,0.13678348828965808,0.6987500687220276,0.9817544925631352,0.0,0.0,0.0,0.0
-0.0018669674830134723,-0.01971697730106147,0.7381171931913717,-2.9100693878648084e-05,-0.5226524734342358,5.111523550114241e-05,0.8525458278318284,-0.04697118507277408,-0.8060805779212159,0.8663082988919348,0.049505189169697025,-0.8169166675352595,0.907852709093293,-0.12900685753601177,0.6592284293056585,1.0428759783643984,0.13594315223767964,0.694975632840507,0.9835985055684903,0.0,0.0,0.0,0.0
-0.002744343985012648,-0.0199042996052074,0.7380652755870158,5.907295821371363e-05,-0.5226989175059655,-3.7946118725738664e-06,0.8525173535677021,-0.04631362464306162,-0.8004742323660227,0.8559467047130102,0.049969029369909074,-0.8127480947436826,0.8995191746777157,-0.1279307315631542,0.6564695803652454,1.043604562569667,0.1356399598916542,0.6919209967189608,0.9854032567355812,0.0,0.0,0.0,0.0
-0.0031733249333184815,-0.02006353212585954,0.7380125766695337,0.00012003184344545785,-0.5227439799718131,-4.4577699377673976e-05,0.852489715485421,-0.04579699665136164,-0.7974318699451887,0.8504041898338132,0.05039068661316241,-0.8108001819207737,0.8955342980058766,-0.12717606895193145,0.6550938156415108,1.0440472902303706,0.1358210110703592,0.6903573894747826,0.9867645502823901,0.0,0.0,0.0,0.0
-0.0031288650675915007,-0.02018929481676127,0.7379584673833692,0.0001616335613950673,-0.5228167375486076,-7.104328522647965e-05,0.8524450878305733,-0.045437011895627176,-0.7969902618838455,0.8499196680690646,0.050752168798084085,-0.8110847105967275,0.8960753167577341,-0.12687834505167084,0.6552679121567858,1.0442906016822862,0.13645243990539557,0.6904250327690108,0.9877350099712626,0.0,0.0,0.0,0.0
-0.002590569314468258,-0.02029073226910005,0.7378996038668849,0.00019065639508905716,-0.5229286185098291,-8.855325352498366e-05,0.852376451898961,-0.04520000770295693,-0.7991801672583195,0.8546262045147189,0.05108921392746267,-0.8136900857791058,0.9013377516003616,-0.1270813543473904,0.6570929089525438,1.0443518944686094,0.1375618509261581,0.6921942391910751,0.9883771708575858,0.0,0.0,0.0,0.0
-0.001537449255247907,-0.020387122204966388,0.7378390440884905,0.000213332641193993,-0.5230820644329262,-0.00010644951527873321,0.8522822871714939,-0.04501732847633733,-0.8039852404214544,0.8645610284339096,0.05147498522086061,-0.8187181213134622,0.9115124507666188,-0.12777908651295863,0.6606916524419136,1.0441227838347271,0.13922653574955277,0.6957540741902012,0.9886780401554256,0.0,0.0,0.0,0.0
4.985849498617971e-05,-0.020507014957480297,0.7377881224080821,0.0002359370825905683,-0.523272928317601,-0.0001384630704906546,0.852165105863643,-0.04478530827065146,-0.8113131591008275,0.8796345663819098,0.052018876692734424,-0.8262508224181808,0.926743402428685,-0.12892888530997332,0.6662199748145552,1.043361050316503,0.14156401312259534,0.7012205675453288,0.9885345664244306,0.0,0.0,0.0,0.0
0.0021813996383342167,-0.02068967876898835,0.7377653346689655,0.0002658564884953934,-0.5234941522231014,-0.00020532796897805848,0.852029201230198,-0.04435276177889457,-0.8209343997858349,0.8995377539766899,0.052876745729201716,-0.8363003410098175,0.9470409704919638,-0.13046235272363552,0.6738537752636551,1.0417111467010456,0.1447209945696533,0.7087121728533199,0.9877803137398362,0.0,0.0,0.0,0.0
0.004841541335351397,-0.020984499262705052,0.7377804011790264,0.00031848731972932163,-0.523741943912857,-0.000373561177957024,0.8518768310056655,-0.043417748545186256,-0.832369957740505,0.923564231930173,0.05435052537270636,-0.8488040767451526,0.9721594723822949,-0.13262494664429228,0.6837958498563373,1.0389062164379295,0.1485357334954084,0.7181288299142887,0.9863313171208792,0.0,0.0,0.0,0.0
0.007453001992589546,-0.02117880405242966,0.7375928757667024,0.00045305192132044766,-0.5234752534509938,-0.0004544162721401176,0.8520406371026126,-0.043078295179070226,-0.8470661452935799,0.949827999565918,0.046857235093890115,-0.8417303757835876,0.9418816980121345,-0.13485108034463744,0.6911286714822984,1.036929577516626,0.1510118283465607,0.7249745050901708,0.985278632193397,0.0,0.0,0.0,0.0
0.009925822954242608,-0.021554313136128992,0.7372686581855766,0.0006007062173085727,-0.5232647123491047,-0.0006144391025886241,0.8521697615069654,-0.042045206530596575,-0.8602631166232163,0.9731917730575871,0.0407980424561993,-0.8429111790797604,0.9212157257996346,-0.13643066491585232,0.6977414327110097,1.035817090585649,0.1543231576184134,0.7309157601110707,0.9861190171828302,0.0,0.0,0.0,0.0
0.012025997033295387,-0.022031918874396334,0.7369426034771146,0.0007577831582054388,-0.5231826556975749,-0.000805259901077499,0.8522198578409269,-0.04060324202356095,-0.870346117518639,0.9914674922188749,0.036276299904473196,-0.8486900462988138,0.908136471338681,-0.1373779358121693,0.7035946199406219,1.0349641446571454,0.15811072521671057,0.7361118645270073,0.9878120158184951,0.0,0.0,0.0,0.0
0.01367393276659563,-0.02255116868810141,0.7366703197371604,0.0009146099855197659,-0.5231969809633993,-0.001001973199300499,0.8522107008534138,-0.03896518194998831,-0.8773011495191416,1.0046047184078204,0.03285351363380267,-0.8566337783795892,0.8995065561114931,-0.1377133508745642,0.7084839318070935,1.034108673309019,0.16197034125265455,0.740441942801711,0.9897506101891911,0.0,0.0,0.0,0.0
0.014885954178483065,-0.023055579449892113,0.7364598844498585,0.001058994816680005,-0.5232714741245754,-0.0011840184703565777,0.8521645621578815,-0.037338646084505496,-0.8816714622807358,1.0133753685110851,0.030063130034023722,-0.8655494149520303,0.8932690207895981,-0.13756857160757946,0.7123143653733094,1.0332977007496573,0.16558750373661887,0.7438522513573103,0.9916708776288328,0.0,0.0,0.0,0.0
0.015723645561643886,-0.023499963262589584,0.7363040498387051,0.0011803371375877845,-0.5233782788583888,-0.0013360064315086468,0.8520985853234866,-0.03589373613709325,-0.8841186147928607,1.0187705098278828,0.027543892724447485,-0.8748815683153939,0.8881890244655458,-0.1371261517861619,0.7151308564594927,1.0326349937292545,0.16874990552353356,0.7464007199079064,0.9934300618075025,0.0,0.0,0.0,0.0
0.016262030548979567,-0.023854511595543023,0.7361888752916543,0.0012718348608557928,-0.5234981005500949,-0.0014484494242657736,0.8520246611165634,-0.034744992347198134,-0.8852553683117963,1.0217328740777518,0.02505883526280245,-0.8843805865066644,0.8835573082836781,-0.13656403151001312,0.7170482209701463,1.0322255053974914,0.17134364534778457,0.7481970743218331,0.9949714422484139,0.0,0.0,0.0,0.0
0.01657426595656375,-0.024108899701708583,0.7361000484519247,0.0013318989164152017,-0.5236183305174251,-0.0015193578972775173,0.8519505628515077,-0.03393482882249619,-0.8855721447778679,1.023045271984851,0.02248014996423569,-0.8939407768805482,0.8789853486892928,-0.13601186522325778,0.7182157721817827,1.032126523591438,0.17334893861809825,0.7493703515073635,0.996295195711531,0.0,0.0,0.0,0.0
0.016729157893034044,-0.024279410181809298,0.7360414758919467,0.0013658116141672398,-0.523732931949293,-0.0015588330001837898,0.8518799918944624,-0.03340304191944566,-0.8853552634786127,1.0232797295299791,0.019790624347946904,-0.9035095663071466,0.8742975553072128,-0.13552209174968882,0.7188927519719902,1.0321714108404503,0.1748351189544219,0.7501316688869784,0.997310974733334,0.0,0.0,0.0,0.0
0.016781254451743416,-0.024385571889763473,0.7360082409279832,0.0013798603505898108,-0.523838343931704,-0.001576293674523931,0.8518151212032774,-0.033081162356213945,-0.8848290533625081,1.0228652985108817,0.016997352296054955,-0.9130798837156688,0.869405982368408,-0.1351119714921115,0.7192557460380801,1.032279767427675,0.17590496028485764,0.7506218792069362,0.9980390391402624,0.0,0.0,0.0,0.0
0.016771790210772745,-0.024447241826378908,0.7359908597401008,0.0013801615829898463,-0.5239324829788841,-0.0015798620852858103,0.8517572145097321,-0.032901883038329534,-0.8841638630756727,1.022111832137805,0.014124640503172983,-0.9226582425385008,0.8642625749527825,-0.1347718877982523,0.7194151477288089,1.0324275551704005,0.17667354465722057,0.7509277004286933,0.9985618493699543,0.0,0.0,0.0,0.0
0.01674018694673532,-0.024485843996004425,0.7359842689543801,0.0013732214179718743,-0.52401406469113,-0.0015780677920314322,0.8517070411654827,-0.03279258490840125,-0.8834999758949967,1.0213000505612309,0.011211319529630042,-0.9322550153159787,0.858861588593572,-0.13448080933779355,0.7194966523260663,1.0325504884381924,0.17726332000329073,0.7511534494777555,0.9989285499882967,0.0,0.0,0.0,0.0
0.016721724087458426,-0.02452221701778522,0.7359858679135476,0.0013653192162792788,-0.5240815942806619,-0.0015789440170584557,0.8516655008719493,-0.03268318293405243,-0.8829552998436027,1.0206764067062668,0.008311972040056058,-0.941819677821867,0.8532382223225328,-0.13420992458043188,0.7196196789009572,1.03256869013595,0.17779102557209875,0.751400289938401,0.999169202655967,0.0,0.0,0.0,0.0
0.01673798563781803,-0.02457253395227551,0.7359898998880401,0.0013613535438223134,-0.5241327564426739,-0.0015879908248666974,0.8516340050899056,-0.032521148376974306,-0.8826145396682866,1.0203926924940794,0.005498058104839613,-0.9511253457851988,0.8474968112872326,-0.13392389410059705,0.719833878942835,1.03245804070074,0.17834614281816638,0.7517074975088595,0.9993475158451086,0.0,0.0,0.0,0.0
0.01679654262715895,-0.024646605129880282,0.7359909695233335,0.0013646969773910586,-0.5241651977163067,-0.0016082404969777926,0.8516139951102781,-0.032275402570534774,-0.8825147769132331,1.020498611871708,0.0028453944037108497,-0.9596451664483691,0.841910941395229,-0.1335948144906744,0.7201381800721223,1.0322255956510993,0.17897430452840177,0.7520675180763964,0.9995250179467783,0.0,0.0,0.0,0.0
0.01688849103014849,-0.024744992669178685,0.7359852823094605,0.0013764885706189077,-0.5241776386665637,-0.0016396723881025427,0.8516062587109255,-0.03194464859862396,-0.8826308365265663,1.0209218369316746,0.00039637979050752064,-0.9664442857830443,0.8370415838144482,-0.13321605285708496,0.7204818480319423,1.0319117310548753,0.1796598885949049,0.7524260154269825,0.9997468147708205,0.0,0.0,0.0,0.0
0.016989063388085483,-0.02485699181095006,0.7359721886212096,0.001394976316355422,-0.5241725391007577,-0.0016789280789940178,0.8516092909863343,-0.03156286569896635,-0.8828634645341665,1.021465273105971,-0.0018880904695494781,-0.9702257219698741,0.8338217911394489,-0.1328174578128047,0.7207829392029133,1.031586541445464,0.1803210791295122,0.7526999053991439,1.0000260982827047,0.0,0.0,0.0,0.0
0.017070063191762585,-0.024965607289618674,0.7359557517714956,0.0014164372897978355,-0.5241592440386746,-0.0017212906598679004,0.851617354069698,-0.031182237153621357,-0.8830606821147133,1.0218831367889099,-0.004113029907302515,-0.9697962272717721,0.8333963660026269,-0.13246415977060677,0.7209915354251059,1.0313131022039612,0.1808540984074535,0.7528390087925102,1.000332983294743,0.0,0.0,0.0,0.0
0.017127932407372662,-0.02506904560720955,0.7359362738223971,0.001440346769390261,-0.5241379117964545,-0.0017661050818340695,0.8516303515561642,-0.03080869829691076,-0.8832095644811636,1.0221494461749219,-0.006273854559165344,-0.9651583079054185,0.835744625609326,-0.13215897517331526,0.7210961934135641,1.0310985523888412,0.18124650133951192,0.7528325610977761,1.0006650136843893,0.0,0.0,0.0,0.0
0.017184707454894685,-0.02518180471098365,0.7359101647715718,0.0014697150094953012,-0.5240998611755016,-0.0018165593091186475,0.8516536124304807,-0.030399723142700744,-0.8834358444453634,1.0224599680255337,-0.008252226212413312,-0.9575157750311432,0.8397100180599126,-0.13183483561332293,0.7211266652508213,1.0308907393087852,0.18159018158991352,0.7527155525534333,1.0010506355241555,0.0,0.0,0.0,0.0
0.017259462357533402,-0.025313821082134303,0.7358781242785076,0.0015060052315050507,-0.5240442353214115,-0.0018743233322657416,0.8516876530082409,-0.029926936699459738,-0.8838058838464539,1.0229545243980405,-0.009996206080004975,-0.9481696663767324,0.8443598345851716,-0.13144844700830005,0.7211461212408892,1.0306293201625998,0.18197440924111832,0.7525621063271846,1.0014848160037306,0.0,0.0,0.0,0.0
0.017354747455972073,-0.025465318660910414,0.7358435864463605,0.0015481622241051605,-0.5239745895992708,-0.0019380921535145969,0.8517302838615097,-0.0293923610305906,-0.8843023197498214,1.0236339270295303,-0.011537719684633546,-0.9380515554953327,0.8491301180613023,-0.13098592253268793,0.721184724319955,1.0302848263302289,0.18243181853167037,0.7524162220211121,1.0019407044853623,0.0,0.0,0.0,0.0
0.017455729235382432,-0.025628978492012577,0.7358111702105153,0.0015934010194613795,-0.523895679732521,-0.0020044149135002224,0.8517785863425104,-0.028821272662738626,-0.8848372530775228,1.0243631131335542,-0.012939533789711102,-0.9276834853048328,0.8537429895972785,-0.130451170212187,0.721220107367887,1.0298620508704177,0.18293574956277803,0.7522684158506383,1.0023848674799833,0.0,0.0,0.0,0.0
0.01753286917740826,-0.025793492595024725,0.7357842856124818,0.0016380965240532473,-0.5238114780984099,-0.002068750481102814,0.8518301311432838,-0.028251075654299237,-0.8852743650893597,1.0248963625436975,-0.014254135354075024,-0.9172893376491864,0.8580857619747541,-0.12985132717668327,0.721170153086387,1.0294048107138971,0.18341638847783573,0.7520469753065728,1.002801907331387,0.0,0.0,0.0,0.0
0.017549195133930377,-0.025948104247456135,0.7357659214632348,0.0016789181483547442,-0.5237244624606028,-0.0021272025380634917,0.8518834096656454,-0.027715963312774254,-0.885451239219588,1.024928414471299,-0.01551198778202913,-0.9069308968790508,0.862124833079491,-0.1291869668945805,0.7209216746118489,1.0289663225999781,0.1837855009883176,0.7516434684063059,1.00318836205527,0.0,0.0,0.0,0.0
0.017471574260566967,-0.026087752262348485,0.7357655228590206,0.001714484951275268,-0.5236371568447421,-0.0021791133891087993,0.8519368755827771,-0.02722783837103923,-0.8851838076033905,1.0241570543923801,-0.016726949691720686,-0.8966177317042138,0.8658878035753993,-0.1284536254855977,0.7204106144297313,1.0285226807741108,0.18396234893181979,0.7509854309741948,1.0034902015959677,0.0,0.0,0.0,0.0
0.017260672081648276,-0.026211157634839572,0.7357892535066144,0.0017445689178979783,-0.523551337026277,-0.0022257769609978005,0.8519894364921482,-0.026783827619145825,-0.884261084306801,1.0222160254113015,-0.01791078351774812,-0.8863379083636214,0.8694296386854138,-0.12763448458492996,0.7195390154171868,1.028074827007258,0.1838663323247617,0.7499581114896223,1.003698813982336,0.0,0.0,0.0,0.0
0.016874778222868737,-0.026321869516647608,0.7358419858682593,0.0017707942862915402,-0.5234694778609584,-0.002271635596085707,0.8520395587690103,-0.026360778887985926,-0.8824415455972677,1.0186904118183382,-0.019091353387225476,-0.8760832411276432,0.8728710594642264,-0.12671297810609633,0.7182066606286401,1.0276253981156342,0.18341987302188437,0.748430160073941,1.003831335911161,0.0,0.0,0.0,0.0
0.016276020118736634,-0.026428099682259024,0.735926826187166,0.001797005496306982,-0.523395290504997,-0.0023250166465999538,0.8520849341151555,-0.025914356586636423,-0.8794763079659725,1.0131640404202065,-0.020331385487049172,-0.8658644267587697,0.87644753913708,-0.12569106394131865,0.7163365723629755,1.02717598010093,0.18255091322474012,0.746274701903008,1.0039255620638852,0.0,0.0,0.0,0.0
0.015441703337053695,-0.026540361637579946,0.7360434357119809,0.0018292536919077996,-0.5233343497576375,-0.002398032218612582,0.8521220931510695,-0.025386464944986323,-0.8751654081817566,1.0053214568262987,-0.021731968402020577,-0.8557441360423584,0.8805785994422493,-0.12462079747949535,0.713911893752873,1.0267354194499612,0.18119492373151005,0.7434043926912421,1.0040342867298138,0.0,0.0,0.0,0.0
0.014383257627184443,-0.026665537487468534,0.7361839146815303,0.0018749837537205287,-0.5232948458487723,-0.0025047064417214335,0.8521459471180237,-0.024726982482557426,-0.8694699245387583,0.9951392070525685,-0.023392875690072812,-0.845934281759899,0.8859483207412467,-0.12365065767170973,0.711023459124109,1.0263525757219032,0.1792987973816147,0.739824506449099,1.0042259695939462,0.0,0.0,0.0,0.0
0.013173587638859308,-0.02679570064208786,0.7363184928341217,0.001940517359478649,-0.5232861446766333,-0.0026557471861265647,0.8521506863159394,-0.023937681564717896,-0.8627351210553909,0.9832166720703658,-0.02529004509959383,-0.837028833037556,0.8935372641274821,-0.12307872558747597,0.7078811900433453,1.0262449046153341,0.1768307621087534,0.7356656101382247,1.0046576791289599,0.0,0.0,0.0,0.0
0.012001661033976038,-0.026895625993117015,0.7363769747453678,0.0020292938698584936,-0.5233012464529672,-0.0028535518482814422,0.8521405662618168,-0.023120333335763913,-0.8561706685584153,0.9714897694810121,-0.02704807575371987,-0.8304638863740821,0.9044060282253219,-0.12342248825401861,0.704842286483937,1.0269163717719494,0.17376345724552605,0.731224296856806,1.0056283258290821,0.0,0.0,0.0,0.0
0.01134179093492432,-0.026891764467827508,0.7363194508279532,0.002142580615904565,-0.5232663475930062,-0.0030787026914107295,0.8521609357478888,-0.022551184629511802,-0.8528325492780761,0.9651367937513725,-0.027923667031911844,-0.8290882549450279,0.9186840922191812,-0.12545500285858457,0.7030941163608944,1.0282802052482585,0.17012173264020217,0.7277016162344235,1.0066303300006894,0.0,0.0,0.0,0.0
0.01134175392787392,-0.026886341788599687,0.7363172421422018,0.002135423662427973,-0.5232623843864467,-0.0030832362931558933,0.8521633709013506,-0.022550753406932054,-0.8528393537883746,0.9651112647618978,-0.027931110384243823,-0.8290878014229396,0.9186967739212971,-0.1254719054491831,0.7030844327332586,1.0282924404554399,0.17013795142498728,0.7276982810166814,1.0066028683920534,0.0,0.0,0.0,0.0
0.01134175392787392,-0.026886341788599687,0.7363172421422018,0.002135423662427973,-0.5232623843864467,-0.0030832362931558933,0.8521633709013506,-0.022550753406932054,-0.8528393537883746,0.9651112647618978,-0.027931110384243823,-0.8290878014229396,0.9186967739212971,-0.1254719054491831,0.7030844327332586,1.0282924404554399,0.17013795142498728,0.7276982810166814,1.0066028683920534,0.0,0.0,0.0,0.0
0.012315257917570072,-0.02749994165010957,0.7371882515691002,0.0012403370984223933,-0.5238295858801679,-0.0019335659714252175,0.8518199855856449,-0.023559984113145704,-0.8530254625216199,0.9701314058353323,-0.028938708243226488,-0.8261966406805321,0.9236003268159257,-0.1060999393353733,0.7067180708836398,1.017565635278117,0.13109612657755831,0.707756541204218,1.0207316961128652,0.0,0.0,0.0,0.0
0.013842686778871415,-0.02821996093514213,0.7382595889370674,0.0005988823561787345,-0.5243148041917151,-0.0011192035401167617,0.8515235609357868,-0.023552487243323653,-0.8546524138605383,0.9794815986762394,-0.02893314909946925,-0.82701427571035,0.9350453881757242,-0.09048079256621823,0.7141035775542071,1.0039572924771885,0.10117286905675917,0.6922627596246134,1.0336162752067126,0.0,0.0,0.0,0.0
0.01546922114076527,-0.028821430327289205,0.7392225162847392,0.0002071536689791741,-0.5246674155857675,-0.000621992001368844,0.8513070381688732,-0.02314495334281253,-0.8572319903885096,0.9902375061786033,-0.028533562413419478,-0.8298612279245487,0.9483034400693897,-0.07983576338905743,0.7223682355012341,0.9913236731299155,0.0822552121059483,0.6817679350921557,1.0462327677142411,0.0,0.0,0.0,0.0
0.016975456342986972,-0.02923602309588949,0.7400512755309969,-4.023588829890574e-05,-0.5249321200916375,-0.0003091360230135972,0.8511440372299457,-0.022803945831824685,-0.8600052367031608,1.0006277655804436,-0.02820146697226655,-0.8329601008655546,0.9605340505606914,-0.0729205040405032,0.7303273558224249,0.9804618033276976,0.07001037933816934,0.6744799796200398,1.0590006065518938,0.0,0.0,0.0,0.0
0.018246744175883234,-0.029474214087337476,0.7407897265044708,-0.00021508612166506658,-0.5251389178990042,-8.534267059792703e-05,0.8510164883023429,-0.022713570358407705,-0.8623598255829451,1.0095778957417536,-0.028116906572818436,-0.8352801313197611,0.9703818325019136,-0.0684388499163754,0.7374873658532022,0.9711576638887343,0.06138964986873165,0.6688337593478574,1.0719299300479934,0.0,0.0,0.0,0.0
0.019264512851823797,-0.029576970802825227,0.7414837454694485,-0.0003543835327691286,-0.5253005025864385,8.695393631567474e-05,0.8509167108676148,-0.02284698129306491,-0.8640499038116461,1.0168076101116965,-0.02825199019229541,-0.8365639827606504,0.9777133002181111,-0.06555597307480757,0.743824206533201,0.9629375444279921,0.05446462701127778,0.6638948528373276,1.0849074941825778,0.0,0.0,0.0,0.0
0.020053318235124705,-0.02958357450727405,0.7421606630430648,-0.00047731707510943744,-0.5254234611529477,0.00023124593415807103,0.8508407049288278,-0.02315537300190921,-0.8650718647514145,1.0224340980487958,-0.028557973939632286,-0.83687168811061,0.982843697501629,-0.06367131212931,0.7494252526627302,0.9554128142605244,0.04828375218819937,0.6591877168311221,1.0978836491450186,0.0,0.0,0.0,0.0
0.020653235574425013,-0.029528709896302914,0.7428328425362035,-0.0005927472432539505,-0.5255140392198385,0.00035978809871224296,0.8507846459510654,-0.023577694663717695,-0.8655095485370735,1.0267050019266375,-0.02897448118818152,-0.8363856025787814,0.9862247341384085,-0.062371012009465335,0.7544143297582994,0.9483153281540476,0.04241074586416215,0.6544905040576807,1.1108506280593988,0.0,0.0,0.0,0.0
0.02110380713729474,-0.02944276016103891,0.7435029126341566,-0.0007038314933676263,-0.5255797833626421,0.00047814569006291395,0.8507438905560275,-0.024049119361795823,-0.8654507026380777,1.0298551339623452,-0.029437661115979532,-0.8353049607608991,0.9882869076676835,-0.06136219418214568,0.758906538621393,0.941479645330414,0.03667881430957721,0.6497059607048258,1.123824079200998,0.0,0.0,0.0,0.0
0.021452727830334452,-0.029344036251030527,0.744168038573105,-0.0008124285404498533,-0.5256273146563031,0.0005908443445559946,0.8507143568496014,-0.02453486905716395,-0.8650595332209209,1.0322315167339,-0.029913645502641115,-0.833857548593047,0.9894943942989878,-0.06046923380223618,0.7630331479553711,0.9348145057856166,0.0310206166866607,0.6448398268652425,1.1368343525888183,0.0,0.0,0.0,0.0
0.021750428797075318,-0.029241628995871252,0.744821815243451,-0.0009200974571618269,-0.5256619065123666,0.0007021053740697105,0.8506927885614741,-0.025024116179831156,-0.8645463868272717,1.0342406666900894,-0.030392345354493942,-0.8322783136249514,0.9903099475596164,-0.059597383794789474,0.7669237376143677,0.92828524820539,0.025399249878709902,0.6399624466776217,1.1499052958242295,0.0,0.0,0.0,0.0
0.022025157503146646,-0.029150167030736324,0.7454543776269683,-0.0010259244834138104,-0.5256899566966194,0.0008120614788197655,0.8506752361879446,-0.02548115175316642,-0.8640040495467304,1.0360658343986913,-0.03083893789206439,-0.8307276243835253,0.9910233990691523,-0.058649465659390325,0.770631217124267,0.9219096768885491,0.019829669354709763,0.6351266024313696,1.1630176325619865,0.0,0.0,0.0,0.0
0.022291487547037775,-0.029086170776178876,0.7460514424010644,-0.0011277507663716988,-0.5257162989152309,0.000918845335285388,0.8506587194382541,-0.025860376148877613,-0.8634791334964612,1.0377757600523245,-0.031208837486987044,-0.8293367092697158,0.9918288891280376,-0.0575326686826504,0.7741416502804424,0.915763058398816,0.01434295962696252,0.6303890766876094,1.1760644035334733,0.0,0.0,0.0,0.0
0.022552832165893027,-0.029066039599343882,0.746592921487258,-0.0012225718326651556,-0.5257442462495108,0.0010193813587559292,0.8506412015152411,-0.026113602007438876,-0.8629943174673109,1.0393572948346377,-0.031454926594878835,-0.8282173618510648,0.9928409825093619,-0.05616742685964451,0.7773738933156438,0.9099962004057212,0.008990183337409384,0.6258208491790138,1.1887859286395603,0.0,0.0,0.0,0.0
0.022799772927220147,-0.029103995328763732,0.7470503317772306,-0.0013064282641332247,-0.5257752741336453,0.0011094085813407044,0.8506217864406486,-0.026195556305125715,-0.8625557389108314,1.0407132007926518,-0.031532936867990524,-0.8274602537491809,0.9940780124980494,-0.05450477715049494,0.780161046317276,0.9048720823041129,0.0038703511331310584,0.6215285319355928,1.2006417679581618,0.0,0.0,0.0,0.0
0.023005960588666215,-0.0292093387031205,0.7473840974500723,-0.0013738780260083956,-0.5258080533859396,0.0011829312531473769,0.8506013191427044,-0.02606983210213242,-0.8621534777277945,1.041643195205185,-0.03140723159118254,-0.8271263525117263,0.9954261577527344,-0.052555993849010635,0.7822241486691045,0.9008093630124272,-0.0008146774960725292,0.6177251205604147,1.2105944974081735,0.0,0.0,0.0,0.0
0.023126527609139514,-0.029383657946835232,0.7475456635629488,-0.0014172239145721765,-0.5258381981959787,0.0012313661467914835,0.8505825442200158,-0.025714251464532233,-0.8617520511526516,1.04183488541096,-0.03105599909471965,-0.8272305097915077,0.996615211133444,-0.050427796747285196,0.7831829207387151,0.8983746727257337,-0.004681827467992455,0.614916602169475,1.2168013565881994,0.0,0.0,0.0,0.0
0.0231354484134744,-0.02960937779714025,0.7474956921941706,-0.0014303554695784622,-0.5258554875196149,0.0012494972125754106,0.8505718071306235,-0.025165877441751038,-0.8614467141879415,1.0412201724720196,-0.03051580786108795,-0.8278221711491744,0.9974820881535518,-0.04834794374372614,0.7827529725958242,0.8980668057553994,-0.0072472756391593375,0.6142941510520609,1.2163755224400505,0.0,0.0,0.0,0.0
0.02303128715272227,-0.029884031817074577,0.7472334771049205,-0.0014134319446233575,-0.5258600094059407,0.0012374761908945703,0.8505690573788814,-0.024431554306002877,-0.8612367310634297,1.0397931471127981,-0.02979309260848318,-0.8288905550048615,0.9980047443075261,-0.04633560098854084,0.7809254746231549,0.8999071963667531,-0.00851947783816869,0.6158639822194255,1.2093316312001174,0.0,0.0,0.0,0.0
0.022835199627733786,-0.030222047303230474,0.7467969340078329,-0.0013726330657136405,-0.5258615386967954,0.001200930757318209,0.8505682311039026,-0.02348360615475136,-0.8610157577395651,1.0375889721266265,-0.02885988289991863,-0.83036233240115,0.9982926794282667,-0.04418639494115191,0.7779600509794664,0.9034293176762431,-0.008991168011208904,0.6184465345700105,1.1985720541890625,0.0,0.0,0.0,0.0
0.02258164936753428,-0.030622630897325444,0.7462337230387833,-0.0013151131628869636,-0.5258631903981769,0.001148115943811404,0.8505673737520145,-0.022341287512851853,-0.860775896502666,1.034827053984766,-0.027734469111577648,-0.832186104265167,0.9985301772058688,-0.04179096446961412,0.7741970028723981,0.9080798248941193,-0.009050357583003866,0.6215340417540863,1.1859460560566704,0.0,0.0,0.0,0.0
0.02227595252734371,-0.031084058525122815,0.7455824684093738,-0.0012448022308352018,-0.5258631436570684,0.001083398137030122,0.8505675933510447,-0.021017071026388712,-0.8604302077876197,1.0315074081388547,-0.02642826976423984,-0.8342464183266207,0.9986881787897429,-0.039093411232476116,0.769834904786613,0.9134428700272246,-0.008894722228908247,0.6248896291844397,1.1724765549982283,0.0,0.0,0.0,0.0
0.02188462543636841,-0.031612364140169893,0.7448704909374448,-0.001162128688078733,-0.5258570014871621,0.0010067531357641885,0.8505716018607526,-0.019492630378308503,-0.8597429333458322,1.0272860199557805,-0.024921936545871055,-0.8363352928806157,0.9984621422454915,-0.03602852666846049,0.7648890992407015,0.9192526103268808,-0.008564675066528325,0.6283298806342272,1.158671452917128,0.0,0.0,0.0,0.0
0.02137773272324899,-0.03220224497681607,0.7441166148273772,-0.0010689039506327144,-0.5258362034028069,0.0009199584595862517,0.850584680270988,-0.017784650119477254,-0.8585703829788188,1.0219189099733488,-0.023230673574056046,-0.8382792350157026,0.9975676959114448,-0.0326066930670427,0.7593333239379749,0.9253556690667206,-0.008112719689319129,0.6317575199107955,1.144762375615445,0.0,0.0,0.0,0.0
0.02071417027643152,-0.032847780141492366,0.743334107849911,-0.0009668295478009247,-0.5257912708756578,0.0008244621684052848,0.8506126762362051,-0.01591108546791362,-0.8567384632010381,1.0150710649329486,-0.02137087798328964,-0.8398745057917495,0.995629883062635,-0.0288523667147605,0.7530775194265906,0.9316713231034898,-0.007572133692697805,0.6350821055314899,1.130829438050126,0.0,0.0,0.0,0.0
0.019839948804338325,-0.0335441018887357,0.7425318558147028,-0.0008576607189562575,-0.5257110476680042,0.0007214878999562913,0.8506624702154849,-0.013887160539831323,-0.8540283425146151,1.0062915778623556,-0.019356183431648424,-0.8408804225217547,0.9921713086478612,-0.024790025340479183,0.7459668552466431,0.9381705570458079,-0.006971045235819647,0.6381987932209406,1.1168533058008143,0.0,0.0,0.0,0.0
0.01869209283922972,-0.03428442438831488,0.7417150944429123,-0.0007438812266166981,-0.5255829935147098,0.0006127156787400756,0.8507417870002237,-0.011734882043930604,-0.8501921912081946,0.9950463510091239,-0.01720695816894984,-0.8410193915780143,0.9866241700316636,-0.02046146294504144,0.7378018402830104,0.9448679691365373,-0.006344446613156007,0.6409829411985472,1.1027471512013196,0.0,0.0,0.0,0.0
0.017206414465165493,-0.035054758748987225,0.7408855335863094,-0.0006293977381143608,-0.525394818197291,0.0005008972099950037,0.8508581773550207,-0.009498216712597386,-0.8449846012599481,0.9807844312485497,-0.01496561412172716,-0.8399820966263443,0.9783592247160025,-0.015960324777964618,0.7283735784169776,0.9518240171260908,-0.00573658844120097,0.6432920041148109,1.0883805464938454,0.0,0.0,0.0,0.0
0.015333556892634655,-0.0358262903211626,0.7400401059194857,-0.0005201568913762109,-0.525138160493615,0.00039030310492140673,0.8510167386683278,-0.007263455190124378,-0.8382307115827773,0.9630792328168061,-0.012717398404726929,-0.8374579023145212,0.9667704181762318,-0.011480801979761583,0.717524508470058,0.9591619379707229,-0.0052054245056441795,0.6450004164550257,1.0736193249235515,0.0,0.0,0.0,0.0
0.013070266497551287,-0.036545404878384515,0.7391656627919044,-0.0004247886331838895,-0.5248154238204809,0.00028738835765648545,0.8512158996886031,-0.005185165932045306,-0.8299750142105008,0.9419217551063946,-0.010617200827174449,-0.8332293722761649,0.9514840656915192,-0.007369270012034161,0.7052399627574445,0.9671223085157832,-0.00485819248961223,0.646121697158256,1.058414038195049,0.0,0.0,0.0,0.0
0.010515902849307382,-0.03712098632270717,0.7382177836978863,-0.000357340360625471,-0.5244301874822085,0.00021365562072057055,0.8514533487611157,-0.0035495567623082206,-0.8209546947536001,0.9184387376796259,-0.008954529781958976,-0.8275234494612055,0.932919295780997,-0.004073506949413219,0.6916459535552866,0.9762160223488757,-0.004945579496911493,0.6470879323076527,1.042880408049674,0.0,0.0,0.0,0.0
0.00792643263110748,-0.037508342265400625,0.7371321159062384,-0.00032080408505910375,-0.5240104449795544,0.00016650738403325315,0.8517117604638081,-0.002458887895343353,-0.8125082860911874,0.8950632738027055,-0.007837949913285883,-0.8214376759586622,0.9131188048170057,-0.0018836102097959397,0.6773456815779589,0.9868792008695765,-0.005957153950847525,0.6488977121057045,1.0272842902924915,0.0,0.0,0.0,0.0
0.005835056294104937,-0.03778231462980432,0.7358626662325327,-0.0002945221169714542,-0.5235519064915879,0.00015089251729542797,0.8519937157615627,-0.0017446029957946317,-0.807397285945164,0.8769660043684362,-0.0071070336330803065,-0.8180311555470786,0.8976705205771089,-0.00028712669443100875,0.6636845295465541,0.9986680320144947,-0.007655556042141849,0.6533593673830608,1.0118798522319192,0.0,0.0,0.0,0.0
0.004536051884718619,-0.03788306691575794,0.734761886049292,-0.00029339378842282895,-0.5231712572964548,0.0001862837391694496,0.8522275017607095,-0.0015940988940266185,-0.8058033434273923,0.8666701969901399,-0.006950186631115124,-0.8170178498448943,0.8884172580949495,0.000571864090657628,0.6534571596412384,1.008578381659338,-0.010106539611808317,0.6592115367611735,0.9974206165775678,0.0,0.0,0.0,0.0
0.004548399367878913,-0.03788224690351817,0.7347385035809557,-0.0003007695898573441,-0.5231575709453284,0.00018554115961690436,0.8522359010712441,-0.0015929840482893731,-0.8058322364394184,0.8665896989623884,-0.006949007881154662,-0.8170569887850401,0.8883719702225328,0.0005636162877487993,0.6534309818886844,1.0085481384049946,-0.010111962437658314,0.6592262531366946,0.9974237630365104,0.0,0.0,0.0,0.0
0.004548399367878913,-0.03788224690351817,0.7347385035809557,-0.0003007695898573441,-0.5231575709453284,0.00018554115961690436,0.8522359010712441,-0.0015929840482893731,-0.8058322364394184,0.8665896989623884,-0.006949007881154662,-0.8170569887850401,0.8883719702225328,0.0005636162877487993,0.6534309818886844,1.0085481384049946,-0.010111962437658314,0.6592262531366946,0.9974237630365104,0.0,0.0,0.0,0.0
0.004548399367878913,-0.03788224690351817,0.7347385035809557,-0.0003007695898573441,-0.5231575709453284,0.00018554115961690436,0.8522359010712441,-0.0015929840482893731,-0.8058322364394184,0.8665896989623884,-0.006949007881154662,-0.8170569887850401,0.8883719702225328,0.0005636162877487993,0.6534309818886844,1.0085481384049946,-0.010111962437658314,0.6592262531366946,0.9974237630365104,0.0,0.0,0.0,0.0
0.004293540514889681,-0.03803496932500762,0.7347355007147637,-0.00026045834587062514,-0.5233384505332576,0.00020009466451025823,0.8521248490198043,-0.0012724880100293905,-0.8028479577054293,0.8620743259705708,-0.006621522289744997,-0.8149701495371721,0.885261828337035,0.0014427159905519057,0.6531212888199096,1.0085489701039407,-0.009220374741710372,0.658979792114068,0.9986035101513681,0.0,0.0,0.0,0.0
0.003834447104866645,-0.03835986614344442,0.7347420123168059,-0.000451243020350827,-0.5232090099888318,0.000367473644354142,0.8522041968972951,-0.0007827275256842376,-0.8008330035768012,0.8571929436301938,-0.0061246480963107145,-0.8135052230768052,0.8820601562900758,0.005986019437837029,0.6505659002663554,1.0072905643603818,-0.004625240670128573,0.658186139087118,1.0000833368842856,0.0,0.0,0.0,0.0
0.0033311907152116047,-0.03875846670612182,0.734749517928247,-0.0007801349666509171,-0.5229353291648655,0.0006225536770001584,0.8523717764729114,-0.0002568271956404,-0.7996338770463244,0.852750404725208,-0.00559199827945537,-0.8125169136715544,0.8792387468494991,0.012381366334512596,0.6470601796748827,1.0054064919705485,0.0019122046556861415,0.6573454554586262,1.0016636364265883,0.0,0.0,0.0,0.0
0.0032747796235426244,-0.03908738404658567,0.734716937266409,-0.000990968860130075,-0.522763443216975,0.0007869202731386557,0.8524768508136362,0.0002613781811963415,-0.8002326569110463,0.852431005111442,-0.005071194596483006,-0.8135650620656829,0.8804464478799126,0.016881751714529596,0.6454389730519245,1.0040189851698489,0.006579401225544178,0.6574595972244781,1.002996366874411,0.0,0.0,0.0,0.0
0.003710151920953117,-0.03926761645172396,0.734645457938702,-0.0010928355638136138,-0.5227621846310682,0.0008584120470687163,0.8524774291199392,0.00058764944080309,-0.802666131767671,0.856632859886107,-0.004747936148797679,-0.8162647766843043,0.8854231677766186,0.0191755966180878,0.6459808754851964,1.0035203337918492,0.008957281461773419,0.658846525407127,1.003929946258414,0.0,0.0,0.0,0.0
0.004663128188000586,-0.03926217770269886,0.734524852064446,-0.0011487492315018103,-0.522859772532293,0.0008924654137637333,0.8524174694057878,0.0005190666763829771,-0.8077848447235969,0.8663092108003375,-0.004827535520232538,-0.8209135494224209,0.8945073782985486,0.01981393594729896,0.6482981103930119,1.0038848617142333,0.00957059222427614,0.6615774108192523,1.0043260088459376,0.0,0.0,0.0,0.0
0.006171648454096838,-0.039033841676159274,0.7343587848904582,-0.0011641743058055523,-0.5230619416546535,0.0008992527382583245,0.8522934009102514,-6.553260156497273e-05,-0.8157651272780115,0.8817965841152255,-0.005432171081962946,-0.8274799696495344,0.9077531496824,0.01862547031539362,0.6525550289803669,1.0051298110317093,0.008229002846012254,0.6658247659716117,1.0039689022166653,0.0,0.0,0.0,0.0
0.008290851981929574,-0.03853955856338072,0.734181849459068,-0.0010482899631347458,-0.5235246052538206,0.0008080852364154979,0.852009527986768,-0.00114793806373817,-0.8255465446339462,0.9023498826809202,-0.006542178027164748,-0.8352468993430352,0.92462509377088,0.014220812799337278,0.6599088025490483,1.007364868853797,0.0034864198163273167,0.6719985867376406,1.0024856055519464,0.0,0.0,0.0,0.0
0.0110834906659767,-0.03777911880072704,0.734084072301596,-0.0005935263708022035,-0.524569968331612,0.00045229636226704094,0.8513670133843685,-0.00241526490664222,-0.8344974437914402,0.9258159289758013,-0.00784016090857793,-0.8427976548271222,0.9440732153404442,0.0038703890155677347,0.6727893581050557,1.0104152948463268,-0.007417664844083109,0.680789998655484,0.999262029474217,0.0,0.0,0.0,0.0
0.014525914232924937,-0.03693618701357191,0.7341481144230447,0.00031513887673206994,-0.5262702221923163,-0.0002545330295765006,0.8503172873310734,-0.003246098841280521,-0.840947894327946,0.9503126497082512,-0.008699516341834555,-0.8499782097393763,0.9661236087057922,-0.013575844724373147,0.6925600753356231,1.0128653809566173,-0.0252767258097394,0.6922573104186138,0.9939047601337304,0.0,0.0,0.0,0.0
0.017271788004253382,-0.03667544580625622,0.7337703188761772,-0.00024630786499187134,-0.5254376281169661,8.671476764797817e-05,0.850832081419008,-0.0060342192255253835,-0.842470704127084,0.9293702876159327,-0.010032881241205677,-0.8670291123366003,0.9941683105647867,-0.010422401343343128,0.6960469862914208,1.0113804336558916,-0.021957062167707854,0.6983517859175051,0.9914621319844646,0.0,0.0,0.0,0.0
0.019819600023834136,-0.036305809962625196,0.7333593556104925,-0.0004775390187687361,-0.5251741834946716,0.00021023373838566573,0.8509945973676717,-0.011089269454871504,-0.8485336257487694,0.9148804208546572,-0.011278673925639204,-0.8800872113641013,1.016838346591761,-0.011493471275821527,0.70141553475549,1.0121910826369598,-0.02296626502510719,0.7040800537400996,0.9899934645169246,0.0,0.0,0.0,0.0
0.022014669075508843,-0.03586803968127524,0.7329794963670783,-0.0004591775651387914,-0.5254458772907596,0.00015099996504668712,0.8508268897919941,-0.016567300704141374,-0.8570989626010406,0.9068352491337925,-0.012350738804235343,-0.8886636239429506,1.0334373923204832,-0.016134724121344316,0.7083522102921788,1.0145448147760026,-0.0275691167236879,0.7093533800172823,0.9891357835702925,0.0,0.0,0.0,0.0
0.02371045133505947,-0.0354895316255191,0.7326556059923356,-0.0004396260830402984,-0.5257985484879252,0.00010021063925425902,0.8506090071794007,-0.02175433962179883,-0.8672021252580987,0.9019602800238052,-0.013279045862210083,-0.8944057168931391,1.045259104214735,-0.02036139419552428,0.7142098440595086,1.0168956826386861,-0.03171712084674345,0.7136201653264721,0.9887247868281184,0.0,0.0,0.0,0.0
0.02486721705618742,-0.03524567599918605,0.7324155408551527,-0.0005021525671675507,-0.5260250731965931,0.00012139846163237988,0.8504689032961356,-0.026513503690961716,-0.8780579143371124,0.8981401614308822,-0.01398630242204679,-0.8982465858644808,1.0532187455976845,-0.022261780606730897,0.7178559402249726,1.0184409033463115,-0.03357246439765359,0.716723681495476,0.9886393215349503,0.0,0.0,0.0,0.0
0.025532199493154478,-0.03515759187514867,0.7322732397577559,-0.0006138210613404361,-0.5261338249910623,0.00018403985637856105,0.8504015448911826,-0.030906719750281017,-0.8890749556555693,0.8945027739967515,-0.014350067229023338,-0.9004880095119068,1.0578851764990573,-0.021952155003006037,0.7195403823650784,1.0190537409918936,-0.03330768862293044,0.7187815299908057,0.9888148556561648,0.0,0.0,0.0,0.0
0.025792501854638827,-0.0352209118210096,0.7322239807524467,-0.0007209735371860297,-0.5261935708713462,0.00024110102296682467,0.8503644795269361,-0.03503093935198398,-0.8999458874147348,0.8907761850774054,-0.014283885465908006,-0.9013042421232291,1.0597999922276267,-0.020251552216149406,0.719953834526576,1.0188698886820222,-0.03171524098932758,0.7199861275858253,0.9892331266366949,0.0,0.0,0.0,0.0
0.025739459491537824,-0.035424638344399816,0.7322524869765729,-0.000792993688957292,-0.5262471112509061,0.0002643599770919651,0.8503312761358883,-0.038964707522233834,-0.9105784068016995,0.8868476024159277,-0.013759802211606631,-0.9009713621470876,1.0595787761134876,-0.017789876069320996,0.7196344154736406,1.0180329656755371,-0.029381432792869214,0.7205115023591632,0.9898891179454833,0.0,0.0,0.0,0.0
0.025449598576766375,-0.035760966542853975,0.73233614517351,-0.0008367816978009622,-0.5262770451199592,0.00025498843114136566,0.8503127110405293,-0.04276977277526869,-0.9210529044288809,0.8825608425044145,-0.012802829237722491,-0.8999544499952548,1.0579310361275769,-0.01462761705380209,0.7186975454092825,1.0166150367256186,-0.026347649780374863,0.7204523180902884,0.9908067755212824,0.0,0.0,0.0,0.0
0.024985635005729083,-0.03622107887077096,0.7324296490931833,-0.0008719211361875813,-0.5262457467908216,0.0002212236476985733,0.8503320556101601,-0.04647237265918432,-0.9315449839493227,0.8777634631276174,-0.011453459187078454,-0.8988079325877525,1.055545154225076,-0.010673207098240461,0.717005342875924,1.0148684078334491,-0.022506124822034658,0.7197428559753594,0.9922079131100263,0.0,0.0,0.0,0.0
0.02445202914160247,-0.03673608212826094,0.7325396708103483,-0.0008829974829694963,-0.5262083481508336,0.00016278176182126796,0.8503552011682612,-0.050156782315598156,-0.9420273279147484,0.8726533252662136,-0.009906383930568653,-0.897524246475834,1.052804928153684,-0.006697321171673865,0.7152314333231559,1.0128956229049946,-0.018591679736339163,0.7187999041817691,0.9937035200880325,0.0,0.0,0.0,0.0
0.023937574417172668,-0.03724379445448836,0.7326570665961357,-0.0008650069128847469,-0.5261962305912957,8.284021505956448e-05,0.850362729552543,-0.05389425165936496,-0.9525302454750064,0.8673714998632212,-0.00834079619599684,-0.8962092729912745,1.0501123665708938,-0.0032444124920803633,0.7137909849819036,1.0109071404222352,-0.015149746468106089,0.7178916018987013,0.9950751715704697,0.0,0.0,0.0,0.0
0.023503375644509897,-0.03769967527904447,0.7327644079794726,-0.0008190355392681946,-0.5262223032945044,-1.4860185289845792e-05,0.8503466448898279,-0.05775753033962042,-0.9630198041414658,0.8620301178716736,-0.006885275191263842,-0.8950115325021769,1.0477954395525955,-0.000619743917259166,0.7128638674115705,1.0091455266916909,-0.012507575988859172,0.7171405934972347,0.9962648733827824,0.0,0.0,0.0,0.0
0.02318460780044695,-0.03807528953807954,0.7328495280703455,-0.0007467548245208347,-0.52629362230039,-0.00012763111746386918,0.8503025633228823,-0.0618240189816539,-0.9732513392995518,0.8568056332692132,-0.005620936989604714,-0.8940210412801466,1.0460430776846945,0.0010108017629739648,0.7125307167587809,1.0077845020344245,-0.010855342807502805,0.716608704472292,0.997254978290716,0.0,0.0,0.0,0.0
0.0229878319074576,-0.03836075704043799,0.7329077268769563,-0.0006533628147715927,-0.5264063476908944,-0.00025072255934669455,0.850232831267979,-0.06615555508860033,-0.9826603051703195,0.8520090233505155,-0.0045826115261920885,-0.8932715071846077,1.0448998878500244,0.0016673429369918349,0.7127528660715768,1.006886173552243,-0.01018869407669104,0.7163001291828123,0.9980504353908166,0.0,0.0,0.0,0.0
0.02288896802026552,-0.03856824582814601,0.7329411686740447,-0.0005548774043743736,-0.526533035080964,-0.00037179887409375545,0.8501544076490409,-0.07075939021534068,-0.9903127869821617,0.8481547226461079,-0.003761023204676517,-0.8927907455300356,1.044305608465635,0.0016725136436611181,0.7132981499837194,1.0063645596273554,-0.010186118479608071,0.7161497038816302,0.9986818552098623,0.0,0.0,0.0,0.0
0.022840771945387136,-0.03872884310401885,0.732956919944647,-0.0004755976335718045,-0.5266284501059598,-0.000473363655789975,0.8500953036411476,-0.07553908550159823,-0.9949934663017068,0.8460399930543222,-0.0031061443416761252,-0.8926074384139098,1.0441271372696537,0.0015943623499297267,0.7137862056216704,1.0060162253698928,-0.010270200875378057,0.7160402506170364,0.9992086682819429,0.0,0.0,0.0,0.0
0.02279756341622388,-0.03887519351002228,0.7329657206328969,-0.0004237589140481816,-0.5266752080672059,-0.0005502259153668814,0.8500663167583986,-0.08029496390574167,-0.9955768119562347,0.8466758299096018,-0.0025400682955422672,-0.8926333826282413,1.0441371057443154,0.0017998633416274694,0.7140049118391275,1.0056594766735691,-0.010067437096442264,0.7158902256013299,0.9996906053611877,0.0,0.0,0.0,0.0
0.02273983532635825,-0.03902025482265897,0.7329733083989235,-0.0003976489302394097,-0.5266716033164717,-0.0006035782588593681,0.8500685265486958,-0.0849681622111492,-0.9920407848576207,0.8500210715094754,-0.0020260559612833937,-0.8928054785956993,1.0442146824998557,0.0023722424716485775,0.7139067990939053,1.0052238790946824,-0.009491786370848177,0.715665294634808,1.0001441968069935,0.0,0.0,0.0,0.0
0.02267551853072921,-0.03915689075835174,0.7329806318495123,-0.0003811048208894617,-0.5266401902536453,-0.0006450717147005147,0.8500879652431286,-0.08966289338943306,-0.9854595458875699,0.855036401440775,-0.0015609200794006062,-0.8930550887706461,1.0443229768367581,0.0030390184314280574,0.7136612303428048,1.0047674836280052,-0.008816779153536592,0.7153853742543526,1.0005468176947967,0.0,0.0,0.0,0.0
0.02261168422237933,-0.0392823427113558,0.7329923093835984,-0.00033977358295849303,-0.5266357461200152,-0.0007016881488448532,0.8500906911008196,-0.09440874210168144,-0.9769872357129725,0.8609208736136204,-0.0010989709480280568,-0.8931759702154568,1.0443050876911149,0.003311175544177889,0.7136195838718157,1.0043761180911062,-0.008538203308833285,0.7150993444412076,1.0008944757896385,0.0,0.0,0.0,0.0
0.022523330433611963,-0.03942109616011243,0.7330163891667135,-0.0002557872058422925,-0.5266796770200255,-0.0007909048551699611,0.8500634251963185,-0.09915133047640742,-0.9675127604481806,0.8671075359601013,-0.0005384936253360224,-0.8930153614276076,1.0439486129874245,0.003122136228021788,0.7138604871684779,1.003986171434003,-0.008724752305620705,0.7147632545115958,1.0012503028825779,0.0,0.0,0.0,0.0
0.022342714713227765,-0.03963087221133865,0.7330518264625282,-0.0001352444677742463,-0.526742546909824,-0.0009159895532202949,0.8500243713841529,-0.10377919952967007,-0.9576155946746965,0.8731454999674733,0.0002857175614193627,-0.8925583583937348,1.0430003609667264,0.0029617912344121564,0.7140161646667463,1.0034537209410384,-0.008877290209580254,0.7141322633707099,1.0018689207627265,0.0,0.0,0.0,0.0
0.021987983574170134,-0.039974375565882334,0.7331018357903435,5.695807503583544e-06,-0.5267779002360027,-0.0010711085816595114,0.8500022920656816,-0.10816638321193554,-0.9476049096185671,0.8787152381743807,0.0015327605093439166,-0.8917886271287008,1.0411552959402337,0.0035058711905017236,0.7135941903874319,1.0025566981625404,-0.008307403328445876,0.7129407716852282,1.0029843317966416,0.0,0.0,0.0,0.0
0.02140426313285766,-0.04047398359232789,0.7332079108850059,0.00016789742519337936,-0.526789977130766,-0.0012506985605182412,0.8499945456049305,-0.11224297429007846,-0.9375191592832955,0.8838141135020702,0.0032437510543030694,-0.8903364818607801,1.0379213664580103,0.004965646144449961,0.7125919387178329,1.0009152346566492,-0.006795287427623876,0.7112579682262572,1.0043824097441785,0.0,0.0,0.0,0.0
0.02053558681397852,-0.041148008046242086,0.7333951734694426,0.0003577942057130428,-0.5267953586498151,-0.0014556908410674064,0.8499908252754815,-0.1159466814062739,-0.927319509826044,0.8885608839961615,0.005460828077364733,-0.8878088874514015,1.0327389203432567,0.0074066571967952265,0.71101136946984,0.9983303857081344,-0.004260627134854367,0.7090728899630998,1.0059888727036275,0.0,0.0,0.0,0.0
0.01932446587325672,-0.042017299640718486,0.7336903390649626,0.0005508925814102631,-0.5267641320093644,-0.0016630580858335593,0.8500096940527135,-0.11931742730749373,-0.917042812757553,0.8930330058727196,0.008182873502701665,-0.8839742226344617,1.0251871135240251,0.011294991831868594,0.7086137094024358,0.9944552796760899,-0.00020280293794295006,0.7063765583526078,1.0076659979518954,0.0,0.0,0.0,0.0
0.01772391120187256,-0.04310157349031942,0.7341226125608503,0.0006800802632452748,-0.526606344213461,-0.0018181129405236574,0.8501070463125834,-0.12257430417150816,-0.9069022276365252,0.8972585615334125,0.01134339304824653,-0.8788565118513508,1.015119566549744,0.017555050431133784,0.7049117905801128,0.9887344435574401,0.00638093252776581,0.7031973495812351,1.0091523734044168,0.0,0.0,0.0,0.0
0.015725383841367787,-0.04440384287403978,0.7347012492696485,0.0006540936694393383,-0.5262122332259734,-0.0018555490592782843,0.8503509950029422,-0.1261803987656007,-0.8973967153544936,0.9014463457512591,0.014819768872667737,-0.8727413084242329,1.0027388057275517,0.027049974779184457,0.6994286025295655,0.9806944681230207,0.01650487590094076,0.6995664860055103,1.0102000300749963,0.0,0.0,0.0,0.0
0.013399600103408876,-0.04587827611062975,0.7353562554726454,0.00043215370895110746,-0.5255811627082392,-0.001767055700325681,0.8507415190077295,-0.13081976857260416,-0.8893360419997509,0.9065676750814146,0.018490958193322686,-0.8659675362865124,0.9884536442960126,0.039298696443076125,0.6922625710733272,0.9708569832244779,0.029859003056524145,0.6953626105880726,1.0110803109688702,0.0,0.0,0.0,0.0
0.010944739130316676,-0.04735872222452227,0.7358434646377994,0.00019199761786713336,-0.5250839575818075,-0.001727682151289964,0.851048656506504,-0.13719487986053572,-0.8835152879176021,0.9153293321762729,0.022285412095642037,-0.8582110508827019,0.9721903892808292,0.050456248401316614,0.684912382625171,0.9625971886748327,0.04241259547794751,0.6901303635540326,1.0135317035593425,0.0,0.0,0.0,0.0
0.008908221056113727,-0.048432504173139594,0.7359771364540033,0.000390103299761575,-0.5254828982677694,-0.0020618364838787965,0.8508015751500665,-0.14575934816518246,-0.8800266556579717,0.932447668374205,0.02571655350437356,-0.848424261426385,0.954643878571237,0.05347696075397497,0.6815695614883821,0.9605964108177377,0.04608964367384193,0.6850348193640778,1.0183145257089266,0.0,0.0,0.0,0.0
0.0077277962901251725,-0.048984174031718626,0.7359659345877497,0.0013209542267541789,-0.5271151647732744,-0.0029260386880815953,0.8497877949485804,-0.15539803597172522,-0.8803991711879883,0.9636176853296945,0.02871960238075711,-0.8364667550275184,0.9379684845747698,0.04593792715770768,0.6857323790837612,0.964175353789808,0.03780307157847033,0.6825738966935326,1.0234328530680492,0.0,0.0,0.0,0.0
0.007530770320007823,-0.04902805040076692,0.7359197877457719,0.0027259320987627162,-0.5294018924634061,-0.00382497546173213,0.8483581644052671,-0.16441653146424373,-0.8880143361587662,1.0093524797978786,0.03017134226271084,-0.8251276582298737,0.9258738331203143,0.03196999909083106,0.6953706922517052,0.9703948494837334,0.0225238611339077,0.6835931441551749,1.0272645309662207,0.0,0.0,0.0,0.0
0.007538469153318257,-0.04905779669779504,0.735904354586497,0.0027132269571292487,-0.5293957738014787,-0.003805886245296649,0.8483621091907043,-0.1644150855264363,-0.8880495928301064,1.0093486695034413,0.030171296193337936,-0.8251261999960958,0.9258094021753285,0.031850792524756054,0.6954629649569812,0.9702667341582988,0.022628527297584584,0.6835181504586149,1.0273781454374005,0.0,0.0,0.0,0.0
0.007538469153318257,-0.04905779669779504,0.735904354586497,0.0027132269571292487,-0.5293957738014787,-0.003805886245296649,0.8483621091907043,-0.1644150855264363,-0.8880495928301064,1.0093486695034413,0.030171296193337936,-0.8251261999960958,0.9258094021753285,0.031850792524756054,0.6954629649569812,0.9702667341582988,0.022628527297584584,0.6835181504586149,1.0273781454374005,0.0,0.0,0.0,0.0
0.007307153623080204,-0.049804838890861215,0.7372087276962263,0.00103375998291206,-0.526681861205284,-0.002226245675040023,0.8500589345732624,-0.16654297808470073,-0.9011310648787809,1.0209343837015745,0.02898681278540839,-0.833053141501754,0.935812684558946,0.021956730016182677,0.6664406095037786,0.9950628712022234,0.05098802973458012,0.6889573053206712,1.0153259435813984,0.0,0.0,0.0,0.0
0.00798752974734915,-0.050547756414126926,0.7389763870643371,0.000775016711884354,-0.5261254239330467,-0.0018320929414582792,0.8504046572519591,-0.16573719228206105,-0.9017825434184628,1.0268837546767613,0.029970861811199564,-0.8347711802744798,0.9447458622004309,0.011757580885124772,0.6539720983307565,1.0154699480617204,0.06030298818815251,0.6995665329389151,1.0000610615234566,0.0,0.0,0.0,0.0
0.00898717905897635,-0.05135400354718595,0.7407713283749837,0.0011480473460636726,-0.5264281433401944,-0.0020710611295675693,0.8502163269383178,-0.16315401312006717,-0.8974506748834624,1.0301409831740755,0.03240266378230958,-0.8346702169572962,0.9533763853951109,0.005210447683500527,0.6487987005880409,1.0335013577775243,0.06197728266523557,0.7113759257928802,0.9851376408749091,0.0,0.0,0.0,0.0
0.010008110618493276,-0.052339176982184786,0.7424166155551929,0.0015649116382676974,-0.5267138094865451,-0.002454841236991206,0.8500376978124188,-0.15978873219003953,-0.893305449138986,1.0332930944098655,0.035661366974511784,-0.8357365865368374,0.9630752624454498,0.0010658449541911044,0.6456206889906514,1.0496379142529917,0.06387115224117111,0.722370193605069,0.9717670360677652,0.0,0.0,0.0,0.0
0.010854597910268708,-0.05350742955864626,0.7438992782840625,0.0018457531809223,-0.5267483644676738,-0.002760938105228711,0.8500147827812202,-0.15614653337801893,-0.8902047035766852,1.0360507969380313,0.03928277796593498,-0.8378925415520475,0.9728795746970192,-0.001553611861010754,0.6421653243152312,1.0642297795556046,0.06863610251027437,0.7320018969509624,0.9601450863701054,0.0,0.0,0.0,0.0
0.011429526546342703,-0.05480483598139794,0.7452543442605778,0.0020181646362182923,-0.5266195068347037,-0.0029838237016179027,0.8500934765240774,-0.1523111648334813,-0.8871238063147137,1.0371351391438979,0.043087424579541705,-0.8399931694331803,0.9812454123648849,-0.0036408857001208918,0.6379853723602691,1.077826741205909,0.07569235627126608,0.7402555133251295,0.9501148009775027,0.0,0.0,0.0,0.0
0.011744220654743304,-0.05615409732748864,0.746512314617794,0.002130240590024855,-0.5264233202301791,-0.0031360861979535973,0.8502141582896757,-0.14844208122719452,-0.8835173334733557,1.0362323048880127,0.046868187608265374,-0.8414058968370433,0.9876073434804044,-0.005389119535698413,0.6331959631747347,1.0908546812526814,0.08401215104085935,0.7473742441823766,0.9413248781035074,0.0,0.0,0.0,0.0
0.011854849330702487,-0.05749677670766061,0.7476862043035423,0.0022104450281419715,-0.5262115541312331,-0.003236776332622184,0.850344658071386,-0.1446612076964893,-0.8793546438713028,1.0336628772331418,0.050501490345519505,-0.8420385080282013,0.9921104838671287,-0.006912301751202674,0.6280429152568021,1.1036485823512885,0.09279818627923249,0.7535785545963383,0.933490855246426,0.0,0.0,0.0,0.0
0.011824092184406821,-0.0587882382992288,0.7487815167647522,0.002266464841532798,-0.5260022330097469,-0.003294226889283927,0.8504737868241936,-0.14108550918805027,-0.8748648333885459,1.0299843355020581,0.05388956526660235,-0.8420224095912109,0.9951401017181979,-0.00832502154536096,0.622684110450026,1.1164396690748792,0.10159193682724726,0.7590642667068773,0.9263799099378206,0.0,0.0,0.0,0.0
0.011719218560425794,-0.05999487336762025,0.7498029837504934,0.0023040551210142856,-0.5258081899416769,-0.003317720597114863,0.8505935759516975,-0.13780011617934318,-0.8703156872469987,1.025805083264599,0.05697038677120528,-0.8415549223623954,0.9971721270987315,-0.009742138046688803,0.6172737115049849,1.1294058631104473,0.11005065690402144,0.7640442296165312,0.9197858051408889,0.0,0.0,0.0,0.0
0.011644869231313427,-0.06110372978832568,0.7507565104119335,0.0023514105884250604,-0.5256499556653089,-0.003345967809744587,0.8506911304796351,-0.13477871513607997,-0.8660233666529776,1.02196044093601,0.05980472444569008,-0.8410598163738447,0.9990869913132208,-0.011254868708934,0.6122246302010438,1.1426661935753366,0.11766378202367997,0.7687943197706273,0.9134999003905852,0.0,0.0,0.0,0.0
0.011659632510804513,-0.06210141407756987,0.7516411137250024,0.0024204234046592238,-0.5255382282151925,-0.0033972564449344525,0.8507597609687625,-0.13202798194212845,-0.862202185022084,1.0189572822536923,0.062406483894227684,-0.8407698848158939,1.0013619784303525,-0.0129680505067508,0.6077541940809749,1.156272348008793,0.12418123339937383,0.7734659031480734,0.9074412136595348,0.0,0.0,0.0,0.0
0.01177788434168165,-0.0629738338409852,0.7524505835963782,0.0025095198906816838,-0.525473385359354,-0.003472463933182357,0.8507992510475846,-0.12958357768240827,-0.8589665779592305,1.0169845525923609,0.06474699598187736,-0.8407464550294202,1.0041001773030749,-0.014945860988891353,0.6039206139447871,1.1701306897975263,0.12954070491076444,0.7780746187308506,0.901629123970167,0.0,0.0,0.0,0.0
0.011988654189664605,-0.0637124140089487,0.7531733848883481,0.002616582428000485,-0.5254569233276993,-0.0035680079581546825,0.8508087003214039,-0.12747108653047445,-0.8563177661579108,1.01598867701177,0.06679692469108617,-0.8409488885921129,1.0071889303973196,-0.017225728658874166,0.6007853724141619,1.1839522144331125,0.13373765563059,0.7825413233180017,0.8961906726710349,0.0,0.0,0.0,0.0
0.012248661025578537,-0.06431521684208893,0.7537888484990496,0.0027333719813189155,-0.5254860689179922,-0.003671573431528526,0.8507898915709234,-0.12571156079620371,-0.8541640454548056,1.0156483974775314,0.06852118848696012,-0.8412373973953217,1.0102664650400706,-0.019898459290241283,0.5983751554556858,1.1971282681363153,0.13689354297087333,0.7866515474335651,0.8914069138259393,0.0,0.0,0.0,0.0
0.0124731001547466,-0.06478809728475105,0.7542648252975361,0.002831981163646277,-0.5255385981818127,-0.003750476786679973,0.850756778184962,-0.12434255057995007,-0.8524019557255953,1.0153960551590522,0.06986133454368215,-0.8414002293476828,1.0127058081020774,-0.023176225646978823,0.5966042041379445,1.2085130657035887,0.13942507250532393,0.7900163121888535,0.8877350143166138,0.0,0.0,0.0,0.0
0.012588689242675364,-0.06516016451746093,0.7545615066387343,0.002875164039441937,-0.5255652897060591,-0.0037709795691075296,0.850740053953628,-0.1233500905734835,-0.8511490889410717,1.0148901423159349,0.07082928813982299,-0.8414953473000228,1.0142017177075697,-0.02741184961051609,0.5956403698620686,1.2161115615030098,0.1419779730337231,0.7921901325389186,0.8857193745764238,0.0,0.0,0.0,0.0
0.012561167473618039,-0.06547325795423027,0.7546457414471446,0.0028299615054213976,-0.5255080963263637,-0.0037113199697487577,0.8507757977971642,-0.12267106896961627,-0.8507020297006864,1.0141457867376358,0.07150599710717893,-0.8418305340941539,1.01488494494979,-0.03303152992101584,0.5963581011156142,1.2168818469228868,0.14518971412656745,0.7928351566565441,0.8857943087931162,0.0,0.0,0.0,0.0
0.012395407108489093,-0.06573020948071454,0.7545220313784614,0.002707989788365144,-0.5253786302125517,-0.003581384865374706,0.8508567067313596,-0.1222769861399444,-0.8509745748977608,1.0131164197569575,0.07191553375618143,-0.842380851629596,1.0147638165392823,-0.04001278613273917,0.5988226315396147,1.2108111330140963,0.1489290347907124,0.7919788047439288,0.8879328816829845,0.0,0.0,0.0,0.0
0.012129455898785267,-0.06589965901281704,0.7542337687895228,0.0025606651593013605,-0.5252523960090756,-0.0034197999724910042,0.8509357604712681,-0.12216639626678502,-0.851500144216331,1.0116625535346888,0.07203234100791928,-0.8427890662108201,1.0137050188311023,-0.04789616541124645,0.6022439312773558,1.2009354039754996,0.15238514093049932,0.7900063803726014,0.8916477200265978,0.0,0.0,0.0,0.0
0.011874094665225439,-0.06599471196942847,0.7538330205274567,0.0024472019302066187,-0.5251716865905709,-0.0032914951893446495,0.8509864140312385,-0.12218656740206837,-0.8522229983187887,1.0103581839922722,0.07202729599522689,-0.8433131391028665,1.0125434959288664,-0.0562639155325277,0.6066559087746317,1.189199957537576,0.15486589631711908,0.7874478475118019,0.8963173370970619,0.0,0.0,0.0,0.0
0.011668293322210484,-0.06604255974569628,0.7533667656451928,0.002391370680504814,-0.5251470016931533,-0.003226696905442108,0.8510020542783902,-0.12220452636186767,-0.8530090790184556,1.0093239718665148,0.07203499394133664,-0.8440232895462608,1.0116178786414802,-0.06490171764348077,0.6119835830329525,1.176685168068106,0.1562175257197107,0.7846210382477508,0.9014828008287795,0.0,0.0,0.0,0.0
0.011480628901405526,-0.06608041515291363,0.7528742987073659,0.002386208659556757,-0.5251584393833866,-0.003215994402425585,0.8509950510623681,-0.12213550784415396,-0.8536551648600929,1.0082383708030136,0.07212623656724756,-0.8448017565649714,1.0107711448131949,-0.07358746058328466,0.6179350660288718,1.1638497031915656,0.15678108714391592,0.7816229658417118,0.9068598029067048,0.0,0.0,0.0,0.0
0.011234103175311304,-0.066165198675388,0.7523872983147111,0.0024125583634105755,-0.5251702450300244,-0.0032381158780030164,0.8509876073732261,-0.12186000230926422,-0.8538544484057277,1.0064282856081364,0.07239542725585921,-0.84544232448886,1.0095616383585677,-0.08216912813114201,0.6241415088118656,1.150807738790527,0.15716168239155082,0.7783658140096401,0.9123397613938513,0.0,0.0,0.0,0.0
0.010809682063019447,-0.06636276057621117,0.7519324615720425,0.0024434516316264305,-0.5251431625322461,-0.0032636119881325784,0.8510041346706523,-0.12124238805170419,-0.853135523779021,1.002843712739059,0.0729373424767089,-0.8455739413736846,1.007198860063157,-0.09056637925051114,0.6301439673392367,1.137531636627118,0.15811020291541691,0.7746217578649072,0.9179443206039257,0.0,0.0,0.0,0.0
0.010112767242949468,-0.06674797960600133,0.7515375182645947,0.00246301195152226,-0.5250404675206385,-0.003273592807712276,0.8510674031050451,-0.12011064417135602,-0.8510781110208414,0.9965900767489297,0.07389302133292834,-0.8449570180447455,1.0031356689917212,-0.09868550755253394,0.6356258682923778,1.1239406068290183,0.16030809107487354,0.770220448286233,0.9236720606039996,0.0,0.0,0.0,0.0
0.009051409471802547,-0.0673907015277629,0.751226105631154,0.0024512641172212872,-0.524826628403997,-0.0032457810960398884,0.8511994280586642,-0.1183163654230389,-0.8472773280648882,0.9867798320103842,0.07538258995203011,-0.8433413682000097,0.9968076314674755,-0.10653408079323838,0.6402433217348469,1.109975049772738,0.16442942496592672,0.7649915461385253,0.9295322616959862,0.0,0.0,0.0,0.0
0.007545816168413852,-0.06834243113480161,0.7510129666646067,0.0023792700110610377,-0.5244680759931651,-0.003148201725026413,0.8514209682431719,-0.1157880103782226,-0.8414198261050776,0.9726382979961817,0.07745764272293057,-0.8404782512882469,0.9876620145318216,-0.11428890717611197,0.643616521317642,1.0956416990571856,0.17109660658335604,0.7587829276888433,0.9355308860610354,0.0,0.0,0.0,0.0
0.005557651698730287,-0.06961778830112306,0.7508987312583917,0.0022137892025187135,-0.5239434304947477,-0.0029433371121888115,0.851745101274675,-0.11257751463710913,-0.8333909151085869,0.9537467571068821,0.08006422900141599,-0.8361892489686739,0.9753257059161594,-0.12244740146217171,0.6454876807834045,1.0811372089733535,0.18068083179006864,0.7515261210082274,0.9416346511004874,0.0,0.0,0.0,0.0
0.0031334055952557762,-0.07117035594512292,0.7508611450843483,0.0019259456118746019,-0.5232549207116086,-0.002598382485280077,0.8521700693482778,-0.10890731078724945,-0.8234742388072548,0.9304636005220835,0.08301053582091292,-0.8305218867762257,0.9599189690323611,-0.13220460457285904,0.6460769402134419,1.0670654852918817,0.19304550145947005,0.7433161509136451,0.947757738774275,0.0,0.0,0.0,0.0
0.00046278397764769373,-0.07287065914223456,0.7508326698330846,0.0014809054251800472,-0.5223996821211594,-0.0020782040784101774,0.8526969333278042,-0.10525387722369164,-0.8130083927719183,0.90487425119691,0.08592353621492249,-0.8242548116834971,0.9427877637733512,-0.14619859272246372,0.6466224833998458,1.0546454050762213,0.20761900494707308,0.7344351129007949,0.9538513953508201,0.0,0.0,0.0,0.0
-0.001961499154559843,-0.07449610953918241,0.7506417515938275,0.0007591485136450265,-0.5211653753456327,-0.0012944922092799366,0.8534543921758796,-0.10253413424457197,-0.8070169522216516,0.884183379347945,0.08823002185072079,-0.8210468870151462,0.9293303968308249,-0.16982765504681585,0.6501703545074881,1.0450680233629652,0.22417549453281477,0.7251668935169594,0.9599839524711845,0.0,0.0,0.0,0.0
-0.0039292754580500435,-0.0758344861072932,0.750256522175907,-0.00022646646626811728,-0.5196460509470842,-0.00025982000863966626,0.8543815675338526,-0.10127122384527684,-0.8067501556280984,0.8711058681452805,0.08945406205312485,-0.8213243116626776,0.9208526637661633,-0.2060173117857407,0.6564368779630929,1.0404683220651492,0.24127707144867067,0.7161015221620701,0.9658910898847801,0.0,0.0,0.0,0.0
-0.005253957252703573,-0.07666664049429858,0.7494612881343533,-0.0010481933724675744,-0.5182604898513772,0.0006152821029044315,0.8552219521139517,-0.10115453202458026,-0.8109995913018595,0.8657059678407263,0.08983844425931711,-0.8249492904674737,0.9175704493396578,-0.24583354776770144,0.662152264336926,1.0427314461443458,0.2531582481721932,0.706597266582574,0.973738712719965,0.0,0.0,0.0,0.0
-0.005235290786979379,-0.07668338558362363,0.749434094394675,-0.001087303007454957,-0.5182710706575745,0.0006331234157572001,0.8552154782546687,-0.10116497143334682,-0.8110013971146822,0.8656315401201904,0.08984851332669155,-0.8249472864888728,0.917586873641683,-0.24581345721180553,0.6621245269434454,1.0427144595095819,0.25312775707577395,0.7065655151263014,0.973710660976115,0.0,0.0,0.0,0.0
-0.005235290786979379,-0.07668338558362363,0.749434094394675,-0.001087303007454957,-0.5182710706575745,0.0006331234157572001,0.8552154782546687,-0.10116497143334682,-0.8110013971146822,0.8656315401201904,0.08984851332669155,-0.8249472864888728,0.917586873641683,-0.24581345721180553,0.6621245269434454,1.0427144595095819,0.25312775707577395,0.7065655151263014,0.973710660976115,0.0,0.0,0.0,0.0
-0.005973881332897675,-0.07682235303592092,0.7496357481880315,-0.0007566662039767946,-0.5188497016773554,0.0005027766390358854,0.8548649962077206,-0.1003556505749129,-0.8016963159828439,0.852853308052029,0.09004038526156641,-0.8176876122358128,0.9073303668665428,-0.2480616090598696,0.6632038880830046,1.0423538781984891,0.2510171585622214,0.7063383426377451,0.9737869800186566,0.0,0.0,0.0,0.0
-0.0069567947978590675,-0.07706091638634158,0.7496896050325449,-0.0005105515442241773,-0.5193252688530301,0.00036365557260000273,0.854576428543681,-0.09921007872979964,-0.7919893073778111,0.8379606992466245,0.09054977121622328,-0.8102747981038257,0.8954777356363417,-0.24854406867471474,0.6623048886839523,1.0429977719872503,0.24969101293991208,0.7044126261420638,0.9755443510139871,0.0,0.0,0.0,0.0
