zhuoxili-jackie/tripod-support-walk/examples/trajectory_tripod_reorder_left_v0.10.csv
root_pos_x,root_pos_y,root_pos_z,root_rot_x,root_rot_y,root_rot_z,root_rot_w,FL_hip_joint,FL_thigh_joint,FL_calf_joint,FR_hip_joint,FR_thigh_joint,FR_calf_joint,RL_hip_joint,RL_thigh_joint,RL_calf_joint,RR_hip_joint,RR_thigh_joint,RR_calf_joint,FL_foot_joint,FR_foot_joint,RL_foot_joint,RR_foot_joint
0.0,0.0,0.72963,0.0,-0.5231245161092812,0.0,0.852256264656019,0.0,-0.81,0.872,0.0,-0.81,0.872,0.0,0.65,1.0,0.0,0.65,1.0,0.0,0.0,0.0,0.0
3.202136799111237e-05,0.000364528656142124,0.7295585924376944,1.5402226432719515e-05,-0.5233130610299589,-0.00011357720215173928,0.8521404972294446,-0.000622917838486194,-0.8099395727530062,0.8725766220653431,-0.0006229178384861946,-0.8085607803085951,0.8700574663254663,-0.0032912700615724036,0.6507167987189235,1.0023866679394209,-0.003291270061572407,0.6497718150275991,0.9996371103823376,0.0,0.0,0.0,0.0
0.00048495260633595283,0.0007625363783483499,0.7294313894446928,1.4640895769696202e-05,-0.523479942986808,-0.0001636299151930134,0.8520379817246548,-0.001495103218846818,-0.8126361071564252,0.8778913519440606,-0.001494308331054594,-0.8094895017138865,0.8724414098704614,-0.006353599374026884,0.6522088201044788,1.0048995758561892,-0.006319368516249445,0.6506199495173235,0.9993093883165105,0.0,0.0,0.0,0.0
0.001411618503970291,0.0010783556230170312,0.7292799988654272,-1.2014464484659956e-06,-0.5236980801251129,-0.00017446279197336917,0.8519039208939948,-0.002260913628719662,-0.817483393913555,0.8874885656594863,-0.002258575325937168,-0.812829057670568,0.879662595779176,-0.008579056690749647,0.6550012342999354,1.0069691175072977,-0.008497511892368848,0.6530335789981861,0.9991950487532473,0.0,0.0,0.0,0.0
0.002852060907357367,0.0012723608288970048,0.7291150923120782,-2.7707584639215536e-05,-0.5239847620502617,-0.00015944516867227862,0.8517276225112455,-0.0027876664733069295,-0.8243658073741531,0.9013614264661726,-0.002783731603975688,-0.8187145251863153,0.8920706394963768,-0.009806965208995119,0.659350425891835,1.008344814493817,-0.009687443313503054,0.6572240227744404,0.9992843133855897,0.0,0.0,0.0,0.0
0.004840960349683694,0.0013607108504736615,0.7289577661224909,-7.478879480906514e-05,-0.5243541666289422,-0.00010499352207849841,0.8515002591437444,-0.00314656258782066,-0.8332792050592897,0.919637181959728,-0.0031413324226927998,-0.8269875608309123,0.9096028012990507,-0.009969419226839317,0.6654820684789271,1.008811048802978,-0.00983481539186665,0.6635188658365161,0.9992773373404304,0.0,0.0,0.0,0.0
0.00740160904034093,0.0014077512198309942,0.7288459920255215,-0.00016988743172684383,-0.5248319679013517,3.154254139130017e-05,0.8512058362183164,-0.0035996099068650875,-0.8441784205445306,0.9423974078160379,-0.00359283511586724,-0.8370787553275624,0.93167913470865,-0.009000634847199488,0.6736296135630981,1.008129503346607,-0.008878929822767341,0.6724291106277746,0.9985855031950638,0.0,0.0,0.0,0.0
0.01053803598514526,0.0015209580658216422,0.7288294614683594,-0.0003825836224895518,-0.5255101021130093,0.00038410908414823037,0.8507871876486844,-0.0047460164028108,-0.8567508110477884,0.9693882978434841,-0.00473522674888243,-0.8475773507157567,0.9568240525610999,-0.006196276488445913,0.6839234318179059,1.0061135427738352,-0.006124516092558934,0.684956558564959,0.9965750661603825,0.0,0.0,0.0,0.0
0.013643287625314063,0.0016292183658182526,0.7285687895158426,-0.0005110448692111684,-0.525369338572909,0.00048386477113874496,0.8508739993650581,0.004006915573620744,-0.8518926172959411,0.9385879957659162,-0.005246022077299366,-0.8635086818167828,0.9860085315345182,-0.005453097171782833,0.6916514059226319,1.0046500610476212,-0.005377508411350773,0.6934727130339712,0.9946035757899961,0.0,0.0,0.0,0.0
0.016594451820513778,0.001968966782391835,0.728139336001613,-0.0006865534278782437,-0.525311102424479,0.0006972997348717728,0.8509096826849775,0.01203544885653298,-0.8565843522168398,0.9163103762230583,-0.006648889996555926,-0.8774940999880011,1.0116147858539324,-0.005323982444639524,0.6982225373018695,1.0055315278850878,-0.005239195881389897,0.7012534839880196,0.993636904237778,0.0,0.0,0.0,0.0
0.01913148888250169,0.0024684154207461374,0.7277025313654442,-0.0008798687942730451,-0.5253692498091151,0.0009499357288596573,0.8508733600295778,0.019069923096012173,-0.8663839769295217,0.9011054814241025,-0.008583469335316356,-0.8881487632839614,1.0316915229730603,-0.006034290432508421,0.7038862033732909,1.0075403741599034,-0.005929454643912752,0.7081236459650746,0.9927839642539388,0.0,0.0,0.0,0.0
0.021156895919333257,0.003087247056009949,0.7273333490229995,-0.0010649612914969012,-0.525480138002265,0.0011974402202806216,0.8508043585686941,0.0252551368107711,-0.878485729038238,0.8900771152150917,-0.01083648046999746,-0.8955636343216111,1.0462462341753636,-0.0078364560391682,0.7086251972751701,1.0099941123926997,-0.007691264910763069,0.7137528506273003,0.9915404009574056,0.0,0.0,0.0,0.0
0.022681702400986326,0.003768593828259159,0.7270444553893645,-0.0012303305636108485,-0.525602058503668,0.0014189836197316492,0.8507284812846564,0.03082955356549836,-0.8915294127517063,0.8812033660542639,-0.013200595954879076,-0.9002968627472159,1.0560621566867665,-0.010568254192740682,0.7124124364774924,1.0126013899542283,-0.010350133638058229,0.7180254759981531,0.9899615192437501,0.0,0.0,0.0,0.0
0.02378065409813354,0.004455164109161826,0.7268292335574726,-0.001371088417063025,-0.5257193832433237,0.0016055596425372052,0.8506554369291048,0.03603794257944009,-0.9049206375716192,0.8732568547806437,-0.015494856414292853,-0.9030090671691887,1.062207980056933,-0.013882741986805482,0.7153577973625347,1.0151657238994294,-0.013548619781924603,0.7210911637668717,0.9882260615480324,0.0,0.0,0.0,0.0
0.024552580154029384,0.005098961256976466,0.7266723637208737,-0.00148678365351821,-0.525827412424371,0.0017564228106129094,0.850588171088905,0.0410758492554723,-0.9184006571146742,0.8655384740619788,-0.0175853963640953,-0.9043494706656438,1.065783512414669,-0.01737620890304145,0.7176203152589304,1.0175479003259482,-0.016883891291039278,0.7232187099463772,0.9865236958638026,0.0,0.0,0.0,0.0
0.025092922653341027,0.0056659354799766595,0.7265488635529437,-0.0015788338801008732,-0.5259240396497347,0.001873601825537609,0.8505280133060185,0.04606606747500512,-0.9317584304611237,0.8577040989600393,-0.019385462994007986,-0.9049075568768299,1.0677639897079398,-0.02070963751310088,0.7193218694947864,1.0197289997677639,-0.020031064154574053,0.7246384980326441,0.9850759695745765,0.0,0.0,0.0,0.0
0.025481492243740658,0.0061454479947792755,0.7264321537473679,-0.00165067478312828,-0.5260050129756602,0.001962319331775489,0.8504776016451439,0.05103422682732942,-0.9446162102751559,0.849711193604023,-0.020880956328967318,-0.9051513358763856,1.0689031278079995,-0.023700724724339282,0.7205413397756312,1.021787612304846,-0.022826444179924608,0.7255091997338774,0.9840492788122189,0.0,0.0,0.0,0.0
0.02579143475893907,0.006562577016168535,0.7263339632702188,-0.001713197202786615,-0.5260648964341916,0.002041220025824247,0.8504402525256162,0.055875024867085156,-0.956213364073888,0.8419019060135265,-0.02218575641553133,-0.905288675938902,1.0697084875845229,-0.026308994813035332,0.7214980079891159,1.0235680431547274,-0.025243215247589917,0.7261646557903673,0.9831512117219603,0.0,0.0,0.0,0.0
0.02605814929870086,0.006934323460599667,0.7262534637888786,-0.00177217569447223,-0.5260959987374014,0.0021189650721376106,0.8504207014724108,0.06050584704260941,-0.9652752639733673,0.8350226294000335,-0.023367703775741367,-0.9054549576036915,1.0704373892338634,-0.028552402375337235,0.7222589146457493,1.0250603398131723,-0.027307436164951866,0.7267177894791605,0.9822713170738154,0.0,0.0,0.0,0.0
0.026279534330366217,0.007260251229626873,0.726183853739899,-0.001827404815818299,-0.5260989311503645,0.0021946940322596104,0.8504185784378113,0.06491640102248836,-0.970103350558723,0.8303342883863172,-0.02442386610527069,-0.90565979551929,1.0710762519732078,-0.030426194457378104,0.7227869829019534,1.0263291353715949,-0.029021675746257344,0.7271305104969008,0.9814762374916931,0.0,0.0,0.0,0.0
0.026435949567465422,0.0075297745960571216,0.7261227573035279,-0.0018781747697072886,-0.526091581325838,0.0022665221253058416,0.8504228262429632,0.06913761284425786,-0.9691754406798174,0.829352739630624,-0.025319326998949048,-0.9057545838569062,1.0714137457138888,-0.03185352244545347,0.7230508198538249,1.0274221692354841,-0.03032040590670046,0.7273813540832054,0.9808847434657567,0.0,0.0,0.0,0.0
0.02652088079152684,0.007757785245533699,0.7260687518345116,-0.0019269206772756355,-0.5260733333542634,0.00233646151571221,0.8504338162713329,0.0730984448585829,-0.9624990532355597,0.8320292185390663,-0.026097094274577775,-0.9056784301754808,1.0713430688333279,-0.032921763683842246,0.7230258959717629,1.0284080068756356,-0.0312889043933951,0.7274375147515105,0.9804686636461801,0.0,0.0,0.0,0.0
0.026545334091243915,0.007987883068104782,0.7260217279200654,-0.0019806227569402883,-0.526024491705733,0.0024121200796195616,0.8504636928969641,0.07663210249095771,-0.9516206949861556,0.8368090872471446,-0.02689138067660548,-0.905464779238632,1.070883316129421,-0.0338879406901631,0.7227059619743323,1.0293730383168256,-0.03216484115056918,0.7272751161246958,0.9800307234453041,0.0,0.0,0.0,0.0
0.026511764146522444,0.00825997489314403,0.7259870815918565,-0.002047919151821567,-0.5259414642698449,0.002504085022630405,0.8505146158338719,0.07965025466564768,-0.9382429018416866,0.8424142540593633,-0.027832117228121317,-0.9050036520191177,1.0699024835624609,-0.034943657710534426,0.7221133396397938,1.0303775313914592,-0.033122343298470344,0.7269298601765611,0.979379048408231,0.0,0.0,0.0,0.0
0.02639976780003762,0.0086034232803474,0.7259718080093497,-0.002134120285335861,-0.5258285361078952,0.0026198549053183693,0.850583877407461,0.08220359786778862,-0.9236030779441853,0.8480664395228303,-0.029012546195056665,-0.904070526511985,1.0680783546565784,-0.03623680867936931,0.7212277165324429,1.0314825849575078,-0.034294526035706215,0.7263889462598503,0.9783884918201545,0.0,0.0,0.0,0.0
0.026169216535179472,0.009039370834258311,0.7259822746938133,-0.0022412521014119795,-0.525692522881808,0.00276411648001575,0.8506672133303731,0.08446233772924729,-0.9083805747136756,0.8534087367534146,-0.030496239569537217,-0.9023698391424042,1.0649432869454243,-0.037885917875696305,0.7199717465210806,1.0327631860402702,-0.03578695096498945,0.725575861949736,0.9769983954040669,0.0,0.0,0.0,0.0
0.02577352054221824,0.009580479155013422,0.726021601538034,-0.0023699254749184597,-0.5255426269031327,0.0029414480777778637,0.8507588839643132,0.0867180355653126,-0.8928234117156815,0.8583778495999101,-0.032322998164076154,-0.899593133039321,1.0599913671041672,-0.039941610662507156,0.7182306889620269,1.0343063170548121,-0.03764216753691282,0.7243935792751478,0.9752188498977188,0.0,0.0,0.0,0.0
0.02517853003954934,0.010223533988267877,0.7260847650661009,-0.002520946013519122,-0.5253954415807912,0.0031579457565689647,0.8508485777010624,0.0894024106874267,-0.8769459147210683,0.8630965897303158,-0.03449330213185396,-0.8954985060472788,1.0528360820740668,-0.042303143973932644,0.7158925493080067,1.0362073579032185,-0.03976466524645786,0.7227897868116295,0.9731834331822252,0.0,0.0,0.0,0.0
0.024388839257572348,0.010936362195610427,0.7261588603123122,-0.0026983881472027764,-0.5252837451238663,0.003423024191348834,0.8509159704197811,0.0930262944788023,-0.8607610592767998,0.8677690673433827,-0.03693799132966576,-0.8899980446941036,1.0434282229509269,-0.04458278410136659,0.712938439071765,1.038500645812327,-0.041801669470517194,0.7208824762221637,0.9711753045629119,0.0,0.0,0.0,0.0
0.023468965634854014,0.011635564183889252,0.7262104415417131,-0.0029128463023493823,-0.5252679080225279,0.0037475455015038867,0.8509236722707685,0.09790529541550658,-0.8446191511406436,0.8725083526875661,-0.039455347031569395,-0.8832841367315866,1.0322839873763476,-0.04593726914087163,0.7094685653087812,1.0411972811793309,-0.04299752728009721,0.7189998848606818,0.9698227179331927,0.0,0.0,0.0,0.0
0.02255874142143426,0.012165933375269854,0.7261594285745555,-0.0031839870560493658,-0.5254456577910034,0.004132702081732399,0.8508111680675743,0.10350874034292655,-0.829722276814915,0.8769953325378187,-0.041631073195103174,-0.8760064997444151,1.020717247217157,-0.04500915360485967,0.7056771897743243,1.0444680240540873,-0.04214006999521826,0.717595075302945,0.9704167576372232,0.0,0.0,0.0,0.0
0.02189776410486318,0.012383780558524583,0.7260376446683393,-0.0035384613001821987,-0.525826612242005,0.0045017009795836295,0.8505725059264575,0.10731599354400326,-0.8182127158186239,0.8790436523781388,-0.042880282840892445,-0.8695257448745151,1.0113109416867483,-0.04112937685344315,0.7025550771649185,1.047341079651748,-0.03860412216878265,0.717499194522394,0.9728184795232137,0.0,0.0,0.0,0.0
0.02190766695525048,0.01239479429088098,0.7260333528563552,-0.003545944511938691,-0.5258195286811196,0.004506009575366385,0.8505768309875306,0.10732609640872427,-0.8181915046942815,0.879061521635785,-0.04290811639871781,-0.86953355737067,1.011292878937791,-0.0411391106343988,0.7025387911046307,1.0473669879380032,-0.038593185529350246,0.717516966383014,0.972786726574988,0.0,0.0,0.0,0.0
0.02190766695525048,0.01239479429088098,0.7260333528563552,-0.003545944511938691,-0.5258195286811196,0.004506009575366385,0.8505768309875306,0.10732609640872427,-0.8181915046942815,0.879061521635785,-0.04290811639871781,-0.86953355737067,1.011292878937791,-0.0411391106343988,0.7025387911046307,1.0473669879380032,-0.038593185529350246,0.717516966383014,0.972786726574988,0.0,0.0,0.0,0.0
0.022775512225194527,0.012459972314060522,0.7277587111595828,-0.0029709145147225496,-0.5253142309618279,0.003771706576795356,0.8508947682559977,0.10897459109226186,-0.8181063793099893,0.886687006372312,-0.04144127804502667,-0.8728463702364772,1.0207631224052616,-0.05179292089680399,0.7149335818203184,1.03123295164588,-0.026600318273482464,0.698801769559773,1.0068292195587858,0.0,0.0,0.0,0.0
0.023994530590617857,0.012737782127898962,0.7298906585764648,-0.002669927171513342,-0.5251011664859827,0.003365014879943568,0.8510289731371176,0.1093277836595409,-0.8184803531651179,0.8973551254343792,-0.04122772659882694,-0.8732150813819234,1.0296032805173314,-0.05970232677239043,0.7300520833918696,1.0114300887895475,-0.017348849163335216,0.6851400403172911,1.0348280160031496,0.0,0.0,0.0,0.0
0.02520950626316752,0.01330791523860524,0.7319185774858925,-0.002572943213495675,-0.5250179746841845,0.003230325736974955,0.851081119058207,0.1083012737634342,-0.8199529198414713,0.9091913972057144,-0.042393142259108396,-0.8715457532258379,1.0360019294075349,-0.06650153553314964,0.7444430135028142,0.9929247487319699,-0.011932758977404773,0.6749404217214806,1.0586340839151973,0.0,0.0,0.0,0.0
0.026334979623739273,0.014143222701677326,0.7337239174196141,-0.0026038984508494857,-0.5249603355018423,0.0032928493840876376,0.8511163392895148,0.10614171180186611,-0.8227212565543878,0.9217570603532572,-0.04471311138693287,-0.8687735890028045,1.0402527205824477,-0.07305687340479079,0.7572363984573743,0.976886651743183,-0.008481606130302927,0.6672117882818751,1.080212932745973,0.0,0.0,0.0,0.0
0.02734017145790079,0.01515247433779185,0.7353250988267264,-0.002705433300594693,-0.5248906898262231,0.003445041560112272,0.8511583730734585,0.10333448118996565,-0.8262433950132291,0.9343068219034202,-0.04768535802505139,-0.8654356109390364,1.0428359962368814,-0.07986691650221515,0.768554254483446,0.9631075774297344,-0.006417298034714392,0.6610737580307846,1.1005968936388169,0.0,0.0,0.0,0.0
0.02815931763229191,0.016201878031318454,0.73676652285814,-0.0028277612032262494,-0.5248300190229203,0.0036198072468024245,0.8511946615754088,0.10034035977298988,-0.8293801873853103,0.9453173579328356,-0.050795274736573255,-0.8615262942267755,1.0437002234835744,-0.0866806847080471,0.7785341593243292,0.9510580490464781,-0.004886436206271799,0.6557088615214461,1.120469875919787,0.0,0.0,0.0,0.0
0.028803813477476424,0.017201459108884327,0.7380747892863464,-0.0029462385002444564,-0.5247790397644173,0.003776218980145341,0.8512250109535373,0.0974850643869845,-0.8317778572606388,0.9544418951760972,-0.05371043295436569,-0.8573570354335971,1.0433524560435559,-0.09322952239251972,0.7873754093363529,0.9402894798079257,-0.0036029966256487887,0.6507134597147678,1.1400766829468127,0.0,0.0,0.0,0.0
0.02930815612857046,0.01810280565746689,0.7392572054927355,-0.003051083906886467,-0.524736012528945,0.0039019980488453837,0.8512505990913857,0.0949297035885399,-0.8334560781502482,0.9618228904533791,-0.056281896061046555,-0.8532372720376579,1.042323366763584,-0.09926172501950659,0.7952028602302155,0.930575711345731,-0.002369268643102486,0.6459731172463778,1.1594424257178195,0.0,0.0,0.0,0.0
0.029704725322645047,0.018882835512427115,0.7403073445459131,-0.0031390199511401934,-0.524699755391421,0.00399488804914431,0.8512721974288859,0.09274755524943445,-0.8345522618554201,0.9677126298328675,-0.05845237110749347,-0.8494144418522962,1.041022403169943,-0.10462265876319914,0.8020641178436883,0.9218890396796966,-0.0010363192294942812,0.6415165098819113,1.1783073006059934,0.0,0.0,0.0,0.0
0.030005473346876595,0.01953573856019479,0.7412048692371913,-0.003207942821320342,-0.5246683279246087,0.004054803860539623,0.8512910274056122,0.09095803242256936,-0.8352021830645635,0.9722659823056329,-0.06021439042469557,-0.8460469823514724,1.0396375921850136,-0.10928381661760521,0.8078799461599406,0.9144225627116978,0.0005731780518977965,0.6374496307144092,1.1959614429256091,0.0,0.0,0.0,0.0
0.030191429489667913,0.02007255022176809,0.7419133795033949,-0.0032539210851740756,-0.5246353202060021,0.004080571400442149,0.8513110722450183,0.08953356456157834,-0.8355126383155381,0.9754664305864749,-0.06160083024369522,-0.843200457077927,1.038078794723366,-0.11337786379680274,0.8123944114530165,0.9086322408090649,0.0027596939367192097,0.6340094162952303,1.2109575638730212,0.0,0.0,0.0,0.0
0.030214500811856018,0.02052515611282297,0.7423828069483431,-0.003269859862392797,-0.5245840096371588,0.00406913366464093,0.851342684822452,0.08839237238842437,-0.8356046264145572,0.9771879769262236,-0.06269425083225375,-0.8408734793200517,1.0360052363220904,-0.11723985048904415,0.815179703285696,0.9052163771773124,0.006038468670693592,0.6318250468352736,1.220677673725007,0.0,0.0,0.0,0.0
0.030022484384519984,0.02094386010086756,0.7425739627197367,-0.0032479726003031948,-0.5244859218240476,0.004018288228601709,0.851403442465485,0.08740312945235115,-0.8356566473728532,0.977385167029209,-0.06362684766793612,-0.8390256450071965,1.0330055320703475,-0.12133891024691953,0.8158262150939656,0.9048047111092921,0.01110856111233749,0.6324091581838371,1.221001830304649,0.0,0.0,0.0,0.0
0.02958639916609974,0.021356470386021117,0.74250184501312,-0.0031901233933385163,-0.5243342835901007,0.003930448079246475,0.8514974654939892,0.08648370709713137,-0.8356122675658312,0.9759411551108008,-0.0644711161204904,-0.8374410384459166,1.02872588586001,-0.1258288657017506,0.8142924128366059,0.9073764062264077,0.01794966107267862,0.6357017908623831,1.2118889183214958,0.0,0.0,0.0,0.0
0.02890031631271851,0.02176818274846258,0.7422361979038342,-0.0031062753755817024,-0.5241422792876127,0.0038119851683936397,0.8516165163297111,0.08560286541593674,-0.8351809272269151,0.9726674934150012,-0.0652393108757121,-0.8357367820308571,1.0228761793833865,-0.13056353824236358,0.8109119941892642,0.9122428491321476,0.025862539637125776,0.6400892288605582,1.1973725009585177,0.0,0.0,0.0,0.0
0.027956027393040532,0.022201462948156822,0.7418591674827296,-0.003003210611407207,-0.5239097461181181,0.0036688242626997177,0.8517605874757307,0.08468571813060456,-0.8341268625915763,0.9674597032946062,-0.06598942130103491,-0.8335057240047296,1.0151168595545148,-0.13554591803846272,0.8060581917675694,0.9186109802512239,0.0343861769904855,0.6448373026151872,1.1800159219996642,0.0,0.0,0.0,0.0
0.026723243828060746,0.022695625601799146,0.741439575978844,-0.002881666884660174,-0.5236263941006217,0.003503161336529161,0.8519359267326366,0.08361894787241016,-0.8322339861515174,0.9601310763498823,-0.06681659060921095,-0.830309654216353,1.0049204542074168,-0.14097128815498466,0.7999617610906992,0.9258978353937936,0.04336117780091808,0.6495831469180873,1.161274079663789,0.0,0.0,0.0,0.0
0.02515674836999623,0.023296715860532693,0.7410271292762468,-0.0027362164622756805,-0.5232783749281438,0.003312703116694988,0.8521509733903336,0.08228023636083596,-0.8292880744070561,0.9503992366023433,-0.0678248467920309,-0.8257123020314729,0.9916351590680879,-0.14714955511604172,0.7927182679003926,0.9337520000888114,0.05293027441872915,0.6540768232224022,1.1419807768503962,0.0,0.0,0.0,0.0
0.02322180525212956,0.024046599868866383,0.7406492204131854,-0.002555392526604756,-0.5228516853939915,0.0030900129913191913,0.8524142401845543,0.08057379312378823,-0.8251481812791169,0.9380438336554366,-0.06909967367170301,-0.8193997400551715,0.9747175417160484,-0.15443003041173858,0.7843659041842074,0.942003557768054,0.06361860091745197,0.6581665085725157,1.1227419027886105,0.0,0.0,0.0,0.0
0.02093661502106492,0.024972703469131708,0.7403015450011682,-0.0023218600951589383,-0.5223299205062708,0.002821965950100058,0.8527356563541763,0.07846781173741965,-0.8199587896226253,0.9232755609878727,-0.07068731261290469,-0.8114356561444973,0.9541691635048297,-0.16315284295327195,0.7749765587265872,0.9506469948902737,0.07658597595638097,0.661988824748875,1.1042791582145137,0.0,0.0,0.0,0.0
0.018429962766649752,0.026070451213742626,0.7399250190408267,-0.0020081693637817493,-0.5216709037833926,0.002479610617652807,0.8531408365169313,0.0760782624336158,-0.8145814115457806,0.9073795246190403,-0.07254237995055351,-0.8028278895105456,0.9313586078459669,-0.17366171289859433,0.7646906448982236,0.9599008478608192,0.09414509701361162,0.6663628864217761,1.087674021558546,0.0,0.0,0.0,0.0
0.01601338183536585,0.027228045564513092,0.7394039619652608,-0.001558638792166267,-0.5207566655744799,0.0019634722580483066,0.8537014763262136,0.0740110439296998,-0.81097835138807,0.8933856137672685,-0.0742294429994097,-0.796585661063046,0.9105687229840019,-0.18627781574406763,0.753897621531445,0.9698814933669635,0.12060726896510882,0.6731978674159427,1.0741927138227108,0.0,0.0,0.0,0.0
0.01402495436614037,0.02826523075330828,0.7386899035290583,-0.0009256012465929185,-0.5195060856374513,0.0011833602762330625,0.8544654293220072,0.0730072775727934,-0.8108070931751246,0.8842675513008067,-0.07516151725317245,-0.7958053456520306,0.896725926847818,-0.20068654927778518,0.7433773483219814,0.9799645461014876,0.16107840053356812,0.6834129052735213,1.0655923660968682,0.0,0.0,0.0,0.0
0.012668297761917989,0.02900392020554355,0.737863453008991,-0.0002749272888789263,-0.5180822005684999,0.0002690077304657963,0.8553307462636471,0.07327681745902508,-0.8140504317968754,0.8809054238997922,-0.07511680934878909,-0.8004971528235078,0.8915067243731521,-0.2136475686842325,0.7339290401934269,0.9889131852838783,0.20858777798687722,0.6925545164730336,1.0641970481054195,0.0,0.0,0.0,0.0
0.012678357332928903,0.02901941017816983,0.7378389990861148,-0.00024325251036159094,-0.5180780697359165,0.00024671010841021963,0.855333264652466,0.07329558923750022,-0.8140590072652872,0.880898858712533,-0.07510700504386558,-0.8005389287297815,0.8914221817984767,-0.2136533989194482,0.7338701466702645,0.988867006955086,0.20858358562595392,0.6925673852716082,1.0641952476230367,0.0,0.0,0.0,0.0
0.012678357332928903,0.02901941017816983,0.7378389990861148,-0.00024325251036159094,-0.5180780697359165,0.00024671010841021963,0.855333264652466,0.07329558923750022,-0.8140590072652872,0.880898858712533,-0.07510700504386558,-0.8005389287297815,0.8914221817984767,-0.2136533989194482,0.7338701466702645,0.988867006955086,0.20858358562595392,0.6925673852716082,1.0641952476230367,0.0,0.0,0.0,0.0
0.0119567659041512,0.029045334982742692,0.7380246856635784,-0.00020882485253967477,-0.5187425068291791,0.00023858087879468945,0.8549304714887195,0.07298545883238054,-0.805870282602096,0.8697237299535,-0.0749160630369856,-0.7924186613829047,0.8801928939462149,-0.2144512191884035,0.7345827433337262,0.9892326130038586,0.2085395404477082,0.6931031392743957,1.0645226248122075,0.0,0.0,0.0,0.0
0.011371455315043114,0.029133407986317843,0.7380312225788884,-0.00022377009379776676,-0.5191148781885732,0.00029107087416780974,0.8547043982851347,0.07247369235810824,-0.8009503891571853,0.8621017401800958,-0.07510374817788215,-0.786834039674782,0.8716654879015507,-0.21460149544439241,0.733762917531972,0.9907257026337588,0.20840860033806874,0.6924877121566863,1.0655871286980616,0.0,0.0,0.0,0.0
0.011270359067253564,0.02926898942985677,0.7379848173530574,-0.0002617891293114331,-0.519342847988138,0.00035063226844704267,0.8545658633288798,0.07194767525411956,-0.7997357122210774,0.8605010417996999,-0.07552341209708946,-0.7845190563756274,0.8685606131509827,-0.2154052973873788,0.7339105343402776,0.9920460342351349,0.20852553975679938,0.6928617350175333,1.0662115390311373,0.0,0.0,0.0,0.0
0.011721974890361659,0.029500825892576764,0.7379142402697255,-0.0003223380966753975,-0.5195051244558025,0.0004180806184513907,0.8544671713827916,0.07127528358659078,-0.8022181685166948,0.8654357868203743,-0.07629512181065547,-0.785181262824532,0.8709460283390782,-0.21755053655983853,0.735725411209779,0.9931348396026851,0.20878082455950395,0.6948310095034628,1.0660965135577003,0.0,0.0,0.0,0.0
0.012767483611929881,0.029867743963979364,0.7378421880546919,-0.0004087380396648821,-0.5196425421951071,0.0004948479188285641,0.8543835300377451,0.07035195607385576,-0.808372899603429,0.8771504370258217,-0.0775184239080134,-0.7885739280865294,0.8787362616029974,-0.22153065019879625,0.7396596229768718,0.9938996974442448,0.20904373466215453,0.6987675670853013,1.064956349719946,0.0,0.0,0.0,0.0
0.014441143705996183,0.030389890250057085,0.7378514655678158,-0.0005216913015768435,-0.5197878516804988,0.0005706171640544642,0.8542950260183011,0.0691431143408343,-0.8178236048591455,0.8954998903480029,-0.07921509724384805,-0.7942766078710359,0.8917060851879103,-0.2278109488045069,0.7464432312785882,0.9936052447805691,0.20913850285198163,0.7052332587999445,1.0619798266986444,0.0,0.0,0.0,0.0
0.01683187446487131,0.03106434832156914,0.7382731296100726,-0.0005981568925002449,-0.5201013862497296,0.0005522233466376793,0.8541041419398555,0.06782174341822614,-0.8285498470592694,0.9193658560906207,-0.0811388915395058,-0.8008647599090043,0.9092773294931412,-0.2382519368811448,0.7589540104971448,0.9893473603513874,0.20811745690912334,0.7161799148429198,1.0543151141287372,0.0,0.0,0.0,0.0
0.019398409971731118,0.03218817410917963,0.7396872903914102,0.00036614855716556765,-0.5211214968686134,-0.0006281365258773971,0.8534821948237437,0.0676381265545011,-0.8299744505834677,0.9377430729950593,-0.08166071693314617,-0.8033813568765031,0.9238685055700051,-0.18227675108236585,0.7338688892097927,1.0143726824186283,0.18608579725584523,0.7287042172445193,1.0366277580048926,0.0,0.0,0.0,0.0
0.02195302957908346,0.033404760148216465,0.7409505242281665,0.001141970710989601,-0.5220694555178499,-0.0015656009343764624,0.8529007728991136,0.06665505868343939,-0.8328660103815119,0.9570743492266939,-0.0830001349577597,-0.8055032734517287,0.9375771692197415,-0.13550284111449484,0.713647410688235,1.0359032900360385,0.16538880333247882,0.740961333246023,1.0193355628330474,0.0,0.0,0.0,0.0
0.02424363859031492,0.03446717910234734,0.7419883355528362,0.0016024810162400924,-0.5227607356237686,-0.002124855549086797,0.8524752960253947,0.06524487751019868,-0.8371477231687507,0.9754937480690115,-0.08477937369364262,-0.8076000643300317,0.9499399780519773,-0.1047237450759085,0.6994514934521915,1.055672981016053,0.15022198998776465,0.7521576960791364,1.00411905662158,0.0,0.0,0.0,0.0
0.026141662601391166,0.03529515839937153,0.7428585763233876,0.001875896426142834,-0.523255615446811,-0.002460908091274355,0.8521701624953456,0.06393401609478727,-0.8411340255735945,0.9908966733707123,-0.08641394889927698,-0.8093315163048205,0.9602393270860927,-0.08441860336271335,0.689146684980982,1.0747809413787526,0.13951603535721493,0.7618462461136939,0.9911762644980872,0.0,0.0,0.0,0.0
0.02764198727654814,0.03589255189197087,0.7436396017026375,0.0020598967968382094,-0.523616002769257,-0.0026867772150553407,0.8519476625341069,0.06294632320705856,-0.8439970335705125,1.002752707450077,-0.08765147035909128,-0.810505699114316,0.9683940603275079,-0.06977860615531495,0.6809915691855714,1.093611129596196,0.13187692771493317,0.7700876362321891,0.9800240901731508,0.0,0.0,0.0,0.0
0.028800846273839505,0.036300568759145224,0.7443864467609486,0.0022070642782137835,-0.5238831673094939,-0.0028630374425429443,0.8517824598415062,0.062306673071631055,-0.8455893929418188,1.0114309524797598,-0.08846553489730719,-0.8111059807742397,0.9746797140271817,-0.057965109272549074,0.6739414623938828,1.1122868165127053,0.12622188974174112,0.7771405353386832,0.970082663722105,0.0,0.0,0.0,0.0
0.029693890139853605,0.03657496220167776,0.7451215786876054,0.00234121338137628,-0.5240849490098797,-0.003018281018347705,0.8516574281487298,0.06193903101055738,-0.8461189627603536,1.017645308335099,-0.08894457605477853,-0.8112119982089472,0.9794715073329989,-0.04751714601744078,0.6674590775309834,1.1308187612685427,0.12175532080564802,0.783263903012585,0.9609300433326402,0.0,0.0,0.0,0.0
0.03039257230374691,0.03677482406582644,0.7458388222296253,0.0024702344021733593,-0.5242416204722217,-0.00316347514405273,0.8515601057656883,0.06172263949605099,-0.8459430927711901,1.0221587335310462,-0.08922630265490666,-0.8109358205658891,0.9831006000083544,-0.03775937186830312,0.661313771380934,1.1491036432204242,0.11788727185452844,0.7886249212098859,0.9523739430743424,0.0,0.0,0.0,0.0
0.030950925132676454,0.036955954768640394,0.7465092415157539,0.002593556723314526,-0.5243686033177337,-0.0032999229632132677,0.8514810343316925,0.06152452288001829,-0.8454512042695179,1.0256281025291494,-0.08945970570573483,-0.8103840050190384,0.9857812299634799,-0.028444874555632937,0.6554480331953739,1.166832857328322,0.11418412728900394,0.7932571022956197,0.9444631062025133,0.0,0.0,0.0,0.0
0.03139757486830226,0.0371651224893345,0.7470846211173261,0.0027060621276963387,-0.5244770517995692,-0.0034234530590209755,0.8514134009589853,0.06122256245654499,-0.844998381770084,1.028512337293283,-0.08977905053627777,-0.8096442331144587,0.9875793487767702,-0.019587968457045066,0.6499211914012286,1.183308342632648,0.11035947352565874,0.7970334559249262,0.9375002135859661,0.0,0.0,0.0,0.0
0.031731672298350506,0.03743349087956734,0.747498870193098,0.0027998454137170715,-0.5245727568945252,-0.003526434683539296,0.8513537148848059,0.06072660970574165,-0.8448721058668429,1.0310193007211497,-0.09028179253739317,-0.8087964402630455,0.9884193568082392,-0.01142185737910745,0.6449631968299904,1.1971347003855384,0.10630318478112943,0.7996502892540364,0.9320632575270138,0.0,0.0,0.0,0.0
0.03192693698256518,0.03777028544788256,0.7476734009502476,0.0028647178410187986,-0.5246533677939645,-0.003598510049557247,0.851303522710652,0.05999690450588391,-0.8452915337310954,1.0331229315195494,-0.09101166391176885,-0.8079468777388502,0.9881540599361252,-0.004416238265261261,0.6412254486187818,1.205759902197168,0.10212849170737925,0.8006617913633066,0.9289649657585362,0.0,0.0,0.0,0.0
0.0319556712616466,0.03816500512423924,0.7475433807671953,0.0028900722702914785,-0.5247076224161064,-0.0036298041005451624,0.851269864956408,0.0590461264505812,-0.846424290319337,1.0347325106167113,-0.09196060802881002,-0.8072484246198082,0.9867270296097034,0.0007807050021021705,0.6402589280177182,1.2051080116683979,0.09811107258759945,0.7996764514816054,0.9289350758062792,0.0,0.0,0.0,0.0
0.03181563443849841,0.03862739593112889,0.7470977469735424,0.0028744995580268096,-0.5247388165693616,-0.003618232071126426,0.8512507386395363,0.05784426204820333,-0.8483081352029809,1.0358681307249271,-0.09315726313791906,-0.8066719891571842,0.9840653276820127,0.004189101432991596,0.642081247518395,1.1952101247519502,0.09420333586260203,0.7966400367396783,0.9320628575347439,0.0,0.0,0.0,0.0
0.031531087923876655,0.039189107532429664,0.746378249999393,0.0028259514906927505,-0.5247638957237029,-0.0035705681762632138,0.8512356423376277,0.0563171740667814,-0.8508623154149587,1.0366758439112007,-0.09466893202188564,-0.8060149876177448,0.980085595540261,0.006492490794580812,0.6451739490606228,1.1801771146723194,0.09000711677106102,0.7918311996120467,0.9377834538320944,0.0,0.0,0.0,0.0
0.031127439598230437,0.03986505157477276,0.7454401670546172,0.0027526739982226913,-0.5247903286715472,-0.0034955056592123686,0.8512198982394945,0.054438823995732744,-0.8539683696970478,1.0372640829824133,-0.09651620242408057,-0.805128615039707,0.9748047197492855,0.008201196988433994,0.6488988736068342,1.1625687055400202,0.0852424699605582,0.7855878139806464,0.945416566430449,0.0,0.0,0.0,0.0
0.030610478757830798,0.04065029692859206,0.7443265549607967,0.002662652737033831,-0.5248185021307343,-0.0034013817239774056,0.851203195896269,0.05223367260559207,-0.8574536688769328,1.037551244961123,-0.09866750345383206,-0.8039079575406197,0.9682051965165762,0.009630403561210976,0.6530340740945284,1.1437520342758294,0.07980625747637195,0.7781223228061811,0.9544895403658824,0.0,0.0,0.0,0.0
0.029967954477600332,0.04152248196491026,0.7430634395365411,0.0025655180817160013,-0.5248462660787614,-0.0032981035623797666,0.8511867818599195,0.0497750844763441,-0.8610895048552865,1.0372702088524437,-0.10104135895968294,-0.802291002019587,0.9602298559612155,0.010991106336678911,0.6575505053167319,1.124349649572182,0.07372837099271451,0.7695062842937556,0.9647822401804111,0.0,0.0,0.0,0.0
0.02918180080048717,0.04243962129625796,0.7416609506722701,0.002475037634437492,-0.5248726668880347,-0.0032002069875512254,0.8511711440232141,0.047199310336233945,-0.8646041870543939,1.0360368597314566,-0.10349666048112602,-0.8003038929949395,0.9508859913879604,0.012485670603322884,0.6625881001493898,1.1045372806255676,0.06715522632947285,0.7597228095884699,0.9762995324177435,0.0,0.0,0.0,0.0
0.02824680415586329,0.043330201677962116,0.740114157343047,0.0024134419401842327,-0.5249002576794534,-0.0031373646894068442,0.8511545404501173,0.044759336054081826,-0.867699343303194,1.0334416817334686,-0.10578731222438621,-0.7981860544734216,0.9404681787675603,0.014351006105251791,0.6685409845072753,1.084225233027866,0.06031643697021193,0.7487160576325602,0.9892503570971092,0.0,0.0,0.0,0.0
0.02722382669288534,0.04408481871462575,0.7384125114343786,0.002414786275122429,-0.524931309517591,-0.0031466089035562935,0.8511353523076106,0.04282886395979506,-0.870262167006769,1.0294871137233923,-0.10757823723674535,-0.796650188360933,0.9300995252938802,0.017321327788070412,0.6761679107574564,1.0629925260078226,0.053649321685473476,0.7366366523528841,1.0038962639920117,0.0,0.0,0.0,0.0
0.026142135924123476,0.04462985379324095,0.7365666236238063,0.0025258216905629577,-0.5249869637607002,-0.0033102136767370156,0.8511000825940055,0.04179836566571407,-0.8718680447422539,1.0238572637510928,-0.10850035434984413,-0.7961248127952166,0.9204475180710993,0.02172086737575489,0.6862211530537999,1.0400505670280902,0.04674816344811402,0.7234635319570714,1.0202213473212352,0.0,0.0,0.0,0.0
0.025073344067305242,0.04493031780352103,0.7346892943111144,0.0028045838321688896,-0.5251153837815237,-0.0036932971391882424,0.8510184061357035,0.04190024005658179,-0.8719084393112364,1.0164795373520255,-0.10832545740098995,-0.7966466977842995,0.9121116341749853,0.02871147688617474,0.6993731590846157,1.0138221826796434,0.03896096033148335,0.7098453498144108,1.037166647265496,0.0,0.0,0.0,0.0
0.024271471465594045,0.04502224129457017,0.733201548417933,0.003284948830632106,-0.5254071008092452,-0.004310019648125048,0.8508337153998051,0.04304498011670036,-0.8696987355327407,1.0086566021890098,-0.10712385776967245,-0.7975693591556943,0.9063003818077803,0.03773611246614385,0.7160436091630012,0.9830207654917106,0.029646838657704906,0.6986092930973496,1.0506731765423951,0.0,0.0,0.0,0.0
0.024282621245755084,0.04502606984714997,0.7331722875888582,0.0032902799595025357,-0.5254145743421246,-0.00431224015374904,0.8508290684453185,0.04304188998440915,-0.8697284386300512,1.0086571677306688,-0.10712978684472076,-0.797580793127275,0.906258955613807,0.037741301102954705,0.7160544364612724,0.9830174318453203,0.029634286144111625,0.6986085380534338,1.0506828768016068,0.0,0.0,0.0,0.0
0.024282621245755084,0.04502606984714997,0.7331722875888582,0.0032902799595025357,-0.5254145743421246,-0.00431224015374904,0.8508290684453185,0.04304188998440915,-0.8697284386300512,1.0086571677306688,-0.10712978684472076,-0.797580793127275,0.906258955613807,0.037741301102954705,0.7160544364612724,0.9830174318453203,0.029634286144111625,0.6986085380534338,1.0506828768016068,0.0,0.0,0.0,0.0
0.02490795196280293,0.04517373083756162,0.7332049685687153,0.0030012995824736095,-0.5252185824533143,-0.003936639881470549,0.8509529574030463,0.04189230914034388,-0.8749817634653563,1.0164943187760571,-0.1018934896563356,-0.8074725502739718,0.8996615695103445,0.0415665355189703,0.7161297138499775,0.9815403562225465,0.033741424548899626,0.701835040298528,1.049021480107645,0.0,0.0,0.0,0.0
0.025774889153243368,0.04560584481770707,0.7331535812524449,0.0027577678637700086,-0.5251454038090764,-0.003525640442679196,0.8510007458481341,0.039877474493397534,-0.8815631039055105,1.0269100782769953,-0.0947079869796516,-0.8217327809406694,0.8924237606468638,0.04323943402130091,0.7171104549872221,0.9816958139907921,0.035526825817172085,0.7055356229513292,1.0471186437204025,0.0,0.0,0.0,0.0
0.02663668575987761,0.04617077959259503,0.733044573057409,0.002551151617545574,-0.5251945761028423,-0.0031797212813957634,0.8509724074434803,0.03764588452510334,-0.8877214907250149,1.036990806155722,-0.08856556873532435,-0.8375477884860653,0.886310081738909,0.043200364796063866,0.7185077687111474,0.9831383674022217,0.035418860607952005,0.7089013441418675,1.045441133457763,0.0,0.0,0.0,0.0
0.027359489709159888,0.046751443612516784,0.7329386645752836,0.002375527595554847,-0.5253042528333309,-0.002902775956268999,0.8509062067675887,0.03551298882753704,-0.8927435047442944,1.0454097434743104,-0.08413164835242101,-0.8534855890503711,0.8811478750121583,0.042269919598806084,0.7199429039877562,0.9849747979024416,0.03432306836892288,0.7116994427487099,1.0439027851026557,0.0,0.0,0.0,0.0
0.027888156537710818,0.047292409963135544,0.7328580872234166,0.0022251219077183523,-0.5254378840824547,-0.002682579066529985,0.8508248248452794,0.03359864109048253,-0.8964400394151926,1.0517198615429606,-0.08103448354498095,-0.8691416857518215,0.8764621413624574,0.040963762241152044,0.7211539926130929,0.9868156951247015,0.032822631825922585,0.7138438357320729,1.042522193981922,0.0,0.0,0.0,0.0
0.02822044922624736,0.04777577830902721,0.7328086249009975,0.0020948889037260858,-0.5255759557767011,-0.002503669048302843,0.8507404173960378,0.0319175614121629,-0.8989034514456243,1.055994099327108,-0.07867020441340283,-0.8845363275207484,0.8717995956867214,0.039570213525315666,0.7220264990763415,0.9885095701190841,0.031243855040236402,0.7153733052027174,1.0413022248096726,0.0,0.0,0.0,0.0
0.028384948994579176,0.04820036544298482,0.7327921226122746,0.0019810165455389933,-0.525708442790338,-0.002352783518230469,0.8506592579653268,0.030445282163261644,-0.9003457673838163,1.0585624195711454,-0.07653618186507774,-0.899764194804286,0.8668331632890541,0.038242381839802185,0.7225736235243945,0.9899698749840506,0.02975663128241591,0.7164149416718694,1.0401923060993028,0.0,0.0,0.0,0.0
0.028419085743797017,0.04857133343092596,0.7328073673310707,0.0018806605978891452,-0.5258296147383774,-0.002219891292212495,0.8505849466469859,0.029147437012919872,-0.9010038950746001,1.0598144993843936,-0.07429797018521157,-0.9147973278928754,0.8613936665379838,0.03705589218503341,0.722854658243501,0.9911532920077237,0.028441455160627127,0.7171060486740027,1.0391348163393672,0.0,0.0,0.0,0.0
0.02835244094807094,0.048897159770673986,0.7328513818628895,0.001791471716504147,-0.525934458014395,-0.002097579923752173,0.8505206268284485,0.027986048033494363,-0.9010805504343345,1.0600717929688677,-0.07174705548391698,-0.9293245792205421,0.855508158812583,0.03603106781838725,0.7229130079571489,0.9920574226062759,0.027317363170262076,0.7175377312498334,1.0380844089105767,0.0,0.0,0.0,0.0
0.028195316758347664,0.0491918585103864,0.7329230144889561,0.0017107509913567931,-0.5260165311149452,-0.001980044056975215,0.8504703179714022,0.026911239010851587,-0.900705483196534,1.0595120582742712,-0.06875290689713366,-0.9425843684934357,0.8494900114666306,0.0351238236564436,0.7227472533688377,0.9927107887121168,0.02633482375565138,0.7177269993241961,1.0369854918682724,0.0,0.0,0.0,0.0
0.027930463191432258,0.049481252571267946,0.7330251025103769,0.001633734934056018,-0.5260682082611319,-0.0018618602236071746,0.8504387718369826,0.0258422518160602,-0.8999109781255935,1.0581228484386742,-0.0652634904968841,-0.9532433291969241,0.844083967151907,0.03419526944109075,0.7222938619036935,0.9931879156896617,0.025344552370734384,0.7175988483817164,1.0357473958331647,0.0,0.0,0.0,0.0
0.027511628942477287,0.04980790349294387,0.7331653420020493,0.0015518108643286688,-0.5260850008295886,-0.0017372460298956383,0.8504288011123592,0.024653662908806814,-0.8986130788845105,1.055686019539584,-0.06134752432807415,-0.9594960113312997,0.8405801576858467,0.03299401607276232,0.7214373036076106,0.9936262130182063,0.02407918673654072,0.7170002005617492,1.0342295464206657,0.0,0.0,0.0,0.0
0.02687686192002752,0.050223084742087414,0.7333550092906361,0.001453141663478062,-0.5260743494905188,-0.0016005925632374643,0.8504358325534501,0.023198808133031195,-0.8966017229975057,1.0518145105218457,-0.05717575309658432,-0.9597216105133042,0.8405932662456636,0.03122519415542608,0.7200650133074591,0.994200199034577,0.022228286388500124,0.7157787600467846,1.0322693541819568,0.0,0.0,0.0,0.0
0.02597400492803326,0.050751415160620525,0.7335922513325348,0.001331264749263959,-0.526033414980608,-0.0014473664395069036,0.8504616271110629,0.021404876100891247,-0.8937275608534554,1.0461534022586643,-0.052833080673843735,-0.9539175751051259,0.8440620736648191,0.02877543420017084,0.7179922747331952,0.9950692619560798,0.019685051201820986,0.7137596341876491,1.0298646655838928,0.0,0.0,0.0,0.0
0.02477581927686035,0.051381134677417374,0.7338757462383474,0.0011888664725449643,-0.5259472607959516,-0.0012767284340876265,0.8505153939948714,0.019303460004059143,-0.8899021555523366,1.0384569703206605,-0.04828241597947728,-0.9437003830801305,0.8492904609091654,0.025746345550000924,0.7150756820283439,0.9961950910205568,0.016578699039772805,0.710847415246017,1.0270558573560296,0.0,0.0,0.0,0.0
0.023261912806930005,0.052083167864822054,0.7342258291361561,0.0010310656126388317,-0.5258139421170978,-0.0010938890401292545,0.8505982827314829,0.016986839798081806,-0.8848637291118909,1.0283588157465016,-0.043515658455789086,-0.9309008959529399,0.8549761557298416,0.02232821993063274,0.711339309192927,0.9972891496709934,0.01312779525367331,0.7071122146510265,1.023743636776352,0.0,0.0,0.0,0.0
0.02139894109000313,0.0528335769106702,0.7346601657424561,0.0008614877921196787,-0.5256339361183527,-0.0009046394530464142,0.8507099415587968,0.014536573026613896,-0.8782870068853755,1.0153632859577177,-0.03860500615145218,-0.9169021971920389,0.8603651585690133,0.01867963376267866,0.7067694008879175,0.9981179677447296,0.00950861060633286,0.7025788512020966,1.0198448079075062,0.0,0.0,0.0,0.0
0.01915017190916475,0.05361104188546904,0.7351921725046021,0.0006833729738700657,-0.5254068636781367,-0.0007153763574826177,0.8508505443601418,0.012030132861417624,-0.8698331928110556,0.9989196658172872,-0.033619506266448974,-0.9025363256931811,0.8651813445363155,0.014938652950840523,0.701331881820509,0.9984842403625966,0.005867283580127616,0.6972444930614438,1.0152906870742842,0.0,0.0,0.0,0.0
0.01649680915294915,0.05439545684613089,0.7358207655036897,0.000499924551435897,-0.5251326255519959,-0.0005312344719981188,0.8510200899192956,0.009539443028817682,-0.8592638886982786,0.9785978060461096,-0.028551119038335543,-0.888179462923613,0.869520941169574,0.011245842753207084,0.6949926089204352,0.9982811071736812,0.002342893326870317,0.6911113836297734,1.0100946887875206,0.0,0.0,0.0,0.0
0.013469114080134148,0.0551740715040603,0.7365025977832091,0.0003124148459874573,-0.5248170821814075,-0.0003516862922335073,0.85121490175179,0.007103437989440804,-0.8466646120893705,0.954404414706734,-0.023291125725299476,-0.8738719497240428,0.873783123254887,0.0077373802787109435,0.6876898413754118,0.9977344487494927,-0.0009417933374519156,0.6841748430950404,1.0045625918622192,0.0,0.0,0.0,0.0
0.010193751201206684,0.05594673701398826,0.7370967673491282,0.00011710376046039143,-0.5244830415078056,-0.00016475089034978502,0.8514208702601639,0.004699672857466578,-0.83283207131017,0.927317773509361,-0.01768289997404836,-0.8594421878472338,0.8785756624213937,0.004555809987880497,0.6792197249511049,0.9979060221695354,-0.0038714399536228868,0.6763291549278503,0.9997772730620966,0.0,0.0,0.0,0.0
0.007138278073514243,0.056727422292610734,0.73746613799303,-7.092928461678778e-05,-0.524056636388775,1.8678330516825954e-05,0.8516834132921925,0.0023193812926626894,-0.8208465718433188,0.9022504299453762,-0.012096336002949066,-0.843857670716151,0.8830086831735573,0.001413717588021589,0.6702548761738036,0.999393169815977,-0.006766698933092915,0.6680898170019073,0.9962296651855741,0.0,0.0,0.0,0.0
0.004550828367627595,0.05729856198332109,0.7374778772887776,-0.00021869516581722362,-0.5236371731264099,0.00016981501757087255,0.8519413326370933,0.0005633236284292788,-0.811355433515681,0.8806929956626569,-0.006560484586303168,-0.8291904315865084,0.8874399417058585,-0.0005637023053976994,0.6611336197352575,1.002695727011356,-0.00853736850674708,0.6597564557105748,0.9958812059546382,0.0,0.0,0.0,0.0
0.00285505813579583,0.057619561224823306,0.737259223278011,-0.00031981784440385794,-0.5232512580753914,0.00027823109557438655,0.8521783505971763,-0.0004629259999466512,-0.8061241213697836,0.866838379618133,-0.0027141720842453173,-0.8187195292609378,0.890263237468207,-0.001333659639933503,0.653786654627485,1.0063067396366976,-0.009177839279306457,0.6530890155709426,0.997508723749268,0.0,0.0,0.0,0.0
0.0028630512106522467,0.0576408856849572,0.7372384868781467,-0.0003368663128102452,-0.5232361515349867,0.00027458034947171737,0.8521876206878244,-0.0004830220898516878,-0.8061507466716143,0.8667128880251624,-0.002727875625876944,-0.8187310719663793,0.890271423440933,-0.0013335681618375102,0.6537321445626154,1.0063525365979682,-0.009174400513450328,0.6531010468143328,0.9974121303432514,0.0,0.0,0.0,0.0
0.0028630512106522467,0.0576408856849572,0.7372384868781467,-0.0003368663128102452,-0.5232361515349867,0.00027458034947171737,0.8521876206878244,-0.0004830220898516878,-0.8061507466716143,0.8667128880251624,-0.002727875625876944,-0.8187310719663793,0.890271423440933,-0.0013335681618375102,0.6537321445626154,1.0063525365979682,-0.009174400513450328,0.6531010468143328,0.9974121303432514,0.0,0.0,0.0,0.0
0.0028630512106522467,0.0576408856849572,0.7372384868781467,-0.0003368663128102452,-0.5232361515349867,0.00027458034947171737,0.8521876206878244,-0.0004830220898516878,-0.8061507466716143,0.8667128880251624,-0.002727875625876944,-0.8187310719663793,0.890271423440933,-0.0013335681618375102,0.6537321445626154,1.0063525365979682,-0.009174400513450328,0.6531010468143328,0.9974121303432514,0.0,0.0,0.0,0.0
0.0027242372422099765,0.05817071948041705,0.737168896472159,-0.00016744201264309942,-0.5232407074233225,4.388916116744745e-05,0.8521849166302199,-0.0012986901316777138,-0.8061479418627002,0.8666673304986153,-0.003554484527840178,-0.8175279816208822,0.8874275792094267,-0.007548771517285903,0.654152610391102,1.009114569417349,-0.015281517674433337,0.6513494310873276,0.995972359279221,0.0,0.0,0.0,0.0
0.0030112668513058516,0.05875714514915499,0.7370438352067865,-5.1272027726639086e-05,-0.5232214860140687,-9.431735666389025e-05,0.8521967290764763,-0.0024799375459426086,-0.8091721220643681,0.871733673078985,-0.0047463900689653305,-0.8185213623186551,0.8887031845706186,-0.013295848719152185,0.6552376795713294,1.012042281689872,-0.02083732068931033,0.6507926808923756,0.9945278081876798,0.0,0.0,0.0,0.0
0.003801492226049402,0.059211855466997386,0.7368937998169137,-1.1469901451630206e-05,-0.5233296907806285,-0.00014353068200108078,0.8521302799542078,-0.0035284228630491957,-0.8141411615432574,0.8809797567537253,-0.005803856114765228,-0.8215298252838253,0.8946347486177157,-0.017186129978682727,0.6576750930867948,1.0144317063061798,-0.02456493146684484,0.6522922353020291,0.9936842484076585,0.0,0.0,0.0,0.0
0.005140823987746166,0.05946316148409174,0.736719914486053,-2.0916965488767945e-05,-0.5235623830361353,-0.00013705428447321092,0.8519873308025928,-0.004190620942297799,-0.8209748253822674,0.8944024614884177,-0.006474289257176913,-0.8270255079429174,0.90596009160109,-0.019113395374793368,0.6617137702387923,1.0159922512660895,-0.02643658384228855,0.6558908962838857,0.9935652046696132,0.0,0.0,0.0,0.0
0.00707007127775619,0.05951769582596064,0.73654279764386,-9.301793440112095e-05,-0.5239412331067415,-5.8804486348504094e-05,0.8517544083480187,-0.004516567234367447,-0.8296434472162103,0.9121201261553054,-0.006809209037215549,-0.8348604211069153,0.9226789841475416,-0.018880074127945255,0.6675949121387948,1.0164838297119823,-0.0263060003273066,0.6619712626012816,0.9939172227661673,0.0,0.0,0.0,0.0
0.009623944553939728,0.05945185135447276,0.736414767563472,-0.0003055913522504882,-0.5245602940274041,0.00017924451966131748,0.8513732274479923,-0.0048869135209638264,-0.8398787118347516,0.9340840351479095,-0.007189878404280718,-0.8439019827786082,0.9437621262642774,-0.015809981654910453,0.6756358818695293,1.0156337202971268,-0.023551019032371997,0.6715422978942083,0.9941446179042716,0.0,0.0,0.0,0.0
0.012831987612429905,0.05941652697767977,0.736427441697046,-0.0008775176061968843,-0.5257059232029507,0.0008639358059774965,0.8506654841282248,-0.006328260340230198,-0.850764966328726,0.9596760480965114,-0.00864081781166979,-0.8510506133249427,0.966363892802467,-0.007279719464376007,0.6861098235681476,1.0131481758409515,-0.015669059573320824,0.6870946813472316,0.9935823476685591,0.0,0.0,0.0,0.0
0.016042675634663252,0.05942280121113277,0.7361197896248722,-0.0009669924364707546,-0.5255637817978075,0.0009089244862489087,0.8507531663439711,0.00717924468963516,-0.8461336683830878,0.9298150359899376,-0.008791724122242044,-0.8678642680875666,0.9968218377262326,-0.006228142931282417,0.6941182620965376,1.0114977444304736,-0.014763951576343384,0.6956667045927061,0.9920464470729125,0.0,0.0,0.0,0.0
0.019151148929252224,0.059730103143272005,0.7356895657049469,-0.001196000720472442,-0.5255733300173864,0.0011866775924863444,0.8507466345234659,0.021171837085288036,-0.8502682094726735,0.9078344772215418,-0.010277529458708972,-0.8819166560038416,1.0231691950613047,-0.004894684404561065,0.7011463809921181,1.0119333927909053,-0.013631278586896393,0.7044698098078855,0.9910611190775525,0.0,0.0,0.0,0.0
0.021841577942043503,0.060252896183115925,0.7352244067809357,-0.0014598427337615236,-0.5256931381440483,0.0015377529295048963,0.8506716338772458,0.03415800698865035,-0.8592574166868502,0.8924269258293838,-0.012525798926670318,-0.8925359963758401,1.0437704525880365,-0.00445317328608289,0.7070370095354255,1.0138787593735095,-0.013370661446951313,0.7122996672049154,0.9902568086497922,0.0,0.0,0.0,0.0
0.023999379704957552,0.060975686533572784,0.734821673133547,-0.0016895535387870316,-0.5257998350322551,0.0018754652063315556,0.8506045858794511,0.04580978226702241,-0.8705008799170874,0.8808152731357126,-0.015302294871656453,-0.9000884540383547,1.0587991861230184,-0.0060094560418728,0.7118785188697256,1.0165222511392764,-0.015026163069344083,0.7184868212180443,0.9887140680787205,0.0,0.0,0.0,0.0
0.025630893035236375,0.06184463355273279,0.7345021290920364,-0.0018671702967030142,-0.5258440064853568,0.0021670660032253966,0.8505762154818631,0.056313067908690825,-0.8826811863153845,0.8710820726991543,-0.018380701996617805,-0.9051501548482737,1.0690347999644083,-0.009643480696203398,0.7157116762262768,1.019536371011899,-0.01864001221770486,0.7228340108118643,0.9864036982769363,0.0,0.0,0.0,0.0
0.026823706166864088,0.06278525602766938,0.7342608755486597,-0.002007061747010288,-0.5258446332419912,0.002414861894621017,0.8505748419955586,0.06601745701282977,-0.8951630093817354,0.8621334759321804,-0.021552956736434262,-0.9082296782784189,1.0754978269768487,-0.014676057443971659,0.7187158748888036,1.0226794179538314,-0.023507038912006523,0.7257127507076742,0.9836126296265272,0.0,0.0,0.0,0.0
0.02769591872677525,0.0637263049807113,0.7340761261910673,-0.002123082542273274,-0.5258293887112301,0.002626670133149757,0.8505833569334074,0.07528952021746269,-0.9076712486471382,0.8533882659256218,-0.024636513102848638,-0.9099150848516525,1.0793450387059724,-0.02032973669340009,0.7210976769337774,1.025796712473308,-0.028849871201390823,0.7275995991666784,0.9807046637080592,0.0,0.0,0.0,0.0
0.028360071686989903,0.06461180540663188,0.733909296159621,-0.002227352926226588,-0.5258204751684274,0.0028104100445344084,0.8505880133107759,0.08440201772844866,-0.9199951433799213,0.8445579257658996,-0.027494823462753344,-0.9107992611871193,1.0816406881132996,-0.025935269572099788,0.7229790079991756,1.0289124178036648,-0.034036910843459986,0.7288514719976115,0.9781213834966442,0.0,0.0,0.0,0.0
0.028919037829671708,0.06543290889456584,0.7337485452064232,-0.0023336207905005177,-0.5258265293751986,0.0029846290424028685,0.8505833922718682,0.0934259468372891,-0.9317825094141955,0.8356633738580564,-0.030148615330448793,-0.9112873997073586,1.0832112751421688,-0.03112348308674872,0.7245605390790633,1.0319429877198856,-0.038750220619682536,0.7298667467576296,0.9758866399254267,0.0,0.0,0.0,0.0
0.029451503343540436,0.06620567985299725,0.7335962857886217,-0.002452371447551749,-0.5258392069627463,0.0031653756261295586,0.8505745673909012,0.10230559696762649,-0.9422946858121944,0.8269970509446282,-0.032682620574039666,-0.9116748198779615,1.0846596033367455,-0.03579523327698963,0.7260298788867988,1.0347698537907946,-0.04292868896789376,0.7309440542638237,0.9738035203069576,0.0,0.0,0.0,0.0
0.029990228593614023,0.06694511978020605,0.7334423225743036,-0.002584058617089546,-0.5258421130057421,0.0033561624790762463,0.8505716495417266,0.11094493691740029,-0.9503080782649567,0.8192652390150718,-0.035150869008287434,-0.9121787390489319,1.0862859694351967,-0.040033134821966625,0.7274049352921397,1.0374519329631384,-0.046669314634202104,0.7320945547003005,0.971833852466711,0.0,0.0,0.0,0.0
0.030533268691624513,0.0676564752806143,0.7332771407951733,-0.0027245260296133926,-0.5258279115840164,0.0035537653525434605,0.8505791880295007,0.11926441675138466,-0.9541768151885353,0.8136928909796383,-0.03756329373091952,-0.9128568545456941,1.0881054528769178,-0.043931351263598886,0.7286379148411456,1.0400847779651454,-0.05006966262906866,0.7332250178346127,0.9700311017054039,0.0,0.0,0.0,0.0
0.03106532009899869,0.06833910718321196,0.7330980778916757,-0.0028765957477756977,-0.5258157994078252,0.0037612161496835754,0.8505852829335157,0.12717579744964208,-0.9524129895088114,0.8117793642530573,-0.039922709533745486,-0.913538060328674,1.0898947248539679,-0.04743002518039653,0.729705501549108,1.0427405117784319,-0.05308660128218102,0.7343405022931103,0.9684832336916792,0.0,0.0,0.0,0.0
0.0315848646339653,0.06902612199689126,0.7329046017080004,-0.0030457023087441058,-0.5257974315371179,0.0039861014664021085,0.8505950244866918,0.1345367713399402,-0.9450380521851068,0.8134550613057886,-0.04233568634574015,-0.9141636966412596,1.091548346789973,-0.0507086571533161,0.7305841994464778,1.0455103051647616,-0.05588367190739711,0.7354149758218245,0.967070590098066,0.0,0.0,0.0,0.0
0.03210955967539429,0.06978772491287528,0.7326987851632595,-0.0032419453326691487,-0.5257359180237829,0.004243301635495829,0.8506310767197377,0.1411813158371616,-0.9335815443151395,0.8171309292692196,-0.04503017684297015,-0.9147926946628293,1.09310195006619,-0.05418431418591638,0.7312622651503035,1.048495694362679,-0.05881834715678776,0.7364205360372504,0.9654382437967239,0.0,0.0,0.0,0.0
0.032655313343421914,0.07069293060595949,0.7324900149100957,-0.0034841353080174906,-0.525616792045069,0.004558713946009409,0.8507021022946661,0.14703205503323408,-0.9196938035804112,0.8214860148372568,-0.048254324634807624,-0.9152946028419651,1.0944325639026766,-0.05811313563616925,0.7317724483649545,1.0517526863560895,-0.06209556153582937,0.7374738741764305,0.9632170126604876,0.0,0.0,0.0,0.0
0.03322212382152927,0.07180024681790725,0.7322907860613821,-0.0037870698702820145,-0.5254309390737054,0.004956841497914316,0.8508133849959615,0.15219877311330596,-0.904546790334671,0.8256483851987821,-0.0522251728228842,-0.9154579227718846,1.0952922118126809,-0.06269971294730974,0.7321233808512836,1.0553083680285305,-0.06586773053530133,0.7386728243448617,0.9600741769986548,0.0,0.0,0.0,0.0
0.03379668872602502,0.07315295939228741,0.7321149678576518,-0.004159031501091312,-0.5251688541400247,0.00545789916554316,0.8509703804686302,0.15701113746807865,-0.8887370008128691,0.8290692186189338,-0.057109570748413524,-0.9150574511632604,1.095381813777206,-0.06809060948631623,0.7322873290240499,1.0591519214783933,-0.07023090289795393,0.7400745030464351,0.9557285745590658,0.0,0.0,0.0,0.0
0.03436410839446066,0.07476272515439926,0.7319733898692935,-0.004604560636769023,-0.5248313597395919,0.006078514212842953,0.8511720704535585,0.16207415972187175,-0.8723790196448544,0.8313567330053971,-0.06297937310861876,-0.913893978571943,1.094456329620934,-0.0741930212270983,0.7322179673689433,1.063219826713174,-0.07507865177981242,0.7417630271541499,0.950052970230845,0.0,0.0,0.0,0.0
0.03491763553611277,0.07657309531373803,0.7318566923532932,-0.0051292833618461105,-0.5244569549571674,0.0068303544899567985,0.8513941150294564,0.1682966083416753,-0.8552302675021322,0.8321262697662464,-0.06970439986136683,-0.9118311956465114,1.0924293601841555,-0.0803205569968647,0.7318326012264675,1.0674627430201793,-0.07983133166972893,0.7438953031242899,0.9434086285514303,0.0,0.0,0.0,0.0
0.03544106616292729,0.0783969703009965,0.7316601972199621,-0.00573888846407441,-0.5241500898750623,0.007703498578338637,0.8515717260177292,0.17676938754956775,-0.8368524106778971,0.830716691192263,-0.07674097290840275,-0.9090120546251683,1.089457865389441,-0.08480709875657756,0.7306879164058241,1.0724006303403872,-0.08316669532115784,0.7463083652970357,0.9376798636071889,0.0,0.0,0.0,0.0
0.035948667376484264,0.07993685319198665,0.7312406563225265,-0.006459546963333908,-0.5240945927611724,0.008669613682317546,0.8515914336641301,0.18801524595593222,-0.8167096737810297,0.8257910132501289,-0.08318038240859135,-0.905724042635488,1.0860793152899675,-0.08503405157156055,0.7283877981237247,1.0786549709000697,-0.08306572634327634,0.7489376974388728,0.9356909276863956,0.0,0.0,0.0,0.0
0.03641751250245138,0.08092395115156902,0.7306360012819296,-0.007251893643574853,-0.5242431747219642,0.009545491085898524,0.8514842261580348,0.20069580458838157,-0.7937611468497588,0.8133459154738863,-0.08782558554085561,-0.9031497756317841,1.083655200708892,-0.08031859392107495,0.7250735252428171,1.085239748573706,-0.07903450787710425,0.7512951492054195,0.9379820088185891,0.0,0.0,0.0,0.0
0.03666712165984129,0.08128829022682006,0.7300727207785064,-0.008128714825544446,-0.524645064521145,0.010194163647670701,0.8512212164275589,0.21182537831134127,-0.7690415251078837,0.7888270439081155,-0.09002819773923665,-0.9000760287081024,1.0807496985338072,-0.07092841835650725,0.7214558758815763,1.0905009764855609,-0.07118806988147591,0.7537494330531541,0.9429679709876445,0.0,0.0,0.0,0.0
0.03669249035831031,0.0813287903642096,0.730057915343053,-0.008164475248046709,-0.5246304286256915,0.010195709668362076,0.8512298762427841,0.21184738725011487,-0.7689957340517584,0.7888397113864895,-0.09012187869288105,-0.900091466693687,1.0807652504253338,-0.07097711635459053,0.7214226605726585,1.0906303263392878,-0.07112335657311815,0.7538168843668029,0.9428599410858242,0.0,0.0,0.0,0.0
0.03669249035831031,0.0813287903642096,0.730057915343053,-0.008164475248046709,-0.5246304286256915,0.010195709668362076,0.8512298762427841,0.21184738725011487,-0.7689957340517584,0.7888397113864895,-0.09012187869288105,-0.900091466693687,1.0807652504253338,-0.07097711635459053,0.7214226605726585,1.0906303263392878,-0.07112335657311815,0.7538168843668029,0.9428599410858242,0.0,0.0,0.0,0.0
0.03714910785437578,0.08173108922429365,0.7324443833432797,-0.006864693459130696,-0.5235510692579891,0.008903546187462058,0.8519201140528472,0.21372733891891324,-0.7663126657363889,0.7942743078827968,-0.08845745048885671,-0.9038289792173799,1.0888619443736407,-0.09701859171756885,0.7374785787272683,1.0706994779509647,-0.04607396677477685,0.7284338221449542,0.9887742356997824,0.0,0.0,0.0,0.0
0.037829485135944765,0.08242588788795997,0.7353052207427924,-0.006118120954424372,-0.523034732752491,0.008125847784309918,0.8522506717675871,0.21360742454448065,-0.763534330266373,0.8019495346806251,-0.08845798129008543,-0.9012465157399989,1.0928056650431677,-0.11641825346793278,0.7555734314422442,1.0467704667150137,-0.025891296824823225,0.710997814813873,1.0240398207325017,0.0,0.0,0.0,0.0
0.03855653483476913,0.08339602705384064,0.7379578950423147,-0.005783385717403881,-0.5227915709174104,0.007779397720837922,0.852405423961187,0.21186645096629572,-0.7627917056442899,0.8118576507969304,-0.09009448970898992,-0.8957234264407803,1.093662767072404,-0.13129566986937985,0.7722024186298246,1.0246227498457776,-0.012113496088691344,0.699288656127042,1.0520836251592147,0.0,0.0,0.0,0.0
0.039260736371889184,0.08458823099255279,0.7402719490645342,-0.005693381255602505,-0.5226336780132644,0.007719273194124197,0.8525033940328685,0.20900937365926825,-0.7642864170711882,0.8235793705795507,-0.0929624483249457,-0.8891074213897165,1.092572927414554,-0.14380015392234416,0.7866828885626694,1.0055092001068522,-0.0018227060551399017,0.6913647336059991,1.076204505109882,0.0,0.0,0.0,0.0
0.03990492543157477,0.08591257788538358,0.7422746100045552,-0.005726417644347334,-0.5224598337302743,0.0077938887766969495,0.8526090461502465,0.20559957170424692,-0.7673746834889978,0.8361982674019256,-0.09648633394763038,-0.8824427252628964,1.0904335756182255,-0.1553639654147205,0.7991882957338511,0.9892151041675143,0.006280772020624867,0.6856205126809587,1.0981513788989399,0.0,0.0,0.0,0.0
0.040384222383299966,0.08720516431647636,0.7440307590598417,-0.005783902368383722,-0.522288837620934,0.007882536662303085,0.8527126023378182,0.20221145085698222,-0.7701682365032767,0.8471153628296417,-0.09993462199772167,-0.875844577813704,1.0872197940912947,-0.16624586814185613,0.8099472569603998,0.9751495751537939,0.013351043163744913,0.6807915649652867,1.118977763388695,0.0,0.0,0.0,0.0
0.04070659964461415,0.08840799616666864,0.7455840356370612,-0.005835939302290953,-0.5221214103090973,0.00794824207670846,0.8528141650777086,0.19905982294850233,-0.7722939941494487,0.856005617339424,-0.10307258755156934,-0.8695014097115072,1.0833028913560714,-0.1764298219770042,0.8192219816985604,0.962856600366306,0.019892494515984863,0.6763473619795798,1.1391679657583533,0.0,0.0,0.0,0.0
0.04090144830469985,0.0895025571864309,0.7469628036654706,-0.005878349689234022,-0.5219614232770189,0.007988353176976354,0.8529114278921813,0.19620307101076637,-0.7737689142330068,0.8630729915758265,-0.10585207631640854,-0.8635002879743767,1.0789819296362229,-0.18578031716882404,0.8272142122740069,0.952035776676852,0.026205158936173912,0.6721110004499486,1.158899925370986,0.0,0.0,0.0,0.0
0.04099238504874119,0.09049082721253975,0.7481813529165225,-0.005913157560559013,-0.5218094411329962,0.008007694336183055,0.8530039967922497,0.19363479224883784,-0.7747225538714466,0.8686096027696939,-0.10829604656360076,-0.8578816414265624,1.0744323343341489,-0.1942547102419027,0.834040619335971,0.9425586106927449,0.0324865785663272,0.6680589722377491,1.177989003885171,0.0,0.0,0.0,0.0
0.04098002031283856,0.0913877841351713,0.749239707427336,-0.005941489742942795,-0.5216632918587206,0.008009282288899248,0.8530931719478093,0.19131322346579538,-0.7752585087080011,0.8727686370561292,-0.11045441090804317,-0.8526206751425806,1.0696208860466725,-0.20195803507272644,0.8396933225140553,0.934502068781543,0.038953764556263135,0.664253176289776,1.1957427213275944,0.0,0.0,0.0,0.0
0.04083242432962798,0.09222265819953708,0.7501233606715659,-0.005958211819463817,-0.5215100339890695,0.007989993064308826,0.8531869338963568,0.18916496271225425,-0.7754469564456725,0.875520952400569,-0.11239928110698924,-0.8476481877172048,1.0642767840483363,-0.2091990336097675,0.8439893091935137,0.9281708477742405,0.04596148897742295,0.6608574243070071,1.210685527147759,0.0,0.0,0.0,0.0
0.04048868342847725,0.09304405891246113,0.7508068500185434,-0.005950737801643114,-0.5213196931097983,0.007940196869105439,0.853303767464554,0.18707615399068725,-0.7753833109639439,0.8767488177664801,-0.11423985721586345,-0.8428737490847784,1.057923264761484,-0.21652144873709708,0.8465796622986136,0.9240613265323481,0.05409466156080883,0.6583860357433228,1.220138918433501,0.0,0.0,0.0,0.0
0.03988684810838151,0.09391904996411071,0.7512739673765035,-0.005904874702105662,-0.521048613737388,0.007849639028339819,0.8534704785428864,0.1848914331107753,-0.7752566035345485,0.8764721247225015,-0.11613289139733471,-0.8381892732321358,1.0500368521502577,-0.22459022288535302,0.84712454028699,0.9225976044382856,0.06411231479548653,0.6582250396335223,1.2199302927328455,0.0,0.0,0.0,0.0
0.0389929255620255,0.09489651789544999,0.7515541804062634,-0.005822267186641695,-0.5206842945084922,0.007720188233449373,0.8536945386674564,0.18247342415903983,-0.775054946868967,0.874666759067612,-0.1181957376114476,-0.8332675325200947,1.040111437787097,-0.23364716481918602,0.8456088159402664,0.9236570456336096,0.07603671594598047,0.6603388022687903,1.2100017304520083,0.0,0.0,0.0,0.0
0.03779903683339675,0.09600867299001065,0.7517242477037929,-0.005715054973404885,-0.5202376818108798,0.00756142094545685,0.8539689206780176,0.17970950339610176,-0.7745762243398219,0.8712729158264702,-0.12050357352512167,-0.8276002043031206,1.027677430320505,-0.24360938716978697,0.8423524354791917,0.9265470093917217,0.08919924371745712,0.6632516286367671,1.194406673059965,0.0,0.0,0.0,0.0
0.03629744072552338,0.09730601946640899,0.7518725906008569,-0.0055863397743174574,-0.5196978036633834,0.007375405047496417,0.8543000579865171,0.176463154344521,-0.7737185595858563,0.8663823694424799,-0.12316687700773131,-0.8207170256177649,1.0122618344941625,-0.25462093362419363,0.8377137224495523,0.930453812965926,0.10315542399361832,0.6663058942153636,1.1757423688387116,0.0,0.0,0.0,0.0
0.03446170961476293,0.09884989615187176,0.7520762936661614,-0.005424715793490015,-0.5190348398955899,0.007150208055408936,0.8547059622805282,0.17260017964710206,-0.7724000497929439,0.860018377729341,-0.12629701079217276,-0.8122071089056427,0.9932926075555876,-0.26704707009958706,0.8319238411534025,0.9346966019771396,0.11779884875220968,0.6691499528452597,1.1554930312745817,0.0,0.0,0.0,0.0
0.032255642239664296,0.10069024786443498,0.7523913902410229,-0.005203344444402147,-0.5182105189370753,0.006857876534357888,0.8552097712251653,0.16805052820790298,-0.7704914238502673,0.852044903236019,-0.12994501112811077,-0.8017890793478667,0.9702177411949302,-0.2812814806852898,0.8250773373824366,0.9387511025605212,0.13344573759114634,0.6715182747232322,1.1345450320365982,0.0,0.0,0.0,0.0
0.029660887245766182,0.10283523014881958,0.7528413163538119,-0.004879302906230549,-0.5171850784806787,0.00645218928721089,0.8558353558094486,0.16289964447576916,-0.7678371613484853,0.8422335472744366,-0.13402785732240702,-0.7895139361233037,0.9428546445721432,-0.29752940820158724,0.8171750793759186,0.9422317379464494,0.15106456752435754,0.6732820665239535,1.1136402267231502,0.0,0.0,0.0,0.0
0.026725978253415158,0.10521336069257368,0.7533915269541965,-0.004393309338578087,-0.5159154592348442,0.005864869994555984,0.856608160745333,0.15751305476085928,-0.7644614228708613,0.8305917140282852,-0.1382489630496843,-0.7762134389283726,0.9121020752254566,-0.3156405680330458,0.8081676257222916,0.9449652600770385,0.1728975492832201,0.6748094110810274,1.0938094554548397,0.0,0.0,0.0,0.0
0.023655000048293986,0.10763334677398625,0.753880481660772,-0.0036597081312643373,-0.5142933455804434,0.004971601742120333,0.8575921200688509,0.15277444223140368,-0.7614027843830968,0.818485935412067,-0.14198897876357763,-0.7647860861814593,0.8816723634117479,-0.33531643744105516,0.7978384636761771,0.9473827960581023,0.2039563661536844,0.6779070723486517,1.0764454087885877,0.0,0.0,0.0,0.0
0.020876334943823984,0.10983778383346395,0.7539480698487507,-0.002588885669112343,-0.5120397257065225,0.0035651613060928167,0.8589504680680039,0.1500972761917951,-0.7621889574078619,0.8105830692031246,-0.14443532090351144,-0.7614767539035602,0.8597336537768979,-0.3566168335612142,0.7854192571806754,0.9511615800575354,0.2525157469085776,0.685962305404997,1.0625174110777058,0.0,0.0,0.0,0.0
0.018417197079697138,0.11169525307001726,0.7531382429899082,-0.0013235532673422728,-0.509212360982126,0.001799171497643834,0.8606380090442669,0.1495638426640538,-0.7684237532246339,0.80771908360301,-0.14563974955773784,-0.7678686607336113,0.8480413332435536,-0.3764497932084506,0.7683000612592428,0.9604217741853492,0.3197355216189047,0.6968347663642475,1.0540719920311556,0.0,0.0,0.0,0.0
0.016539324488399704,0.11292989522362037,0.7514223323715385,-0.0003637647217046581,-0.5061475507413098,0.00021516675302379537,0.8624467973487228,0.15080354043928954,-0.7807824513752248,0.8111058403088255,-0.14591488882862233,-0.7824448202692106,0.847253497956703,-0.3870680978709165,0.7466555174834842,0.9750045532650161,0.3905711983592721,0.7034698726176399,1.0540916137727527,0.0,0.0,0.0,0.0
0.016561940544774226,0.11297026243347019,0.7513562304782534,-0.00028484211836879973,-0.5061536178227625,0.00016231080262215305,0.8624432779522953,0.1508522812287843,-0.7808031087277947,0.8111282986533408,-0.14591211542282295,-0.78256196990129,0.8470637877009639,-0.3870940575043966,0.7465520369775289,0.9748804003054403,0.39059239227535064,0.7034793053342469,1.0540903871158758,0.0,0.0,0.0,0.0
0.016561940544774226,0.11297026243347019,0.7513562304782534,-0.00028484211836879973,-0.5061536178227625,0.00016231080262215305,0.8624432779522953,0.1508522812287843,-0.7808031087277947,0.8111282986533408,-0.14591211542282295,-0.78256196990129,0.8470637877009639,-0.3870940575043966,0.7465520369775289,0.9748804003054403,0.39059239227535064,0.7034793053342469,1.0540903871158758,0.0,0.0,0.0,0.0
0.015662446499771342,0.11308902634725507,0.752051973985092,-0.00013358241470312482,-0.5078469318191411,9.43706356805507e-05,0.8614473095272898,0.14963954477972372,-0.763985356321688,0.7910770223432955,-0.1451527300626111,-0.7661019648409096,0.8270234151398104,-0.3935786000544905,0.7533530831467862,0.9728505507220103,0.3927724947573266,0.7094526533263821,1.0520877615377198,0.0,0.0,0.0,0.0
0.015000296794446182,0.11321290602864667,0.7523844596932805,-0.00012313371193581015,-0.5088684115176497,0.0001497390380990065,0.8608442961278266,0.14857176189221807,-0.7537294505204015,0.7778853029753459,-0.1450134406511861,-0.7550469074968341,0.8127306217886795,-0.39665851808054214,0.7564155079720282,0.9727107239281512,0.39488692607772513,0.7125767169845154,1.0516801657011456,0.0,0.0,0.0,0.0
0.014787602834991937,0.11343234455915614,0.7525578389168049,-0.00019344727616812365,-0.5094816333935527,0.00027308895101937685,0.8604814659452078,0.1474624268754313,-0.7494098225226115,0.7729129162905561,-0.14553167938508482,-0.7485022729682655,0.8047572949892301,-0.39909342170825646,0.7586850321507289,0.9730050553470159,0.39688369328634737,0.7152812237618822,1.0512083672796193,0.0,0.0,0.0,0.0
0.015108956297369911,0.1138936151244673,0.7525713035008911,-0.0003426536066352509,-0.5098213668045084,0.00047377641809595887,0.8602800893162613,0.14590225000090776,-0.751392647263083,0.7774263674508596,-0.14706701515443443,-0.7457527916724792,0.80265090287085,-0.40286659904457145,0.7611276175205406,0.9742322485292602,0.39855628812134936,0.7183535655795836,1.050579885122932,0.0,0.0,0.0,0.0
0.016015710031247646,0.1147009643894284,0.7524202648786248,-0.0005801418595334051,-0.5099766019337484,0.000760124005848298,0.8601877417907242,0.14359870478928907,-0.7597982140941134,0.7919764651654378,-0.14987941090292387,-0.7461795260516981,0.8058492220498582,-0.4093789554741643,0.7643856926265603,0.9767688594642941,0.39980499961004917,0.7223097769444875,1.0497369013677986,0.0,0.0,0.0,0.0
0.017519327757837586,0.115915161501649,0.7520556272315618,-0.000906175309420919,-0.5100457551545882,0.0010894060669539875,0.8601461036879233,0.14047604249486095,-0.7741042503130757,0.81590392048005,-0.15399810108821213,-0.749218196625213,0.8135598929270642,-0.42036264626172837,0.7689719026361928,0.981384553099232,0.40039646539050644,0.727291075241217,1.0491249168057226,0.0,0.0,0.0,0.0
0.019622587992009253,0.11764082760353176,0.7513235192934882,-0.0010434841848594196,-0.5106446033604642,0.0010836696400685485,0.8597905709297475,0.13688475424532082,-0.7898269657334756,0.8444454356399288,-0.15874135937406264,-0.7526703191679108,0.8228486057249258,-0.4464662877708549,0.7786174202041215,0.9911703901907307,0.39774852177570824,0.7339980307100133,1.0510093430538867,0.0,0.0,0.0,0.0
0.022982625335109676,0.12018119473735646,0.7529915333917675,0.0007120381454666532,-0.512797907285437,-0.0011849605095576804,0.8585082382563062,0.1354447629314727,-0.7892452947510881,0.8690083074830469,-0.16045178480982786,-0.751415714448678,0.8345859398495454,-0.3569418253038832,0.7514698957771923,1.010791586862796,0.36156503204008633,0.7524016442637607,1.03029212126392,0.0,0.0,0.0,0.0
0.02655205041352703,0.12292845406789787,0.7536399830421234,0.00234707709302044,-0.5151017670310912,-0.0033376477275678554,0.8571193154620969,0.13331781830083309,-0.7924635142569229,0.8966322390708871,-0.1631984683143472,-0.7522162188113088,0.8472083481513366,-0.27512122609810385,0.7300269765986129,1.0303111876372348,0.3234010734889845,0.7670912574041233,1.0167066435191263,0.0,0.0,0.0,0.0
0.03010377754485869,0.12569712501895347,0.7538740154414871,0.0032838686166811837,-0.5168808496098033,-0.004574032695329891,0.8560388319103628,0.12934837476388356,-0.8024513520091016,0.9293184464309091,-0.16817659124332712,-0.7536550258237493,0.8598409684260383,-0.21859722572407358,0.7167516378299007,1.0501953409727143,0.2923972662736031,0.7801510732473036,1.0048949969584955,0.0,0.0,0.0,0.0
0.03327856942170773,0.12813732371127515,0.7539801783690215,0.003774361280382085,-0.5182031451503967,-0.005236925129871106,0.8552332016288576,0.1250012910804991,-0.8139027097208976,0.959990875944828,-0.173590553370682,-0.7550319161922944,0.8710777848525578,-0.18061618609568442,0.7083371340477622,1.0705908900338517,0.2684176644464636,0.7915938505503938,0.9942105650604823,0.0,0.0,0.0,0.0
0.03587921569722705,0.13006400858733225,0.7539985941145422,0.004036572860311962,-0.5191728219537399,-0.005608274533058678,0.8546413483332616,0.12126174957324688,-0.8239893585250085,0.9850478857292024,-0.17827497632215963,-0.7564130791135802,0.8804764174447317,-0.15401358108545263,0.7022315907956304,1.090988214760645,0.25059632823087274,0.800815244893362,0.985640907193523,0.0,0.0,0.0,0.0
0.03791625302585633,0.1314995548462555,0.7540285750454033,0.004204592220818941,-0.5198944440567534,-0.005849698945901658,0.8542001343159682,0.1183907502936176,-0.8317215357685199,1.0041463978888492,-0.1818957309161641,-0.7575938148498778,0.8880341194118829,-0.13353371707583112,0.6970389541668848,1.1111372311688534,0.23736509412032278,0.8081641182971178,0.978669631456219,0.0,0.0,0.0,0.0
0.03950005474228103,0.1325588570783407,0.7541542249528447,0.004345701866486785,-0.5204501282762503,-0.006040033831323674,0.8538596470403311,0.11627056322407714,-0.8371245380045994,1.0183751741462113,-0.18456820679740135,-0.7583565221309684,0.8939810326943329,-0.11596855512715959,0.6921573240532258,1.1309723502442668,0.22709369720262162,0.814293396425322,0.9723043318177849,0.0,0.0,0.0,0.0
0.04074593333353479,0.13336090628152564,0.7543749796585308,0.004485181867338628,-0.5208934452629456,-0.006213673732184512,0.853587307827656,0.11469614437034978,-0.8407133500286097,1.0290539552146232,-0.18653577465765153,-0.7587032309906988,0.8986270551816432,-0.09983595350566726,0.6874286267283132,1.1503660369005202,0.2185674551865699,0.8195423816175584,0.9661618884894848,0.0,0.0,0.0,0.0
0.04174823684987987,0.13401304189816113,0.754646455244351,0.0046277231926159955,-0.5212613284706765,-0.006381446641746575,0.8533607026092757,0.1134423348367067,-0.843128063515009,1.0373614753140825,-0.18806862565645488,-0.7586951178331819,0.9021857792274294,-0.08454363674378398,0.6828539544008075,1.1690070653719777,0.21090874790948355,0.8240210711674925,0.9602671148046545,0.0,0.0,0.0,0.0
0.04256814715641476,0.13460190895452123,0.7548996157574561,0.004768352628099386,-0.521578745143138,-0.006542213382194436,0.8531647407577188,0.11230724354118257,-0.844970142851449,1.0441822989689622,-0.18940669854416628,-0.7584028452802111,0.904726272442303,-0.06997974388690316,0.678496260082195,1.1862024313650494,0.20353303862190963,0.8276367004635865,0.9549655061021095,0.0,0.0,0.0,0.0
0.04322888205885568,0.13518745562477558,0.7550493327715675,0.004897623365252856,-0.5218598176724546,-0.006688443408200991,0.8529909780935668,0.11113901778189425,-0.84673389607543,1.050047074602297,-0.19072853966968364,-0.7579033996561277,0.9061794950169294,-0.05633764143104762,0.6745307382810375,1.200558514185421,0.1961442168699511,0.8301037077108366,0.9508904620771669,0.0,0.0,0.0,0.0
0.043720585705285545,0.13579909737180104,0.7550024487883272,0.005003733094800097,-0.5221063917567245,-0.006808586172520075,0.8528385084505865,0.10985219925195633,-0.8487985566940449,1.0551628040652414,-0.19213764609458683,-0.757308434701659,0.9064118542138309,-0.044054927965516466,0.6715047430325833,1.209513576628912,0.18875195324236918,0.8309911682006473,0.9488939903164626,0.0,0.0,0.0,0.0
0.04402655584746654,0.13644020830518586,0.7546828600574162,0.005074827295574332,-0.5223090706443704,-0.006890909160608662,0.8527133142044132,0.1084267229861501,-0.8514501395043842,1.0596003042383038,-0.19367192636687947,-0.756787083084059,0.9053953878530429,-0.03372338913006309,0.6708508346625468,1.2089809963485212,0.18159388222063658,0.8299216304941721,0.9497366940767966,0.0,0.0,0.0,0.0
0.04415235441142417,0.13712743545308798,0.7540680706197179,0.005108718734747203,-0.5224746226807956,-0.006931891136957026,0.8526113525708621,0.10681420677499091,-0.8548047769928526,1.0634793018771267,-0.19538275966258972,-0.7563264153873103,0.9030710610266416,-0.025254691633967808,0.6725797212633263,1.1990070317370412,0.17461906471858493,0.826839872002438,0.9535833388237362,0.0,0.0,0.0,0.0
0.04412786411738789,0.13789530728947716,0.7531861466986729,0.005112527497003946,-0.5226250449520425,-0.006937303027286556,0.8525190896854894,0.10492988545069588,-0.858838436376361,1.0670067323769035,-0.19734509373200226,-0.7557396958993006,0.8993491145593292,-0.017891210224882565,0.6752743110327803,1.183744890465122,0.16741596034809275,0.8219906861273265,0.9599984828861212,0.0,0.0,0.0,0.0
0.04398069010840351,0.13876372562538103,0.7520780295913849,0.005093225602894921,-0.5227709062704943,-0.006914082517004832,0.8524299584558441,0.10272962945553892,-0.8634889866617774,1.07033599940237,-0.19959585217505182,-0.7548928296867016,0.8942268640787268,-0.011051418180781614,0.6783934502683635,1.1657832374565695,0.15965950750971225,0.8156470981698433,0.9684324036046594,0.0,0.0,0.0,0.0
0.04371354345324113,0.13973792507398428,0.7507727888875959,0.0050578245860519845,-0.5229130271407209,-0.006868909097006433,0.8523433595358162,0.10020527407039317,-0.8686432023286194,1.073418500205512,-0.2021311270226658,-0.7536777634124162,0.887623133231803,-0.004356926740287478,0.6817924263142255,1.1464768666973815,0.15113548819148884,0.8079215256892772,0.9785221036138335,0.0,0.0,0.0,0.0
0.043305231835157075,0.1408123595709943,0.7492822391853007,0.0050163089788531415,-0.5230470032787402,-0.006811777520450698,0.8522618545332004,0.09738286487315358,-0.8741341104132266,1.0760075436321699,-0.20490815018776287,-0.7520095471600817,0.8793610444039974,0.0024657676100920175,0.6855088321194553,1.1263823173078078,0.14166676557980865,0.7987404482039189,0.9901346917877776,0.0,0.0,0.0,0.0
0.042723617504807083,0.14196770112552767,0.7476023986522948,0.004985848387320779,-0.523166761559062,-0.006761399223715937,0.8521889252954415,0.09434502298926407,-0.8797432465904671,1.0777186442171642,-0.20783133877659113,-0.7498879672726124,0.8692937888764107,0.00971471115398911,0.689749881577308,1.1055343623961642,0.13108802031816374,0.7878979777512929,1.003331016903882,0.0,0.0,0.0,0.0
0.041947412982618205,0.14315481582401043,0.7457182121711478,0.004997180471536485,-0.523268609668477,-0.006753455836168796,0.8521263880183636,0.09129541228474836,-0.8851822366762618,1.0780949381036924,-0.21070454318047693,-0.7475476616958079,0.8575957109971928,0.01786261883107089,0.6949765105867157,1.08357911485168,0.11931179120084139,0.7751666366194607,1.0183182556982933,0.0,0.0,0.0,0.0
0.04099871457080997,0.14426014364004533,0.743608434546723,0.005106199757712873,-0.5233453110079479,-0.006865278773105094,0.8520777430008345,0.08871859237494542,-0.8900861966334669,1.0767096230266358,-0.21310923764911407,-0.7458460615566405,0.8453882619084265,0.0276721560392168,0.7020223155513963,1.0597491643461143,0.10634001095968995,0.7603658395039862,1.0354128854577371,0.0,0.0,0.0,0.0
0.03995595711110853,0.14515351981993296,0.7412886777639354,0.005400323709618112,-0.5233905873089706,-0.0072326259534666775,0.8520450802287514,0.08729446443398947,-0.8939986941762614,1.0733687899896587,-0.2144772839004079,-0.7460879428586518,0.8346067481952789,0.04028785140979878,0.7119398846531736,1.0326036821408728,0.09151555106347797,0.7434314916516872,1.0544855104587914,0.0,0.0,0.0,0.0
0.03887979291611846,0.14578510164196007,0.7388946557426022,0.005994663975960924,-0.5234157886142028,-0.008020263877010825,0.8520185746804647,0.0875366756992272,-0.8960369852085477,1.067762439787107,-0.2143320830518398,-0.7489115856452109,0.8264671491852019,0.057288298291166856,0.7255382443126649,0.9995240560608113,0.07285412320691843,0.7244707745415578,1.074158520434429,0.0,0.0,0.0,0.0
0.03799130780265432,0.14614590085779572,0.7369380551341899,0.006962740173954972,-0.5235107703854879,-0.00926970434505206,0.8519401775482938,0.08949550877572796,-0.8948107223774825,1.0604922397091514,-0.21254220535931506,-0.753622178280654,0.8222115231592241,0.07726464837832285,0.7436056947231761,0.9581968803866047,0.04979304530927834,0.706436533306553,1.0897745183341017,0.0,0.0,0.0,0.0
0.0380123207482543,0.14616166822865012,0.7368880323885795,0.006990568427089524,-0.5235301658819277,-0.009284339352576818,0.851927871599171,0.08948953227337089,-0.8948382213059078,1.0605165173873399,-0.21255538954274122,-0.7536546176737225,0.8221299687787564,0.07726875541123765,0.7436201495557568,0.9581942782980664,0.04979204328433451,0.7064087471381917,1.0897721922025956,0.0,0.0,0.0,0.0
0.0380123207482543,0.14616166822865012,0.7368880323885795,0.006990568427089524,-0.5235301658819277,-0.009284339352576818,0.851927871599171,0.08948953227337089,-0.8948382213059078,1.0605165173873399,-0.21255538954274122,-0.7536546176737225,0.8221299687787564,0.07726875541123765,0.7436201495557568,0.9581942782980664,0.04979204328433451,0.7064087471381917,1.0897721922025956,0.0,0.0,0.0,0.0
0.03796642988027825,0.1462907278204499,0.737333593553093,0.006252384183721055,-0.5239311412471716,-0.008312812654073092,0.851697108172403,0.08679548588057742,-0.89446968873652,1.0605146942143548,-0.19899343929518742,-0.7763706602611309,0.8440992278128588,0.08960141945558232,0.742196594906346,0.9540459578426207,0.06406070241651442,0.7143468429426376,1.0870883754024536,0.0,0.0,0.0,0.0
0.03775655120567134,0.14711343585898648,0.737805644230487,0.005638030068963533,-0.524267946462323,-0.007410051145285719,0.8515024510071268,0.08236848454008071,-0.8951591484229432,1.0619085408822444,-0.18355450773975832,-0.7991513650640262,0.8548101807381268,0.09452852943708265,0.7413070717139699,0.9526789035753358,0.07016462278185745,0.7198953725531348,1.0822605471129423,0.0,0.0,0.0,0.0
0.037494314093560854,0.14857978943262262,0.7381309308895124,0.005060053866594506,-0.5245019424747152,-0.006548577747214515,0.8513690294605544,0.07637536211571062,-0.8981265366674573,1.0658982870103324,-0.1701499533603575,-0.819475137534544,0.8585158532968232,0.09362710084159034,0.7400312076841546,0.955211860167236,0.0690926708145775,0.7228731119262636,1.0766694416040785,0.0,0.0,0.0,0.0
0.037128021356383156,0.15033404339018125,0.7383154544240239,0.004514362191576375,-0.524744990156633,-0.005792526718458497,0.8512277970518434,0.06988449338038168,-0.9014355306798454,1.0699562271140923,-0.16023961307120665,-0.8379537871466648,0.8591500142265022,0.0893822788997829,0.7384305413091556,0.9604703390897815,0.06381676456789784,0.7239623793924428,1.0714725217355394,0.0,0.0,0.0,0.0
0.03662831707115458,0.15209993380262607,0.7384422725835373,0.004017427073095432,-0.5249742927852236,-0.005146148435738315,0.8510930438857106,0.06361651159928729,-0.9040703694366348,1.0727320751274931,-0.15315229355325313,-0.8550736923944756,0.8579840013865911,0.08371908599062243,0.7366075193558744,0.9665738079395048,0.056923665782247126,0.7238155696931201,1.0667722904394816,0.0,0.0,0.0,0.0
0.03604563969377971,0.15369985332273084,0.7386005020143364,0.0035861769102654897,-0.5251814834932154,-0.004609297393930224,0.8509702128209706,0.05803797306543164,-0.9055591201461541,1.0739126542756117,-0.14766636764259414,-0.8713560833745246,0.8556325757357229,0.07792314153452248,0.7350050200494683,0.9719083756806721,0.05007793916914611,0.7232530046744599,1.0622476683336752,0.0,0.0,0.0,0.0
0.035418490557832666,0.15507701769289747,0.7387917439625586,0.0032214133206827883,-0.5253632318899354,-0.004163153418084803,0.8508617779804172,0.05326102428667753,-0.9060045814613709,1.0736871744974652,-0.142773436815474,-0.8872081330043082,0.8523243762798624,0.0726472233913916,0.7336017123576611,0.9761780415417974,0.044032302701768486,0.7225696810205787,1.058019395269108,0.0,0.0,0.0,0.0
0.034776756759900516,0.15623456903926458,0.7390016812554718,0.0029162032262761563,-0.5255205394054147,-0.003786421353344927,0.8507674896439802,0.04923107272799979,-0.9056595888278576,1.072399848742643,-0.1378024411491392,-0.902779928680163,0.8482130923204377,0.0681394776916412,0.7323207752225698,0.9794796121266034,0.039004782259275485,0.7218826214977271,1.0541901767123363,0.0,0.0,0.0,0.0
0.0341357870548219,0.15720214664316554,0.7392199660731499,0.0026606614677332947,-0.5256537198429756,-0.003459786195586308,0.8506874382376158,0.04582460067495529,-0.9047626310870521,1.0703586624862225,-0.13236197875711334,-0.9178556186447001,0.8435038207205735,0.06441403770223793,0.7310944610936503,0.9819904576318346,0.03494701130346968,0.7212236087538733,1.0507654711294423,0.0,0.0,0.0,0.0
0.0334885443259327,0.1580231416567875,0.73944374907757,0.0024437207252742295,-0.5257601175825728,-0.0031668579191678203,0.8506234760453628,0.042886336586073735,-0.9034702978025172,1.0677277590215268,-0.12624194119811166,-0.9317251382317725,0.8385954747043319,0.06133065419755051,0.7298412380107102,0.9838988335071798,0.03166171535107494,0.7205442968828961,1.0476662097989249,0.0,0.0,0.0,0.0
0.032799711597088894,0.1587540349876969,0.7396778579024816,0.0022528824962646534,-0.5258344163151241,-0.0028939947396170967,0.8505790474338278,0.0402321090079164,-0.901829282754566,1.064475240903875,-0.1193622707420199,-0.9430817550633919,0.8342617468260405,0.05860840569983109,0.7284431449031015,0.9854100729027861,0.028823404883499288,0.7197062833855563,1.044736549313132,0.0,0.0,0.0,0.0
0.03200606552908031,0.15946623377167132,0.7399338992804693,0.002073094979272066,-0.5258729746556492,-0.0026299681872297993,0.8505565237368766,0.03764487693299466,-0.8997626665702588,1.0603626941050512,-0.1117817203779086,-0.9501297942897784,0.8317918652554867,0.055832836128607406,0.7267503134884535,0.9867658074092059,0.025982946726629826,0.7184976491100301,1.0417497485052496,0.0,0.0,0.0,0.0
0.031031195672047776,0.1602358289799153,0.7402277353986737,0.0018873123148406548,-0.5258829293268391,-0.0023658596454354365,0.8505515771562516,0.03490308033983178,-0.8970632760879306,1.0549845123050223,-0.10367747736275279,-0.9512450537970668,0.8327954371931219,0.05255813044622908,0.7246287958276562,0.9882161705467579,0.022672446669163987,0.7167202925540146,1.0384510836656218,0.0,0.0,0.0,0.0
0.02981226286089368,0.16110566164009826,0.7405629210544393,0.0016854388985346983,-0.5258612354213608,-0.0020948383698411914,0.8505661244306898,0.03188092890268492,-0.8935699594641033,1.0479592545666552,-0.09519979297761648,-0.9463987815402484,0.837219573445945,0.04856095298233844,0.7218885160405865,0.9899526721232987,0.018684982200501195,0.7141840368742047,1.034746993253367,0.0,0.0,0.0,0.0
0.028308491523181708,0.16207896263200777,0.7409314269594135,0.0014660897613909707,-0.5257935049077085,-0.0018121393983039536,0.8506090505799243,0.028563417266122056,-0.8891927922981695,1.0389823633993847,-0.08641519723519402,-0.9371864793045956,0.8433890919318956,0.0438834597150885,0.7183073995783641,0.9920632109925676,0.01410833007879984,0.7107353188389388,1.0307058985152862,0.0,0.0,0.0,0.0
0.026500060395502997,0.1631307377181195,0.7413638692469684,0.0012337303972323854,-0.5256772340378775,-0.001522432091180015,0.8506818475341539,0.025032186049480785,-0.8836447733411067,1.0276838167921931,-0.07738530528131209,-0.9254074045279015,0.8500268389374751,0.038701160861424236,0.713957895006678,0.9941686181632341,0.009160465477060528,0.7065022664608408,1.0261156335346062,0.0,0.0,0.0,0.0
0.024355310839394826,0.16424080476637296,0.7418822634265656,0.0009915144806672644,-0.5255119259741831,-0.0012310938362272434,0.8507847653583753,0.02135981745710612,-0.8766016905389391,1.0135831136969127,-0.06821010868380908,-0.9124342698783041,0.8563995978711277,0.03316324407763447,0.7088470942933697,0.9959978813385632,0.0040155259569129385,0.7015440965090666,1.0208297275581577,0.0,0.0,0.0,0.0
0.021840764517545172,0.165390503876815,0.7425023837940317,0.0007428013498918161,-0.5252962925693446,-0.0009445898027888043,0.8509185395848187,0.017619335688362957,-0.8677352963125852,0.996155964683701,-0.058946019933834595,-0.8991051655564658,0.8622573083187702,0.02740501257199597,0.7029567427795025,0.9973299525729464,-0.0011817882391206309,0.6958886005154028,1.0147335348727249,0.0,0.0,0.0,0.0
0.018941543513705337,0.1665586959086321,0.7432226866560275,0.0004914792822907103,-0.5250299310932653,-0.0006681047410526954,0.851083358749524,0.013888273589080461,-0.8568180950612908,0.9749929358329475,-0.04953806409180071,-0.8858158889355189,0.8677373599835312,0.02159765933478338,0.6962539715954209,0.9980468258614781,-0.006269536491050669,0.6895629468655353,1.007831131362756,0.0,0.0,0.0,0.0
0.015689737663437772,0.16772349142998996,0.7439878046772909,0.0002397884072828435,-0.5247193950449474,-0.0003999617582267232,0.8512751253242257,0.010229280482450216,-0.8439530428578097,0.9500891899795356,-0.03981457283964954,-0.8726363863632411,0.8732845324042178,0.015983960899109237,0.6886087909378236,0.9984421753990346,-0.011043484908949311,0.6825345432635681,1.000558086320598,0.0,0.0,0.0,0.0
0.012218826829305147,0.16884399282358842,0.744639412706363,-1.1649128448446596e-05,-0.5243905416133401,-0.00012905441353631866,0.8514778582416127,0.006727478250628704,-0.8299044896075536,0.9223406229909881,-0.02954920675024062,-0.8594401498619866,0.8795676194888024,0.011007382432281013,0.6797367962602561,0.9995834397395893,-0.01514348298228006,0.6746561337384399,0.9942936686577091,0.0,0.0,0.0,0.0
0.009010359295469294,0.16985385167170122,0.7449729087936168,-0.00023216872865610506,-0.5239961315924255,0.0001190867080214768,0.8517206032451081,0.003608702219924131,-0.8176586278565137,0.8964338865508416,-0.01909987650514012,-0.8453807941509853,0.885822918438209,0.00675789888750786,0.6701266415823345,1.0024442569288357,-0.01859839713639134,0.6661732443114613,0.9904655779391733,0.0,0.0,0.0,0.0
0.006309877121804865,0.1705698793532274,0.7449697639473123,-0.0004082482508532231,-0.523613795299999,0.0003248751972897407,0.8519555863781882,0.0013599296317987225,-0.8077596371404105,0.8739932998358508,-0.009278600146148057,-0.832314459631397,0.8927340214858297,0.004240152221483694,0.6605743018263985,1.0065678579502437,-0.02050137028603637,0.6578082660468709,0.9899130208341086,0.0,0.0,0.0,0.0
0.004559365866636496,0.17095320385299134,0.7447356139842097,-0.0005372503999442242,-0.5232791294303233,0.0004863955438792446,0.8521610337747354,5.561238998909204e-05,-0.8021472141089768,0.8594610244737743,-0.002337633664302884,-0.8236284605325226,0.8988772336186365,0.0035342082975190715,0.6529730889023918,1.0106497562526346,-0.020853233603207132,0.6512875076457855,0.9916317307036439,0.0,0.0,0.0,0.0
0.004569212158586283,0.17097828197845388,0.744713078855663,-0.000555426602980067,-0.5232632220954969,0.0004831530676036299,0.8521707918408379,3.079906465328465e-05,-0.8021752920554457,0.8593282023069317,-0.002347712066216359,-0.8236426026176124,0.8988855530650264,0.0035375056857691336,0.6529107293725197,1.0107053797266443,-0.02085320580077739,0.6513077922172413,0.9915225022744901,0.0,0.0,0.0,0.0
0.004569212158586283,0.17097828197845388,0.744713078855663,-0.000555426602980067,-0.5232632220954969,0.0004831530676036299,0.8521707918408379,3.079906465328465e-05,-0.8021752920554457,0.8593282023069317,-0.002347712066216359,-0.8236426026176124,0.8988855530650264,0.0035375056857691336,0.6529107293725197,1.0107053797266443,-0.02085320580077739,0.6513077922172413,0.9915225022744901,0.0,0.0,0.0,0.0
0.004569212158586283,0.17097828197845388,0.744713078855663,-0.000555426602980067,-0.5232632220954969,0.0004831530676036299,0.8521707918408379,3.079906465328465e-05,-0.8021752920554457,0.8593282023069317,-0.002347712066216359,-0.8236426026176124,0.8988855530650264,0.0035375056857691336,0.6529107293725197,1.0107053797266443,-0.02085320580077739,0.6513077922172413,0.9915225022744901,0.0,0.0,0.0,0.0
0.004395032676997253,0.17152899254889598,0.7446470751111227,-0.00038653974253629117,-0.523260866031564,0.0002511412240449702,0.8521724318440551,-0.0008297592565780812,-0.8020447089289775,0.85900509032031,-0.0032256235664050088,-0.822249431624477,0.8956692588560256,-0.0028553866712529284,0.6532614532306744,1.0135236857733654,-0.026998702991970432,0.6494817431719464,0.9899499042313732,0.0,0.0,0.0,0.0
0.004642874367768158,0.17213739130217431,0.7445200752837589,-0.0002605274727901921,-0.5232166752095834,0.0001059259422931059,0.8521996430929552,-0.0020500958197732866,-0.8050550895587222,0.8639046317017798,-0.004462906753179633,-0.8231597826550375,0.8966245526843958,-0.008879387977845913,0.6542235226091812,1.0165259398635456,-0.03272700828322235,0.6487231581463292,0.9883819984321456,0.0,0.0,0.0,0.0
0.005400079218897045,0.17259977456968584,0.7443691615420407,-0.0002139022735157304,-0.5233084328432019,5.275935651709043e-05,0.8521433186838113,-0.003108202237356638,-0.8099869609777256,0.8729919159196672,-0.0055348141568890815,-0.8260687563176563,0.902257067017841,-0.012877803350070204,0.6565588010863673,1.0189239483560375,-0.036569315701089414,0.6500497847159041,0.9874910073862796,0.0,0.0,0.0,0.0
0.00671523183798292,0.1728368298759861,0.7441956109371775,-0.0002154685483789463,-0.5235299834222484,5.368199057392572e-05,0.8520072224749323,-0.0037211129025414794,-0.8167621915907488,0.8862704794398397,-0.006158749353824431,-0.8315134796902964,0.9133894899517516,-0.014745574951580125,0.6605289438949759,1.0203988798763213,-0.03851397092925342,0.6534826541339291,0.9874179882644274,0.0,0.0,0.0,0.0
0.008630122141786694,0.1728515559512366,0.7440203494294816,-0.00027692000512912645,-0.5239026433878312,0.00012294848041670246,0.8517780981278075,-0.003924870055481504,-0.8253434270947534,0.9038524221720068,-0.006372588293792229,-0.8393673761104614,0.9300528000718622,-0.014274444746157626,0.6663803461518564,1.0206964159503358,-0.03842384166692659,0.6593989910896587,0.98791621800265,0.0,0.0,0.0,0.0
0.011180526121854153,0.1727188612914476,0.7438986803769359,-0.00048167007520846593,-0.5245314657549448,0.0003539882682134101,0.8513908527340506,-0.004105525115715317,-0.8354036139153407,0.9256379176856786,-0.006564337043767567,-0.8484173590735264,0.9511583176429675,-0.01068538315034779,0.6744462300792,1.019522947978469,-0.03562429298995321,0.6688725493681956,0.9883925935312837,0.0,0.0,0.0,0.0
0.01439862775308519,0.1725903275794868,0.7439299317496723,-0.0010671765636250398,-0.5257338284687432,0.0010484727678086905,0.8506478139880426,-0.00531655018325098,-0.8458815051313432,0.9508907213323338,-0.007789013762720436,-0.8553267599265432,0.9736793575412838,-0.001078188426999336,0.6850387592074387,1.0165434814463516,-0.02747932474826386,0.6845724232820257,0.988183472993888,0.0,0.0,0.0,0.0
0.017646226363395703,0.1725142414376964,0.7436246432787771,-0.0011423000626589125,-0.5256180178237969,0.0010884393586603853,0.8507192308801489,0.008077167687534626,-0.8425900368520768,0.9237161238980206,-0.00771322045781552,-0.8722784431967352,1.004462059250335,0.0006491556348543221,0.6932007841526324,1.0145163019813142,-0.026353184201943897,0.6932474305680988,0.9869464173235064,0.0,0.0,0.0,0.0
0.020780018546918397,0.17275069053183284,0.7432041509102688,-0.001362464073196623,-0.5256589453734638,0.0013634161275207668,0.8506932219883795,0.02202322980248306,-0.8475663956726653,0.9034594326828368,-0.009002897558327472,-0.8863309040050008,1.030952914144597,0.0026574194734448765,0.7003820213797118,1.0145556518508825,-0.02504481058791779,0.7021774122988346,0.986166412687616,0.0,0.0,0.0,0.0
0.023474115662972292,0.17322046727347834,0.7427426241382477,-0.001616363920197128,-0.5257986671205083,0.0017076055463564597,0.8506058035925176,0.0350001818205988,-0.8570595400368053,0.8890369329629284,-0.01109145650556052,-0.8969242172685379,1.0515559153484286,0.003604960728697245,0.706320559459757,1.0162369749531153,-0.02473878555229528,0.7099998974258708,0.985546509029139,0.0,0.0,0.0,0.0
0.025613792710791748,0.1739126077464548,0.7423422034804874,-0.0018345021975603236,-0.5259114400043569,0.0020353633372703042,0.8505349194303055,0.04663120907563828,-0.8685963786151509,0.8779602205272682,-0.013761531472162164,-0.9044153725295256,1.0664414830074618,0.002310710202445883,0.7111310180391465,1.018735672617118,-0.02647716873842529,0.7160685190403305,0.984107570195233,0.0,0.0,0.0,0.0
0.027209006353843972,0.17477136171720692,0.7420268057743759,-0.0020007139372098938,-0.5259513460603826,0.002316235772914754,0.8505091497290651,0.05708176866785318,-0.8809337773441677,0.8684969728901872,-0.016787626371626868,-0.9093630096568263,1.076397379617545,-0.0012830593328478066,0.7148847170866589,1.0216936845969287,-0.030255092747904604,0.7202307747858706,0.9818090870438954,0.0,0.0,0.0,0.0
0.0283535077110178,0.17571683621252177,0.7417918874077921,-0.002128731712965758,-0.5259390141424468,0.002552590440927379,0.8505157883227131,0.06671007888695464,-0.8934921389105478,0.8596678688696698,-0.01994773157005186,-0.9123002517930133,1.0824982360030917,-0.006455343000171759,0.7177825681904298,1.0248372718013103,-0.03534390549193821,0.7228810169668252,0.9789526897419202,0.0,0.0,0.0,0.0
