zhuoxili-jackie/tripod-support-walk/examples/trajectory_tripod_reorder_left_v0.20.csv
root_pos_x,root_pos_y,root_pos_z,root_rot_x,root_rot_y,root_rot_z,root_rot_w,FL_hip_joint,FL_thigh_joint,FL_calf_joint,FR_hip_joint,FR_thigh_joint,FR_calf_joint,RL_hip_joint,RL_thigh_joint,RL_calf_joint,RR_hip_joint,RR_thigh_joint,RR_calf_joint,FL_foot_joint,FR_foot_joint,RL_foot_joint,RR_foot_joint
0.0,0.0,0.72963,0.0,-0.5231245161092812,0.0,0.852256264656019,0.0,-0.81,0.872,0.0,-0.81,0.872,0.0,0.65,1.0,0.0,0.65,1.0,0.0,0.0,0.0,0.0
0.0006769579254152638,0.0003005495064572068,0.7295330565165465,0.00010089083916625549,-0.5233364840917609,-0.0001784891871809546,0.8521260953527492,-0.00033922511045415577,-0.8129537579685107,0.8786672597993539,-0.0003392251104541547,-0.8123385940214769,0.8770302156127336,-0.003804337669406834,0.6528150013510093,1.001964570464263,-0.003804337669406835,0.6513571137159131,0.9994882550699469,0.0,0.0,0.0,0.0
0.0019881598510087944,0.0006423067062292886,0.7293850997082277,0.00011352431258124823,-0.5236349206045414,-0.00022833800187865735,0.8519427239535899,-0.0010808748749107726,-0.8193031647040131,0.8917191697470799,-0.0010804741047301543,-0.8172498488823734,0.8876547445574976,-0.006627392351738832,0.6571188775633386,1.0039620819144959,-0.006589180906002391,0.6549873591387381,0.9990264072382158,0.0,0.0,0.0,0.0
0.00391321244372342,0.000953592575828402,0.7292156720006884,6.004906596891591e-05,-0.5240316708120586,-0.0001822220086428784,0.851698756119305,-0.001972649151849383,-0.8283845121921717,0.9102439450364368,-0.0019711421188827074,-0.8246001090640582,0.9036845850224613,-0.008318593032605154,0.6631468878387975,1.0054890773027738,-0.008238881302044004,0.6609595729952854,0.9985285937133712,0.0,0.0,0.0,0.0
0.006436087168406788,0.0012613066635431317,0.7290639162446584,-6.969168597984566e-05,-0.5245507347636974,-2.762789288870992e-05,0.8513791875766248,-0.003114458553836098,-0.8397710032679794,0.9336939979518295,-0.003110561156096866,-0.8337786724272095,0.9243472738635186,-0.008868992812971252,0.6711108479101688,1.0062310855957817,-0.00876443908119013,0.6695822888581623,0.9975193258020257,0.0,0.0,0.0,0.0
0.009552297264849978,0.001659493484567585,0.7290050214494714,-0.0003746272604552066,-0.5253590837663076,0.0004405049611686061,0.8508804256263159,-0.005250213593331464,-0.8526817935983628,0.9613031038170541,-0.005239671183121655,-0.8426896362974943,0.9475687382455005,-0.00681880338857317,0.6812097348430908,1.0058052245651714,-0.006743049717623171,0.6823879782451862,0.9954122751461186,0.0,0.0,0.0,0.0
0.012835007429656299,0.0019923145894264463,0.7286868695636749,-0.0005502265895527676,-0.5252867138599332,0.0005588770699227963,0.8509249397857331,0.0076145732081366775,-0.8516219613460444,0.9299987775692021,-0.006357917943293364,-0.858814990556578,0.9775463703819381,-0.00737367928594,0.6894347931075002,1.0055972304883383,-0.007273448809526933,0.6912751971493778,0.9932046029777082,0.0,0.0,0.0,0.0
0.016037432277156358,0.0025864337184683312,0.7282227213683875,-0.0007930846624699489,-0.5253203962754067,0.0008513999695141729,0.8509037121742152,0.02156253108240466,-0.8615025548902573,0.9057106836526875,-0.008609418326996025,-0.8728682471380761,1.0041363495964006,-0.008254079098021293,0.6967791116572726,1.0074721163653277,-0.008123703001870609,0.7000146110137558,0.9916619846444263,0.0,0.0,0.0,0.0
0.018882518028552828,0.0033433703237094837,0.7277319431672261,-0.0010507477853059033,-0.5254483753388873,0.0011985961674494557,0.8508239912872948,0.03488126365232027,-0.8771003508128922,0.8874986172991166,-0.011458329378671465,-0.8839294540928027,1.0256820518100103,-0.009946190454112748,0.7032653519454574,1.0104617941462206,-0.009764047502191073,0.7079306587530009,0.9902298270309854,0.0,0.0,0.0,0.0
0.02128231475695997,0.004226435846111455,0.7273006144979147,-0.0013001504160358624,-0.5256009488018231,0.0015515168659401954,0.8507288316631415,0.047060986041286654,-0.8950509219248746,0.8728608801407605,-0.014684241399196172,-0.8921286245485234,1.0422783727849685,-0.012745479588996224,0.7089521856172931,1.0137782580402859,-0.012469612591801883,0.7147509212667638,0.988263735334244,0.0,0.0,0.0,0.0
0.023244119616591816,0.005188207887165747,0.7269400443507942,-0.0015359895081142672,-0.5257368746701956,0.0018898927253870516,0.8506437607210978,0.05810378309607511,-0.9134571312921137,0.8600398750581839,-0.018101491802882202,-0.8979834378244442,1.0546437376009203,-0.016522874574246022,0.7137876394605857,1.0171875337240524,-0.01608953719057674,0.7203432848965533,0.9858133858948223,0.0,0.0,0.0,0.0
0.024819773618522965,0.006184783355031578,0.7266388099811923,-0.001760294151157271,-0.5258374934823962,0.002207935896903301,0.8505803647108999,0.06813725764101251,-0.9309076284462318,0.8481870229228935,-0.021568840125154295,-0.9020497701998694,1.06363196923972,-0.020968756375581415,0.7177625704387856,1.0206148685793222,-0.020297189851486857,0.7247568087152831,0.9830966644695613,0.0,0.0,0.0,0.0
0.026059393967674493,0.007180162306617641,0.7263710650819947,-0.0019745207158200022,-0.5258902427494762,0.002503239827149099,0.8505464641271561,0.07727678867680969,-0.9457626783709462,0.8373108258394598,-0.024977667454199916,-0.9048241223300519,1.0699598545039,-0.025773555531325813,0.7208132776755879,1.0241247901432944,-0.024777806644128413,0.7280134956840494,0.9804263346070227,0.0,0.0,0.0,0.0
0.02699765557119578,0.008163832496215597,0.7261324811246069,-0.0021810488754238294,-0.5258884772280626,0.0027800854489572822,0.8505461913790743,0.0855865851413179,-0.9558289018552877,0.8284414052407291,-0.028305596398401234,-0.9065439130305724,1.074022938437917,-0.030753692590581215,0.7229497962064877,1.0276823967137207,-0.029351276954533614,0.7302160461425365,0.9778514248956784,0.0,0.0,0.0,0.0
0.027647993960711516,0.009133128814836132,0.7259362729905319,-0.002382253108125103,-0.5258389816995219,0.003046935065014563,0.8505753384515966,0.09318283208964885,-0.9585489340934732,0.8234948693510994,-0.03156140235222798,-0.9071897982266708,1.0759023969830839,-0.03574643990969685,0.7242294366655369,1.031162336510063,-0.03386769971002857,0.7315305783004694,0.9752799204809623,0.0,0.0,0.0,0.0
0.028018166941999934,0.010089842962385945,0.7257970809270555,-0.002585371377050579,-0.5257753035295664,0.003320153356327016,0.8506130863294578,0.10018549938615644,-0.9522375306690276,0.8244298453933384,-0.03478175160489276,-0.9065304020670525,1.0754613303375982,-0.0405275289713262,0.7247520422455526,1.0344785819943776,-0.03812969028559876,0.7322172554558392,0.9726445261682655,0.0,0.0,0.0,0.0
0.02814988783576932,0.011109469665567355,0.7257073638567033,-0.002803974864169894,-0.5256540844304621,0.0036187009502537653,0.850686091487316,0.10662117992946858,-0.9384789348242533,0.8290211358995629,-0.038212067263807936,-0.9047785379522058,1.0729601676499776,-0.04544495281706105,0.7244842994398167,1.0377915844102272,-0.042465269104995394,0.7322823224998852,0.9696235182275373,0.0,0.0,0.0,0.0
0.028097485616456655,0.012252953924822306,0.725666892645946,-0.0030574966739146956,-0.5254671236718583,0.003971199319939354,0.8507991438818414,0.11272409666785999,-0.9196992031927442,0.8351733219518799,-0.04208150677818805,-0.9019795927204212,1.0685977725209437,-0.05061713638259624,0.7235238981208267,1.041166285886024,-0.04697514888846667,0.7319668549163023,0.9659182803406817,0.0,0.0,0.0,0.0
0.0279020994293424,0.013519115301432152,0.7256652103255363,-0.003356616340955261,-0.5252392646785357,0.004398257338876578,0.8509366035722472,0.11915915641405667,-0.8978651548823887,0.841528295754929,-0.046433477423167425,-0.898137754273866,1.0625438308837858,-0.0557650448852388,0.7219461542124703,1.044634963760648,-0.05140526456602987,0.7315282089279891,0.9616111370287918,0.0,0.0,0.0,0.0
0.02759120977767756,0.014808833194840942,0.7256440165896147,-0.0036987479571567107,-0.5250293382127764,0.004900916231268184,0.8510619802925622,0.12686758315368218,-0.8742997598401057,0.8472710614637836,-0.05100401046040057,-0.8934508827488353,1.0551386372413856,-0.06004304168294788,0.719637640489901,1.0484385529399354,-0.05502489771922424,0.7310238998360391,0.9576545853059938,0.0,0.0,0.0,0.0
0.027219293010155354,0.015918272452338858,0.7254888561666735,-0.004078541904311261,-0.5249382936747782,0.005459614095235464,0.8511130042148799,0.1365239094445395,-0.8500864020915773,0.8515886744216219,-0.05520221429242085,-0.8884885698016805,1.0472462238087659,-0.061953601589952105,0.716403789131906,1.0530413707462083,-0.05657070676596303,0.730406208163817,0.9559582412840122,0.0,0.0,0.0,0.0
0.026893453292474678,0.016654567010130388,0.7252016466786189,-0.004504784723558891,-0.5250322208575967,0.006029948978316772,0.8510490665591809,0.14717527065806144,-0.8264580153107727,0.8525687813812738,-0.05839636894296474,-0.8839005618700966,1.040225728384263,-0.06020967379801226,0.7126949064906406,1.0578267236142018,-0.05496728202589458,0.730172140513742,0.95718101248368,0.0,0.0,0.0,0.0
0.026672985470059543,0.01690931923750336,0.724900337191185,-0.005000827346190698,-0.5253189158836293,0.0065194870281927225,0.8508657500626001,0.15563049212826954,-0.8062836701444599,0.8465756091335226,-0.06003268728407787,-0.8799637209595358,1.0349350496684406,-0.05448393644755007,0.7093387940169587,1.0614526237195967,-0.04989290598520512,0.7309378947586815,0.9604900677499199,0.0,0.0,0.0,0.0
0.02668802438001815,0.016935396541824056,0.7248934003849092,-0.00502346150796552,-0.5253084436286424,0.006524057601092755,0.8508720471136356,0.1556488580364798,-0.8062501032063938,0.8465927779593787,-0.060094552565063866,-0.8799691079751665,1.0349338671151433,-0.05450748064805888,0.709308706416803,1.0615264650001988,-0.04986519201695315,0.730975385916381,0.960415137613228,0.0,0.0,0.0,0.0
0.02668802438001815,0.016935396541824056,0.7248934003849092,-0.00502346150796552,-0.5253084436286424,0.006524057601092755,0.8508720471136356,0.1556488580364798,-0.8062501032063938,0.8465927779593787,-0.060094552565063866,-0.8799691079751665,1.0349338671151433,-0.05450748064805888,0.709308706416803,1.0615264650001988,-0.04986519201695315,0.730975385916381,0.960415137613228,0.0,0.0,0.0,0.0
0.027553551643140446,0.017218001981617805,0.7270861692426662,-0.0042307907865895104,-0.5247411229356674,0.005573227249162321,0.8512331017104328,0.15722741313612013,-0.8049334793079941,0.8545204608066164,-0.05870918946089937,-0.8822552014820955,1.0437288843574735,-0.07096746673041288,0.7249702110773356,1.0422540191185596,-0.029655040292267416,0.7085148300434264,1.006884810405997,0.0,0.0,0.0,0.0
0.02864229001959221,0.01786773470779407,0.7298318366511464,-0.0037894228304196026,-0.524466093885064,0.005022063940494357,0.8514080898801308,0.1568949809806265,-0.8040081132804963,0.8653933219057816,-0.059095838615796085,-0.8798486738338022,1.0497296337455337,-0.08470672511959484,0.743393553537428,1.0183887530908187,-0.013304831707330114,0.6915464983484007,1.0458577781103144,0.0,0.0,0.0,0.0
0.029697315065137495,0.018883314674723796,0.7324817149529831,-0.0036185321207507786,-0.5242939035657815,0.004802317630036958,0.8515161458565693,0.15487657774854197,-0.8047799224698237,0.8780421903645176,-0.061175908065381576,-0.8749496798515642,1.0526410480109134,-0.0969019664988183,0.7608111498558681,0.995627049482938,-0.00230416509636412,0.6787204285934006,1.0792337842104895,0.0,0.0,0.0,0.0
0.030655863817005958,0.020193999853077422,0.73487086454944,-0.0036220455732505026,-0.5241366350546717,0.00481360268990713,0.8516128802505131,0.15160591700628295,-0.8073013263148481,0.8918257394961207,-0.06455044357649738,-0.8688395997342985,1.0531398655555857,-0.10844224688542152,0.7763378570584691,0.9754926150719675,0.005735168020651039,0.6690297361868803,1.1094518990003288,0.0,0.0,0.0,0.0
0.03147263301669271,0.021690430450951034,0.736982853107712,-0.003724865493499716,-0.5239527589528356,0.004939385383487705,0.8517248582933343,0.14762337861070712,-0.8109118936653197,0.9056963380934336,-0.06865148354920335,-0.8622309694669745,1.0517670091696225,-0.11986937571866298,0.7898765683019455,0.9581460245195895,0.01191958003387858,0.6615191221681561,1.1375733117005087,0.0,0.0,0.0,0.0
0.03202726264126116,0.023204989177150175,0.7388395075421569,-0.0038544584481590527,-0.523762610419887,0.005081602593702274,0.8518403890349979,0.14350950362821974,-0.814027612540602,0.9173184866133993,-0.07279588954397219,-0.8551713442459369,1.0482873835669073,-0.1309964155827423,0.8013057625134661,0.9433698533153276,0.017313571025107163,0.6552231572740101,1.1637045735649922,0.0,0.0,0.0,0.0
0.03224199139339657,0.024662258260734586,0.7404355563394586,-0.00396953500354946,-0.5235544009121017,0.005187134049867934,0.8519672092972678,0.13955047265292891,-0.8160415428287363,0.9256657808969543,-0.07666181785119476,-0.8478027893427569,1.0425790234399581,-0.1417979580476107,0.8103522714939428,0.9312816933212144,0.022647877169480822,0.6496976121267628,1.1867856624039594,0.0,0.0,0.0,0.0
0.03203259683819201,0.0260654509201917,0.7417389100494417,-0.004042991287649216,-0.5233013008518318,0.005230213681009024,0.8521220849227413,0.1357791729529767,-0.8168117620355483,0.9302241845653031,-0.08020360849732905,-0.8401323795093807,1.0342078720390822,-0.15257098406990655,0.81653036952282,0.9224413509904491,0.02879872685483165,0.6450668911671813,1.204371534205757,0.0,0.0,0.0,0.0
0.03130364689932272,0.02747828280479806,0.7426996459982317,-0.004050836496479523,-0.5229558153259122,0.005193890689548282,0.8523343413473343,0.13205907595991775,-0.8164953700671749,0.9307747014712018,-0.08355755498702314,-0.8320901228054176,1.0224803194582752,-0.1639966418009778,0.8191945814029404,0.9177215813389454,0.03694939594708661,0.6424138917764989,1.2119905284219794,0.0,0.0,0.0,0.0
0.030011597478663703,0.028986154472852813,0.7433365025256785,-0.003971695200616887,-0.5224624880648109,0.005064046118346554,0.8526379827566163,0.12820378015991485,-0.8153478724969179,0.9275555740612691,-0.08692002653987481,-0.8235300560666761,1.006908265350937,-0.17682641709293065,0.8181938693233695,0.917210318335719,0.04851659630380253,0.6445270309802555,1.2030474046489683,0.0,0.0,0.0,0.0
0.028144311601516918,0.030607582626927938,0.7437006898984474,-0.0038066185017206627,-0.5218336233766215,0.004841921710453867,0.8530250494348677,0.12415973562655588,-0.8131102437892096,0.9203460503392961,-0.0903221985413003,-0.8140167139696145,0.9870058636323719,-0.19090083827329885,0.8137155377498495,0.9204069848926785,0.06289983517623719,0.6483146506331771,1.1844033024840903,0.0,0.0,0.0,0.0
0.025762588612978865,0.03235182660217732,0.7439053310609787,-0.0035475981780627784,-0.521067739791294,0.004519152194786915,0.8534959884846558,0.11993892819330669,-0.8096367726060614,0.9094338565115538,-0.09375766616502058,-0.8033024474649461,0.9628588541920894,-0.20611132415475464,0.8065197912536248,0.9259476362999278,0.08012507165887515,0.6524328364069917,1.1609972336421694,0.0,0.0,0.0,0.0
0.022974639560170432,0.034218882632394164,0.7440210383406204,-0.0031713342046727645,-0.5201406799833741,0.004071822464188552,0.854065006851127,0.11563268529863903,-0.8051654159391693,0.8956040353765159,-0.09718692078244534,-0.7916734483982201,0.9352013186724378,-0.22255368711282095,0.7973240829201799,0.9327386883594154,0.10139079674981613,0.656656666307352,1.1362525278719855,0.0,0.0,0.0,0.0
0.019996037971658824,0.03616897647883193,0.7440271946528677,-0.0026369827179085234,-0.5189942985651298,0.003450192667655949,0.8547666702379021,0.11153342392737126,-0.8007590716113172,0.880757036960492,-0.10046142516248915,-0.7806190861495327,0.906376625013624,-0.24048459046299514,0.7867347584724459,0.9402946748067736,0.12985947030847755,0.6619284295066896,1.113036739956304,0.0,0.0,0.0,0.0
0.017325555196945876,0.03799936372844062,0.7437477361561223,-0.0018543344470010373,-0.5173973631649017,0.0025036788141877997,0.8557395991925119,0.10870162653204729,-0.7996921626084351,0.8698895738841403,-0.10292781979678123,-0.7753803350329967,0.8839055947096232,-0.26013784489017433,0.7752094830172911,0.9486052899002659,0.17278546524372868,0.6714937655491665,1.0934441173315375,0.0,0.0,0.0,0.0
0.01508070057806182,0.03955590302880264,0.7431188215837724,-0.0008090253614328565,-0.5153689023188615,0.0011681228013242727,0.8569672546192983,0.10770813353979386,-0.8022041605117083,0.8635852248048923,-0.10408585292578508,-0.7775676507065219,0.8704046537677205,-0.2808923358979424,0.7628792939632038,0.9577874894443644,0.23411768055907595,0.684379352773713,1.0803047903256695,0.0,0.0,0.0,0.0
0.013403830950255585,0.04062101688121354,0.7417610775613349,9.364978567161866e-05,-0.5131587241450535,-0.00013836158680354826,0.8582937119189501,0.10828252405253694,-0.8097307259641856,0.8628565331990131,-0.10421209452092847,-0.7870903402735571,0.8666876984977424,-0.2959305298988133,0.747519289023999,0.9711092292257272,0.29776311628834246,0.6936847040968701,1.0771160786558436,0.0,0.0,0.0,0.0
0.013423138221525242,0.04065306914622753,0.741717188896196,0.00015694225075364826,-0.5131628250390768,-0.0001818326816859057,0.8582912427048988,0.10831449314523971,-0.8097308171286035,0.8628796709704094,-0.10420016130746358,-0.7871647360639484,0.866553239644596,-0.2959484078136805,0.7474305445811036,0.9710272033156584,0.2977728151915241,0.6936980610566011,1.0771163779624418,0.0,0.0,0.0,0.0
0.013423138221525242,0.04065306914622753,0.741717188896196,0.00015694225075364826,-0.5131628250390768,-0.0001818326816859057,0.8582912427048988,0.10831449314523971,-0.8097308171286035,0.8628796709704094,-0.10420016130746358,-0.7871647360639484,0.866553239644596,-0.2959484078136805,0.7474305445811036,0.9710272033156584,0.2977728151915241,0.6936980610566011,1.0771163779624418,0.0,0.0,0.0,0.0
0.013173063597820972,0.04094235874584146,0.7419125989787425,0.00013418600299033073,-0.5142563483355492,-0.00012933065328499396,0.8576365042745586,0.10710529377829917,-0.8025141443845465,0.855420035498995,-0.10469538580858972,-0.7778300285468566,0.855865660432086,-0.300553101197724,0.7515365080119627,0.9722690209621841,0.29939101100507354,0.6978297677482951,1.0771751228093411,0.0,0.0,0.0,0.0
0.013362480787396115,0.04135897220184766,0.7419754758640815,4.3029944295476866e-05,-0.5149248151520935,-9.439989843069925e-06,0.8572353427151105,0.10567506056667664,-0.8010467755510491,0.8557282012491991,-0.10585803421808575,-0.7729448464573555,0.8512784935122454,-0.3051168107107871,0.7550038220611857,0.9737917758132236,0.30055488214934234,0.7015575925630763,1.0768117413708302,0.0,0.0,0.0,0.0
0.014108480620634611,0.04194037701849348,0.7419693213544823,-9.983846775699591e-05,-0.5153445859531172,0.0001515009053645631,0.856983036476549,0.10395615340167925,-0.8047926779627927,0.8641144563408752,-0.10769746909901097,-0.7719103497090253,0.8528984503935286,-0.31099941717786295,0.7593252390643433,0.9752798345641003,0.30145416737689446,0.7061451029139996,1.0755948236672725,0.0,0.0,0.0,0.0
0.015476440287484555,0.04275185842539825,0.7419343683569879,-0.0002917104502112325,-0.5156501258975218,0.0003307349509200487,0.8567991323415748,0.10181046455112042,-0.8132303945365428,0.8805030792964229,-0.11030247586032726,-0.7739576858823837,0.8602099427900272,-0.31967717375861254,0.7656244096386243,0.9766778927148623,0.30194272565194524,0.7124255777919382,1.073163347000194,0.0,0.0,0.0,0.0
0.017551395497959924,0.043896558874072476,0.7420236263827374,-0.00040997050871019713,-0.5162604873077095,0.0003683521822525457,0.8564314365351485,0.09921416645547554,-0.8234574100887957,0.9028031727520127,-0.11350711104334649,-0.7766871238785373,0.8711551390076905,-0.3365422307614645,0.7774654302758165,0.9775799595497413,0.3004868937647122,0.7223255062601546,1.0684894430866578,0.0,0.0,0.0,0.0
0.020382275736686842,0.04577933170670909,0.743904894620625,0.0008842284216556165,-0.517827336468035,-0.0012536401659049294,0.855483779000428,0.09799638919422117,-0.8225204089331847,0.9227286335464784,-0.11493445651876068,-0.7752070236338789,0.8822522782750917,-0.2578090780085555,0.745451876183587,1.0103106801295392,0.26931939630423013,0.7379814402667565,1.0460322213893014,0.0,0.0,0.0,0.0
0.02347666301553652,0.047808861910135024,0.7453563990954352,0.0020117407652720785,-0.5193781021414567,-0.002664181452786786,0.8545380284412265,0.0959688816700982,-0.8248610504489241,0.9462231804102508,-0.1173702362725365,-0.7750943625121717,0.8949324145080617,-0.18828578636299126,0.7202951067288803,1.0397393410366813,0.23838938527066933,0.7529347315646903,1.0255159052053264,0.0,0.0,0.0,0.0
0.02645162512623826,0.04971084171859026,0.7464531169665505,0.0026950690424085316,-0.5205722024591853,-0.003527015599546101,0.8538061131138674,0.09313551389281056,-0.8306709135192658,0.9710849218736647,-0.12075884347468993,-0.7758773718694393,0.9076352836634838,-0.1402829273734091,0.7029519692186091,1.0674628447448868,0.21396043653269797,0.7666666823648973,1.007349384949848,0.0,0.0,0.0,0.0
0.029050274638206804,0.05133965501903805,0.747285783361931,0.0030947033570171366,-0.5214613643635888,-0.0040411644903226305,0.8532597126764855,0.0902479135091948,-0.8372523270066352,0.9935624159934835,-0.12420934286708973,-0.776903323873956,0.9188662798351372,-0.10736062373410972,0.6905864973797298,1.0943689733408848,0.19519893083706405,0.7784771062911329,0.9919349905995181,0.0,0.0,0.0,0.0
0.031192839271069226,0.052694685786071026,0.7479318732256258,0.003346999476350597,-0.5221346970634145,-0.004369727597554949,0.8528452738907126,0.0876247237869092,-0.843187460214238,1.0122771605156955,-0.1273194397731732,-0.7777044744481818,0.9279232724971012,-0.08310213291841571,0.6809882291771626,1.1205328119884552,0.18036985243139453,0.7881620663235505,0.9791260967661513,0.0,0.0,0.0,0.0
0.03289564780350971,0.05385132492194165,0.7484353791453777,0.0035259345032535774,-0.5226599079349193,-0.0046001514207730815,0.8525215698328379,0.0852521691382252,-0.8481300737579659,1.0273405620381764,-0.13007217738630167,-0.7780034124129529,0.9345709214415138,-0.06351127483166023,0.6728874860941213,1.1454508802563117,0.16789741976160596,0.7957609382413997,0.9685744296291433,0.0,0.0,0.0,0.0
0.03418751878518461,0.05489711646204232,0.7487682811436093,0.00366161275713308,-0.523080053489499,-0.0047704847158222844,0.8522623379623293,0.08299400862914164,-0.8522799517017859,1.039267743421461,-0.1326013850764312,-0.7777182174796733,0.9386862026166629,-0.04668799892071891,0.6657452002519038,1.1678256530627575,0.1566826992947674,0.8011186459627287,0.9604256844496241,0.0,0.0,0.0,0.0
0.03507257480176721,0.055903241162216996,0.7488443585042498,0.0037595702989947073,-0.5234185946355502,-0.00489055839564402,0.8520533568148718,0.08070016134429264,-0.8560282171023372,1.0484697811021944,-0.13506312062647355,-0.7768840455459052,0.9400801494435129,-0.03207139395448527,0.659667755265337,1.1850927031214231,0.14611997479595684,0.8037967097062213,0.9554014107051728,0.0,0.0,0.0,0.0
0.03552741208882415,0.05690675873717477,0.7485462787698773,0.003812481386884873,-0.5236790536183278,-0.004954727722306474,0.8518926953908486,0.07827700596357082,-0.8597936450810167,1.055124168179717,-0.13756081572954854,-0.775653814339435,0.9385604077767853,-0.019968722000846602,0.6557867941088085,1.1926916736966962,0.13610872776897678,0.8031647226767102,0.9546229462974447,0.0,0.0,0.0,0.0
0.03554804895790189,0.05791599254042057,0.7477949441617731,0.003811994399478541,-0.5238508044511312,-0.00495795645728433,0.8517870755314199,0.07570766357162192,-0.8639329492097453,1.0594349418950946,-0.14013014480630057,-0.7742727213813766,0.9342104288662602,-0.011069676638013198,0.6570125073453715,1.1838031189732654,0.12679018352196672,0.7988462191738779,0.9588308930422664,0.0,0.0,0.0,0.0
0.03517326896770216,0.05899476112562126,0.7466042704963705,0.003774658675701387,-0.5239717604358285,-0.004914698013029769,0.8517130925147866,0.07284964348050296,-0.8684545893867797,1.0617059886475015,-0.14290413222652748,-0.7724808679239827,0.9268277971908291,-0.004065626455834301,0.6605693154772676,1.1651186462215954,0.11741110105470488,0.7910471362783257,0.9676083083141936,0.0,0.0,0.0,0.0
0.03447548280867606,0.06016371734520269,0.745035283159544,0.003725341632829593,-0.5240672112494669,-0.0048530534892231554,0.8516549346975899,0.06970554917384869,-0.8732478096815219,1.062280090944105,-0.1458868887439575,-0.7702208057941216,0.9166923780170463,0.0022011296623888144,0.6654721632717701,1.1410053220600922,0.10740098465225188,0.7802889228088513,0.9800569652301183,0.0,0.0,0.0,0.0
0.033527819303199986,0.06137012785191484,0.7431453658989878,0.003698742163222771,-0.5241518916715446,-0.004812560510430316,0.8516031664013965,0.06649818428272158,-0.8780441763322672,1.0612394288798976,-0.14888085470884033,-0.7677675663930488,0.9045407294611808,0.008668575234566578,0.6717919757677594,1.113749970781683,0.09670096757357502,0.7670959094839761,0.9954993909497253,0.0,0.0,0.0,0.0
0.032431266326151294,0.06245904534608452,0.7409731965044614,0.003751782108317847,-0.52422061906876,-0.004871403762921505,0.851560295046426,0.06382233753399476,-0.8825077765598762,1.0585641052787416,-0.15136923264508442,-0.7661618437192255,0.8921642183495858,0.016251148275295973,0.6802815136984272,1.0841566539733891,0.08567579336553444,0.7519050238400605,1.0136556328019573,0.0,0.0,0.0,0.0
0.03126568108119366,0.0633130775892597,0.7385937079700768,0.003956030748321574,-0.5242851507825808,-0.005143321513587424,0.8515180425178392,0.06225908902703245,-0.8860371884259511,1.0540460732020793,-0.1528297135180421,-0.7661891315391528,0.8810113736368383,0.025700839176081746,0.6917620818157666,1.0518641144791727,0.073840489047232,0.7350661786346239,1.0338575352063293,0.0,0.0,0.0,0.0
0.03009122159740147,0.06387812774849211,0.7361925367541847,0.004398402016633786,-0.5243821076857755,-0.005718484641971074,0.8514524990462612,0.06213822803859623,-0.8876518831452106,1.0473254857035927,-0.15293265243820256,-0.7678798449881169,0.8717811845638881,0.038733323767645864,0.7068463880483674,1.0151754269059488,0.060226483331172566,0.7173510087865275,1.0544021304241193,0.0,0.0,0.0,0.0
0.029191863866580906,0.06415329473443224,0.7343029890981253,0.00513716448487032,-0.5245910905125156,-0.0066438637496859946,0.8513129015646483,0.06353329042799759,-0.886291855967996,1.039645262679461,-0.15158030264529668,-0.7706998373593086,0.8661730848241053,0.05385556705077227,0.7261904503386535,0.9730446553850718,0.04407780725779102,0.7019882479389653,1.0703181055955318,0.0,0.0,0.0,0.0
0.029210165755260094,0.06416234908070019,0.7342570005707585,0.005151803202942836,-0.5246063003887999,-0.006650851424508073,0.8513033858099377,0.06352909210956452,-0.8863316019317304,1.0396578849668854,-0.1515906810041103,-0.770718352573626,0.8661037085350637,0.05386045634495202,0.7261992967483668,0.9730386813664207,0.04406363183240754,0.7019794011217644,1.0703263398446508,0.0,0.0,0.0,0.0
0.029210165755260094,0.06416234908070019,0.7342570005707585,0.005151803202942836,-0.5246063003887999,-0.006650851424508073,0.8513033858099377,0.06352909210956452,-0.8863316019317304,1.0396578849668854,-0.1515906810041103,-0.770718352573626,0.8661037085350637,0.05386045634495202,0.7261992967483668,0.9730386813664207,0.04406363183240754,0.7019794011217644,1.0703263398446508,0.0,0.0,0.0,0.0
0.029354563489968195,0.0643160464067907,0.7345097630795304,0.00463639099694978,-0.5247066008483888,-0.0060087394905028405,0.851249306580856,0.06167162710183248,-0.8879381514519166,1.0421436130148627,-0.1404035981869852,-0.791531912902526,0.8731601107156872,0.06137557521400155,0.7253165469289755,0.9704262868047199,0.05249622263178846,0.7069037695019702,1.0681197937018603,0.0,0.0,0.0,0.0
0.029504762266805783,0.06502345954763204,0.7347675164219422,0.0041843983793097275,-0.5248450570780716,-0.005336194103153244,0.8511707712929365,0.058224027703618716,-0.8907037806650405,1.0465571351154102,-0.12709420360348356,-0.8160634359282549,0.8730152397379414,0.0642420853285994,0.7250725044847852,0.9699075876331364,0.05580816561104938,0.7111231611628575,1.0643127802186352,0.0,0.0,0.0,0.0
0.029615814852548397,0.06618479066373843,0.7349272039876611,0.0037475603649660804,-0.5250241537902427,-0.004681952748326193,0.8510661978052078,0.053614715695552664,-0.8944302350595653,1.0521915776749864,-0.11556348894574854,-0.8407815892721725,0.8692870321854961,0.06333336681260504,0.7247983173853709,0.9721674128508258,0.05471094346016917,0.7141296035620753,1.0600845031816224,0.0,0.0,0.0,0.0
0.029562644682259144,0.0675421706192318,0.7350366788592677,0.0033305837526881724,-0.5252415251255196,-0.004096351826010183,0.8509368175119714,0.048634315058654426,-0.8976599815223768,1.0568459160830377,-0.10678916966420314,-0.8646682818125697,0.8639847033301057,0.06017108954352299,0.7243004022995903,0.9760099528368901,0.05097442383565833,0.7159091876618648,1.05591560477903,0.0,0.0,0.0,0.0
0.029264676026157156,0.06892322317804792,0.7351492377363738,0.0029416360735266918,-0.5254504744562077,-0.003578354727341404,0.8508115778763253,0.043729270259226356,-0.8996923724697334,1.059348490362519,-0.100064512265395,-0.8872184294756249,0.8575454953837027,0.05594960761609173,0.7233449186148012,0.9803260210339036,0.04607835586746718,0.7165253359923699,1.0519060961176978,0.0,0.0,0.0,0.0
0.028704064233917297,0.07022113916090997,0.7353317140777001,0.002589338058200957,-0.5256253010354887,-0.0031247817031294822,0.8507065145977666,0.03917540354715707,-0.9001236167252129,1.0592123410460657,-0.09425061876210354,-0.9079193774209413,0.8503323623740373,0.05145225024904715,0.7220305956444047,0.9840875875984201,0.04098308913493557,0.7162973012505525,1.0477914871928855,0.0,0.0,0.0,0.0
0.027849901022869043,0.07142232863073018,0.7355980565546947,0.002270480239387308,-0.5257450727243828,-0.0027187803988624037,0.8506348051065503,0.03497410795193322,-0.8988986303000696,1.056244761205247,-0.08841168865015149,-0.9256352530163229,0.8429541994899508,0.04695971370233238,0.7201756204329376,0.9871184786785407,0.036021796718656914,0.715223970349562,1.0435143880278976,0.0,0.0,0.0,0.0
0.02664632746820777,0.07257314123833389,0.7359512189702232,0.001972917745829803,-0.5257950780403158,-0.0023418128594946313,0.8506057602771554,0.030965003302649747,-0.8959977662603485,1.0502258451050865,-0.08200583344386678,-0.9383507933960833,0.8367399654818487,0.04235729857274218,0.7175226461566782,0.9895951205235723,0.031066391256029925,0.7131362048210438,1.0389620253871892,0.0,0.0,0.0,0.0
0.025012967251328233,0.07375414667791674,0.7363891171745082,0.0016782626011698045,-0.5257710323156716,-0.0019775949008976382,0.8506221806012129,0.02690562445088147,-0.8913123060805855,1.0407660188157128,-0.07494625717075336,-0.9435116281694351,0.8338338626516302,0.037291160981402664,0.71377981269694,0.9918926646004127,0.025736294404276654,0.7097732085508591,1.033984377720748,0.0,0.0,0.0,0.0
0.022894973917153227,0.075015321312971,0.7369415634581495,0.0013739677003268855,-0.5256941524791913,-0.0016234548614787615,0.8506709908397346,0.02267111714801492,-0.8844633691404512,1.0273348071224426,-0.06735232666696442,-0.9394423032782234,0.8365417784961057,0.03154348409368692,0.7089889302392055,0.9939685733495375,0.019820188393162925,0.7052028430980843,1.0282064928956456,0.0,0.0,0.0,0.0
0.020291908284418576,0.07632071645435842,0.7375972815339622,0.0010691771749164634,-0.5255334525606127,-0.0012815833467635246,0.8507712998473892,0.01837609710367883,-0.8754533369931244,1.0097656259254904,-0.05912411823137296,-0.9279489873254347,0.8426748787558268,0.025411195577891524,0.7030099246685391,0.9956560732996551,0.013671211868175222,0.699416015626738,1.021689331722474,0.0,0.0,0.0,0.0
0.017242798681160017,0.07761911387226508,0.738330009279243,0.0007738029776920692,-0.5252852725069791,-0.0009547270927292028,0.8509253035445584,0.014172755500770757,-0.8642999176136348,0.9880199424985493,-0.05011183137243942,-0.9117235267700886,0.8503330342652871,0.019321478183215075,0.6958338230283175,0.9968422506876475,0.007733526128067238,0.6925579677561524,1.0146512425593734,0.0,0.0,0.0,0.0
0.013823262874223533,0.07886441748772217,0.7390781105741253,0.0004932426425494334,-0.5249636255935267,-0.0006418724963914397,0.851124277949521,0.010186829125812417,-0.8512121754139956,0.962339126689239,-0.04024339925390496,-0.8929242861926325,0.8585676890037279,0.013689935905718653,0.6874524055934638,0.9977320385990213,0.0023921406080756992,0.6847567130075735,1.0076051675517452,0.0,0.0,0.0,0.0
0.01021398663059815,0.079981700199277,0.7397612128604499,0.00023729447633802128,-0.5246027718267057,-0.00034789288525212083,0.8513470235183824,0.006625024149818372,-0.8367637163690927,0.9337426718586155,-0.029453254548006277,-0.8728675013541468,0.8673540952774869,0.009013652179685014,0.6781655173985329,0.9985424671560501,-0.0019190407028988783,0.6763697791740262,1.001277472127485,0.0,0.0,0.0,0.0
0.006884932446544142,0.08095990822984618,0.7401800995284984,2.3757316418138113e-05,-0.5241530469902241,-9.334566299047755e-05,0.8516240802449405,0.0035596425982296095,-0.8240266867354773,0.906999431162111,-0.0184371210009807,-0.8517106515955352,0.8754939965258471,0.005061511568464844,0.6684542330876029,1.0004171106141908,-0.005516696867255813,0.6676325546525086,0.9968640757998394,0.0,0.0,0.0,0.0
0.004088616033245624,0.0816449800774488,0.7402882324177221,-0.00013143074570225193,-0.5236958096511698,9.380238070777964e-05,0.8519053191997795,0.0014242094878064043,-0.813704098154315,0.8839185730458318,-0.00814686746820509,-0.8320577115280281,0.8830140257148816,0.002554121808304521,0.6590498222456287,1.0032836495635604,-0.007728790095972827,0.6591457944766048,0.9953372914942317,0.0,0.0,0.0,0.0
0.0022728630659332775,0.08201590065340125,0.7401514596159277,-0.00022877346587020357,-0.5232878163547064,0.00021236668892301035,0.852155950409204,0.00024730052806097146,-0.8078067880511962,0.8689957193526875,-0.0010361855031968074,-0.8183254516942904,0.8877997118728175,0.0014841540310366547,0.6517104824603642,1.0063251213262054,-0.008613767606621156,0.6525179696061311,0.9960508954812208,0.0,0.0,0.0,0.0
0.002285067280102341,0.08203852792121066,0.7401261996891343,-0.00024233676098855012,-0.5232701029916614,0.0002086010202427222,0.8521668246732002,0.00022761648763517414,-0.8078431978372308,0.8688638382613324,-0.0010435860070938108,-0.8183309228676394,0.8878100305300242,0.0014816392323178335,0.6516518948453071,1.0063773805676108,-0.008609216350782708,0.6525415905519844,0.995948558606844,0.0,0.0,0.0,0.0
0.002285067280102341,0.08203852792121066,0.7401261996891343,-0.00024233676098855012,-0.5232701029916614,0.0002086010202427222,0.8521668246732002,0.00022761648763517414,-0.8078431978372308,0.8688638382613324,-0.0010435860070938108,-0.8183309228676394,0.8878100305300242,0.0014816392323178335,0.6516518948453071,1.0063773805676108,-0.008609216350782708,0.6525415905519844,0.995948558606844,0.0,0.0,0.0,0.0
0.002285067280102341,0.08203852792121066,0.7401261996891343,-0.00024233676098855012,-0.5232701029916614,0.0002086010202427222,0.8521668246732002,0.00022761648763517414,-0.8078431978372308,0.8688638382613324,-0.0010435860070938108,-0.8183309228676394,0.8878100305300242,0.0014816392323178335,0.6516518948453071,1.0063773805676108,-0.008609216350782708,0.6525415905519844,0.995948558606844,0.0,0.0,0.0,0.0
0.0029138720106301353,0.08255472765886772,0.7400162086225013,0.00016137696224452616,-0.5231577529570772,-0.00019877116245685202,0.8522358241522137,-0.0002215782080297957,-0.8121331917009286,0.8768612990342807,-0.001506306913117793,-0.8226564099684104,0.8940488134238199,-0.007210909514947862,0.6546376082565484,1.0087316044602637,-0.017203866823702903,0.6518025760274652,0.9937359112676343,0.0,0.0,0.0,0.0
0.004193631887841464,0.08314018827632726,0.739826687789403,0.00028436974131151703,-0.5233097062665344,-0.0003306347516412869,0.8521424535497247,-0.0014249778612526343,-0.8195622407797851,0.8910670649432239,-0.002722163460813169,-0.8280165272217725,0.9043896617816477,-0.013056936713022028,0.6588677995698218,1.0116405134697726,-0.02288651544811511,0.6542956142535628,0.9923056829277033,0.0,0.0,0.0,0.0
0.006124512476847806,0.08365798137053634,0.7396011231702073,0.00022054033409436442,-0.5236888706730237,-0.00026744270531977666,0.8519095295684709,-0.00288376050590874,-0.8294482381155772,0.9105621582646959,-0.004192529857906054,-0.8349915690507081,0.9195567704127154,-0.016212652168280845,0.6648005595731317,1.0141866865483518,-0.025986885227442885,0.6598704317492006,0.991484545964108,0.0,0.0,0.0,0.0
0.00870567988057174,0.08414341732274497,0.7393793648516567,-4.5300500892635315e-05,-0.5243316460894972,1.7369180263613053e-05,0.851514135264503,-0.00475596208457859,-0.8413958567709018,0.9348965185738858,-0.006075155014552018,-0.8429459268511028,0.9388522611949677,-0.01653220437489284,0.6726902559652944,1.0160515880419643,-0.026458457714376563,0.6689801059467355,0.9907617958040005,0.0,0.0,0.0,0.0
0.011976163182312836,0.08474776490630002,0.7392696256797936,-0.0008334509731525597,-0.5256807933553056,0.0009848861864094178,0.8506809265852924,-0.008491594999998334,-0.8539263316094011,0.9628844147905553,-0.009814828970946769,-0.8474478024822384,0.9583356161351597,-0.009561822921188973,0.6827516835345465,1.016898134829387,-0.02016772619390756,0.685208441156302,0.9898208523749552,0.0,0.0,0.0,0.0
0.015445597478335111,0.0852779945603217,0.7388696591407814,-0.0009846732375964828,-0.5255335536863323,0.0010534365393312555,0.8507716524660937,0.013546539057892095,-0.8500958124975744,0.9271735922366445,-0.011365225674757576,-0.8646243237303701,0.989615182675746,-0.012068119842955732,0.6914517463058271,1.017522085861509,-0.022754215785853037,0.6938388485804542,0.9870250359294157,0.0,0.0,0.0,0.0
0.01897818943389014,0.08614908416483091,0.7383485410314201,-0.0013478334947654227,-0.5256034669127387,0.0014763340817525086,0.8507273354911425,0.03885047781569623,-0.85691067541975,0.8993964924079005,-0.014673938320653331,-0.8789455974220208,1.017399166158048,-0.01342887706511534,0.6995706882681549,1.0200715846758042,-0.024277729035230268,0.7037819500874898,0.9846274176756706,0.0,0.0,0.0,0.0
0.022260127155165763,0.0872848941016427,0.7377818359806878,-0.0017823789498510679,-0.5257981450729481,0.0020579292005759886,0.8506050192013516,0.06347936422309843,-0.8697169776608659,0.8785341223898615,-0.019119969383377053,-0.8901108870794674,1.0403325752729804,-0.015306329924502813,0.7069419833011649,1.0239836242755749,-0.026298417615746545,0.7135554693353465,0.9821146221455953,0.0,0.0,0.0,0.0
0.0251431653093558,0.0886360399846139,0.7372265269967243,-0.002188044467165005,-0.5259524552677496,0.0026505523396755807,0.8505070263269611,0.08608789707501183,-0.8852228512077129,0.8615338732080756,-0.02423292674845086,-0.8988853248761783,1.0587320541338912,-0.01920277406229061,0.7134497442317815,1.0287005861031582,-0.030175625251591745,0.7219233770955319,0.9789168067634028,0.0,0.0,0.0,0.0
0.02762038517696594,0.09016551703208743,0.7367046010568968,-0.0025613710736494197,-0.5260209334691472,0.0032250276504499765,0.8504616488279315,0.10648411701381938,-0.901423454783267,0.8464711492424977,-0.02983040034152674,-0.9056944405840178,1.0731557169833774,-0.025244326924938523,0.7190999821131495,1.0339638481699667,-0.03593927701674224,0.7286873733388627,0.9749702283457037,0.0,0.0,0.0,0.0
0.029756425271368278,0.09185531763617419,0.7362142778221785,-0.0029332952555033947,-0.5260071596458923,0.003799944791465327,0.850466592053907,0.1249057112270226,-0.9167925451561432,0.8324390060896607,-0.035890289090907836,-0.910848163349677,1.0842818702035861,-0.03301886401740687,0.7239631513784537,1.039690167980294,-0.04310128244059601,0.7341332125696383,0.9703703209935167,0.0,0.0,0.0,0.0
0.03163277811627925,0.09371753471229124,0.7357473124894977,-0.003334874719555508,-0.5259085839495681,0.00440578348142865,0.8505231501909162,0.14163635063218383,-0.929628229792329,0.819408052767042,-0.042507898858380244,-0.9146416466110234,1.0927614005773258,-0.04219099063935624,0.7281123592136249,1.045863970454561,-0.051255659737343966,0.7386147044414949,0.9650930579350107,0.0,0.0,0.0,0.0
0.03330846026096478,0.09578755141925127,0.7352864928125548,-0.003784479792388412,-0.5256999311309926,0.00507110172846157,0.8506465447227951,0.156924896917866,-0.937707735288133,0.808189911166008,-0.049849759972256914,-0.9173535743920774,1.0990514119997725,-0.05269945137113436,0.7315049142766089,1.0525964969421213,-0.06025585723044413,0.7422871493863973,0.9590690723208602,0.0,0.0,0.0,0.0
0.03482577515505995,0.0980761741650902,0.7348210006247142,-0.004290045260878632,-0.5253721581802818,0.005824309374727692,0.8508417998317666,0.17106788602965903,-0.9385476310189018,0.800494321357674,-0.05802446366535272,-0.9191295326715293,1.1034477798655113,-0.06432090411918297,0.7341081008840391,1.059901185136042,-0.06982469365693131,0.7453457020645184,0.9522933920554145,0.0,0.0,0.0,0.0
0.03625198442923385,0.100529246301328,0.734416476822103,-0.004861734128398563,-0.5249912671811862,0.006671385486646478,0.8510675798903667,0.18399178479134423,-0.9306139537652155,0.7983554004561868,-0.06688850637002292,-0.9197517208547067,1.106245156071389,-0.07641073670727576,0.7365057897353731,1.0670136222734747,-0.07937031213937125,0.7486292236587189,0.9443485495434292,0.0,0.0,0.0,0.0
0.037756575556124175,0.10318305793834422,0.734055236406102,-0.005542618412260157,-0.5245227854165596,0.007666758958275326,0.8513438481407295,0.19634445074334633,-0.9151711689422203,0.7990721158062198,-0.07668615776691308,-0.9198624813865012,1.1086927458384035,-0.08843834539624588,0.7388673951672956,1.0738016832413588,-0.08845522676874647,0.7527743890940181,0.9349347534136769,0.0,0.0,0.0,0.0
0.039438687633269784,0.10609665988938807,0.7337100866866213,-0.006380314827911398,-0.5239594480315554,0.00887410713074719,0.8516730820119869,0.20891712080218577,-0.8943699892325263,0.7999219380855308,-0.08774859080134359,-0.9195605046077765,1.1111837810252188,-0.09996661945173718,0.7411841216432391,1.0804102942364673,-0.09675507933834125,0.7582397406379012,0.9238944702616705,0.0,0.0,0.0,0.0
0.041329072968371156,0.10920207174397284,0.7333151733898337,-0.007411910931856875,-0.5233813796056934,0.010335296052870929,0.8520036248243775,0.22299483798578743,-0.8697484333150697,0.7986709882001615,-0.09999588819539028,-0.9186591161713896,1.1136737307592315,-0.10964607594220936,0.7432230135131727,1.087187680895585,-0.10328453752265804,0.7652940537019511,0.9121673054776964,0.0,0.0,0.0,0.0
0.043377031991332075,0.11212460913960673,0.7326092917534117,-0.00865307288381996,-0.5230538919652343,0.01203534053117458,0.8521706994540396,0.24026715446775165,-0.8420586784606846,0.7935685897616901,-0.11235044404952535,-0.9172547244792333,1.1161647008477777,-0.11394982448486188,0.7439651278936373,1.0957298833757474,-0.10555649538276031,0.7733291676254446,0.904285227846525,0.0,0.0,0.0,0.0
0.045503765764154984,0.11447915001429004,0.731589179685711,-0.01000713150632497,-0.522931112719162,0.013722204038633844,0.8522057320774347,0.26040657371705994,-0.810242773694265,0.7802512151724422,-0.12314737559918353,-0.9170060338989713,1.120284264708216,-0.11185374437535989,0.7432354969787152,1.1052422378229976,-0.10306858570048695,0.7811733381339359,0.901804000259076,0.0,0.0,0.0,0.0
0.047412098837378056,0.11609360017910574,0.7304062853482411,-0.011409898950020762,-0.523014514803008,0.015183827811334304,0.8521121304642484,0.2822943832013606,-0.7741169835392439,0.7531208542452206,-0.13128551891377677,-0.9174468325463596,1.124812187167268,-0.10351076628826267,0.740900055485558,1.114679607035947,-0.09603389059379967,0.7880002198135327,0.9044387106703369,0.0,0.0,0.0,0.0
0.04856224413014077,0.11679067483551543,0.7294138019524482,-0.012700196745365301,-0.5231805845269677,0.016022213924243363,0.8519765663664789,0.3018877810202732,-0.7344133754042637,0.7046344341691979,-0.13509591653983735,-0.9178670462014814,1.1275502939645423,-0.09163822242916116,0.7371757286296424,1.1218282903154313,-0.08640332822298982,0.7921261312859151,0.9100400831861695,0.0,0.0,0.0,0.0
0.04862483027693347,0.116870598213416,0.7293712746734453,-0.01277655614253554,-0.5231444166934212,0.0160187425267087,0.8519976988135002,0.30193063510034407,-0.7343421690324371,0.7046428479759258,-0.13531227102072357,-0.9179089239919886,1.1275787438702072,-0.09173301405431337,0.7371428868332486,1.1220918296817173,-0.08626364372994397,0.7922544266241628,0.9098365673675795,0.0,0.0,0.0,0.0
0.04862483027693347,0.116870598213416,0.7293712746734453,-0.01277655614253554,-0.5231444166934212,0.0160187425267087,0.8519976988135002,0.30193063510034407,-0.7343421690324371,0.7046428479759258,-0.13531227102072357,-0.9179089239919886,1.1275787438702072,-0.09173301405431337,0.7371428868332486,1.1220918296817173,-0.08626364372994397,0.7922544266241628,0.9098365673675795,0.0,0.0,0.0,0.0
0.04845743784233755,0.11785553202223356,0.7328099823320308,-0.010961478725424205,-0.521574428830864,0.014422608758427642,0.8530134521392446,0.30258238301409773,-0.7284432348156219,0.7079033432475779,-0.13446203966255874,-0.918332065215106,1.130575838413576,-0.13381529346755772,0.7576640806397359,1.096412724207504,-0.04559871862101649,0.7574646901092021,0.9754262158148862,0.0,0.0,0.0,0.0
0.04831361072930696,0.11941780741442921,0.7369550329309333,-0.009793194130622906,-0.5204895793725371,0.013339423379386107,0.8537076495482658,0.3004123786981879,-0.723438989250732,0.7148099593211167,-0.135791668239033,-0.9102657443282987,1.1265488432353634,-0.16897641382040146,0.7797109238914245,1.0650810754906594,-0.011886026056091133,0.7323690767381512,1.0254118919904045,0.0,0.0,0.0,0.0
0.04814660499100193,0.12139438057865098,0.7408770243661975,-0.009173966732150669,-0.5197474286798479,0.01273336380519964,0.854175807525177,0.29620131312416786,-0.7212634970312043,0.7248359931269279,-0.13908929933533995,-0.8977853935929307,1.1174448245417903,-0.19771455230315602,0.7996831373197271,1.035343782089341,0.012613423334255962,0.7150841810144978,1.0646355458884624,0.0,0.0,0.0,0.0
0.047917778022043854,0.12366088008383341,0.7443694615088162,-0.008905657743639885,-0.5191489871607893,0.012461228954555658,0.8545465090695895,0.29067637860269147,-0.7219337506059069,0.737155725458738,-0.143815351251648,-0.883397883132422,1.1050387606004886,-0.22237712345915042,0.8168330847265945,1.009067738021791,0.0318657221946614,0.7030696436250125,1.0977669691844865,0.0,0.0,0.0,0.0
0.04757006073348168,0.12610891704925994,0.7474399636309672,-0.008830220810982836,-0.5185645029435815,0.012362046236405657,0.8549035403483568,0.28444679767919284,-0.7245318764966775,0.7503330504564973,-0.1493422331716863,-0.8684429235518448,1.0903844074581768,-0.24483424269746332,0.8311697702009596,0.9863898804275577,0.0480791622785871,0.6941195837209064,1.1270374745073717,0.0,0.0,0.0,0.0
0.04695062748187343,0.1285756563608357,0.7501630127718925,-0.008803374405177325,-0.5179695593339912,0.012282026698827522,0.8552655657879619,0.2780797828220065,-0.7267351787361597,0.7609792368054249,-0.15486434872170324,-0.8532710456275645,1.0734784932659167,-0.2658768108631708,0.842721370441546,0.9668664686675804,0.06279640292894759,0.6864677854110899,1.1530705756017356,0.0,0.0,0.0,0.0
0.04599657028435991,0.13108001274132675,0.7525924358445933,-0.008762948144686067,-0.5173137427794859,0.012162647258221325,0.8556645208742533,0.2716155985395107,-0.7282556279282613,0.7687370520093056,-0.16030865803829522,-0.8379032758424227,1.054091284754979,-0.2864021575490595,0.8515056493482643,0.9502976890360454,0.07725033721524606,0.6792636171623778,1.175197055132569,0.0,0.0,0.0,0.0
0.044644752810600714,0.13370359910476587,0.7547649781784557,-0.008666105436393555,-0.516539463297065,0.011966022931210987,0.8561359096361716,0.2649158058759965,-0.7292225910638152,0.7737734083850835,-0.1658107228964539,-0.8221552108902295,1.0316391383473213,-0.30740824741708106,0.8574116466367216,0.9366761533019656,0.09272600254938032,0.6723466022153817,1.1912237833053756,0.0,0.0,0.0,0.0
0.04283083998817531,0.1365602353768553,0.7566943022893479,-0.00846760111119945,-0.5155700703613234,0.011650107211854338,0.8567263724673088,0.2577893990645812,-0.7300034348521666,0.7764985916270385,-0.17158540747255313,-0.8058735679136532,1.0054137289436558,-0.33001530243369587,0.860163480162163,0.9261710810458001,0.11079965789552182,0.6665932772330844,1.196856493350416,0.0,0.0,0.0,0.0
0.04054014938827527,0.13975282579387052,0.7584045504476441,-0.008129424742115353,-0.5143376726760763,0.011176975740732963,0.8574763822594828,0.25008779727338454,-0.7310711647704992,0.7776194959325367,-0.17782701522382918,-0.7889607427019089,0.974958997532869,-0.3549029934547405,0.8596358903351959,0.9186157279023881,0.13310235838679207,0.6646878586248346,1.1857171973252025,0.0,0.0,0.0,0.0
0.03780334261899347,0.14327042128821874,0.7599616138329643,-0.007630731320394016,-0.5128564869071607,0.010518853582771987,0.858375995409975,0.2418942374805679,-0.7321005546629339,0.7769820656787876,-0.1844211023255661,-0.77116840603364,0.9401107410023927,-0.38143136501019886,0.8561198103821821,0.9130694212666869,0.1594440268288089,0.6639089005139774,1.1649121669114768,0.0,0.0,0.0,0.0
0.03469274001007917,0.14699834906449538,0.7614173628438804,-0.006928378195784493,-0.5111312999978935,0.00962351055911133,0.8594208397418334,0.23362193828625966,-0.732534157257797,0.7741131340119781,-0.19097755073134165,-0.7529116800961325,0.9016697962477447,-0.408470596763015,0.8499908789571208,0.9083375094312502,0.19048982599633985,0.6634660373063476,1.1397791242793553,0.0,0.0,0.0,0.0
0.03131030883440006,0.15063733749588692,0.762697316829659,-0.005914593747617515,-0.5090941225036396,0.00831175965574504,0.8606503974695386,0.2264906560386089,-0.7316096327768365,0.7678840509462856,-0.19647853177955135,-0.7366516506117716,0.8627842059588622,-0.43505860647750716,0.8411979133360663,0.9039627041451298,0.2290113966491444,0.6644491107310051,1.1137267620101095,0.0,0.0,0.0,0.0
0.027766608258478476,0.1538891666411957,0.763468345753869,-0.004493052014242558,-0.5066262535007994,0.006468471159498148,0.8621298107757321,0.2216415423353342,-0.7300053925649125,0.758316268346415,-0.20020072038872466,-0.7261782139436622,0.827945707209698,-0.4600344330559361,0.8282161614051866,0.9021090329506182,0.281995409022065,0.6689505938703327,1.0895034336865237,0.0,0.0,0.0,0.0
0.024413243850239692,0.15669828937485222,0.763220154759939,-0.0027984691436585343,-0.503527830749515,0.004167187952565665,0.8639644244850061,0.21952526960013152,-0.7326783099488015,0.7513996338284166,-0.20247311738833032,-0.7260587546434853,0.8032753214880357,-0.4821639893270615,0.808929854318427,0.9069066465231047,0.3524443635099253,0.6782020850677367,1.0693052738145157,0.0,0.0,0.0,0.0
0.021410198573740505,0.1588411140174997,0.7617772482751944,-0.0010069313266353771,-0.49979325365611915,0.0015517492883643726,0.8661427606135605,0.22061484668515763,-0.7409644811077198,0.7485992413283327,-0.20306776490941625,-0.7383553385161632,0.7924524024080477,-0.4985799941495586,0.782667575603548,0.919512752897536,0.44200366834948407,0.6900401359459586,1.0555864152719385,0.0,0.0,0.0,0.0
0.01920638107821046,0.16006215000110155,0.7595648314108726,0.00027054603014060354,-0.49584580434089065,-0.0007421758131702696,0.8684102223589052,0.22433055608709923,-0.7551888820329804,0.7523984622810976,-0.2023592138907939,-0.7599338057060645,0.7960730803509101,-0.5032984003317121,0.753509020163013,0.9356034405985201,0.5330162787370994,0.6970409514931521,1.0525870932818011,0.0,0.0,0.0,0.0
0.019235249801530616,0.16010356618641308,0.7594488610606549,0.0003776231844361367,-0.49584457123709313,-0.0007949193255411028,0.8684108397980185,0.22442902879293697,-0.755273464526695,0.752412220771998,-0.20237514110735597,-0.7601507740344671,0.7957679441594117,-0.5033660746225745,0.7533775427771252,0.9353753494003076,0.5330785967020666,0.6970375336659541,1.0525832426780892,0.0,0.0,0.0,0.0
0.019235249801530616,0.16010356618641308,0.7594488610606549,0.0003776231844361367,-0.49584457123709313,-0.0007949193255411028,0.8684108397980185,0.22442902879293697,-0.755273464526695,0.752412220771998,-0.20237514110735597,-0.7601507740344671,0.7957679441594117,-0.5033660746225745,0.7533775427771252,0.9353753494003076,0.5330785967020666,0.6970375336659541,1.0525832426780892,0.0,0.0,0.0,0.0
0.018945886708317584,0.1608887011530073,0.7602896103983849,0.0005003554959298635,-0.4979422385305687,-0.0007257998117906516,0.8672097496835337,0.22083640860855736,-0.7421304934821445,0.7404841650602376,-0.20325825125863778,-0.7409768772640704,0.7742053371914389,-0.5181171906354629,0.7648559961661566,0.9331984430877065,0.5376795024313669,0.707966181318297,1.0489166046681049,0.0,0.0,0.0,0.0
0.019047673356215357,0.16199075552511732,0.7607671720304368,0.00038016939017557596,-0.4992336855973503,-0.0004252611710417586,0.8664671960259414,0.21678480112060575,-0.7391387884252857,0.7410396109577556,-0.20595094338440909,-0.7270047850352895,0.7583997415530526,-0.5305617994409932,0.7727356786210193,0.9330914536652978,0.5405392471645268,0.7161160796329299,1.045691439738727,0.0,0.0,0.0,0.0
0.01969807222165627,0.16347910598826892,0.7608725947365649,8.67592484550058e-05,-0.49995927947851027,3.003033551635863e-05,0.8660489076457175,0.212164278599244,-0.7459359257600991,0.7549108963502839,-0.21039690362518784,-0.7180534914127933,0.7490808389207322,-0.5434603886062892,0.7786421681934832,0.9355792804506894,0.5420189744948953,0.7227788069069057,1.0433558374166447,0.0,0.0,0.0,0.0
0.02094033534087372,0.16544182003887054,0.760421706898841,-0.00033947145180402886,-0.5003593785920544,0.0005183994090041719,0.865817595268287,0.20695100562480567,-0.761622622922322,0.7810870628232045,-0.2164845869552946,-0.7136931536096581,0.7456272631062755,-0.5607406721272234,0.7833138754411115,0.9431232883853973,0.5423592082687944,0.7281596551297683,1.0439456074525078,0.0,0.0,0.0,0.0
0.022901556533662798,0.16821917266492137,0.7594421129135511,-0.00030331617999121186,-0.5015218559841679,0.0001899509536015592,0.8651449010935253,0.20159972951898109,-0.7779775261839356,0.812407211949856,-0.2228823150788953,-0.7101620547439661,0.7435841233056135,-0.604654473444449,0.7950379212463203,0.9583001503944344,0.5361899953138974,0.7353885524793288,1.0489428121169457,0.0,0.0,0.0,0.0
0.026231846612434315,0.17157577372310226,0.7615424575209303,0.001991360063555073,-0.5043195168451798,-0.002783297149675316,0.8635103431176249,0.19915485499826233,-0.772899339051521,0.8357034764294207,-0.22474033951255779,-0.7034241538823981,0.74723238609983,-0.48473366272494817,0.7576664446913498,0.9889507707027076,0.4967421166974695,0.7588896537685126,1.0265352435938948,0.0,0.0,0.0,0.0
0.030036753150783645,0.17525124219732324,0.7626072839764266,0.0042798788391670145,-0.5075576892394262,-0.005847862603254507,0.8615873009939443,0.1962521313856099,-0.7710918767073232,0.8631785935382266,-0.2275652306691038,-0.6988113287353281,0.7528340351779051,-0.3740544768254658,0.7300270936785899,1.0183548228226904,0.45354172852903807,0.7799441115650608,1.0110687061201111,0.0,0.0,0.0,0.0
0.03419254553196554,0.17910382547939283,0.7628987674626988,0.005849754292086137,-0.510337329113136,-0.008037748061158367,0.8599168480117704,0.19158509494245277,-0.7792236447191742,0.9004542004794617,-0.23315237268064576,-0.6966328046327603,0.761235775394882,-0.29074157859538047,0.71367217129606,1.0483397253080469,0.4137394491208144,0.7979806963624384,0.9989396879457755,0.0,0.0,0.0,0.0
0.03840994568627215,0.18296031979675595,0.7627458585098791,0.0067221020923403955,-0.5124660762214034,-0.00926558873951689,0.8586311681572065,0.18527097089415143,-0.7950803645547286,0.9436576789986965,-0.2411445202963507,-0.6957874980844677,0.7707202867430701,-0.23130427844167134,0.7061951277565179,1.0780487342834641,0.3798052712565114,0.8136434474658104,0.9881611870748753,0.0,0.0,0.0,0.0
0.042273305931236536,0.18643917725045375,0.762404567671593,0.007241897362460332,-0.5141807357714165,-0.010016543343372635,0.857592790748387,0.17889958748715507,-0.8115274079949494,0.9835043859318366,-0.2492768459567225,-0.695325548624245,0.7793537503382959,-0.18626443217299965,0.702340353823154,1.1075033059488553,0.3505246769663253,0.8268408015358832,0.9787860450013294,0.0,0.0,0.0,0.0
0.045597628834236015,0.18941086013624248,0.7619138652343939,0.0075839433616669985,-0.5155813899909055,-0.010514105350074417,0.8567425329040343,0.17314412966334003,-0.8263578330571755,1.0172974696187551,-0.25664023368576894,-0.6951875026625363,0.7865922898306461,-0.1498044178967987,0.6995737966774839,1.1355316842665144,0.3253334501680369,0.8371294094435814,0.9717371247758072,0.0,0.0,0.0,0.0
0.04832013999651494,0.1919003903162678,0.7612236586291032,0.007836292590844283,-0.5167386842169925,-0.010878119701747986,0.8560381949795678,0.16819217876270212,-0.8392340516083058,1.044853208251552,-0.26298274168258107,-0.695386291756377,0.7920979930011894,-0.11909543183957305,0.6970043379231348,1.1605205614032779,0.303529322797652,0.8440684384746171,0.9680792242508623,0.0,0.0,0.0,0.0
0.05045642531609204,0.19402624017462733,0.7603112098434943,0.008037903119231641,-0.5177093147623926,-0.0111593211980832,0.855446039836586,0.16387152908444594,-0.8504947761933093,1.0670328781361915,-0.2684559549267795,-0.6956183594244664,0.7953760190437124,-0.0925114999150588,0.6946373755036441,1.179891740041025,0.28409067625959233,0.8475914949338073,0.9680838850562493,0.0,0.0,0.0,0.0
0.052025746478287435,0.19590242331536603,0.7591155646685444,0.008195842269059013,-0.5185183672027148,-0.011368029398043187,0.8549516354452669,0.15994732451057783,-0.8607562768168493,1.084754442998409,-0.2733075145522545,-0.6956905178120928,0.7959886725872163,-0.06952506181639123,0.6935197223230659,1.1891107946020205,0.2663185636948135,0.8474846163843676,0.9721880659401471,0.0,0.0,0.0,0.0
0.053058325505036336,0.19761216657174738,0.7575757515152461,0.008306617011899069,-0.5191677781818769,-0.011502282110483776,0.8545545715270394,0.1562394509597832,-0.8706535373300364,1.098851814679719,-0.2777574960473411,-0.6956030481471863,0.7937968877440885,-0.05017550503661722,0.6964433550318261,1.1813525192862186,0.24984633368340384,0.8435925285458704,0.9807307923862066,0.0,0.0,0.0,0.0
0.05358748120428476,0.1992571015454339,0.7556421352723003,0.008389937061185775,-0.5197042328837902,-0.01158083550947904,0.8542265528111865,0.15252919020663558,-0.8804777531344289,1.109866988670949,-0.28201621025840923,-0.6950668075008296,0.7883013120108533,-0.032912876689727685,0.700931836518431,1.163115076452699,0.23367138798394055,0.8358382882695621,0.9938352572365277,0.0,0.0,0.0,0.0
0.053675879879195205,0.20091728615331905,0.7533238495045406,0.008473113376817085,-0.5201602985263228,-0.011632693919570145,0.8539473933556351,0.14867108107207516,-0.8903731125370052,1.1183613694651335,-0.28623572816462045,-0.6938943815166153,0.7793545157935331,-0.01605236747212155,0.7062275131128836,1.1385448358798707,0.21659338516537385,0.8244011434590607,1.0109362788902378,0.0,0.0,0.0,0.0
0.05336840231122473,0.20261142423389308,0.7506282398705482,0.008597600896557162,-0.5205439275545388,-0.01170525137229822,0.8537113609617889,0.14472262523051338,-0.9002807939315199,1.1245152106602834,-0.2903923169421428,-0.6922531718842253,0.7672191247756249,0.0018487502130353772,0.7125856192448256,1.109485305362388,0.19760276749018132,0.809284346660384,1.0315888676522185,0.0,0.0,0.0,0.0
0.05272044647004472,0.20426136425310698,0.7475734470931448,0.008838775074316413,-0.520849305469485,-0.01189596487522261,0.853519983987972,0.1411196519970502,-0.9097653169832584,1.1280847847310724,-0.2941478375245655,-0.6910198841337118,0.753195935315309,0.022231891088781597,0.7208721840101462,1.0760959626228577,0.17594458802636467,0.7904656164119707,1.0554191365210372,0.0,0.0,0.0,0.0
0.05187418577731259,0.2056443818726572,0.7442218658600697,0.00933009794122115,-0.5210370955339385,-0.01241892392204625,0.8533926790631514,0.13900347180258965,-0.9179987751746636,1.1287406573037557,-0.29663852860382134,-0.6927038920858901,0.7411723913571017,0.04672158502641646,0.7325150110344193,1.0370698982775235,0.1507344477998863,0.7680320011249552,1.0817633666481787,0.0,0.0,0.0,0.0
0.05090958627387308,0.20670333201083446,0.7408135318500498,0.01023319726626149,-0.5210831455188785,-0.01351345047607448,0.8533375790307677,0.1390873283468938,-0.9236835209459319,1.1260951279675542,-0.2972349869065113,-0.6984428456468237,0.7332212359638102,0.0774621636056868,0.7486149853285178,0.9891388188266776,0.11853267565533293,0.7419378036427324,1.1081707160476568,0.0,0.0,0.0,0.0
0.050057001007380725,0.20740465464130187,0.7380414280753039,0.011662241740173844,-0.5210608547113309,-0.015260162359131677,0.8533034074992693,0.1415180692001756,-0.924715575503059,1.1204773569159387,-0.29562819503908555,-0.7076019242695771,0.731084001287279,0.1119655795097807,0.7706167541577043,0.9296027923261035,0.07886953208948122,0.7156398851601194,1.1285434448020486,0.0,0.0,0.0,0.0
0.05010121240309625,0.2074407046431571,0.7379441565664873,0.011724889606772806,-0.5211074378343592,-0.015297135988326925,0.8532734396592766,0.14151636580870225,-0.9247483230943085,1.120534918230909,-0.29565632729821906,-0.7076892245109351,0.7309298385605213,0.11197068137698803,0.7706281728094561,0.9295961242311586,0.07887805237730461,0.7155874891274144,1.1285235610877642,0.0,0.0,0.0,0.0
0.05010121240309625,0.2074407046431571,0.7379441565664873,0.011724889606772806,-0.5211074378343592,-0.015297135988326925,0.8532734396592766,0.14151636580870225,-0.9247483230943085,1.120534918230909,-0.29565632729821906,-0.7076892245109351,0.7309298385605213,0.11197068137698803,0.7706281728094561,0.9295961242311586,0.07887805237730461,0.7155874891274144,1.1285235610877642,0.0,0.0,0.0,0.0
0.049140487275140206,0.20775835716750496,0.7388701336252925,0.010408602416464283,-0.5222475479364712,-0.013610159556785132,0.852621793778999,0.135956845455942,-0.9191363287561471,1.1128745247611544,-0.2718796471712363,-0.7482474097238084,0.7851116694398972,0.13354624241469235,0.7666869930892577,0.9236542623252101,0.10630472715006796,0.7292379211530408,1.1245260861915995,0.0,0.0,0.0,0.0
0.04736387120128499,0.20930914909107476,0.7400308462433592,0.009249303673644781,-0.5231126470023479,-0.011983821434616359,0.8521290964117896,0.12705884096750714,-0.9139667547274951,1.1045042896697543,-0.24500217516904224,-0.785479358553395,0.8142442070269177,0.14132361336038393,0.7623375968565506,0.9221132205667406,0.1179290332036464,0.7362947188886069,1.1162762523382421,0.0,0.0,0.0,0.0
0.04525932640409297,0.2118860466995065,0.7411236086155562,0.008137724821668491,-0.5237377209834534,-0.010445669460494219,0.8517766520886254,0.11576579627119345,-0.911201452944968,1.09834709395127,-0.22124620407435802,-0.8177213836206031,0.8278067447909878,0.13899756379669273,0.757357640966367,0.9259515485483373,0.11504153954471881,0.7377028026002916,1.1058682014687151,0.0,0.0,0.0,0.0
0.04306943183604448,0.21521320813776185,0.7420068360046557,0.007020384496411898,-0.5241971106926607,-0.008931832742403126,0.8515211833576724,0.10272792926621767,-0.9111547820330343,1.094967250111952,-0.20179231161098757,-0.845365027785341,0.8323773537710298,0.13049886219191456,0.7514113398949616,0.9346480396739808,0.1032473455175594,0.7356922760376715,1.0947857519911084,0.0,0.0,0.0,0.0
0.04077570244601214,0.21878695404136136,0.7426554929303353,0.0059459379707529365,-0.5246309784923263,-0.007547470998367061,0.8512755240868617,0.08946333749040475,-0.911337215202301,1.0912131141191477,-0.18665004356220882,-0.8702274699403006,0.8323222004818646,0.11891580343946359,0.7447441901362135,0.9464875513979186,0.08787516004136435,0.7316942513060584,1.0846647918574064,0.0,0.0,0.0,0.0
0.03840184412564161,0.22219555087827683,0.7432869890422685,0.004978083454770576,-0.5249884334480838,-0.006340881872943565,0.8510711818925123,0.07713642138615447,-0.910164757834864,1.0854847591938355,-0.17405491023232558,-0.8925565039129119,0.8294640805246916,0.10643190895222764,0.738390307887293,0.9576098208921686,0.0724146777779994,0.7270979869209202,1.0746824858669508,0.0,0.0,0.0,0.0
0.03594915625901821,0.22527380553142365,0.743992354929337,0.00413458084469301,-0.5252506051764513,-0.005294992058306141,0.850921071581914,0.06613030531626073,-0.907144900077758,1.0772523539560175,-0.16212596431957135,-0.9116251083867921,0.8252924695097439,0.09436087162227813,0.7325219866416742,0.9665379000167109,0.05849228911844648,0.7225333348180393,1.0645489121285956,0.0,0.0,0.0,0.0
0.033359006043316576,0.228039650336097,0.7447625440355092,0.003403186055490264,-0.5254055052241418,-0.00438936191545701,0.8508338303727768,0.056350124145242174,-0.9023329191797897,1.0663204194195155,-0.14976146421276101,-0.925671505891634,0.8216105952492658,0.08286746775208485,0.7267161813831089,0.9735812796312113,0.046027458743663124,0.7177202951472534,1.0544010649144357,0.0,0.0,0.0,0.0
0.03053279831712548,0.23060736542013893,0.7455865236425782,0.0027525488134996757,-0.5254604955173916,-0.003587389403114467,0.8508059836196011,0.0474011791683958,-0.895754371521088,1.0523934098716379,-0.1364009744897023,-0.9322778732349832,0.8208625869904935,0.07161241789105767,0.7204990883935714,0.9794434221048035,0.034424449557978166,0.7122849613729596,1.044172644922166,0.0,0.0,0.0,0.0
0.027385370365415843,0.23309575105365143,0.7464664860582433,0.00215097663245434,-0.5254446664961856,-0.0028627644082008497,0.8508202397276301,0.03891134650966216,-0.8872376244928362,1.0350485504268667,-0.12192906839702611,-0.92984296785031,0.8255212310134544,0.06018128264181087,0.7136280854596864,0.9846639497497017,0.023120597965153672,0.7060693255710332,1.0336165789168266,0.0,0.0,0.0,0.0
0.023899537673248365,0.23551144124652765,0.7473824481610318,0.0015954125435314074,-0.5253340170169574,-0.0022010029911264024,0.8508917562237138,0.030842956738661803,-0.8768595844434667,1.0141479483302258,-0.10625421134789545,-0.9201506171523968,0.8335374066380137,0.04876451823731217,0.7058382788049948,0.9893362827579568,0.012306478988439484,0.6989979213410654,1.0227914049509026,0.0,0.0,0.0,0.0
0.02011493624488801,0.23781278045877294,0.7483148177304828,0.001089104228913962,-0.52512948540174,-0.001593429557337231,0.8510201515804007,0.023292356513273153,-0.8646591439376103,0.9896980623804746,-0.08924921140187775,-0.9058522090466243,0.8431566156409669,0.037876508589371194,0.697110023214062,0.9933218567672996,0.0024355598214472855,0.6912686642423899,1.0118583215085368,0.0,0.0,0.0,0.0
0.016126974588281263,0.23992117305809368,0.7492153450909763,0.0006389446751054956,-0.5248493699564889,-0.0010357110788421992,0.851194253921242,0.01645401049482764,-0.8508272947816237,0.9620056251189384,-0.0708126317686013,-0.8890299192056843,0.8535509416195362,0.02821143877767139,0.6875194184731351,0.9965909658842783,-0.005945834134661156,0.6831201971378424,1.0013435069900412,0.0,0.0,0.0,0.0
0.012115916453533063,0.24170660403710942,0.7499162408447623,0.00026713167506536476,-0.5245119582774417,-0.0005456200117818267,0.8514028638449804,0.010695147015978885,-0.8361913041545828,0.9321402809230557,-0.05091162040935728,-0.870953527532529,0.8643907963864973,0.02047682032266884,0.676911859870602,0.9999946476914486,-0.012346352572980326,0.6743230493482967,0.9929895805437758,0.0,0.0,0.0,0.0
0.00844616951761526,0.2431209338349471,0.7503086853302406,-1.8290426972440642e-05,-0.5241127057769871,-0.00014799664971208669,0.8516489003137251,0.006175910315231863,-0.8227551481965946,0.9035059373103153,-0.030636896171735435,-0.852245398162158,0.8752877137404346,0.014669067144568388,0.6659681051889494,1.0039922879292713,-0.016976832717451956,0.6652039382904703,0.9876332539075073,0.0,0.0,0.0,0.0
0.005399056340660884,0.24409575846334183,0.7504093449648412,-0.00023053879558511541,-0.5237103362332116,0.00016850218172681145,0.8518963564785184,0.003000910451028722,-0.8116333902606985,0.8786513693471938,-0.011836988420258241,-0.8352057491307758,0.886253811029507,0.011249492647718629,0.6556759733133012,1.0081534914261894,-0.01949955194261277,0.6566709157689892,0.9854266964057543,0.0,0.0,0.0,0.0
0.0034522245789092715,0.24461407375494937,0.7502309705714458,-0.0003660344168868102,-0.5233709449009966,0.00036719593500854906,0.8521047970874175,0.0012723246159898648,-0.8051284375948469,0.8624835653678483,0.0012974657230418185,-0.8242059772165167,0.8953195640311666,0.009876328189260755,0.6477636703644631,1.0122194958142592,-0.02035555742899106,0.6500201054937395,0.9862066799309608,0.0,0.0,0.0,0.0
0.003469380021397563,0.24464455414089556,0.7502004513980021,-0.00038034942832188343,-0.5233507019665572,0.0003639911952309368,0.8521172252664735,0.0012450059459989907,-0.8051695997113607,0.8623350107046052,0.0012976342497250607,-0.8242163284257908,0.8953294142798369,0.009875056774021626,0.6476883826136178,1.012292805330622,-0.02035284501454988,0.650064089680076,0.9860782528524292,0.0,0.0,0.0,0.0
0.003469380021397563,0.24464455414089556,0.7502004513980021,-0.00038034942832188343,-0.5233507019665572,0.0003639911952309368,0.8521172252664735,0.0012450059459989907,-0.8051695997113607,0.8623350107046052,0.0012976342497250607,-0.8242163284257908,0.8953294142798369,0.009875056774021626,0.6476883826136178,1.012292805330622,-0.02035284501454988,0.650064089680076,0.9860782528524292,0.0,0.0,0.0,0.0
0.003469380021397563,0.24464455414089556,0.7502004513980021,-0.00038034942832188343,-0.5233507019665572,0.0003639911952309368,0.8521172252664735,0.0012450059459989907,-0.8051695997113607,0.8623350107046052,0.0012976342497250607,-0.8242163284257908,0.8953294142798369,0.009875056774021626,0.6476883826136178,1.012292805330622,-0.02035284501454988,0.650064089680076,0.9860782528524292,0.0,0.0,0.0,0.0
0.004087632762077324,0.24517680508214912,0.7500838347829012,2.7617447246827965e-05,-0.5232249020654663,-5.087230389160452e-05,0.8521946365167222,0.0007831789162917198,-0.8095202005270745,0.8703557760485543,0.0008170366521341459,-0.8285487756136038,0.901462150867356,0.0010497999673619082,0.6506290318356092,1.0147332946815946,-0.028947351376603293,0.6492596231679565,0.9837956466075855,0.0,0.0,0.0,0.0
0.00535313681231974,0.2457711781672083,0.7498911233624052,0.00015817121958865236,-0.5233652403779752,-0.00019099599439645167,0.8521084224830193,-0.0004169945443245782,-0.8169870529387252,0.8845691723381592,-0.0003993125550403086,-0.8338900926441525,0.9116571421273418,-0.004863289322913198,0.6548136454244731,1.0176676444760808,-0.03475113058785233,0.6516164616462112,0.9823441435478333,0.0,0.0,0.0,0.0
0.007271929036553627,0.24628375446355064,0.7496656377078935,0.00010398234910199096,-0.5237373481943961,-0.0001379140576028668,0.8518797804113475,-0.001833649837184602,-0.8268743193228583,0.9040538156828322,-0.0018292865862120631,-0.8408495347134867,0.9267026379839957,-0.007965871303201453,0.6607193785839836,1.0201583478651175,-0.038039929110850114,0.6570125266080151,0.9815764057530886,0.0,0.0,0.0,0.0
0.009846979426598481,0.2467460391460924,0.7494491209873316,-0.00015300903298262896,-0.5243844511997332,0.00013683419313514607,0.8514815941666585,-0.0036169092124796855,-0.8387524850030402,0.9283393341988414,-0.0036244699992832863,-0.848771170906054,0.9459144075439947,-0.008041481548454804,0.6686221345690576,1.0218650556341407,-0.038728898236265734,0.6659481623576919,0.9809865505147823,0.0,0.0,0.0,0.0
0.013122694355262948,0.24730775260997193,0.7493586018026374,-0.0009508463845918936,-0.5257773814735065,0.0011091422642036388,0.8506209560229829,-0.007240746473332304,-0.8510190839356233,0.9561536701331739,-0.007261355219752699,-0.8530305346593187,0.9652410609880985,-0.0003503783710015994,0.6787729934059614,1.0223842314066247,-0.032645119660742905,0.682148592570211,0.9802657290625076,0.0,0.0,0.0,0.0
0.01661130435045121,0.24781125036227272,0.748960709684044,-0.0010905644952244296,-0.5256438973277135,0.001172095226418161,0.8507031973984781,0.01460596018291337,-0.8481530284045163,0.9223772808047863,-0.008715075819694738,-0.8702404817893292,0.99658563146891,-0.002523775980579167,0.6875569646616458,1.0228498623383484,-0.03537016098747277,0.6907181608929074,0.977630021896197,0.0,0.0,0.0,0.0
0.020162314151732495,0.24865638042770957,0.7484458195977713,-0.0014450380810729845,-0.5257315899863135,0.0015883865292029929,0.8506478026678496,0.039794216096180265,-0.8555500846296551,0.8958407590043356,-0.011928437164711635,-0.8845678937609582,1.024424226833145,-0.0035086842399117213,0.6957764521360557,1.0252000999635082,-0.03710254030297222,0.7006039625643414,0.9753628987990389,0.0,0.0,0.0,0.0
0.023458413954818166,0.24977315036720127,0.74788006762282,-0.0018729702245830703,-0.5259429597669025,0.002162208876608089,0.8505150321463708,0.06435845199430848,-0.8686988132397052,0.8757125662129638,-0.01629690873459805,-0.8957425070189283,1.0473944563990736,-0.0050424115172910036,0.7032084285225669,1.0289845809767793,-0.03937758264734659,0.7102840716547719,0.9729887537530714,0.0,0.0,0.0,0.0
0.026348313794793778,0.25111678570615487,0.747322327014884,-0.0022721587217297778,-0.5261079503133851,0.0027450724565842954,0.8504103283056951,0.08691722302425428,-0.8844060192143413,0.8591339800489373,-0.02136082625461708,-0.9045284845729711,1.0657924724934462,-0.008720714206100391,0.7097446212877503,1.0336533012228968,-0.04353153149403093,0.7185325178173183,0.9698842644813479,0.0,0.0,0.0,0.0
0.028823900144449285,0.2526497841089778,0.746795149302834,-0.0026395012855868695,-0.5261820062516104,0.003308790359485513,0.8503614415272782,0.10725990151140266,-0.900722354167923,0.8443100224672848,-0.026939151603861376,-0.9113361763372408,1.080157636522202,-0.014679219156012748,0.7153954918715192,1.0389472841356469,-0.04956465471357661,0.7251607323499973,0.9659888417483479,0.0,0.0,0.0,0.0
0.030949731445147895,0.2543520723016649,0.7462939742488255,-0.0030055148425968364,-0.5261696761937488,0.0038724373333119217,0.8503654761123572,0.12562233143778676,-0.9161667052970375,0.8304156895389907,-0.033006108289585105,-0.9164814993981086,1.0911700777435593,-0.02249661853655962,0.7202212235708664,1.0448007479787578,-0.056983205319963676,0.7304393229749773,0.9614390759500939,0.0,0.0,0.0,0.0
0.03281396017273108,0.25623867920331445,0.7458191239388497,-0.0034034941034178424,-0.5260692526232382,0.004469604961928834,0.8504231771910968,0.142275077226017,-0.9290464491059456,0.817459345561229,-0.0396719259972713,-0.9202398023232751,1.09950245224088,-0.0318222054726428,0.7243482192445198,1.0511174356378932,-0.06537626900070184,0.734793004162797,0.9561187963376268,0.0,0.0,0.0,0.0
0.034473177857648044,0.25834423881500346,0.7453462356214713,-0.003849041559545856,-0.5258513703803088,0.005127590922396751,0.8505523081854265,0.157466649431582,-0.9371810961610407,0.8062696194518263,-0.047100252652558044,-0.9229295574011712,1.1056226198244248,-0.042625974939859076,0.7276932545734226,1.0580650764809498,-0.07461952219074347,0.7383167326022881,0.9500201444533761,0.0,0.0,0.0,0.0
0.0359755722239931,0.2606702903777822,0.7448682796460737,-0.004350303641502353,-0.52551286627459,0.0058742168652351715,0.8507542511291446,0.17150751382493126,-0.9380858774297759,0.7985945002771403,-0.055373035515322924,-0.9246974567946368,1.1098715587311223,-0.05460763304597193,0.7302668621750004,1.0655918828451842,-0.08437774744218642,0.7412624007497386,0.9431381400812336,0.0,0.0,0.0,0.0
0.037397234315680365,0.26315791235481634,0.7444469173753154,-0.004921460517585246,-0.5251261851215542,0.0067183780260589845,0.8509836263540891,0.1843349814490987,-0.9302129360815659,0.7964680303590524,-0.06433994236618637,-0.9253379574065128,1.1125951373680796,-0.06701190438420258,0.7326554117318049,1.0729435171931165,-0.09401537757582222,0.7445030954172668,0.9351125975034362,0.0,0.0,0.0,0.0
0.03891454459706348,0.26584485092239135,0.7440642971413118,-0.005605674450090181,-0.524655016819627,0.007716611470092114,0.8512615013304525,0.19659638333986995,-0.9148536128120668,0.797204462760597,-0.07425627402866909,-0.9255226061308053,1.1150934201000078,-0.07929401700521856,0.7350396422340668,1.0799743320551205,-0.10312608210051835,0.7486856692731987,0.925629589163753,0.0,0.0,0.0,0.0
0.040629901540501834,0.2687900008529381,0.7436942046362697,-0.006450705529295574,-0.5240923951072562,0.008934090524289198,0.8515901196088513,0.20909734896965393,-0.894148568895536,0.7980758002386241,-0.08545918693209172,-0.9253533727623782,1.1177778553858255,-0.09099462290653362,0.7374214471484409,1.0868105045842757,-0.111402469136729,0.7542806956678257,0.9145193163927308,0.0,0.0,0.0,0.0
0.04257708391350314,0.2719244685313959,0.7432717283085535,-0.00749453429988357,-0.523519666026341,0.010414164869829705,0.8519169774158514,0.22315651139851303,-0.8696244432963322,0.7968360586699179,-0.09787198968953666,-0.924638689583654,1.1206144933013582,-0.10071542794686994,0.7395728397072769,1.0937763182731424,-0.11789532819085527,0.7615546489560233,0.9027265264712703,0.0,0.0,0.0,0.0
0.0446952288466296,0.2748694636843635,0.742534395248021,-0.008755410695876428,-0.5232160317044516,0.01214015178274967,0.8520686261479674,0.24044167485751172,-0.8420596198593778,0.7917754260965594,-0.11039391496232674,-0.9233646428367726,1.1234609146169798,-0.10482823931209038,0.7404564108716621,1.102478878416972,-0.12022623175110012,0.7698141228937176,0.8949092142663249,0.0,0.0,0.0,0.0
0.04690064060652677,0.27724040807547207,0.7414877845926743,-0.010135788752672025,-0.523134328262615,0.013857991016826426,0.8520772831525092,0.26064112591253574,-0.8103454832416254,0.7785056361390341,-0.12134669457555874,-0.9231486049802913,1.1278903193268395,-0.1022998821599775,0.7399080911965674,1.1120553415211518,-0.11789780043547322,0.7778988182453914,0.8925596825891943,0.0,0.0,0.0,0.0
0.04888966338296155,0.2788613075413338,0.7402908974306126,-0.011577351165693625,-0.5232912884779369,0.015357351536586471,0.8519368193104865,0.2825666923684697,-0.7742186621988939,0.751418282595631,-0.12960622826750134,-0.9233995227807767,1.1325694548971423,-0.0931570482563208,0.7378067294311659,1.1214267829845208,-0.110986120737793,0.7850863661402602,0.895363086360804,0.0,0.0,0.0,0.0
0.050102404886984475,0.27955497001095536,0.7393012065192315,-0.012920059085864482,-0.5235613346693274,0.0162333002053587,0.8517353349937602,0.3020983891128216,-0.7343206567137918,0.7028688339865106,-0.13346999831000989,-0.9233516440422496,1.1351808344028802,-0.08021524358294192,0.7343290524177899,1.1284169708159837,-0.10126710620561226,0.7897193949576564,0.9011149211296761,0.0,0.0,0.0,0.0
0.05016667408335422,0.279634800191301,0.7392561787119366,-0.012994217782609205,-0.5235283384962279,0.01622870130905749,0.8517545763595394,0.302140509599779,-0.734249167109281,0.7028779294114219,-0.133684607086233,-0.9233939936277664,1.1352110974466618,-0.0802981479812528,0.7343025184446474,1.1286884464957714,-0.10113655184533213,0.7898574774858825,0.9009171071085669,0.0,0.0,0.0,0.0
0.05016667408335422,0.279634800191301,0.7392561787119366,-0.012994217782609205,-0.5235283384962279,0.01622870130905749,0.8517545763595394,0.302140509599779,-0.734249167109281,0.7028779294114219,-0.133684607086233,-0.9233939936277664,1.1352110974466618,-0.0802981479812528,0.7343025184446474,1.1286884464957714,-0.10113655184533213,0.7898574774858825,0.9009171071085669,0.0,0.0,0.0,0.0
0.04994979095575416,0.2806552696026019,0.7428118675720679,-0.011099745146202532,-0.5218141783941165,0.014587828309409042,0.8528622128748451,0.3028111795472653,-0.7284515221716534,0.7063800351415556,-0.13285661473061383,-0.924136098891034,1.1384168034300777,-0.12453863510805341,0.7552990210023023,1.102403226873775,-0.05635140028556779,0.7546449328534305,0.9687286567355926,0.0,0.0,0.0,0.0
0.049774127495178115,0.2822503409032366,0.7470850375831479,-0.009883190368535452,-0.5206534445038136,0.013476572117913766,0.8536045309617354,0.30060285904306205,-0.7233330835340368,0.7133906416842685,-0.13421626919527105,-0.9160073866255004,1.1344091869077175,-0.16110796131063967,0.777855907825804,1.0703280407081297,-0.019762939595960705,0.7294407424057795,1.0201723410908436,0.0,0.0,0.0,0.0
0.04959882414795132,0.2842467918247387,0.7511178244947387,-0.009253784843235921,-0.5199006782337947,0.012867157945619883,0.8540796733821253,0.296321588399087,-0.7209377058519213,0.7234305246862485,-0.13754987484548042,-0.90319979962668,1.1252094214337063,-0.19043960207461672,0.7983277577291047,1.0398842699562398,0.006342470030983455,0.7122948897519223,1.0602749636393494,0.0,0.0,0.0,0.0
0.04937508099521807,0.2865236892556927,0.754697259668532,-0.00899022167312257,-0.5193129594466729,0.012604623349122563,0.8544438831984422,0.29072798640154623,-0.7214209468566863,0.7357772133264907,-0.14231846267078277,-0.8884768643573364,1.1127366701722043,-0.215355661948863,0.8159216007245005,1.013018927832006,0.026507056336344335,0.7004945399518846,1.0939352934503581,0.0,0.0,0.0,0.0
0.049024698541595614,0.288959623775332,0.7578322687851518,-0.008917369393814146,-0.5187443887555598,0.012512167031279003,0.8547913109840882,0.28448728899731285,-0.7237008741113464,0.7486978847503135,-0.14782474750418,-0.8732784524818866,1.098059390956024,-0.23790353737708747,0.8305899328921018,0.9898871714587378,0.043256445705746036,0.6917131591959086,1.1235004060675986,0.0,0.0,0.0,0.0
0.04840528643750024,0.2914097751009867,0.7605992570964067,-0.00889549831226199,-0.5181624629197364,0.01244071810524188,0.8551454616986255,0.2781271436810355,-0.7256674549706025,0.7591370258024908,-0.15332463513792574,-0.8579659602844493,1.0812103641207753,-0.2589908216012082,0.8423851506334877,0.9700641733178004,0.05832341726085277,0.6842098434240872,1.1496856116986136,0.0,0.0,0.0,0.0
0.04745264109235765,0.2938944014785211,0.7630570115577435,-0.008863376099277785,-0.5175191915269467,0.012333118598270448,0.8555368029202831,0.27167742814873336,-0.7270095585331684,0.7667184289624861,-0.15874937887925344,-0.8425228425406248,1.0619334072782531,-0.279523016431381,0.8513437802051028,0.9533304889140101,0.07301966440698211,0.6771484078704256,1.1718907273151624,0.0,0.0,0.0,0.0
0.04610079345700358,0.29649584122604566,0.7652451552060838,-0.008777622656560208,-0.5167565249585738,0.012151101844684502,0.8560011670419603,0.2649958578506002,-0.7278368517919435,0.7715820738254567,-0.164234957856113,-0.8267509712878957,1.039628998672519,-0.3005292476662766,0.8573604977516837,0.9396725815116501,0.08865127372110526,0.6703672986234649,1.1879638916776247,0.0,0.0,0.0,0.0
0.04428209052084534,0.2993285366160376,0.7671783623542687,-0.008592665574228789,-0.51579785606261,0.01185241093376276,0.8565852310976425,0.2578877273379503,-0.7284984492266523,0.7741076024768018,-0.16999676098910893,-0.8104850171839234,1.0135693187877501,-0.32316277739326177,0.8601588509398582,0.9292703751633646,0.10681014302515059,0.6647510133188272,1.193636120097596,0.0,0.0,0.0,0.0
0.04198222809866415,0.3024935477406889,0.7688879428423381,-0.008270592562975835,-0.5145777908698222,0.011398854691294171,0.8573280355581039,0.2502069235699114,-0.729425201607231,0.7749687109807119,-0.17622117125425135,-0.7936028359575729,0.9832961350270518,-0.34810792222641385,0.8596582188440481,0.9218950558827906,0.12908369158606187,0.6629803829033885,1.1825595259354442,0.0,0.0,0.0,0.0
0.03923164822697642,0.305984345296782,0.7704338280791185,-0.007792753736141363,-0.5131115478032136,0.010764670708722597,0.8582190480085671,0.2420237558380628,-0.7303311762207372,0.7740513034363812,-0.1828090814393627,-0.775850341353883,0.9486261365629032,-0.37474659948903183,0.8561215617497592,0.9166819941018942,0.15529261210575193,0.6623366543071525,1.1618108970504573,0.0,0.0,0.0,0.0
0.036108304516200125,0.30969104584825213,0.7718685663678191,-0.007119223661334299,-0.5114056931695206,0.009900678764387908,0.8592528790805803,0.23373666863076734,-0.7307066732447085,0.7709693838838519,-0.18938693182354432,-0.7576233852725164,0.9103591001879199,-0.40195539454355,0.8499436498455777,0.9124376352944287,0.1860544011051704,0.6620210396824084,1.1366986598959032,0.0,0.0,0.0,0.0
0.03272204447116276,0.3133238412597163,0.7731202702805012,-0.006146260911775168,-0.5093942084842412,0.008637042849239131,0.8604679920428988,0.22652290725555563,-0.7298762542378039,0.764743032805644,-0.19497863383777264,-0.7413222617724727,0.8715946210023773,-0.42876174382184107,0.8410997673164813,0.9086879269961577,0.22410585648939413,0.6631050821423269,1.110615098953141,0.0,0.0,0.0,0.0
0.0291971340733339,0.3165802560715652,0.7738716151295466,-0.004773142452772948,-0.5069563694571899,0.006853141564316071,0.8619312565562349,0.2215470276086775,-0.72850907256139,0.7554688284115397,-0.1988392083915655,-0.7307664242258467,0.8369203978133783,-0.4540427422698755,0.828199179215672,0.9073901513950808,0.27648709417631595,0.6677705418007012,1.0862277624271661,0.0,0.0,0.0,0.0
0.025863607840208545,0.3193987084429314,0.7736099313302585,-0.003125438548007287,-0.5039040598401049,0.004624525676625236,0.8637415955439501,0.21924244758087053,-0.7313705427454791,0.7488214915689237,-0.20128532881815642,-0.730374893900828,0.8121849052950161,-0.4765172234793021,0.8090784124677771,0.9127089129819056,0.34600155734477195,0.6772143074452495,1.0656476849578531,0.0,0.0,0.0,0.0
0.022878804369820684,0.32155797445291456,0.7721610869693093,-0.0013742176430939265,-0.5002330184271648,0.002096368139025995,0.8658872005300361,0.22006271471952435,-0.7397787123166961,0.746236269746879,-0.20210484154615235,-0.7421472068989001,0.8009594150067351,-0.4932842054991659,0.783057507475497,0.9257665566429005,0.4344023688004053,0.6893506646225992,1.0511411841222684,0.0,0.0,0.0,0.0
0.020688366244804433,0.32279827826353835,0.7699540950414709,-0.0001174207858630257,-0.49635383140712763,-0.00010691372518156468,0.8681202962892177,0.22345753930463633,-0.7540391224659989,0.7501583958815216,-0.20165180426779603,-0.7630563565302463,0.8039501578634684,-0.4982260384151817,0.7541418778272408,0.9421361766629285,0.5243215517779247,0.696923896831139,1.0467412981792072,0.0,0.0,0.0,0.0
0.02071738799958142,0.3228398408943225,0.7698405905342618,-1.2094281028422807e-05,-0.4963534911890714,-0.00016047596324824125,0.8681204904191664,0.22355337951645524,-0.7541203389390202,0.7501723998952408,-0.20166876519547322,-0.7632661171860452,0.8036518728209696,-0.49829146757906717,0.7540109855520406,0.9419126264885033,0.5243826818197109,0.6969208334080315,1.04673781867826,0.0,0.0,0.0,0.0
0.02071738799958142,0.3228398408943225,0.7698405905342618,-1.2094281028422807e-05,-0.4963534911890714,-0.00016047596324824125,0.8681204904191664,0.22355337951645524,-0.7541203389390202,0.7501723998952408,-0.20166876519547322,-0.7632661171860452,0.8036518728209696,-0.49829146757906717,0.7540109855520406,0.9419126264885033,0.5243826818197109,0.6969208334080315,1.04673781867826,0.0,0.0,0.0,0.0
0.020452755857267538,0.3235878308166796,0.7706628909474441,9.312335080986303e-05,-0.49844666739108223,-8.430646898305048e-05,0.8669203561961067,0.22007523162072576,-0.7410642620737603,0.738328231754441,-0.20248643250989676,-0.7444862882438454,0.7827686755034342,-0.5128543209641987,0.7655163057695771,0.9398404988446079,0.529290255125048,0.7078485698508238,1.0432327433579855,0.0,0.0,0.0,0.0
0.020574351528575768,0.32465859072422115,0.7711281657516482,-9.964192149974309e-06,-0.4997354908074875,0.00019288408599954314,0.8661780428548416,0.21616665625011364,-0.7379989857925755,0.7388301370212355,-0.20507256319611153,-0.7309748924902749,0.7676689890941406,-0.5255774044116437,0.7735340942050186,0.9397794324165825,0.5320359818361039,0.7159426254789572,1.0401184840313442,0.0,0.0,0.0,0.0
0.021235337518188464,0.32611458729674253,0.7712247148078255,-0.00026545365648321986,-0.5004692307831669,0.0006108476830967482,0.8657540675265519,0.21169833469468427,-0.7445382270658752,0.7524318221673686,-0.20938329889732932,-0.7224277275663643,0.758937551274059,-0.5390665708845231,0.7796777992037923,0.9422902389835776,0.5332122743481005,0.7225259187917873,1.0379057645767469,0.0,0.0,0.0,0.0
0.022475026449240605,0.32803454624256095,0.7707547740607125,-0.0006401745514825624,-0.5009010837859059,0.0010592939962969278,0.8655036524099006,0.20664350845678048,-0.7597448068478977,0.7780222605973923,-0.2153049608332147,-0.7183520968045538,0.7558629180564802,-0.5572288109769521,0.7846793152627173,0.9499743807739854,0.5333184190650543,0.7278038978377904,1.0388125940404016,0.0,0.0,0.0,0.0
0.024411494202827875,0.3307382412556989,0.7697343333682783,-0.0006048909217597981,-0.5020946112720582,0.0007624523932918334,0.8648121496052663,0.2013785083708555,-0.7757789739791489,0.8087041853983193,-0.2216040665962714,-0.7148960489921141,0.7539316771263374,-0.6014273223012538,0.7966270282410735,0.9654324875870263,0.527881451479326,0.7348954424786752,1.0444018692584125,0.0,0.0,0.0,0.0
0.02769529090545543,0.3340122065583056,0.7717729443035692,0.0016541380684805772,-0.5048452764616379,-0.00220046808761427,0.8632054614063898,0.1991813575671343,-0.7707899011845472,0.8316354654776108,-0.2232778592013304,-0.7086078119982374,0.7579498325471734,-0.47974577374002514,0.7592824602495364,0.9945805312632372,0.4888728072069546,0.7577981731395976,1.0225253529058966,0.0,0.0,0.0,0.0
0.03144272759235216,0.3375990173318538,0.7727722662797849,0.0038822781921481436,-0.5080267883702148,-0.005213738448487473,0.8613167403143135,0.19645386600789505,-0.769243071260501,0.8588491836532508,-0.22598625994200616,-0.7043147800488996,0.7637540440067677,-0.3672313717934895,0.7313665327785741,1.0231770069124135,0.4467473770174327,0.778279316843831,1.007752972135236,0.0,0.0,0.0,0.0
0.035536396922604754,0.3413671334309026,0.7730104799935685,0.0054078515842904485,-0.5107492437950247,-0.0073611907302297405,0.8596812071780363,0.19196046222204777,-0.7775816667072266,0.895850440572113,-0.23145119839231007,-0.7024247663845016,0.7722979048866494,-0.2830587306150933,0.7147416364242365,1.0526466555988336,0.40809043951256774,0.7958219499928963,0.9963219159363955,0.0,0.0,0.0,0.0
0.039667536956775454,0.34513512360838555,0.7728268286495534,0.006273042229630282,-0.5128520747958544,-0.008585448108521455,0.8584111418193199,0.1858727443328022,-0.7931492482077539,0.9382415994123856,-0.2392128915636163,-0.7016900226182661,0.781647823910914,-0.22317843281470373,0.7068802925435713,1.0820473527308736,0.374987633784722,0.8110444913596043,0.9862029499269543,0.0,0.0,0.0,0.0
0.04344075198228311,0.34853606860902736,0.7724581721245479,0.006799854041385012,-0.5145486207187043,-0.009347250309150387,0.8573832910741571,0.1797251133010286,-0.8092496871959075,0.9772637494890978,-0.24710795482571074,-0.7013147746365124,0.7900904411673221,-0.17803832244848025,0.7026528453251477,1.1112901349972983,0.3462957722750271,0.823778858811953,0.9774894720436816,0.0,0.0,0.0,0.0
0.04668041251787165,0.35144731324648676,0.7719330612510746,0.007154605538793331,-0.5159356385596414,-0.009861237032883378,0.8565407080155739,0.17416363941477572,-0.823802028676589,1.010360308078161,-0.2542673213552812,-0.7012693780281394,0.7971255816725697,-0.1417619004665407,0.6995954277972432,1.1391591881951273,0.3214924897988314,0.8335685388567782,0.9711460950779482,0.0,0.0,0.0,0.0
0.04932872631782842,0.3538937725841077,0.7711974306764723,0.007419215758181086,-0.5170814847072148,-0.010241318364681024,0.8558427477105062,0.16936631800991195,-0.8365163208591165,1.0373881777748526,-0.26045406053569825,-0.7015808689097139,0.8024445488928875,-0.11147100141594199,0.6968447888936876,1.1640036845053956,0.2999567926922196,0.8399870225973898,0.9682449590403979,0.0,0.0,0.0,0.0
0.05142464973999191,0.3560172150277443,0.7702880301699803,0.007632568759186226,-0.5180469354825789,-0.010534585498820822,0.8552532601747935,0.16508087043661276,-0.8476779159014857,1.0593856659230723,-0.26588258242521484,-0.7017255850465403,0.8054656007901975,-0.08503178445355705,0.6942951508206784,1.1833037445563799,0.28039870367590114,0.8432906488928625,0.9683779879877916,0.0,0.0,0.0,0.0
0.0529710919747254,0.3579134254983159,0.7691126304826139,0.00779967606462155,-0.5188524372413033,-0.010752150524295734,0.8547606124998678,0.1611241761496118,-0.8578947360822395,1.0771014805640255,-0.27075482603892026,-0.7016286122910844,0.8057920604090768,-0.06210102876357143,0.693011183407191,1.1924429052083716,0.26229800144883714,0.8430797785083789,0.9723315282273471,0.0,0.0,0.0,0.0
0.05398178844864897,0.3596509528284237,0.7675890731252112,0.007916999139095566,-0.5194987729125795,-0.010892454858697156,0.8543650861862901,0.15735460989289643,-0.8677685563073861,1.0912086539981383,-0.2752515340244353,-0.7013489977929124,0.8032725183413181,-0.04283899719006945,0.6958029567514906,1.1845208942338896,0.24545066729140907,0.8390681428612323,0.9807159872847128,0.0,0.0,0.0,0.0
0.05448866226574647,0.3613359013179287,0.7656825991753763,0.008004422605646001,-0.5200308582154801,-0.010974774250338808,0.8540394546228971,0.15354006885427354,-0.8775628335805062,1.102252942441637,-0.27958908927233206,-0.700536283499466,0.7973512663228023,-0.025567394509446357,0.7001337436150746,1.1660471468337972,0.22878090178656205,0.8312165205484028,0.9935072638120267,0.0,0.0,0.0,0.0
0.054549348514578905,0.3630493970994471,0.7634048588564338,0.008090287981891457,-0.520475517107863,-0.011032088355695933,0.8537669918415591,0.1495425935364367,-0.8874206095766679,1.110783629636376,-0.28391177646533394,-0.6990093009343802,0.787863457997649,-0.008613227651662888,0.7052230782880782,1.1411559306837618,0.21101258586361435,0.8196499715403812,1.0101231823896537,0.0,0.0,0.0,0.0
0.05420889677235611,0.3648134616238885,0.7607695918055423,0.008219293067360139,-0.5208360959505812,-0.011117984686509652,0.8535447233700999,0.14542583229282025,-0.8972801763339449,1.1169991351595543,-0.2881907047929854,-0.6969448225690607,0.7750774221043439,0.009502970958750311,0.7113053350617748,1.111680073403772,0.19101689722427434,0.8043426057948678,1.0300525797912756,0.0,0.0,0.0,0.0
0.05352911153212225,0.3665496427452779,0.7578007658568049,0.00847150712131616,-0.5211039754099,-0.011336642589580006,0.8533758614548972,0.14164312303310778,-0.9067060019980496,1.1206948580326148,-0.2920761967678858,-0.6952662879650381,0.7603715938018597,0.030325555475024003,0.7192301966872175,1.0777755558281703,0.16799650831955262,0.7852818675976724,1.0528668369526621,0.0,0.0,0.0,0.0
0.0526630372452798,0.3680289873421499,0.7545594825262308,0.00898678523762177,-0.5212369967954026,-0.011907798876435432,0.8532815685274824,0.1393679674576077,-0.9148972693207494,1.1216015677291482,-0.29468692139733726,-0.6965977478423238,0.7478029758455991,0.05572529629401251,0.73038673686176,1.0381285909823026,0.14115304731741288,0.7625790985986579,1.0779270243855317,0.0,0.0,0.0,0.0
0.051686601611294423,0.36918909946816875,0.7512680055546154,0.009931438274488598,-0.5212149543968907,-0.013068697744081197,0.853267570569819,0.13932152427262628,-0.9205689206062448,1.1192874308527858,-0.2953891821794188,-0.702125660823968,0.7394662258309633,0.08816796132002304,0.7457654607525253,0.9894642196272716,0.10736506433489723,0.7362075790540654,1.1029736795402296,0.0,0.0,0.0,0.0
0.050846615684367255,0.36996303163470823,0.7485752593594475,0.011398947598985769,-0.5211548496417764,-0.014863001245937974,0.8532565721296592,0.14165421680261397,-0.9216209901112887,1.114012361995763,-0.2938697034362539,-0.711196921542719,0.7372013665298468,0.12499198021479628,0.7670108767577799,0.9292874661007686,0.06743626928775012,0.7100500257510428,1.122408798083753,0.0,0.0,0.0,0.0
0.05089129906775411,0.3700024143964646,0.7484794619314153,0.011467010107207059,-0.5212025437961736,-0.014903797417200257,0.8532258158554193,0.14164967536948503,-0.9216444239463271,1.114077339884082,-0.2938984840665692,-0.7112859770290008,0.7370454217803419,0.12499114849287807,0.7670287328894081,0.9292860728813545,0.0674574049348895,0.7099878575728945,1.1223841815947437,0.0,0.0,0.0,0.0
0.05089129906775411,0.3700024143964646,0.7484794619314153,0.011467010107207059,-0.5212025437961736,-0.014903797417200257,0.8532258158554193,0.14164967536948503,-0.9216444239463271,1.114077339884082,-0.2938984840665692,-0.7112859770290008,0.7370454217803419,0.12499114849287807,0.7670287328894081,0.9292860728813545,0.0674574049348895,0.7099878575728945,1.1223841815947437,0.0,0.0,0.0,0.0
0.04998425733525646,0.3702220088481421,0.7493548643917758,0.01008467356988284,-0.5223726861860866,-0.013010813357904652,0.8525583820604234,0.1358519884726797,-0.9164786192382766,1.1066780609460987,-0.27058294765430185,-0.7509683510254642,0.789739255624378,0.1494278926643803,0.7621969576860401,0.9230413421213339,0.09777648575881914,0.7246488339423837,1.1191878568431781,0.0,0.0,0.0,0.0
0.048283677464893496,0.3716867925574647,0.7504509269543111,0.008933566440815763,-0.523246934143077,-0.011352647839831177,0.852058656835046,0.1271327437916293,-0.9115196697695488,1.0985413684038616,-0.24375422493320234,-0.7878695249056484,0.8178498594080362,0.15789949817516727,0.757681046796554,0.9215636951147336,0.11070287744309706,0.7321610537807681,1.1115030316118801,0.0,0.0,0.0,0.0
0.04625891628923045,0.3742072905471308,0.7514873348537894,0.00787307070015352,-0.523851554954396,-0.009898948505811158,0.8517156649657744,0.11623619260135117,-0.9089024779700284,1.0927120224840474,-0.21986653715403923,-0.8200032565481112,0.8306399283807614,0.15488119987256768,0.752980266961774,0.9256833330145012,0.10746611284026623,0.733460225160979,1.101340373791117,0.0,0.0,0.0,0.0
0.04414171812306007,0.3774986865078844,0.7523316930034251,0.006817441817993869,-0.524279316542187,-0.008507311756283449,0.8514765683093087,0.10362886508115575,-0.9089875565156128,1.0897137045551035,-0.2002329290918624,-0.8476026918562427,0.8346418289217947,0.14523060899322576,0.747481613858889,0.9346726522349909,0.09475942509247702,0.7311914534508814,1.0902589087079702,0.0,0.0,0.0,0.0
0.041915211785109055,0.38105313285755715,0.7529622309946489,0.0057969804361084655,-0.5246862035588693,-0.0072358273486382565,0.8512452206123596,0.09071814836864618,-0.9093048762577542,1.086385610849187,-0.18492386607303732,-0.8724386147357394,0.8342110534438596,0.13252395895686916,0.741314642527934,0.9466942421542586,0.07861024847235716,0.7270794257048583,1.079936557864794,0.0,0.0,0.0,0.0
0.039585691732152865,0.3844678127811313,0.7535638960604647,0.00486601598243708,-0.525028242690795,-0.006107594599474718,0.8510489783518236,0.07858222581182449,-0.9083326947561634,1.0810470837794395,-0.17219569708057247,-0.8947670050111798,0.8310943136186142,0.1190817929239447,0.7352432537255472,0.958225183936001,0.062689618454514,0.7224222499685786,1.069854855095985,0.0,0.0,0.0,0.0
0.037164441772621445,0.38756091104940676,0.7542431966601184,0.004047397565723135,-0.5252820823812023,-0.005117114673774406,0.8509031482134898,0.06767890691581495,-0.9054991261278371,1.0731402371006122,-0.16022786901640892,-0.9138397325444477,0.8267533133354862,0.10619686765725174,0.7295802875605083,0.9675569701960832,0.04853994438574161,0.7178815233571891,1.059612589331713,0.0,0.0,0.0,0.0
0.034591710806079416,0.39034941807540885,0.754994026676118,0.0033306382110473627,-0.5254347217169234,-0.004243799586490242,0.8508168135553247,0.05791605773532459,-0.9008351949700013,1.062445198904363,-0.14783622413415204,-0.9278941214974339,0.8229622840256378,0.09403260149599743,0.7239092505613741,0.9749741675832994,0.03605602146941632,0.7131787646860156,1.049322792518595,0.0,0.0,0.0,0.0
0.031771855966212764,0.39294788944890524,0.7558049600748211,0.0026889571998651362,-0.5254893433901031,-0.0034637955844877273,0.8507888819282751,0.048934098557704975,-0.8943663872599231,1.048683769783183,-0.13446122627549023,-0.9345178883065448,0.822150668170214,0.08212167871926605,0.7177994314007805,0.9811938158443368,0.024490919232576795,0.7078888537025236,1.0388918543366492,0.0,0.0,0.0,0.0
0.028621126904024942,0.39547553547868824,0.7566740071691966,0.002093688750627622,-0.5254731743040221,-0.002758721148460928,0.8508031200059715,0.040382000761766665,-0.8859298910048488,1.0314433803484917,-0.11999581449515474,-0.9321152845461695,0.8267871436704685,0.06997512459674694,0.7110149069816665,0.9868005776567934,0.013208445003441663,0.7018153539461063,1.0280852263976632,0.0,0.0,0.0,0.0
0.025124918668184552,0.397939454401569,0.7575827577889431,0.0015420382950370294,-0.5253622674618982,-0.002114622582080895,0.8508746314331653,0.03222338553155181,-0.8756057321210534,1.0106024817402928,-0.10435695223567815,-0.9224772699708043,0.8348348716620142,0.05778175011092192,0.7033064501418687,0.9918683593329493,0.0023977656830116503,0.6949025501408531,1.0169360162633523,0.0,0.0,0.0,0.0
