zhuoxili-jackie/tripod-support-walk/examples/trajectory_tripod_lowstep_p2_left_v0.20.csv
root_pos_x,root_pos_y,root_pos_z,root_rot_x,root_rot_y,root_rot_z,root_rot_w,FL_hip_joint,FL_thigh_joint,FL_calf_joint,FR_hip_joint,FR_thigh_joint,FR_calf_joint,RL_hip_joint,RL_thigh_joint,RL_calf_joint,RR_hip_joint,RR_thigh_joint,RR_calf_joint,FL_foot_joint,FR_foot_joint,RL_foot_joint,RR_foot_joint
0.0,0.0,0.745913,0.00590261038931276,-0.5534150365010598,0.008528410562500118,0.8328410549308913,-2.4067e-06,0.349062,-0.872669,9.86e-07,0.349071,-0.872662,3.27e-06,0.610866,0.872669,-2.38753e-06,0.610854,0.872668,0.0,0.0,0.0,0.0
4.416248590028712e-05,0.00011699701528528979,0.7459138644302371,0.00590368685944541,-0.5534198777386294,0.008522669197654782,0.8328378890966557,-0.0002702779619532892,0.34957699051761937,-0.873534327727021,-0.0002668841848493496,0.3491229440974748,-0.8726621366762956,-0.0006257214141906993,0.6109302048605653,0.8731632419593536,-0.0006313649667012477,0.6109964142568488,0.8722687929380479,0.0,0.0,0.0,0.0
9.88868313748255e-05,0.0003038113650496026,0.7459126098951866,0.005896842063490952,-0.5534273100005846,0.00852310649018557,0.8328329943361705,-0.0007143672478257391,0.35030041962476083,-0.8747920826550484,-0.0007108511670383807,0.3491051769296119,-0.8724873070117922,-0.001546123583209119,0.6109619714687392,0.8739515813241866,-0.0015504957929025902,0.6112030396816798,0.8716539963426025,0.0,0.0,0.0,0.0
0.0001624016098601656,0.0005773461998666708,0.7459091296343898,0.005882962627223143,-0.5534344683139931,0.008528929401639586,0.8328282760545515,-0.0013746731170146665,0.35125810013210806,-0.8765055013420647,-0.0013706940450617096,0.3489773120636276,-0.8720786397141753,-0.002855056108214493,0.6109483831634576,0.8750887426633561,-0.0028552692851668907,0.6114700760046978,0.8707479519962326,0.0,0.0,0.0,0.0
0.00026918458337823483,0.0009873338090704655,0.7459099978365481,0.005853200061608835,-0.5534419951765467,0.008548916739574223,0.8328232790013869,-0.0023834189875667684,0.3527682261433018,-0.879211547794789,-0.002378125738948928,0.3488631400019999,-0.8715558253253414,-0.0047235915069378616,0.6109544545091672,0.8767097926195844,-0.004713270736221144,0.6119513529668403,0.8693385097345865,0.0,0.0,0.0,0.0
0.00043718043951361714,0.0015943579572017166,0.7459616933113942,0.005769396208549897,-0.5535321549175042,0.00870683769621918,0.8327623061336918,-0.004147021863231735,0.35500000151863886,-0.882857693580106,-0.004138057032567643,0.3487425888944409,-0.8700375040390461,-0.006722318927283859,0.6111963827981718,0.8786698533454582,-0.006693415172236448,0.613399724612104,0.867128918346346,0.0,0.0,0.0,0.0
0.0008873779867452048,0.00209900285348654,0.745928483852574,0.00571039333334737,-0.5534694529663203,0.008734741940811504,0.8328040948052358,0.004069480002573999,0.3500442679807575,-0.8778008402160842,-0.005353666431339535,0.35060249435552865,-0.8730949962902725,-0.008886098245187431,0.6114543749376621,0.8810201328770315,-0.008828162282828234,0.6142787741738025,0.8658176534578994,0.0,0.0,0.0,0.0
0.0014021770782319735,0.002710999052220868,0.7459019181556609,0.005640674764664537,-0.5534453364651395,0.008827369696209092,0.8328196202524495,0.014834159429459174,0.345335118015757,-0.8750141242727224,-0.006972694801496709,0.3526340956381925,-0.8760405716436416,-0.011277632649236185,0.61181748250263,0.8837757408731151,-0.011178790634302205,0.6155703269887072,0.8642708891808788,0.0,0.0,0.0,0.0
0.0019422773371430518,0.003423628451404939,0.745884107408235,0.005558767859722314,-0.5534393830643733,0.00895290743839236,0.8328227871651971,0.025589670563781718,0.34102655273290716,-0.8736074589115552,-0.008904851457550125,0.3546136249809976,-0.8786491827938677,-0.014003517612151692,0.6122391226949219,0.8868251127209639,-0.013847385866529942,0.6171208295644578,0.8623464991860618,0.0,0.0,0.0,0.0
0.00249280215456104,0.0042155418815986055,0.7458699196502123,0.005468395458795933,-0.5534406735578581,0.009088592097904075,0.83282105820915,0.035407868686535525,0.33706756560643586,-0.8729366359187741,-0.011048869699116299,0.35648816367146574,-0.8809581540340999,-0.017079795333782566,0.6126912353598284,0.8901173116715138,-0.016844582463273326,0.6188001946492143,0.8600977032081953,0.0,0.0,0.0,0.0
0.003054096941644514,0.005077521520111353,0.7458540303866151,0.005370909354266646,-0.5534438410024962,0.0092264896018067,0.832818071417005,0.04417852049419833,0.3334096973874088,-0.8726698764188072,-0.013365103438099882,0.3582745132249866,-0.8830603564226749,-0.020506812799269955,0.6131541911540805,0.8936603755471618,-0.020164934294962165,0.6205492751437968,0.8575838754850356,0.0,0.0,0.0,0.0
0.0036515097715795566,0.006011044474780173,0.7458323132333868,0.005263210164780101,-0.553445538273595,0.009367701734938807,0.8328160546891596,0.05210986937888523,0.330066707718299,-0.8725719317905181,-0.015856898207277502,0.3601220491021277,-0.885223280919143,-0.024277066929525477,0.6136467964510961,0.8975017373543809,-0.023794765198539545,0.6223924592963898,0.8548508408153784,0.0,0.0,0.0,0.0
0.004314580618383979,0.007032450064935656,0.7458012318473296,0.005139280285556806,-0.5534432100578823,0.0095181649742683,0.8328166698466691,0.05942579183256583,0.3271638783961341,-0.8724236400138532,-0.01857323586552712,0.36217489877247905,-0.8876786181568144,-0.02842728932436925,0.6141892951260994,0.9017326798571371,-0.027762379924667395,0.6243866419836578,0.8518900025289692,0.0,0.0,0.0,0.0
0.005074034864598822,0.00816802408880628,0.7457580576872466,0.00499047547939664,-0.5534340080677493,0.009686886301729775,0.8328217444941824,0.06627287765537264,0.3249590948754061,-0.871934779158976,-0.02159323299333892,0.3645624291877185,-0.8906164105451905,-0.033024013538737615,0.6148030097136632,0.906462282746986,-0.032122370661203416,0.626609918367818,0.8486444743738323,0.0,0.0,0.0,0.0
0.0059666227691497695,0.009445464669384009,0.7457025790550543,0.0048050349258949975,-0.5534156796445088,0.009885910254111046,0.8328326758367584,0.07274602534100895,0.32378388170111594,-0.8706805620903013,-0.025005135295810773,0.36744415110889656,-0.8942500909623682,-0.038116966783776504,0.6155351284921926,0.9117733021245277,-0.03690964664771558,0.6291798692614112,0.8450295152212575,0.0,0.0,0.0,0.0
0.0070312354995130605,0.010887802350315076,0.7456392560517703,0.004568494662104078,-0.5533877933760128,0.010130332565700804,0.8328495994842393,0.07896936899763224,0.3237946232222885,-0.8681356838333575,-0.0288922899002354,0.37099695154994333,-0.8987840976745263,-0.04370888342950819,0.6164686421250006,0.9176788914324182,-0.04211111384204168,0.6322590319140772,0.8409322143580582,0.0,0.0,0.0,0.0
0.008285139680544628,0.012517131057892138,0.7455703153572748,0.0042693642124927034,-0.5533410391365856,0.010433475068049846,0.8328785082678439,0.08517549646289782,0.324579157266961,-0.8643617298454576,-0.033336424894204054,0.3752672530705958,-0.9042654195403157,-0.04982499415475411,0.6176233543189521,0.9241657857549703,-0.04773282408261684,0.6359358267022563,0.8362079460902715,0.0,0.0,0.0,0.0
0.00971734659283765,0.014328134068080253,0.7455067656277279,0.003898989756166856,-0.5532651619354124,0.010807703482381657,0.8329259583017569,0.09175587507026349,0.32546244666673113,-0.8592227984045416,-0.03835379196059037,0.38018812207105174,-0.9105448644523298,-0.056356016637874214,0.6190177013768586,0.9310163857883454,-0.05365417247504462,0.6402814294800074,0.8306949833660986,0.0,0.0,0.0,0.0
0.011227493005748254,0.016278918538225273,0.745459715447675,0.003458927185470979,-0.5531571805571949,0.011258519575335042,0.832993646529019,0.09913838087606847,0.3256792638646213,-0.8523590466114347,-0.04386090675479007,0.38522971098702846,-0.9167408028980244,-0.06305392574303456,0.620511153780254,0.937877881965659,-0.05963445918135153,0.6451698094306967,0.8243262924339378,0.0,0.0,0.0,0.0
0.01273744880895733,0.018181849889112,0.7453778594007956,0.002958072326470039,-0.5530274813437922,0.011779625696542843,0.8330744835277949,0.10799225728149103,0.32436865023657674,-0.8429133341084678,-0.04939488601165844,0.39024440125022924,-0.9229075676518596,-0.06892222507894676,0.6216991731213184,0.9446244600187974,-0.06477172873056773,0.6500314653610865,0.8183970514379152,0.0,0.0,0.0,0.0
0.014133062388531157,0.019759474730384308,0.7451433604907785,0.0024096833455926436,-0.5528635539134713,0.012344873835897769,0.8331768649394412,0.11859526619972867,0.3202175324311582,-0.8292657754548309,-0.054230328896520914,0.39503886913241637,-0.9295205372372308,-0.0724988430052769,0.6216732959650506,0.9514745019906246,-0.06779704894891668,0.6536378178584945,0.8152806438549108,0.0,0.0,0.0,0.0
0.015270957104577144,0.020831336178051964,0.744799557445189,0.0018037997838092543,-0.5525802136301566,0.012909769217551326,0.8333577813097686,0.12982632874998057,0.31087744681167057,-0.8080241373553242,-0.05780541511030316,0.3992589777439549,-0.9364519663772342,-0.07270348605110208,0.6201160097623103,0.9572366948240343,-0.06781551512623071,0.6555978601118891,0.8150050308708698,0.0,0.0,0.0,0.0
0.01586051591427505,0.02128226370664015,0.7444109269271763,0.0011031668779943318,-0.5521729975757887,0.013473076582606923,0.8336199613603351,0.13949843125182473,0.2933370093574455,-0.7758969924463489,-0.059768762284882794,0.40153918695616647,-0.9413643090607378,-0.06847383104563781,0.616546616311936,0.9608723192380499,-0.06391824588521297,0.6556751005418874,0.8172772410879345,0.0,0.0,0.0,0.0
0.015889025308315066,0.02131796364822284,0.7444025348005175,0.0010694266742214613,-0.552162207784736,0.013480430471599652,0.8336270332799763,0.13952405720814956,0.293337776040908,-0.7758801632500567,-0.05986259965622162,0.4015732413178401,-0.9413934090954212,-0.06848488468556352,0.6165203855657135,0.9609944957680701,-0.0638929195696365,0.6557460497194493,0.8171841781847704,0.0,0.0,0.0,0.0
0.015889025308315066,0.02131796364822284,0.7444025348005175,0.0010694266742214613,-0.552162207784736,0.013480430471599652,0.8336270332799763,0.13952405720814956,0.293337776040908,-0.7758801632500567,-0.05986259965622162,0.4015732413178401,-0.9413934090954212,-0.06848488468556352,0.6165203855657135,0.9609944957680701,-0.0638929195696365,0.6557460497194493,0.8171841781847704,0.0,0.0,0.0,0.0
0.015981981169906973,0.021901566044926702,0.7456637713804685,0.001950659018583879,-0.5521146184941238,0.012614792881781517,0.8336705044410718,0.1393194378941137,0.296233750848566,-0.773292502647375,-0.059926824604978,0.4021177945838306,-0.9395251282697172,-0.0811688064873235,0.6261747634981306,0.9515418455386447,-0.045090020581675064,0.6454873392927148,0.8448448419828559,0.0,0.0,0.0,0.0
0.01608890271834268,0.022899921643282573,0.7471448629903865,0.002559761688696668,-0.5520796669608965,0.011999453460450777,0.8337010867601727,0.13776323262074483,0.30072055503988154,-0.7735813529611448,-0.06135020733689558,0.4020288611667415,-0.9346577451430366,-0.0934997864898091,0.6363608483428899,0.940796468056079,-0.02614630492340896,0.6391447789095224,0.8649234578700318,0.0,0.0,0.0,0.0
0.01616465526008461,0.024169879137819178,0.7485300672601026,0.0029292691841640455,-0.5520373335496251,0.011608294174707849,0.8337334401688707,0.13525828390228173,0.30587257843427756,-0.7763617897907813,-0.06376430471507928,0.40103195270222913,-0.9279139668474014,-0.10494625416178037,0.6453149711022034,0.9313199867045673,-0.011753134221004026,0.6345774468144081,0.8793519922214509,0.0,0.0,0.0,0.0
0.016229296927087626,0.025584832163915217,0.7497602898048291,0.003141085654366251,-0.5519780185117812,0.011377558838920351,0.8337751206503985,0.13219795748680152,0.3113564834273834,-0.7810119821936784,-0.06677685871523256,0.39945226231458514,-0.920386559327026,-0.11553952819467352,0.6529219317279682,0.9234307046844717,-0.0006760428646046066,0.631139783380866,0.8903816111246525,0.0,0.0,0.0,0.0
0.016280273488733822,0.027041357914535047,0.7508460397517259,0.003263602399877188,-0.5519073341797566,0.011234020159880448,0.8338233866767095,0.12892958976286087,0.3167951878058628,-0.7865210963977305,-0.07001690837740891,0.39750051167046235,-0.9126155346563395,-0.12543068478350636,0.6594359536471397,0.9168596404772374,0.008546264231243024,0.6285348318368509,0.8993471331072602,0.0,0.0,0.0,0.0
0.016310494945208632,0.02847377057981977,0.7518001987371189,0.0033406145998174978,-0.5518273945594118,0.011134034478949112,0.833877329218206,0.125663510811523,0.3219260842332578,-0.7922033224118099,-0.073258537401041,0.3952987443681011,-0.9049029147765859,-0.13470180594235434,0.6650305833784297,0.911365698281321,0.016949239736245257,0.6265717754650277,0.9069476015370562,0.0,0.0,0.0,0.0
0.01631499873170469,0.029851624053905467,0.7526260354048063,0.003397443220975068,-0.5517350908732651,0.011053792675667331,0.8339392427186247,0.12250172740668674,0.3266271249075806,-0.7977611010577785,-0.07639575757134057,0.39290741414758934,-0.8974372101677504,-0.14343361374954092,0.6697656053219236,0.9068666853807495,0.025169864684425215,0.6251901960674574,0.9133940632946211,0.0,0.0,0.0,0.0
0.01625076912570813,0.03114716941895223,0.7533128588732685,0.0034552982220637436,-0.5516298198976365,0.010975768195847701,0.8340096733410284,0.11951816534914002,0.3305399456304324,-0.8025820093948427,-0.07933771745562589,0.390145467895148,-0.8900522197361913,-0.1516478027077173,0.6735233522960052,0.9034098594822628,0.03374976520829932,0.6244374927586311,0.9184271115127066,0.0,0.0,0.0,0.0
0.01609875661043122,0.032369796015277036,0.7538493792077869,0.003525901677780237,-0.5515058939661556,0.010890661902522808,0.8340924471671441,0.11669919642169005,0.333583845346482,-0.8065887136948059,-0.08209703601727394,0.38689088372185265,-0.8826484250196361,-0.15949400414532106,0.6762026552149168,0.9011463170142451,0.04314224908259995,0.624684646335157,0.9213359185282216,0.0,0.0,0.0,0.0
0.01587200925135934,0.0335605025757215,0.754241878816348,0.003611871468850347,-0.5513560212765548,0.01079758422612021,0.8341923665207323,0.11395410768827488,0.33598337583616394,-0.8101843794689387,-0.08477583766952015,0.383149106202712,-0.8752156807461622,-0.16722789654064296,0.6778516452325846,0.9001350693016096,0.0537319507282823,0.6267084341070895,0.9209062691342784,0.0,0.0,0.0,0.0
0.015583736737417846,0.03475202946381323,0.7545384904415597,0.0037140640156338206,-0.5511642711713332,0.010691311729987529,0.8343199912300754,0.11121998196102893,0.33796525557196555,-0.8136336436790362,-0.08744158325632385,0.3789733010138477,-0.8677037780228926,-0.17503986176717973,0.6787364766749499,0.8999453070504753,0.06542480216219454,0.6297187181590079,0.9186650125922123,0.0,0.0,0.0,0.0
0.01522525449236395,0.03595511260260354,0.7547950787537131,0.0038416493374504894,-0.5509128966674296,0.010561213818797441,0.8344870776582126,0.1084833641087913,0.3395531978134299,-0.8168120938468783,-0.09009999948875108,0.37433899431984147,-0.8599536528329349,-0.1830332970738901,0.6791260340059266,0.8999792243422554,0.07858243388570464,0.6332387407513599,0.9156745657982505,0.0,0.0,0.0,0.0
0.014795779946667684,0.03717011954339715,0.7550604118727211,0.004015512162783237,-0.5505741031157768,0.010384888442909957,0.8347120382097989,0.10577705810574893,0.3407929805102821,-0.8196602999675875,-0.09271851182474086,0.3692989180737283,-0.8520485526193549,-0.1913625344602605,0.6792714020659897,0.8996595572251488,0.09441436110028421,0.6371344151889659,0.9127831341384323,0.0,0.0,0.0,0.0
0.014309324596985902,0.0383752588057266,0.7553682629449124,0.004273071644013237,-0.5501086820981738,0.010125503240833963,0.8350207499955048,0.1032121814066943,0.34175730649943564,-0.8222099523189014,-0.0951994625459139,0.3640602000659757,-0.8444968103224102,-0.2002087904369773,0.6793820303689209,0.8984786383203327,0.11542915052623456,0.6415768860775903,0.9108996389418684,0.0,0.0,0.0,0.0
0.013809248097826942,0.03950662180974183,0.7557162989038719,0.004663577084528197,-0.5494633020552493,0.009734728316377556,0.8354481227508532,0.1010286706660499,0.34257475828227896,-0.8247244844931164,-0.09734115495136035,0.35912443590257886,-0.8385591893478127,-0.20963185779704702,0.6795231551763365,0.8961558351381956,0.14533634831104247,0.6469631556238733,0.9111208347966331,0.0,0.0,0.0,0.0
0.013338793941594401,0.040398732510460826,0.7559703268499678,0.005209144677213563,-0.548571595912496,0.00917442353400922,0.8360370200670348,0.09972133236184672,0.3430461711675192,-0.8275060390466792,-0.0987157586636939,0.35519547844527366,-0.8364358234710783,-0.218888810459559,0.6789269282322895,0.8934466796116963,0.1862759890097334,0.6531980198337649,0.91429952046351,0.0,0.0,0.0,0.0
0.012852169599061073,0.04091893332096161,0.7555628261369612,0.0055945326277094,-0.5475577550245571,0.008748955769088953,0.8367034491921825,0.09920823053531047,0.3421890642418734,-0.8315463988642205,-0.09944724993516527,0.3518033285183188,-0.8382123958211888,-0.22413039272977395,0.6737700359612732,0.8960483177089029,0.22549929302884247,0.6557103657761673,0.9212001614825217,0.0,0.0,0.0,0.0
0.012851474342105828,0.04092728961408391,0.7555582850690332,0.005603947643564465,-0.5475523046102841,0.008737197722746923,0.8367070759009562,0.09920991188778235,0.3421885132582305,-0.8315629263040243,-0.09944613556561366,0.3517620483462166,-0.8382128600847881,-0.2241623149909366,0.6737446503406065,0.8960133432448291,0.22552275952940698,0.6557211597001612,0.9212073557222825,0.0,0.0,0.0,0.0
0.012851474342105828,0.04092728961408391,0.7555582850690332,0.005603947643564465,-0.5475523046102841,0.008737197722746923,0.8367070759009562,0.09920991188778235,0.3421885132582305,-0.8315629263040243,-0.09944613556561366,0.3517620483462166,-0.8382128600847881,-0.2241623149909366,0.6737446503406065,0.8960133432448291,0.22552275952940698,0.6557211597001612,0.9212073557222825,0.0,0.0,0.0,0.0
0.012928205387674517,0.04115672803122282,0.7557130403571212,0.005654554270347774,-0.5483042412666821,0.00870961045836569,0.8362144627490219,0.09855659332508562,0.3425667268598918,-0.8281272704808629,-0.09984688342492369,0.3509914857827345,-0.8327967324589325,-0.2274081589383931,0.6770077737271156,0.8972875302173628,0.22539531698097917,0.6588219988708648,0.9212827000420654,0.0,0.0,0.0,0.0
0.013045238591072013,0.04152013259973065,0.7558068012881219,0.005648928658540216,-0.5488057013092055,0.0087246129137105,0.8358853228434076,0.09760065006122322,0.34380250712676586,-0.8277251388731167,-0.10066797230342768,0.3503176674856486,-0.8286951188985282,-0.23058049658218974,0.6792398034081804,0.8988156021435973,0.2245645211814471,0.6611108633441047,0.9209124227922169,0.0,0.0,0.0,0.0
0.013210756753670987,0.04202434263366382,0.7558134790556671,0.005600878104742839,-0.5491280915365004,0.00877329480029839,0.8356733803037426,0.09632451389404076,0.34588492207378363,-0.8300805683545565,-0.10190762778104792,0.3497098436268742,-0.8256589040584806,-0.23396514811793748,0.6805268504087405,0.9011076897033446,0.2230307620860261,0.6626285314528384,0.9205656668183837,0.0,0.0,0.0,0.0
0.013451013012573574,0.04271407277483072,0.7556916850781585,0.005517170748553674,-0.5493570875818882,0.008845356552389648,0.8355226572738396,0.09463271896246135,0.3489723086955757,-0.8352176089030298,-0.10364884682450771,0.3491126460715197,-0.8233560229657294,-0.23814678050630966,0.6809762690774201,0.9049767180155273,0.2206738748591693,0.663434306740764,0.920804842428838,0.0,0.0,0.0,0.0
0.013833580404039914,0.04365329636844757,0.7552545544932029,0.0055281959485956175,-0.5496448733751526,0.008822051276615273,0.835333540349745,0.09253338748923091,0.35330824904911484,-0.8432155720417469,-0.10589545694477272,0.3485653811064869,-0.8222166292260459,-0.24548744067335276,0.6805438070945101,0.9130444133745023,0.2162239248770888,0.6627754889707319,0.9237665428577582,0.0,0.0,0.0,0.0
0.014202430804049438,0.04470292190630319,0.7555365513555834,0.0061122800441123695,-0.5500637386605516,0.008247638551481723,0.8350595786539802,0.09083263487938843,0.35792314464460384,-0.8464924358899085,-0.10756678357912168,0.34807919768807133,-0.8193686240884037,-0.19377686503556427,0.6698515289183065,0.9072577399053297,0.20458965618694577,0.6648039280987783,0.9191569613943132,0.0,0.0,0.0,0.0
0.014655474248093483,0.045909056654613076,0.7554983043564395,0.0067545166184842355,-0.550529092749791,0.00761346259486005,0.8347539336407223,0.08888011513205969,0.36319409497661526,-0.8518099813621671,-0.1095658377216574,0.34749809754299393,-0.8175039467487213,-0.14567222704992994,0.6592796397991925,0.9043865863459818,0.191616916691992,0.66521664029099,0.9173956712640127,0.0,0.0,0.0,0.0
0.015126372771424633,0.047175943332651224,0.7554148461674278,0.007188443775887245,-0.5509038474425976,0.007178303683347527,0.8345068897889661,0.08652777127759394,0.3688325589856903,-0.8589922440813336,-0.11199906207856379,0.3468500564715303,-0.8154644133388047,-0.1121998299137662,0.6512748480484727,0.9043748706209797,0.1803137845684078,0.6656850293280672,0.9156822177700963,0.0,0.0,0.0,0.0
0.015555177718958882,0.048417996981417855,0.7553326794112282,0.00746043278653082,-0.5511814129461455,0.006902910182365522,0.8343235234585815,0.08401059232423434,0.3742466632000715,-0.8667327905760855,-0.11460080022155517,0.3460234399224382,-0.8131050398383192,-0.08951379421218138,0.6452172520149747,0.9062323444510197,0.17067219763042055,0.6662181851679807,0.9137479898031039,0.0,0.0,0.0,0.0
0.01591555546056385,0.04960371532390448,0.7552529102726896,0.007641954247555184,-0.5513885326525709,0.006718698575080875,0.8341865173233023,0.08148724894382489,0.37914652382550623,-0.874197986055069,-0.11719370509534403,0.34493241084896226,-0.8103953290104672,-0.07286997309937077,0.6402387876306346,0.9090673829208755,0.16216369123397884,0.6666570460212995,0.9117211489159495,0.0,0.0,0.0,0.0
0.01620380038782774,0.05073846011081992,0.7551614810503608,0.007779514806079023,-0.5515480847076298,0.006580458996815436,0.83408086356427,0.07900531890564114,0.3834893132160599,-0.8811345565153015,-0.11972500401540008,0.34352664095890545,-0.8073407666810023,-0.05919305954933031,0.6358086953160194,0.9121873716099649,0.1543095363807771,0.6668566617302074,0.909779721386832,0.0,0.0,0.0,0.0
0.01642475557367087,0.05184316252802198,0.7550301244560548,0.007896445512181043,-0.5516754394113437,0.0064632869022271475,0.8339964518035994,0.0765535762538107,0.3873281053000678,-0.8876128437089867,-0.12220872457229799,0.34175948427405434,-0.8039665541131786,-0.04693974261521487,0.6317564975993201,0.9150034000446893,0.14676946938114088,0.6666477934068674,0.9081877202222488,0.0,0.0,0.0,0.0
0.016585509707108467,0.0529433857254782,0.7548170296682754,0.008001014264782823,-0.5517807595487687,0.00635764166956382,0.8339265900275156,0.07408965413024196,0.3907350685337898,-0.8938614996713186,-0.12469416996479439,0.33957726876092525,-0.8003131601036217,-0.03553320090498124,0.6282331658481396,0.916850752803531,0.13933752265672647,0.6658179815236437,0.9073252755152779,0.0,0.0,0.0,0.0
0.016693060580459235,0.05405926987242668,0.7544713612386119,0.008093935686063036,-0.5518695789480618,0.006260236430684774,0.8338676546530814,0.07157715023351457,0.3937613931315471,-0.900149462073857,-0.1272271793655729,0.3369359616885461,-0.7964756905173469,-0.024963548103608776,0.6257234731827522,0.9167687709133854,0.1319088811831407,0.66410985184864,0.9076677145871092,0.0,0.0,0.0,0.0
0.016735572838929326,0.05521561083982078,0.7539515525947452,0.008174867304624564,-0.5519477606323926,0.00616732940931771,0.8338158100716223,0.06896482360563728,0.396359226153286,-0.9065541905963369,-0.1298574795223214,0.33365943920254754,-0.7922928197854181,-0.015483501195368662,0.6250348336548156,0.9132839929109959,0.1243307694011358,0.6612748566668782,0.9095638296187389,0.0,0.0,0.0,0.0
0.016707313775135037,0.056432862648485155,0.7532620170101215,0.008251223684048799,-0.5520133811754486,0.006074379928686339,0.8337722987839344,0.06620501646738976,0.398537374756655,-0.9130803461799688,-0.13262777251754226,0.3296539831354828,-0.787602911599861,-0.006710173871996869,0.6254502543444175,0.9076264106974895,0.1164070874419477,0.657307612213565,0.9128746053541579,0.0,0.0,0.0,0.0
0.0166370896354638,0.05769307126218376,0.7524263401158728,0.008339030841666848,-0.5520630373943908,0.005967611398741866,0.8337393183253953,0.06336226104542975,0.4004252877213757,-0.9197978790851408,-0.13548349370659404,0.3251679936982054,-0.7827851166230629,0.0019136987671151077,0.6266654421265351,0.9004615034254654,0.10809589380805507,0.6523633116356834,0.91738297435167,0.0,0.0,0.0,0.0
0.016526657949422353,0.05896665188968059,0.7514599374409776,0.00846020373830671,-0.5520937398461249,0.005825342439624679,0.8337187731848713,0.060538431789723915,0.4019633566706396,-0.9264796008796354,-0.13832488346203026,0.3203121900620119,-0.7780621182871694,0.010898035426733607,0.6285779241521374,0.8918937127970012,0.09933109596278465,0.6464674533332404,0.9229701008715042,0.0,0.0,0.0,0.0
0.016378510380605695,0.06019032640033421,0.7503697785788203,0.008649885550624832,-0.5520953596159297,0.005604602980125014,0.8337172673010638,0.05795905524396351,0.40302400805051997,-0.9327815493728779,-0.14093882662124554,0.31531485880794147,-0.7740018081492748,0.020864090541366717,0.6312484725272232,0.8815463926019248,0.09005927756741469,0.6395268335064319,0.9296696566087549,0.0,0.0,0.0,0.0
0.016190749839700765,0.06127598100503144,0.7491713126329154,0.008960582397326795,-0.5520529113468674,0.005242253986824319,0.8337444511417668,0.055944932082421385,0.40341768414697743,-0.9381773506946046,-0.14302191646053802,0.3104767641684871,-0.7713668333427744,0.03266379373885936,0.6348723984922761,0.8684653720106014,0.08016929538521635,0.6314149770573497,0.9374741690734046,0.0,0.0,0.0,0.0
0.01595005458146294,0.06211815191188603,0.7479409992778754,0.009456725902885143,-0.551963505488364,0.0046818002687610775,0.8338014989734893,0.05483007351635214,0.4029006917105645,-0.9417355983105691,-0.14424128379488732,0.30610592814619175,-0.7706575338518672,0.046906153394561695,0.6399491946105295,0.850956438394438,0.06962583285421532,0.6223420605151629,0.9458635586867167,0.0,0.0,0.0,0.0
0.01575263119490684,0.06260681635228159,0.746947161954822,0.010164739816763224,-0.5518461150193987,0.003895037290051894,0.8338749139331169,0.05492912705630447,0.40201894504196195,-0.9429869230669072,-0.1442838426874841,0.3032945742457499,-0.7726838123452853,0.0599137000834298,0.6482087707966587,0.8276454273219679,0.05882699118759971,0.6139534994493581,0.9526374444827157,0.0,0.0,0.0,0.0
0.015757597486971493,0.06261602667160306,0.7469324801261445,0.010170138862490049,-0.5518518652830606,0.0038910144958236056,0.8338710614149634,0.05491379664553036,0.40202615363798905,-0.9430242793071854,-0.1442968047241855,0.3032496970711198,-0.7726454364680287,0.05992012851373871,0.6482075442555364,0.8276381721298094,0.058803910966727574,0.6139203278944669,0.9526383276697451,0.0,0.0,0.0,0.0
0.015757597486971493,0.06261602667160306,0.7469324801261445,0.010170138862490049,-0.5518518652830606,0.0038910144958236056,0.8338710614149634,0.05491379664553036,0.40202615363798905,-0.9430242793071854,-0.1442968047241855,0.3032496970711198,-0.7726454364680287,0.05992012851373871,0.6482075442555364,0.8276381721298094,0.058803910966727574,0.6139203278944669,0.9526383276697451,0.0,0.0,0.0,0.0
0.015136181375740604,0.06295842036699964,0.7473348782155724,0.009494077994932768,-0.552472028700102,0.004532464314789534,0.8334650423108667,0.05294013868827058,0.3992456950445095,-0.9363449303254651,-0.1315770542716463,0.3217679557687732,-0.8070908375554012,0.0646577132014308,0.6485062322119702,0.825288616490465,0.06396609763408836,0.6182616997887147,0.9495844154142724,0.0,0.0,0.0,0.0
0.013918755151157123,0.0639541400252485,0.7476827905228861,0.008946923605080771,-0.5528853772279749,0.005116218396021892,0.8331935768564284,0.04934223221998822,0.39455632271736985,-0.9279967386689534,-0.11711490143403076,0.3311144478106686,-0.8293084922343334,0.06468821726287377,0.6467969436805635,0.8255982350178113,0.06396132700108109,0.6201846110857434,0.9440008839491391,0.0,0.0,0.0,0.0
0.01242997701506296,0.06553134270073374,0.7479220247427495,0.008460603538229038,-0.5530867530795361,0.005670774349168202,0.8330614047439636,0.044357477357192365,0.3895764126851616,-0.9208344529213577,-0.10401593709020644,0.334925178540254,-0.8430709326416997,0.06102957811983352,0.6433183490585507,0.8288681150824487,0.05985510818045153,0.6203094185288808,0.93676924967094,0.0,0.0,0.0,0.0
0.01081228047306443,0.06748173685788068,0.7480280705470082,0.008011775789101158,-0.5532033405963117,0.006161761261695476,0.8329849386993382,0.0386077961954591,0.38453951137741144,-0.914544745392917,-0.09364537368997564,0.3357980093372964,-0.8522014035465736,0.05492242680363401,0.6386121515770158,0.8348251396281372,0.053096147688885015,0.6192059589157202,0.9290951675434501,0.0,0.0,0.0,0.0
0.009184257722511533,0.06956429749923278,0.7480533096984128,0.007601870388968093,-0.553291206280073,0.006584461653021393,0.832927186184045,0.032697716137150695,0.3795796140149555,-0.9086891636547313,-0.08573520858224386,0.3350482257277718,-0.858765477057813,0.04767544923987465,0.6335047858863855,0.8420060265374315,0.04521460776051256,0.6175896534025984,0.9214209298122186,0.0,0.0,0.0,0.0
0.007613188212411536,0.07151232108397665,0.7480971765832525,0.007249796944832181,-0.5533527363435303,0.006935106876002711,0.8328866032768233,0.027268990708471434,0.37457627108178615,-0.9024656887628142,-0.07909378059647858,0.3334520942587833,-0.8637326426539044,0.04055997233422588,0.6289083849150596,0.8482598776106742,0.037624303226664,0.616099750810194,0.9136982083830482,0.0,0.0,0.0,0.0
0.006231813363292095,0.07325754641565241,0.7481493712929617,0.0069573853510042655,-0.5533884453838819,0.007222388262390253,0.832862930146657,0.022475969187488794,0.370176506494169,-0.8969361328195166,-0.07303906222536372,0.33164932584094875,-0.867582648861499,0.0339967136098911,0.6250084115421966,0.853551263024741,0.03073915694434981,0.6149276686757373,0.9064069705501336,0.0,0.0,0.0,0.0
0.005063793387209766,0.07477691954708099,0.7481956085981948,0.006719709304492438,-0.5534088323361419,0.007458949422388518,0.8328492503885233,0.018341170334415898,0.3664899654568471,-0.8923207145559138,-0.06700403859475629,0.3302406531079577,-0.87056296193806,0.028179357047857838,0.6217421634527579,0.858039904985765,0.024719260489073497,0.6140314486039355,0.899895779112739,0.0,0.0,0.0,0.0
0.004094679070112442,0.07608474770185508,0.7482310918669826,0.00652876740540374,-0.5534197736329537,0.007656678857098743,0.8328417044175295,0.014798620714140596,0.36348711883277146,-0.8886203388409188,-0.06065078511453964,0.32979369743902953,-0.8726118235208166,0.023107551296689854,0.6190108314711095,0.8618833536235431,0.019526139078518828,0.613347399577412,0.8942426111181109,0.0,0.0,0.0,0.0
0.0032981428913918405,0.07721453768924762,0.7482588023556139,0.006376047943199517,-0.5534267357328506,0.007825307325010031,0.8328366939286336,0.011743055655039856,0.361104493802541,-0.8857539714489847,-0.053829840291252734,0.33065570695623314,-0.8734756698047478,0.018676704143847752,0.6167403378179994,0.8652078724557496,0.015025313961296569,0.612849484605585,0.889348700443496,0.0,0.0,0.0,0.0
0.0026322801998084535,0.07819144228294288,0.7482771643350082,0.006252929050835459,-0.553428180976605,0.007973546390793791,0.8328352609833263,0.009093627070354807,0.35915922806353257,-0.8834879298293833,-0.04648419561576958,0.33262301226598634,-0.8736240014976704,0.014822199648360332,0.6147957443756628,0.8681067769458959,0.011134885405992695,0.6124500393899699,0.8851387161876412,0.0,0.0,0.0,0.0
0.0020609903408048847,0.07903742497007757,0.7482886154534744,0.006152732749090746,-0.5534244162160166,0.008107511265786694,0.832837215593032,0.0067838281989875526,0.357490914938968,-0.8815874517578969,-0.03860049969458008,0.33532216491924743,-0.873425817414996,0.011481242306750721,0.6130916212299158,0.8706214558012276,0.00778043381706408,0.612103652950255,0.8815031483974909,0.0,0.0,0.0,0.0
0.0015581820441423664,0.07976636381255132,0.7482983063869795,0.006071228963513475,-0.5534165761643158,0.008230456103729524,0.8328418175126433,0.004773172928843711,0.35597950603639783,-0.8798535375188279,-0.030185355852399433,0.3384533675032918,-0.8730997457986885,0.008612294366459876,0.6115918426309993,0.8727414840662092,0.004912691033666218,0.6117984458127955,0.8783342157560473,0.0,0.0,0.0,0.0
0.0011064367680062243,0.08037837810113126,0.7483132015363222,0.006006766631928967,-0.553405896205028,0.008342064398752097,0.8328482711524989,0.0030618298514536397,0.3545275980065605,-0.8780982049124281,-0.021328580781395275,0.3418189824457119,-0.8727617351719313,0.006218504811223348,0.6103027839020112,0.8743933378895415,0.002529450565530752,0.6115395205977966,0.8755556911088944,0.0,0.0,0.0,0.0
0.0006949672097134026,0.08085586041613925,0.7483421090961778,0.005959954952063503,-0.5533940236119855,0.008437323566349037,0.8328555367760626,0.0017026206837377996,0.3530412586550691,-0.8761091214329719,-0.012368285517848245,0.34524462619192686,-0.8725115139329719,0.004363732404371567,0.6092725853481089,0.8754278886660917,0.0006901812407077248,0.6113401484136478,0.8731381759974781,0.0,0.0,0.0,0.0
0.00032042941712320284,0.08116323869679688,0.7483932858825502,0.005933030745404019,-0.553385989051097,0.008503231391454877,0.8328603972599589,0.0008095973305606355,0.3514317575005676,-0.8736439419738492,-0.004149025270019216,0.3484603949388837,-0.8725558968419206,0.00316249546340383,0.6085892407823263,0.8756585537351,-0.0004950084474275671,0.6112089690877534,0.8711327825255781,0.0,0.0,0.0,0.0
4.540928317927549e-05,0.08128624816813412,0.7484644505191898,0.0059246904926194615,-0.5533927659428938,0.008529110534898625,0.8328556891311506,0.00044594225620954485,0.3500447936109088,-0.8711968539995435,0.0016149581358876229,0.35095844530996345,-0.8731489776815643,0.0026558156288896857,0.6084015540912778,0.8751542507760419,-0.000990132781713515,0.6112461032717562,0.8697045560623493,0.0,0.0,0.0,0.0
4.576926486489983e-05,0.08128705650843017,0.7484635736565814,0.005925613741780856,-0.553392033659155,0.008530086738331824,0.8328561591322984,0.0004420622325386258,0.35004186132134196,-0.8711975882849012,0.001623367404998229,0.3509627050006386,-0.87314620881518,0.002653997888748695,0.6083964702927591,0.8751571325942197,-0.000988791416606034,0.6112481799982782,0.8697008271163224,0.0,0.0,0.0,0.0
4.576926486489983e-05,0.08128705650843017,0.7484635736565814,0.005925613741780856,-0.553392033659155,0.008530086738331824,0.8328561591322984,0.0004420622325386258,0.35004186132134196,-0.8711975882849012,0.001623367404998229,0.3509627050006386,-0.87314620881518,0.002653997888748695,0.6083964702927591,0.8751571325942197,-0.000988791416606034,0.6112481799982782,0.8697008271163224,0.0,0.0,0.0,0.0
4.576926486489983e-05,0.08128705650843017,0.7484635736565814,0.005925613741780856,-0.553392033659155,0.008530086738331824,0.8328561591322984,0.0004420622325386258,0.35004186132134196,-0.8711975882849012,0.001623367404998229,0.3509627050006386,-0.87314620881518,0.002653997888748695,0.6083964702927591,0.8751571325942197,-0.000988791416606034,0.6112481799982782,0.8697008271163224,0.0,0.0,0.0,0.0
0.0001658957215256289,0.08150725302214894,0.7484700337672701,0.005946776200714269,-0.5534542398532477,0.008506938423286595,0.8328149087522058,-4.685015209480607e-05,0.3511873634247431,-0.8727923969338309,0.0011338451886928275,0.3512512991650394,-0.8732173653818657,0.0013303886386334624,0.6087667149597893,0.8762455307416213,-0.0023127396504697803,0.6116887634018556,0.8690748810160632,0.0,0.0,0.0,0.0
0.0003327193241054131,0.08190202628659374,0.7484682860236633,0.005945832079851887,-0.5535078532775674,0.008499589698363574,0.8327793587835235,-0.0009742185243483937,0.3529927566310314,-0.8756804233144275,0.00020650811509065944,0.351503092966831,-0.8731572211320662,-0.0007114959460652324,0.6090463453047311,0.8780676050140392,-0.00434958119155515,0.6122821379027915,0.8679123863619262,0.0,0.0,0.0,0.0
0.0005431487091810341,0.08248952556924583,0.748455635584391,0.005932694358263072,-0.5535423482805116,0.008501622587896928,0.8327565035537825,-0.0023783763472382436,0.3554733559198062,-0.8799343592266037,-0.0011960858460478012,0.3516717062511764,-0.8729617138573489,-0.0036546984270342704,0.6092139949536273,0.8806855290082714,-0.007272874036203421,0.6129752471824739,0.8661192873905823,0.0,0.0,0.0,0.0
0.0008085261456003106,0.0833460155341884,0.7484352479722417,0.00590141363456509,-0.553555502109628,0.008524146974775805,0.8327477519150825,-0.004466543758059238,0.35884692408895374,-0.8859674414401187,-0.0032792084620033466,0.3516857348851088,-0.8724448175986257,-0.00782598388351563,0.6092633792671527,0.8843273551431617,-0.011391820266186927,0.6138702935970232,0.8633765349573735,0.0,0.0,0.0,0.0
0.0012367664790226688,0.08457686817677873,0.7484514993758206,0.005736565821316606,-0.5536723442156191,0.008853379323661936,0.8326677877388498,-0.008069869486742208,0.3638413444592019,-0.8947770348347506,-0.006868442018080124,0.3519692921958469,-0.8708910791927987,-0.01191031128517384,0.6093077381144528,0.8890099472341534,-0.015395138977553326,0.6163417473362233,0.8596405301646678,0.0,0.0,0.0,0.0
0.0020079086791539667,0.08563755596389121,0.7483902487061528,0.005643291861695447,-0.5535807481841493,0.008878309431636403,0.8327290580485812,0.007823118970318161,0.3549040169627622,-0.8824972582037558,-0.009382616284757561,0.3547333578041535,-0.8752966141562485,-0.016861719731344132,0.609818448837778,0.893788928977083,-0.02021101677462773,0.6179305703039771,0.8566194754610189,0.0,0.0,0.0,0.0
0.00308774082821325,0.08686081491582585,0.7483225151021846,0.005473080812507626,-0.5535583128358185,0.00906703266327436,0.8327430747808504,0.02893402916279318,0.3475836875275156,-0.8739544847553729,-0.012610107140658777,0.3590106463734346,-0.8813999912585598,-0.021586028087414652,0.6107003014127106,0.899395096058279,-0.024764217238356222,0.6206465023195668,0.8536890157516411,0.0,0.0,0.0,0.0
0.0042215988121260895,0.08835650811680197,0.7482428611852536,0.0052802732240387,-0.5535484747580559,0.009334381267368552,0.8327479055116649,0.049955796881316045,0.3415560961126666,-0.8683442128979479,-0.016676516556635476,0.36303173191355814,-0.8867367132434764,-0.027369698424909106,0.6115108713486166,0.9059915643108171,-0.03029733561601313,0.6237381531383877,0.8499125492307855,0.0,0.0,0.0,0.0
0.005373956871550859,0.09009012527090124,0.7481484557938054,0.005083501360934417,-0.5535245728234126,0.009620702176957546,0.8327617590789061,0.06894709431679083,0.33630920117222973,-0.8644905538445548,-0.021377980180449892,0.36664484973030453,-0.8913265295384839,-0.03443924452306119,0.612268612591198,0.9134062926579067,-0.03699006532819648,0.626945218268743,0.8452262926556218,0.0,0.0,0.0,0.0
0.006643456240499258,0.09200209232482526,0.7480319740671979,0.0048590161080554915,-0.5534958901736784,0.00992584245486869,0.8327785823223782,0.08577483194469054,0.3316336094222184,-0.8615401761798556,-0.0265509768748939,0.3705296146939863,-0.8962538357197871,-0.04239446521367057,0.6131706551353532,0.9215496285004732,-0.04441739939836865,0.6304341566072056,0.8400274529998901,0.0,0.0,0.0,0.0
0.008110104543304275,0.0940758593018001,0.7478860402162716,0.004584986006516001,-0.5534690550762358,0.010262783205870266,0.8327938870195962,0.10088054182411704,0.3274583741027638,-0.858985910887937,-0.03217329914215202,0.3751629395483732,-0.9022366702466044,-0.05102186284105713,0.6143536102139984,0.9304435476024145,-0.052344155242781375,0.6343725553149404,0.8345301960224655,0.0,0.0,0.0,0.0
0.009785510267549601,0.09635201914157399,0.7477044512463078,0.004253373961136443,-0.5534342338023545,0.010644015608260183,0.8328140024022643,0.11470140221959263,0.3238037279533178,-0.8565619175956142,-0.03837645339705489,0.380504011610806,-0.9092064237502491,-0.060504215719108766,0.6158058580429572,0.9401956322633572,-0.06090633580868105,0.6387935519418473,0.828579598783324,0.0,0.0,0.0,0.0
0.011679900590566358,0.09888982646669742,0.7474816131583749,0.003851478893352429,-0.5533713465082977,0.011087923120849656,0.8328519537917851,0.12759858247556227,0.32080213031981863,-0.8539119175717275,-0.045350549406185936,0.38646531845958365,-0.9170314464445829,-0.07109028136455728,0.6174910506164941,0.9509157198102851,-0.07028138460626857,0.643747797935117,0.821891340899057,0.0,0.0,0.0,0.0
0.01380107160573487,0.10175826475226638,0.7472122995083881,0.003359591150494831,-0.553259008298842,0.011620809322571398,0.8329214486817901,0.1398376432776169,0.31861640276588965,-0.8505451209864078,-0.053326105576385764,0.39291258930062317,-0.9254706839935574,-0.0830274712968053,0.6193624876107993,0.9627063783507741,-0.08062043923802005,0.649323333364526,0.8141131909459054,0.0,0.0,0.0,0.0
0.016163729813099634,0.10500359691110378,0.7469166927648216,0.0027547638470876907,-0.5530794362896162,0.012274185111857537,0.8330335484298018,0.1517620184078889,0.317200462931454,-0.8457791293639675,-0.062490602123348366,0.39980163682475484,-0.9342952173696005,-0.09640636166861136,0.6215382725125517,0.9753375211423835,-0.09191041963908268,0.6558037977416437,0.8047047499091308,0.0,0.0,0.0,0.0
0.018797419231341896,0.10864079529816639,0.7466266213902811,0.002013464180428808,-0.5528084501162299,0.013080071195229626,0.8332032616232449,0.16394361390160414,0.3158601299804242,-0.8393089068947776,-0.07295987391428857,0.4072387843686652,-0.9435000112688721,-0.11112772001225715,0.6242134163663314,0.9883541742087838,-0.10396087461261376,0.6635710242274596,0.7930839348484484,0.0,0.0,0.0,0.0
0.021727252902461875,0.11263025944957629,0.7463423758792339,0.0010993335206318181,-0.5524480509856977,0.014081355204392645,0.8334276560467152,0.17710250025413288,0.31350914984148653,-0.8305342085463114,-0.08473316460569358,0.4153554174319226,-0.9531060787209062,-0.12663247031001437,0.6274178326073283,1.0015007677696905,-0.11619945749249232,0.6728716122345548,0.7793168072344786,0.0,0.0,0.0,0.0
0.02497355439194323,0.11668259425659541,0.7460120284282308,-1.2003526536153652e-05,-0.5520753602390858,0.015300791586153975,0.833653814391583,0.1923767387771105,0.3091017539719969,-0.8183354110229372,-0.09715487100145859,0.42468707682881845,-0.9638637297987622,-0.14100220120600948,0.6310598760352168,1.0145206913088414,-0.12700466338810132,0.683479972457193,0.7654618601388894,0.0,0.0,0.0,0.0
0.02847361982131458,0.12030630238912526,0.74544341210203,-0.001319167043163754,-0.551768554791828,0.01668388099715687,0.833829340966197,0.21060970036004845,0.30123684165214737,-0.8005747866135685,-0.10891321960721961,0.4356559505451614,-0.9772732242915002,-0.1514362051600211,0.6341580965809971,1.0280358223212087,-0.13423896638640345,0.6936226696707603,0.7562731020352917,0.0,0.0,0.0,0.0
0.03186651724678598,0.12332155827960181,0.7446341426632367,-0.0027722297370574114,-0.5514082949426579,0.01812354266699553,0.8340340186178938,0.23125659838420726,0.287326061113342,-0.77312872779148,-0.11933200224199267,0.4467409378038459,-0.9919234657338613,-0.1569291304396268,0.6354910003093257,1.0413801205644106,-0.13740594844045914,0.7018400807336344,0.7523359855431873,0.0,0.0,0.0,0.0
0.03468403093279268,0.1255157066647622,0.7434801067508631,-0.004403294319340247,-0.5509532833269354,0.019527917203994168,0.8342959612991548,0.2529761808394053,0.26337660132367663,-0.7304904616912012,-0.12756494209671218,0.4558439181012374,-1.0055488240832473,-0.15551043271519566,0.6328967191492921,1.0550479537913509,-0.1352355123600157,0.7060109778907143,0.7559092913111415,0.0,0.0,0.0,0.0
0.03619715697678335,0.12662720120717008,0.7422113971001502,-0.006060614448563227,-0.5502415669297899,0.020596009430634315,0.8347294719672288,0.27162764565491554,0.22392143851024776,-0.6651987555810341,-0.13219389430390235,0.4600770950136684,-1.0146925004706597,-0.1468265058745403,0.6252630215733258,1.0663805754315705,-0.1277137368534505,0.7048254048483961,0.7648445603491866,0.0,0.0,0.0,0.0
0.036294523927308454,0.12671970117710232,0.7421650207838194,-0.006159554467429992,-0.5501989521579425,0.02060810469455122,0.8347565387308825,0.27168903254045645,0.22391474989905522,-0.6651618098578388,-0.1324752826285927,0.46013314761169627,-1.0147594891897354,-0.14689413858543815,0.6252446895458272,1.0666936453620381,-0.12759293193832744,0.7049900506348632,0.7646514622332968,0.0,0.0,0.0,0.0
0.036294523927308454,0.12671970117710232,0.7421650207838194,-0.006159554467429992,-0.5501989521579425,0.02060810469455122,0.8347565387308825,0.27168903254045645,0.22391474989905522,-0.6651618098578388,-0.1324752826285927,0.46013314761169627,-1.0147594891897354,-0.14689413858543815,0.6252446895458272,1.0666936453620381,-0.12759293193832744,0.7049900506348632,0.7646514622332968,0.0,0.0,0.0,0.0
0.036230057054301115,0.12803299213574382,0.7447518072285094,-0.004076581185577095,-0.5497596503796653,0.01885120046821201,0.8351001979051212,0.27055769104140004,0.2292208432131195,-0.6591545946253123,-0.13308883944633132,0.4597423826823366,-1.010799909227365,-0.17875503683145177,0.6438758751263974,1.0475188461189098,-0.08802363854473827,0.6863994336347472,0.813752097581179,0.0,0.0,0.0,0.0
0.03602758567088157,0.13003705672401084,0.7477199442243705,-0.002607023438372498,-0.549361792502878,0.017554279122417527,0.8353961166125378,0.26714904924815125,0.23709661843410404,-0.6585639427145977,-0.13584297937595396,0.45726498431072354,-0.9995844979839468,-0.20831602480782443,0.6625595066104633,1.025449942729419,-0.04871296590890924,0.6755577670698842,0.8475883865129674,0.0,0.0,0.0,0.0
0.03575024508851805,0.13242906184144349,0.7504240830045041,-0.0016778813004337321,-0.5490309291896774,0.0166979154026409,0.8356335339900304,0.262323894101874,0.24628456963005363,-0.663233509979096,-0.14011250578399134,0.45290313614178584,-0.9843120382654604,-0.2341801981318113,0.678545040531146,1.0056248623758468,-0.018432391373227972,0.6686482661664067,0.8703990083333847,0.0,0.0,0.0,0.0
0.03545623637844187,0.13499661481923778,0.7527576312374923,-0.0011061837136223504,-0.5487370481917287,0.016154090240147103,0.8358381862944128,0.25677306897604163,0.25609719072892767,-0.6717015227261551,-0.14524003843716035,0.4473269149000201,-0.9672413304134759,-0.2569120431509444,0.6917859050080057,0.9888799912993286,0.0055383869718627285,0.6642876955721992,0.8866214960859057,0.0,0.0,0.0,0.0
0.03516545185776754,0.13758806885542554,0.7547501735343228,-0.0007473812128447132,-0.5484512931618606,0.015790287283240133,0.8360330658998592,0.2510206731674825,0.26589989426437194,-0.6821983130319946,-0.15066517354918102,0.44106646625280876,-0.9497629529077096,-0.2772476820713452,0.7027451289132819,0.9748852910969974,0.026021369136388556,0.6616679497089071,0.8988735695559485,0.0,0.0,0.0,0.0
0.03478969079996333,0.14005219999723303,0.7564354425454412,-0.00048438049700054843,-0.5481631735170831,0.015504764981609825,0.8362275425014888,0.24546599935667515,0.27436584714394724,-0.691886932200676,-0.1558642932842172,0.43410296939155374,-0.9322399687155432,-0.2954070498431354,0.711538255652906,0.9631881667497321,0.04505369396142238,0.6600228669888899,0.9084223791589282,0.0,0.0,0.0,0.0
0.03428334243680724,0.14234747260298145,0.7578573720707119,-0.0002520407356733422,-0.5478586124402667,0.015246224133377964,0.8364319637006754,0.24022990473482927,0.2810625980841238,-0.699714592473163,-0.16066931196311723,0.42640021579964926,-0.9147219599355494,-0.3117019633409018,0.7183376082895548,0.953386324290025,0.063817501944153,0.6588684820255508,0.9158439414308139,0.0,0.0,0.0,0.0
0.03365807079585321,0.1445244719899272,0.7590674980005933,-2.3388996484008587e-05,-0.5475144073637707,0.014992282552658987,0.8366619416741239,0.23523463482076162,0.28637331649473724,-0.7061844687878199,-0.1651833101284727,0.41799778788861186,-0.8971935551359781,-0.3266941372978462,0.7234449343297908,0.9451183341624406,0.08293168921950009,0.658086298507687,0.9212086836046284,0.0,0.0,0.0,0.0
0.03291766884506884,0.14665312049153775,0.7601108297556969,0.00022025147107111015,-0.5471049663488665,0.014726485874729611,0.8369344286737621,0.23034795438891906,0.29067626800076196,-0.7118602622077776,-0.16955818885200377,0.40881062779217964,-0.8794420708780023,-0.34095388422966844,0.7270887768573789,0.9380688414500034,0.10291322143050408,0.6578776952742674,0.9239853497782244,0.0,0.0,0.0,0.0
0.03206717908949726,0.1488078116191481,0.7610376453315281,0.0004939756980967625,-0.546600351463247,0.014435633537506673,0.8372690274055498,0.22542267875607494,0.2943575185207332,-0.7173260154303612,-0.17395747786576493,0.3987288892452125,-0.8611972085826807,-0.35498562906782827,0.7295020002976719,0.9318234659790794,0.12433570928688921,0.6588445402277218,0.9230398734984228,0.0,0.0,0.0,0.0
0.031120657713825713,0.15104870553973954,0.7619304563626099,0.0008148002032871215,-0.545956304533456,0.014097266789759824,0.8376946440737575,0.22036504520961575,0.29781077959046026,-0.7230729562770297,-0.17848955182614615,0.38774222086902094,-0.8423136495275722,-0.3691506922818067,0.731066417642113,0.9255349163351387,0.14749870977323565,0.6601549898995032,0.9200541956126657,0.0,0.0,0.0,0.0
0.03007327099220552,0.1533752573649353,0.7628603942738709,0.0012187503211449691,-0.5451226515492306,0.013671989691547044,0.8382439299592125,0.21523055740343677,0.30104416405380435,-0.7289161768745683,-0.18309686560948277,0.37589524419741166,-0.8229260275347718,-0.38350733418876287,0.7320502635349767,0.9182789334946042,0.17362702692588644,0.6614643280776646,0.9163238659588557,0.0,0.0,0.0,0.0
0.028892721757285952,0.15567876762076518,0.7638377874666193,0.0017741231042184384,-0.5440418124459645,0.01309789848596167,0.8389539938834385,0.21033888987193539,0.30344777064404455,-0.7337530659100897,-0.18745730541695646,0.3633945363111294,-0.8039014477181635,-0.3976412658947309,0.7323321051140955,0.9094666187976495,0.20582402301890906,0.6630375210011163,0.9130446152228693,0.0,0.0,0.0,0.0
0.027627793954807595,0.15771786990144165,0.7647502332006573,0.0025765595809204736,-0.5426128072626767,0.012226599137677163,0.8398900005410053,0.20656077215901317,0.30447436596658006,-0.7369164814970419,-0.19084708390583013,0.3514407705491404,-0.7887173630985876,-0.41110806582554427,0.7313812389013028,0.899418787555931,0.24941145835662076,0.6663517653257673,0.9110738897504194,0.0,0.0,0.0,0.0
0.02624485025847629,0.1593412932678892,0.7651488593976712,0.0036254834990168665,-0.5407719126011857,0.011106063548546201,0.8410881343613816,0.20422239741955878,0.30336701171371927,-0.7392237110149162,-0.1931342515361112,0.34040843531128545,-0.7801071421268803,-0.42266292901404057,0.7263857789063852,0.8922709678033062,0.3094111746229758,0.6715523268688273,0.9116027063755289,0.0,0.0,0.0,0.0
0.02494722860723678,0.16050258885681812,0.7645718054189666,0.00461539157896685,-0.5385034756964863,0.009961922272356231,0.8425517580113497,0.20342886377706984,0.30143741551513104,-0.7455799037639542,-0.19458501393650163,0.33158408319351396,-0.7811553661894816,-0.4298896513865053,0.7147616487206268,0.8929673219136464,0.3810775092161237,0.6769746084508619,0.9155270574472333,0.0,0.0,0.0,0.0
0.02393868868983423,0.16109816776033023,0.7633192495881008,0.005214896307220813,-0.5360208123079493,0.009090170907020906,0.8441397173585142,0.2040728106553805,0.299581824927686,-0.7563068665945105,-0.19524467462281261,0.32615583784614993,-0.7906317649270613,-0.4300787449874627,0.6987967613017149,0.8990147737235715,0.45178761425833264,0.6780150841697756,0.9246439463506019,0.0,0.0,0.0,0.0
0.023941177419416086,0.16111560518797088,0.7632878448902701,0.005242504925338417,-0.5359994605889103,0.009066127414009043,0.8441533626801577,0.20409604850766278,0.2995376188709325,-0.756372512114118,-0.19525931577878558,0.32598887236500623,-0.7906443480784114,-0.4301572115249484,0.6987378906881349,0.8988839959522098,0.45185392666306723,0.6780282655854313,0.9246553909285017,0.0,0.0,0.0,0.0
0.023941177419416086,0.16111560518797088,0.7632878448902701,0.005242504925338417,-0.5359994605889103,0.009066127414009043,0.8441533626801577,0.20409604850766278,0.2995376188709325,-0.756372512114118,-0.19525931577878558,0.32598887236500623,-0.7906443480784114,-0.4301572115249484,0.6987378906881349,0.8988839959522098,0.45185392666306723,0.6780282655854313,0.9246553909285017,0.0,0.0,0.0,0.0
0.023999272977004642,0.16162560397327339,0.7638096000892214,0.005475134722203971,-0.5377428133723344,0.00891493342916006,0.843044016364587,0.2023694477317262,0.2994921274949392,-0.7463626025883113,-0.19567565017212019,0.32300443423847447,-0.7762348279939194,-0.4418294902128637,0.7079390053689179,0.8994561681942039,0.4540436911302523,0.6863529242500732,0.9239036293550197,0.0,0.0,0.0,0.0
0.024086528761442638,0.16238788681210517,0.7641680339172777,0.005512682221487571,-0.5388864761286016,0.00892605795199476,0.8423130663060264,0.20015108321885253,0.30129678158541745,-0.7435023312797863,-0.19710072712480328,0.31974086403748864,-0.763795735768587,-0.45145449427165024,0.7141981723659667,0.9004082605289282,0.4544588980594329,0.6923498698475571,0.9224432328354863,0.0,0.0,0.0,0.0
0.024335473654217336,0.16344255622747683,0.7642355100247556,0.005408781743085663,-0.5396001558645305,0.009062810458456635,0.8418552621072248,0.19740157778178788,0.3057974650111485,-0.74877744605927,-0.19959528601972926,0.3168102261763859,-0.7541776683328596,-0.46050120253828714,0.7177264988779501,0.9037444316001919,0.45347811544593913,0.6960940864093942,0.922212041992611,0.0,0.0,0.0,0.0
0.024788170430443936,0.16482262843031703,0.7638827014606134,0.005206607465417623,-0.5400745053218613,0.009256698003529974,0.8415501966502765,0.19412175347532232,0.31300700675222487,-0.7616715612519671,-0.20309893144358276,0.3141935942536678,-0.7471838716224755,-0.4708136191718935,0.7187389549719326,0.9114400218415181,0.45136824153141325,0.697522863208706,0.9251028590017825,0.0,0.0,0.0,0.0
0.02541156878835217,0.16660717854423648,0.7625899296175418,0.0054217454506889536,-0.5409515436994639,0.008986806166177596,0.8409882694546735,0.19065858217814818,0.32141880807305534,-0.7771067159889699,-0.20701407527664753,0.3107688888264238,-0.7419953469133728,-0.4927269271840942,0.718005890325353,0.930772074883907,0.44524315733717645,0.6948936487385174,0.9382913122246469,0.0,0.0,0.0,0.0
0.026551087404028003,0.16859212048022867,0.7633634298491324,0.006641532557329924,-0.5421836241581299,0.00768227699293547,0.840198661246404,0.18782445962353583,0.3333076042410931,-0.784794540328889,-0.20971881960583166,0.31079848925367953,-0.7361824341992722,-0.3947517034713056,0.7044180608199024,0.9183870045790183,0.4263521112992956,0.7034035492684502,0.9310967161896645,0.0,0.0,0.0,0.0
0.027865952416300608,0.17091547725099251,0.7632866913322063,0.00815061847342074,-0.5437779785853027,0.0060636169305695,0.8391676292457318,0.18472428061368154,0.3463857092024243,-0.7953078543709428,-0.21291463061793592,0.3102046539139178,-0.7319352818667757,-0.30101780740068473,0.6916469070479083,0.912049429503646,0.4038583223408753,0.7081968634794984,0.9326596786383285,0.0,0.0,0.0,0.0
0.02935539653551719,0.1734757596656512,0.7628001693111542,0.009220842643186353,-0.5451041048503599,0.0048847868131651016,0.8383034234655298,0.18071301863464803,0.36161379656212606,-0.8138230203370295,-0.21745343171818804,0.3097959005238135,-0.7290230203845979,-0.2336105487589262,0.6832047195919501,0.9107364557690424,0.38332278382632523,0.7110824489469174,0.9366242138947809,0.0,0.0,0.0,0.0
0.030811826356991937,0.17602015955362102,0.762229647992696,0.009899857445529393,-0.5461138955227085,0.00412180252831775,0.8376422963792408,0.176246524179453,0.3768165850665202,-0.8353744063023136,-0.2226156672236869,0.3092328003844775,-0.7261725573672201,-0.1873810941472708,0.6778488321465483,0.9124829491709734,0.3654035528551253,0.7131640868490391,0.940088924432509,0.0,0.0,0.0,0.0
0.03210524233983706,0.17840664679709747,0.7616736864760366,0.010348366985598316,-0.5468801836064197,0.003619431563376112,0.8371391018191052,0.17174946120098347,0.39055710576169667,-0.8562652293649946,-0.22778839001156756,0.30820209953266325,-0.7228457611196835,-0.15369172365781758,0.6739656808145392,0.9156538872252735,0.34954035732986494,0.7145857309805593,0.9427204963872745,0.0,0.0,0.0,0.0
0.033216978786550874,0.18059626039380552,0.7611489928672143,0.010683053170356916,-0.5474774891284554,0.0032537585803476673,0.836745889937717,0.1674516541128553,0.4025591168263759,-0.8752301438863823,-0.2326802189765433,0.3067352752334096,-0.7191595874330526,-0.12643336336848596,0.6705788160371434,0.9191700882598325,0.33508656523463776,0.715384546427915,0.944778652011165,0.0,0.0,0.0,0.0
0.034173664013881236,0.18261182379835997,0.7606280933838461,0.010968207070127352,-0.5479609766178268,0.002950146186283116,0.8364267829135936,0.16341469895711444,0.4130546431185868,-0.8923063625498078,-0.2372347390820759,0.3049204102422808,-0.7153518471521327,-0.1022368028123128,0.6672969960392888,0.9222667682849739,0.32150287984967424,0.7155138587120101,0.9467219235196578,0.0,0.0,0.0,0.0
0.035007973600343946,0.1845079326029453,0.7600508231776888,0.01123211168537695,-0.5483666502511363,0.0026748435151272647,0.8361582994694274,0.15958001940591743,0.4223844371663415,-0.908070430283119,-0.24154063673619897,0.3027501623972456,-0.7115521083466589,-0.07952968609973662,0.6641897253511214,0.9241624639691022,0.30838084618509615,0.7147923520975349,0.9491684730953124,0.0,0.0,0.0,0.0
0.035718948250310016,0.18636712132495933,0.7593275407026326,0.011481497988596396,-0.5487145619795122,0.002417268855722093,0.8359274259688152,0.15578367214195782,0.4307382723184058,-0.9231455476904906,-0.2457766317388178,0.29987246486757335,-0.7074101711924996,-0.05789594513721384,0.6616721377375436,0.9237497070553606,0.29523770432538043,0.712780538742462,0.952885080631989,0.0,0.0,0.0,0.0
0.03627875476657309,0.1882811649928635,0.7583683817242559,0.01171728894439838,-0.5490157281886899,0.002174304886485381,0.8357270533729877,0.151816068383175,0.4381525030219047,-0.9379853388806273,-0.25014268758554054,0.29570792871801826,-0.7022107991547621,-0.03744097149382741,0.6605592799674466,0.9193816260786315,0.2814920341978922,0.7089422578890674,0.9585558206236041,0.0,0.0,0.0,0.0
0.03667732200467095,0.19031298291949533,0.7571325753075838,0.011951375540669506,-0.5492688530098097,0.001937021434109813,0.8355579810425713,0.14753706177547796,0.44469189559013866,-0.9528906449404485,-0.2547731546950875,0.2899204202860266,-0.695542506502155,-0.017660245758315988,0.6602653499125347,0.9121591166872294,0.26659516536524275,0.7029926504662986,0.9663724677349246,0.0,0.0,0.0,0.0
0.03690772837371184,0.19249131289967802,0.755601556491991,0.01220831035567811,-0.5494705828200548,0.0016837095845439259,0.8354221692627528,0.14290180739947603,0.45034088983932746,-0.9678831695769898,-0.2597059639289214,0.2823269813264235,-0.6872378108043448,0.0020785076323524276,0.660606564479389,0.902484946359783,0.25006199606075874,0.694742569997309,0.9763435561081062,0.0,0.0,0.0,0.0
0.036957824157035316,0.19479301863987075,0.7537645296975684,0.012530889470316792,-0.5496166264191854,0.0013750175924186535,0.8353218841256925,0.13801271642467233,0.4549142936358185,-0.9825897630767128,-0.26483555892284255,0.2729223399358013,-0.6775064341971928,0.022593915787148085,0.6617058087643226,0.8900800952839625,0.2315456917380892,0.6839968167074477,0.9884873758687135,0.0,0.0,0.0,0.0
0.036929927515447665,0.19702869025727562,0.7516378793170553,0.01299621863265035,-0.5496823599394695,0.0009180681897736631,0.8352721464429583,0.13351681882959948,0.4584573638422152,-0.9966666944472179,-0.2696571537962158,0.2632482524169826,-0.6694034905094303,0.04543102189338835,0.6641047108506333,0.874097428082483,0.21145306188941862,0.6708977138152398,1.0028857841566334,0.0,0.0,0.0,0.0
0.03678518978749692,0.19906083522166562,0.7492533536724011,0.013713721101672566,-0.5496346460898388,0.00017141472451403223,0.8352925596988372,0.1299840726675283,0.46045767343216465,-1.008805684835895,-0.2736355618306204,0.2538240903015445,-0.6644581233024957,0.07218046135548833,0.6681896482328161,0.8524902007364118,0.1890565627455734,0.6550491547845453,1.0192932299581765,0.0,0.0,0.0,0.0
0.03648070433291526,0.20072196999136835,0.746770724293108,0.014825079400171194,-0.5494271698467921,-0.0010198562614514256,0.8354094576602116,0.12806100468928946,0.4604857887764455,-1.0172686637033406,-0.2761352118119429,0.2453750333494556,-0.6642277457587334,0.10416873805675395,0.674925020298782,0.8217763760335892,0.1635869480794004,0.6365741902802111,1.0363151559998047,0.0,0.0,0.0,0.0
0.036110173458001826,0.20179425751854224,0.7447503949928118,0.01639110139691154,-0.549081241808151,-0.0027034171395827196,0.8356038614230934,0.12830186182428158,0.459138365382262,-1.0202442678302452,-0.2765229166605409,0.23968919370366445,-0.669814268348253,0.1339957374098086,0.687829462585263,0.7788829775249214,0.1361065201900745,0.6184866904228239,1.0493785736937782,0.0,0.0,0.0,0.0
0.03613901827179889,0.2018166621141914,0.7446978006220805,0.016428547501271786,-0.5491114137160553,-0.002723326351372557,0.8355832344221236,0.12827572433711854,0.4591778039284842,-1.0203122305258425,-0.276551682286901,0.23957092336272856,-0.6697637664309876,0.13400888883474227,0.6878256880410015,0.7788700853415649,0.1360868875746355,0.6183979415228554,1.0493713607086128,0.0,0.0,0.0,0.0
0.03613901827179889,0.2018166621141914,0.7446978006220805,0.016428547501271786,-0.5491114137160553,-0.002723326351372557,0.8355832344221236,0.12827572433711854,0.4591778039284842,-1.0203122305258425,-0.276551682286901,0.23957092336272856,-0.6697637664309876,0.13400888883474227,0.6878256880410015,0.7788700853415649,0.1360868875746355,0.6183979415228554,1.0493713607086128,0.0,0.0,0.0,0.0
0.03461796822464101,0.20263586799507585,0.7459839051153349,0.014813817948525237,-0.5506303175973217,-0.001197954154167931,0.8346168995690807,0.1229567899373428,0.45381535723535177,-1.0064011088801599,-0.2525055584376474,0.2827784710555685,-0.7404191696635198,0.1455553580884239,0.6899432768886555,0.7699380974400251,0.15030591243263064,0.6301632105709036,1.0399136112903802,0.0,0.0,0.0,0.0
0.03167393623742455,0.2046889617130412,0.7472464787362505,0.01344643887065576,-0.5516202868113956,0.000259319347282309,0.8339869214881535,0.1143360993566992,0.44391307690782034,-0.9883827459388741,-0.22464597736730602,0.3067736615303409,-0.7839193736155231,0.1472060100110814,0.6875868115117697,0.7661470976577643,0.15210516400612167,0.6351720636469158,1.0257973850509516,0.0,0.0,0.0,0.0
0.028065695529018282,0.20773154055055615,0.7481294574801997,0.01229086504097131,-0.5522227855573058,0.0015347751869119446,0.833604567053828,0.10363399657599642,0.4322713219894558,-0.9707927441619683,-0.19940904501272283,0.31935452779147067,-0.8105667456318669,0.14093441242071994,0.6807293677572316,0.7707037169439214,0.14356440583455055,0.6344343650121016,1.0109515492882917,0.0,0.0,0.0,0.0
0.024287862380943336,0.21152205460051068,0.7487751559127391,0.0112405712064867,-0.5525749104912284,0.002699986876145385,0.833383061938165,0.09146681773553288,0.4209510999208168,-0.9556686183201037,-0.1784815435358851,0.3256065938043683,-0.8269598474197761,0.1296355018613339,0.6715465771866709,0.7805981209884945,0.12890875132013443,0.631279570704306,0.9948969817739816,0.0,0.0,0.0,0.0
0.02071500103331497,0.21583527313677253,0.7491529230981179,0.010278840229775816,-0.5528067555048961,0.003740006963371941,0.8332376904938918,0.07849231674788847,0.41135251371408643,-0.9445556614650206,-0.16196079062208704,0.32824833424933925,-0.8375610430415376,0.1150364170321094,0.6610873958595469,0.7950991608110769,0.11083639718459602,0.6272776515797395,0.9787390757340734,0.0,0.0,0.0,0.0
0.017447923936503674,0.22020086698762922,0.7493357416903608,0.00942759236077325,-0.5530110168241871,0.004618937246780219,0.8331077968618875,0.06587711012696547,0.4029722049637456,-0.9355465992809973,-0.14867143666755755,0.32876873508268045,-0.845232131316212,0.09934557686788215,0.6507063493209932,0.8112383450391314,0.09231031187749801,0.6233303549938978,0.9633616051905027,0.0,0.0,0.0,0.0
0.014513105205458704,0.22419452290320188,0.7495021819412231,0.008715377843068493,-0.5531610964910506,0.005336790107321777,0.8330116218812446,0.05458622018108167,0.3952274088235718,-0.926858655308198,-0.1367140374423403,0.3281553324197232,-0.8510025343743727,0.0844194075853423,0.6418339524446682,0.825113084659898,0.07545580480064039,0.6201915263785783,0.9484191207783007,0.0,0.0,0.0,0.0
0.011904699115277485,0.2277628557579013,0.7496995350426824,0.00812081050258021,-0.5532611099126067,0.005931699140641194,0.8329471841841813,0.044645577351274064,0.38813718797734886,-0.9184680403963992,-0.12514158569981335,0.3274109367052895,-0.8554523072431093,0.07076628382391484,0.6345404870521305,0.8362893643581861,0.06058076163546441,0.6180030055264442,0.9338626876509651,0.0,0.0,0.0,0.0
0.009595490521367113,0.23091550284058662,0.7498985316534416,0.007625860289458472,-0.5533256221198452,0.006431720197783171,0.8329052978195236,0.03595395235337434,0.3816434494991296,-0.9104846426188321,-0.11326952043253842,0.32733588682709397,-0.8588373379418035,0.058530980390185706,0.6284217259898337,0.8454048054852525,0.047620233719345116,0.6164856233989032,0.920169771062833,0.0,0.0,0.0,0.0
0.007557236664487217,0.23367819755956634,0.7500731203856972,0.007215867600032496,-0.5533699674622002,0.006858445338969003,0.8328760844766733,0.028386860191993674,0.3756916388289549,-0.9029793172271977,-0.10063692939627022,0.3284145334752495,-0.8611240978156638,0.04772268777214793,0.6231538881703574,0.85303773724144,0.036422262854222745,0.6153827735999241,0.9077164199662914,0.0,0.0,0.0,0.0
0.005771927376362207,0.23607371182855752,0.7501939975695209,0.0068790553596452175,-0.5533994853648234,0.007228415257565307,0.8328561929938275,0.02184267254982776,0.37026376764093477,-0.8961106978045178,-0.08696188266863099,0.33052198329134386,-0.8628907365915596,0.03832530503373423,0.6184402373147954,0.8597041896074477,0.026856706616271,0.6144245149384523,0.8968799476630481,0.0,0.0,0.0,0.0
0.004229313437798977,0.2381499348556327,0.7502728182878219,0.006602276400530915,-0.5534188908770108,0.007556822948999566,0.8328426235452335,0.01616516251368577,0.3654636796379635,-0.8900760530149909,-0.07212993700043173,0.3333772760041057,-0.8644928082368949,0.030194612152860918,0.6142508804941924,0.8655571727269505,0.01869241158059943,0.6136136771099756,0.8875245772104932,0.0,0.0,0.0,0.0
0.002922102925797779,0.2399451242148133,0.7503352573895264,0.006375794785830705,-0.5534323334773628,0.0078535645209218,0.8328327101086783,0.011234590777686113,0.36138998495281854,-0.8849840350458076,-0.05612540121350865,0.3367714532353665,-0.866092425646376,0.023199834145399986,0.6106693956907359,0.8705471783748069,0.011742970344009587,0.6130558722290572,0.8793633650910568,0.0,0.0,0.0,0.0
0.0018466635421538812,0.24144555082970665,0.7503920016096927,0.006198532973441109,-0.5534414620518391,0.008117830129215764,0.8328254481611937,0.007078567691246483,0.35803127960386805,-0.8807746450344898,-0.039116877421929014,0.340580711998374,-0.8677606869757882,0.017392416607522103,0.6077453574498375,0.8745701178351307,0.0060257601868348495,0.6127484522788523,0.8724059263735413,0.0,0.0,0.0,0.0
0.0009926464470493392,0.2425702169311852,0.7504158374644666,0.0060786367399691486,-0.5534341495152069,0.008327409272488314,0.8328291220776154,0.0039315851984977725,0.35517300803584867,-0.8771936629665111,-0.02179189449919352,0.34462950956892374,-0.869646906805903,0.013030250029350893,0.605337599075966,0.877626077890132,0.0017707631358302514,0.6123556800711614,0.867222913816399,0.0,0.0,0.0,0.0
0.00028830295775432305,0.24324493080006473,0.7504272585977964,0.006017393273916985,-0.5534334072592028,0.00846558043441422,0.8328286670471693,0.002000322623696012,0.3522464264921773,-0.8730733905187041,-0.005686377162544557,0.3486775986683149,-0.8721048417106733,0.010395490171029021,0.6035216724726679,0.879295642832755,-0.0007670187271980721,0.6118011688222689,0.86392440190981,0.0,0.0,0.0,0.0
-0.00014619194170791233,0.2435180006088106,0.7504490990681802,0.006005349539381695,-0.5534389688744888,0.008511113648917925,0.8328245940487754,0.0012293091875986456,0.3501289862865265,-0.8697577176655326,0.0056001149808789265,0.35224583900835243,-0.8752001853004967,0.009208233693292272,0.6026551125797424,0.8796796712476378,-0.0018928703615382527,0.6114134932274548,0.8622266356764419,0.0,0.0,0.0,0.0
-0.00014398072539104756,0.2435214642153058,0.7504456604920763,0.00600802837989025,-0.5534376694122248,0.008513450376580958,0.8328254143776094,0.0012185521641600344,0.35012229615486623,-0.8697586736355949,0.005619118441747088,0.3522485689049402,-0.8751977221324122,0.009199426955895254,0.6026418530002907,0.8796937637041871,-0.0018840743027055751,0.6114281378141315,0.8622118446899638,0.0,0.0,0.0,0.0
-0.00014398072539104756,0.2435214642153058,0.7504456604920763,0.00600802837989025,-0.5534376694122248,0.008513450376580958,0.8328254143776094,0.0012185521641600344,0.35012229615486623,-0.8697586736355949,0.005619118441747088,0.3522485689049402,-0.8751977221324122,0.009199426955895254,0.6026418530002907,0.8796937637041871,-0.0018840743027055751,0.6114281378141315,0.8622118446899638,0.0,0.0,0.0,0.0
-0.00014398072539104756,0.2435214642153058,0.7504456604920763,0.00600802837989025,-0.5534376694122248,0.008513450376580958,0.8328254143776094,0.0012185521641600344,0.35012229615486623,-0.8697586736355949,0.005619118441747088,0.3522485689049402,-0.8751977221324122,0.009199426955895254,0.6026418530002907,0.8796937637041871,-0.0018840743027055751,0.6114281378141315,0.8622118446899638,0.0,0.0,0.0,0.0
-2.8311130615693263e-05,0.243757013234176,0.7504550470258833,0.006026394106128663,-0.5534978411527443,0.00849199266519734,0.8327855116858741,0.0006930940781052603,0.3512706546008341,-0.8713669962512056,0.005091034020017943,0.35249022982435746,-0.8751774552743317,0.007836832051324839,0.6030036523107172,0.8807919966634776,-0.0032417505475856047,0.6119020035850206,0.8614758200152693,0.0,0.0,0.0,0.0
0.0001316588585992305,0.2441722085846046,0.7504548956261364,0.006023385403683976,-0.5535491067209222,0.008485911977510226,0.8327515203076231,-0.0002834935655811348,0.3530803377567797,-0.8742813626882504,0.004113500474725128,0.3526744710350593,-0.8749996251850243,0.005726196427465141,0.6032585807507445,0.8826631886465586,-0.005343259591767282,0.6125145074705427,0.8601987309183746,0.0,0.0,0.0,0.0
0.00033300328724731237,0.24478274531201588,0.7504414679899672,0.006008541762452385,-0.5535820621785017,0.008489034796264457,0.8327296885234212,-0.0017434067428133539,0.3555582746211244,-0.8785579326284737,0.002654818968348932,0.35275862842336675,-0.8746654943019779,0.002701597197313081,0.6033830029352164,0.8853708585889954,-0.008341658831680598,0.6132130015247794,0.8583055588435242,0.0,0.0,0.0,0.0
0.000590742609396499,0.24566290113544628,0.7504179039926338,0.0059747589691702945,-0.5535962258087505,0.008513229983474766,0.8327202687222257,-0.0038893711743519487,0.35893835824618553,-0.8846285839813878,0.000513966921082369,0.35269749769950015,-0.8740225481707635,-0.001541419597894761,0.6033794278195276,0.8891419549147009,-0.01252179221777943,0.6141153046380095,0.8554910636612405,0.0,0.0,0.0,0.0
0.0010124059544099318,0.24691818805996785,0.7504309037871898,0.005808081442748841,-0.5537155060794301,0.008843462329888993,0.8326386957685638,-0.007550425592007326,0.3639489336583609,-0.8934842939935806,-0.00313347667445851,0.35291932770431045,-0.872365956095473,-0.005704084656337976,0.6033718905162012,0.8939662575887416,-0.01660122077029888,0.6165938447685549,0.8516873596528235,0.0,0.0,0.0,0.0
0.0017771383000170615,0.24800018970813348,0.7503651244060647,0.005715281316728865,-0.553625346036595,0.008867696321410004,0.8326990307111461,0.008267439336457722,0.35515367205760395,-0.881523795291829,-0.0056914889781923515,0.3556212413164717,-0.8766796597530712,-0.010729022191759623,0.6038307103932473,0.8988872337075986,-0.02148670407744123,0.6181681073675728,0.8486315048187923,0.0,0.0,0.0,0.0
0.002852569500986168,0.24924270960002887,0.7502928432069946,0.005547409120413362,-0.5536024430884899,0.009053681327358884,0.8327133913375769,0.02933338691601635,0.34791449071782604,-0.8731882232340589,-0.00895270030998363,0.35985903057929886,-0.8827469696616876,-0.015527212063814088,0.6046627863073588,0.9046261177637754,-0.026123088219489835,0.6208507292567311,0.8456825337133741,0.0,0.0,0.0,0.0
0.003979939553375264,0.25075782161768206,0.7502076549644988,0.005357553474615058,-0.5535932728139126,0.00931756172961632,0.8327178201283808,0.050307087983666024,0.34192980128382205,-0.8677165619339321,-0.01305210887755559,0.3638318425537009,-0.8880366677235891,-0.021387670489022726,0.605417795456738,0.9113694138095458,-0.03173860986583443,0.6239051078024233,0.8418928416624943,0.0,0.0,0.0,0.0
0.0051309163022624825,0.25250930745471883,0.7501063388118492,0.005162031042883685,-0.5535727783109516,0.009601588435698138,0.8327294530927303,0.06925193957842896,0.3367122506135158,-0.8639527598322799,-0.017784046464986266,0.36743186570100966,-0.8926278852643088,-0.028507531339282743,0.6061259872041771,0.9189492315899697,-0.03848150704818114,0.6270926367845813,0.8372208672017566,0.0,0.0,0.0,0.0
0.006415583316511499,0.2544336901962519,0.7499818627614401,0.004935270076657493,-0.5535495917940654,0.00990592366224408,0.8327426764675219,0.08605636448601328,0.3320661377800725,-0.8610332185317755,-0.02297393155435571,0.37141389562568655,-0.897727302146804,-0.03645318507207569,0.6070065531154467,0.9272622315609513,-0.045902026121220754,0.6305952002217582,0.8320930977713467,0.0,0.0,0.0,0.0
0.007896161154818702,0.25652241581817636,0.7498272417581239,0.004660329581101516,-0.5535284178406029,0.010240843598864074,0.8327542837436851,0.10113348542544097,0.32791606940088897,-0.8585123323263988,-0.028616907994490848,0.3761328525584416,-0.903868334280951,-0.04509233807569523,0.6081673185793157,0.9363397575837556,-0.05384594577492442,0.6345365783825854,0.8266651324616627,0.0,0.0,0.0,0.0
0.00958454800146279,0.2588154850891947,0.7496358134829093,0.004329045835757218,-0.5534987735043568,0.0106187684648905,0.8327710422724925,0.11492730803019288,0.32428035458504384,-0.8561228835726136,-0.03484274353689851,0.3815515533268561,-0.9109941812537995,-0.05460497664484695,0.6095941645032774,0.9462893918195133,-0.06244430961821987,0.6389473772607136,0.8207856396909003,0.0,0.0,0.0,0.0
0.011491252724224472,0.2613716747529165,0.7494013747724849,0.003928177926512118,-0.5534415491384267,0.011058586601664271,0.8328053366590595,0.12780034169166693,0.32129342701401503,-0.8535096211904014,-0.0418411269410821,0.38758463805311466,-0.9189742211628192,-0.065233615424313,0.6112499340323475,0.957226993463747,-0.07186580866353406,0.6438802095227303,0.8141798027236636,0.0,0.0,0.0,0.0
0.013624101242434917,0.26425959268214266,0.7491179051017381,0.0034375636446831405,-0.5533363783556461,0.011587138299533827,0.8328702022347021,0.14001769428824495,0.31911816005848653,-0.8501837273125985,-0.049842656396384064,0.39409838013919773,-0.9275665564223178,-0.07722116577909642,0.6130863482060284,0.9692629441557127,-0.08225442313106084,0.6494236993597098,0.8065059872370691,0.0,0.0,0.0,0.0
0.015998125212630006,0.2675235433309317,0.748806898382249,0.002834308949300057,-0.5531663914408035,0.01223618799973338,0.8329761015637692,0.1519267048397096,0.31771164832322046,-0.8454603935147262,-0.05903078498667354,0.4010557001981738,-0.9365459738198183,-0.09064966908898849,0.615232421020462,0.9821511178914867,-0.09358749191181201,0.6558733383176748,0.7972171017707095,0.0,0.0,0.0,0.0
0.018642554416175558,0.27117841963469635,0.7485000473093446,0.0020947090262603482,-0.5529080058848747,0.013038297176050458,0.833137654910193,0.16409666456904493,0.3163804730121112,-0.8390371176170865,-0.0695222658738427,0.40856115912492647,-0.9459021477197234,-0.10542023158410248,0.6178827285544669,0.9954404567013001,-0.10567408977896094,0.663613126072264,0.7857315159253688,0.0,0.0,0.0,0.0
0.021582163782656205,0.2751851776593754,0.7481991100654314,0.0011826762802902473,-0.5525629029351015,0.014036446839599754,0.8333521570961876,0.17724203585038345,0.31404113184797705,-0.8303117112732995,-0.0813181082287628,0.41674427282266285,-0.9556491320109186,-0.12098197294683714,0.6210745567840099,1.0088611649760701,-0.11795193748170911,0.6728943283848605,0.7720979407275157,0.0,0.0,0.0,0.0
0.024837736618869052,0.2792539093166636,0.7478549029871806,7.506746860007428e-05,-0.5522064892377485,0.015252184781220578,0.8335678487489755,0.19250045455081902,0.3096566763145593,-0.8181631283590935,-0.09375944941524117,0.426142716336794,-0.9665398747029201,-0.1354272113759247,0.6247305173575023,1.0221192984472565,-0.12882369215302975,0.6834844946140728,0.7583607330235382,0.0,0.0,0.0,0.0
0.028347155014134023,0.28289175521048254,0.7472762368402579,-0.0012250153452292272,-0.5519138208385245,0.016629063793807183,0.8337344349024852,0.2107196240916897,0.3018381347835562,-0.8004580489207314,-0.1055276354337184,0.4371780858252966,-0.9800872160091624,-0.14596368089385753,0.6278735061336771,1.0358008665181233,-0.13617925251821225,0.693574703932644,0.7492976245479243,0.0,0.0,0.0,0.0
0.03174790513865763,0.2859175398881969,0.7464627440421182,-0.002668712856469845,-0.5515664263122768,0.0180624174871235,0.8339311149077687,0.23134055733567147,0.28801268020650894,-0.7730738791108254,-0.11594813957878894,0.4483222097248311,-0.9948510189921509,-0.151568874123525,0.629283114121598,1.049220066526096,-0.13949731720924954,0.7017300754726992,0.7454718512178578,0.0,0.0,0.0,0.0
0.03456954832053298,0.2881186981399668,0.7453066306116835,-0.004289958900908602,-0.5511222375455749,0.019463625157300164,0.8341864556747032,0.25301172941485334,0.2642004909525604,-0.7305194884591982,-0.12418247281933398,0.45746010447548185,-1.008548179681942,-0.15025127930885843,0.6267619163034669,1.0628945453792848,-0.13748802089374348,0.7058068037104421,0.7491874098131833,0.0,0.0,0.0,0.0
0.036083860352787094,0.2892335966082331,0.7440409052453157,-0.005937202453776931,-0.5504180885294474,0.02053457543138061,0.8346154855132183,0.2715951355263899,0.224903579439327,-0.6653405242332489,-0.12882171504854864,0.46170997840313666,-1.0177143007547023,-0.14165970928024826,0.6192004191087175,1.0741524815834533,-0.13010570250368575,0.7045574573249704,0.7582114431673287,0.0,0.0,0.0,0.0
0.03618129315589429,0.28932604399822054,0.7439942708928727,-0.00603624793068019,-0.5503761437609135,0.02054719247026026,0.8346421250879779,0.2716563176472927,0.22489700267401216,-0.6653037568174743,-0.12910386876806607,0.4617669922635115,-1.017781436398328,-0.14172577943358125,0.6191845534402596,1.0744671590830779,-0.1299853274124914,0.704723133953757,0.7580221081460129,0.0,0.0,0.0,0.0
0.03618129315589429,0.28932604399822054,0.7439942708928727,-0.00603624793068019,-0.5503761437609135,0.02054719247026026,0.8346421250879779,0.2716563176472927,0.22489700267401216,-0.6653037568174743,-0.12910386876806607,0.4617669922635115,-1.017781436398328,-0.14172577943358125,0.6191845534402596,1.0744671590830779,-0.1299853274124914,0.704723133953757,0.7580221081460129,0.0,0.0,0.0,0.0
0.03612068517806011,0.29064870843318563,0.7466793028452686,-0.003961346561789461,-0.549916870050268,0.018778399165966433,0.8349988715515114,0.270528665158054,0.23034870188202705,-0.6592331597521972,-0.1296975621042467,0.46149926703801825,-1.0136853700015616,-0.17358223166691797,0.6382193206807651,1.0546185450626908,-0.08991961687993363,0.6854701812111683,0.8086442459017298,0.0,0.0,0.0,0.0
0.0359259299125579,0.2926751223303751,0.7497669617561714,-0.0024982200841463507,-0.549505778998539,0.017477749647420743,0.8353033496945178,0.2670686641813082,0.23843614554100231,-0.6586013038549944,-0.13248846510839632,0.4591668880592397,-1.002240179719141,-0.20319401487343908,0.6574266242962745,1.0317105558491373,-0.05017934249188656,0.6743080353013582,0.8433741320397117,0.0,0.0,0.0,0.0
0.03565434750498836,0.2950991250407228,0.7525772971247325,-0.001575389304425111,-0.5491655283702962,0.01662162851272875,0.8355468042329512,0.2621615605141934,0.24783975494277324,-0.6632869567093355,-0.13683181312739204,0.45489797076960714,-0.9866917694021686,-0.22916350615926054,0.6738922028036526,1.011131208365125,-0.019692078527368304,0.6672277432703799,0.8666480964745584,0.0,0.0,0.0,0.0
0.0353656612361356,0.29770278031023556,0.7549949806823885,-0.0010103954745030754,-0.5488653705783069,0.016081143565553287,0.8357554552035823,0.25651670288153666,0.2578630119188117,-0.671843731899005,-0.14205188458786253,0.44937145926959043,-0.969352470857973,-0.25202419674182214,0.6875249472580349,0.9937956818785291,0.004333440799625388,0.6627833520394625,0.8830879853634974,0.0,0.0,0.0,0.0
0.035081585722440946,0.30032930346064296,0.7570502242868491,-0.0006584913551614968,-0.5485760117295726,0.01572248574271689,0.8359525878816818,0.25067320107210167,0.26786535549195123,-0.6824833321328807,-0.1475717824034428,0.4431414822944066,-0.9516516238380935,-0.2724909904083184,0.6987890352652136,0.9793779755077485,0.024797359362449648,0.6601381663358307,0.8954300197150646,0.0,0.0,0.0,0.0
0.03471166374157285,0.30282082116610676,0.758779169036655,-0.0004016548871112047,-0.5482869209864097,0.015442296631849902,0.8361476104273264,0.24504563507574448,0.2764784371775625,-0.6922818967867412,-0.15284842561784961,0.43619760872891894,-0.9339625227357399,-0.29075580907255094,0.7078024810129614,0.9674033442784833,0.0437911257413993,0.6585010711445051,0.9050056553851309,0.0,0.0,0.0,0.0
0.03421156492789426,0.30513408341353665,0.760228961601361,-0.00017501705153264452,-0.5479836448211085,0.015189258805023717,0.8363511109543401,0.23975922468038888,0.2832773101866115,-0.7001890919707826,-0.15771015334997326,0.4285222017442189,-0.9163520716625296,-0.3071200422799369,0.7147527016254382,0.9574456871721626,0.06251927801162721,0.65737744195435,0.9124318946037585,0.0,0.0,0.0,0.0
0.03359251060759819,0.3073182236194782,0.7614533605309872,4.8421951302761096e-05,-0.547643176461397,0.014940959314516828,0.8365785776992785,0.23473875811212327,0.2886393566356491,-0.7066886622281843,-0.16225666441543585,0.42016273936687687,-0.8988089913903744,-0.32213688799534645,0.7199497241987277,0.9491288369480669,0.08160723705289377,0.6566429748842358,0.917799534597679,0.0,0.0,0.0,0.0
0.032858633418046096,0.30944308399334336,0.7624990544773265,0.00028693046109837825,-0.5472401566015429,0.014681325575823512,0.8368468123575341,0.2298515301159908,0.2929472312562355,-0.7123457110969151,-0.1666405411457887,0.41104189490139437,-0.8811242881706717,-0.3363749380716182,0.723630530812768,0.9421288335341643,0.10156592789985738,0.656500212830109,0.9205867339139241,0.0,0.0,0.0,0.0
0.03201203826624728,0.31158100229717,0.7634171207865934,0.0005558339805917793,-0.5467458841614818,0.014397060564134426,0.8371746256595324,0.2249528026447756,0.29655896733646897,-0.7176879186809951,-0.17101958560670108,0.4010421800531833,-0.8630104999474608,-0.35032955814534045,0.7260267839235724,0.9360290444073301,0.1229568007324675,0.6575485133874109,0.9196564354280217,0.0,0.0,0.0,0.0
0.031072033340953684,0.3137984961352361,0.7642914621877797,0.0008699453622477614,-0.5461155442592028,0.014068142282107848,0.8375912743613508,0.21993401065265397,0.2999321328538378,-0.7233213355448626,-0.17552257642623179,0.3901704547897898,-0.844332516811179,-0.3643919843963,0.7275370947815575,0.9299892342746915,0.14605361623654617,0.6589702592234391,0.9166790369957879,0.0,0.0,0.0,0.0
0.030032158088572545,0.3160965597539969,0.765193501110878,0.0012646195635033078,-0.5452997738372352,0.013656103746838259,0.8381289090711973,0.2148443052999392,0.3030695225820875,-0.7290520065512859,-0.1800964242134277,0.3784584950583177,-0.8251956899903589,-0.3786308733993594,0.7284269222379168,0.9230964356784905,0.17204411300096276,0.6604215417647401,0.9129124155874861,0.0,0.0,0.0,0.0
0.028859358063633586,0.31837142150894615,0.7661355537128242,0.0018070515841478664,-0.5442412747905334,0.013100024482166588,0.8388245100958328,0.20998994092175235,0.3053766386109029,-0.733801981684977,-0.1844307403948161,0.3660926842387537,-0.8064162253801777,-0.3926606703228834,0.7285822468963966,0.9147597974303404,0.20396822571968587,0.6621595316300244,0.909492842543413,0.0,0.0,0.0,0.0
0.027600554259176933,0.3203939018117419,0.76701397115526,0.002591285184826917,-0.5428410875927643,0.01225879567984707,0.8397419608371821,0.20619510521499468,0.3063414637158095,-0.7369473515526161,-0.18784000399839323,0.3542167216867806,-0.791304045774908,-0.4060612621231605,0.7275099093761742,0.9052387105077715,0.24710120186258433,0.665615530902155,0.9072481123377979,0.0,0.0,0.0,0.0
0.026238690446165343,0.3220068304645647,0.7674147731285564,0.0036270159510749423,-0.5410312750679627,0.011163495320626344,0.8409205554187931,0.20383039122179122,0.3053002135353647,-0.739278124546452,-0.19014858281084893,0.3433371803974026,-0.7827366266402238,-0.41769128973537234,0.7226603186805699,0.8982590165832528,0.3066703026340548,0.6711156176494245,0.907257788736098,0.0,0.0,0.0,0.0
0.0249565013976017,0.3231656245058473,0.7668410565345275,0.0046049172797400315,-0.5388032182983976,0.010054166742576589,0.8423590685801682,0.20296101235052275,0.30342784233661585,-0.7456254475125004,-0.19165088294524213,0.3345824533145374,-0.7836218201785572,-0.42502246191865556,0.7112096121709108,0.8990955710503191,0.3776916970826548,0.6769724803749969,0.9102405967816487,0.0,0.0,0.0,0.0
0.02396198643988284,0.323767638562652,0.7655970543505436,0.005200021621133552,-0.53636420381863,0.00922258949087908,0.8439202240023814,0.2034844747309008,0.30165366773138474,-0.7563569529439331,-0.19239451332250324,0.32918014619719804,-0.7928211221845257,-0.42535946719031914,0.6954545071781305,0.9052000716876215,0.447669997363781,0.678791935571719,0.9177507680791737,0.0,0.0,0.0,0.0
0.02396457198823982,0.32378499068761973,0.7655667698235649,0.005226941200743703,-0.5363435438531401,0.009198750446592406,0.8439334482309373,0.2035064202652134,0.30161104751109197,-0.7564200255464719,-0.19240886928832973,0.32901886171204375,-0.7928336057650993,-0.42543568132115456,0.6953962483722974,0.905073381515568,0.4477348889533624,0.6788052017886108,0.91776173981672,0.0,0.0,0.0,0.0
0.02396457198823982,0.32378499068761973,0.7655667698235649,0.005226941200743703,-0.5363435438531401,0.009198750446592406,0.8439334482309373,0.2035064202652134,0.30161104751109197,-0.7564200255464719,-0.19240886928832973,0.32901886171204375,-0.7928336057650993,-0.42543568132115456,0.6953962483722974,0.905073381515568,0.4477348889533624,0.6788052017886108,0.91776173981672,0.0,0.0,0.0,0.0
0.024027119652643324,0.3242832969468652,0.7660653850178499,0.005444368287610974,-0.538070175886582,0.009045734460208605,0.8428339215785081,0.2018415685268128,0.3015631728406755,-0.7465797810999885,-0.192802123066875,0.32611507790264366,-0.7787060964873739,-0.43688517271420235,0.7044230410828909,0.9058394902894373,0.44994558466786605,0.6869338734425141,0.9172278997632111,0.0,0.0,0.0,0.0
0.024119583653947042,0.32504054709203933,0.7663990074446184,0.005479867240448195,-0.5392044004034634,0.00904837033026778,0.842108492199749,0.19966893202222408,0.30338461329705335,-0.7438628750527152,-0.1942117291954056,0.3229283526208886,-0.7665523992638239,-0.4464845078314494,0.7105461331751097,0.9070355474771636,0.4503065408344028,0.6927501572630359,0.9160103721793212,0.0,0.0,0.0,0.0
0.024363625517825643,0.3261004283419592,0.7664471456056333,0.005380656758754598,-0.539914661526434,0.009174599135669868,0.8416525610561287,0.19693074401515415,0.3078671850997391,-0.7491694151249483,-0.19670663171292524,0.3199861484924725,-0.7570411038857872,-0.45563062462143716,0.7139797892760762,0.910576243180935,0.4491748673073652,0.6963274984793933,0.9159691490997887,0.0,0.0,0.0,0.0
0.024805133876252123,0.3274884932455831,0.76606865577975,0.005187480520971118,-0.5403867811832681,0.009357682244128682,0.8413487092467957,0.1936493633036963,0.3150237721906736,-0.7620513867869902,-0.20021644352753926,0.3173137454424562,-0.7501118586849572,-0.4660952149821074,0.7148735483167205,0.9185210523234584,0.44687204706164757,0.6975247329967905,0.9191321093166166,0.0,0.0,0.0,0.0
0.0254066370434988,0.3292751786409334,0.7647458215394736,0.0053919237776047565,-0.5412468133781587,0.009096137425936075,0.8407972849919851,0.19017251558805154,0.32332910266217657,-0.7775389691586904,-0.2041496557261605,0.31379573320002896,-0.7449420575783905,-0.48780307262333955,0.7139298257355495,0.9380202916131114,0.4407001488181413,0.6945486887840848,0.9326538701927225,0.0,0.0,0.0,0.0
0.02651553929176105,0.33124075582273005,0.76546473988686,0.006597788198449208,-0.5424596628675684,0.00780069260880554,0.8400197215228433,0.1873763337541587,0.33495567723264075,-0.7851241631607438,-0.20682839009532622,0.3137295582193214,-0.7392401644456331,-0.39023875620218096,0.7014173750099727,0.9235543166509628,0.42201701352641935,0.7026474443119498,0.9259693832181669,0.0,0.0,0.0,0.0
0.027787233057340995,0.33354558830558656,0.7653289546856658,0.008082173153879631,-0.5440214969389346,0.006202632664943038,0.8390094258668701,0.18429630994303922,0.3477281898822281,-0.795586749197173,-0.2100135484910047,0.3129764139612295,-0.7350337274099827,-0.29663059706983047,0.6891513691794007,0.9158988694120979,0.39979539245866563,0.706910813224599,0.9281141442312514,0.0,0.0,0.0,0.0
0.029233611164408348,0.33609310863518566,0.7648009615571123,0.009134932521183305,-0.5453186003153783,0.00503953589240031,0.8381639339866034,0.18029332613373847,0.3626759636231052,-0.813989871878775,-0.21454234120969473,0.3124027159562695,-0.73209245582216,-0.2292760614255267,0.6809387591118279,0.9137675307872047,0.3794602040488418,0.709359472680421,0.9325081168691719,0.0,0.0,0.0,0.0
0.030651346151933663,0.33863155465985345,0.7642052533857776,0.009806092229178396,-0.5463079378786513,0.0042836957019144395,0.8375160461251485,0.17582628683785584,0.3776432422237975,-0.8353739687898678,-0.21969427653644286,0.3116814472991047,-0.729154683318764,-0.18307202385111876,0.6756609564126909,0.9150164710224074,0.3616396159814428,0.7111203854905181,0.9362488815970088,0.0,0.0,0.0,0.0
0.03191245270583291,0.3410186691166359,0.7636330058031717,0.010253174736215172,-0.5470604689366094,0.003782471413372025,0.8370217492064903,0.17131992114828082,0.39120546939986606,-0.8561100171149776,-0.22486277874537255,0.3105076037155521,-0.7257202378443193,-0.14939529034915,0.6717759334667648,0.9178795379931146,0.3457963145968824,0.7123021134235658,0.9390637530261914,0.0,0.0,0.0,0.0
0.03299752323525684,0.34321419978240275,0.7630958579420525,0.010589699446107421,-0.547648253792379,0.003414896149446447,0.8366346794557871,0.16700459906971898,0.40307747552347545,-0.8749580677272146,-0.22975894197418958,0.30890947548317005,-0.7219198972408953,-0.12214627731483793,0.6683438058433263,0.9211947826320291,0.331314835354268,0.7129096494783509,0.9412570530301102,0.0,0.0,0.0,0.0
0.03393161895960816,0.34523904101519115,0.7625641110718036,0.010877862307282944,-0.5481243293061479,0.003108153340002256,0.8363203519687443,0.1629445481775696,0.4134758560215109,-0.8919533029964349,-0.23432452333233686,0.3069717764082448,-0.7179977515525439,-0.09796329536580094,0.6649926703203061,0.9241470255187056,0.3176816343743665,0.7128759095476539,0.9433092180460284,0.0,0.0,0.0,0.0
0.034745216561482585,0.3471466412770285,0.7619778917582664,0.011144796038173295,-0.5485233918218859,0.0028298393622510085,0.8360561429441596,0.15908122786289466,0.4227260230440508,-0.9076556758992679,-0.23864687384683897,0.30467844298310814,-0.7140699806041655,-0.07527436048287738,0.6618035117713831,0.925921452870892,0.3045025956802246,0.7120115737100353,0.9458372911660355,0.0,0.0,0.0,0.0
0.035437729572471585,0.3490169780497459,0.7612501288763672,0.011396888979223977,-0.5488644132767434,0.002569354257447812,0.8358297465265705,0.15525698918945074,0.4310150547009674,-0.9226764037203816,-0.2428987063970708,0.3016933975510439,-0.7098090774173956,-0.05366327651853364,0.6592039620736088,0.9253933410668138,0.29131377575888556,0.709887946805624,0.9495877013913038,0.0,0.0,0.0,0.0
0.035980886615612544,0.35094083199724585,0.7602941182087991,0.011635027347335352,-0.549157714471558,0.0023235148783139377,0.8356345086541195,0.15126420441106656,0.4383772215784123,-0.9374550216599613,-0.24727730068895418,0.29744277022197174,-0.7045010567697082,-0.03323354716707127,0.6580157744158794,0.9209023975492499,0.2775423475788311,0.7059823766755303,0.9552149290511442,0.0,0.0,0.0,0.0
0.0363620623390849,0.35298165158449674,0.7590710159535241,0.011871241785597392,-0.5494013957868776,0.002083253082680999,0.8354716272755718,0.1469605345755814,0.4448673769729133,-0.9522718453695556,-0.25191678616012164,0.29157481034687655,-0.697704620648096,-0.013480696951385752,0.6576460004542888,0.913541660769697,0.26263505332646053,0.7000112797270113,0.9628900981746051,0.0,0.0,0.0,0.0
0.036575651444143466,0.35516636306738275,0.7575651366826349,0.012130459561832287,-0.5495919219129817,0.0018264736742091944,0.8353431841541124,0.14230617519913258,0.4504760149916823,-0.967144174833828,-0.2568506125934068,0.2839245765945235,-0.6892739300108254,0.006240233329336355,0.6579065777879579,0.9037169541503781,0.24612473284008918,0.6918045323724917,0.9726004407352702,0.0,0.0,0.0,0.0
0.03661197718785211,0.35746965272017417,0.755768449982003,0.012455951106469373,-0.5497242919203379,0.0015133116718643242,0.8352519153180675,0.13741032201706238,0.45503038833984244,-0.9817063710937243,-0.26196853699574896,0.27451474061459824,-0.679459958711224,0.02677372260729474,0.658910904030678,0.8911546752675098,0.22768294030687045,0.6811856431063773,0.9843464383002805,0.0,0.0,0.0,0.0
0.03657161796970935,0.35970691074554095,0.7537003161667405,0.012925205938561087,-0.54977518098785,0.0010509425045964246,0.8352119999982487,0.13290621376375447,0.4585834879733477,-0.9956138048278432,-0.2667740533778237,0.2648507429539374,-0.6712354833744244,0.049695508037492744,0.6611664839400625,0.8750159872513681,0.20767669617080456,0.6683017915412461,0.9981852510643268,0.0,0.0,0.0,0.0
0.036417109596888514,0.3617424917366947,0.7513916077834173,0.013648356118342583,-0.5497114908937211,0.00029923615297217787,0.8352430242823905,0.129355660309534,0.4606357649417078,-1.007585064831284,-0.27074049535610406,0.2554508065134239,-0.666124929582601,0.07667490701594157,0.6650316169302235,0.8532693906790497,0.18538973387316476,0.6527605072579168,1.0138834476268543,0.0,0.0,0.0,0.0
0.03610615748069335,0.3634081989128523,0.7489919144017284,0.014767143663190046,-0.5494903514248047,-0.0008936976184667412,0.8353690720056866,0.12739975929528569,0.46074650962517716,-1.015896485586613,-0.27323892070718814,0.24703498815793315,-0.6656927231934836,0.10907359117108853,0.6714512194437862,0.8224868652858529,0.160109058310351,0.6346642001970264,1.0301547595592673,0.0,0.0,0.0,0.0
0.03573788373734777,0.36448336672380216,0.7470341660585882,0.016339362615891223,-0.5491401298095083,-0.0025723906855200027,0.8355665897271526,0.12759912467829035,0.45949706593741346,-1.0188009691490774,-0.27364043199193683,0.24141195523188702,-0.6711381520083627,0.13933763314913142,0.6840036586216673,0.7797324551076246,0.13296779418069338,0.6169558666168279,1.0426880587881022,0.0,0.0,0.0,0.0
0.03576548330327246,0.3645058718436115,0.7469833817213146,0.016376638751237717,-0.5491691390427599,-0.0025922438906652158,0.835546732803053,0.1275717897062536,0.45953699032905104,-1.018868092843142,-0.27366902511364755,0.24129503895290316,-0.6710873512990057,0.1393503606011064,0.68400193311554,0.7797209957885051,0.13294910024849518,0.6168651809356793,1.0426793875674545,0.0,0.0,0.0,0.0
0.03576548330327246,0.3645058718436115,0.7469833817213146,0.016376638751237717,-0.5491691390427599,-0.0025922438906652158,0.835546732803053,0.1275717897062536,0.45953699032905104,-1.018868092843142,-0.27366902511364755,0.24129503895290316,-0.6710873512990057,0.1393503606011064,0.68400193311554,0.7797209957885051,0.13294910024849518,0.6168651809356793,1.0426793875674545,0.0,0.0,0.0,0.0
0.03425109006686305,0.36530929623779135,0.7482537276902802,0.014762546279271026,-0.5506565863638198,-0.0010625996659074835,0.8346006601983055,0.12230825175550501,0.45414729442266516,-1.005097770227025,-0.2496884299541511,0.2841124876438941,-0.7412563045588625,0.1508879076640071,0.6859907233793162,0.7707839196599572,0.14706726169205983,0.6284840428663563,1.033268454008798,0.0,0.0,0.0,0.0
0.03132797967313028,0.3673398939566619,0.7494982164996049,0.013405162488193881,-0.5516314135643137,0.0003861891806475077,0.8339801772498067,0.11378013655960945,0.4442663772653265,-0.9871896192129516,-0.2218730781414581,0.3078673302450039,-0.7844907303668771,0.15249442495134463,0.6836000381368328,0.7670568565901764,0.14892518709984878,0.6335252992596022,1.0191715604021683,0.0,0.0,0.0,0.0
0.027748440749185668,0.37035629054789315,0.7503609006674263,0.012263452438352746,-0.5522297194237509,0.0016443259083700579,0.8336001684931239,0.1031934641413447,0.43267987056158486,-0.9697017065478535,-0.19666185396078636,0.3202713307957081,-0.8109915869976103,0.14619280596171577,0.6767459189967706,0.7717423741595483,0.14058647181282413,0.6329212226905557,1.0043582753817357,0.0,0.0,0.0,0.0
0.023999310513064746,0.37411854676459266,0.7509778409451389,0.01122846645399481,-0.5525835763204332,0.002788984934205825,0.8333771860838574,0.0911498162988261,0.4214092839286268,-0.9546741812657478,-0.17574897929295336,0.3263905023676451,-0.8273214168123761,0.1348867232902467,0.667519908381452,0.7818919233427953,0.1262048980751788,0.629896910616468,0.9884208180297243,0.0,0.0,0.0,0.0
0.020452978180274382,0.37840550312625165,0.7513256797940766,0.010282680523900708,-0.5528220452253763,0.0038053904514396782,0.8332272029870289,0.07829610246365178,0.4118614414533563,-0.9436428232531661,-0.15922896337483453,0.32893239398128055,-0.8378925331595647,0.12027748427649346,0.6570086225002342,0.7967035424396748,0.10838745510119312,0.6260086553595,0.9724108215792476,0.0,0.0,0.0,0.0
0.017208913868366458,0.38276456625700955,0.7514712350733419,0.009443423399188055,-0.5530358889057001,0.004664578648538434,0.8330908528142758,0.06574493215189081,0.4035597847472014,-0.9348080726908714,-0.14596022219294807,0.3293820706126491,-0.8455671473274269,0.10452245470669574,0.6464999969087255,0.8133293494019027,0.09001302708190254,0.6221136973413217,0.9572285344196277,0.0,0.0,0.0,0.0
0.014294435660301743,0.3867515657021056,0.751602446988283,0.008740955810142743,-0.553193956342755,0.005367679691335537,0.8329893338885597,0.05450566035756398,0.3958832138088402,-0.9262919342566404,-0.13399973745849975,0.3287184292506159,-0.8513601075462175,0.08955140175924473,0.6375040969323448,0.8276393318026664,0.0733038148757772,0.6190075976766928,0.9424811845783853,0.0,0.0,0.0,0.0
0.011704272636493158,0.3903105028754508,0.7517719861395515,0.008154330720520896,-0.5532995012812177,0.005952188826641529,0.83292120889111,0.04461203010830678,0.38885247030785847,-0.9180507226618724,-0.12240636151468823,0.32793907788671706,-0.855830587199122,0.07588045721266543,0.6301222856178816,0.8391374263598842,0.058578371123215595,0.6168626811581746,0.928072129191992,0.0,0.0,0.0,0.0
0.009411105739632695,0.3934509795196083,0.7519496469103084,0.007666009064777325,-0.5533677322847501,0.006444766548434892,0.8328768517345094,0.035966341329349,0.3824076672111425,-0.9101884720950004,-0.11050353968672866,0.3278379488511426,-0.8592300893956776,0.06365077007753298,0.6239437412789381,0.8484814111984524,0.04576833604456589,0.6153965378569308,0.9144884519663118,0.0,0.0,0.0,0.0
0.007386497411581695,0.39619909840847256,0.7521074340404554,0.007261717843563207,-0.5534145938823734,0.006865922775173682,0.8328459724561401,0.028445936753499355,0.3764917299021145,-0.9027744501144138,-0.09783491542003724,0.3288955043732419,-0.8615259728357724,0.05286678063974433,0.6186336666683055,0.8562768549540495,0.03471804356542704,0.6143433444151927,0.9021244478024453,0.0,0.0,0.0,0.0
0.005612171955361338,0.398578118502126,0.7522136063394447,0.006929944398722057,-0.5534460191369595,0.007231411978801372,0.832824823388974,0.021950015817334613,0.3710834797312132,-0.8959674999987028,-0.0841177901270867,0.3309849582925034,-0.8633014116655401,0.04350770138013717,0.6138822819090163,0.8630692284583573,0.02529406877392975,0.6134200911930306,0.8913814261153112,0.0,0.0,0.0,0.0
