zhuoxili-jackie/tripod-support-walk/examples/trajectory_tripod_lowstep_left_v0.15.csv
root_pos_x,root_pos_y,root_pos_z,root_rot_x,root_rot_y,root_rot_z,root_rot_w,FL_hip_joint,FL_thigh_joint,FL_calf_joint,FR_hip_joint,FR_thigh_joint,FR_calf_joint,RL_hip_joint,RL_thigh_joint,RL_calf_joint,RR_hip_joint,RR_thigh_joint,RR_calf_joint,FL_foot_joint,FR_foot_joint,RL_foot_joint,RR_foot_joint
0.0,0.0,0.72963,0.0,-0.5231245161092812,0.0,0.852256264656019,0.0,-0.81,0.872,0.0,-0.81,0.872,0.0,0.65,1.0,0.0,0.65,1.0,0.0,0.0,0.0,0.0
3.116384913342235e-05,-9.935323237705607e-05,0.7296092453425618,-2.145259022507704e-06,-0.5231144301217332,-0.00016980986665293395,0.8522624385472009,0.0007194535369907219,-0.8098185288032789,0.8718912700019908,0.0007194535369907204,-0.8107691726378098,0.872927577111434,-0.0003919490170048606,0.6503366242745148,0.9999672021515935,-0.0003919490170048601,0.6495943242314568,1.000314034064267,0.0,0.0,0.0,0.0
7.00166395641911e-05,-0.00022104924307356214,0.7295762924375137,2.9326280660093964e-05,-0.5231121584482089,-0.0003301679311109739,0.8522637853462756,0.0014474066407732635,-0.8095736549798874,0.87169782097657,0.0014478289139831478,-0.8116624467658071,0.8740352534109036,-0.0007832890554876628,0.6506736271695162,0.9999754994980737,-0.0007818440113107005,0.649157686755181,1.0008272042029467,0.0,0.0,0.0,0.0
0.00011448786519363386,-0.00034415786983258833,0.7295326182606063,6.082093319413004e-05,-0.5231071190782083,-0.0004922934406644636,0.8522667985541144,0.0021838308378886507,-0.8094020309652485,0.8715848459077494,0.002185143334522046,-0.8126403233167522,0.8752357238911634,-0.0011773247786996542,0.6509724817544937,1.0000673496867147,-0.0011733927139055476,0.6486751927012455,1.0014298448951011,0.0,0.0,0.0,0.0
0.00016087465362669455,-0.00045368625841162155,0.729479078174458,6.800383464345361e-05,-0.52308915860425,-0.0006646717924974193,0.8522777045878793,0.002930273456487894,-0.8094058918120961,0.8716636989764571,0.0029328033833533407,-0.813679425616581,0.8764595063209417,-0.0015775783356553937,0.6511919760939161,1.0002721367026515,-0.0015699668896959579,0.6481212131655975,1.0020416807100625,0.0,0.0,0.0,0.0
0.00020372707619392748,-0.0005120347231257461,0.7294210129318912,-9.006334921350891e-06,-0.5230418215438224,-0.0008669244194341978,0.852306577046697,0.003685209049602656,-0.8097978717229755,0.872194853177018,0.0036887987653647426,-0.8146767180104864,0.877515595492213,-0.0019897582452095626,0.6512766485680392,1.0006484552275623,-0.0019763553417205394,0.6474840372959372,1.0024495230950907,0.0,0.0,0.0,0.0
0.00028331787071973015,-0.0003734953167104462,0.7293746529717912,-0.0003959005878799212,-0.5229496226253857,-0.0011648985513902509,0.8523627035892973,0.004409962510619786,-0.8114548737705759,0.8745365495393017,0.004412530581790709,-0.8152771831959731,0.8780175276323898,-0.002413811139339492,0.6512834285806947,1.0015001583258416,-0.002388195852155327,0.6470202275421301,1.0019219893916493,0.0,0.0,0.0,0.0
0.0005035828855369035,4.039249776899794e-05,0.729383602712937,-0.00013295718628719542,-0.5230407164728211,-0.0005264873781455125,0.8523075231658026,0.009284060590739558,-0.810762911680668,0.8702308404905389,0.0014326979984264619,-0.814416099487234,0.8780795808058459,-0.002809953539583675,0.6512143043177009,1.0022577357045126,-0.002793651918527559,0.6489487574514641,1.0009889510057859,0.0,0.0,0.0,0.0
0.0007949263278485907,0.0006666009724408239,0.7293794183227532,-0.0001669080352772294,-0.523088578837502,4.546171446115474e-05,0.8522783047600723,0.014262446724804251,-0.8128347411251009,0.8684561208109053,-0.001707244512966514,-0.8133301383332289,0.8778758087550249,-0.003216435961209548,0.6510128454263561,1.0037095397668945,-0.0032011406859855864,0.6510914250440939,0.9992810899314114,0.0,0.0,0.0,0.0
0.0011296703804710676,0.0013569132243789095,0.7293601136899022,-0.0003031394538965308,-0.523107472165361,0.0005842916308341241,0.8522664719877977,0.01924207330696846,-0.8153548439767839,0.8665487520496694,-0.004851120484174391,-0.8123996908077215,0.8778850243185367,-0.003630895730881136,0.6507617366068841,1.005421053583238,-0.0036119994197786717,0.6532604184228048,0.9973677272193747,0.0,0.0,0.0,0.0
0.0015031471887822184,0.002065974437589755,0.7293209107407318,-0.0004698868764462648,-0.5231141122717592,0.0011131316042473536,0.8522617941023077,0.02422094707486743,-0.817936504577912,0.8645531994835813,-0.007995817205463641,-0.8117034074637841,0.8782392942529279,-0.0040471452614867665,0.6504961813317943,1.0073089009412088,-0.004020912076554155,0.6554358474472448,0.9954938856617009,0.0,0.0,0.0,0.0
0.0019138519736372618,0.00278269737895239,0.7292620377984731,-0.0006459465816347468,-0.5231166268806767,0.0016416124762598826,0.8522592812885491,0.02920313852383722,-0.8204871917683595,0.8625573666831784,-0.011154698711596469,-0.8112301530615869,0.8789448006023908,-0.004461242124164135,0.6502373127742359,1.009344524352486,-0.004424187498256817,0.6576337714819759,0.9937184969854121,0.0,0.0,0.0,0.0
0.0023631091208408546,0.0035076932648432082,0.7291852937922872,-0.0008277671592238974,-0.5231179110333426,0.0021743408768146403,0.8522571432375287,0.03419339248166241,-0.8229623054397543,0.8605777715868123,-0.014345186940508705,-0.810960304575622,0.8799938385004172,-0.0048702274417519635,0.6500006855097098,1.0115128802374196,-0.004818828386428363,0.6598809145992909,0.992030768458894,0.0,0.0,0.0,0.0
0.0028546137531898674,0.004245522077461903,0.7290921259019636,-0.001017773375814282,-0.5231186690238776,0.0027142223515897166,0.8522549238655464,0.0391966247873188,-0.8252711982255233,0.8586213021717367,-0.01758608205600272,-0.8108830645696735,0.881390555515694,-0.005271450258091226,0.6497991162221406,1.0138088964010905,-0.005201919602940657,0.6622067856915658,0.9904015747105056,0.0,0.0,0.0,0.0
0.003393324749540617,0.005001967810184985,0.7289832230201072,-0.0012202570896445773,-0.5231186523008912,0.003263630193526239,0.8522527414479195,0.044217904541173095,-0.827216330344973,0.8567314184572367,-0.02089670039361641,-0.8109957561199548,0.8831491346835666,-0.005662332329843969,0.6496426620405623,1.016234921323823,-0.005570429493165657,0.6646398129934883,0.9888003659056561,0.0,0.0,0.0,0.0
0.003984377259498514,0.005782916892130997,0.7288591296235559,-0.001439659962820354,-0.5231175855968566,0.0038249083393759385,0.8522507196211113,0.04926254760586584,-0.8284646688782509,0.8550170322005036,-0.024296565854918222,-0.8112952852417659,0.8852831834312894,-0.0060402521793150345,0.6495415516206736,1.0187940134262787,-0.005921123015212731,0.6672087602011867,0.9871964851345871,0.0,0.0,0.0,0.0
0.004632806567063873,0.006593911574179836,0.7287217518005731,-0.0016797920661499267,-0.5231167825828807,0.004400674608093982,0.8522479945073166,0.05433628020505408,-0.8285873404724683,0.8536491636301595,-0.027805474671969973,-0.8117642094904318,0.8877942899885353,-0.0064023782140865656,0.6495169880912843,1.0214782333501895,-0.006250412435249099,0.6699532947079591,0.9855505749043408,0.0,0.0,0.0,0.0
0.005344902891301178,0.00744137703614673,0.7285764181653339,-0.0019455306069249138,-0.5231212739646579,0.0049934800601454474,0.8522414052327779,0.05944536387062098,-0.8272378303692844,0.8527576883181153,-0.031444209181188794,-0.8123533937212021,0.8906632936757699,-0.006745515842251992,0.6496196955255391,1.024257119458021,-0.006554121145144291,0.6729449011742543,0.9837940556533796,0.0,0.0,0.0,0.0
0.006129295616911844,0.008339330602511016,0.7284291850420905,-0.002253323873906666,-0.523130768790052,0.005602535633956224,0.8522310325675302,0.06459708360239584,-0.8246038003681976,0.8520622650618129,-0.035236194911483394,-0.8130206151854331,0.8938753587740778,-0.007067488542081079,0.6498930013362703,1.0271054513644133,-0.0068283595767053605,0.6762579438915717,0.9818087204326824,0.0,0.0,0.0,0.0
0.006991590672410084,0.009304709281276176,0.7282928813433287,-0.002623834037860733,-0.5231485243761478,0.006226058113576384,0.8522147459052603,0.06979944173897105,-0.8209427129928285,0.8511923588087537,-0.039205780536046245,-0.8136501224583261,0.8973344766970253,-0.007366244959205436,0.6504114836061217,1.0299555304160424,-0.007068708273543287,0.6800034069778464,0.9794112645572332,0.0,0.0,0.0,0.0
0.007927468786824127,0.010356670909366358,0.7281876096021083,-0.0030808918581764957,-0.5231796800336154,0.0068614690725392405,0.852189210649518,0.07506115048988526,-0.8163971823817977,0.8497342067818101,-0.04337664202140107,-0.8140293369623665,0.9008094498739858,-0.007640281000081196,0.651258149954028,1.0326943833289552,-0.007270523667798469,0.6843055543800677,0.976354011044499,0.0,0.0,0.0,0.0
0.008915248709256732,0.011513067555924242,0.7281376936504798,-0.003646106478443276,-0.5232322623865012,0.007506916579935414,0.852149254361531,0.08039150474914776,-0.8109563030306112,0.8471795612390339,-0.047769087675524055,-0.8138319358574194,0.9038837937284963,-0.007888507035462091,0.6524912799633243,1.035189921864906,-0.007428887793603788,0.689264573195176,0.9723756461988483,0.0,0.0,0.0,0.0
0.009904181704963343,0.012773354589109907,0.7281511034514581,-0.004313012404414453,-0.5233256971184718,0.008168645494985232,0.8520826755017626,0.08579976403732154,-0.8044801369616345,0.842853367645262,-0.05239259856713965,-0.8126520885796751,0.9059315766832011,-0.008108051066153104,0.6540436209645129,1.0374481295848383,-0.007537881818515755,0.694830255991208,0.9674864361998377,0.0,0.0,0.0,0.0
0.01078216350363466,0.01405939359114031,0.7281163070263841,-0.004961178119524894,-0.5235064513712799,0.00888349815284806,0.8519609530635102,0.0912912842490862,-0.7967301124358525,0.8356891758465155,-0.05721974324357096,-0.8103434917284179,0.9062294428996585,-0.008287447710635797,0.6552196945099997,1.040404393266688,-0.007590749486577897,0.7001889978450038,0.9632255346753915,0.0,0.0,0.0,0.0
0.011443251580576321,0.01519375113723818,0.7278730587170466,-0.005324146076640012,-0.5238562954613266,0.009725346754588445,0.8517344966623066,0.09685957507734108,-0.7868781081694799,0.8237440644242499,-0.0621728921750189,-0.8072078679894186,0.9046332466319333,-0.0084027106807045,0.6552673568677178,1.0451764323498043,-0.007583118855085202,0.7043016199536227,0.9620633202393843,0.0,0.0,0.0,0.0
0.011806367562196515,0.015799155186969404,0.7273996359550526,-0.004890284432742997,-0.5242386415282373,0.010779667517946361,0.8514891253650851,0.10235372287623423,-0.7707090350336631,0.7990992677392287,-0.06689702580119955,-0.8054702182680047,0.9035593253458555,-0.008452960160149478,0.6537130338524958,1.050644837062811,-0.0075634003889034135,0.70604597354077,0.9654490268581258,0.0,0.0,0.0,0.0
0.011836347172946543,0.015854147107603044,0.7273851107506684,-0.004903143217269674,-0.5242200758355878,0.010823620114711453,0.8514999239724769,0.10270554988229394,-0.770646067631541,0.7991110809188486,-0.067153221594772,-0.8054755946470096,0.9035977734056526,-0.00846489177155475,0.6536179539659638,1.050801234082516,-0.007555002958658811,0.7061593335349517,0.9653164024223535,0.0,0.0,0.0,0.0
0.011836347172946543,0.015854147107603044,0.7273851107506684,-0.004903143217269674,-0.5242200758355878,0.010823620114711453,0.8514999239724769,0.10270554988229394,-0.770646067631541,0.7991110809188486,-0.067153221594772,-0.8054755946470096,0.9035977734056526,-0.00846489177155475,0.6536179539659638,1.050801234082516,-0.007555002958658811,0.7061593335349517,0.9653164024223535,0.0,0.0,0.0,0.0
0.011749496436580277,0.016172588861650128,0.7281346557673899,-0.004394314753201203,-0.5234881691549086,0.010416968616028543,0.8519579294293493,0.10275574579448746,-0.7715546551883331,0.8016751912981165,-0.06723554833527667,-0.8076644518571914,0.9058561563312294,-0.01700197666791236,0.6569481719516201,1.0444831666102858,0.0009621779105693671,0.6937706037465533,0.9848993440186968,0.0,0.0,0.0,0.0
0.011751978055818277,0.016668487895918217,0.7291403554499688,-0.0041202863372491825,-0.5229428225806664,0.009967501870964313,0.8522995227373515,0.10260808308109318,-0.7719658596677671,0.805027338762323,-0.06743570521104905,-0.8076029084044324,0.9064672317370507,-0.0254146300122918,0.6620968491986718,1.0365947772186843,0.009481698556027401,0.6852722839420171,0.999324047433271,0.0,0.0,0.0,0.0
0.011803319801213265,0.017263553654995278,0.7301630463867135,-0.003977829300706354,-0.5225446583772442,0.009508366615487568,0.8525496160574874,0.10230737267195858,-0.7722298805885277,0.808705776830222,-0.06775047342888546,-0.8063890235279563,0.9060472571260152,-0.03371285415096603,0.6677886982586224,1.0289545804430749,0.018004246327772654,0.6798467797116335,1.0104815084999363,0.0,0.0,0.0,0.0
0.011868030717122278,0.017906964361746686,0.7311224107623105,-0.0038961674791559682,-0.5222489173041631,0.009059479128785998,0.8527360752844452,0.10188292156614637,-0.7724069367773487,0.8123322739339638,-0.06816682670872265,-0.8045792652352164,0.904922363206946,-0.041918970811102775,0.6734462953866035,1.0220960746618917,0.026539050161456777,0.6764479822548239,1.0197555144050545,0.0,0.0,0.0,0.0
0.011888400666906919,0.018561804006763147,0.7319953130179511,-0.0038201106493237383,-0.522015526983488,0.00863292358323628,0.8528837370786151,0.10135126989060025,-0.7723004150735795,0.815295252934303,-0.0686642124246542,-0.8023668508422469,0.9030287527488711,-0.05005719585007837,0.6786918858249767,1.0161285009695147,0.03509599527715287,0.6741541583505241,1.0278239610655202,0.0,0.0,0.0,0.0
0.011823473926372896,0.019214055916310663,0.7327856422278759,-0.0037257021960534374,-0.5218113663085928,0.008230461598937817,0.8530130577172745,0.10072321947638815,-0.7717992068623776,0.817257556684186,-0.06922782314847115,-0.7998065875594749,0.9002504917188558,-0.05814976807343618,0.6833340840177685,1.0109803896129845,0.04368483943129712,0.6723759150763182,1.034987938061179,0.0,0.0,0.0,0.0
0.011644902927583115,0.01986612593970622,0.7335092589245686,-0.0036116288865215163,-0.5216070559578079,0.0078467842120445,0.8531421120126141,0.10000559573444416,-0.7708817304502491,0.8180931630795913,-0.06984878781704662,-0.7968832685241316,0.8964508008374229,-0.06621767466427543,0.6872800631828961,1.0065085190877034,0.05231536624669772,0.6708103817016445,1.041306891622647,0.0,0.0,0.0,0.0
0.011311252346835301,0.020521729521749486,0.7341842262883397,-0.0034756465695087234,-0.5213729449004109,0.007475205893755891,0.853289103120181,0.09920171357216757,-0.7694462768250786,0.8175330038988813,-0.07051648961432123,-0.793507627627865,0.8913541802819047,-0.07428336084566597,0.6904077812704394,1.0025594375507403,0.06099747018007027,0.669329933496764,1.0465565415765155,0.0,0.0,0.0,0.0
0.010782316826704115,0.021194354275053662,0.7348328228006635,-0.0033272907921864554,-0.5210742140313519,0.007104265723946927,0.8534753200978437,0.09831332732690452,-0.7674546064600791,0.815403142351106,-0.0712239540706959,-0.789568077243114,0.8846504492622139,-0.08237044030172157,0.6926019812270787,0.9989513712566526,0.06974113556788164,0.6680068118013361,1.0502004371874945,0.0,0.0,0.0,0.0
0.01000170069916185,0.021901321674449182,0.7354817862120718,-0.0031767624270477774,-0.5206642745970352,0.006719135258409028,0.8537291576139381,0.0973408893076374,-0.7648371763402303,0.8114261290778091,-0.07196317400262651,-0.7849105291558006,0.8758978052104694,-0.09050624742739234,0.6936886991291655,0.9954566795042524,0.0785565451728913,0.6671143113749322,1.0512146346975375,0.0,0.0,0.0,0.0
0.008905490479286515,0.02266722176486487,0.7361751527527505,-0.003037976381752006,-0.5200797881713505,0.006299658648831854,0.8540890462569201,0.09628500577423547,-0.7615382825392543,0.8053356634246498,-0.07272652312324714,-0.7793519301913754,0.8645858179993517,-0.09872189690896797,0.693511620981507,0.9916662015724348,0.0874540944629243,0.6672119898977493,1.0480101291078243,0.0,0.0,0.0,0.0
0.007424479824709939,0.023515509886627116,0.7369887104853264,-0.002913550269654559,-0.5192422091824098,0.005823079555289789,0.8546023234070275,0.09514837568117655,-0.7574181423691542,0.796788159169911,-0.0735019807529299,-0.7726720927037138,0.8501697297419915,-0.10705010837754875,0.6920259493209262,0.9868116706253403,0.09644215546739547,0.6674642341091537,1.041810903820484,0.0,0.0,0.0,0.0
0.00549285774306975,0.024476145112940138,0.7380140528536179,-0.0028043075393643186,-0.5180463772122019,0.0052601955192692895,0.8553317585940772,0.09393998489450013,-0.75244888750452,0.7855884063150466,-0.07427998493441569,-0.7647357148166684,0.8321813757266193,-0.11552703129885346,0.6892330357216113,0.9798741010950214,0.10552956060721645,0.6670828307902902,1.033254282210261,0.0,0.0,0.0,0.0
0.0030592441722322983,0.025578356673274367,0.7393347905198646,-0.0026977705162526933,-0.5163589165932809,0.004578259598945797,0.8563557851897187,0.09268153011438655,-0.7468225317067329,0.7717970301458879,-0.07505587292518248,-0.7556661029789649,0.8104274991032338,-0.12418912675391082,0.6851296355076869,0.9697200187922316,0.11472566258945054,0.6650377689513861,1.0224929419358064,0.0,0.0,0.0,0.0
0.0001247347467282626,0.026835912788891025,0.7409850207707861,-0.0025516488371795897,-0.5140280085090051,0.003749424373141566,0.8577614105177196,0.09141783143643675,-0.7411895090621347,0.7560782521839519,-0.07583716471409155,-0.7461939458013164,0.785511807588349,-0.13306303232075634,0.6796944320190883,0.9553678653757454,0.12404026765506378,0.6599730778622255,1.0094760222864398,0.0,0.0,0.0,0.0
-0.0031769776746300746,0.028234819832246242,0.742822054770064,-0.0022981338319553175,-0.5109051517981632,0.0027637520252909286,0.8596295749459351,0.09023620529406592,-0.7374425781112651,0.7407406102945626,-0.07666934887757053,-0.7384640203622693,0.7599721001870036,-0.14214353662569015,0.6725729654459697,0.9371208107735687,0.13348340203460624,0.6507536994792371,0.9942324178018497,0.0,0.0,0.0,0.0
-0.006326477134886337,0.029679132227351097,0.7441082874983671,-0.0018184115131062459,-0.506790784397833,0.0016706036125673466,0.8620655446731228,0.08936583099840494,-0.7419187730305927,0.7337637597088261,-0.07773125105981121,-0.7395781090996614,0.7429649580735036,-0.1513629676887921,0.661430535220179,0.9203883497794777,0.1430793132608943,0.6389714367201347,0.9753145588267328,0.0,0.0,0.0,0.0
-0.009214613807155719,0.031118329462060612,0.7444402903484044,-0.0010340521177626808,-0.5015283566646592,0.0004913281995587182,0.8651404491723089,0.0889186542814435,-0.7575287541721784,0.738204079260652,-0.07910445893952694,-0.7531800125648428,0.738723596304812,-0.16063571473405525,0.6441562464639117,0.9084783149996681,0.1528384059261017,0.6228966229347812,0.9514559687401862,0.0,0.0,0.0,0.0
-0.011487746803092527,0.032186730973062856,0.7438646939461959,0.0004924296718593167,-0.49536543753132534,-0.0005714065497989396,0.868684358272308,0.08897691945970121,-0.7828916136188687,0.7536117349457184,-0.08077603109496966,-0.7813727429363395,0.7522930933404147,-0.16960815422378692,0.6227787021619013,0.9001319474872587,0.1626426578626635,0.6028843565545898,0.9288404669793867,0.0,0.0,0.0,0.0
-0.011491194032648856,0.03226142667897405,0.7437287045807138,0.0006099126381073833,-0.49534669488700267,-0.0006408985898298247,0.8686949229275455,0.08897746402383754,-0.7830978296546578,0.7535243502698676,-0.08085224442855463,-0.7816993977606168,0.7519308618705699,-0.17004512872371258,0.6228868681271509,0.899997824628757,0.16327567612421892,0.6028973285378526,0.9288488400746269,0.0,0.0,0.0,0.0
-0.011491194032648856,0.03226142667897405,0.7437287045807138,0.0006099126381073833,-0.49534669488700267,-0.0006408985898298247,0.8686949229275455,0.08897746402383754,-0.7830978296546578,0.7535243502698676,-0.08085224442855463,-0.7816993977606168,0.7519308618705699,-0.17004512872371258,0.6228868681271509,0.899997824628757,0.16327567612421892,0.6028973285378526,0.9288488400746269,0.0,0.0,0.0,0.0
-0.011928239606287638,0.032408859170514503,0.7446689245550052,0.0005974288381121892,-0.49756413557728174,-0.00040799848225077227,0.8674268889095231,0.0873253234316408,-0.7646885874991795,0.7339112798964498,-0.08126278510439215,-0.7612427578811661,0.7298335859306222,-0.17138467267578347,0.6320106885586289,0.8965259858321426,0.1658123843798709,0.6124023817651448,0.925853175742911,0.0,0.0,0.0,0.0
-0.012575311928757021,0.03259310573188135,0.7454933496202405,0.000528740764637342,-0.49893090134855594,-0.0001916529458657749,0.8666415864599792,0.0858479059922495,-0.7504889558002775,0.7170144308364869,-0.08180913449351424,-0.7445912823119178,0.7097884022537255,-0.1717116587273926,0.637724213411998,0.8922112668378276,0.16723347855295403,0.6187490528469294,0.9213540507465906,0.0,0.0,0.0,0.0
-0.01296101545551909,0.032830063862536465,0.7461965125162932,0.0003818171332601377,-0.49941783347608193,1.6478508282130145e-06,0.866361172848263,0.08461554539312394,-0.7439274311801092,0.7092851176157351,-0.08257968447346184,-0.7350151013317257,0.6980365142971425,-0.1711928357992134,0.6412545038768374,0.8867950670706174,0.16773082312302565,0.6230795297126884,0.915213918052806,0.0,0.0,0.0,0.0
-0.012992208358046603,0.03319962339490947,0.7467086017311093,3.78362821731443e-05,-0.49902367845612594,0.00013584555998692472,0.8665883385174973,0.08362635774986757,-0.7465739329146308,0.7132616172645088,-0.08360754306295491,-0.7332835089633236,0.6959660508009312,-0.16988552767299098,0.6424573013569045,0.8811329151558583,0.16736527702447895,0.6253485447827807,0.9078208236428369,0.0,0.0,0.0,0.0
-0.012687100723049462,0.033727534432589995,0.7463258356961276,-0.0005470878967494929,-0.49754202772720785,0.00019263864494891106,0.8674396775743453,0.08299384438383443,-0.7620921304330812,0.7316420556725014,-0.08499356158195831,-0.7429403710829006,0.706187552488455,-0.16783262434806598,0.6369513116990092,0.8820369461692692,0.16617986056210904,0.6212988629652877,0.9056333091193914,0.0,0.0,0.0,0.0
-0.011842936613649118,0.0344407108524301,0.7449600747578187,-0.0014300581723579097,-0.49481040497042844,0.0001405805906652883,0.8689997688743777,0.08283245590773222,-0.7926155109634514,0.76715390377344,-0.08679716864999762,-0.7661329309101467,0.7316332152763142,-0.1650928055497147,0.6244817047866186,0.8899411609520937,0.1642039780777299,0.6106789331962936,0.908910496263138,0.0,0.0,0.0,0.0
-0.008515902227603891,0.03555972761916311,0.7449089668585624,0.00039996426564904827,-0.5024864496470169,-0.0009615868440872551,0.8645844570083732,0.08086291110487953,-0.7626068297222156,0.756385289152579,-0.08695080983941783,-0.7397796818581205,0.719547253839586,-0.15502814094348255,0.6451398145465679,0.9282828593270497,0.15609613982407933,0.6345917924355312,0.9282772426609956,0.0,0.0,0.0,0.0
-0.004845521840995166,0.03671990216406223,0.7438697848063206,0.0016354846067751776,-0.508336013865469,-0.0019860471797583305,0.8611549673630562,0.07948413166026029,-0.7501621379876665,0.7635807560216572,-0.08765254797387761,-0.728612128941386,0.7231733844631906,-0.14503689677077583,0.6581531705278831,0.9612324966745984,0.1478653491538144,0.6525395761772217,0.9479753739570045,0.0,0.0,0.0,0.0
-0.0010260222510282786,0.03787180702686133,0.7420857450344363,0.0024110330574752853,-0.5124577307149321,-0.0028936784437450314,0.8587041910781396,0.07855656802702922,-0.7527117539714288,0.7857912587653875,-0.08877336033917799,-0.7307306615041413,0.7403814034715249,-0.13523227306602903,0.6674064246736822,0.9849447653176173,0.13964139990032842,0.6644022020380065,0.9678930353669734,0.0,0.0,0.0,0.0
0.002500615879822425,0.03899395130646685,0.7403946984768851,0.0028301926800190468,-0.5153659731204024,-0.0036835115103855745,0.8569576042617321,0.07780110623357823,-0.7611307447597725,0.8122311585358489,-0.09004600051804477,-0.7373711191557755,0.760711231609693,-0.12558953477097887,0.6730872727094891,1.0028902574793572,0.1313991622311797,0.6736870761336085,0.98275636002497,0.0,0.0,0.0,0.0
0.005477450526017612,0.04004390880758309,0.7390500774394141,0.0030372783509940485,-0.5174264740306895,-0.004359735857312093,0.8557111730108712,0.07709094968345263,-0.7704172395350755,0.8366546246160393,-0.09132052656306858,-0.7442261776342823,0.778750915024346,-0.11609344873481597,0.6756146418498985,1.0169555608296672,0.12313522668288276,0.6811000568376663,0.992450886231476,0.0,0.0,0.0,0.0
0.00785839487562818,0.04099950085787281,0.7380419931686247,0.003146660501386911,-0.5188705311423771,-0.004936808773891167,0.8548327897073477,0.07638970859854935,-0.7788629856769512,0.8572134152838382,-0.09253310496331335,-0.7501037840133525,0.7932188256049996,-0.10673324870572293,0.6761805770650251,1.0281417751272217,0.1148580842566108,0.6866417236664013,0.9983595384042976,0.0,0.0,0.0,0.0
0.009687605702546455,0.04186440123479912,0.7372997215755167,0.003222757253410449,-0.5198752688635456,-0.00543720379396442,0.8542187983617807,0.07568812123246384,-0.7859393370642972,0.8736922969859751,-0.09365579686647742,-0.7547026055593813,0.8040607430106747,-0.09749874980309034,0.6757469222356463,1.0371116472312418,0.10657694492821107,0.6904158773207884,1.0017692211224778,0.0,0.0,0.0,0.0
0.011039647392043552,0.04265449557484481,0.7367405573742201,0.0032943365134653316,-0.5205701921095721,-0.005884050030665418,0.8537922466204385,0.07498911559266175,-0.7916276518456241,0.8864833055697658,-0.09467945013064308,-0.758062542446097,0.811625555263041,-0.08838033680569189,0.6748944366212726,1.0441358903526243,0.09829788134229817,0.6925744222741497,1.0036941588521906,0.0,0.0,0.0,0.0
0.011990206366469153,0.043388262451421036,0.7362817541628988,0.0033709517406404596,-0.5210470159617209,-0.0062975188771599005,0.8534980873427545,0.07430141460513369,-0.7961193702593639,0.8961355300472819,-0.09560397990279963,-0.7603604928767032,0.8163528630417554,-0.07936895221352604,0.6739752316828347,1.049040470225259,0.09002334052863407,0.6932263470873881,1.0049623599743567,0.0,0.0,0.0,0.0
0.012604371979884446,0.044081505293962146,0.7358464080943367,0.003454563029227722,-0.5213683328644237,-0.006693464886852912,0.8532984970151166,0.07363656323691835,-0.7996747753915664,0.9031749767487727,-0.09643278039216167,-0.7618262712941288,0.8186660577417685,-0.07045600498230635,0.67335253080292,1.051107017365795,0.08175256355065372,0.6924105630712776,1.0062698975072197,0.0,0.0,0.0,0.0
0.01293887565087569,0.04474568288158796,0.7353773142461588,0.0035452190585108997,-0.521575271205265,-0.007083685509822655,0.8531684999392437,0.07300728651370544,-0.802547786033003,0.9080781701828411,-0.09716962957341593,-0.7626928632224577,0.8189730060628175,-0.06163326146306494,0.6736545523289887,1.0490172495914734,0.07348204747761657,0.6901718867839972,1.0080993640997709,0.0,0.0,0.0,0.0
0.013040003735316543,0.04539846535468573,0.7348523600938333,0.0036271285200599303,-0.5216987429907527,-0.007481079205880019,0.853089267869713,0.07242066961715134,-0.8049159260393688,0.9112516548416488,-0.09781667932467603,-0.7630267736885694,0.8174937809794384,-0.052890505860918355,0.674263912282796,1.0443096958275166,0.06520321604542326,0.6866580727936831,1.0105801779805932,0.0,0.0,0.0,0.0
0.012945965052758997,0.04605398495695255,0.7342664110936962,0.003685810560586337,-0.5217573524265019,-0.007896276983709052,0.8530494292824977,0.07188425125864291,-0.80691791153442,0.9130380244855127,-0.09837401574620246,-0.7628732425045076,0.81441712144262,-0.044217710988664574,0.6749091849808706,1.0379265510668778,0.056905783983491665,0.6820310523962272,1.0136828957881623,0.0,0.0,0.0,0.0
0.012683635311436294,0.046723436183116696,0.7336167916453096,0.0037090178124432644,-0.5217612833221269,-0.00833831466702439,0.8530427181105457,0.07140640735731126,-0.8086646120414184,0.9136923597395924,-0.09883940128899947,-0.7622658569573014,0.809870595564939,-0.03560502820696708,0.675542151359553,1.0302922134146977,0.048578862945955904,0.6764009609918685,1.0173626938525648,0.0,0.0,0.0,0.0
0.012275595361691385,0.047414632853459954,0.7329014730170793,0.0036888719061165002,-0.5217224764930236,-0.008814849904861905,0.8530617493283833,0.07099608005416858,-0.8102175755535558,0.9133941618048013,-0.09920772564540827,-0.761215962177158,0.8039443335064811,-0.02704282256507217,0.676303276818032,1.021484814086668,0.04021314063121754,0.669869319761444,1.0215884306107714,0.0,0.0,0.0,0.0
0.011811689674494084,0.04809109488080465,0.7321236181912232,0.003686132624469297,-0.521663600667969,-0.009315313539889365,0.8530924481543943,0.07068274583199341,-0.8116845213629131,0.9126152062195809,-0.0994770526777997,-0.7602581435890653,0.7977119012470378,-0.018521255329934802,0.6777964961975913,1.01139649566304,0.03181017749928182,0.6627780695347777,1.0263704902889177,0.0,0.0,0.0,0.0
0.01137003153815077,0.04871321534049742,0.7312939392590294,0.0037626598344836053,-0.521631289561081,-0.009825960873153723,0.8531061426544372,0.07048728011797564,-0.8129537147111618,0.9115676704919318,-0.09963944389805542,-0.759722142141926,0.7920146361145372,-0.010030465765361925,0.6808479094446517,0.9994957910115465,0.02337384367864958,0.6555283204779007,1.0317305301258117,0.0,0.0,0.0,0.0
0.011020160256538266,0.04921556271161237,0.7304564735953541,0.004015836547911307,-0.5217087269847872,-0.010320176246808746,0.8530517986658067,0.07042399481231014,-0.8134523147777207,0.9099854199924361,-0.09967161325224574,-0.7597096413814565,0.7875486214795564,-0.0015618274801413347,0.6864799043631525,0.9847247786757746,0.014907678420906182,0.6487316262692546,1.0375662126032512,0.0,0.0,0.0,0.0
0.01082591498124875,0.04952887779853173,0.729814468406444,0.004543999250945923,-0.5220848018948286,-0.01076428173799723,0.852813544650828,0.07045580802918355,-0.8114743531290326,0.906743053971772,-0.09952663456270955,-0.7591586318569611,0.784085943485771,0.0068891976803403514,0.6961686749436972,0.9654708967510932,0.006413078216949834,0.6440051106887332,1.0426019078939082,0.0,0.0,0.0,0.0
0.010842119431165819,0.049555430327535274,0.7297993493947061,0.004568314064494069,-0.5221086123068883,-0.010792126331951762,0.8527984858516218,0.07044720000546963,-0.811438210744383,0.906811575285972,-0.09953141807289179,-0.7591395047050882,0.7840446136141186,0.007418318925918302,0.6961653567738627,0.9654638080023792,0.005914370804745042,0.6439270264854572,1.0425916081947462,0.0,0.0,0.0,0.0
0.010842119431165819,0.049555430327535274,0.7297993493947061,0.004568314064494069,-0.5221086123068883,-0.010792126331951762,0.8527984858516218,0.07044720000546963,-0.811438210744383,0.906811575285972,-0.09953141807289179,-0.7591395047050882,0.7840446136141186,0.007418318925918302,0.6961653567738627,0.9654638080023792,0.005914370804745042,0.6439270264854572,1.0425916081947462,0.0,0.0,0.0,0.0
0.010666413472813096,0.05011091815805601,0.7302146427883348,0.00514536734950688,-0.5224855082761181,-0.00965457474933874,0.8525779776786957,0.06539730096787619,-0.8096446439869003,0.9051671416844657,-0.09354814355349159,-0.7770463369765087,0.8162794022728505,0.007438076304334061,0.6967438305935407,0.9635962285489382,0.005788322102123452,0.6479629221140467,1.0389382345987264,0.0,0.0,0.0,0.0
0.010186895660921695,0.05124071718131197,0.7304086240941681,0.004850285716622592,-0.5226622762469689,-0.008765984038323045,0.852480954180587,0.06022193368441294,-0.8107324901073271,0.905567347677937,-0.08754220615191499,-0.7888607648552103,0.8336005661347464,0.0073729057743323065,0.6943517674157678,0.965936036385951,0.005595310005549257,0.6497820762006431,1.0353382047869106,0.0,0.0,0.0,0.0
0.009460193507935902,0.05258163725491578,0.7303867697296956,0.004184858013484216,-0.522796641720763,-0.008024434335246956,0.8524093892153572,0.055175047085725064,-0.812358085806434,0.9053422057775701,-0.08163341751099967,-0.7977392571441054,0.8434472483459287,0.007236958336123509,0.6899629352478157,0.97130053249394,0.005345340395320033,0.6497889448347098,1.0330899289039703,0.0,0.0,0.0,0.0
0.008561939138389874,0.05390773039267135,0.7303235639839841,0.0034782121316874665,-0.5229015358908036,-0.007345698789072126,0.8523543432825962,0.05035500924167856,-0.813248679990223,0.9034787467495887,-0.07583327495730321,-0.8048042699531943,0.8491500807849601,0.007039372754805752,0.6849032073644293,0.9771128898602437,0.005060060199628602,0.6489384327799381,1.0313005160821815,0.0,0.0,0.0,0.0
0.007620992720682175,0.05512093874855947,0.7303488709664334,0.0028771939148619255,-0.5229788959718229,-0.006687940374561176,0.8523145355893068,0.04580067979487169,-0.8132039134339812,0.9004411639666077,-0.07013793163404736,-0.8105297466941379,0.852461393491886,0.0067912189763150695,0.6802761476587664,0.9816592648290048,0.004750169196151196,0.6481859300406971,1.0289983460456937,0.0,0.0,0.0,0.0
0.006702459710263422,0.05621907457976012,0.7304444554939955,0.0023907170012735343,-0.5230336134408354,-0.006044505881520754,0.8522872682563613,0.041505397159751996,-0.8125890291388141,0.8968689544580682,-0.06453751322303974,-0.815295570410063,0.8543389379202883,0.006502583405552955,0.6761864096750505,0.9850598558506677,0.004418140115592703,0.6476634742879872,1.0262991189047588,0.0,0.0,0.0,0.0
0.005840355489664233,0.057220349724832816,0.7305777091712831,0.0019965870635041605,-0.5230728152537467,-0.005417442278782147,0.852268440634624,0.03744924198451517,-0.8117362757605543,0.8932334800627699,-0.05902146840645694,-0.8193231404781601,0.8553846439982614,0.006180904463098398,0.6725697099306122,0.9876734591074471,0.004065347813045418,0.6473546859263646,1.0234211414657808,0.0,0.0,0.0,0.0
0.005048165080749316,0.05814373744531474,0.7307247102101895,0.0016710136151399766,-0.5231011955015885,-0.004809455280493724,0.8522553702489717,0.033608671791986566,-0.8108624041605635,0.8898101204711542,-0.05357969113633156,-0.8226420816003411,0.8560080259184869,0.005831632244443351,0.6693378408982988,0.9897922226072232,0.0036934722401206596,0.6472129577050328,1.0205212235004266,0.0,0.0,0.0,0.0
0.0043252946541393975,0.05900550346708581,0.7308713026480744,0.001394126778232876,-0.5231208306845668,-0.00422228774795601,0.8522469273635361,0.029959480335356205,-0.8100820004895982,0.8867166940411984,-0.04820276677837105,-0.8250805383005261,0.8565451446633898,0.005458948433501838,0.6664039506571543,0.9916143149177271,0.0033044755818999205,0.6471859033855797,1.0176868452823382,0.0,0.0,0.0,0.0
0.003662736417998491,0.059819910376526245,0.7310110943326109,0.0011489711269670874,-0.5231331381661652,-0.0036569823992126074,0.8522423517389294,0.026477763338724,-0.8094333993465446,0.883963455740501,-0.042882104375447545,-0.8263263117451268,0.8573286593362225,0.005066239360208854,0.6636943362434331,0.9932639598773515,0.0029004202923992865,0.6472301566862483,1.0149481208486941,0.0,0.0,0.0,0.0
0.0030496261573043516,0.06059936347176642,0.7311436221898734,0.0009212573331871296,-0.5231418885758562,-0.0031139732893546725,0.8522394140572036,0.02314071429916949,-0.8089009253908357,0.8815040715922792,-0.0376099721133744,-0.8261406090301441,0.8586401374966862,0.004656482910720666,0.6611671104220752,0.9948088975795403,0.0024834266501114755,0.6473311067184921,1.0122927144907077,0.0,0.0,0.0,0.0
0.0024787506291061795,0.06134971337652307,0.7312670773205336,0.0007066291632264426,-0.5231448375144807,-0.002590951205230294,0.8522395594133292,0.019929070310610086,-0.8084968401182157,0.879321537022577,-0.03237971327875087,-0.8248431046524246,0.8603016835937305,0.004232644459040808,0.6587744078516891,0.9962884109590425,0.0020560084134208087,0.6474594953225115,1.0097258090059542,0.0,0.0,0.0,0.0
0.0019458041040291906,0.06207667894967662,0.7313827829596322,0.0005006208600772728,-0.5231430635641061,-0.002085837032855166,0.8522421801972656,0.016824537414072336,-0.8082170556195123,0.8774021986938454,-0.02718531873311611,-0.8228477793797764,0.8621232745721241,0.003797584737724624,0.6565018728593887,0.9977159004854611,0.0016206017332571847,0.6476187206093672,1.0072277659507398,0.0,0.0,0.0,0.0
0.0014482712933885692,0.06278697174782258,0.7314938194969528,0.0002970200289772637,-0.5231389240354923,-0.001597218722247157,0.8522458722871252,0.013809470767041355,-0.8080568617538654,0.8757453640706198,-0.022021338601661146,-0.8204683297014757,0.8639940102894661,0.0033539824833243733,0.6543521935352212,0.9990929617243036,0.001179545543054952,0.6478301879312724,1.0047597089461855,0.0,0.0,0.0,0.0
0.000986674040591431,0.06348737592536687,0.7316037695071077,8.927672055634963e-05,-0.5231347011158949,-0.0011239575981590992,0.8522492670793962,0.010867294356545702,-0.8080257967941672,0.874380300495206,-0.016882741886598805,-0.817878085225796,0.8658718421582159,0.002904408374127752,0.6523397269294847,1.0004138249585859,0.0007351795331912972,0.6481268079503586,1.0022741993064814,0.0,0.0,0.0,0.0
0.0005668725076294461,0.06418174221789424,0.7317159170741423,-0.00012504824308363522,-0.5231318479394902,-0.0006640001477210136,0.8522514964129748,0.007983848927493799,-0.808154491712209,0.8733777294594489,-0.011764943301636632,-0.8151482313042426,0.867737438656974,0.0024515580136014042,0.6504935510600914,1.0016586028489034,0.0002900135231525039,0.6485516916766058,0.9997295724708858,0.0,0.0,0.0,0.0
0.0002011942701884676,0.06486154665936833,0.7318313459149719,-0.0003302827737761513,-0.5231300274314911,-0.00021059613155151164,0.8522527917009636,0.005151469320651067,-0.8084731538163663,0.8728140572417078,-0.006664402800942646,-0.8123386897239414,0.8695227915902226,0.001998857380452172,0.6488556867066367,1.0027748024530294,-0.00015295223884260334,0.6491425127767189,0.9971380213591451,0.0,0.0,0.0,0.0
-9.56099184483035e-05,0.06547527730733244,0.7319383268957361,-0.0004478497314567707,-0.5231287997143197,0.00025937096647260163,0.852253478178162,0.0023845590593349984,-0.808885440170679,0.8725544234047246,-0.001583545138294523,-0.809741367069423,0.8711417223426785,0.001552194481361803,0.64744458159614,1.0036746836070571,-0.0005896770809395732,0.6498481789022517,0.9947788471468423,0.0,0.0,0.0,0.0
-0.00031377221053032487,0.0658302875993143,0.7319521060375429,-0.00021598692011354022,-0.5231411555101286,0.0007988503943428218,0.8522456492110858,-0.0001483440963338735,-0.8088302451864582,0.8716220322698283,0.003387242228928623,-0.8094234636547423,0.8745749164719592,0.0011186835811745049,0.6460752660279772,1.0044942730267954,-0.0010199602736048162,0.650145985471326,0.9941168722405813,0.0,0.0,0.0,0.0
-0.00031136318679479214,0.06582948086898517,0.7319510057884168,-0.00021503492715829522,-0.5231395404859629,0.0007980466378661911,0.8522466415666766,-0.0001430846809566599,-0.8088346473259493,0.8716289076213651,0.0036998763610165053,-0.809414094062014,0.8745676520924393,0.001112417379234513,0.6460780989466497,1.004492614267873,-0.0010239881305257256,0.6501436723585405,0.9941194425673365,0.0,0.0,0.0,0.0
-0.00031136318679479214,0.06582948086898517,0.7319510057884168,-0.00021503492715829522,-0.5231395404859629,0.0007980466378661911,0.8522466415666766,-0.0001430846809566599,-0.8088346473259493,0.8716289076213651,0.0036998763610165053,-0.809414094062014,0.8745676520924393,0.001112417379234513,0.6460780989466497,1.004492614267873,-0.0010239881305257256,0.6501436723585405,0.9941194425673365,0.0,0.0,0.0,0.0
-0.00031136318679479214,0.06582948086898517,0.7319510057884168,-0.00021503492715829522,-0.5231395404859629,0.0007980466378661911,0.8522466415666766,-0.0001430846809566599,-0.8088346473259493,0.8716289076213651,0.0036998763610165053,-0.809414094062014,0.8745676520924393,0.001112417379234513,0.6460780989466497,1.004492614267873,-0.0010239881305257256,0.6501436723585405,0.9941194425673365,0.0,0.0,0.0,0.0
-0.0002226475143806413,0.06562964614925806,0.7318810905806769,-0.00020104398567681903,-0.5231169848984115,0.0004588690133696291,0.8522607401091168,0.001285128663542512,-0.8086772725820884,0.871688661101024,0.005127983039532712,-0.8112180971304214,0.876767474727834,0.00022551382220368892,0.6467095571104192,1.0046603558898006,-0.0019046265124349213,0.649240681040333,0.9949810932910307,0.0,0.0,0.0,0.0
-0.00012833352174862703,0.06538574907460389,0.7317756926653967,-0.0001177274386195923,-0.5231090986051576,0.00014216874217443383,0.8522657079132061,0.0027174502031924734,-0.8083860442206727,0.8715041082042831,0.006562547746212063,-0.8132488669870092,0.8792356213246392,-0.0006548913648744285,0.6472522480023929,1.0050150964059819,-0.0027753209051462214,0.6481932724273021,0.9963542551262405,0.0,0.0,0.0,0.0
-3.3322983202570836e-05,0.0651404492577701,0.731639719582241,-3.346823341816739e-05,-0.5230848547472846,-0.00017544049667240225,0.8522805892630205,0.0041555396002785905,-0.8082845353334881,0.871455058201375,0.008005316733633762,-0.8154769156722623,0.8818437439352411,-0.0015399803586546358,0.6476120377595943,1.0056072170703818,-0.0036466228483761623,0.6469552879355944,0.9979737059904028,0.0,0.0,0.0,0.0
4.914752871346241e-05,0.06493749387611787,0.7314718971538247,-1.8123097568821026e-05,-0.5230104851301757,-0.0005181685862486159,0.8523260899542896,0.005602213970490168,-0.8086935256791886,0.8718693452318986,0.009458350731701754,-0.8178624433772366,0.8843997919350861,-0.002443667012371466,0.6476331129662062,1.006549402897143,-0.004529100051220256,0.645418281121323,0.9996302353921437,0.0,0.0,0.0,0.0
0.00010635673189684834,0.06490301737400335,0.7312560450970529,-0.00027074517169754444,-0.5228169354647363,-0.0009513134385529169,0.8524444109096238,0.007051161258123075,-0.8105469324943602,0.8738074800078012,0.010912607221831138,-0.8202927294557193,0.8864655378484927,-0.0033930478391128536,0.6469479398513726,1.0083120375485806,-0.005438376257306632,0.6433627984178681,1.0008809418049545,0.0,0.0,0.0,0.0
0.00019071119191843902,0.06539787641724035,0.7309315363338206,-0.001352065522359352,-0.5224009952768102,-0.0016441961176212158,0.8526972901749765,0.00842812589590198,-0.8164650804660244,0.8806602793613173,0.012285690158564034,-0.8223741803910871,0.8871556994635623,-0.004418293474320675,0.6449233964047189,1.0124643883357645,-0.006367196536396609,0.6406304014302688,1.0007219553970954,0.0,0.0,0.0,0.0
0.0009199209417735004,0.06608762542177223,0.731126780609909,-0.0006080906690029492,-0.522798024321977,-0.0002884850058136139,0.8524563172193501,0.018030740034835666,-0.811315308128243,0.8712823449030698,0.006310086240158461,-0.8209339934655436,0.8895944064867873,-0.005167495670540132,0.6471367306887101,1.0120405700361474,-0.007183844931086702,0.6466560362626237,0.9979733477651703,0.0,0.0,0.0,0.0
0.001651212526790952,0.06729252785391121,0.731153094229494,-0.0005960939008916815,-0.5229905160930077,0.000884935824983186,0.8523378330435746,0.027836642294715025,-0.8117592039599136,0.8675960698876397,1.3404497702851001e-05,-0.819077484258228,0.8904144510285816,-0.005988681298195266,0.6476610478224111,1.014469292807811,-0.00801320258868115,0.6517943682595612,0.9944504045622844,0.0,0.0,0.0,0.0
0.00240644007935967,0.06867994774094024,0.7311120564779887,-0.0008686439115934232,-0.5230506908314552,0.0019676032795452074,0.8522988612076322,0.03764738167176307,-0.8131720694410728,0.8640154511839823,-0.0063094774913217515,-0.8174888331671117,0.8911222180560174,-0.006851377501801487,0.6475185002390208,1.0178196882390784,-0.008856498989064644,0.6564837528534492,0.9905242146970353,0.0,0.0,0.0,0.0
0.0032132973921935475,0.07012551484675768,0.7310175353683059,-0.001231118576813144,-0.5230531699879345,0.003023353586762437,0.8522938020692817,0.04745702334451439,-0.814801386410141,0.860414023972643,-0.012651549276750326,-0.8163238049641072,0.8922657555652757,-0.007726362537579838,0.6471272876437549,1.0216417152748214,-0.009694365309629027,0.6609902255130907,0.9866556997784839,0.0,0.0,0.0,0.0
0.004085438401272198,0.07159160845957664,0.7308731747715037,-0.0016177730050812775,-0.5230339594454101,0.004079160024202926,0.8523005458937932,0.05727391530900469,-0.8165020340725945,0.8568780192288075,-0.019039074142330758,-0.815579049962442,0.8939935181770613,-0.008598106297861344,0.6466562647130065,1.0258169013242289,-0.010514545220959248,0.66545313657267,0.9830166816713274,0.0,0.0,0.0,0.0
0.005031463975054123,0.07307358775840826,0.7306851948922906,-0.0020130195394673874,-0.5230078464183076,0.005146723415101575,0.8523099504143467,0.06710800965999282,-0.818213417168768,0.8533950137112456,-0.02550617277929003,-0.8152054063208058,0.8963247929539215,-0.009457855082423474,0.6461967928732896,1.030280058124738,-0.011308854792580562,0.6699776348768944,0.9795935323246,0.0,0.0,0.0,0.0
0.0060590392769052925,0.07457919055704144,0.7304605726627513,-0.002419975058828152,-0.5229809137578463,0.00623213029576404,0.8523181730537601,0.07696972404696266,-0.8198236496355714,0.8499366849162265,-0.032090107296796615,-0.8151423025971933,0.8992387719125959,-0.010299736310884199,0.645811900958503,1.0349840563708095,-0.012070355222199897,0.6746573437606623,0.9762999730065304,0.0,0.0,0.0,0.0
0.007175955193389441,0.07612096314770285,0.7302060674750507,-0.0028488803663816497,-0.5229562097154187,0.007339444010270425,0.8523231893843798,0.08686986609735169,-0.8211011296349365,0.8465121033049201,-0.03882979980506637,-0.8153232565349098,0.9026980991063747,-0.011119108229290263,0.6455544037937162,1.0398920634670425,-0.012792120641045615,0.679582710625371,0.9730241045194914,0.0,0.0,0.0,0.0
0.008390089831309157,0.07771395427928335,0.729929244770071,-0.0033135391048728594,-0.5229365414612439,0.008471849474177999,0.8523230736226962,0.0968197449435973,-0.821661674612676,0.8431912445747233,-0.04576538340201292,-0.8156653320259741,0.9066448851771394,-0.011911929515050835,0.6454804950795276,1.0449655512205096,-0.013466691753239645,0.6848518441013541,0.9696329098862178,0.0,0.0,0.0,0.0
0.009709561379092657,0.07937588754700928,0.7296411214781229,-0.0038314022006993233,-0.5229267966855393,0.00963179625458999,0.8523145629204556,0.106831364976704,-0.8210001550889601,0.8400890520795324,-0.052938351062285546,-0.8160469869351977,0.9109845451056819,-0.012674510193233327,0.6456686893341753,1.0501452021592819,-0.014085629672256576,0.6905907278888105,0.9659509636476372,0.0,0.0,0.0,0.0
0.011144054604469038,0.08113022761529272,0.7293598409063835,-0.004427984745183428,-0.5229360353716257,0.01081996878426958,0.8522917482508028,0.11691755539723715,-0.8186562245096007,0.8372378845138649,-0.06039232494368392,-0.8162771780103127,0.9155631852032616,-0.013403683321520844,0.6462449830806062,1.055330362439394,-0.014638913471567584,0.696984269004471,0.9617157034184832,0.0,0.0,0.0,0.0
0.012705495721219292,0.08301589369776806,0.729109771998363,-0.00515230971015048,-0.5229682907318443,0.012030443752919864,0.85225165826578,0.12709283250360803,-0.8146512440991857,0.8341740853669303,-0.06817429375547705,-0.8161103607011083,0.9201641469216438,-0.014099834176102253,0.6473527802588182,1.060398686929642,-0.015115338581797692,0.7042583014197651,0.9565244336480605,0.0,0.0,0.0,0.0
0.014402291245837577,0.08508266743260345,0.7289268614090341,-0.006069445140334633,-0.523031552365077,0.013253380431424553,0.8521886557408553,0.13737287709749074,-0.8090297353339078,0.8302087943872078,-0.07633173710298582,-0.8151646850556634,0.9244183918243579,-0.01476587496983567,0.6491867347143215,1.065164989547511,-0.015500803733835165,0.7127114645614858,0.9498207314234105,0.0,0.0,0.0,0.0
0.016231339693149008,0.08738608612660248,0.7288547544150223,-0.007252633382942145,-0.523138659248526,0.014477383084688529,0.8520937436031827,0.14777464078806188,-0.8016884547391966,0.8244172973419485,-0.08490760580047343,-0.8129108842059785,0.9277575512923133,-0.015407400068468724,0.651955425463418,1.0694076146397242,-0.015777356408493454,0.7226742415379437,0.9409520157949732,0.0,0.0,0.0,0.0
0.01816773759228709,0.08996397746241162,0.7289233928568439,-0.008747302577286023,-0.5233191821372799,0.0157001795927493,0.8519471947635869,0.1583160867651238,-0.7923429689321696,0.815562564408718,-0.09392982573937038,-0.808728597757872,0.9294272985359664,-0.01602791097061736,0.655794208623745,1.073014387379784,-0.015921334259470964,0.7343896290070445,0.9294903666456255,0.0,0.0,0.0,0.0
0.020136877222415337,0.09275249641624192,0.7290443231907974,-0.010447587375040465,-0.5236581461885336,0.01696265240656663,0.8516955220451516,0.16901199778210305,-0.7804774724224787,0.8019671857457175,-0.10337988955414473,-0.8022782761292739,0.9287024826949438,-0.016607961838381636,0.6603483743484653,1.0767429715128556,-0.015904248187422334,0.7474292790189015,0.9166899655345252,0.0,0.0,0.0,0.0
0.021983695202581907,0.09540800140762554,0.728770343531056,-0.011853591351508319,-0.5243426817146265,0.01840305956631386,0.8512259229505313,0.17985271623798593,-0.7648096928558288,0.7805581797533414,-0.11310552878309994,-0.7947328958430121,0.9258927601091116,-0.017062221328352865,0.6638182373559716,1.0839216329300347,-0.01571485635687294,0.7592596796081295,0.9087911266595996,0.0,0.0,0.0,0.0
0.0235516621740626,0.09756695333358992,0.7279443348605767,-0.012457171689000342,-0.5253586020428539,0.020120931418574305,0.8505517657685145,0.19077165437602822,-0.7407948801925052,0.7434416817484694,-0.12283451677019676,-0.7877789918257574,0.9223479049033968,-0.017334038419917867,0.6651683167369282,1.0950236864435057,-0.015418403843743062,0.7680691970238681,0.9091659629761654,0.0,0.0,0.0,0.0
0.024543123858911588,0.09875991253113603,0.7270211230728981,-0.011595929457888177,-0.526481804265477,0.02218916074998725,0.8498176777065696,0.20152719195317792,-0.7025185657484793,0.679193588638657,-0.13198984486788926,-0.7824578186226617,0.9193739162126493,-0.017439468304461674,0.664988127279957,1.1049690898678215,-0.01522495025449798,0.773964427471121,0.9153853560354007,0.0,0.0,0.0,0.0
0.024626078929541145,0.09888722404904873,0.7269622611570956,-0.011638617205142912,-0.5264299362925302,0.02227543091411561,0.8498469685432697,0.20225526854219553,-0.7024125291852709,0.6791945880750533,-0.13253670475723522,-0.782493696691523,0.9194258270104659,-0.0174942032059035,0.6648092233998023,1.1053760159120591,-0.015166231149401535,0.7742344765907335,0.9150755085167127,0.0,0.0,0.0,0.0
0.024626078929541145,0.09888722404904873,0.7269622611570956,-0.011638617205142912,-0.5264299362925302,0.02227543091411561,0.8498469685432697,0.20225526854219553,-0.7024125291852709,0.6791945880750533,-0.13253670475723522,-0.782493696691523,0.9194258270104659,-0.0174942032059035,0.6648092233998023,1.1053760159120591,-0.015166231149401535,0.7742344765907335,0.9150755085167127,0.0,0.0,0.0,0.0
0.024393898753465624,0.09927481141694473,0.7284607979377115,-0.010657252146156402,-0.5244192600901036,0.021689181152854002,0.8511171729228356,0.2026964161804785,-0.7068379232012041,0.6867549318048617,-0.13293251640008205,-0.7897651618901667,0.9269467597071379,-0.03213516233927528,0.6685954478077546,1.0917327159902777,-0.0007377389452539896,0.7464741575742606,0.9527417529100145,0.0,0.0,0.0,0.0
0.024252134267294632,0.09996882473619682,0.73036209458471,-0.010014275238768893,-0.5228667872407008,0.021025845465429405,0.8520962098932806,0.20267029125093017,-0.7095540890556415,0.6944874551477482,-0.13340945513213856,-0.792236631504925,0.9302711529668983,-0.046465839624914976,0.6756189456123218,1.0756831326847478,0.013682802828486074,0.7277061905624913,0.9775989976243358,0.0,0.0,0.0,0.0
0.024136472459465357,0.10085928323675865,0.7321906917391882,-0.009617300864077739,-0.5217022335239666,0.02033415411529439,0.8528310555066635,0.20228413773140713,-0.7114957776493223,0.7018617832725925,-0.13402167663040257,-0.7918893405135609,0.9304803341347092,-0.06050516995463538,0.6834568617908181,1.0609671168356893,0.028097704285506862,0.7159472809508435,0.9944959763537841,0.0,0.0,0.0,0.0
0.02394221468262325,0.1018314781698471,0.7338258962309671,-0.009319355762901497,-0.5208029462769252,0.0196571509705545,0.8533996936800243,0.20160171615126785,-0.7124681956713514,0.7075908342007945,-0.13474933189910285,-0.7898269202694519,0.9281774048509596,-0.07431577146805708,0.6908738079694322,1.0484003494920675,0.04251990510092056,0.7085661419275312,1.0065995023736904,0.0,0.0,0.0,0.0
0.02360945469867123,0.10283641424585474,0.7352782397887598,-0.009047260492280058,-0.5200667049868842,0.019009369911774446,0.8538661565475161,0.20066148462659825,-0.7124213779779218,0.7112205968345571,-0.13557645439989394,-0.7865624968547302,0.923682918227146,-0.08795211123886351,0.6974119936686811,1.0377841553625207,0.056962622737269625,0.7035688784962115,1.015690777310603,0.0,0.0,0.0,0.0
0.023110603345150502,0.10387242012256606,0.7366037538950523,-0.008787108423520262,-0.5194129395341811,0.018385486076628425,0.8542803748604673,0.1994878341533895,-0.7114947436190331,0.7128737973881892,-0.13649814289371776,-0.782277070917173,0.9171201998073961,-0.10145942607407125,0.7029913013039478,1.0285835717839258,0.07143919037517116,0.6996833130710828,1.0227705402764302,0.0,0.0,0.0,0.0
0.022414527091133594,0.10495148346537157,0.7378676770245747,-0.008537828171281087,-0.5187709265751524,0.01777226322896846,0.8546858942852606,0.1980954888506076,-0.7097622695937131,0.7126250998430746,-0.13750703099902106,-0.7769914406070463,0.9084172963779908,-0.11488048408490092,0.7076039700996195,1.0201897235244437,0.08596299433730636,0.6961864657976451,1.0282470705093156,0.0,0.0,0.0,0.0
0.021478075438394896,0.10609439855275446,0.7391352282692358,-0.008303659078453946,-0.5180687089203742,0.01714979997163456,0.8551267429126623,0.19649411942658387,-0.707251281224038,0.7104501315956597,-0.13859348805153493,-0.7706412003089624,0.8973297548790817,-0.1282589134692284,0.7112115902056646,1.0119896220119533,0.10054748084804822,0.6927588396557219,1.0320690503609085,0.0,0.0,0.0,0.0
0.02024098170927246,0.10733121308754721,0.7404732878442887,-0.008091729467818939,-0.5172218509360366,0.016490056468398358,0.8556542285679356,0.19469181321651108,-0.7039709570436498,0.706233467532327,-0.13974612259648192,-0.7631106042656736,0.8834433056433648,-0.14164244861288255,0.7137057094936301,1.0033371619662188,0.11520621140323173,0.6893811341270464,1.0337468003763148,0.0,0.0,0.0,0.0
0.01862469873993003,0.10870402113817623,0.7419564646521012,-0.007910954798757495,-0.516121966980723,0.01575393878905899,0.856333664763188,0.19269911407426646,-0.699955720880017,0.6998230968114075,-0.1409531732514519,-0.7542604594186255,0.8661871500629159,-0.15508565698050408,0.7149083502459671,0.9934674534141485,0.1299529374015923,0.6862934090691479,1.0322694503809986,0.0,0.0,0.0,0.0
0.01653876025449129,0.11026941277474547,0.7436778357119883,-0.007768909090531407,-0.5146274666141167,0.0148884096975611,0.8572494093987798,0.19053402001304676,-0.6953148829943868,0.6911340760328751,-0.1422045679922721,-0.7439633130633155,0.8448936208692016,-0.16865095001262312,0.7146384824638431,0.9813353953875225,0.144801661431023,0.6839675353727569,1.0260574868294194,0.0,0.0,0.0,0.0
0.013882897501709419,0.11208902255937608,0.7457554980304153,-0.007650343361477135,-0.512559250391902,0.013827403382069385,0.8585064297952885,0.18822695928222774,-0.6901587834064259,0.6800547635753347,-0.14348749512850573,-0.7321633200482531,0.8188765072159213,-0.18240669048021793,0.7127893099684423,0.965433809915251,0.15976445058698613,0.6813106052901391,1.0162837236560163,0.0,0.0,0.0,0.0
0.0105529877942783,0.11422493525219167,0.748293404265353,-0.007506768765797845,-0.5096946816271891,0.012491953955177545,0.8602319053778678,0.18583371366539395,-0.6847522205131162,0.6665521064163222,-0.1447964396978834,-0.7190790825826545,0.7875912987511564,-0.1964254081883076,0.709232973664703,0.9439878825337071,0.174853965813701,0.676888982548465,1.003450571390326,0.0,0.0,0.0,0.0
0.006450120586857787,0.11671671229033864,0.7512725486820498,-0.007235792261789461,-0.5057918883446798,0.010802800620955125,0.8625575392365491,0.18345154322546398,-0.6796744250886734,0.6506466068653767,-0.1461467087951115,-0.7055469432757191,0.7509163974503715,-0.21076680494480232,0.70350928684744,0.9157967714068872,0.19008363218253205,0.6686151864334919,0.9873125623621255,0.0,0.0,0.0,0.0
0.0015011427766599417,0.11961115201224491,0.7541229369100714,-0.006802922409216269,-0.5006769565263016,0.008697207192167237,0.8655637839219652,0.18125510664672348,-0.6773370459752993,0.6336211779212145,-0.14766273046383346,-0.6937106099517625,0.7093372780362752,-0.2254306610154692,0.6929208932024955,0.8847635707989436,0.20548127190277654,0.6544580718623778,0.9661861534834784,0.0,0.0,0.0,0.0
-0.003821208831185913,0.12269383533935405,0.7562791562607675,-0.005920982785412442,-0.49435928924666667,0.00627690164473339,0.8692148385779708,0.17957557288037312,-0.6812887738412253,0.6204069527634001,-0.14956461711558156,-0.6888371399241519,0.6703618850186142,-0.2402530300636389,0.6768028701401577,0.8542587265884728,0.22106012567810138,0.6349892914359327,0.9398748996964597,0.0,0.0,0.0,0.0
-0.009082510106710559,0.125704202801948,0.757245540154607,-0.004297976121305684,-0.4868304235717859,0.0036802929107478664,0.8734781746158672,0.1787510908471185,-0.6948987134688582,0.6158056825913345,-0.15206282694845483,-0.6969474327801705,0.6431586744862405,-0.2550284409668664,0.6541555419465683,0.8278142028404903,0.2368166162922096,0.6114307286104742,0.9074970686669543,0.0,0.0,0.0,0.0
-0.014031596708817935,0.12837916968020946,0.7568459637305659,-0.0016097929935238746,-0.47799266554393965,0.0010505138277407272,0.8783617231376918,0.1790529954635377,-0.7196151458296511,0.6219121802947369,-0.15531767715066172,-0.7231682496006294,0.6358490394317398,-0.2695218287511749,0.624634888832832,0.8061557882040254,0.2527398854150699,0.5863632289797207,0.8667086525681783,0.0,0.0,0.0,0.0
-0.017788358064440374,0.13022965152795754,0.7553689927825645,0.0021992668658374864,-0.4691060857174079,-0.0011380942158810317,0.883138351737541,0.18027701328052928,-0.7506096235439204,0.6371676042179719,-0.15922408322105824,-0.765423207979773,0.6529482461053109,-0.28297462975387316,0.5947949973203114,0.7889723458407019,0.2685864364365334,0.5636354120775671,0.8276305175766363,0.0,0.0,0.0,0.0
-0.017762340104869552,0.13034189021393908,0.7549631346836392,0.0024974590850437,-0.4691092459864273,-0.0012513381143901196,0.8831357269305141,0.18044124370123943,-0.7510532629736084,0.637006273151191,-0.1594444598008899,-0.7662092212155603,0.6521223912915239,-0.2836329180475444,0.5950687993799106,0.7886771535265247,0.2696775992058044,0.5637081639365791,0.8276829356068625,0.0,0.0,0.0,0.0
-0.017762340104869552,0.13034189021393908,0.7549631346836392,0.0024974590850437,-0.4691092459864273,-0.0012513381143901196,0.8831357269305141,0.18044124370123943,-0.7510532629736084,0.637006273151191,-0.1594444598008899,-0.7662092212155603,0.6521223912915239,-0.2836329180475444,0.5950687993799106,0.7886771535265247,0.2696775992058044,0.5637081639365791,0.8276829356068625,0.0,0.0,0.0,0.0
-0.018161815222516593,0.1306029283104044,0.7567947782129514,0.002431007762588534,-0.4720865815818978,-0.0007834265718913604,0.8815484875685414,0.17672447722776194,-0.7258351625305702,0.6103749634063182,-0.15968872666560874,-0.735890959665202,0.6194265226310834,-0.28541522734110486,0.6113949041264568,0.7767104017877394,0.2740227559718524,0.5797777610887614,0.8180773471741706,0.0,0.0,0.0,0.0
-0.018648757631306107,0.13095923478484842,0.7584818739773137,0.002239830067274245,-0.47390822590950865,-0.00035078882944277384,0.8805713222242528,0.1735423642711338,-0.7075648909245414,0.5901301857661864,-0.16041422658420249,-0.7111601127244742,0.5907389969670974,-0.285663669349325,0.6240761396914543,0.7629481217260105,0.2765834906589831,0.592961361068104,0.8049363701812208,0.0,0.0,0.0,0.0
-0.01890430797986426,0.1315854325003096,0.7597694027052371,0.0016873672802615678,-0.4745751806512431,-2.121909176539983e-05,0.8802133549607456,0.17097989670803443,-0.7013254826266181,0.5845811501879509,-0.16178177644776098,-0.694691289918415,0.5706807575744991,-0.2845764063656031,0.632297101603154,0.750587311840363,0.2775861232793503,0.6025604401984903,0.7908111216438669,0.0,0.0,0.0,0.0
-0.018967075910500047,0.13244836503630875,0.7598242591291213,0.0008170371421613084,-0.4739464307044076,0.00021172969524014203,0.8805532740518297,0.1692515614262231,-0.7111369147436265,0.597188881232993,-0.16396682277770916,-0.6911422978464556,0.5637974013909834,-0.28231888960306556,0.630375489760315,0.7491196822633984,0.27723240534980675,0.6029578370613654,0.7851276198584437,0.0,0.0,0.0,0.0
-0.01857698476746122,0.13369452407853782,0.7586640583054367,-0.0005962853424185504,-0.47182301526043546,0.0002687895220398301,0.8816930386855361,0.1685152913075083,-0.7406689943140742,0.6337034425507568,-0.16712681856726755,-0.7031841568080751,0.5747366964953862,-0.27880831229078035,0.618548661511968,0.7581371281058532,0.27544333884413813,0.5945682007583586,0.7867530375485531,0.0,0.0,0.0,0.0
-0.017308453540155023,0.1354757353796771,0.7563313950432254,-0.0028102570194544273,-0.4679438926605803,2.4652239749459516e-05,0.8837537073016526,0.16914714682853724,-0.7929257347322358,0.6984269350305826,-0.17144044500657554,-0.7338174187334272,0.6085942865072999,-0.2741918328410835,0.5979175062445331,0.7761139561936045,0.2722209653479941,0.5785681741488835,0.7934572837409319,0.0,0.0,0.0,0.0
-0.011947141156206488,0.1376007581080998,0.756737330196014,0.001841361176644559,-0.4806652481898768,-0.0024298771592341415,0.8768988677541854,0.16367339649523438,-0.7384348135243697,0.6758084003860435,-0.17018941854673952,-0.6928042159487628,0.5886535824928976,-0.25829193691230434,0.629033631248388,0.839505495472307,0.2608621789485502,0.6108898957674181,0.8395365444015547,0.0,0.0,0.0,0.0
-0.0058599702639242435,0.14013412807971265,0.7559106783261114,0.0049701319246156,-0.49112695786003846,-0.004936961657083183,0.8710598346045996,0.15992945257184482,-0.7097029788199687,0.6822692414889048,-0.17062764857820265,-0.669594402427985,0.5885885965255567,-0.2422628684606672,0.6538154821436605,0.896100029247974,0.24893149563930297,0.6425415798462133,0.8757321216557997,0.0,0.0,0.0,0.0
0.0004122583162772236,0.1428096209403535,0.7538938815765697,0.00682296987508642,-0.4990978680316285,-0.007230377715407605,0.8664885959125251,0.1575235303628278,-0.7051063883367622,0.7141167331559428,-0.17237696516466788,-0.6643538508244555,0.6073600246868893,-0.2264698004001896,0.6717222478650592,0.9378866915735279,0.23677796481225577,0.6679942155796121,0.9074700046807475,0.0,0.0,0.0,0.0
0.006408020187778114,0.1454883234735536,0.7510052424540802,0.007732567570933914,-0.5050151603757307,-0.009246275104588109,0.8630263041102085,0.15596799588355398,-0.7160287359672566,0.7590479250975607,-0.17492727016574758,-0.6706373223431309,0.635656192980468,-0.21092653479792656,0.6852078693913252,0.9678913598122179,0.2244220890663216,0.6861388827525501,0.9372462872421538,0.0,0.0,0.0,0.0
0.011501015510610203,0.14792945670731042,0.7481468577449937,0.008105251417342156,-0.5093661433269726,-0.010901660147765106,0.8604426713835677,0.15470972397813693,-0.7306270912461768,0.8012260569400319,-0.17765165099032423,-0.6791141566042433,0.661244633409233,-0.19559135722884852,0.6929370396960295,0.990411181094397,0.21181493832093307,0.6993807460978354,0.9608525954467632,0.0,0.0,0.0,0.0
0.01564101267392673,0.15007862693543725,0.7457349995911374,0.00818003562052905,-0.5124990007601348,-0.012231710251948285,0.8585617313282852,0.15355314196157094,-0.7450771936628189,0.8373616141865464,-0.1803015744041029,-0.6870005502565673,0.6819376512539951,-0.18044497635392784,0.6970286107975228,1.0078319935767996,0.1989738321767875,0.7090935261120878,0.9775944931600469,0.0,0.0,0.0,0.0
0.0189062016922481,0.15193272999805532,0.7437858828799399,0.008155336282324933,-0.514737402551803,-0.013301540151688973,0.8572059063806888,0.15243365999716282,-0.7579322104851315,0.8669307333874334,-0.18276166362593657,-0.6936682512312274,0.6978752749750645,-0.16547426044228816,0.6993712533536428,1.0215755386350915,0.18594527272603276,0.715630387001359,0.9894082979449642,0.0,0.0,0.0,0.0
0.021418451398573898,0.15353255455970338,0.7422206052940702,0.008131140251145055,-0.5163368458677687,-0.014181511561244083,0.8562295433395057,0.15133310891159382,-0.7688061666128176,0.8905251376892989,-0.18498332375737475,-0.6989916241154025,0.7095703282806063,-0.15066631420709023,0.7010341512035487,1.0323360816774476,0.17276969789297886,0.7194050754049004,0.9979592902836844,0.0,0.0,0.0,0.0
0.023299531806952177,0.1549327937324579,0.7409364397463566,0.008143326383157973,-0.5174843164876028,-0.014933240253535795,0.8555236213923646,0.150254912417842,-0.7777789688529063,0.9090320847936887,-0.1869526147515116,-0.7030209780029703,0.7175356521581119,-0.13600884766972784,0.7024992328955603,1.0401613678148236,0.1594758893405069,0.7207995678349289,1.0045061927043397,0.0,0.0,0.0,0.0
0.024652475708302295,0.15618501003227866,0.7398290990622423,0.00819653247673076,-0.51831045044451,-0.015605570733919043,0.8550108537190834,0.1492131682214799,-0.7851162991588682,0.9233021785993052,-0.18867199401449938,-0.7058888681605805,0.7222067660909205,-0.12149012716366114,0.7040679027197589,1.0444437320748157,0.14608135563851643,0.7200711693268856,1.0100408445021298,0.0,0.0,0.0,0.0
0.025562262677832983,0.15733171306838678,0.7388117220545914,0.008282658094710333,-0.5189036410281751,-0.016235689822062818,0.8546384096672643,0.14822678817334928,-0.7911288283882526,0.9340766893525313,-0.1901501709485748,-0.7077581638114822,0.7239661231236094,-0.10709878384739262,0.7062499240655437,1.0439213282587152,0.13259426472977606,0.7174048517487489,1.0152803520592575,0.0,0.0,0.0,0.0
0.02609654266185544,0.15841482417201655,0.7378314764418156,0.008375830080201574,-0.519327273169542,-0.01685508077335525,0.8543681496081645,0.147308545576048,-0.7960816552451034,0.9419797980674744,-0.19139380196263908,-0.7086519457262925,0.722988141631344,-0.0928215043539503,0.7083771541401012,1.0401441380727903,0.1190130187094679,0.7130138775244447,1.020578703600751,0.0,0.0,0.0,0.0
0.026307912019766126,0.15946897400543744,0.73685049850153,0.008449540562744363,-0.519623989728657,-0.017489158274436374,0.8541742468054178,0.14647186545721416,-0.8002074938564335,0.9475172815790559,-0.19240744369470789,-0.7085777389693468,0.7193816809896171,-0.07864513741670197,0.7101857757513851,1.034023208276325,0.10533089682748792,0.7070596789085315,1.0261491358560624,0.0,0.0,0.0,0.0
0.026234305363525265,0.160522405020885,0.7358287549446423,0.008481299076197053,-0.5198274299398304,-0.01815905925142668,0.8540361580256622,0.14573061335321114,-0.8036989620592186,0.9510567431179748,-0.1931921979846715,-0.7075286315622299,0.7131659087060394,-0.06455672374767304,0.7117379852482947,1.0258770562643078,0.09153986280506954,0.6996106562285852,1.0322437680946666,0.0,0.0,0.0,0.0
0.025913728473689973,0.16159234928078314,0.7347150152561663,0.008464454377327419,-0.519983531528662,-0.018881001670795393,0.8539256336045795,0.1450992323953137,-0.8066573011447323,0.9528295139592949,-0.19374496074279293,-0.7055112243955152,0.7043740223812637,-0.05054346562959949,0.7135045885801229,1.0155448181517963,0.07763782449637571,0.6907142463304992,1.039262954129597,0.0,0.0,0.0,0.0
0.025411059880629052,0.16266609172200697,0.7334431588433726,0.008439356718602645,-0.5201879936478326,-0.019658945524938937,0.8537837866718166,0.144592265727793,-0.808922649558853,0.9528518632760127,-0.19405519268588273,-0.7026179391497495,0.6933181458800141,-0.03659272270208812,0.7166460553433514,1.0024824096286922,0.06364011106513476,0.680573882750916,1.0478671727647972,0.0,0.0,0.0,0.0
0.024924658244450414,0.16361714481778822,0.7319540270066183,0.008618062221038005,-0.5206452936997106,-0.02045198504908453,0.8534845771655446,0.1442559667794122,-0.8097526446058453,0.9509824424797179,-0.19411327530682226,-0.6998108969423407,0.6822803635458312,-0.022691525481293436,0.7236498518166385,0.9858203489914609,0.049597573639286754,0.6701343985471475,1.0589826041016743,0.0,0.0,0.0,0.0
0.024572251578041288,0.16434848728270401,0.7302845110524413,0.009141130161756938,-0.5216833141175499,-0.02121949512817259,0.852826296813836,0.1440253044016718,-0.8072897430337265,0.9458594516572147,-0.19382433636516935,-0.696290878347632,0.6713632543051546,-0.008826363710048942,0.7376472521366513,0.9633387946479328,0.035524423532730304,0.6608739453211169,1.0729170354568591,0.0,0.0,0.0,0.0
0.024557225972361187,0.1647460037262995,0.7289054255853471,0.010131103149236265,-0.5238155923743949,-0.02191508988655289,0.8514894683844925,0.1437103835767142,-0.7976885775712548,0.9353002643371863,-0.19297272447587774,-0.689268566225002,0.6597846660155323,0.0050105167578578,0.7628312627461906,0.9311967769311913,0.021323210541689973,0.6569963279004946,1.086441214601524,0.0,0.0,0.0,0.0
0.024596105847832676,0.16476800352485393,0.7288661298888032,0.01015404772371192,-0.5238655160840826,-0.021942319417413755,0.8514577799229781,0.1437098170570189,-0.7976539956876112,0.9354063819719434,-0.19297331529075568,-0.689220014076638,0.659724125598522,0.005876487823474098,0.7628288939464668,0.9311867858873788,0.020446413274412774,0.6568950129306247,1.0864479815677017,0.0,0.0,0.0,0.0
0.024596105847832676,0.16476800352485393,0.7288661298888032,0.01015404772371192,-0.5238655160840826,-0.021942319417413755,0.8514577799229781,0.1437098170570189,-0.7976539956876112,0.9354063819719434,-0.19297331529075568,-0.689220014076638,0.659724125598522,0.005876487823474098,0.7628288939464668,0.9311867858873788,0.020446413274412774,0.6568950129306247,1.0864479815677017,0.0,0.0,0.0,0.0
0.02379170070472246,0.16580613268729605,0.7297093876276822,0.011419020543956207,-0.5236794358458121,-0.019687931970228813,0.8516113196621827,0.1338074059827002,-0.7980952605335376,0.9340101001293059,-0.1812894119969869,-0.7324099230671219,0.7378780038115659,0.0062617556161026254,0.759624200746204,0.9263648245594664,0.019921432156387885,0.6603652390362605,1.0784295810770825,0.0,0.0,0.0,0.0
0.022386275854690756,0.1679325584832386,0.730560002769625,0.010996035727827005,-0.5233127273428694,-0.017876446737369933,0.8518822155974886,0.12354247650035839,-0.8019852099379007,0.9353337311851639,-0.1695000260757494,-0.7594944275890321,0.7827147331426272,0.0064726824148819626,0.7532084560822915,0.9263715822810312,0.019288262178843333,0.6617725773901244,1.0677142580860037,0.0,0.0,0.0,0.0
0.020575775100336157,0.17060605967735082,0.7308302994010665,0.009688023301154158,-0.523027769324457,-0.01636359952884618,0.8521034721971612,0.11336197281961465,-0.8076292727024086,0.9365342845622237,-0.15784734611504375,-0.777137242729031,0.8080472257330797,0.006509909262438366,0.7426067321051881,0.9347589870046247,0.018574782273192675,0.6598246270953759,1.0608264478175098,0.0,0.0,0.0,0.0
0.018516116896186548,0.1734193758978805,0.7307213102025369,0.008070162632736072,-0.5229066470015722,-0.015027575161386352,0.8522192693089162,0.10347953089765226,-0.8125901679139134,0.9354840805311256,-0.146380873100682,-0.7899403656004867,0.8231835327588419,0.006377081339941478,0.7299857624465345,0.9477567376355426,0.017827848464314847,0.6559487894494391,1.0571329162021452,0.0,0.0,0.0,0.0
0.016378597873331284,0.17603588989502914,0.7306755778709092,0.006619326897153219,-0.5228763073523549,-0.013749757135636285,0.8522719612305131,0.09406145587981476,-0.8151047767433165,0.9313651748703454,-0.13511327037705428,-0.7995305918515621,0.832460373225988,0.006098967367795739,0.7182161965580688,0.9593619878535448,0.017068504745996745,0.6522859813882845,1.0534454499155315,0.0,0.0,0.0,0.0
0.014309275617228254,0.17838449371123644,0.7308083187809226,0.005452407937276676,-0.5228833066931492,-0.012487320803660122,0.8522953629162076,0.0851466900519501,-0.815543594979585,0.9253008369830121,-0.12403242756926462,-0.806812594569544,0.8382162934019646,0.0057073815509457474,0.7081609787962306,0.9680293988122955,0.016294374551077778,0.6496314069359099,1.0487374711561337,0.0,0.0,0.0,0.0
0.012371807652574236,0.18050318062066728,0.7310620398099327,0.00452812709646307,-0.5229045912731353,-0.011239473389940644,0.8523050854760814,0.0767122271797007,-0.8147779303846684,0.9184276383799821,-0.11311922874265253,-0.8124468077495752,0.8418896792161822,0.005225840231814018,0.6995699275666842,0.9744364680110775,0.015500410831679176,0.6478733812915285,1.043324788920419,0.0,0.0,0.0,0.0
0.010590372255143398,0.18244259916247346,0.7313750603671962,0.0037814901257520457,-0.5229314536478831,-0.010014969540736872,0.8523075122883986,0.06871668817440651,-0.8134708368915403,0.9115093743356899,-0.1023545413375606,-0.8167955658378363,0.8444280470429737,0.004669747122066527,0.692109272674674,0.9793691623685891,0.01468527446843381,0.6467963155262068,1.0375900611259365,0.0,0.0,0.0,0.0
0.008964443579468748,0.18424576468092219,0.7317070564251182,0.0031564347535842315,-0.522959380125764,-0.00882194350398773,0.8523061052057151,0.061113665658227935,-0.812026663646319,0.9049631373294693,-0.09172034320918258,-0.8199270100244159,0.8464889917160504,0.0040503406892189115,0.6855047372225078,0.9833921034109594,0.013849775666415192,0.6462114714634128,1.0317821865236998,0.0,0.0,0.0,0.0
0.007479229574931653,0.18594730782440574,0.7320372057929435,0.0026086247602601803,-0.522986350895599,-0.007666115791942141,0.8523025885930595,0.053856168606751326,-0.8106521654400055,0.8989609408721311,-0.0811999412614819,-0.8216951294601338,0.848586283089832,0.0033767244003693724,0.6795527800802886,0.9868623105137666,0.012995729979438457,0.645981296166333,1.0260172344098,0.0,0.0,0.0,0.0
0.006115993755381741,0.1875753670851117,0.7323588707792279,0.0021032915490647964,-0.5230144197553601,-0.006550893491418602,0.8522960628133205,0.04689870983670402,-0.8094236698621102,0.8935370771974204,-0.07077798440200679,-0.8219732658219604,0.8510986086582589,0.002656636420063959,0.6741267248922069,0.989983607560876,0.012125805360747494,0.6460344781491972,1.0203104274534724,0.0,0.0,0.0,0.0
0.0048606843383131385,0.18914853356982178,0.7326696141508516,0.001620401617796765,-0.523040944840216,-0.005475571589890984,0.8522884267869739,0.04020081963179509,-0.8084018435556454,0.8887180529166734,-0.06044084701573046,-0.8211557997820911,0.8538979261461455,0.001897399281113809,0.6691318472882797,0.9928648545751614,0.011243339208882638,0.646320018366314,1.01465059059054,0.0,0.0,0.0,0.0
0.0037053669526694,0.19068433553583813,0.7329735881232433,0.0011411449554835748,-0.5230674279871607,-0.004439359970806731,0.852278977594858,0.033724013617502144,-0.8076221422628773,0.8845430192894885,-0.05017588400582387,-0.8197057985665361,0.8568184989345793,0.0011055207652287506,0.6645383376348943,0.9955482987608658,0.010352381586631806,0.6468501300586358,1.0089683400821106,0.0,0.0,0.0,0.0
0.002648897301222732,0.1922010490174891,0.7332789543835037,0.000645169418252364,-0.5230970307897573,-0.0034422287972139796,0.8522659392444761,0.027431997545499597,-0.8071305290034435,0.8811017334325494,-0.039971342386309505,-0.8179530603734319,0.8597626039804318,0.0002868241904099317,0.6603620178888489,0.9980366755475459,0.009457610343074772,0.6476839309108813,1.0031481238439812,0.0,0.0,0.0,0.0
0.001698803148442079,0.19371509895704597,0.7335950387284909,0.00011429288830071248,-0.5231320063757533,-0.002484073155850277,0.852248039142931,0.021292560885641694,-0.8070075317091464,0.8785584606544998,-0.02981632259620413,-0.8160217926526847,0.8626996349182439,-0.0005532181154405881,0.6566509211018404,1.0003044034776725,0.008564509986302099,0.6489103997804343,0.9970559429447208,0.0,0.0,0.0,0.0
0.0008701538656732215,0.19522893239630154,0.7339246513795499,-0.00044976411998327983,-0.5231703705970988,-0.001560141667588706,0.8522265702261973,0.015283456948311163,-0.807356121270314,0.8770996377259326,-0.01970134659721405,-0.8138205134243127,0.8656089093681577,-0.0014083402806676802,0.6534445167255674,1.0023202637313207,0.007679537633886671,0.6505893426064626,0.9906462562157713,0.0,0.0,0.0,0.0
0.00016832402995635995,0.19668769577181286,0.7342251142599595,-0.0009615122946654803,-0.5232016255928023,-0.000643936569730358,0.8522081434818906,0.009411685963385676,-0.8081788655319186,0.8765827176909246,-0.009621727018127545,-0.8111564380573952,0.8683222850114857,-0.00226754572509996,0.6505537178366333,1.0042583963677956,0.006809741131625627,0.6524630757895029,0.9844830889292637,0.0,0.0,0.0,0.0
-0.0004891162315027391,0.19783501717738108,0.7342028902692802,-0.0010476836711132767,-0.5231941020782317,0.0003614192533380291,0.8522128274589637,0.003808108282880615,-0.8090950504123948,0.8752684511535238,0.00038941507357973665,-0.8087803840555357,0.8706567544078521,-0.0031064092347841783,0.6464177221282418,1.007914006343208,0.005956628992747803,0.6525485411257957,0.9822075343874408,0.0,0.0,0.0,0.0
-0.0011637233850127471,0.19839601500801674,0.7338907669002099,-0.000336910028212742,-0.5231889603904009,0.0015331522425548357,0.8522152589935513,-0.0012982648302329461,-0.8083138460528729,0.8706793846144332,0.010192600589633456,-0.8099202165954732,0.8761166456421933,-0.0039038438918348028,0.6413416405752995,1.012198368400572,0.005111618559407052,0.6506409254900727,0.9846787912425601,0.0,0.0,0.0,0.0
-0.0011568551160151045,0.19839959378580518,0.7338866960863057,-0.000342386981112201,-0.5231850826322367,0.0015303325256688612,0.8522176424861291,-0.0012892089076881842,-0.8083227841279512,0.8706906823462994,0.010812472733605548,-0.8099103660290089,0.8760970834455493,-0.003919541653121909,0.6413481634555721,1.012203539158115,0.005107821359010031,0.6506432458475087,0.984670704978726,0.0,0.0,0.0,0.0
-0.0011568551160151045,0.19839959378580518,0.7338866960863057,-0.000342386981112201,-0.5231850826322367,0.0015303325256688612,0.8522176424861291,-0.0012892089076881842,-0.8083227841279512,0.8706906823462994,0.010812472733605548,-0.8099103660290089,0.8760970834455493,-0.003919541653121909,0.6413481634555721,1.012203539158115,0.005107821359010031,0.6506432458475087,0.984670704978726,0.0,0.0,0.0,0.0
-0.0011568551160151045,0.19839959378580518,0.7338866960863057,-0.000342386981112201,-0.5231850826322367,0.0015303325256688612,0.8522176424861291,-0.0012892089076881842,-0.8083227841279512,0.8706906823462994,0.010812472733605548,-0.8099103660290089,0.8760970834455493,-0.003919541653121909,0.6413481634555721,1.012203539158115,0.005107821359010031,0.6506432458475087,0.984670704978726,0.0,0.0,0.0,0.0
-0.0010845687010984531,0.19820128867924358,0.7338337137566785,-0.00034097132495292137,-0.5231601275250618,0.0011583529404883453,0.8522335495185471,0.00023550064564411416,-0.8079883564468671,0.8705294463920725,0.01233637223768179,-0.8115903073490273,0.8780927280909395,-0.004954784387149793,0.6420722224073055,1.012255658866661,0.004106626165646218,0.6497147059317306,0.9853504298715905,0.0,0.0,0.0,0.0
-0.001013751159078324,0.19795553579630656,0.7337493587021422,-0.0002628460049532846,-0.5231508515067,0.0008126632930634983,0.852239671136098,0.0017559157636457632,-0.8074637935342923,0.8700388352538518,0.013859793918769034,-0.8134511173199543,0.8802900246785426,-0.0059796657807256685,0.642705788214116,1.0124573984568723,0.003118086097716181,0.6486374135352815,0.9865366006569619,0.0,0.0,0.0,0.0
-0.0009482226875765566,0.19770850580851754,0.733636645435146,-0.00018211756347251412,-0.52312794232595,0.0004681336112731117,0.8522540135675118,0.00327384432277142,-0.807081546068291,0.8696132618121228,0.015384292823947618,-0.8154535692225598,0.882548784392528,-0.007005313714671804,0.6431526501655066,1.0128873213666645,0.002131579865195153,0.647369768181956,0.9879655196827684,0.0,0.0,0.0,0.0
-0.0009007489390513703,0.19750590069233695,0.7334940079116277,-0.0001718409286068117,-0.5230593267849047,9.948487338302253e-05,0.8522962520372699,0.004792417654809115,-0.807160534236798,0.8695834082927816,0.016912072912402855,-0.8175466901786718,0.8846661821016087,-0.008045195875587214,0.6432612868618939,1.013667567455645,0.0011359953585709823,0.6458123212688031,0.9894215324911984,0.0,0.0,0.0,0.0
-0.0008840641386853613,0.1974747370880853,0.7333015469569472,-0.00043224870182979007,-0.522879095923652,-0.0003590337957298911,0.8524066724878786,0.006305245485454757,-0.8086305741476227,0.8710027191633054,0.018434502376115477,-0.8196169830429935,0.8861999390072596,-0.009126302114038629,0.6426563255015055,1.015304996657411,0.00011647682025369864,0.6437427477833483,0.9904913762620583,0.0,0.0,0.0,0.0
-0.0008371588451249985,0.1979705127090701,0.733000352297889,-0.001514602073881232,-0.5224950492598016,-0.0010736544738551943,0.8526402973972237,0.007737556014494134,-0.8140675995549725,0.8772626034399746,0.019870726369045796,-0.8212943141985641,0.8863563129479136,-0.010284572119123508,0.640778045097664,1.0193335203291163,-0.0009085646164804116,0.6410743830260719,0.9901823431926635,0.0,0.0,0.0,0.0
-0.00010265886677609853,0.1986499587653288,0.73317120790031,-0.0007617195409511938,-0.52286800222829,0.0002624715942311528,0.8524132818872545,0.01736873027033704,-0.8096677661961985,0.8690759635105311,0.01398245777618589,-0.8202351615534589,0.8891863351358884,-0.011185722550198668,0.6429057507688658,1.0190707013189377,-0.0018063807521683534,0.6468512341154457,0.9876691724269357,0.0,0.0,0.0,0.0
0.0006373112603570727,0.19984218029204087,0.7331756295547217,-0.0007341920261002169,-0.523049311387329,0.0014206875393286376,0.8523009213102056,0.027201931386886737,-0.8106119532808062,0.866127369804573,0.007764213160076454,-0.818741632386797,0.8904248561214749,-0.012159087004286922,0.6434100821397105,1.0216239767687012,-0.0027065855907159164,0.6518112877651367,0.9843861009258039,0.0,0.0,0.0,0.0
0.001401728564952864,0.20122295985235347,0.7331118368541844,-0.0009980344892675855,-0.5231034221153432,0.0024882428666305424,0.852264995377501,0.03703929013606876,-0.812354810452975,0.8629707568050222,0.0015091943440323462,-0.817482466623586,0.8915177438215114,-0.013171981226963983,0.6432556971908613,1.0251249241900118,-0.003617029549231794,0.656346193089026,0.9806936544995859,0.0,0.0,0.0,0.0
0.0022200228660542026,0.20266673516192424,0.7329970926291567,-0.001357325131341416,-0.5231036086603925,0.0035292137331363158,0.8522607094811944,0.04687475272680213,-0.8141971173880728,0.859621762528673,-0.0047741553913364715,-0.8166143184936475,0.8930258404329119,-0.014196758841411338,0.6428784919441187,1.0290904753459427,-0.00451779502444363,0.66073235544821,0.9770295558886719,0.0,0.0,0.0,0.0
0.003107562366140185,0.20413483151279266,0.7328344419408142,-0.0017449834123957758,-0.523085270208228,0.004570895239224448,0.8522663093427943,0.05671670591279323,-0.8160380589700207,0.856250935061949,-0.011111059749403782,-0.8161484907400092,0.8951192928686785,-0.01521922762030698,0.6424490619870267,1.033402892921092,-0.005395525833404226,0.6651064523852034,0.9735751523791304,0.0,0.0,0.0,0.0
0.004074968661435998,0.20562191838692018,0.7326284788987608,-0.0021446452362706473,-0.523063033966798,0.005625116351408115,0.8522727386584015,0.06657513972771138,-0.8178480005313822,0.852892273675861,-0.017534752882257528,-0.8160536313119857,0.8978423314708115,-0.016231476332724166,0.6420579800767716,1.0380072647326488,-0.006241083280835369,0.6695704176372244,0.970332290160577,0.0,0.0,0.0,0.0
0.005132383725058757,0.2071353081307035,0.7323843021249741,-0.00255912106465899,-0.5230432380713943,0.006697925397919304,0.8522759880476106,0.07646049885502286,-0.8195354231339883,0.8495439416899715,-0.02408171686655343,-0.8162873033191013,0.901201061487405,-0.017228282561619193,0.6417690983764616,1.042869380935344,-0.007046503632585868,0.6742168757032583,0.9672308543175511,0.0,0.0,0.0,0.0
0.006290569557981526,0.20868724300781122,0.7321066533283721,-0.002998623841211371,-0.5230296676785254,0.007793241459088593,0.8522735713200958,0.08638360536312778,-0.8208811304218318,0.8462312999177892,-0.03079015609798786,-0.8168006981534496,0.9051864841741152,-0.01820562527292177,0.6416387234340899,1.0479666413423738,-0.007803599585608679,0.6791378209264112,0.9641758986385964,0.0,0.0,0.0,0.0
0.007560844180333441,0.2102924413266593,0.7318008810763161,-0.003477003962484789,-0.5230264949514837,0.008914057525216484,0.8522627151299342,0.09635576580818933,-0.821507469112407,0.8430354746239628,-0.037699506106494446,-0.8175275133946309,0.9097697870024137,-0.019160134259764105,0.6417295099949022,1.0532763114174668,-0.008503293425113448,0.6844353849429871,0.9610534985122882,0.0,0.0,0.0,0.0
0.008955144552647282,0.21196809697284938,0.7314754988581842,-0.004011586949721707,-0.5230408663266072,0.01006265717269319,0.8522387589479147,0.10638895995255307,-0.8209116073806548,0.8400802169165963,-0.04485055325114719,-0.8183606611270552,0.914884768946044,-0.020088947800560544,0.6421297610821365,1.0587570687630043,-0.009134990120569135,0.6902421406865494,0.9577112690258883,0.0,0.0,0.0,0.0
0.010487154033679292,0.21373672768582785,0.7311457571959022,-0.004627255615749865,-0.5230854009749655,0.011239700723331051,0.852193593568959,0.11649596717469787,-0.8186328154779712,0.8374059330155516,-0.05228620572889484,-0.8191194898509793,0.9204028928438774,-0.020990111866329823,0.6429790392441371,1.064329355755657,-0.009685637285591806,0.6967523157193576,0.9539161289919975,0.0,0.0,0.0,0.0
0.012172595066431898,0.21563564020424278,0.7308325347575855,-0.0053714541251074065,-0.5231693951639245,0.012439563096230791,0.8521209941753402,0.1266911978358791,-0.8146925704454437,0.8345575790725327,-0.060052728676234686,-0.8195633886998928,0.926127363326796,-0.02186547217839031,0.6444375271067728,1.0698963560438723,-0.010140159330047718,0.7042030043468799,0.9493048387929468,0.0,0.0,0.0,0.0
0.014022947240899192,0.21771226554859965,0.7305680963885416,-0.006306621723892724,-0.5233087142435783,0.013653130808350372,0.8520104507212894,0.1369901994913447,-0.8091359366942331,0.8308565498089965,-0.06819708552688025,-0.819301349511418,0.9316941095625965,-0.022719834156910514,0.64672290394846,1.0753012486384546,-0.01047943986866057,0.7129085714155817,0.9433698547014258,0.0,0.0,0.0,0.0
0.016036614632140293,0.220019389078071,0.7303929291273986,-0.007502703979231302,-0.5235275512036935,0.014870233636213752,0.8518459301512619,0.14740978892127493,-0.801862600200264,0.8253930091417614,-0.07676224870122547,-0.8177691274185096,0.9365112922108688,-0.023561018831439826,0.6500759957502162,1.0803504808049638,-0.010679518283719599,0.7232222893673173,0.9355131768262835,0.0,0.0,0.0,0.0
0.01818745858947575,0.2225935340665213,0.7303365847285509,-0.009003605758170621,-0.5238709025613261,0.01608996293350857,0.851598100999369,0.1579679586701227,-0.7925987229372918,0.8169599832639479,-0.08577745790763648,-0.8142617621610138,0.9397453459525497,-0.024395821943567677,0.6546814219536484,1.0849475419542516,-0.010709598502158375,0.7354251962824481,0.925345668640932,0.0,0.0,0.0,0.0
0.020396473166457516,0.2253781326647169,0.730322518745844,-0.01071283555936573,-0.5244439144475218,0.01735301738948103,0.8512007334000123,0.16868071250986172,-0.7808716953546859,0.8039979801414815,-0.09522948760424244,-0.8082341411434184,0.9404648718350304,-0.025212526003970222,0.6602947213533467,1.0897879518643705,-0.010531545445237978,0.7491940352113858,0.9140333547316751,0.0,0.0,0.0,0.0
0.0224923760509814,0.2280523071445691,0.7299258921991763,-0.012155604821024835,-0.5254696395444765,0.018797763720837916,0.850517808906744,0.17954479751886254,-0.7655968315765905,0.7839628399042692,-0.10498211192436459,-0.8003867938817552,0.9384336444965453,-0.02594288322067263,0.6652928556240366,1.0981029957756299,-0.010116703174089314,0.7621827952259748,0.9076129695733909,0.0,0.0,0.0,0.0
0.02431757540683874,0.23022775515670021,0.7290096482105594,-0.012781289043078958,-0.5269468355653684,0.02053237297050454,0.8495540552538384,0.1904813753147947,-0.7418678681818772,0.7490076261404207,-0.11472734147271846,-0.7923731420626171,0.935016925294307,-0.026520121278611645,0.6687910341947266,1.1101194449586609,-0.009544704205194342,0.7727287198045596,0.9093214978264016,0.0,0.0,0.0,0.0
0.02552345876894214,0.23143214327747355,0.7280404370860138,-0.011916269424417689,-0.5286547696514282,0.02262502632600816,0.8484516752482415,0.20123157197099925,-0.7031394194856215,0.6872252340548524,-0.12384687619393948,-0.7849510507846474,0.9310050256119198,-0.026901671780019173,0.6712031171422279,1.1207980868800114,-0.00910140882213172,0.7808786739728432,0.9166110651918538,0.0,0.0,0.0,0.0
0.02560191326978896,0.23155976250036414,0.7279701176032982,-0.011957540994527857,-0.5286041989508216,0.02271078501305425,0.8484803110909618,0.2019584592882384,-0.7030317389876102,0.6872273950532475,-0.12438550601682588,-0.785012843953068,0.9310362031493196,-0.02698821269404465,0.6710469379961944,1.121214197172518,-0.009020686030877594,0.7811581808323623,0.9163088308131617,0.0,0.0,0.0,0.0
0.02560191326978896,0.23155976250036414,0.7279701176032982,-0.011957540994527857,-0.5286041989508216,0.02271078501305425,0.8484803110909618,0.2019584592882384,-0.7030317389876102,0.6872273950532475,-0.12438550601682588,-0.785012843953068,0.9310362031493196,-0.02698821269404465,0.6710469379961944,1.121214197172518,-0.009020686030877594,0.7811581808323623,0.9163088308131617,0.0,0.0,0.0,0.0
0.025101187070485118,0.23194820055959006,0.7296950553454998,-0.010993786915615304,-0.5259532579785036,0.022143040073304594,0.8501540994710098,0.20245536715549906,-0.7091547122234144,0.6956243402983573,-0.12489081456760708,-0.793812192553216,0.939107157748391,-0.0414584698961817,0.672654212421373,1.1053438721531528,0.005131307887104725,0.7495410935333461,0.9531949620970662,0.0,0.0,0.0,0.0
0.024637001797356,0.23265606587092366,0.7318882945565264,-0.010354779234679234,-0.5238819121333138,0.02147773248178962,0.8514571202908486,0.20242138391677042,-0.7122466765737808,0.7026436854969501,-0.12541264224379414,-0.7967198868615089,0.9417724482614757,-0.055606595833513565,0.6780936893806009,1.086616459767215,0.01927982162786689,0.7280155448023832,0.9767282559624137,0.0,0.0,0.0,0.0
0.024204187859700917,0.23354982153804105,0.7339648000619541,-0.009932555295246701,-0.5223327174728676,0.020780631008508556,0.8524306669621903,0.20199222995342642,-0.7137989463188569,0.7084069090424536,-0.12603208779475011,-0.7963323208046554,0.9408567992964222,-0.06943298764872162,0.6847028084650023,1.0695824142847123,0.03342739130636367,0.714621898891625,0.9923378870202698,0.0,0.0,0.0,0.0
0.023743399499916155,0.2345251742223342,0.7357870369212737,-0.009606467052000828,-0.5211634291529689,0.020097594823960986,0.8531661518054904,0.20125168882505626,-0.7141861461030106,0.7124776417762523,-0.1267606591104962,-0.7940330177473245,0.9373897145276172,-0.08299717456927319,0.6911911560030224,1.0552333305830062,0.04758749711464317,0.7063356254843298,1.003457424156623,0.0,0.0,0.0,0.0
0.02320262676459463,0.23553523969705584,0.7373730425953775,-0.009312546975755384,-0.5202443762723248,0.019445225464679403,0.8537452480877841,0.20024960059995286,-0.7135755786922267,0.7146890642204549,-0.12759398870304953,-0.7904673740340535,0.9318588277793275,-0.09635991678166807,0.6970323096029721,1.0433264852822475,0.06177311149889113,0.7008405670980958,1.0118506267924912,0.0,0.0,0.0,0.0
0.0225464107388437,0.2365760268593503,0.7387893635070869,-0.009035800470428639,-0.5194703192202738,0.018819791269857698,0.8542334325087051,0.19901611816776724,-0.7121584758670287,0.715184867500877,-0.1285297588012345,-0.7858877542464162,0.9244391177381556,-0.10957412212992292,0.7020748956475383,1.0332341876587479,0.07599719873619162,0.696651432435161,1.0184321694277256,0.0,0.0,0.0,0.0
0.021731196516811494,0.2376570535349891,0.7401094941750637,-0.00877150330340278,-0.5187513603059727,0.01820858442695869,0.8546862198278778,0.1975685106934191,-0.7100039154777018,0.7139758301807092,-0.12956008059468974,-0.7803515985230758,0.9150538561424316,-0.12268894055854744,0.7062452564783737,1.0242678064379054,0.09027272755190266,0.6929295951198419,1.0235346288453666,0.0,0.0,0.0,0.0
0.020708404425172064,0.23880071896912322,0.741406416397922,-0.008525747295424248,-0.5180035091105835,0.017590786934388283,0.8551550972760469,0.1959177788744429,-0.7071619458386367,0.7110512082370766,-0.13067658796990295,-0.773807483781291,0.9034561992654563,-0.1357514616231595,0.7094845883378295,1.0157416684454599,0.10461270260728864,0.6893166942875366,1.0270827931526625,0.0,0.0,0.0,0.0
0.019411427058918043,0.24003779389648652,0.7427519181381177,-0.008305885566191265,-0.5171343611130088,0.016937586112534563,0.8556963147039269,0.19407195490625928,-0.7036382470580804,0.7062701108008573,-0.13186782370402736,-0.7661412211682622,0.889212014040845,-0.14881164429254848,0.7116622218591323,1.0069638454261869,0.11903025288346535,0.6857825145747501,1.0285708335823713,0.0,0.0,0.0,0.0
0.01775571592386182,0.24141088736613342,0.7442229716429883,-0.008120765206448893,-0.5160308540468815,0.016209198866370764,0.8563781131697716,0.19204071694739017,-0.6994535730450352,0.6994415224915923,-0.13312147398797813,-0.7572084323487631,0.8717227431088064,-0.16192508678502895,0.7125767340433821,0.9971504124606003,0.13353871341357382,0.682568898951627,1.0269741920608217,0.0,0.0,0.0,0.0
0.015645661959543637,0.24297688881279728,0.7459131874831287,-0.00797781867344618,-0.5145495080689815,0.015352158360524622,0.8572861070779441,0.18984054959916305,-0.6946974957033369,0.6904359112735947,-0.13442661229563624,-0.746871790416848,0.8502907738324279,-0.17515407054057752,0.7120239364338566,0.9852593365853073,0.1481516891423739,0.6801542142275173,1.020699085219789,0.0,0.0,0.0,0.0
0.012977100548172159,0.24479743378854402,0.7479404478102408,-0.007861732736798114,-0.5125119884058537,0.014300395229135883,0.8585249871698224,0.18749974979955092,-0.6894540509759456,0.6790942805822227,-0.13576909051179217,-0.7350586247805178,0.8241989453672164,-0.18856594657723805,0.7098775985094314,0.9698023777104832,0.16288083339633608,0.6774616286050004,1.0108894037874987,0.0,0.0,0.0,0.0
0.009644125102135163,0.24693382732928487,0.7504088929521477,-0.0077236081460839425,-0.5096984302964146,0.012975820633622959,0.8602206020024519,0.1850713578352062,-0.6839584340253093,0.6653419829424222,-0.13714159669124776,-0.7219693144166524,0.7928833590018217,-0.20223133573594465,0.7059970535600991,0.9490313874783319,0.17773841284038022,0.673096178507401,0.9980152853782364,0.0,0.0,0.0,0.0
0.005549431462022555,0.24942321374259718,0.7533051891033445,-0.007459188029066474,-0.5058704054010286,0.01130141257519298,0.8625032008793656,0.18264905853348515,-0.6787515010326854,0.6491707241953681,-0.13855633610821885,-0.7084220129130568,0.7562319617712786,-0.21620807767895048,0.6999380157835171,0.9217314663478939,0.19273745218770905,0.6650406851528942,0.981809338249918,0.0,0.0,0.0,0.0
0.0006285154130772951,0.2523010693844636,0.7560986310049335,-0.007017637758233095,-0.5008518997966307,0.0092199076023674,0.8654554411026624,0.18040200385092164,-0.6761094419525905,0.6317956080318089,-0.140127369327315,-0.696560638530557,0.7148687215985486,-0.2304972142568894,0.6892067069048818,0.8914058787237474,0.20790419886808698,0.6513028813773216,0.9606716263813296,0.0,0.0,0.0,0.0
-0.004666478579668984,0.2553631814275641,0.7581998905799011,-0.006126916512561727,-0.4946333204500019,0.006830216259143161,0.8690533282489097,0.17865523588367768,-0.6797331730646671,0.618197574975918,-0.14207253785159235,-0.6916722667967024,0.6761478673581066,-0.24494699007751927,0.6729014866449778,0.861680168008203,0.22325384742505194,0.6324522407863203,0.9341207448263564,0.0,0.0,0.0,0.0
-0.009895601730308245,0.25835373002210343,0.7591210400650035,-0.0044977968570913615,-0.4871896882632195,0.0042697768178139505,0.8732741531039067,0.17774362545536943,-0.6931512020950037,0.6134227359209103,-0.14460033713545978,-0.6998309507375996,0.6492949786875264,-0.25936298866094754,0.6500489135627106,0.8359601923036252,0.2387863648404076,0.6097632977704309,0.9009658857861541,0.0,0.0,0.0,0.0
-0.014807115763926348,0.26100332234083656,0.7586938443220809,-0.0017935135548174067,-0.4784192838593549,0.0016843389683661716,0.8781280858410522,0.17793204314168612,-0.7177851337789366,0.6195436763160295,-0.14786275215175304,-0.7261648516075171,0.642425215029419,-0.27351200782990714,0.6203713021660682,0.8148184796640265,0.2544879137786509,0.585889226076064,0.8587177943176209,0.0,0.0,0.0,0.0
-0.018522944201975703,0.26282644425785867,0.7572197633846285,0.002035650863931184,-0.46957535255352567,-0.00045283481060435685,0.8828899361417745,0.17901701275895487,-0.7488125292490808,0.6350177882134628,-0.15175661018763925,-0.7684903094218192,0.6598912166452907,-0.28664456811696265,0.5905149163389807,0.7977685918328214,0.2701118108990093,0.5647864983729366,0.817137426155076,0.0,0.0,0.0,0.0
-0.018497557852866112,0.2629345060473693,0.7568197299911725,0.002327008564276439,-0.4695773733246915,-0.0005584643814995163,0.8828880810216886,0.17916804950991352,-0.7492598964771456,0.6348504693762871,-0.15197339133362306,-0.7692623934150811,0.6590780309506025,-0.28729065526743763,0.5907857884882999,0.7974764690977519,0.27118828906959497,0.5648558407194654,0.8171871663503386,0.0,0.0,0.0,0.0
-0.018497557852866112,0.2629345060473693,0.7568197299911725,0.002327008564276439,-0.4695773733246915,-0.0005584643814995163,0.8828880810216886,0.17916804950991352,-0.7492598964771456,0.6348504693762871,-0.15197339133362306,-0.7692623934150811,0.6590780309506025,-0.28729065526743763,0.5907857884882999,0.7974764690977519,0.27118828906959497,0.5648558407194654,0.8171871663503386,0.0,0.0,0.0,0.0
-0.018946275341218816,0.2632039139310916,0.7586227214035723,0.0022390617100291254,-0.47251947596768723,-9.614167690543374e-05,0.881317378808939,0.1754895851972739,-0.7240229781288405,0.607848589120787,-0.15228053228001734,-0.7389623827138955,0.6261851980368234,-0.2890191074652791,0.6066869034225301,0.785889482076646,0.27546270274843404,0.5806124244226253,0.8076594142634246,0.0,0.0,0.0,0.0
-0.019478232553199488,0.26356307064391227,0.7602563531714229,0.0020403732270466647,-0.47431881242955426,0.00033356433124824314,0.8803507197630661,0.1723357731826204,-0.7057173021222604,0.5871855198126709,-0.15305521024185184,-0.7143393380599555,0.597381053710647,-0.28923829947289215,0.6188055375354891,0.7728489104634302,0.27796876569409745,0.5933995723078471,0.7948919410488323,0.0,0.0,0.0,0.0
-0.019771705585971917,0.2641768199296384,0.7615055661395116,0.0015076185625069625,-0.4749772718749938,0.0006671141168399711,0.8799965188835768,0.169782409954805,-0.6992682049341922,0.5810655992395737,-0.15444745661236006,-0.6980118559651474,0.5773320879580393,-0.28813999509660826,0.6266120698871485,0.7610287830914778,0.27892794728080944,0.6027346738869457,0.7810606251447708,0.0,0.0,0.0,0.0
-0.019860348972770416,0.2650220731273889,0.7615343457818115,0.0006695500811057783,-0.47434614381241,0.0009082518364693456,0.8803376980634119,0.16804208923483097,-0.7088955542627037,0.5932464575969287,-0.15663648941722616,-0.6946525210500556,0.5705813841410151,-0.28588866572201654,0.6244636815309488,0.7598235225350992,0.27854033920220234,0.6029296181411263,0.7756578659441458,0.0,0.0,0.0,0.0
-0.0194855370289418,0.2662503377970152,0.7603620762716591,-0.000704026244054973,-0.4722254398598697,0.0009767478718595173,0.8814769902043927,0.16726739300862775,-0.7383345128894264,0.6295910203429035,-0.15977860213975698,-0.7068828486576308,0.581684826901053,-0.2824018603437107,0.6126100978311143,0.7687910918127527,0.27672588347147553,0.5944179493760032,0.7774984948619428,0.0,0.0,0.0,0.0
-0.01823048669833512,0.26803048490478687,0.7580293034043921,-0.002891526262900332,-0.46835264036830576,0.0007417316945273696,0.8835365828136381,0.1678227761861028,-0.7906609935157931,0.6944787603554572,-0.16404819777092483,-0.7375395985048357,0.6154294193010751,-0.2778235388339592,0.5920805315688453,0.7865066403450468,0.2734764088919108,0.5783631856614213,0.7843085401491773,0.0,0.0,0.0,0.0
-0.012919040020333776,0.27019722111444117,0.7584433260047383,0.001700796523169948,-0.48100135313627873,-0.001747803998597064,0.8767164597253996,0.162465067372131,-0.7363786781824332,0.6718631862845986,-0.16286246044437389,-0.6962572819676036,0.5950456405550619,-0.2621373432142014,0.6245805440985802,0.8463060859581547,0.2621399617091189,0.6097663419426325,0.831211873684801,0.0,0.0,0.0,0.0
-0.006889640361539761,0.27278801969146743,0.7576175271112581,0.00476057479578277,-0.49139763988276564,-0.004291833113444414,0.8709117501870025,0.15878593749247644,-0.7079889588312835,0.678545038878683,-0.16332650434566373,-0.672644645191112,0.5942093961862444,-0.24631850974005087,0.6500616602791935,0.9009716350864037,0.25021489209554204,0.6404996978961659,0.8682024666613234,0.0,0.0,0.0,0.0
-0.0006745791710019771,0.2755177505419573,0.7555965787857117,0.006552846396164787,-0.49930115554869653,-0.006614583344667043,0.866378475932442,0.15640941167203662,-0.7038447279536695,0.7107818412137674,-0.16507636709747733,-0.6670952806884763,0.6122665534347906,-0.23073957110141297,0.6684183638875888,0.9415641214201539,0.23807065353956325,0.66503579919795,0.9007212276360596,0.0,0.0,0.0,0.0
