zhuoxili-jackie/tripod-support-walk/examples/trajectory_walking_sideways_v0.15.csv
root_pos_x,root_pos_y,root_pos_z,root_rot_x,root_rot_y,root_rot_z,root_rot_w,FL_hip_joint,FL_thigh_joint,FL_calf_joint,FR_hip_joint,FR_thigh_joint,FR_calf_joint,RL_hip_joint,RL_thigh_joint,RL_calf_joint,RR_hip_joint,RR_thigh_joint,RR_calf_joint,FL_foot_joint,FR_foot_joint,RL_foot_joint,RR_foot_joint
0.0,0.0,0.72963,0.0,-0.5231245161092812,0.0,0.852256264656019,0.0,-0.81,0.872,0.0,-0.81,0.872,0.0,0.65,1.0,0.0,0.65,1.0,0.0,0.0,0.0,0.0
-0.00017685085805342615,-0.00013011804854298756,0.7296519229420204,0.0001918357708296526,-0.5235861756029057,-7.40082480508745e-05,0.8519726958297076,0.00040609429692542,-0.8054514705575118,0.86654748969564,0.0004060942969254196,-0.8068981725004106,0.8683033687873638,-0.0007863923122184803,0.6512001120537163,1.0005767272715125,-0.0007863923122184822,0.6503915037953805,1.0012411394989038,0.0,0.0,0.0,0.0
-0.0006177745268294685,-0.0005611635319185197,0.7296454186546821,-6.906930817256686e-05,-0.5233974563158522,0.0001308111154562091,0.852088657851974,0.0011078971783842926,-0.8039083726175267,0.8620718720042962,0.0011081829233039859,-0.8060192510960025,0.8658926225879261,0.005094257004011805,0.6482713350518436,0.9988884254324448,0.0050888169290177485,0.6496596207282339,1.0030509075793952,0.0,0.0,0.0,0.0
-0.0011281145497368938,-0.0011645131589132908,0.7296011195290577,-0.0006464020937690188,-0.5227558296931628,0.0005322823574643505,0.8524820475304087,0.0019155299100238944,-0.8052319384043468,0.8596479052358497,0.001916634911061732,-0.8072755666855588,0.8654523644308343,0.015192066710102245,0.6428001022943107,0.9957759685672449,0.015320039426503895,0.6483619399104187,1.005160708509812,0.0,0.0,0.0,0.0
-0.0011366226768898177,-0.0016232478327170912,0.7295366925831867,-0.0009223135622439606,-0.5225056899230083,0.000721016659197862,0.8526349942799387,0.002738988108328529,-0.8065065614782694,0.8599903467466211,0.002742443714868304,-0.8093519165082027,0.8680508392599,0.02088493965386832,0.6408496596057659,0.9939460397853117,0.021285385009867663,0.6484201064330711,1.0069972410690637,0.0,0.0,0.0,0.0
-0.0005983536982695023,-0.001841888328158745,0.7294480460259579,-0.0009780084622712428,-0.522606537832221,0.0007477448699206441,0.8525731000870697,0.0032580443537254472,-0.8086828375072821,0.8643817651726737,0.003263030509401724,-0.8123122595355357,0.8738459436740188,0.022805891632659978,0.6420401912960748,0.9936731780384254,0.023370904174375574,0.6501129971001837,1.0083077076526759,0.0,0.0,0.0,0.0
0.0004717582367062054,-0.001841219621505198,0.7292918865012513,-0.0010910032653111503,-0.5226568592949767,0.0008276202944798975,0.8525420413026176,0.003119431520680884,-0.814938500028878,0.8756357678940558,0.003125002851945797,-0.8179271522477864,0.8844872035929519,0.024097246031246994,0.6441652975474903,0.9941536450166997,0.024768560202261182,0.6530739344504017,1.0089883379147202,0.0,0.0,0.0,0.0
0.002112599340405076,-0.001560891339212348,0.7290493495238619,-0.0012880917825219486,-0.5226381903503915,0.0009918027083482943,0.8525530359656315,0.002096843200734405,-0.8257578097628422,0.8943430371061469,0.0021022164080282332,-0.8262462701105452,0.9000285422482132,0.02469367443203632,0.6471445776787068,0.9956137103725885,0.02542049711272626,0.6573818614005594,1.0089256228468486,0.0,0.0,0.0,0.0
0.004462031110275648,-0.0008790173221283929,0.7288504909941586,-0.0012315194973489443,-0.5230990414061465,0.0009851303117115705,0.8522704416779731,0.0003452109753538453,-0.837324414128661,0.9177945230490249,0.00035062456032062704,-0.834741040615817,0.9185577774726867,0.020217620292759322,0.6546309240611022,0.9985838300508543,0.020753890085763952,0.6643770801214326,1.0071563750225818,0.0,0.0,0.0,0.0
0.007712729634563386,0.00029306103689656724,0.7289337991957543,-0.00014988760482646088,-0.5251826356930298,0.00024336404830263905,0.8509894931632048,-0.0013159124185984114,-0.8410969739898596,0.9394201903712764,-0.0013156325343011517,-0.8385542906802191,0.9363944624627666,0.001337818095335775,0.6742190814457415,1.003903500433466,0.0011790063476993344,0.6761642020225515,1.0024394810813912,0.0,0.0,0.0,0.0
0.01160059702497762,0.0013952089869707332,0.729050887255571,0.0016592883152367107,-0.528157493011365,-0.0010384404621612228,0.849144175614273,-0.0018267656625334608,-0.8402730723144317,0.9597365488744541,-0.0018272711773987904,-0.8420238724549299,0.9567850708801346,-0.02853998208364757,0.7023893041755347,1.0095706303574667,-0.028448962982678676,0.6895007547800076,0.9971123599799603,0.0,0.0,0.0,0.0
0.014137336534088683,0.00145096262055137,0.7286219055019024,-0.0001783401428142406,-0.525394365195221,0.00015013820577888348,0.8508588053692712,-0.006944040224018942,-0.8475021606951131,0.9349449625626257,-0.004056405386165211,-0.8669917473377364,0.9918683300449778,-0.009246472164138382,0.6952109771113717,1.0031710880243105,-0.009118810033895669,0.6940179955438874,0.9934843233861435,0.0,0.0,0.0,0.0
0.016617154501064157,0.0016847157344933418,0.7281776944372126,-0.001036955696851904,-0.5241909035973867,0.0007184318727734907,0.8515998503782642,-0.015033637121176491,-0.8559074883080562,0.918166296765801,-0.00577093044949693,-0.8838868532009223,1.0179448755588056,-0.002761224666397194,0.6955304725939896,1.0015227701706693,-0.0018537589257300868,0.6989964296847917,0.9917177941955213,0.0,0.0,0.0,0.0
0.01907723153313303,0.002273999958496269,0.7277898937314708,-0.0004864427498030724,-0.5253556227114322,0.00031573062758682643,0.8508825614461171,-0.023601855417534026,-0.8625846974153395,0.9126571465413096,-0.00661907962048619,-0.8895511712027256,1.0327372209288899,-0.01512448393087686,0.7077544175299545,1.006374255988886,-0.013600977396242886,0.7054666535223502,0.991457925317547,0.0,0.0,0.0,0.0
0.02108254826432431,0.002743276114644703,0.7273867437526621,0.00010943504921556536,-0.5266930670506021,-0.0001354894980810921,0.8500555174736505,-0.031473447822534244,-0.8717744320037709,0.9112636841613625,-0.007025739084142886,-0.8926581143777659,1.043244694231106,-0.028207200434314555,0.7196115945314271,1.011588929444008,-0.025769050165186033,0.7106990325655019,0.9922990508949133,0.0,0.0,0.0,0.0
0.022394029008322807,0.002924821755341777,0.7270901880274871,0.0003775158106997567,-0.5275442668994723,-0.00035645745496513747,0.8495273844211225,-0.03864582776435569,-0.882518475996362,0.9101517274855937,-0.00709122475883662,-0.8948840001461316,1.0504110885205675,-0.0352537800411174,0.7270838712793956,1.0144666330297252,-0.03190281421149719,0.7143485580186228,0.9933954295784012,0.0,0.0,0.0,0.0
0.023043622953306593,0.0028721575827629136,0.7271023009198205,0.0007572465360720627,-0.5285143249440402,-0.0005700600552833671,0.8489238540282411,-0.04511241745483051,-0.8903297665870689,0.9081760845137717,-0.0066079676316576205,-0.8932281478034999,1.0519143775118,-0.040904519088413124,0.7340339433765741,1.0149530243761324,-0.03679794738469262,0.7177416425912083,0.9936472496632521,0.0,0.0,0.0,0.0
0.022524440534847905,0.002072782751503206,0.7272131617106965,-0.0008651318257365235,-0.5258820370856857,0.0004430370032043861,0.8505569577257877,-0.05198459418872138,-0.9061351123846093,0.8968956290531724,-0.006293348764197087,-0.9030817933009705,1.0598568664242558,-0.010923464270830779,0.7171222992718833,1.0063461002736722,-0.009412103406984115,0.7164249771451296,0.99327495594301,0.0,0.0,0.0,0.0
0.0217489938535392,0.0010818090329816432,0.7270953667042933,-0.0024755104352658995,-0.5232787718204981,0.0014220378569496995,0.8521567793654224,-0.058599831081839374,-0.9235904612724741,0.885907317336839,-0.005409290402056665,-0.912826814815933,1.0663458799367818,0.015763604921881974,0.7000374615709599,0.9991522580195786,0.0176030714870094,0.712713447519033,0.9956154285633109,0.0,0.0,0.0,0.0
0.021844532271728372,0.0009993365193437854,0.72723556739871,-0.001281509282124681,-0.5255008127294898,0.000599955691375818,0.8507919214518752,-0.0643813239816968,-0.9304038935329251,0.8879282905429252,-0.0036177102479368864,-0.90361329859475,1.0587045779041926,0.0001354742820155047,0.712389821868329,1.0021799113712175,0.002814272191535603,0.715279471635572,0.9970733701430605,0.0,0.0,0.0,0.0
0.022144879320517803,0.0013072398633685533,0.7272463218220323,0.0014851630199632872,-0.5300407527100945,-0.0013965361667885791,0.847969719060802,-0.06863001202735573,-0.931585606883697,0.8954149257666059,-0.0006109962552629019,-0.885865993513645,1.043258100386103,-0.0398827894177429,0.7384892194388866,1.0129733138230366,-0.036117310493407426,0.7176125272399201,1.0005564785561034,0.0,0.0,0.0,0.0
0.021215517654499954,0.00037697853017611637,0.7273881556715563,0.0007189564509306927,-0.5289363905812426,-0.0009315970678195224,0.8486606565332294,-0.07529214256535123,-0.9453241672516085,0.8877234386890007,0.0009806855435782866,-0.8875473382164815,1.0419989177408193,-0.024737374193971796,0.7299017745682269,1.0070869761885364,-0.02015913613125997,0.7155716919268849,1.0023086973917261,0.0,0.0,0.0,0.0
0.019645383416327978,-0.0010910351333770516,0.7276994944012706,-0.0012259152788621748,-0.5255416547507874,0.0002496808021165214,0.8507669504118212,-0.0822975843325152,-0.9617228257382274,0.8727246045187793,0.0028053738794233565,-0.897151587230041,1.0460920272737604,0.011837212631152214,0.7074903698083325,0.9941129798199217,0.015595920547432238,0.7109931984370803,1.0026591341597153,0.0,0.0,0.0,0.0
0.018587231765561773,-0.0021870492699140056,0.7278912285195206,-0.0018236672638813813,-0.5246460430134515,0.0006645225779449535,0.8513182496562502,-0.08862651515515736,-0.9720333637719183,0.863861723648633,0.004900657332806719,-0.8976995483630469,1.0435363521433751,0.023882875306648465,0.7008370966904419,0.9872302242209611,0.029992120373733066,0.7086459845638654,1.0044762900272826,0.0,0.0,0.0,0.0
0.018348766262516445,-0.002834920274895368,0.7279950331193976,-0.0014181001924228047,-0.5252940655436317,0.0003657675727909844,0.8509195026032543,-0.09416928702534358,-0.9802613910521313,0.8598215869875867,0.007163045765421702,-0.8950656228831184,1.0410005918296736,0.021825144095425835,0.704285459048983,0.9854914916829214,0.029071463398825118,0.7089234507138887,1.006457651166994,0.0,0.0,0.0,0.0
0.018448395865298416,-0.0032723862668596836,0.7279101442000376,-0.0014154441985195147,-0.5253902660669858,0.00031190930282392243,0.8508601339540885,-0.10139379784291563,-0.9923896786035743,0.8556042904104572,0.008453434400008477,-0.8962491754330012,1.0429471912203083,0.023718512680511294,0.7047228433977213,0.9846189451518997,0.03169428749755366,0.709221684580095,1.0085019474745978,0.0,0.0,0.0,0.0
0.01927992291641432,-0.003249932187801197,0.7278173046092897,-0.00039546725049531957,-0.5270690882700608,-0.00043152305336571593,0.8498222364610584,-0.10794117491148238,-0.9998867661631813,0.8568885476847856,0.009793285438904826,-0.8933260717758112,1.0438080800519904,0.01101360858569994,0.7155673697576651,0.9883934432454847,0.018817048127142803,0.7123232706028618,1.0101651022303755,0.0,0.0,0.0,0.0
0.020266127475973776,-0.002950974715186753,0.7277092784705628,0.0016581024321563054,-0.5304189162286307,-0.001877290163671045,0.8477319740252874,-0.11308740184333914,-0.9994819319721298,0.8647580174567154,0.01164394339200817,-0.8835848689653107,1.0386718238124621,-0.017502596229012297,0.7361468484434786,0.9968168880123934,-0.00981527732136286,0.7162508766333797,1.0126656439098485,0.0,0.0,0.0,0.0
0.02039686517826531,-0.0033359531752871364,0.7278541981250699,0.0020923728086552533,-0.5313270481564007,-0.0020275908913928485,0.8471617783803826,-0.11944903567425687,-0.9967654785142764,0.8672931003274474,0.012732655230902489,-0.8801926361363412,1.0369650257788092,-0.02133220822175981,0.7418296188544342,0.9954063892494595,-0.01238280065416359,0.7187063874670316,1.0133683070303243,0.0,0.0,0.0,0.0
0.019128901801500127,-0.004722501212485261,0.7280757972982963,-0.0007574482862045697,-0.5263617937695543,-0.00015817810560763042,0.8502603503112901,-0.12876841725969856,-1.0017486732222918,0.8564058532389643,0.013174111881276701,-0.8980462426105051,1.0498696874735174,0.029765706934697884,0.7106058184206077,0.9797447982890247,0.03661879061706603,0.7144017927270718,1.0123840728154918,0.0,0.0,0.0,0.0
0.017935230248189958,-0.005919986794308571,0.7275230875337374,-0.003093975013541811,-0.5227836978827453,0.0015739706902031252,0.8524583011285212,-0.13880074452346708,-1.0029076872716067,0.8501847923282562,0.013042969789220774,-0.9112665518205589,1.057279616731288,0.06160888600862941,0.6865644428211598,0.972588078972823,0.07357404536735518,0.7071470742039624,1.018091963677245,0.0,0.0,0.0,0.0
0.01846556260065465,-0.006130108625277645,0.7275106146157284,-0.0021972366186511307,-0.5244940685645615,0.0010563602032237893,0.8514106108658477,-0.1451480923286084,-0.9927244419364052,0.8627153444884237,0.014414076805870438,-0.9065105399938279,1.0555965694505252,0.05067433127674888,0.6968897286910879,0.9744051455403119,0.06400873407953803,0.710451503051495,1.0199549468181766,0.0,0.0,0.0,0.0
0.01998585698612578,-0.004845056252014945,0.727997285169077,0.003223491677892581,-0.5323695225238599,-0.003045035686580804,0.8465004597439905,-0.14444535680643872,-0.9637495438738095,0.8907772185496837,0.01881054752422423,-0.8782370310388921,1.0352868529175274,-0.021778222337512282,0.7465226668963715,0.992631595711577,-0.014574782659478036,0.7182819584237246,1.018623683968467,0.0,0.0,0.0,0.0
0.01993551420266565,-0.005691213468828465,0.7283215371886199,0.0025688302147448185,-0.5319442248579604,-0.0023272621518794917,0.846772299146865,-0.15268325179321493,-0.956250878002696,0.896602087030445,0.019288437705477206,-0.8789892060112513,1.0374781432364284,-0.015976577936489794,0.747204031733845,0.983667442784342,-0.0027052983554009397,0.7207429234203783,1.017116217811031,0.0,0.0,0.0,0.0
0.018559160689020852,-0.007595439974406846,0.7284815136924504,-0.0006708297621565844,-0.5262089523137661,-0.00011100335164437266,0.8503550294850585,-0.16086581250407012,-0.9576812278551211,0.8850460844546796,0.02040996079434547,-0.9009672195478904,1.0541820300340028,0.039764952643630266,0.7130853523830389,0.9643787373620785,0.053963508040263806,0.7149747622151136,1.0170087443493891,0.0,0.0,0.0,0.0
0.01711606949661268,-0.009229478265587567,0.7278291879059849,-0.002972750650454679,-0.5226530271617398,0.0017683957885482116,0.8525384734594533,-0.17004230170267579,-0.9565883362476886,0.8785836291760739,0.020990205167512082,-0.9140281822704432,1.0606291595056871,0.07112442782475785,0.6891512572711262,0.9559953361586262,0.09281724832203118,0.7063441673804778,1.024732538258343,0.0,0.0,0.0,0.0
0.01661236827469527,-0.009585315381524696,0.7274214085883595,-0.0015466539567534122,-0.5253561745101298,0.0010238221700541942,0.8508803967384513,-0.17763985245048805,-0.9445665607288309,0.8933354575810009,0.02292771009311718,-0.9015597138109331,1.0467657814483844,0.055421765169869505,0.6987463747843179,0.9643324628450134,0.0785728902045692,0.7059292924141731,1.0330830583652058,0.0,0.0,0.0,0.0
0.016780197994392183,-0.007982698983278198,0.727583214832424,0.00659986741231763,-0.5358229816885813,-0.006376407599630399,0.844280472041502,-0.16968253691832413,-0.9048670886152774,0.9225484300618775,0.03359373256815853,-0.8604436564731786,1.0063132534725256,-0.05891814234890598,0.7629424904039973,0.9978761303957675,-0.04801731847373994,0.7010541527270886,1.0367480094315438,0.0,0.0,0.0,0.0
0.013699132164049627,-0.010742550624814468,0.728761804832666,0.0022966515383869017,-0.5288933619989676,-0.003664715730900933,0.848677268980236,-0.18048234843329902,-0.9130433197825943,0.9130398671499504,0.03603345928222357,-0.8773628783738139,1.012897568641227,0.007578042292312473,0.7239677896056246,0.9651865633408078,0.024719235465207795,0.694037533049179,1.0305774334598878,0.0,0.0,0.0,0.0
0.010409817349818442,-0.013792708137871444,0.7296535895484452,-0.0008285161052396661,-0.5243327329810245,-0.0012120399397332613,0.8515122017005379,-0.18824021904171676,-0.9100059927137369,0.9033252250385431,0.03907440094674209,-0.8835282422718649,1.0086719596795013,0.050312449726862774,0.6994944202704487,0.9354150259652577,0.07870760116166353,0.6862061950724824,1.0283916325912787,0.0,0.0,0.0,0.0
0.007686060539848815,-0.01621029602901354,0.7302607486741034,-0.0016158205052599773,-0.5238078077774216,-0.0004239348727306557,0.8518348372276929,-0.1953850932717776,-0.9002104030469963,0.9076868310707848,0.04334862738060785,-0.8742918913721599,0.9914073012849746,0.06261770461701295,0.695327818464711,0.9184660331687626,0.09869704604195136,0.6813241575108749,1.0304039344795677,0.0,0.0,0.0,0.0
0.005842584471005156,-0.018020762721166872,0.7304182554889079,-0.0008405980519673266,-0.5254520429943474,-0.001043389781845967,0.8508221642891919,-0.20373133519729125,-0.8919233102970325,0.9237671159800137,0.04884648984532233,-0.8606074856739431,0.9721260343322542,0.05937842365033169,0.7003247061878252,0.9144571957265503,0.09872341116994432,0.6783570586478392,1.0372581487833517,0.0,0.0,0.0,0.0
0.004730039302192951,-0.01913954558837947,0.7304165970584079,0.0005111488185453562,-0.5281438696171386,-0.0021339996612002184,0.8491520698662673,-0.2163023956439077,-0.8884842988062133,0.9509902962080116,0.053373436483001475,-0.8444246261317216,0.9525599305969039,0.04921981500663318,0.7096459341400285,0.9176592438120867,0.08992528367740572,0.6783549191752368,1.0449910778420117,0.0,0.0,0.0,0.0
0.004477903797836861,-0.01948036242146882,0.7305718757551297,0.0024483670518785734,-0.532011844122797,-0.0032239611226840283,0.8467272342888938,-0.23268419134788068,-0.8897073286172245,0.9944897911684677,0.055371373839483276,-0.8239460313479585,0.932331564286959,0.03176635815542249,0.7258067805560314,0.9243192489938903,0.07328089897546644,0.6841507598670001,1.0505315878858685,0.0,0.0,0.0,0.0
0.005037099539355118,-0.01922238314265361,0.7308463611680478,0.004675431615476748,-0.5363687428091948,-0.003524273286501156,0.8439634420840129,-0.2502315922862688,-0.8970275045768451,1.053474328937744,0.05345832292722115,-0.8023304574867934,0.9146345006557313,0.01240376275307525,0.7455352829516555,0.9311492648652568,0.055543710348128154,0.6955851602216648,1.0536405223199063,0.0,0.0,0.0,0.0
0.005059045502500618,-0.019263913424677863,0.7307813619021212,0.004560775356387335,-0.53634731507531,-0.0034415955282930508,0.8439780283632237,-0.25024208760127453,-0.8970670023079538,1.0534620641250658,0.05337401002779408,-0.8023898774547408,0.9145122345222441,0.012020312730182049,0.7457591458979134,0.9309429712696553,0.05590564159269452,0.695430772545117,1.0538622931386314,0.0,0.0,0.0,0.0
0.005059045502500618,-0.019263913424677863,0.7307813619021212,0.004560775356387335,-0.53634731507531,-0.0034415955282930508,0.8439780283632237,-0.25024208760127453,-0.8970670023079538,1.0534620641250658,0.05337401002779408,-0.8023898774547408,0.9145122345222441,0.012020312730182049,0.7457591458979134,0.9309429712696553,0.05590564159269452,0.695430772545117,1.0538622931386314,0.0,0.0,0.0,0.0
0.002464721576582278,-0.02178431084987424,0.7313364622467219,-0.003502267902253245,-0.5228834374756114,0.00326813804697206,0.8523907344680227,-0.26313797278264517,-0.9713301645318446,1.1042009796821743,0.0484220011143825,-0.8545164899831188,0.9577677178160019,0.05572635394962619,0.6327873028587326,0.9500786095019553,0.18169816099772998,0.6856227410092166,1.0444758472706894,0.0,0.0,0.0,0.0
0.0009274996977994907,-0.02472494259764938,0.7306226026320175,-0.01128283318513678,-0.5126720262234692,0.0104882212754315,0.8584463223858068,-0.2784192130395508,-1.0332469110390388,1.142780296562208,0.041569017909995065,-0.8947337050415796,0.9919298494746378,0.13445607267525153,0.5332715844068032,0.9650091095711054,0.2764804203753687,0.6700794421942423,1.0413151106176664,0.0,0.0,0.0,0.0
0.004373314150101091,-0.022726655629296724,0.7339809476576566,-0.0007326998371644157,-0.526251005075315,0.00048167424486730137,0.8503288251012612,-0.25224842898757766,-0.9484893012463955,1.0985207801480805,0.056636048319990584,-0.8449420918655395,0.9621402897715601,0.0526135798160923,0.6318719072611407,1.0019174959833976,0.15016970641724264,0.7018654724050735,1.023545176681351,0.0,0.0,0.0,0.0
0.007999442519216911,-0.021746052441624496,0.7353608693326281,0.007158700767265312,-0.5380554461058032,-0.007176522693220793,0.8428484961374989,-0.23520682481362437,-0.8801639513407823,1.0597486472557136,0.06761283412985182,-0.8044521816162908,0.9393928319223616,0.01444999522211407,0.7034846720804082,1.0426393832189045,0.023677878202829516,0.716029575837286,1.0141700629713086,0.0,0.0,0.0,0.0
0.010922294979593098,-0.021752100074962397,0.73598857217187,0.013776213343654871,-0.5475879832065506,-0.013757189728714167,0.8365215815054987,-0.22054242361328402,-0.8238940454274577,1.024174786327293,0.0784406713277729,-0.7737902601746238,0.9223656391316909,-0.009000178173859008,0.7624828223328097,1.0636205186274872,-0.10337416594763146,0.714024118111167,1.0064825876078307,0.0,0.0,0.0,0.0
0.008394853503296558,-0.024692474587206522,0.7395567673947574,0.006619238940972881,-0.5322371141203608,-0.007594552936319274,0.8465353877980352,-0.23100330832131638,-0.8986907204167366,1.0805932119359218,0.07600786626077125,-0.830774051015994,0.9753825941147497,-0.004493141733242313,0.6627730081879315,1.0723120525849252,0.02563791206879218,0.7144739821717772,0.9678180566494785,0.0,0.0,0.0,0.0
0.006175407034508064,-0.02855247405134188,0.7424618258213056,-1.3976965732220278e-06,-0.5233682837986563,-0.0014276250856810873,0.8521053933629984,-0.23784702738404034,-0.9360490582779334,1.1007540695634113,0.07403895182767786,-0.8530638297876882,0.9953721175807914,0.03776079772417001,0.5880249821053839,1.0713614153926136,0.11532396502310621,0.7181813562836854,0.9354366558919414,0.0,0.0,0.0,0.0
0.004794228789341376,-0.032349505094726255,0.7441673197106258,-0.004185498622617066,-0.5185663055030498,0.0027376090967173206,0.8550227914474743,-0.23950564701250404,-0.9542869393455388,1.107497703692476,0.07533540822777157,-0.8648691888403907,1.0073422002671644,0.06207755596718695,0.5487634809777434,1.0769366360521426,0.1696522617353456,0.7195633070832145,0.9161594761262952,0.0,0.0,0.0,0.0
0.006105179170422665,-0.03364866760223667,0.747738138615006,0.0012277709484623293,-0.5259227345333999,-0.0018470937822412977,0.8505294575286435,-0.22264104421118375,-0.8970798654166814,1.0704294934093432,0.08606463930531388,-0.8305708704675568,0.9873793864579403,0.009267589282534017,0.6082596363644435,1.0968436595327664,0.1122302574595635,0.7437579406314196,0.8912684865974916,0.0,0.0,0.0,0.0
0.007212320501489842,-0.03562717279606714,0.7496305482194768,0.004608121956434405,-0.5304791319965343,-0.005015695655299847,0.847670630920602,-0.20994575089233938,-0.8614057892239839,1.0455280174604165,0.09591754291846988,-0.8127514631725382,0.9795637898242584,-0.01447877351280977,0.6386612636593222,1.1189548649541188,0.07749294045425925,0.7560660141078814,0.8803866021752442,0.0,0.0,0.0,0.0
0.007450501462784989,-0.038181855462760074,0.7507552710924027,0.005131011255132723,-0.5309145268856008,-0.005509229585875682,0.8473919319032418,-0.20289457320233428,-0.8520507265318132,1.0373352531212832,0.1027938514095717,-0.8120427675385471,0.9839225575420331,-0.014544129452993593,0.6379980475827465,1.1336540317081945,0.08292266464227033,0.7614361315821284,0.8748365361718461,0.0,0.0,0.0,0.0
0.006401342594464732,-0.04105144180948697,0.7517199695371984,0.0028130002210937123,-0.5273289064295578,-0.0035308356466777387,0.8496492480272074,-0.20051871868578985,-0.8652995164928052,1.0425552890589946,0.10680295652826452,-0.8243204206945534,0.9951184730745174,-0.0070617634075917585,0.6090054333346432,1.1429236422497147,0.12642677831250013,0.7620105804373832,0.868118373969802,0.0,0.0,0.0,0.0
0.0050850599812489634,-0.043721536342497085,0.7518582867764135,0.00048463067948658045,-0.5239459157694789,-0.001403799236489115,0.8517502402871925,-0.19887773349257587,-0.879368287404139,1.0462274722163074,0.11002240218824445,-0.8366707859271445,1.0036915070597956,-0.002207862041605298,0.5819262398059601,1.1500853467021444,0.16733302388279797,0.7572530951186941,0.8691529499668469,0.0,0.0,0.0,0.0
0.004512212605063151,-0.04559444197326006,0.7518170382357754,-0.0005079270422717057,-0.5225080637006773,-0.0003862901845942224,0.8526341045007418,-0.19668961828513448,-0.8848573935111894,1.0464483055290383,0.11297362144524435,-0.8432147620826622,1.0090247412898397,-0.0005900255680331133,0.5684074139121663,1.1607912023244022,0.18808723717606535,0.7543368848183909,0.8718620888645341,0.0,0.0,0.0,0.0
0.004936537815808148,-0.04631897327044129,0.7521252978001449,0.0005614461152720633,-0.5237693756268732,-0.0013197032088698862,0.8518588993003099,-0.19262703413298976,-0.8758238741499115,1.0405615707557858,0.11631550553606224,-0.8399774421822093,1.0088878587305155,-0.004650831548519672,0.572910784919425,1.1773167313163828,0.18101294630941914,0.7574553270706064,0.8721577238544271,0.0,0.0,0.0,0.0
0.006233814666323839,-0.046086784227228526,0.752585891999604,0.00400169496845421,-0.5277215659344513,-0.004582414681974022,0.8493956302929468,-0.18552817321053708,-0.8514947022302617,1.0268553177822404,0.12123683235224846,-0.8279532014725596,1.0033840809259797,-0.02436969595113392,0.6014941894704684,1.19498878718528,0.14228370645636504,0.7638257652233992,0.8725599723730552,0.0,0.0,0.0,0.0
0.006975920058934686,-0.046123061464489995,0.752422997114383,0.006357281041048611,-0.5305263313293946,-0.006700501755953612,0.8476181333714828,-0.18078852253050104,-0.8347403738428074,1.0154384492958584,0.12465297506562675,-0.8200146670535303,0.9987076963402365,-0.03748623802943896,0.6216222271718869,1.2059388631001335,0.11485446381151024,0.7647429178470309,0.8778286247014795,0.0,0.0,0.0,0.0
0.00633352488774019,-0.04715611244031122,0.7528293887379307,0.0038379961232747908,-0.5273964249691714,-0.004397303357371665,0.8495992846269811,-0.18350448244544798,-0.8519470672583564,1.0270466692663254,0.12358237072721132,-0.8305515174092546,1.0076959820008282,-0.03662221108813761,0.600487056947908,1.2059116421555975,0.14987717386392507,0.7650339619799372,0.8718848901485692,0.0,0.0,0.0,0.0
0.005091661286629823,-0.04838850818550779,0.7528718935877524,0.001521288712663064,-0.5246874229389697,-0.002187665355026621,0.8512907893373508,-0.18533331553167995,-0.8644738103965149,1.030669182612456,0.12286993873203168,-0.8375793904971931,1.0101216884755868,-0.04113650973794757,0.5831501550149066,1.1959433079820818,0.1825872635371873,0.761588893054565,0.8711270329333254,0.0,0.0,0.0,0.0
0.0043944415724527335,-0.049233611343182326,0.752485745674248,0.0005296992131973091,-0.5236190972002897,-0.0011666409191564194,0.851951524099149,-0.1855728705350374,-0.8695261701712467,1.0302115330394133,0.12313036965500262,-0.8410430449050015,1.0105435014814785,-0.05078509940032898,0.5804339461231998,1.1842091212368293,0.19778563775840735,0.7574141961957739,0.8757427673075759,0.0,0.0,0.0,0.0
0.00442612325194148,-0.04938147216693725,0.7521183068713908,0.0012049613809477938,-0.5245156474406721,-0.0017511562434998583,0.8513981542790505,-0.1838453914346647,-0.8642837718825801,1.025123312882456,0.12438819995443387,-0.8386899642899246,1.0079617439228499,-0.06472852287444307,0.5919572805806563,1.1746476902581553,0.19147605441759402,0.7558748760690376,0.8814020883037852,0.0,0.0,0.0,0.0
0.004982818060420009,-0.04910613612939977,0.7516166118828347,0.0028328380341218844,-0.5263384897423626,-0.0032655460930478483,0.8502641386375855,-0.18118935535314407,-0.8553398715639824,1.0196904427317874,0.12629157613608502,-0.8351269868266183,1.0059059339907421,-0.08132202924945224,0.6120177049851724,1.1654293941794729,0.1724240228818927,0.7547906605942043,0.8885632802930964,0.0,0.0,0.0,0.0
0.005196226356009926,-0.049210256351448316,0.7510384602254708,0.0031394318701647873,-0.5266565472242096,-0.003538799000225338,0.8500649987707071,-0.1805105118216876,-0.8557739288374182,1.0202884626044508,0.12712063366195966,-0.8369823177878977,1.007864464200656,-0.09215541616900066,0.6211931623643068,1.1545504396831239,0.1697309211273776,0.7522284722118856,0.89496765201222,0.0,0.0,0.0,0.0
0.0049422840830606095,-0.04971495243378434,0.7505477339791831,0.0028005289803674153,-0.526148828649617,-0.0032151972266492974,0.8503818140428803,-0.18006345663613363,-0.8592351438041255,1.0210023081085675,0.12793927667988444,-0.8405143472982839,1.0097947387744395,-0.10184420559452745,0.6244335029546321,1.141532616469487,0.17670846510783156,0.7486814388349343,0.900640914950856,0.0,0.0,0.0,0.0
0.004331485238606476,-0.05050251720734492,0.7501776352486577,0.002630653847469614,-0.5257714761730682,-0.0030413719468484904,0.8506163556855749,-0.1783706918260913,-0.8591723000556994,1.0167652849127988,0.12960759202763827,-0.8419053563399447,1.0083906637315885,-0.11230767409509873,0.6282574919802794,1.1276357740314693,0.18342864206710238,0.7446160746567757,0.9064075966981674,0.0,0.0,0.0,0.0
0.0033922740444152755,-0.051587719480926025,0.7499297367344302,0.0027247543865063684,-0.5256112547776015,-0.003111775423656346,0.8507148179139478,-0.17518539026041743,-0.8549787377872476,1.0071750356493874,0.13232875256494067,-0.8409641851979687,1.0035974524280824,-0.12292572715803486,0.6334534274898402,1.113552468162944,0.1888069958833492,0.7400496165174706,0.9123458564729503,0.0,0.0,0.0,0.0
0.0020452936733445478,-0.05307057305674255,0.7498208090247771,0.002850250919195074,-0.5253853450530109,-0.0032114797850963783,0.850853572402923,-0.17076917700385444,-0.8481015702723484,0.9929649858051178,0.13599149187192572,-0.838558608398059,0.9959866486693303,-0.1328426583675635,0.6381283385788341,1.099186588297287,0.19591641680462424,0.7347927898199176,0.9180845339624035,0.0,0.0,0.0,0.0
0.00020223641425568895,-0.05501962301982772,0.7498705494322053,0.0028319604410319285,-0.5249112021528086,-0.0031701774234470658,0.8511463797900204,-0.16534427335508473,-0.8392501961367161,0.974155331988716,0.14044574322148062,-0.8349612149990486,0.9854712699448193,-0.14203465113075459,0.6408473794375187,1.0843802710873043,0.20692403940690707,0.7287139595208643,0.9232737871659865,0.0,0.0,0.0,0.0
-0.0021533541563280123,-0.05741065554641007,0.7500807699055312,0.0026210773307256334,-0.5241832334995741,-0.0029310582702970324,0.8515964282269938,-0.15911515177497954,-0.8283423863086389,0.95043916311445,0.14548789938095533,-0.8298999971197011,0.9716353702313526,-0.15143452231273136,0.6414218433429398,1.069431511012534,0.2219447566634251,0.7218549172809651,0.9276649091560433,0.0,0.0,0.0,0.0
-0.004919122900146303,-0.06011336099075178,0.7504175775353197,0.0021988160797902826,-0.5232483696851759,-0.002462177724128257,0.8521738358518804,-0.15254314738789965,-0.8157452231836667,0.9225240246730453,0.15071577074018902,-0.8233883058100803,0.9547367408634307,-0.163247436913225,0.6406862800705954,1.0552856248736384,0.24014132147289338,0.714450308915365,0.9310470067181089,0.0,0.0,0.0,0.0
-0.007809926719747888,-0.0629018288058588,0.7507448984294535,0.001393916363342539,-0.5219303906752556,-0.001572722502365031,0.8529854927433863,-0.14679813858305463,-0.8049757553580136,0.8949443119440348,0.15533367399885556,-0.8176780741437865,0.9378968930114505,-0.18117431941721684,0.6401404669492468,1.043297668662513,0.2618684019339651,0.7065549728571056,0.9334639615907713,0.0,0.0,0.0,0.0
-0.010388877469233511,-0.06544712187307457,0.7508391500932621,5.931020216691181e-05,-0.5200377947859988,-5.618454735926308e-05,0.8541432463701344,-0.14339010606023975,-0.8012267902620203,0.8749090111100066,0.15833774871269454,-0.8162820021269012,0.9261684780139786,-0.20965785289919778,0.6415898152015351,1.0352086289504954,0.2868817683035524,0.6980849399604886,0.9355205245615484,0.0,0.0,0.0,0.0
-0.012538292461766196,-0.06748673209861263,0.7502698049153372,-0.0013432831640760162,-0.5180803124770037,0.001605281420235904,0.8553294151878755,-0.14191872620521703,-0.8032306662911352,0.8619451735204108,0.15999673619744498,-0.8188948788582713,0.9190432521022177,-0.2495278387917152,0.6449228279723652,1.0338557315376689,0.3091041726264121,0.6871754661280159,0.9418757418513668,0.0,0.0,0.0,0.0
-0.013968688526412639,-0.06869141230654507,0.7491619027784092,-0.0022368099990056544,-0.5165714181331771,0.0028315486856130188,0.8562365029481911,-0.14193026415387744,-0.8084421271465313,0.8559733036989924,0.16053921998921028,-0.8241092523074934,0.9164570275364788,-0.294446353387611,0.6473863731392421,1.0420461908128915,0.32215094786427917,0.6754724991578677,0.9518895808967822,0.0,0.0,0.0,0.0
-0.01394293742547134,-0.06872773544981756,0.7491234118154187,-0.0022921161995889425,-0.5165899341762251,0.002863107019390167,0.856225080647213,-0.1419392614627154,-0.8084253157177548,0.855850651184803,0.16056992210702214,-0.8241266654100103,0.9165162501495795,-0.2944452570961751,0.6473497700783537,1.0420326528712063,0.32214498082487925,0.6754145761755718,0.9518205539769836,0.0,0.0,0.0,0.0
-0.01394293742547134,-0.06872773544981756,0.7491234118154187,-0.0022921161995889425,-0.5165899341762251,0.002863107019390167,0.856225080647213,-0.1419392614627154,-0.8084253157177548,0.855850651184803,0.16056992210702214,-0.8241266654100103,0.9165162501495795,-0.2944452570961751,0.6473497700783537,1.0420326528712063,0.32214498082487925,0.6754145761755718,0.9518205539769836,0.0,0.0,0.0,0.0
-0.014447847915888413,-0.06894624560324149,0.7495777637877639,-0.001167947567851222,-0.5178494820207092,0.001794314261999702,0.8554690703384261,-0.13857566771018062,-0.793385766739372,0.8393251029432856,0.1625117599162558,-0.814387726021812,0.9050569556427173,-0.30947374228320884,0.6554813629207078,1.041049484136472,0.31276872445069726,0.677195793730421,0.9507858063893536,0.0,0.0,0.0,0.0
-0.015275040836407636,-0.06963757759052273,0.7497240692122821,-0.0008158145824686973,-0.5184297013628926,0.0013808983525272023,0.8551187474912996,-0.1355388691797141,-0.7824264916347887,0.8236992329850823,0.1645545531036163,-0.8073710441580235,0.8945941565933007,-0.3099454198905914,0.6563780952472066,1.0400313732442739,0.31247236162622893,0.6762396575209161,0.9524060527566681,0.0,0.0,0.0,0.0
-0.01604411460796104,-0.07053210176581086,0.7497256521160621,-0.0008013491595782855,-0.5186320117633881,0.0013028081459781375,0.8549961970118464,-0.13285298869711545,-0.7749618430276569,0.8111734511243387,0.16661406548870875,-0.8031046287537533,0.887096774624408,-0.3035078253004636,0.6542605444921571,1.0388195768597306,0.31668517605248525,0.6745362853633396,0.9550709595781625,0.0,0.0,0.0,0.0
-0.016445768425064632,-0.07135265054284343,0.7496896466860817,-0.0008203230933921184,-0.5187176300186039,0.0012877583483102628,0.8549442607891706,-0.13064984938944854,-0.7707029091172103,0.8037709129737391,0.16852701685561644,-0.8014970416415964,0.8839832866327385,-0.29735919765438984,0.6526687709326283,1.03763253882229,0.32140230159885236,0.6735494211320106,0.9575725634239661,0.0,0.0,0.0,0.0
-0.016445989033332015,-0.07200553948144199,0.7496560867545963,-0.0008173790604596548,-0.5187920079868364,0.0012742181414441564,0.8548991523616022,-0.1289951353881197,-0.7691644695047897,0.8014569168282459,0.17015944546146608,-0.8019640428920556,0.8848656654368838,-0.29324207915635786,0.6524856545717552,1.0366016047477584,0.3256843948978294,0.6737310252269897,0.9595633735835267,0.0,0.0,0.0,0.0
-0.01602397766171461,-0.07246205444743789,0.7496325548441176,-0.0007960914254353354,-0.5188749473330727,0.001259136145508821,0.8548488578951898,-0.12794384737650222,-0.7704004843851225,0.804468601737333,0.17145409785657822,-0.8044350154711424,0.8897719882193753,-0.2913900218555855,0.6538798120512538,1.0357808928041095,0.3294693418661031,0.6752435286078065,0.960961129624286,0.0,0.0,0.0,0.0
-0.015157153972554223,-0.07273235177657243,0.7496223735795605,-0.0007572297606461923,-0.5189670289451936,0.0012357290140591964,0.8547930290103517,-0.12745682435272068,-0.7744808476170526,0.8129718367768984,0.1724655746060225,-0.8090040830482581,0.8988915929478503,-0.29180925798677226,0.6569552371055113,1.0351083509478465,0.33284971906272165,0.6781795871985101,0.9617434328442535,0.0,0.0,0.0,0.0
-0.01382072270948585,-0.07285969244929974,0.7496317721653014,-0.000683341408111522,-0.519067425199878,0.001174811936094343,0.8547322159353792,-0.12736859263989897,-0.7813246786086124,0.8269188329684458,0.17337810919693938,-0.8158137249512866,0.9124601827974901,-0.2945950791805818,0.6619093422492032,1.034401879139282,0.3358811658596727,0.6826082199302275,0.9619014485071753,0.0,0.0,0.0,0.0
-0.011988630851362063,-0.07291966226379333,0.7496824026823714,-0.0004941124353033549,-0.5192180370908495,0.000971153144331153,0.8546411192272443,-0.12725790918559593,-0.7902743325763975,0.8456686343055463,0.17459887750046307,-0.8248108605273119,0.9305135569862332,-0.3007224454696112,0.6694119913479339,1.0333753780760229,0.3381117327942907,0.6886395422655756,0.9614164816355847,0.0,0.0,0.0,0.0
-0.009620115325662823,-0.07298236185884906,0.7498473246690972,0.0001954130161616915,-0.519714821092255,6.567052182560332e-05,0.8543397814910535,-0.12561909203881846,-0.7981768204867221,0.8664655060514048,0.1774270214204774,-0.8348567463880471,0.9519848567781805,-0.31734909558784713,0.6827470060662354,1.0320596348484383,0.3351601039590613,0.6964016106603513,0.9602434210585794,0.0,0.0,0.0,0.0
-0.007218750498830883,-0.07281340808228452,0.7496816394252329,0.00013200438879333687,-0.5192577377985237,0.00030711401668656276,0.8546176279437382,-0.12747648092928962,-0.8153045893557743,0.8954151609550198,0.15452552419975218,-0.8273207540588599,0.9226239220253194,-0.3206912232537818,0.6883310243097,1.0313114495147948,0.3395248098339717,0.7023255985051751,0.959434024626786,0.0,0.0,0.0,0.0
-0.004897179849055771,-0.07288359681110018,0.74948881032922,0.000300595085535731,-0.5190167128112287,0.00013189183470574363,0.8547640282965615,-0.12771193670414083,-0.829176608282014,0.9201797253181193,0.1298780302598859,-0.8271063508283151,0.9024483324300779,-0.327372731776839,0.6954137323457812,1.0309183972668094,0.34216618411142685,0.7077540284494704,0.9597907345709686,0.0,0.0,0.0,0.0
-0.0029829560331196677,-0.0733218782444255,0.749312848625336,0.000496843822222642,-0.5188858295573071,-0.00016963892285396995,0.8548433893137838,-0.12653647789297948,-0.839130592197872,0.938565746460049,0.10826644732819195,-0.8313834404594153,0.8890684013068396,-0.33201157830826206,0.7017199711540428,1.029989278426947,0.345925839539299,0.7122639014384177,0.9611239120178587,0.0,0.0,0.0,0.0
-0.0015415672046605229,-0.07409238602758145,0.7491665614914883,0.0006522731554121975,-0.5187866224716396,-0.00046884447845587914,0.8549033834703511,-0.12432614065779085,-0.8457616405293998,0.9510530523685911,0.090323574051319,-0.8379662981570687,0.8794762513748199,-0.33278450926220865,0.7063223552874447,1.0283492174120432,0.3514346092487561,0.7157129023862452,0.9631573608048719,0.0,0.0,0.0,0.0
-0.0005196417672216553,-0.07508165710337762,0.7490421508614676,0.0007620697496736509,-0.5186954211333489,-0.0007256059386424194,0.8549584509442645,-0.12149662985488388,-0.8498554471714976,0.9588491283976293,0.075167388704329,-0.845591821379927,0.8718287714644967,-0.33008366461385213,0.7091864035003577,1.026266149157529,0.3582553200274748,0.7181694959386935,0.9656820992945482,0.0,0.0,0.0,0.0
0.00018707792710297307,-0.07616810853859168,0.7489349186200004,0.0008455649251614812,-0.5186188194195192,-0.0009461802360351864,0.8550046256639916,-0.1183890822519743,-0.8521219862777641,0.9632930557390249,0.061661261418214604,-0.8535918148604039,0.8651245599337652,-0.3253035145344725,0.7108068590449281,1.0240240610572535,0.36559915803871745,0.7198737756675203,0.9684462587341284,0.0,0.0,0.0,0.0
0.0006843340586073928,-0.07725732048030454,0.7488397052775176,0.0009180601130324669,-0.5185644106116456,-0.0011452225072167488,0.855037307769687,-0.11525144575815999,-0.8531906980031679,0.965595591348574,0.048883982705860814,-0.8616507875175243,0.8588256899103938,-0.3197571818676572,0.7117160008411261,1.021841343862261,0.3728311116409062,0.7210795602242679,0.9712503747790999,0.0,0.0,0.0,0.0
0.00105567276843923,-0.07828818053938567,0.7487464370775002,0.0009911719604888858,-0.5185396557061682,-0.0013403375700444587,0.8550519554585391,-0.11222821166405082,-0.8535345579860506,0.9666619457848614,0.03626426923858593,-0.8696274372225287,0.8526397972832264,-0.31443844424827594,0.7123230363932642,1.0199216635285053,0.379523701560258,0.721964815210593,0.9740284585252481,0.0,0.0,0.0,0.0
0.0013855501142141442,-0.07922335052302565,0.748679600737783,0.0011494346006826358,-0.5186286813520392,-0.0016391547070470339,0.8549972414288773,-0.10917882601018318,-0.8528398789914392,0.9667359754828385,0.023883238303770808,-0.8773579568010563,0.8465232419883706,-0.311603747608707,0.7137839856966341,1.018305188617132,0.3846150911451414,0.7229169524430191,0.9765972305984725,0.0,0.0,0.0,0.0
0.001673702086166032,-0.08010700388676015,0.7486294752131216,0.0013502805038948956,-0.5187806546337711,-0.001992079706969227,0.8549039950419917,-0.1061151713293641,-0.8514668321002772,0.9660689960104376,0.011830354128066529,-0.8848841510180487,0.840216031933568,-0.31002146787132856,0.715645848737406,1.0168463767907423,0.38884680804112104,0.7238735988474089,0.9790426661913684,0.0,0.0,0.0,0.0
0.0018436281743352094,-0.08107273620536823,0.7485127516185304,0.0012477806334426913,-0.5186091884715269,-0.001970592782483494,0.8550082277033834,-0.10371810897646501,-0.8522624103195388,0.9664875788818013,-0.0009152498282772939,-0.8928455961582541,0.8331698917958211,-0.30120520809454365,0.7141174932192327,1.0149946877506353,0.396733979524636,0.724040919645404,0.9816655540944431,0.0,0.0,0.0,0.0
0.0020126030063415366,-0.08200860666905262,0.7483510480984213,0.000971949730131322,-0.5182559056956709,-0.0017247580440155016,0.855223302263784,-0.10193828687254303,-0.8547754841642002,0.9683615539547232,-0.014391177978060932,-0.9010573219381621,0.825591695615362,-0.28909957039414647,0.7109406464683592,1.0130937206884296,0.4063814308995757,0.7239270487227752,0.9842394401012938,0.0,0.0,0.0,0.0
0.0024623234868855863,-0.08265611087278583,0.7481397194139895,0.000712093951923971,-0.5179370214474366,-0.0015251616276834045,0.8554170962859994,-0.10084676480897221,-0.8590519449124457,0.9735040459460697,-0.029315765893035348,-0.9092460881688215,0.8180332381225907,-0.2807440648412261,0.7090922669291901,1.0122144248300338,0.41442048580776414,0.7244253209464057,0.9865602047636398,0.0,0.0,0.0,0.0
0.003481004425904323,-0.08268999329432024,0.7481050590848495,0.0012340005029162512,-0.5185556006755035,-0.0024223459522084065,0.8550395888442326,-0.09875019142022447,-0.8588784482819076,0.9786922508370186,-0.043305912837845434,-0.9156879082128885,0.8118943833670339,-0.2953516653296821,0.7177820485759623,1.0134620344997798,0.41072229820948225,0.7280213351184003,0.987636222864036,0.0,0.0,0.0,0.0
0.004709680687097277,-0.0823154532531176,0.7481949485757173,0.0025981206991682743,-0.5202222397808386,-0.004499155827088895,0.8540151219990685,-0.09485874073312593,-0.8514486427292328,0.9793015907454531,-0.05414045936170286,-0.9192482128805678,0.8071206146872871,-0.33385001744366766,0.7366283889783299,1.0172624868795266,0.39495177050082214,0.7334245944773563,0.9887518311676581,0.0,0.0,0.0,0.0
0.005399978266863446,-0.08237810711291327,0.7481491981705768,0.004045649449020485,-0.5220536430492522,-0.006668981320558385,0.8528769847918782,-0.0895832544169042,-0.8398072185410901,0.9726892724264123,-0.0601043083716169,-0.9195645458077515,0.8010397760111709,-0.37501975551728045,0.755235072012429,1.0216885019084077,0.37940350928440597,0.7365714001864396,0.9924075773660362,0.0,0.0,0.0,0.0
0.004903099364487148,-0.08458793192311564,0.7478653649602821,0.0005747646038784131,-0.5164570565906237,-0.0012511151253740056,0.8563119834816879,-0.09720152555085405,-0.8779811974941695,1.0007181215585859,-0.09032798525598759,-0.9272183491871774,0.7887216524887,-0.24900280588583873,0.704671407092013,1.0053394815867809,0.43549014510817863,0.7291997825531988,0.9889707919508932,0.0,0.0,0.0,0.0
0.005414923391950967,-0.08535499942861709,0.7482343934112603,0.0004990697429014334,-0.5168656667277859,-0.001544703477703457,0.8560649784792034,-0.09460278547281936,-0.8751200943969247,1.0001138433070265,-0.09900925809099267,-0.9225823750223491,0.7872723804187329,-0.26188697910819403,0.7137239142388082,0.9981313081272192,0.4386941402825921,0.733028751133329,0.9862350657477318,0.0,0.0,0.0,0.0
0.006550387473580249,-0.08513022163213858,0.7485037431558627,0.002670663982972845,-0.51964471374135,-0.004955217719090918,0.8543639065713842,-0.0870092991522889,-0.8572637340396893,0.9912777951821846,-0.10215171522181,-0.9129970107799273,0.7908056832884394,-0.32333535822046566,0.742664264219486,1.0021413809242659,0.4129826653085238,0.7396172155853789,0.9880027906742768,0.0,0.0,0.0,0.0
0.007323650154158728,-0.08536283876048463,0.7482524875654096,0.004261767091740055,-0.5218006116998476,-0.00759224535139642,0.8530230458677214,-0.08024154876806745,-0.8436287231395628,0.9828378861125185,-0.1055981080466058,-0.900325739261715,0.7929485777660386,-0.37578324813157815,0.7648121080605891,1.008196822196611,0.39517282460401787,0.7421003431161486,0.9941570733656473,0.0,0.0,0.0,0.0
0.00693423868439427,-0.08792351782729738,0.7476764419950044,0.00107469317208984,-0.5158047160254148,-0.002007983239745658,0.8567031621068268,-0.0876413613545588,-0.8847922073791341,1.0129692352838706,-0.13633818330600023,-0.8964901611294723,0.78758856547733,-0.24937175139512147,0.7124285610991675,0.9921013087124789,0.45090704200493487,0.7318595260829965,0.9929510066734111,0.0,0.0,0.0,0.0
0.007859227864225802,-0.08892733271416446,0.7480903795406821,0.001580860495265315,-0.5168064485600076,-0.003241217277744557,0.856094673571472,-0.08222767575410217,-0.8779840670058174,1.0108828225016657,-0.14127108539915045,-0.8824402841126806,0.7914378701021672,-0.2766728461078658,0.7290139632641955,0.9849961017634669,0.44887214930943886,0.7373331478590959,0.9909858087979436,0.0,0.0,0.0,0.0
0.00937993908398333,-0.08928816838257818,0.7480221289781952,0.0037922387297150907,-0.5195049252920119,-0.0069349912866356325,0.8544308968071159,-0.07260078456505614,-0.8618765887711292,1.0044641954559332,-0.1438169525245131,-0.8678594446941237,0.7961816876937038,-0.3406899297785051,0.7588291067990791,0.9899274368175803,0.4261796398978728,0.7433508523663757,0.9964026115923738,0.0,0.0,0.0,0.0
0.010434148660474606,-0.0904889517678949,0.7475873810385196,0.005706031109375582,-0.5217702126985391,-0.010190516275425204,0.8530061193963033,-0.061974550924423,-0.8463745436627732,0.994625447596765,-0.14484070532588422,-0.8534479475099703,0.7984384141312405,-0.39779392713563705,0.7840237111185373,0.9952494189346361,0.4106783547166548,0.7458056443234684,1.0058936529543756,0.0,0.0,0.0,0.0
0.010150293842193271,-0.09456888824808625,0.747148381818622,0.0034999891188377116,-0.5160967204861855,-0.005665162314171724,0.8565044256251839,-0.0629273477547442,-0.880205386458108,1.0171056910552643,-0.16949322727590002,-0.849803811041862,0.7948087539407234,-0.2714205291608762,0.7356582490822852,0.9750694518869142,0.46541121041982003,0.7354855590606205,1.0066719193418419,0.0,0.0,0.0,0.0
0.010794312738989741,-0.09724705796189936,0.7476993746207335,0.005579352799333538,-0.5182496969538513,-0.00911686987645,0.8551625606358348,-0.04781094520402364,-0.8567094866700701,0.9978184899478526,-0.16091309505784057,-0.8325768460279667,0.7954362750235594,-0.31900717213414687,0.763630582626477,0.9657831181044709,0.4545518372167129,0.7406798207442138,1.0087937450638294,0.0,0.0,0.0,0.0
0.01095837579444588,-0.10198446178536409,0.747016304486594,0.004018311749614517,-0.5142493965294083,-0.006255155542150246,0.8576084679904729,-0.042843760416854074,-0.8790412605786925,1.0108918553871857,-0.1746444717649857,-0.8269967637949037,0.7936616309969833,-0.2391664781689797,0.7349880965229687,0.9475275311004867,0.5022486366851185,0.7324061307391054,1.0144075592297286,0.0,0.0,0.0,0.0
0.011994833771718264,-0.10592520974877398,0.7465593081449001,0.005032385053253417,-0.5141461780864816,-0.0077797466868307396,0.857652527659791,-0.029268694353128503,-0.8743835877038888,1.0065157264884315,-0.17477867473662503,-0.8155221545054303,0.7928677881881744,-0.24098549767715693,0.7425069471193143,0.9383737862132551,0.5148100146582627,0.731814529746828,1.0229516071643758,0.0,0.0,0.0,0.0
0.013434823733991439,-0.11014399715019443,0.7456904740777806,0.0060707905744437135,-0.5134965048284967,-0.009240544577153969,0.8580204527670867,-0.015135260461368717,-0.875032858185202,1.0078681302816805,-0.17881647851302665,-0.8045750750594254,0.7902301363165424,-0.23404457323951594,0.7457465185301541,0.9314871482410221,0.5309260783854429,0.7298575824619988,1.0345326512064672,0.0,0.0,0.0,0.0
0.015289629200735105,-0.11454278983841872,0.7445654496746782,0.007038572899135354,-0.5122378435128117,-0.010472972986899656,0.8587509342071795,-0.0009698628446368311,-0.8813058263406371,1.0154727751296462,-0.18701662896029128,-0.7926335580072676,0.7838219648468416,-0.2197634719516291,0.7457099359812778,0.9247540946611328,0.5501033110900319,0.7270568092017122,1.046926386332783,0.0,0.0,0.0,0.0
0.01762446838624885,-0.11849402298700516,0.7431833739488023,0.008308527910557232,-0.5110913042714228,-0.012148871698890689,0.8594004025938895,0.013279127039276077,-0.889114678247924,1.0269047458811382,-0.19786670093231107,-0.7784289183159336,0.7723110364066135,-0.21415777508334172,0.7479683032669379,0.9218054093638087,0.5643557695134743,0.7246114108063173,1.060596962016205,0.0,0.0,0.0,0.0
0.02035827833989153,-0.12173461000995278,0.7415738884336346,0.009822211886560654,-0.5099554059551862,-0.014233419349739039,0.8600269867070168,0.02688521915032206,-0.8992172680850131,1.042808883212464,-0.212581885043643,-0.760804207530681,0.7517369647181592,-0.2185893495418055,0.752103068895287,0.9230409151743763,0.5711165471444688,0.7217914530590982,1.0747581910217148,0.0,0.0,0.0,0.0
0.02304446259035277,-0.12404876723588255,0.7397118503272186,0.011337792010483926,-0.5085063692742704,-0.0163336739037943,0.860828634500869,0.03839983558295937,-0.9130137238782926,1.0623729415456373,-0.2318704304480202,-0.7387838941120053,0.7155871697239102,-0.22931025941381417,0.7543438486608117,0.9288933534074133,0.5685701077736723,0.7157124302498361,1.0890093247345456,0.0,0.0,0.0,0.0
0.024730766643324492,-0.12517818479039486,0.7379340842222455,0.012495006691851265,-0.5066597723482152,-0.017852098267328167,0.8618706703904472,0.04563391601603705,-0.9281875977951665,1.079672484487578,-0.2515185354660855,-0.7116035629754519,0.6577945605090806,-0.23950842149764975,0.7507506380962312,0.9374497012145806,0.5554962612248697,0.7041016277904438,1.100705413270667,0.0,0.0,0.0,0.0
0.024838328512073227,-0.12529059743081303,0.7378796694368974,0.012649476492396198,-0.5065699968748419,-0.017834178167942007,0.8619215573935745,0.04597843299625581,-0.9283254214484602,1.0797152904191794,-0.25153708725356966,-0.7115474280969559,0.6578180783484004,-0.23965870685492288,0.7507483229373096,0.9372008684504078,0.5556380454568677,0.7040100311958548,1.1009443463490691,0.0,0.0,0.0,0.0
0.024838328512073227,-0.12529059743081303,0.7378796694368974,0.012649476492396198,-0.5065699968748419,-0.017834178167942007,0.8619215573935745,0.04597843299625581,-0.9283254214484602,1.0797152904191794,-0.25153708725356966,-0.7115474280969559,0.6578180783484004,-0.23965870685492288,0.7507483229373096,0.9372008684504078,0.5556380454568677,0.7040100311958548,1.1009443463490691,0.0,0.0,0.0,0.0
0.02711397111073703,-0.12569968872807352,0.7389659743777369,0.009364763647442117,-0.5088121652133177,-0.012815726304089694,0.8607312233746732,0.03494046782951329,-0.9350247247245723,1.0950377579136945,-0.26145809806344944,-0.6888938496263739,0.6506462216308418,-0.18437175630135644,0.754519573117164,0.9241924710728483,0.4854791356987934,0.6957886753754218,1.0792595161870664,0.0,0.0,0.0,0.0
0.030516310970280788,-0.12545031294538275,0.7389882427706448,0.007844301549422101,-0.5132921854372717,-0.011400098633795085,0.8581023464910063,0.030968038862323383,-0.9300287366728603,1.1061747099889558,-0.2639544489570333,-0.6730425586970099,0.650819777494946,-0.17836246809691342,0.7750230481162401,0.928694557524041,0.38534784656171367,0.699188838670886,1.0789070009993438,0.0,0.0,0.0,0.0
0.03513224685522462,-0.12443889174448403,0.7386545226846025,0.008913626095111152,-0.5206941935847822,-0.01506170741233696,0.8535638517455827,0.03719127900117923,-0.9047250038959649,1.1077771688923195,-0.2562258107052574,-0.6643692679275756,0.6597498295129367,-0.2493963301757271,0.8283513269149315,0.9464863558334198,0.27918199105002667,0.7192403583845297,1.0898658005020354,0.0,0.0,0.0,0.0
0.03986161882270332,-0.12396329624853561,0.7373084881533948,0.009297478389519422,-0.5270363317145682,-0.017587606698239864,0.8496098740239993,0.04203206768979677,-0.89029925741398,1.116159484836359,-0.25088012916757024,-0.6632179553275733,0.6776434927894144,-0.3419618640515698,0.8862924541558269,0.9647543701424944,0.20307799930730666,0.7423984065930076,1.1007625435554862,0.0,0.0,0.0,0.0
0.04200117503861255,-0.12683694437925397,0.7360427092044501,0.007120385772462357,-0.5240732154935076,-0.01205892780092643,0.8515580703446118,0.03683356086228549,-0.9247258436939165,1.1477071575983548,-0.259839520478007,-0.6907794048637368,0.7269652736495946,-0.2149637738982736,0.8473796810649703,0.9525902131058015,0.1923698078430779,0.7239182134099034,1.113213441013383,0.0,0.0,0.0,0.0
0.04341501937992563,-0.13004605945076472,0.7345482326831717,0.003968849518960883,-0.5208220169647317,-0.005842860105655713,0.8536360675745082,0.030955940246301987,-0.9600037585475121,1.1745898851739554,-0.2689329958293226,-0.7110235919986636,0.7635996665944891,-0.0890747220089218,0.8027300250250448,0.941058592529958,0.198442101002288,0.7080948781558799,1.122897936391912,0.0,0.0,0.0,0.0
0.04597992848763414,-0.1304237372718866,0.7344714789370435,0.006503335334914497,-0.527163848606262,-0.012118422966582264,0.8496523566594509,0.04719952791465963,-0.9214980365753658,1.154910490251971,-0.25187610215904643,-0.7115936239798145,0.773864617101949,-0.20515690262516437,0.8681390175612916,0.9501268981746576,0.1151226506197897,0.7176368285148688,1.1416822073397521,0.0,0.0,0.0,0.0
0.046351551800349965,-0.1334812636791027,0.7343154412062763,0.0036340546154987295,-0.5234378955538097,-0.005741389150433611,0.8520367360600561,0.040014657109879614,-0.9509397464581067,1.1739187110150289,-0.2612652481529056,-0.723843427183258,0.7985434461471366,-0.07827973418485712,0.822821159877517,0.9274883784121165,0.13843450238372618,0.7012587425579702,1.1545970382196689,0.0,0.0,0.0,0.0
0.0467832746285527,-0.13641501634869319,0.7332516659633058,-0.0008880061981911699,-0.5186138090042627,0.002679920478647857,0.8550039453600844,0.027746648488809304,-0.9954238902832663,1.2035719986560838,-0.2757972119352345,-0.7348613180910544,0.8209019144103337,0.04750009237654393,0.7693261027579802,0.9078980542420272,0.1781655751116089,0.6884682399135854,1.1612656205484575,0.0,0.0,0.0,0.0
0.04926986962783914,-0.135937104879132,0.7337799459542168,0.001993912498995204,-0.5239115583374994,-0.003958536903480518,0.8517611363163402,0.042759835299514964,-0.961286935090073,1.189901262772898,-0.26039470672849235,-0.7376065215980241,0.8319166751455902,-0.05807596481895691,0.829787907108203,0.913578447109406,0.11331158014392412,0.6962018468007061,1.1865842271783384,0.0,0.0,0.0,0.0
0.05210324733177414,-0.13526046492817087,0.7333892031826739,0.0038276808611869186,-0.5291141133256375,-0.009472076509142306,0.8484891771292397,0.05418226749974013,-0.9353450336044751,1.1825688844150866,-0.2481686265075113,-0.7384890853258511,0.8410839040052887,-0.18387481147913898,0.8936627329597294,0.925116424383352,0.058524774677524594,0.7111961412659977,1.2070725552421666,0.0,0.0,0.0,0.0
0.05411499599122607,-0.13498512179915167,0.7330718484839549,0.0037361761047881702,-0.5333886369611426,-0.01198101803530936,0.8457771917920736,0.05949586560987058,-0.9178895973414434,1.177090687252699,-0.2413561139465982,-0.7298690913364072,0.8392812594592631,-0.30906065032941865,0.9551059920049769,0.930544319505098,0.03017985353698767,0.7275871333593945,1.222276640220549,0.0,0.0,0.0,0.0
0.05355832768514463,-0.1371509183791316,0.7326606329449911,0.003327517797409355,-0.5285469164611529,-0.007135867416278526,0.8488675774942357,0.05292748391281649,-0.9462114236509124,1.192659344184463,-0.2506887330173338,-0.7503023956385104,0.8642989839561919,-0.17840881316528556,0.8966079628270536,0.9171343021337083,0.03225500461165115,0.6965793855895831,1.237194996941011,0.0,0.0,0.0,0.0
0.0527400240401219,-0.13967487878252888,0.7318954558953421,0.0009008341081181928,-0.5227489379232846,-0.00010663522276554719,0.8524862022501695,0.042522570173008534,-0.9855958993499458,1.2141215267066945,-0.2638961416975347,-0.7663323855060344,0.8842801443656121,-0.04929980542309925,0.8349958743702874,0.9017066388851852,0.06397118441054392,0.6765748285419528,1.2421103437449021,0.0,0.0,0.0,0.0
0.05361675571687616,-0.13971229792890258,0.7325000611802707,0.002495020757646317,-0.5284474392838118,-0.006004515915704809,0.8489411196157358,0.05730036135325248,-0.9446888939593927,1.187068598422123,-0.24699563545109154,-0.7564099340920101,0.8768502043595061,-0.17556172279946142,0.9005116425867462,0.905962602075902,0.003700820177465529,0.6807067749407731,1.2617403425156564,0.0,0.0,0.0,0.0
0.054428757128601034,-0.14022477810011294,0.7323808242912415,0.002515528165020167,-0.5330595757210524,-0.009343338314103762,0.8460223772922858,0.0668097882042703,-0.9168350860591786,1.1669094893262795,-0.23537697611784408,-0.7451960004125059,0.8688417491575147,-0.3019717885050456,0.9610571316195177,0.9108322316117293,-0.02657876314357492,0.6948763553364715,1.2729147193437795,0.0,0.0,0.0,0.0
0.05318633703077785,-0.14306849809700825,0.7318981776177149,0.0018737670235271467,-0.5286664059617889,-0.004870598483442312,0.8488136411928119,0.06298909853601163,-0.9384590072703917,1.172456728160501,-0.2414152881450998,-0.7626711279541863,0.8885249961769844,-0.17268656387235815,0.9032945240399279,0.8984400598778896,-0.01881791191427763,0.6690204977938563,1.2802834068474853,0.0,0.0,0.0,0.0
0.05167199941775698,-0.14617187942234422,0.7307888346792206,-0.0006023688115507217,-0.5231924163353989,0.0017485597036039026,0.8522125762859314,0.055223500988528344,-0.9726416764502266,1.1852278182303964,-0.2516291776625225,-0.7780216264158341,0.9048900293720228,-0.04480119246821193,0.8402597095442452,0.8867774878345179,0.02224994298289264,0.657988335419391,1.26915304932813,0.0,0.0,0.0,0.0
0.0517783390900463,-0.14676546874510352,0.7309742080729522,0.001488054313835698,-0.52866428415516,-0.004615266065080343,0.848817153262244,0.07240838623931051,-0.9280570369601265,1.1501040558970468,-0.23235357194360762,-0.771287326116202,0.8976225907868137,-0.1712945894456009,0.9009250006178104,0.8950176522708997,-0.04177483728858529,0.6614117796570261,1.2680144625055512,0.0,0.0,0.0,0.0
0.05173173472291603,-0.14776398592549406,0.7303277001907192,0.002141967884392159,-0.5329374068187192,-0.008608593051349403,0.8461081636012016,0.08442492893364878,-0.8965445103531847,1.1212309881963811,-0.21814568553632374,-0.764034133877312,0.8896519010112613,-0.29793281067750865,0.9548976714228068,0.9057215292770565,-0.07432249898143023,0.6760385517698954,1.2558871557411762,0.0,0.0,0.0,0.0
0.04973401317758134,-0.15138756588467125,0.7297338860399901,0.0013458211166118609,-0.5291125303817754,-0.0046986095477549285,0.8485375902261695,0.08405049019917929,-0.9095940258922911,1.11466396656625,-0.22000198713825295,-0.779072947495096,0.9043254358593092,-0.17026603571511195,0.8981044682937587,0.8946561125959909,-0.061253659473512495,0.6606898793416001,1.241344811717225,0.0,0.0,0.0,0.0
0.047293744868549654,-0.15544572311719335,0.7287130890493957,-0.0011707183092493686,-0.524450574019586,0.0011287789916469705,0.8514393405799119,0.08084480230386981,-0.9317217317395718,1.1119972304081822,-0.22482569596335156,-0.7913804908869266,0.9149690906215364,-0.04384600517232465,0.837274182081352,0.8824373625758363,-0.019026942710051148,0.6579950461252373,1.2150745286684408,0.0,0.0,0.0,0.0
0.04597590339525507,-0.15715133248586408,0.7284207427828988,0.0014572049549031736,-0.5284669612860244,-0.004815880871997774,0.8489389581555683,0.09907350510408644,-0.8863585687298361,1.0658491911561905,-0.20442396284429537,-0.7905077163710221,0.9088175031445725,-0.1533296445074205,0.882138506323745,0.8915930277626013,-0.09138978326128575,0.6491532632001237,1.2035827908415935,0.0,0.0,0.0,0.0
0.0436901938564325,-0.16192540462814034,0.7282860400955579,-0.0010233150668693917,-0.5241929447696527,0.0007657983356084765,0.851598569182043,0.09801399692378689,-0.9012465933855638,1.0571593592423048,-0.206590072988559,-0.8016808701205324,0.9216477340577367,-0.02744887314876185,0.8285876171754278,0.8677355820192015,-0.04517213698026641,0.6487884262185827,1.1812074382575144,0.0,0.0,0.0,0.0
0.041797647766827914,-0.16577998308333497,0.7273373275807686,-0.0020612897477100003,-0.523777933160103,0.0023852145644777142,0.8518490116039273,0.1037490092454687,-0.8923634537066424,1.0312762878628223,-0.20018978171176915,-0.8054672131476056,0.9238915626664592,-0.0058407392987196854,0.8160509535448127,0.8608072457407067,-0.051339769455407046,0.6464974354324436,1.169016194203378,0.0,0.0,0.0,0.0
0.04037069493367151,-0.16908689903512417,0.7258633134609245,-0.001830550793238633,-0.5241803533431822,0.0018570398248816304,0.8516032865459707,0.11321796914142626,-0.8776166798954801,1.0030382389401094,-0.1903033039374528,-0.814164959257693,0.9298612534469556,-0.0025195784255764367,0.8098227630421978,0.865594349132241,-0.07122971237598079,0.6451835741225158,1.1555818845767043,0.0,0.0,0.0,0.0
0.038810941717869946,-0.1719951887602361,0.7239406325730063,-0.001438353569832823,-0.5244297148120085,0.001155332574795832,0.851451742947212,0.12205383880774076,-0.8644263157632199,0.9752256994946433,-0.18110142591371306,-0.8235235798421847,0.9339479015947559,0.003810770619324966,0.7985921836722285,0.8775818488016993,-0.08733066042405507,0.6447723912115793,1.1391218307102127,0.0,0.0,0.0,0.0
0.03699242928141926,-0.17479606636077796,0.7220201552067671,-0.0013316542765613956,-0.5242514545848144,0.0010409380337842709,0.8515618330518364,0.12919664410249143,-0.8537835025827625,0.9481115398392346,-0.1735566799915458,-0.8315322503935441,0.9353845012609445,0.02067807758880577,0.7817600690915268,0.8890956847535881,-0.09921401598797665,0.6430047881116843,1.1211054807721272,0.0,0.0,0.0,0.0
0.03495041538844423,-0.17751853714993363,0.7203152401853703,-0.0014472126232235854,-0.523826536818196,0.001291112732617518,0.8518227502999611,0.13523287196520298,-0.8436452030832093,0.920422023135318,-0.16698996801781915,-0.8375545641173319,0.9341100823372356,0.04255259766087409,0.7629233954659234,0.8979565013386553,-0.11147513789659833,0.6395076435188145,1.1019817703170163,0.0,0.0,0.0,0.0
0.03268518368429832,-0.1800938930372311,0.7187677772406591,-0.0017133567431879078,-0.5232991534605091,0.0016794904801639113,0.8521456681271765,0.14051818266544322,-0.8330182517100712,0.8913301674742198,-0.16100076458369145,-0.8414277018530578,0.9296656615755396,0.06467104664295638,0.7436243811073961,0.9053855548998341,-0.12739868293433304,0.6347230346389472,1.0813581676361546,0.0,0.0,0.0,0.0
0.030251875501932788,-0.18239658685525287,0.7172616851833891,-0.0021232637523767466,-0.5227148451048578,0.0021627852664719213,0.8525022022364127,0.14486219868644198,-0.8225046130893007,0.8616694750496109,-0.15584264945382706,-0.8431869349482616,0.9218749976456243,0.08518138284905985,0.7239808843850357,0.9130137838509934,-0.14990382323936827,0.6286679536535333,1.0588832559346961,0.0,0.0,0.0,0.0
0.027738232614389378,-0.18431236536048148,0.7156450915950732,-0.0026089720924541474,-0.5221868477750721,0.002570695279599481,0.8528232412411929,0.14842511649166729,-0.8122216794733156,0.8319985985161156,-0.15141306973339946,-0.8431601815035346,0.9108822433148795,0.10185056768157451,0.7043999104300381,0.9230424481368802,-0.18428010135583306,0.6205299772242185,1.0341517889971108,0.0,0.0,0.0,0.0
0.0256655794557114,-0.18579762261745345,0.7136402258873941,-0.003032197535965969,-0.521733349262392,0.0028332367812536684,0.8530985235099702,0.15142466858825795,-0.8053384290397623,0.8076227435641373,-0.147948319919182,-0.8447594099700998,0.9017698754525185,0.11403142358936035,0.6853096315275872,0.9377416603055262,-0.23525935871397047,0.6101218144138252,1.0079713660336385,0.0,0.0,0.0,0.0
0.024397809578633748,-0.18660006360417497,0.7114804482678427,-0.0033341413968834745,-0.5215520443640209,0.0029656182043316915,0.8532078021382141,0.15319379423827986,-0.8031152538486361,0.7928371767032519,-0.14614930462373707,-0.8473102404231306,0.8956397308380595,0.12086552127386063,0.669378140971964,0.9557483200687656,-0.2951140745305243,0.5977980937943548,0.984747808988881,0.0,0.0,0.0,0.0
0.024431253691598414,-0.1865976443787534,0.7114281000017212,-0.0033840234543238545,-0.5215474262736209,0.0029804648788768796,0.853210376965569,0.15318393990715698,-0.8031818967901173,0.7926906927527168,-0.14619375301064863,-0.8473500433830243,0.8956359812495348,0.1208566917495795,0.6693655020482987,0.9557162827859045,-0.2951371320856945,0.5977938993058509,0.9847390373727537,0.0,0.0,0.0,0.0
0.024431253691598414,-0.1865976443787534,0.7114281000017212,-0.0033840234543238545,-0.5215474262736209,0.0029804648788768796,0.853210376965569,0.15318393990715698,-0.8031818967901173,0.7926906927527168,-0.14619375301064863,-0.8473500433830243,0.8956359812495348,0.1208566917495795,0.6693655020482987,0.9557162827859045,-0.2951371320856945,0.5977938993058509,0.9847390373727537,0.0,0.0,0.0,0.0
0.024431253691598414,-0.1865976443787534,0.7114281000017212,-0.0033840234543238545,-0.5215474262736209,0.0029804648788768796,0.853210376965569,0.15318393990715698,-0.8031818967901173,0.7926906927527168,-0.14619375301064863,-0.8473500433830243,0.8956359812495348,0.1208566917495795,0.6693655020482987,0.9557162827859045,-0.2951371320856945,0.5977938993058509,0.9847390373727537,0.0,0.0,0.0,0.0
0.025332506849446552,-0.18411199700374142,0.7116497138514636,0.004276474140275298,-0.5267723064928838,-0.008606185564839315,0.849952105974871,0.17277595191763598,-0.7448658102235773,0.7497852715827372,-0.12350250067008361,-0.8522853859987229,0.8948704556601552,-0.007268181195741158,0.7274518107430432,0.988707389933024,-0.42297174869883913,0.5694034907349512,0.9584128001916912,0.0,0.0,0.0,0.0
0.024459541737286754,-0.18544299864215213,0.7131962257345297,-0.00027037366210625,-0.5227536320932376,-0.003382529158340667,0.8524770527867034,0.16535667874462623,-0.7749377008219746,0.7732724117475755,-0.1325965675852482,-0.8509675697152679,0.8971652274477244,0.05704763794254267,0.7029043500849472,0.9557178606878357,-0.3512615792220136,0.5887770146967668,0.9544316715382953,0.0,0.0,0.0,0.0
0.02387119001040439,-0.18687920045025544,0.7138233004794655,-0.003358231847559439,-0.5203132480003616,0.0008667813630512774,0.8539684390680026,0.1593980196520867,-0.7940903813225977,0.7852022729037452,-0.1393273396020529,-0.8496275987195078,0.8989158164587283,0.09933053517509625,0.6868671859922217,0.9328432307157403,-0.297666581951533,0.600814900579003,0.9578194656996486,0.0,0.0,0.0,0.0
0.023915646076894212,-0.18831750344399958,0.7137260022361067,-0.004833308453514412,-0.5196362172991639,0.0032647911843862176,0.854367708857803,0.15719570868430408,-0.801181928556742,0.7877436086472339,-0.14164568805528208,-0.8504602508929638,0.9036451847801046,0.12244431522836563,0.6801517679224256,0.9216724210866423,-0.2673557267532354,0.6066522418904229,0.9662652995406976,0.0,0.0,0.0,0.0
0.024694917336392865,-0.1895383860721295,0.7130086434774608,-0.0052768821052565345,-0.5200706688668554,0.0045485067567417985,0.8540948220109479,0.15695702634054112,-0.8040179409349897,0.7897065782375037,-0.14205026751641187,-0.8541271322904326,0.9125329158664105,0.13648026268801336,0.6776507850251315,0.9208119346379366,-0.25319379910865736,0.6093441271417087,0.9786635596468327,0.0,0.0,0.0,0.0
0.02623163917906573,-0.19022399109600252,0.7121211918075381,-0.005596969544285072,-0.5207308887577298,0.005791644692714008,0.8536828874220559,0.15572214460158845,-0.8118792187987333,0.8014496318182829,-0.14398458417792442,-0.859309432037213,0.9250540896577667,0.14974455478718057,0.6761771308047576,0.9236676775359374,-0.24442319979950092,0.6138095982551244,0.989744750324288,0.0,0.0,0.0,0.0
0.028530818551098895,-0.19017885874023407,0.7111665144995258,-0.005786025025073701,-0.5218375093674746,0.007180720572505809,0.8529950603512424,0.15232985541432456,-0.8240372514374419,0.8225480432517623,-0.1483811363487663,-0.8633753244040336,0.9386069907869424,0.1614613032330188,0.676841489797511,0.929854429823927,-0.24175175385586814,0.6213390383487409,0.9980748426023557,0.0,0.0,0.0,0.0
0.03151042916792727,-0.1893335876982769,0.7096779112952538,-0.004565413285108167,-0.5245695477698393,0.007557351029751523,0.851321815178899,0.14861938678713188,-0.8293528116831195,0.8410259757871458,-0.15267038427747054,-0.8653091061214246,0.9503496918467792,0.15823357570970592,0.6846705442436445,0.9480818839282094,-0.2628094031026879,0.6263454074634459,1.007020447358553,0.0,0.0,0.0,0.0
0.03468346578610628,-0.186622585590163,0.7081753419791931,0.001729866542602848,-0.5285858329342668,-0.003108205598413596,0.8488724072797339,0.16771354811915104,-0.8014383685208084,0.8369261496405944,-0.13390025469736713,-0.887808177413244,0.9731953052929486,0.04321805847241557,0.7356657669247811,0.9903327355894084,-0.3941378827077511,0.5941129619060986,0.9917290041902206,0.0,0.0,0.0,0.0
0.03675190850989446,-0.18828148303950865,0.7092900197166568,-0.000963432850103464,-0.5263204765339872,7.21237440688416e-05,0.8502857299616086,0.16596203853839064,-0.8280498456089109,0.8703529530436903,-0.13788973203011382,-0.8997460873703707,1.0000426702139975,0.08182637852942447,0.7326851097343808,0.9602516064392869,-0.34704456774574055,0.6145872663712905,0.9855796765739683,0.0,0.0,0.0,0.0
0.03762739973918426,-0.18977484110709927,0.709932987815271,-0.003939391678283222,-0.5232320326238132,0.0037358412632996665,0.8521729664332314,0.14630485622899725,-0.8504333747659787,0.8677496586723623,-0.14355540875200257,-0.9095133041389882,1.0181061110321297,0.1287839570049178,0.7176571155842285,0.9352031899921185,-0.2919247496963154,0.6301714249584462,0.9854781104586524,0.0,0.0,0.0,0.0
0.038479440705334836,-0.19082282537717435,0.7097002208924527,-0.005398006925450642,-0.5225850115047788,0.006276478660336892,0.8525469917179987,0.11997157233472104,-0.8701050957226558,0.8660390549066812,-0.14758649784700117,-0.9121743815697788,1.0268076840970863,0.1551643602545452,0.7107253487257906,0.9256437820940386,-0.2611696993397577,0.639564444845265,0.9923190060116277,0.0,0.0,0.0,0.0
0.039775283136869205,-0.1906985209990125,0.7091681429930787,-0.003614770032498951,-0.5269045538186377,0.006712667194912595,0.8498902662708432,0.09166331835297944,-0.8800043115948464,0.8772036317985457,-0.14919114624574606,-0.8982163388018235,1.019306357309135,0.1496658148056939,0.7248739367984337,0.9358504100757743,-0.28199795547156686,0.6465835039539481,0.9995343505950324,0.0,0.0,0.0,0.0
0.04102170512729918,-0.18885305751069836,0.7086261536010211,0.0026460432025649174,-0.5324792052711644,-0.004253029910075781,0.8464282640281711,0.1002144162418257,-0.8751244879654185,0.8962045382926684,-0.12580073214685364,-0.9038846600517538,1.02072312489107,0.024780629926042685,0.784643257616872,0.9699260063992033,-0.4151915881265953,0.6135525390954071,0.9835320806980777,0.0,0.0,0.0,0.0
0.03893528636590314,-0.1912083310464667,0.7096974025564948,-0.0019838376718404977,-0.5251592145535908,-0.0004045792341496045,0.8510015864105017,0.07618389326935464,-0.9064542957548272,0.8752904202606236,-0.12893971857919867,-0.9211231000533441,1.0344393214410426,0.091673737512586,0.7442023569992364,0.9374059043141488,-0.3202291580878607,0.6221865721312876,0.9851374831526578,0.0,0.0,0.0,0.0
0.03708095759623328,-0.19343645035332604,0.7100732871935688,-0.005001714184029249,-0.521584116714649,0.003171540155757768,0.8531793090430998,0.055673291618983406,-0.92569032711945,0.8587705388911576,-0.1319124993964487,-0.9245323088568648,1.0352386056885055,0.13101513313239765,0.7222011470768347,0.9144823898738742,-0.2567742422088109,0.6267211051432845,0.9924528976270361,0.0,0.0,0.0,0.0
0.03576407044547451,-0.1950151266867753,0.7097650562913854,-0.006030272574970858,-0.5215456785696791,0.0055090567726579515,0.853184265719569,0.03772485157238728,-0.9399942484448636,0.8534069546794116,-0.13346452496824188,-0.9177823500288301,1.0266462201236284,0.15047750325548842,0.7133264493352677,0.9076125589492321,-0.22707265320507947,0.6284940090620194,1.004659879581684,0.0,0.0,0.0,0.0
0.035320608098438795,-0.19514342469487272,0.7093586720014357,-0.0034368890208029855,-0.5268985143796695,0.005410710972702031,0.8499040343151253,0.01943064205262046,-0.9448755783985856,0.8649134226705355,-0.13260336523999602,-0.8936556329677691,1.0028553845456167,0.13544661191921095,0.7287678128812582,0.9212858240137896,-0.25404363010675296,0.6305052580592452,1.0149195414899908,0.0,0.0,0.0,0.0
0.0349866224108912,-0.19365467395947833,0.7086599151401385,0.0032387013392124373,-0.5335023833005497,-0.005651632611766211,0.8457734784651799,0.03574238400854791,-0.9367150231127297,0.8815642752725671,-0.10754114364884979,-0.8879550998558207,0.9871840824019508,0.008549362696490426,0.7856001622270908,0.960474721964144,-0.3860737691939905,0.5947330767820664,1.006385887219921,0.0,0.0,0.0,0.0
0.030984161564199888,-0.19637072110525972,0.7093785087843814,-0.001647226051195123,-0.5248131614477937,-0.002234904897194137,0.8512129213173452,0.014034970598094242,-0.9705023830742618,0.8541900205867023,-0.10821703645651737,-0.9067842094866485,0.9931346608927452,0.07633039355248927,0.7344921640102093,0.9309018599796886,-0.28500392505806704,0.5925010107328746,1.012190067230941,0.0,0.0,0.0,0.0
0.027809818564568888,-0.1992939469988666,0.7097045423025317,-0.004742042376478324,-0.5204860594571006,0.0007240715937464997,0.8538566921124682,-0.004644026216883906,-0.9865584393691164,0.8318788885767292,-0.10752373151434749,-0.911699626138393,0.9897406886376913,0.11268478318636843,0.709763560569208,0.9056145581952317,-0.22192203377512132,0.5888634801759468,1.0203725882152748,0.0,0.0,0.0,0.0
0.026607835134288983,-0.2015206980922413,0.7103407997878858,-0.004561883611304397,-0.5215089034601506,0.0013342253762966706,0.8532326017402015,-0.017322339548901822,-0.9910776052060334,0.827855402736106,-0.10295258511762496,-0.9041356675581558,0.9827153891925317,0.11685343501973768,0.7163534224973922,0.8900882165937845,-0.2098473209185147,0.5904960949354585,1.0243602160310754,0.0,0.0,0.0,0.0
0.02627515131616304,-0.20328433607993196,0.7103146464131663,-0.0032570837182572428,-0.5237225260955541,0.0007322465328374384,0.8518823691571267,-0.026721932701724446,-0.9984342707942823,0.8294671017741541,-0.0968343431582939,-0.8988558530792938,0.9792037345488517,0.1121198444337194,0.726529138501446,0.8873496935656372,-0.21541281719740293,0.58976782090808,1.032777838933056,0.0,0.0,0.0,0.0
0.026168970690825386,-0.2047619982754927,0.7097925892248078,-0.0024856407007906654,-0.5250572285382165,0.0003449031039827513,0.8510632229111551,-0.03751359928727417,-1.0104570749362758,0.8280294499525229,-0.09212293529699386,-0.8985963848054723,0.9799297282407489,0.11275356046309683,0.7298855855283527,0.889080348427482,-0.21672247234178885,0.5873353294575284,1.0437945136577291,0.0,0.0,0.0,0.0
0.02628029341892018,-0.20609024811021953,0.7093786161280837,-0.0023051692656246244,-0.525477508656933,0.0003034455447822233,0.8508043147581946,-0.04998591013246549,-1.0233574282980553,0.8240326170196096,-0.08865373971792784,-0.9019979832007996,0.9850472797877939,0.11934947056995585,0.7297508499278423,0.8880537697285288,-0.21156061689967492,0.5863551669021252,1.052539862233255,0.0,0.0,0.0,0.0
0.026766187127618586,-0.20717193639100784,0.7090692509356356,-0.001993331714916998,-0.5260499266681812,0.00016030418061991757,0.8504513363994705,-0.06299579614396021,-1.0330530502421007,0.821664050737344,-0.08562540776458952,-0.9057369761052321,0.9919304071394719,0.12409299074076449,0.731741232590271,0.8870880618242541,-0.20958046324295193,0.586845086855644,1.0592004495295928,0.0,0.0,0.0,0.0
0.027389807171476977,-0.2080363721447146,0.7088513699379291,-0.0015138714156446892,-0.5269268576934547,-8.48911675609029e-05,0.8499092819990427,-0.0764228966474578,-1.0382432530743653,0.8225084442619904,-0.08291140873827116,-0.9080197809130706,0.9978759390510498,0.1265921773996608,0.7356867117800937,0.8867330090012792,-0.21108496534054774,0.5882403474878715,1.0644288643287525,0.0,0.0,0.0,0.0
0.027857526449110822,-0.20900437819759957,0.7087875214222871,-0.001490195355011482,-0.527154615996109,-1.748985197786205e-05,0.8497680800347256,-0.09051276402491659,-1.0397972137987344,0.8244534384131866,-0.08062230190355152,-0.9116470589472795,1.0048559665271315,0.1341270143052322,0.7368300266404384,0.8828842430474965,-0.20583619693469307,0.5903319897698666,1.068531306866932,0.0,0.0,0.0,0.0
0.02807872918999639,-0.21020150844341876,0.7088632062732634,-0.002242621898771305,-0.526144812371202,0.0004967821447217898,0.8503918862908985,-0.1053865394786111,-1.0398893387267818,0.8260287346294158,-0.07871458647521798,-0.9190501151855017,1.014827737849719,0.1493574797525125,0.7326902692536092,0.8739034507059208,-0.18881226544876528,0.5925856368496044,1.0716313843393688,0.0,0.0,0.0,0.0
0.02859866071374332,-0.2111835644289621,0.7089244524755831,-0.0023351182966907533,-0.5262625421468146,0.0006477686074677934,0.8503186839953265,-0.11954267562723724,-1.0353660223187413,0.8331519152942383,-0.07655282535681947,-0.9228043749309957,1.0223598044662434,0.15781673054135228,0.7341271958338355,0.8681574138084315,-0.18168873809111388,0.5957093560650351,1.0746302509185206,0.0,0.0,0.0,0.0
0.02955646121759034,-0.21181372742624308,0.7089169116076797,-0.0009735632322464836,-0.528627950952922,-7.261507415532546e-05,0.848853071133632,-0.13148990998887378,-1.0246344038240704,0.8483008153682875,-0.0733387644415704,-0.9194258650704535,1.0245610469481774,0.15334810183140424,0.7457571545212403,0.8698977872469476,-0.19549047589490276,0.5995363200117952,1.0782337023783357,0.0,0.0,0.0,0.0
0.030240762471428477,-0.21268770724357597,0.7091746379073144,0.0002973966548771402,-0.5309697323307901,-0.0005625887343988846,0.8473905465590907,-0.14311708397573017,-1.0105612204807515,0.8622872970688024,-0.07006063901836654,-0.9141695392629254,1.0248252230858277,0.15195838217059882,0.7574321592606256,0.8676961720305686,-0.20612522011246054,0.6045402236293048,1.0809060713840597,0.0,0.0,0.0,0.0
0.02943377073469931,-0.2144297236254492,0.7099022935679097,-0.0019250949051139198,-0.5275122286496245,0.0009490235056545469,0.849544726302917,-0.15879332043437933,-1.0077388379156667,0.8599549089977432,-0.06883397849505546,-0.9256330910845997,1.0359697181226828,0.1825557720855555,0.7429772984790116,0.8451628060158388,-0.16243599622374316,0.6080423054584995,1.0803243718577558,0.0,0.0,0.0,0.0
0.02840298850008842,-0.21595264330984273,0.7098042307533197,-0.003407975688454292,-0.5256176939730495,0.00233291209639631,0.8507108692178037,-0.17441713752814375,-1.0023786522623674,0.8595436103500609,-0.068044579069287,-0.9307400261285002,1.0385143105756889,0.20400707309015814,0.730543965094607,0.8342192697669017,-0.13033393842217494,0.607758660666952,1.0869861632765419,0.0,0.0,0.0,0.0
0.027450857082949063,-0.21694301794585946,0.7089763521913478,-0.003444221260037673,-0.526498476310708,0.0030067430891561535,0.8501637790910705,-0.19125223168516914,-0.99559531939116,0.8682592840225439,-0.067102321784529,-0.9253495715536065,1.029782063186909,0.2136351847681616,0.723856604747526,0.8399655143614551,-0.12025106638772212,0.6057637138846358,1.1003408164247175,0.0,0.0,0.0,0.0
0.02678935718165524,-0.21694818454926793,0.7078637812624669,6.92483059301923e-05,-0.532690101318147,0.001364324632697489,0.8463092754901314,-0.20598068036832984,-0.9771559772847894,0.8907978560553614,-0.06338404867185939,-0.9000082750418132,1.0017777201754026,0.1947301333341744,0.7367225355290793,0.8683443872032403,-0.16204107575305848,0.602784365808116,1.1166560291499923,0.0,0.0,0.0,0.0
0.025599836140763305,-0.21608174160956162,0.7063243186026579,0.007073912755762004,-0.540302406990542,-0.008237275926648305,0.8414008652502437,-0.1932885866828382,-0.9512768080205757,0.9147487972072477,-0.04141200780515722,-0.881253680080971,0.9707951744179066,0.097105781401682,0.7788307510118494,0.9182090439638525,-0.2931762221956359,0.5662381723634022,1.1243187913011154,0.0,0.0,0.0,0.0
0.019621009255598187,-0.21960959038498154,0.7074984833728609,0.001278279968611046,-0.5268981855958994,-0.00523775730377969,0.8499113094402836,-0.2148682844836573,-0.9699155762025686,0.8855284949753347,-0.037920032977654144,-0.918914484300253,0.9853133866072565,0.15576353000515014,0.7160066764166026,0.8745386085948306,-0.1661382536084028,0.5521224431626053,1.1243064107007656,0.0,0.0,0.0,0.0
0.014714155717218534,-0.22327995212042728,0.7087726751533444,-0.0026977118226979594,-0.5217467711998622,-0.0018884690110832127,0.8530940527153112,-0.2357685664224242,-0.9645789863805971,0.8731474832710223,-0.0357928510593268,-0.9175706542319072,0.9697899541399261,0.19291537037677736,0.6945863643541865,0.8285886903684047,-0.09715472960350384,0.5454423697806138,1.1224887566048676,0.0,0.0,0.0,0.0
0.01159925002510683,-0.2263652335029834,0.7100612336449493,-0.0031406697233664904,-0.5224875644238158,-0.0009292435420827844,0.8526406146335026,-0.25051311548403105,-0.9498270924232722,0.8829348887034224,-0.02990207150964029,-0.8996196199509212,0.9459905735332375,0.20362401555037352,0.7016529302530169,0.7971793353743293,-0.07741198887921891,0.5452840003376497,1.122365799135966,0.0,0.0,0.0,0.0
0.009385197638859769,-0.22882063881682924,0.7105948518815244,-0.0023874345477079167,-0.5248341041642341,-0.0012902693278583877,0.8512002105659208,-0.2681256826528545,-0.94318525852228,0.9050800817444163,-0.022597774288346417,-0.8810002262808344,0.922493198975316,0.20669662333761182,0.7106309940378531,0.7839549565092386,-0.07389603081638584,0.5446121278383673,1.1288590983277635,0.0,0.0,0.0,0.0
0.007968324795949066,-0.23052378714134766,0.7104290189018418,-0.0010898589889377752,-0.528106396606892,-0.0022037154344873586,0.849174652064316,-0.29062953274652886,-0.9458147050878231,0.9397840471818842,-0.01616471170628703,-0.8622215987211905,0.8996599769968361,0.20565986933942004,0.7182385762991096,0.7864985873212422,-0.08021013967970009,0.5437974419556649,1.1401720401784374,0.0,0.0,0.0,0.0
0.007606377515543438,-0.23113545371330252,0.7103238317442059,0.0009035412843502007,-0.5325570833174262,-0.003365504618842627,0.846386915069133,-0.31653108086105824,-0.9552951640171536,0.9945548906388237,-0.012398692380529232,-0.8399847609055107,0.8768714571169887,0.19794301918603702,0.7308531603428818,0.7970786836012603,-0.09985654964542198,0.5472065824031481,1.1486861030442734,0.0,0.0,0.0,0.0
0.00829507498368987,-0.23086407927249156,0.7104357737163401,0.0031120254242227243,-0.5371772081022073,-0.003971479676403005,0.8434543198908029,-0.34180879804372283,-0.9743688559653508,1.0710826034739533,-0.012746498404877805,-0.8186945087430528,0.8592789804030172,0.18799349560129436,0.7468288230283795,0.8078337987465409,-0.12534054159014651,0.5551208154943387,1.1523113840020842,0.0,0.0,0.0,0.0
0.008341066886631374,-0.23090746196119455,0.7103501528374181,0.0030061654856902557,-0.5371749782100178,-0.0039103253571751,0.8434564097271066,-0.34184820769759544,-0.9744227585515814,1.0710693479897566,-0.01284004969564282,-0.8187254253231169,0.8591488871996653,0.18832103128821717,0.7470041045570323,0.8074967722174881,-0.12565852165278002,0.5547542894083269,1.1525582012120812,0.0,0.0,0.0,0.0
0.008341066886631374,-0.23090746196119455,0.7103501528374181,0.0030061654856902557,-0.5371749782100178,-0.0039103253571751,0.8434564097271066,-0.34184820769759544,-0.9744227585515814,1.0710693479897566,-0.01284004969564282,-0.8187254253231169,0.8591488871996653,0.18832103128821717,0.7470041045570323,0.8074967722174881,-0.12565852165278002,0.5547542894083269,1.1525582012120812,0.0,0.0,0.0,0.0
0.004314996775001188,-0.23408113570151187,0.7123837582818358,-0.00478172725071559,-0.5211973706290087,0.0015780023759611327,0.8534213178977947,-0.3547849017919695,-1.0491533377446445,1.116468041052712,-0.01557944018317455,-0.8752137173081156,0.9039331927697145,0.17015598703531087,0.6208771498174456,0.8673774630454073,0.00260366260112313,0.5451127879119639,1.1345292312224664,0.0,0.0,0.0,0.0
0.006675432180716328,-0.2341300079550753,0.7184397557524935,0.0049456237931641495,-0.5344653058246699,-0.005880893900940935,0.8451554843707544,-0.3250472528996869,-0.9575518901392435,1.065866243223455,0.0003959873801480437,-0.8178527060753593,0.869841408139339,0.07442839437759743,0.7033244412119884,0.9239949429606704,-0.11346220631185622,0.5773659609251044,1.0945074635813368,0.0,0.0,0.0,0.0
0.006427399365673247,-0.23789712680071257,0.7237896686415327,0.0004654320214539913,-0.529031082237751,-0.002434512978001172,0.8485988278014219,-0.32739681295484846,-0.9727506790168872,1.0815861337966686,0.0020461176296755496,-0.828422673553846,0.8937025928117638,0.08928777322425534,0.641997766521586,0.9608782888841478,-0.04824968966134453,0.6009511620932304,1.0524012075846936,0.0,0.0,0.0,0.0
0.0064501100859305225,-0.2420786437757077,0.727853783819981,-0.0034910641246607634,-0.5232512240931427,0.0008636320076520623,0.8521708884349785,-0.3282386098897719,-0.9954030324322428,1.1039879112460103,0.0056095555514847,-0.8485510372522688,0.9264396828386243,0.11290971161749577,0.5875118675692905,0.978350281653313,0.01586910988113059,0.6182066092738965,1.0193854796284683,0.0,0.0,0.0,0.0
0.008220040935210293,-0.2452206216606085,0.7318168398401629,-0.0021087263746916557,-0.5257565743739455,0.0003302815478840557,0.8506323933931448,-0.3176682517074578,-0.9740519274178612,1.0996261917235683,0.014096873352721473,-0.8397968132298507,0.9373286163131528,0.10468895498242467,0.6000580027445473,0.9973185418223841,0.017310464461513006,0.6444407042059858,0.993234342657416,0.0,0.0,0.0,0.0
0.010268765692870527,-0.2483778382832142,0.734455273682365,5.592761795989531e-05,-0.5289920380231178,-0.0013252659644098993,0.8486257504049552,-0.3045158476260935,-0.952694352118908,1.0946854937973667,0.02511627414233236,-0.8344488852419941,0.9500309753031932,0.09681959982510796,0.6194485207689039,1.0204175061991607,0.011304348736306803,0.6649802546536774,0.9804604393852407,0.0,0.0,0.0,0.0
0.012578153145039808,-0.2514354099526212,0.7359615711575638,0.00366852731061168,-0.5339169203162712,-0.00422366496794253,0.8455184354948142,-0.2885759188625754,-0.9242162125925657,1.0832749230890097,0.038108569815078194,-0.826824430508613,0.9593791542290608,0.08285157799347362,0.655291828330546,1.0436111844671687,-0.010965643725124975,0.6807100043848812,0.9801883754365903,0.0,0.0,0.0,0.0
0.014279453275496597,-0.2544252789740376,0.7373847373375847,0.009841693191303697,-0.5421204483189714,-0.0091699781687575,0.8401931159501071,-0.26672940998122535,-0.8698875822955031,1.0464615926162562,0.05407662709385122,-0.8019452378407697,0.9486265907637157,0.044340589714499425,0.715486540695311,1.0548567817568142,-0.06714154836040198,0.6933682587779536,0.9840900931575666,0.0,0.0,0.0,0.0
0.010693133386339785,-0.25919010195744274,0.7405867385884148,0.002855849761165903,-0.5284473118232431,-0.0038063738140650615,0.84895276327209,-0.27025711653471085,-0.9277843104045002,1.0812781478732805,0.057441497152363276,-0.8473458969945546,0.9864685448166416,0.04793185781800475,0.6206240690121994,1.0556670182846937,0.06057142245234268,0.6935226483730393,0.9572896217190406,0.0,0.0,0.0,0.0
0.007774117474174483,-0.26440206415407774,0.7421988417663778,-0.004888800321238564,-0.5174148866991375,0.002457294579055157,0.8557171824597714,-0.2749140743557103,-0.9786043990480611,1.108286529679057,0.05971847903874,-0.8837948713823262,1.0161928315837991,0.09570625324160371,0.5337245007139605,1.0541402149737626,0.1648758954021245,0.6859033933005979,0.9374465369795904,0.0,0.0,0.0,0.0
0.008624132380299385,-0.2664018462416515,0.7458580029738517,-0.0002474653058531498,-0.5242155141469031,-0.0009200189214736943,0.8515851026490567,-0.2583548498968976,-0.9241147732510829,1.0711249607512952,0.06996395951292386,-0.8502472801912359,0.996349438749719,0.048385874247461255,0.585377356940918,1.0746845433370238,0.12049929422783394,0.7096106535677053,0.9121676539618505,0.0,0.0,0.0,0.0
0.009558989070349919,-0.26863282489015455,0.7480110530424661,0.0037899679903330937,-0.5297408976615535,-0.004470922890234431,0.8481392741383182,-0.2429428037733622,-0.8813196084614102,1.040160142475447,0.08124893116069626,-0.8277404867700074,0.9841321278552755,0.004089257381529668,0.628263564088847,1.10057492640276,0.08289210234994819,0.7237957711051093,0.9015572719931556,0.0,0.0,0.0,0.0
0.009949562065083408,-0.2714561403601968,0.7489752646552068,0.005482915179940457,-0.531904670464174,-0.005805176472927631,0.8467665906881578,-0.23294261924683715,-0.8616955133592816,1.023538562157205,0.0900030374025611,-0.8212025133025218,0.9836715699657043,-0.015128692602365993,0.6434591882958022,1.1168083156771942,0.07743324788883635,0.7296128293164177,0.9010820654656129,0.0,0.0,0.0,0.0
0.008353152678253064,-0.27502575424252707,0.7498894335712897,0.0013252560931188895,-0.5261037453589424,-0.0023620792507265103,0.8504160825132566,-0.23278857476005255,-0.8876300073842581,1.0367330438428584,0.09338179231059093,-0.841368723871934,1.0007960418126418,0.0011066307804410286,0.5944800230152464,1.125392119346012,0.14346886819158444,0.7279879570356904,0.8936911999297755,0.0,0.0,0.0,0.0
0.007146175636142756,-0.27832298628185675,0.7498114347565839,-0.001852760127653105,-0.5219040445300072,0.0005237917931999059,0.8530020288518,-0.23215049969953397,-0.908338360147209,1.0458573033315226,0.09679419452456917,-0.8588129634114423,1.0151925971959277,0.010748748107704166,0.5609763698740322,1.131869319845844,0.1929488714040489,0.7216793783169636,0.895420663700818,0.0,0.0,0.0,0.0
0.007712876348189182,-0.27973118951767156,0.750848201962457,0.0005258938752331921,-0.524735108060259,-0.0014509666096991758,0.8512641684580162,-0.22331017534585945,-0.8861652773604225,1.0300163950194872,0.10348304339741415,-0.848596929300413,1.010750485180871,-0.01623981200622815,0.5823394497819684,1.1477137374525574,0.17614839519240263,0.7293519118305827,0.8923475287062453,0.0,0.0,0.0,0.0
0.008732561110870288,-0.28064471365972177,0.7512139903640304,0.0041109629585304504,-0.5285827111108299,-0.004736958243277198,0.8488586329447796,-0.2130387096353049,-0.8606313450673589,1.01288962581798,0.11140189022433052,-0.8384531386982061,1.0066115164740908,-0.05058582495954036,0.6158255930420862,1.163889550279486,0.143492956692514,0.7337725337675074,0.896797859877843,0.0,0.0,0.0,0.0
0.009019661897399911,-0.2819290149407804,0.7510607836501906,0.006354124609583364,-0.530972521114428,-0.006666991737328395,0.8473389865591034,-0.205388311737458,-0.8432404099173143,0.9977182691955235,0.1176582047864721,-0.8324225463356506,1.0028293381001985,-0.07422680159431361,0.6379126618125506,1.1681335388688252,0.12647562460389258,0.7332853556276787,0.9052505941922373,0.0,0.0,0.0,0.0
0.0075584055855139574,-0.2843374081892273,0.7517591806683098,0.00267074314109206,-0.526429023691321,-0.0034572038483685636,0.8502078556964924,-0.2067773982180806,-0.8640097275325167,1.0077934833041449,0.11848794438066354,-0.8460469949914172,1.0127396762131347,-0.07410983090519005,0.6083448524892268,1.1601489239245626,0.18047440183231162,0.7322954188276538,0.8983012833880109,0.0,0.0,0.0,0.0
0.005888932904139938,-0.28678848791974637,0.7517536238417443,0.0001475503080144847,-0.5235527307276614,-0.0010450670478304128,0.8519926198103954,-0.2061212032003162,-0.8743858998292311,1.006335582210718,0.12032487633769433,-0.8534776833963671,1.0146364544235866,-0.08278388603040203,0.591824462005838,1.1453059512510366,0.21943361125170835,0.7268089665157235,0.8999698398287801,0.0,0.0,0.0,0.0
0.004950491813489013,-0.2885966832626108,0.7515626515804126,-0.00036916281210210635,-0.5230250999162823,-0.0004363763654067161,0.8523170877977566,-0.20281177055032543,-0.8724500365312186,0.9980725058016611,0.12356348109281065,-0.8543028277032235,1.0124994043394655,-0.10239113678529163,0.5943437798915603,1.1326002186522064,0.23390793559315587,0.7228573272261203,0.9053083745657259,0.0,0.0,0.0,0.0
0.004659755222087867,-0.28971127166249916,0.7513022112278447,0.0006809142627911231,-0.5240651020730599,-0.0013771008126977023,0.8516768217688395,-0.19758964310564225,-0.8627123871781156,0.9868548563717701,0.1278926549627137,-0.8513966850465275,1.008773715713556,-0.12665212566943063,0.6082865282042089,1.1230255068114554,0.22958271816834627,0.7205696173842439,0.9126365691238467,0.0,0.0,0.0,0.0
0.0047147973592966685,-0.29055625900353216,0.7507142942749522,0.002334547306037897,-0.5254733194009272,-0.0029113401029729354,0.8508018950293023,-0.1919171373284878,-0.8527652919066736,0.9770027372328243,0.1327440862609593,-0.8497959783786949,1.0069866898940827,-0.1516291848902714,0.6264764978189563,1.113660434775948,0.2180244490542367,0.7170296182139362,0.9232628974950398,0.0,0.0,0.0,0.0
0.0043949765960978925,-0.29180067360818673,0.750225074286662,0.0028235586374028535,-0.5256806865594831,-0.0033631610563652306,0.8506706368758008,-0.18777362837607642,-0.8492169784214036,0.9706104786630729,0.1367281292822841,-0.8513583144534085,1.0071599693779636,-0.17013047343831808,0.6350754755955645,1.1023900901229926,0.22038808801421633,0.7129821848028824,0.9317334753788561,0.0,0.0,0.0,0.0
0.0035787291757426445,-0.2935225858965723,0.749979705416063,0.002635948976103544,-0.5251106719067324,-0.0031820085386599748,0.8510239179037892,-0.18373091721080415,-0.8475999779813952,0.9633121408844598,0.14075630756101834,-0.8536604387481641,1.0065764184276924,-0.18636037773487202,0.6376877426513993,1.0888492887178873,0.23219475690034025,0.7086667865149017,0.9377925420508342,0.0,0.0,0.0,0.0
0.0023390229811483874,-0.295645977853955,0.7499363278051802,0.00246257349971007,-0.5244656503970433,-0.003004398037817865,0.8514227451024522,-0.17847138444147115,-0.8430424682386568,0.9511198641681834,0.1456728894295334,-0.8542362608550799,1.0029526647106721,-0.20318034857388212,0.6397556971244313,1.0741475651769483,0.2455807457608327,0.7039242356517121,0.9427814655905492,0.0,0.0,0.0,0.0
0.0007101556183408779,-0.2981555382959893,0.7500614276818638,0.002449774707298574,-0.5238849565931358,-0.0029687378306870738,0.8517803340386442,-0.1717502359694592,-0.834609909371826,0.9332281561051404,0.1516604024308177,-0.8527155532440487,0.9959641280321224,-0.22072701981036066,0.6425962203626755,1.0590124623476014,0.2587744290129284,0.6986277239447803,0.9471121176948184,0.0,0.0,0.0,0.0
-0.0013483107191193365,-0.3010828318441328,0.7503677112921967,0.0023939156069357845,-0.5231762273613063,-0.002882573651205225,0.8522162842032549,-0.1639749861178774,-0.8233437728890173,0.9101459744179353,0.15843798851544558,-0.8495556294782518,0.9858718018713838,-0.23840737029660555,0.6449896536695499,1.0435093214776126,0.27380432122299214,0.6927388068232871,0.9502698433837078,0.0,0.0,0.0,0.0
-0.003870937910091684,-0.30441028769586864,0.7508607018023227,0.0020455246527151362,-0.5221480645593363,-0.00250391962296736,0.8528487233339545,-0.15577607957807338,-0.8104835030996967,0.8825844890509199,0.1655045379707626,-0.8451380965212832,0.9728368810362443,-0.25678394477531247,0.6458602849442244,1.0276718439766386,0.29266875901274575,0.6862472568669015,0.951584271832082,0.0,0.0,0.0,0.0
-0.006801779801394286,-0.30797378403211406,0.751472612214542,0.0012018790478393112,-0.5207001927058462,-0.0016251937833123694,0.8537372098883916,-0.14808369852564543,-0.7976021703306425,0.8520856762767306,0.1720738766796932,-0.8399450720917689,0.957317581800795,-0.27860084551309766,0.6456478770376344,1.012024879068879,0.31593892151219244,0.6790735353825893,0.950781716954719,0.0,0.0,0.0,0.0
-0.009904562792843175,-0.31141906424552274,0.751929107307155,-0.0004775717672164335,-0.5185576502584682,0.00021537302544136176,0.855042507070896,-0.14303029685155735,-0.7898809674680886,0.8245334545208894,0.17649064886100327,-0.8366831950798193,0.9424564816570955,-0.30689413814307126,0.6460139471714014,0.9971142777341097,0.34499849817892925,0.6705310363629365,0.9487224100689367,0.0,0.0,0.0,0.0
-0.012765283068503922,-0.3145135025373439,0.751587581255914,-0.0025294460269727316,-0.5160664921959088,0.002525446881268874,0.8565410671143892,-0.140299199173024,-0.789331044985741,0.8038134185748316,0.17935342963928014,-0.8382580473970414,0.9318981280188843,-0.3489967251162671,0.6511809719670236,0.9843986731301256,0.3740378932954751,0.6580917667507151,0.9515834497492731,0.0,0.0,0.0,0.0
-0.01519075087133932,-0.3169610202183413,0.7502750438820472,-0.0046611356025730915,-0.5134994638886282,0.0049683898249409265,0.8580628703676283,-0.1399437246226555,-0.7960447169945895,0.7915213420106149,0.18061119879377555,-0.8448460739710213,0.9263508758389909,-0.40487602632198655,0.660343814323822,0.974696205075772,0.399443157871119,0.6415021219873475,0.9613693389365544,0.0,0.0,0.0,0.0
-0.016738635443532074,-0.3183583642542132,0.7485995503516192,-0.006121808983501595,-0.5114852294494223,0.006720347188783186,0.859243981907062,-0.14102588261407462,-0.80582922398691,0.7877315118830176,0.18077561554225177,-0.8536622015907905,0.9258074810922311,-0.465926152709906,0.6714215136829804,0.9689122419950673,0.4140078494795055,0.6255897016103604,0.9734648984679349,0.0,0.0,0.0,0.0
-0.01670648031656832,-0.31842426163990317,0.7485395058870785,-0.006216047579745988,-0.5115038412022597,0.006776626867341082,0.8592317839303436,-0.14105571828262634,-0.8058389093075133,0.787518101563137,0.18082584408535915,-0.8537300418234661,0.9259105421109356,-0.4659884943773691,0.6713850236603642,0.9689072123354495,0.41408209362390314,0.6254560799917428,0.973286059393748,0.0,0.0,0.0,0.0
-0.01670648031656832,-0.31842426163990317,0.7485395058870785,-0.006216047579745988,-0.5115038412022597,0.006776626867341082,0.8592317839303436,-0.14105571828262634,-0.8058389093075133,0.787518101563137,0.18082584408535915,-0.8537300418234661,0.9259105421109356,-0.4659884943773691,0.6713850236603642,0.9689072123354495,0.41408209362390314,0.6254560799917428,0.973286059393748,0.0,0.0,0.0,0.0
-0.017288559855649848,-0.3184709330098451,0.7490985003274802,-0.0043983689168207,-0.512664888677232,0.005226773134817108,0.8585616152094327,-0.13710625551036032,-0.7890598854794247,0.7688839310080853,0.18316860197622312,-0.8445655295708171,0.9145616676083244,-0.4875717025980043,0.6798730375368238,0.9662189108689562,0.398534619876613,0.6266687132144872,0.9709956014193211,0.0,0.0,0.0,0.0
-0.01791735303631326,-0.3189937329323711,0.7493920124140516,-0.003532058611023673,-0.5134662676958458,0.004309438745290458,0.8580916881302177,-0.13336734390735258,-0.7758761177191517,0.7521764840160646,0.18574469690549283,-0.8372824621219529,0.9047951788546988,-0.49635541768790553,0.6839154403018144,0.9646324055630343,0.39291366354526225,0.626791390904323,0.9710903548270774,0.0,0.0,0.0,0.0
-0.01833658335986965,-0.3197243791866221,0.749531628639537,-0.0031481484614522964,-0.5139866969898372,0.0038108755684956638,0.8577839131775225,-0.13016501625661836,-0.7668581686939293,0.7401012400020142,0.18823920026133745,-0.8327964387846484,0.8987941618806242,-0.4982165845543025,0.6858906248455182,0.9636094939351635,0.39298001856685494,0.626859630905593,0.9723935995404316,0.0,0.0,0.0,0.0
-0.01848142357961354,-0.3205196719437755,0.7495892939622434,-0.0029631971505556984,-0.5143276590369663,0.0035313991703491035,0.8575813709684351,-0.12742704192550178,-0.7613928933529981,0.7328981298111481,0.19063704767026132,-0.8309207909961823,0.8967209298954519,-0.4972754930369225,0.6872543786518629,0.9628287966163891,0.3957598156898396,0.627250793346576,0.9742149521420558,0.0,0.0,0.0,0.0
