zhuoxili-jackie/tripod-support-walk/examples/trajectory_trot_sideways_p3_v0.05.csv
root_pos_x,root_pos_y,root_pos_z,root_rot_x,root_rot_y,root_rot_z,root_rot_w,FL_hip_joint,FL_thigh_joint,FL_calf_joint,FR_hip_joint,FR_thigh_joint,FR_calf_joint,RL_hip_joint,RL_thigh_joint,RL_calf_joint,RR_hip_joint,RR_thigh_joint,RR_calf_joint,FL_foot_joint,FR_foot_joint,RL_foot_joint,RR_foot_joint
0.0,0.0,0.664888,-0.0038739181747107386,-0.3883128170371229,-0.008248016113749812,0.9214825658214358,-1.78e-06,-0.523593,-0.523596,-4.59e-06,-0.523609,-0.523606,8.76624e-06,-1.88e-06,1.04721,-2.47e-06,-1.36e-05,1.04719,0.0,0.0,0.0,0.0
0.0004133362590731095,-0.00021287209104361163,0.664367726878942,-0.003757284808150469,-0.3886078758507512,-0.008212909369878695,0.921358969000313,0.000477041731063249,-0.5217867615464206,-0.5270654910980532,0.00047424666424818613,-0.520734173825662,-0.5297967537420379,0.0003313326556431432,-0.0017326236243689437,1.052956729856756,0.0003200530847810053,-0.0023470189770752703,1.0544538561689083,0.0,0.0,0.0,0.0
0.0012817220112885425,-0.000648900463374236,0.6635619643131709,-0.003714941114307549,-0.38876687848409625,-0.008140572073701148,0.921292702941124,0.001527034193178887,-0.5170197695949987,-0.5378389426785365,0.0015255466203294493,-0.5139304219418314,-0.5453045200363881,0.0015953740406369776,-0.004195843424997776,1.0606398943812516,0.001585046600926521,-0.005804503555001417,1.0651511792594124,0.0,0.0,0.0,0.0
0.0026938661375404413,-0.0013664046201453718,0.6627002836418978,-0.00372235592674672,-0.3888885066367024,-0.008038572951931314,0.9212422346034329,0.0033696684138125,-0.5083217691355327,-0.5560668168753904,0.00337317112642602,-0.5021719940786372,-0.5706783398340864,0.003896628103250286,-0.005865117702494559,1.0686440469747778,0.003891889420826652,-0.009000595151555785,1.0779959706054276,0.0,0.0,0.0,0.0
0.0047964570156897885,-0.0026066881494571344,0.6623473521037537,-0.0037311269103313875,-0.3892554514332731,-0.00796397353868708,0.9210878608183547,0.007031683793319623,-0.49391938760178244,-0.5805085812653862,0.007052979241216291,-0.48305575047920407,-0.6070013487979381,0.007718024464753113,-0.00299163432350216,1.0728855525791676,0.007732642596616835,-0.008843284274872082,1.0903060077853324,0.0,0.0,0.0,0.0
0.007941512340528386,-0.0049663420943767515,0.6639873207622241,-0.003710677097691768,-0.3905740603102211,-0.008029162069831135,0.9205290146675013,0.014910681031642718,-0.4686265928974141,-0.6092798835970371,0.015003445090474486,-0.4498235182473199,-0.657694268416085,0.014559217045175947,0.014006446169564663,1.0625951459557397,0.01463621420046421,0.0027064285401616796,1.0949391616273054,0.0,0.0,0.0,0.0
0.010981843581998163,-0.007455594296959406,0.6648826554946667,-0.0034183429457832963,-0.39014237450095784,-0.008058387925169639,0.920712932967875,0.02297121620463277,-0.4475283074849546,-0.6425583375312705,0.01771656007719435,-0.48207497947796296,-0.6157696952458812,0.019442933232787174,0.0067235504288643,1.0717746399635257,0.021367450464399123,0.009093701917520082,1.098386914802754,0.0,0.0,0.0,0.0
0.014557493140294149,-0.010008573666399439,0.6658856200266524,-0.003255993990457025,-0.38961732402855864,-0.007988973588678524,0.9209364340826997,0.03099578335509581,-0.42351947947594976,-0.6813588624503498,0.019574867361405807,-0.5065873665129942,-0.5944634237153882,0.024887761506618148,-0.00014888850511496268,1.0820599150079513,0.028941282553685048,0.017052750634938628,1.1014237672753249,0.0,0.0,0.0,0.0
0.017918155099810967,-0.012679721092048337,0.6669859095117475,-0.0030713024290062838,-0.3893757468595191,-0.007947192882710378,0.9210395957743979,0.03960862115441174,-0.4023768104288352,-0.7123443046036839,0.022433224252598374,-0.5247941480785875,-0.5850523374109136,0.031061003638531665,-0.006113450749771217,1.0928766839071944,0.03687036818769614,0.025480246280884033,1.1043426278176471,0.0,0.0,0.0,0.0
0.02085248995770829,-0.0154067616738999,0.6681986456515233,-0.0028655290616231358,-0.38933276476031403,-0.007924264188931473,0.921058626290613,0.048485037108979875,-0.38459257530747504,-0.7352021989810498,0.026118945739253333,-0.5386501034982157,-0.5822614368384762,0.03790939061541532,-0.011618883702428364,1.103651194885153,0.044977463631643524,0.034084614359370276,1.1062147614869091,0.0,0.0,0.0,0.0
0.023278340002498923,-0.018135481118308046,0.6694928132437381,-0.002652422758499629,-0.38939663169620925,-0.00790345274933291,0.9210324442232185,0.05731773316675663,-0.3702397649660344,-0.7506744090542892,0.030393441814557984,-0.5496899761059314,-0.5831141190139839,0.04522195454640018,-0.01703328135617494,1.1140747935767468,0.053137026766744325,0.04249237563419158,1.1067667696893875,0.0,0.0,0.0,0.0
0.025198480179957634,-0.02081359594540894,0.6708335159922829,-0.0024431906513493443,-0.3895074984767151,-0.007875200615495249,0.9209863846252662,0.06586063888195308,-0.3590860289127848,-0.7598760870880004,0.03500795518169901,-0.5590052379479342,-0.5859070181953592,0.05273856332993614,-0.022545430721774888,1.124045708170417,0.061199089037410156,0.05046567888581884,1.1060139573184313,0.0,0.0,0.0,0.0
0.026665090781075707,-0.023392354284232475,0.6721939275902203,-0.0022454525553897813,-0.3896308107040613,-0.00783543591355699,0.9209350657005965,0.07392416573772755,-0.35070668781967645,-0.7640575024209868,0.03972273250802274,-0.567340088731505,-0.5896612954438325,0.06023195278035142,-0.028242193581961096,1.1335899068117128,0.06900503572458161,0.05792209092516993,1.1040594883707984,0.0,0.0,0.0,0.0
0.027753857283644105,-0.025829827506739976,0.6735551574213652,-0.002063742759604399,-0.38974865345885645,-0.007783548743756549,0.9208860648645868,0.08137277154820005,-0.3445856561633541,-0.7644624069561563,0.044328263198715745,-0.5751873233236819,-0.5938205368064271,0.06753702020773439,-0.03416183408797152,1.142798283324915,0.07640945631199705,0.0648856277939731,1.101031073984967,0.0,0.0,0.0,0.0
0.02854631220195728,-0.028092990278035208,0.6749028577440748,-0.0019002382807399522,-0.3898531831722693,-0.007720952768765274,0.9208426964217439,0.08812051989084008,-0.34019368234661096,-0.762238511856049,0.04865686904455527,-0.5828676198050781,-0.5980794364297785,0.07455094589059309,-0.04031936735611785,1.1517856142640726,0.08329433851336872,0.07142894385543638,1.0970715745167559,0.0,0.0,0.0,0.0
0.029118772339313495,-0.030157985079596057,0.6762236834069685,-0.0017554548250937108,-0.3899421105894115,-0.0076500900304103045,0.9208059214025281,0.09412294277448757,-0.3370430733281964,-0.7583855343626366,0.05258456931266145,-0.5905874473320217,-0.6022840203461113,0.08122278398753793,-0.046714199555010036,1.160665925781642,0.08957395526091552,0.07762692267623446,1.0923448906897382,0.0,0.0,0.0,0.0
0.02953622678009264,-0.03200889803974684,0.6775021284383751,-0.0016288721202392315,-0.3900155988564467,-0.007573749378291386,0.9207756609210617,0.0993664904460567,-0.33472276910511845,-0.7537319163604508,0.0560271183486547,-0.5984729646119553,-0.606370695911366,0.08754012637600583,-0.053326754356221306,1.169536669542455,0.09519258197611596,0.08352357734491506,1.087045630975688,0.0,0.0,0.0,0.0
0.029849609673445635,-0.03363560920266385,0.6787174562542069,-0.0015196006880916913,-0.3900739083145209,-0.007494492454387282,0.9207517957890903,0.10385710613598083,-0.33291933225706094,-0.7489331813953687,0.05893259318695283,-0.6065762806636444,-0.6103243209564078,0.09351150066191724,-0.060107465908842764,1.1784632705875158,0.10011858952687627,0.08910797991459513,1.081411443254926,0.0,0.0,0.0,0.0
0.030094945252684805,-0.03503132886408292,0.6798405999076876,-0.001426840344666537,-0.3901161021152743,-0.007414656956333707,0.9207347141599667,0.10761132993481262,-0.3314290971607336,-0.7444780546626608,0.06127605905758987,-0.6148485093575347,-0.6141392443886421,0.09913477367540548,-0.06695657007991758,1.1874532183318072,0.1043358753314978,0.09429517257525981,1.075740062201931,0.0,0.0,0.0,0.0
0.03029321301795327,-0.03619010018766405,0.6808315698405252,-0.0013506328892540186,-0.39013924028222463,-0.007336241916976959,0.9207256532416932,0.11064781574728179,-0.330165823267974,-0.74069783585266,0.06304854126426589,-0.6230757441284582,-0.6177742015920756,0.10434201783220251,-0.07369525925017832,1.1964039127383532,0.10783676698566128,0.09891240826766359,1.070404545609638,0.0,0.0,0.0,0.0
0.03045003097943655,-0.03710494490656811,0.6816387990696311,-0.0012921434823930766,-0.39014130841769357,-0.007261914331391277,0.9207254500835711,0.1129836200053426,-0.3291642054416207,-0.7377501387395721,0.06424724679639505,-0.6307827286261037,-0.6210839294955983,0.10891469048580549,-0.08001508637134701,1.2050061066784257,0.11061416010204536,0.1026978583480754,1.065866277744922,0.0,0.0,0.0,0.0
0.03061222638819479,-0.037742480170890005,0.6822105493299052,-0.0012573296553908518,-0.3901083829080023,-0.007195229865872764,0.9207399727253175,0.11457133210190859,-0.328138436331483,-0.7364764381595537,0.06465030672468867,-0.637115732619595,-0.6237666879308992,0.11231927234323305,-0.08529096017389722,1.21264166088535,0.11259324109121195,0.1054748979230153,1.062523877100289,0.0,0.0,0.0,0.0
0.030711068496573877,-0.038107086171696516,0.6825036861156706,-0.0012462149280986817,-0.390063347600358,-0.007149007435542768,0.9207594275921599,0.115470377531793,-0.32760896307216386,-0.7359553492263494,0.06423937856274431,-0.6408690497689973,-0.6252708749040427,0.11381428645316671,-0.08867077175030923,1.2178849822023694,0.11376887928062575,0.10689091655160733,1.0607981635857704,0.0,0.0,0.0,0.0
0.030716576712489327,-0.03818976364332566,0.6825138530083115,-0.0012586817369891056,-0.39003606261308926,-0.0071420864245596155,0.92077102266691,0.11571078879661066,-0.3277374598318613,-0.7357225574410697,0.0628328734004542,-0.6407926415545077,-0.6249596617657405,0.11262579670163467,-0.08864877152117097,1.2183825169942795,0.114076681686107,0.10688365661736116,1.060790991188943,0.0,0.0,0.0,0.0
0.030613970248974783,-0.037991922725396594,0.6822465436287317,-0.0012948130828143727,-0.3900271993343779,-0.0071743441926103765,0.9207744762013487,0.11529071757167725,-0.32861488846619474,-0.7355896069117099,0.06044672363014273,-0.636889156472601,-0.6227931366832857,0.10875343166833684,-0.08522585442165898,1.2140946040672587,0.11351788234707873,0.10545307250874736,1.062444192591079,0.0,0.0,0.0,0.0
0.030396940941857804,-0.0375286234741935,0.6817172859446674,-0.001353894672117803,-0.3900100338080488,-0.007227331756300983,0.9207812477314825,0.11418755909292563,-0.3303083593239465,-0.7355398149689694,0.057310689349887506,-0.6303986663286929,-0.6193553724818144,0.10297269109588789,-0.07992470897899993,1.20728642219357,0.11216451931350592,0.10264760079734886,1.065544922478682,0.0,0.0,0.0,0.0
0.03005910633974395,-0.03681985035114936,0.6809752004229939,-0.0014314687701511457,-0.38997833093783973,-0.00729070736964484,0.9207940583442896,0.11240366147164925,-0.3328150789811239,-0.7354009988591281,0.053628362616394795,-0.6225260166911666,-0.6151400292339879,0.09607026268693462,-0.07369217781795545,1.1992563429995629,0.11007267942664178,0.09870209084514873,1.0696592718695592,0.0,0.0,0.0,0.0
0.029584650380340957,-0.03588348014318003,0.6800792936910455,-0.0015236312578840359,-0.38993632131902695,-0.00735948989199766,0.9208111542398388,0.10994585105718334,-0.33616453592815565,-0.7348366916973437,0.049511844076626024,-0.614117428177747,-0.6104311856650506,0.08854833318399051,-0.06709258306783998,1.1906457790893572,0.10728137839903946,0.09389369361498126,1.0742842453749333,0.0,0.0,0.0,0.0
0.028947403079219055,-0.034734560234717896,0.6790835059327919,-0.0016281795225972487,-0.3898904941927927,-0.007431212347067739,0.9208298043898204,0.10682184992381777,-0.3404576219361419,-0.7333885105213631,0.04502047306771762,-0.6056621138772823,-0.605351178348892,0.08064854053495718,-0.06046640460894026,1.1817237977362545,0.10382234074437337,0.08845609704615616,1.078952147884143,0.0,0.0,0.0,0.0
0.02811341818441649,-0.03338695208876216,0.67803148166947,-0.0017443313777429478,-0.38984592299414367,-0.007504290467007856,0.9208478697686582,0.10304396461681126,-0.3458671515575757,-0.7305148618451053,0.04019973900749804,-0.5973900032482811,-0.5999374360574765,0.07245840670074898,-0.05401662187850558,1.1725639317379215,0.09972992848153535,0.08255432896092241,1.0832707867230136,0.0,0.0,0.0,0.0
0.027044478950481537,-0.03185581239443155,0.6769571588642379,-0.0018720851967171021,-0.3898053048333489,-0.007577321443360799,0.9208642157346218,0.09863597412382111,-0.352623448359305,-0.725614505829092,0.03509925973290714,-0.5893685356622886,-0.5942075751126116,0.06400488563563368,-0.04785715383833974,1.1631468910271985,0.09504994829185602,0.07629409775328705,1.0869225761013892,0.0,0.0,0.0,0.0
0.02570214853015103,-0.030160333307595134,0.6758878040128473,-0.00201163602558849,-0.38976922524502833,-0.007648880056946441,0.9208786016659662,0.09364155569853835,-0.3609939892708601,-0.7180432832362663,0.029773486537694523,-0.5815645284845546,-0.5882055078349169,0.05531360664543013,-0.04204113729877709,1.1534200780220714,0.0898478409049762,0.0697457414090465,1.089647590825153,0.0,0.0,0.0,0.0
0.024053091386876686,-0.02832637481692638,0.6748474132717606,-0.002162948315166335,-0.3897368438760091,-0.0077175094637415885,0.920891391113974,0.08813297376486852,-0.3712561781056382,-0.7071402318833496,0.024270228225919722,-0.573863596884643,-0.582032874256092,0.04643782066212212,-0.03657426876966778,1.1433389172798174,0.08421615256710409,0.0629722746275712,1.0912275789536163,0.0,0.0,0.0,0.0
0.0220768487047042,-0.026388610851393563,0.6738592667039676,-0.002325491205211576,-0.38970670286601555,-0.007781715805374243,0.9209032102946965,0.08221837646004664,-0.38365654298125657,-0.6922835142584537,0.018610173521497204,-0.5660489864910918,-0.5758737169073673,0.03746289954367016,-0.0314119433902413,1.1329096698759153,0.07828041005688359,0.056056793867928174,1.0914821130067651,0.0,0.0,0.0,0.0
0.019777425764080987,-0.02439196121507952,0.6729462943526904,-0.0024981974538255724,-0.38967756547525806,-0.007839684282284848,0.9209145961081906,0.07604568453252132,-0.3983461896402952,-0.6730027849355755,0.012764704620392836,-0.5577473493748912,-0.5700253733114244,0.028486628278361,-0.02643659967023103,1.122248015816523,0.07220323482393713,0.04912383263287158,1.090290887205045,0.0,0.0,0.0,0.0
0.0171999390231023,-0.022393208524227375,0.6721255253127113,-0.002679766214583023,-0.38964917857956227,-0.007888118644203784,0.9209256832500452,0.06980335194238682,-0.4152837688653352,-0.6491811480768275,0.0066607659590418155,-0.5483643231785145,-0.5649648394828793,0.019576491076510147,-0.021415489521232914,1.1116572502038269,0.0661911280769429,0.04233492966261034,1.0876809125083668,0.0,0.0,0.0,0.0
0.014452619256042493,-0.020468142067602797,0.6713836934617547,-0.0028693663076999384,-0.3896266744724268,-0.007918797342537396,0.9209343700422944,0.06372894631376641,-0.43412142541337523,-0.6213472400759239,0.0003031144783818933,-0.5370798333431066,-0.561496251408273,0.010740745063688823,-0.01596598401743729,1.1017344919387102,0.06052537053100614,0.03578745451561571,1.0841251735854245,0.0,0.0,0.0,0.0
0.012012519392772118,-0.018625620322059045,0.6706415942374507,-0.003063945788902781,-0.3895046211471186,-0.007936073630020486,0.9209852230500667,0.05795738768820236,-0.451619058871295,-0.5962565139313282,-0.006560253887192823,-0.5232419067186891,-0.5609367603708941,0.001482237380698902,-0.009327093955619512,1.0939812575483097,0.05524549171256803,0.02977919882165225,1.0806123192866908,0.0,0.0,0.0,0.0
0.010092151946973995,-0.017040160488128207,0.6700535621066351,-0.0032405558513222675,-0.3893823456467869,-0.007940881881917076,0.921036280551053,0.05298299530836998,-0.4657435456011207,-0.5761879072407982,-0.013567242542581064,-0.5065205112109723,-0.5656625147393298,-0.007512500818303838,-0.002391606846156578,1.0895137163811575,0.05081317616338621,0.025298298794966763,1.077166592893848,0.0,0.0,0.0,0.0
0.008995914479663737,-0.015973169984545652,0.6697629983581941,-0.003356156197710715,-0.3893403326067249,-0.007911881857080397,0.92105387667972,0.04950321963122315,-0.47377531254286404,-0.5647445106501219,-0.019180257039621906,-0.4882011038116215,-0.5795636845697502,-0.014546859718244987,0.002314095834515863,1.08982973653502,0.04792869778219227,0.023278782709653643,1.0743415351357632,0.0,0.0,0.0,0.0
0.009001052378092877,-0.015863644790798617,0.6697157699194035,-0.0034569482596770555,-0.38936033661201774,-0.007961547550741615,0.9210446197349526,0.04941577010743159,-0.4738978740700726,-0.564722641328795,-0.019196602999988915,-0.48819977927353425,-0.5795751847239986,-0.014538953765920806,0.0023423688312974155,1.089839736650856,0.04783426698457381,0.023268398210471525,1.0743010610932653,0.0,0.0,0.0,0.0
0.009001052378092877,-0.015863644790798617,0.6697157699194035,-0.0034569482596770555,-0.38936033661201774,-0.007961547550741615,0.9210446197349526,0.04941577010743159,-0.4738978740700726,-0.564722641328795,-0.019196602999988915,-0.48819977927353425,-0.5795751847239986,-0.014538953765920806,0.0023423688312974155,1.089839736650856,0.04783426698457381,0.023268398210471525,1.0743010610932653,0.0,0.0,0.0,0.0
0.008748225677123541,-0.01533257670483279,0.6692405682801845,-0.0035883232562921702,-0.3891637166217029,-0.008005628183113157,0.9211268292253706,0.0480479920252616,-0.4760853196278401,-0.5645977870318154,-0.020706704022855644,-0.4927529814854636,-0.5733833676258968,-0.015842198063949632,-0.001293228565891215,1.094314037424994,0.046533927345255036,0.020860022264049257,1.0754051552192365,0.0,0.0,0.0,0.0
0.008884469196125677,-0.01454764479334903,0.6685863456840022,-0.0036710491790649612,-0.3890049187971773,-0.00804444353136447,0.9211932389449008,0.04584642306821905,-0.4747607688566654,-0.5717844699849092,-0.023137411595752822,-0.4951815568157764,-0.5712876949452521,-0.018107272989135215,-0.005483955901311181,1.1018572588475821,0.04434841752224503,0.01838475164619226,1.0780948633656113,0.0,0.0,0.0,0.0
0.009582209947548955,-0.01358667160972291,0.6680108409369758,-0.0037134036466219223,-0.388969746557704,-0.008096402318411364,0.9212074658651499,0.04309309437773007,-0.46820545522360735,-0.5877564469486228,-0.026161166163136376,-0.49318389182519123,-0.5761272638759201,-0.02113612206533986,-0.008447769569694815,1.1107206886590324,0.04149277488612049,0.017447914890684642,1.0809928258194932,0.0,0.0,0.0,0.0
0.010994962067532532,-0.012279872220090065,0.6678701026275858,-0.003732984803804707,-0.38921623601573113,-0.008161482683293914,0.92110269603699,0.03918500062203507,-0.4543490012695943,-0.6142681574684242,-0.03031316541726918,-0.4850651589366696,-0.5883786116606373,-0.02544077245574363,-0.008157941416621614,1.1193558878958285,0.03747105280290588,0.02046311927160073,1.0814266383537376,0.0,0.0,0.0,0.0
0.013450065709462493,-0.01019664199949763,0.6693555318178595,-0.003761119191840145,-0.3902903492767591,-0.008254394486980555,0.9206471431637114,0.03262029536442231,-0.4275534151582161,-0.6543497872363582,-0.03680776965081518,-0.46641153022459564,-0.607500854197119,-0.0323798373209156,0.001995074117938516,1.1219897580818015,0.030948365443130784,0.03503397607771803,1.070635212427895,0.0,0.0,0.0,0.0
0.01578116418270432,-0.007960076497302942,0.6701399583918864,-0.004117860075936015,-0.38990797915391484,-0.008202300035284485,0.9208080871140503,0.022946983438454555,-0.4629165380430993,-0.6119248975644784,-0.04448154127613971,-0.4513964616366384,-0.6295983564963037,-0.03847549800145074,0.006992176143917873,1.124316482888353,0.019886712408856054,0.025430129017293975,1.0770113289922278,0.0,0.0,0.0,0.0
0.018678575192179296,-0.005784402266544544,0.6710720044288345,-0.0043759120081809455,-0.3895367099211843,-0.008248309398884953,0.9209636086241063,0.013149131491291464,-0.4899176114165681,-0.5903596242429769,-0.05172699210465511,-0.4322556253488803,-0.6588948756362154,-0.04498805673235932,0.013967775838949556,1.1260999408668355,0.0074152770704202595,0.01604194832114758,1.0847238546098208,0.0,0.0,0.0,0.0
0.021511231463585835,-0.003663047738371825,0.6720645015491522,-0.004606239790221757,-0.3893426481149388,-0.008311454339174558,0.921043975410843,0.004063073519751621,-0.5099582207953068,-0.5811550627201012,-0.05875252901709207,-0.4142638611243666,-0.6848497678271611,-0.051533005842744214,0.021547180541260827,1.127531534519323,-0.0046047494145066425,0.00810052783353357,1.0934430406167623,0.0,0.0,0.0,0.0
0.02406844401855645,-0.0016382370491150001,0.6731167895205152,-0.00482279842887724,-0.3892927553107352,-0.008373619902559913,0.9210633929147428,-0.004022995349221551,-0.5251411662568949,-0.5787503870174192,-0.06541345898717343,-0.39843707930912664,-0.7058508409147164,-0.057856226600227385,0.029343258413980368,1.1280544693329806,-0.01585677157174034,0.0012847664169638486,1.1026900072840493,0.0,0.0,0.0,0.0
0.026244836172562753,0.00026810597909693095,0.6742000132385292,-0.0050260635850434615,-0.3893239106749322,-0.00843606523596628,0.9210485677014818,-0.011364800636690773,-0.5372062904629954,-0.580069645629415,-0.07159184183835841,-0.38519759522772884,-0.72169871061658,-0.06384081323354869,0.03693907572621832,1.1275214632654127,-0.026449260817157746,-0.00497465966121253,1.1120563447106158,0.0,0.0,0.0,0.0
0.028013361437491318,0.0020357370394596076,0.6752918423863071,-0.005215055319430972,-0.3893936601389645,-0.008502173079160569,0.9210174231221296,-0.01824922437802918,-0.5473916888151692,-0.5833731686190964,-0.07719188858687369,-0.3745284480530393,-0.7328530803143103,-0.06939370706144302,0.044099271719854116,1.1259461290104957,-0.036528041281248126,-0.011087445643142433,1.1213057915333422,0.0,0.0,0.0,0.0
0.029396519599356217,0.0036444017544442694,0.6763801163515955,-0.005388587634278068,-0.3894773906672635,-0.008574384995216214,0.9209803500641484,-0.024834372367950597,-0.5565280858451125,-0.5876611904973992,-0.08213914601544765,-0.36615518148709286,-0.7400854495364093,-0.07443384519271813,0.05075465485656905,1.1233833512643046,-0.046185764860371785,-0.017294887121979276,1.130345752161122,0.0,0.0,0.0,0.0
0.030443166504912515,0.0050765002394933785,0.6774582183651741,-0.005545795661035031,-0.389562338872027,-0.00865357941744613,0.9209427473227139,-0.031159249021042803,-0.5651534030410159,-0.5923582936648496,-0.08638574875998761,-0.3596873255502734,-0.744264462148521,-0.07889730966801835,0.05693491929766173,1.1199091157321388,-0.0554654949742548,-0.02372128222110889,1.1391739846746287,0.0,0.0,0.0,0.0
0.03121205689200863,0.0063190057671706915,0.6785203564010791,-0.0056863684575539945,-0.38964281234393006,-0.008739364054555145,0.9209070352203852,-0.03719532650845871,-0.573609467004099,-0.5971405894278066,-0.08991072081567197,-0.35471197669746063,-0.7462307571217198,-0.08274124970344993,0.06270769269653412,1.1156255991346566,-0.06438581807275472,-0.03042105314593402,1.1478347485189593,0.0,0.0,0.0,0.0
0.031761309752066834,0.007363610359622202,0.6795583371096421,-0.005810546100284335,-0.38971682783585787,-0.008830605989089396,0.9208740695955329,-0.04289010713361473,-0.5821110999092075,-0.6018368716509707,-0.09271467631258748,-0.3508497403548976,-0.7467320573828753,-0.08594265524553739,0.06813607477920054,1.11066725035235,-0.07296225759061156,-0.03740748015117585,1.1563896160768157,0.0,0.0,0.0,0.0
0.03214234293600408,0.00820549519725691,0.6805592975533483,-0.005918944065312339,-0.38978378049701495,-0.008925870721868458,0.9208441232882268,-0.04819226608328933,-0.5907855742032052,-0.6063675386839855,-0.09481166983593606,-0.34778561934170343,-0.746396568596125,-0.08849300637958253,0.073251006332425,1.1052057458121112,-0.08121746028457975,-0.04466351165341033,1.1648979539793103,0.0,0.0,0.0,0.0
0.03239676429929202,0.008841381361628885,0.6815036458706396,-0.0060122518079146195,-0.38984282838727535,-0.009023666923298364,0.9208175690213914,-0.05306197805787598,-0.5996806484085944,-0.6107003637217252,-0.0962206939160088,-0.34528531288752734,-0.7457282785467763,-0.09039100888301421,0.0780320447277438,1.099457069653991,-0.08917642627035896,-0.05213787268620398,1.1733986863473558,0.0,0.0,0.0,0.0
0.032554870652818944,0.009267381818269266,0.6823629449991104,-0.006090827408859394,-0.38989183690835066,-0.009122409068582355,0.9207953295855127,-0.05747172356527174,-0.6087383093995578,-0.6148094409847098,-0.09695851166041439,-0.3432044615938479,-0.7451111530613596,-0.09163500820046437,0.08239227915126966,1.0936916134752888,-0.09684059374999948,-0.0597284447254252,1.1818823211280651,0.0,0.0,0.0,0.0
0.03263468636373626,0.009476977587731073,0.6830983776490084,-0.00615422177480492,-0.38992714472229223,-0.00922004088244294,0.9207789844524,-0.06139874304105551,-0.6177317042497337,-0.6186279045437598,-0.09703430250848374,-0.3414947754649461,-0.7448105793351778,-0.09221580450669209,0.08616851228259265,1.0882422456067498,-0.10413216461123581,-0.06725117167567289,1.1902380319149752,0.0,0.0,0.0,0.0
0.03264096980642236,0.009459382997949921,0.6836614788257208,-0.006200723381138377,-0.38994471863862584,-0.009313139866105252,0.9207702932117369,-0.06480572852004113,-0.6261723647759401,-0.621991642615036,-0.09644660653699003,-0.34020609853966327,-0.7449630636205659,-0.0921097569769124,0.08912445375930869,1.0834973723724861,-0.11080542433031934,-0.07438694509394353,1.1981547058044404,0.0,0.0,0.0,0.0
0.03256464314105084,0.009198796817990539,0.6839999955513144,-0.006227226699805384,-0.3899436640724803,-0.009395335340847794,0.9207697259202167,-0.0676063234183133,-0.6332215036342509,-0.6245846356178698,-0.09518362028234752,-0.3394751760839913,-0.7455522950521241,-0.09127228018110815,0.09098302732254418,1.0798585565525254,-0.11634904107661379,-0.0805884424855549,1.204947949249213,0.0,0.0,0.0,0.0
0.03238500314284483,0.008675946286943952,0.684072196553275,-0.006230227564976791,-0.38993310823448285,-0.009455127104090518,0.9207735638790512,-0.06963239273144581,-0.6376990584552011,-0.6259237339702494,-0.09323031036856017,-0.33948048644746526,-0.7463857890894546,-0.0896343059602106,0.09150912242153626,1.0776432862768268,-0.11997432899480953,-0.08491683745685964,1.209280900929635,0.0,0.0,0.0,0.0
0.03207922158980302,0.007875244047382716,0.6838691826184745,-0.0062094111102066855,-0.38993958570143794,-0.009474347216139102,0.9207707637960078,-0.07069037113836758,-0.6384011431583884,-0.6254919312681764,-0.0905905592666543,-0.34034225156108433,-0.747120757783076,-0.08711110130867378,0.09064284219141237,1.076942007315001,-0.1209122784294147,-0.08585480236252768,1.208863349709252,0.0,0.0,0.0,0.0
0.03163037750679375,0.006790883987955723,0.6833931736990346,-0.006164730241645787,-0.3899640860646154,-0.00945193189077343,0.9207609182976703,-0.0707645642481991,-0.6353347240203371,-0.6232603247522354,-0.08723828111434398,-0.34216681563992646,-0.7475577462031501,-0.08367670389195964,0.08837557109038838,1.0776804818749772,-0.11913580487359873,-0.08340465466112594,1.2036966624554086,0.0,0.0,0.0,0.0
0.031028419891625966,0.005426560760463803,0.6826569313069882,-0.0060968303417836146,-0.38998308903287127,-0.00940391243124717,0.9207538136544147,-0.0700305113311631,-0.6297076655746126,-0.6197072682760564,-0.08311543832637217,-0.3450406137104518,-0.7476476536660989,-0.07936362309848283,0.0847504042614228,1.0796306481663756,-0.1153644036780445,-0.07909195213510961,1.1960573127032397,0.0,0.0,0.0,0.0
0.030262547464974403,0.003789989250263634,0.6817046315485086,-0.006009634852803307,-0.3899907236846993,-0.009340212556260384,0.9207518016046585,-0.06865049032392319,-0.622704126998881,-0.6152842453087566,-0.07818350296978191,-0.3489856676235986,-0.7472042195025692,-0.07419475394500828,0.0799829889815829,1.0823543389275054,-0.11034549448165115,-0.07387722897137936,1.1872545122792106,0.0,0.0,0.0,0.0
0.029312306819280525,0.0018869781857218028,0.6805898108308359,-0.005906393884250155,-0.3899903365159392,-0.009266195379118292,0.9207533815081347,-0.0667086164071382,-0.6151758815390564,-0.6102753184719596,-0.07240917563580951,-0.35405680633524617,-0.7458826801926052,-0.0681809826277976,0.07433007038404597,1.0853419691191157,-0.10455757298310701,-0.0683374644260781,1.177935919037033,0.0,0.0,0.0,0.0
0.028147089733582344,-0.0002787620939247628,0.679362214332649,-0.005788717290610692,-0.38998748823893165,-0.009184599187773075,0.920756152793441,-0.0642431950087998,-0.6076343510034712,-0.6048191280233646,-0.06576442737312438,-0.36037785411760465,-0.743209754508584,-0.061329953254006996,0.06801621800393001,1.0881024022375843,-0.09822458655013924,-0.06281977038831964,1.168368958955097,0.0,0.0,0.0,0.0
0.02672929708066546,-0.002703319338702802,0.6780635466999053,-0.00565688215244708,-0.3899866070769044,-0.009096968452328292,0.9207582153583723,-0.061283718619705434,-0.600339484824905,-0.598970662692618,-0.05823288653164661,-0.36814091836341145,-0.7386168447075664,-0.05365802305933537,0.06121547841759808,1.090196675335328,-0.09141997530776677,-0.05752724834651243,1.1586152495760114,0.0,0.0,0.0,0.0
0.0250186725086854,-0.005379139863839344,0.6767285160898693,-0.005510460950931163,-0.3899897619386485,-0.00900457862433356,0.9207586752059101,-0.05787166571944715,-0.5933934998032809,-0.592759709087704,-0.0498198603123531,-0.3775907169754597,-0.7314642551380606,-0.04520327631065378,0.05406386053062098,1.0912367029373014,-0.08416627564217478,-0.05256718285489687,1.1486317187090467,0.0,0.0,0.0,0.0
0.02297738954353305,-0.008290962733542833,0.6753881133298487,-0.005348915365688279,-0.38999633085112295,-0.008909054626588881,0.9207577747555177,-0.054067368873079905,-0.5868033498204508,-0.5862324376886378,-0.04056492566381706,-0.3890026130904906,-0.7210623027223736,-0.03603921195787976,0.04668446679660834,1.0908717993062942,-0.07650685814364361,-0.04797758405597536,1.13832885942035,0.0,0.0,0.0,0.0
0.02057657738298299,-0.011411410777372195,0.6740729816187138,-0.005172083063804989,-0.39000290106187646,-0.008812831023871837,0.9207569281463192,-0.049946948894640505,-0.5805004985124361,-0.57947362900214,-0.03055614592650569,-0.402654080098152,-0.7067040433284132,-0.02628838930925513,0.03921399323695798,1.0887813935954709,-0.06855102647446205,-0.04373660635046261,1.1276103359399752,0.0,0.0,0.0,0.0
0.01780553368532525,-0.014696434587167925,0.6728149478987805,-0.004980541762253132,-0.3900031594700932,-0.008719483332146644,0.9207587634215164,-0.04559029307519749,-0.574316347679918,-0.5726108710745458,-0.019944829894106023,-0.41878406232162935,-0.6877307997961684,-0.01613481284718457,0.03182121132009199,1.0846926365085834,-0.06049397999667935,-0.0397516924509391,1.1164119080862427,0.0,0.0,0.0,0.0
0.014685310156807324,-0.01808032172606145,0.671643381098638,-0.004775800315336287,-0.3899874996850978,-0.008633781011295546,0.9207672885404666,-0.04106306549366095,-0.567920578690516,-0.5658104450382255,-0.008961217024967001,-0.4375319310618481,-0.6636621125373714,-0.005834635498968817,0.024699591755567,1.0784559498538135,-0.05260415734364672,-0.03582015087663566,1.1047494826392859,0.0,0.0,0.0,0.0
0.011288615468881234,-0.02146795003931985,0.6705678707244432,-0.004560495228828387,-0.3899383955258852,-0.00855701003574244,0.9207898930577021,-0.03643969986316355,-0.5607605584023858,-0.5593289317072001,0.002044631520090717,-0.4588496059495359,-0.6344459929450154,0.004279046965833998,0.017978758661381062,1.0702441163723972,-0.04515554220456102,-0.031560518429551605,1.092772514924189,0.0,0.0,0.0,0.0
0.0077583454911286836,-0.024728284255611917,0.6695383559004139,-0.004331344010638045,-0.3897935466622123,-0.00851039204034509,0.9208527589505691,-0.032303946382821906,-0.5523336308528886,-0.553602191554705,0.012692490782323027,-0.4824512199875777,-0.6010097787532452,0.013724610906457773,0.01149705003708058,1.0608644240471747,-0.038356962018456106,-0.026449237723448732,1.0807970228990142,0.0,0.0,0.0,0.0
0.004578161646287605,-0.02771965999745908,0.6685303425118791,-0.004108648120608959,-0.38949598371830496,-0.008449221717460494,0.9209802431813073,-0.02852919356143138,-0.5424112984834022,-0.5490415769007825,0.022322497024254775,-0.5051402986224132,-0.569345175991872,0.022215368988999944,0.005590794182839918,1.05158956970853,-0.032275022915595884,-0.020024322949600458,1.0696301178130458,0.0,0.0,0.0,0.0
0.002003642903074084,-0.030165855320483163,0.6676977169855021,-0.0039130823396448244,-0.38909634054587694,-0.008383166908728281,0.9211506109605478,-0.025921400049050858,-0.5317593187295467,-0.5466505801077429,0.03011081211725943,-0.524603412940117,-0.5425001855174697,0.029007428911594843,0.0009795034420678056,1.0429627454846653,-0.0274770109163062,-0.013027081122706844,1.0593838483745255,0.0,0.0,0.0,0.0
0.00042789459833463645,-0.03166602024499934,0.667134998256984,-0.0037976877419910898,-0.3886859641852244,-0.008310423447263517,0.9213249891733882,-0.025266542498877383,-0.5231178240205469,-0.5478182344439769,0.034764173024903214,-0.5373824957939991,-0.5254491914019422,0.03314756371591238,-0.002010555476299242,1.0370439605960509,-0.024631821264592284,-0.007200297073820776,1.0505780709292576,0.0,0.0,0.0,0.0
0.00046928473349750854,-0.031789553344363286,0.66705921235034,-0.003708400690996695,-0.388704325294621,-0.008251389230484582,0.9213181371477148,-0.02526105607409901,-0.5231283145894434,-0.547842409140451,0.034883256663211175,-0.537549872758176,-0.5254067805698746,0.03328487770193202,-0.0019652987655257833,1.0369981196115734,-0.024657084414745893,-0.007165495068527562,1.0505823368052198,0.0,0.0,0.0,0.0
0.00046928473349750854,-0.031789553344363286,0.66705921235034,-0.003708400690996695,-0.388704325294621,-0.008251389230484582,0.9213181371477148,-0.02526105607409901,-0.5231283145894434,-0.547842409140451,0.034883256663211175,-0.537549872758176,-0.5254067805698746,0.03328487770193202,-0.0019652987655257833,1.0369981196115734,-0.024657084414745893,-0.007165495068527562,1.0505823368052198,0.0,0.0,0.0,0.0
0.00046928473349750854,-0.031789553344363286,0.66705921235034,-0.003708400690996695,-0.388704325294621,-0.008251389230484582,0.9213181371477148,-0.02526105607409901,-0.5231283145894434,-0.547842409140451,0.034883256663211175,-0.537549872758176,-0.5254067805698746,0.03328487770193202,-0.0019652987655257833,1.0369981196115734,-0.024657084414745893,-0.007165495068527562,1.0505823368052198,0.0,0.0,0.0,0.0
0.0008629631808473093,-0.03209045815773466,0.6664335137990258,-0.0036045029764747486,-0.3889412686257689,-0.008202485071820193,0.9212189839320055,-0.024567023387710718,-0.5220222372515654,-0.5507501036682318,0.035651461050968634,-0.5353309036705048,-0.5311859143637135,0.03398082542466102,-0.004127503138812577,1.042815795280214,-0.024079043632183595,-0.010223537183776624,1.0587554679834232,0.0,0.0,0.0,0.0
0.001689525794997395,-0.0325469695534774,0.6655580103245503,-0.0035693612811629073,-0.38905059468480463,-0.008117382529547006,0.9211737092081566,-0.023567498604417196,-0.5180991772928801,-0.5606434100332913,0.036859740766708914,-0.5293422207819004,-0.5458046742283019,0.03545303319748966,-0.006980462976353916,1.0504981300545606,-0.022803283436108795,-0.014158606802664292,1.06981544439321,0.0,0.0,0.0,0.0
0.003046965348982286,-0.03327217949747478,0.6646428115371686,-0.0035782141884764815,-0.38914080348778635,-0.008008519123950257,0.9211365235759261,-0.02181785221436972,-0.5104020582390087,-0.5775791189177395,0.03891240019887024,-0.5184403857827767,-0.5701142419572336,0.037939071355904366,-0.008981229770513926,1.0584284572876852,-0.020584034575672303,-0.017763065236350302,1.0829217786892522,0.0,0.0,0.0,0.0
0.005093072003189279,-0.034558791120468786,0.6642726038511746,-0.003582731815126777,-0.38949863429775244,-0.007935935277313082,0.9209858841720653,-0.01803331139695938,-0.49692630600566357,-0.600531398033182,0.042972367816976054,-0.4999432686292686,-0.6056165071056556,0.0420595438706285,-0.006159768184387944,1.0621639705064136,-0.016783853448269267,-0.017927881196219526,1.095518017945734,0.0,0.0,0.0,0.0
0.008202239789879382,-0.03707705347669047,0.6660324199806935,-0.0035630683538926807,-0.390838533431123,-0.008028994388146913,0.9204173404377112,-0.009306161625273977,-0.47182568885185616,-0.6281513642680497,0.051634048027469376,-0.466456235155451,-0.6564030913888118,0.0495088034921803,0.011783583292339318,1.0498253443694294,-0.009648451627366546,-0.0062379489544966815,1.1001327311938098,0.0,0.0,0.0,0.0
0.011255347688867653,-0.03961100955708584,0.6671758430171406,-0.0033151269791348733,-0.39035191797711394,-0.008015894200441492,0.920624861441873,-0.001286539212839907,-0.450270302572395,-0.661955351023749,0.050662981634309,-0.4959968223747601,-0.6158026370689459,0.05104435453946212,0.003408201811245579,1.0626188611574359,-0.002657074111580225,0.0012142441055442085,1.1020020536828543,0.0,0.0,0.0,0.0
0.014848143299403288,-0.04224365963113252,0.6684044477722025,-0.0031912162723143384,-0.3898032178384611,-0.007938085409972246,0.9208584333661219,0.006920244871076573,-0.4259811210874003,-0.7007530985870872,0.04884754571094538,-0.5183925001753354,-0.5949245608987959,0.053089535128534544,-0.0038257232688598333,1.0751580811303558,0.005174266482111415,0.010078151636549213,1.103853492895222,0.0,0.0,0.0,0.0
0.0182236234319586,-0.045038079416104985,0.6696720269776988,-0.003037857047955194,-0.38954116166799013,-0.007891139563637852,0.9209702409455455,0.01593234248409088,-0.40463511325166723,-0.7316762842290011,0.04892862881979744,-0.535231844442147,-0.5855807964618006,0.056661861750893945,-0.00991831508690013,1.087214939921718,0.013461439545457728,0.01904964865082169,1.1062032232582688,0.0,0.0,0.0,0.0
0.021173305993159097,-0.04792037021796455,0.6710147871081812,-0.0028550837114552827,-0.3894807950685239,-0.007861148385412707,0.9209966129774059,0.025363268551712514,-0.38665110967096084,-0.7544772189239736,0.05069258593538344,-0.5482493704930378,-0.5826963844514017,0.06167782357648398,-0.0154670758499411,1.0986347922663333,0.022022945661300357,0.02798113359068123,1.1079165868738223,0.0,0.0,0.0,0.0
0.023616817307248024,-0.05082658874828158,0.6724208629794823,-0.0026578660549580204,-0.38953024920494367,-0.007831588450932882,0.9209765398340523,0.03485830945393544,-0.3720602396489811,-0.7699136340441717,0.053624377511294716,-0.5587551674412388,-0.5833630119228381,0.06768801581449328,-0.02087419828752975,1.1093761118844483,0.030719259037614736,0.036622261061444346,1.1085229397033378,0.0,0.0,0.0,0.0
0.02555696308932696,-0.0536997198345017,0.6738660817145933,-0.0024590807157784038,-0.3896297073025251,-0.00779446308081546,0.9209353345673429,0.044144515340377805,-0.36062700547382254,-0.779075399402093,0.05722283874450332,-0.5676869038702598,-0.5859063125226021,0.07420991715817424,-0.026336520865429584,1.1194898455978537,0.0393905468858183,0.044800439699967595,1.1079218281267862,0.0,0.0,0.0,0.0
0.027045077238383446,-0.05648925900740599,0.6753284310462722,-0.0022677900008491237,-0.389744394415926,-0.0077469749597683995,0.9208876959373753,0.053015968266265964,-0.35194466311995987,-0.7831735269962979,0.061083483661905885,-0.5757029732979154,-0.5893680138613916,0.08086557198274384,-0.031947641306796164,1.1290853050084528,0.04787182977453353,0.05245998449561552,1.1061585017299402,0.0,0.0,0.0,0.0
0.02815605292033095,-0.05915242572549024,0.6767908731477463,-0.0020896169002266214,-0.3898559313908182,-0.0076891178814988545,0.9208413890170295,0.06132411655776591,-0.3455201498142692,-0.783417380081348,0.06490810063463541,-0.5832550988813286,-0.5932103779378277,0.08740514792855059,-0.03775331175824627,1.1382987559103255,0.05601167129625462,0.05963387786519333,1.1033320781948004,0.0,0.0,0.0,0.0
0.028971159423837607,-0.06165512220390804,0.6782396437468197,-0.0019275441200642875,-0.38995585034701735,-0.00762236266656776,0.9207999885649322,0.06897049061369823,-0.3408436788569113,-0.7809335119424802,0.06848764213774547,-0.5906470176294764,-0.5971446640186735,0.09368532521263036,-0.04377488108632203,1.1472707296764206,0.06368459825311097,0.06639748624275535,1.0995696042797993,0.0,0.0,0.0,0.0
0.02956702398864956,-0.06397189211032726,0.6796614127425649,-0.0017827125816142332,-0.3900411500091328,-0.0075488912761306915,0.9207647568602447,0.07589836382490468,-0.3374406324857751,-0.7767147496723401,0.0716803851861876,-0.5980794394534955,-0.6010305475575656,0.09963908602056881,-0.050016172891434986,1.1561310715691517,0.07079595848961322,0.0728265545825869,1.0950251699018483,0.0,0.0,0.0,0.0
0.030009307924525188,-0.06608486868915685,0.681040340456759,-0.0016550948248830316,-0.39011131471619087,-0.007471136825135579,0.9207359039953128,0.08208316142386889,-0.33490713982309794,-0.7715933292128104,0.07439418613738386,-0.6056772836450147,-0.6048149954100376,0.1052491913088935,-0.05646059647348301,1.1649878673838887,0.07728051768089082,0.0789649703938865,1.0898879403058717,0.0,0.0,0.0,0.0
0.030349686176487135,-0.06798200180490505,0.6823550605992327,-0.001544108647306326,-0.39016617199281683,-0.007391459403422856,0.9207134952246787,0.08752244975783342,-0.3329330531938759,-0.7662330131375845,0.0765737782903966,-0.6134931780901477,-0.6084905971115823,0.11052311820416806,-0.0630607012643751,1.17391430214949,0.08309738740329126,0.08480030390379036,1.084394967691312,0.0,0.0,0.0,0.0
0.030624779832233964,-0.06965495002817328,0.6835755815758818,-0.0014492091841517556,-0.390204414695142,-0.007311992892375808,0.9206980771703088,0.0922269633566274,-0.3313166125646364,-0.7611320252022943,0.07819190290475794,-0.6214799499828478,-0.61205845379156,0.11545876543036734,-0.06971965866693736,1.1829239943675136,0.08822337559965869,0.09024415715285793,1.0788479726244997,0.0,0.0,0.0,0.0
0.03085582687740674,-0.07109701337363791,0.6846606630031806,-0.0013704423113699894,-0.39022317186922856,-0.00723483516849563,0.9206908575544097,0.09621391546562179,-0.3299742563905849,-0.7566250839095541,0.07924204403867227,-0.6294267686006846,-0.615483685504346,0.11998753832739448,-0.07626181244093398,1.1919195627793049,0.0926459679975801,0.09511765807451475,1.073630612293875,0.0,0.0,0.0,0.0
0.031048329917483176,-0.07230164636043432,0.6855568665462878,-0.0013088586550147692,-0.3902211374330566,-0.007162760474201953,0.9206923729736561,0.09950316037791472,-0.32894614764552405,-0.7528641871643531,0.07973056836333728,-0.63686435707389,-0.6186269294567917,0.12389164980430142,-0.0823830239908905,1.200597934584291,0.09635763364207756,0.0991487337184733,1.0692258258416323,0.0,0.0,0.0,0.0
0.03126738572570059,-0.07323015101754413,0.6862121861737176,-0.0012708237426402602,-0.3901814971300796,-0.007099613573821721,0.9207097152693933,0.10203495369353752,-0.3278267262724151,-0.7509328854869505,0.07939636317653882,-0.6429422412554078,-0.6211949816130733,0.1266241486754656,-0.0874290794969616,1.2083762726723564,0.09926726831792579,0.10219568970799722,1.0660295434640743,0.0,0.0,0.0,0.0
0.0314424005502313,-0.07388814687388383,0.6865833017286995,-0.0012566381567809726,-0.39012637896156843,-0.007057753199290075,0.9207334127849687,0.10387810125688836,-0.327133551800292,-0.7499150319518348,0.07821068510495269,-0.6464561027696848,-0.6226424006874516,0.12743224663356528,-0.09054770373490927,1.213839972446785,0.1013762107296511,0.1038984234878252,1.064467391253199,0.0,0.0,0.0,0.0
0.03152702268819512,-0.07427376517677188,0.6866668586668159,-0.0012648953192616983,-0.3900892242838457,-0.007057016275656765,0.9207491491490741,0.10508902102327253,-0.3271331688609368,-0.7491170072302452,0.07602271232839283,-0.6461522354206468,-0.6223268865758467,0.12553772795075832,-0.09025377611955929,1.2146287154523532,0.10263500805740498,0.10416340144212125,1.064650422106356,0.0,0.0,0.0,0.0
0.031506674555868065,-0.07438822683204487,0.686470114568723,-0.001295838645471796,-0.3900700794772525,-0.007096945594877762,0.920756909972463,0.10566639177473879,-0.3279050797953016,-0.7483685467061412,0.07284672619586238,-0.6420301561040931,-0.6202020488816509,0.12094048345251289,-0.08654636937851956,1.2106904815784603,0.10304611465995221,0.10299781358256688,1.0665103484365457,0.0,0.0,0.0,0.0
0.031375233203391265,-0.07424597467985498,0.6860097442415429,-0.0013491449655346809,-0.3900422456243469,-0.007158200495950271,0.9207681502972604,0.10558362618852989,-0.3295072315313982,-0.7476697179502054,0.06892836216577437,-0.6353299873771935,-0.6168396316314412,0.1144331008693203,-0.08095055063348724,1.2042575708154928,0.10268479902638838,0.10045509615335796,1.0698343435488193,0.0,0.0,0.0,0.0
0.03112640448925391,-0.07386681732186848,0.6853364977517233,-0.0014205098745058134,-0.38999963685552397,-0.0072298237346353975,0.920785531518074,0.10484334218275702,-0.3319242531804075,-0.7468653671559381,0.06448167374631636,-0.6272515221533174,-0.6127218253126999,0.10681677488079924,-0.07441711338192336,1.1966039387460168,0.10160979995315571,0.09677576826751719,1.0741861189428028,0.0,0.0,0.0,0.0
0.030744355555605368,-0.07326914940765153,0.6845113813107504,-0.0015060224134164318,-0.38994668599284854,-0.007306492148998646,0.9208072160621689,0.10345584304442705,-0.3351728908373395,-0.7456321364867147,0.059624571979813336,-0.6186346555072566,-0.6081217171647025,0.09860278390402255,-0.06751234350375021,1.1883553699757163,0.09986321627820362,0.0922430227885357,1.0790584554446692,0.0,0.0,0.0,0.0
0.03020283902414814,-0.07246901494634418,0.6835903690856321,-0.0016033932226868575,-0.3898900684838754,-0.007385552143684479,0.9208303954840681,0.10143364583859357,-0.33934277960730796,-0.7435212481135115,0.05442002227267577,-0.6099637910195652,-0.6031513185934863,0.09003725185909056,-0.06057690679995087,1.1797717145757936,0.09748009052498535,0.08709569150297812,1.0839799048628047,0.0,0.0,0.0,0.0
0.02946782028415581,-0.07148130527736993,0.6826189168513427,-0.0017117266397470552,-0.3898350011896225,-0.007465309477130806,0.9208528715238979,0.0987933678274124,-0.3445969972024987,-0.7399997737140985,0.048915680292812444,-0.6014666889518637,-0.5978378138741054,0.08120859010817469,-0.05381339709437066,1.170921636774064,0.09449723184635556,0.08150221915416386,1.0885563420756743,0.0,0.0,0.0,0.0
0.02850101336452166,-0.07032172812543222,0.6816323618741204,-0.0018309013116204937,-0.3897842847473755,-0.007544304132734211,0.9208734672252843,0.09556101196109895,-0.3511570199742805,-0.7344771898685519,0.043161469061558884,-0.5932117225588172,-0.5921872673608795,0.0721411765752992,-0.04733582056391195,1.16178391326792,0.09096050484084947,0.0755695037844391,1.0924705882330223,0.0,0.0,0.0,0.0
0.027263941816622225,-0.0690090242363099,0.680658764830369,-0.001960990510047715,-0.38973858067599015,-0.0076211176250121585,0.920891911037897,0.09177886354339568,-0.3592817210691227,-0.7263248828089803,0.037209367708153,-0.5851704567480698,-0.5862287437169301,0.06285382887874338,-0.041198361784011824,1.152305990947163,0.08693137487676711,0.06936636089429882,1.0954656850884434,0.0,0.0,0.0,0.0
0.025723258856368354,-0.06756705651814221,0.6797220631477457,-0.0021018250836753404,-0.38969709710145467,-0.007694396908923046,0.9209085465442401,0.08751258825732162,-0.3692396706216957,-0.7149048805124048,0.031100622241206,-0.5772387762463518,-0.5800431116974291,0.053387528188880665,-0.03540836951766604,1.1424444979467407,0.08249265955819243,0.06295094863809292,1.09732903466826,0.0,0.0,0.0,0.0
0.023858519875588347,-0.06602636001777087,0.6788443224775017,-0.0022526982011481147,-0.38965836196433085,-0.0077628929100171246,0.9209240054400563,0.08285677162860973,-0.3812678497879441,-0.6996286809303638,0.02484326975122056,-0.56921914029113,-0.5737839935418506,0.04380917735507551,-0.029921903358406356,1.1322070608334598,0.07775258208006476,0.0563975543182976,1.0978882943248074,0.0,0.0,0.0,0.0
0.021673764647720896,-0.06442487825310154,0.6780458399444312,-0.002412257134815505,-0.38962097848207833,-0.007825219542799047,0.9209388905249307,0.07793680347444588,-0.3955060770968788,-0.6800733876321774,0.01838677522437645,-0.5607721948526561,-0.5677025810868347,0.034193137062799195,-0.024617805984936306,1.1217094737391562,0.07284690954514295,0.04981800135354915,1.0970319304730893,0.0,0.0,0.0,0.0
0.019214119314010982,-0.06280867892154038,0.677339703571758,-0.002578670742131464,-0.3895842416490513,-0.007878715869496997,0.9209535248600685,0.07290715583101678,-0.41189735686979434,-0.6561889205681815,0.011621874823447696,-0.5513608860156114,-0.5622026587537233,0.02458338056896312,-0.019250428111320057,1.111252151528528,0.06794337547263625,0.043359948269841846,1.0947897525451389,0.0,0.0,0.0,0.0
0.016587590211189048,-0.06123755960969938,0.6767090144392526,-0.00275005466563807,-0.3895515259370354,-0.007916021290264584,0.920966547951876,0.06795610990996898,-0.43006676644277625,-0.6286021322361883,0.0044939303569911165,-0.5402551670657898,-0.5579698400099413,0.014971759110343553,-0.013409284700054005,1.1014216934835985,0.06326832643155557,0.03711726004649832,1.0916048893209442,0.0,0.0,0.0,0.0
0.014231396038272774,-0.05970958378434489,0.6760716083690047,-0.002923336233457,-0.38941745222346114,-0.007938157429991757,0.9210225228872914,0.06317190070637174,-0.4470916904215143,-0.6035238308690681,-0.003255945720409357,-0.5269309473864761,-0.5561745799536048,0.0049199221776153185,-0.006358306682393268,1.0936112163211442,0.05883571208230352,0.03133633324659237,1.088376239173985,0.0,0.0,0.0,0.0
0.012381083164090027,-0.05836481673148241,0.6755690908902254,-0.0030710946288065796,-0.38927530155788304,-0.00794505820119415,0.9210820723610789,0.05894289271676832,-0.46076427717015617,-0.583671466786327,-0.011252528430982149,-0.5112573355659362,-0.5588450394946315,-0.004839075591501528,0.001097089743849258,1.088888256441083,0.05500203525019833,0.027027203069101512,1.0851144863772773,0.0,0.0,0.0,0.0
0.011322845825711136,-0.05743838603079762,0.675327602281355,-0.003142933552205855,-0.3892001693537643,-0.007917896544230002,0.9211138133032217,0.05589233666796563,-0.4685316684008482,-0.5724507772886719,-0.017755532663324424,-0.4947533968678957,-0.5694568398410063,-0.012440472414522697,0.006407334314826121,1.088550053962109,0.05237416153086578,0.025051329666595686,1.0823430439799884,0.0,0.0,0.0,0.0
0.01132836234981824,-0.057341657570780274,0.6752864804648411,-0.0032327216704107122,-0.38921626303357737,-0.007961466747372572,0.9211063267332438,0.055815882315209,-0.4686484492116564,-0.5724282835497496,-0.017771874471670668,-0.4947517036348647,-0.5694670773542605,-0.012433572855168693,0.006435396768934913,1.0885602370075331,0.05229093088986577,0.025044136888200546,1.0823040701973532,0.0,0.0,0.0,0.0
0.01132836234981824,-0.057341657570780274,0.6752864804648411,-0.0032327216704107122,-0.38921626303357737,-0.007961466747372572,0.9211063267332438,0.055815882315209,-0.4686484492116564,-0.5724282835497496,-0.017771874471670668,-0.4947517036348647,-0.5694670773542605,-0.012433572855168693,0.006435396768934913,1.0885602370075331,0.05229093088986577,0.025044136888200546,1.0823040701973532,0.0,0.0,0.0,0.0
0.011133166013396839,-0.05686849516721194,0.6748255232156403,-0.0033865802414217473,-0.38901237695856705,-0.008011319795865352,0.9211914678298114,0.054678759117239316,-0.4704058322123407,-0.5730095344050874,-0.019062329361720438,-0.4987070142895536,-0.5644261283683468,-0.013509082864889582,0.003008166589615926,1.0928420276666004,0.051213242932354894,0.02272661134330469,1.083545489267168,0.0,0.0,0.0,0.0
0.011340014976102498,-0.05616493459191838,0.6742364586836649,-0.003484667032269149,-0.3888654274495059,-0.008051430770038163,0.9212527942387706,0.052760789123668765,-0.46853674168627535,-0.5807621202110623,-0.021213785447047606,-0.5001848595304869,-0.5638526739897021,-0.01548610404398272,-0.0006442219804977663,1.099785879384751,0.04931079958266943,0.020634532457773656,1.0860979381139124,0.0,0.0,0.0,0.0
0.012091379659486175,-0.05522234436605973,0.673671434767343,-0.003542285178613786,-0.3888496970505131,-0.00809650006268329,0.9212588192284362,0.050066459924418966,-0.4616599089599191,-0.5971899312330767,-0.024196745110689612,-0.49761126433774344,-0.5695988778033426,-0.0184027301181158,-0.0034401965937061758,1.1086823131253203,0.04656879541082054,0.01986432303161245,1.089127197959554,0.0,0.0,0.0,0.0
0.013533452133806191,-0.053894220631243,0.6734925541461768,-0.0035772769675492004,-0.3891018445440398,-0.008154905351617977,0.921151700416728,0.0460934464296655,-0.4478122531090594,-0.6238909089119005,-0.028439969443806022,-0.4893041624852935,-0.5822655425643285,-0.02271595435858312,-0.003306048915846685,1.1177466119815362,0.042538499277737556,0.02280252071607344,1.0898652862980447,0.0,0.0,0.0,0.0
0.015993099290350157,-0.051769848522008104,0.674894513499146,-0.0036113793391567245,-0.39013470029510894,-0.00826831431682487,0.9207135865964358,0.039483600266411505,-0.42137250678238486,-0.6639362732966992,-0.034997029615285766,-0.4708109462311963,-0.6016705288171373,-0.029809734516845834,0.006410762714579297,1.1209897922382237,0.03584554086461749,0.03697695117593891,1.079437009270593,0.0,0.0,0.0,0.0
0.018296722140874577,-0.04945088645466908,0.6755525160520223,-0.0039965253630535125,-0.3897719665958111,-0.008198953727684193,0.9208662329561377,0.029409584103192478,-0.4587527573743776,-0.6185233129987172,-0.043000684384530946,-0.45638140509100644,-0.62292355912211,-0.03606270550741142,0.010668082686185881,1.1245722404464626,0.02408513359724282,0.028174774913078023,1.0839215588322673,0.0,0.0,0.0,0.0
0.021161929575892104,-0.04718169369048001,0.6763486737800691,-0.004285409402151573,-0.38942901654945716,-0.008227363481552728,0.9210097647830456,0.019042818139129555,-0.4871596351200785,-0.5949873207717545,-0.050610929102992586,-0.43783126992698584,-0.6513365636971962,-0.04276787626391936,0.01686537979454881,1.127722530180796,0.011029858382435928,0.01912864599156478,1.0905996226571928,0.0,0.0,0.0,0.0
0.02395554360044934,-0.04497499970175964,0.6772450803795573,-0.004538942304641987,-0.3892637943890462,-0.00828029458426308,0.9210779191263871,0.009523267532954544,-0.5080756243287236,-0.5846158802495258,-0.05794391812171493,-0.42034285930583026,-0.6764445647443843,-0.04952169387510385,0.023881406020147537,1.1301680224118777,-0.0014467178227952383,0.011256414065372516,1.09876011406549,0.0,0.0,0.0,0.0
0.02647978192816784,-0.042884489117643566,0.6782311283710439,-0.0047690291837885436,-0.38922808275285725,-0.008339135953870685,0.9210913172800631,0.0011969799855920515,-0.5238193865865916,-0.581556660938397,-0.0648242263642011,-0.4048714181670837,-0.6968901410689609,-0.05603603069071377,0.03128784272555929,1.131369133526395,-0.013011440141689446,0.004417471034768106,1.1077371694642901,0.0,0.0,0.0,0.0
0.028636253410172452,-0.04093526563314258,0.6792678874595558,-0.004978558024332163,-0.3892619014962369,-0.008402323870678787,0.9210753427147557,-0.006230138107869496,-0.5362490621857108,-0.5825346119440459,-0.07113663469952997,-0.39183443471004953,-0.7124992872601731,-0.062169884899982424,0.038624408169728654,1.1312782041614384,-0.023800819042762728,-0.0018580413817695148,1.11701355873599,0.0,0.0,0.0,0.0
0.030400025551020317,-0.03914641382561611,0.680325509364332,-0.005169002414658899,-0.3893268853450454,-0.008471079334609674,0.9210461978513726,-0.013096263002272271,-0.5466750010054676,-0.5856858513922989,-0.07679880502982647,-0.38123023401122497,-0.7236991210193494,-0.06782139716924553,0.04561906197214901,1.129992310409139,-0.03399522973542151,-0.007952362682407257,1.126285179258269,0.0,0.0,0.0,0.0
0.03179246678519155,-0.03753457015374215,0.6813866313107108,-0.0053411037157221584,-0.38940173226058344,-0.00854643908380437,0.9210128782501044,-0.01960175770678911,-0.5559736848051859,-0.5899337489091688,-0.08175386459487118,-0.3728090564871084,-0.7312055257012992,-0.07291191256593398,0.05217240056079628,1.1276284295817645,-0.04371584727370598,-0.014111908523925024,1.1354166397526373,0.0,0.0,0.0,0.0
0.032859432154023364,-0.03611259397562602,0.6824412462331263,-0.005495377361558619,-0.38947604996862906,-0.008628473003953474,0.9209797808758389,-0.02581537545865151,-0.5647130032233594,-0.5946550863584102,-0.08597191222462541,-0.36620973572997595,-0.7358222835430139,-0.07738653276581722,0.05828957995540369,1.1243063542779455,-0.053026252496638414,-0.02047522265343515,1.1443783156498286,0.0,0.0,0.0,0.0
0.033655851155257405,-0.034888598739822044,0.6834815518644763,-0.005632446341626808,-0.38954569827688573,-0.008716416279360624,0.9209486677277008,-0.03172821776620469,-0.5732547392680915,-0.5994958994248756,-0.08944801936592969,-0.36105005350037056,-0.7383238348452651,-0.08121420798050069,0.06401903969337053,1.1201570365730513,-0.06195901569543386,-0.027109701150621314,1.1531965911240454,0.0,0.0,0.0,0.0
0.03423592662452903,-0.033866408802951546,0.6844983748753513,-0.005753153261632318,-0.3896096202717254,-0.008809057471136233,0.9209199995253335,-0.03730053058113286,-0.5818268380655651,-0.6042656978544083,-0.09219580956639904,-0.35698009152376065,-0.7393956858719295,-0.08438380680174633,0.06940985087806076,1.1153316325882683,-0.07053912276917437,-0.03403722022193119,1.1619209494785814,0.0,0.0,0.0,0.0
0.03464753649324196,-0.033047108304057014,0.6854786318459285,-0.005858486640798396,-0.3896677173841837,-0.008905055275900459,0.9208938310974901,-0.04248932873899792,-0.590564720151167,-0.6088721735390649,-0.09423904500402476,-0.3537110500972707,-0.7396113501452054,-0.08689713508060348,0.07448385416612574,1.1100091151624198,-0.07879572233813652,-0.041245119879800174,1.1706020682908516,0.0,0.0,0.0,0.0
0.03492937889400512,-0.03243111197644124,0.6864030811671524,-0.005949363890958121,-0.38971941216830747,-0.00900306669134118,0.9208704195697857,-0.04726040584122934,-0.5995205255964201,-0.6132744208923612,-0.09560342377285426,-0.3510300322855755,-0.7394297277479052,-0.08876080909847531,0.07921615257711516,1.1044054535908965,-0.0867582660702552,-0.048683571802311254,1.1792720114150723,0.0,0.0,0.0,0.0
0.0351095681263857,-0.03202032522915063,0.687244118603841,-0.006026301347764166,-0.3897627719214594,-0.009101632693645547,0.9208505989564628,-0.051590178623085445,-0.6086373616309758,-0.6174402672723557,-0.0963097999896952,-0.34880828052090873,-0.7392000363374455,-0.08997831195826254,0.08351993509945667,1.0987851013235226,-0.09443097995613833,-0.05625011989476016,1.1879150924587762,0.0,0.0,0.0,0.0
0.035204666297668566,-0.03182012562530965,0.6879641767635821,-0.006088977842087495,-0.3897943793080926,-0.009198743848530708,0.9208358427647495,-0.05545892866032924,-0.617686507813021,-0.6212981753686448,-0.09636928056640989,-0.34700690958627534,-0.7391632355300944,-0.0905427688836504,0.08723637844315703,1.0934700125291261,-0.10173722300170661,-0.0637594391755895,1.196413918120067,0.0,0.0,0.0,0.0
0.03521862626988595,-0.0318409275051491,0.6885163269760625,-0.006135772450518384,-0.38981047428629423,-0.009290942551888018,0.9208277932488936,-0.05883203456386215,-0.6261749587380869,-0.6246810111676941,-0.09578053063092201,-0.3456792662806077,-0.7394415401013288,-0.09043034098466059,0.09013696245805289,1.0888338835767641,-0.10843063185771257,-0.0708907471119905,1.204449247202514,0.0,0.0,0.0,0.0
0.035142135893218816,-0.03209880990379084,0.6888498266292389,-0.006163549814226796,-0.3898102738821413,-0.009371831333103705,0.9208268728740931,-0.061625737207695284,-0.6332577174348802,-0.6272724206257234,-0.09453036372952513,-0.34496087857009755,-0.7400146762148058,-0.0895945936576182,0.09195365803101177,1.085262205574252,-0.11399738328759419,-0.07709517224622045,1.2113255829126885,0.0,0.0,0.0,0.0
0.03495475198042149,-0.03261375733566117,0.6889239114211428,-0.0061685053510059,-0.38980245798735247,-0.009430112791112768,0.9208295533167361,-0.06367410446344933,-0.6377492969725104,-0.6285931558813205,-0.0926010820859732,-0.3450263294963993,-0.7406974623335385,-0.08796462764006055,0.09245818529219366,1.0830590900395032,-0.11764522135630372,-0.08143345497639222,1.215690842373033,0.0,0.0,0.0,0.0
0.03463440538698457,-0.033402239799071455,0.6887297443878275,-0.006149669021162533,-0.3898122514503462,-0.009448306646978844,0.920825347007589,-0.06478342307933947,-0.6384444497448649,-0.6281340461551166,-0.08999271160192683,-0.34599057647432613,-0.7411669078679515,-0.08545568773866907,0.09159273352660259,1.0823078165928515,-0.11860279425781729,-0.08238975967555391,1.2152376952745865,0.0,0.0,0.0,0.0
0.03416557598327545,-0.034471016729633326,0.6882693326928359,-0.006106885596272878,-0.3898404819308434,-0.009425349222222297,0.9208139157225421,-0.06493425098550963,-0.6353500633606988,-0.6258679151842719,-0.08667731127388453,-0.3479494252770531,-0.7412451205525277,-0.08203975965672322,0.08935030942443348,1.082935762575829,-0.11684136876692408,-0.07996488480554238,1.2099706253566265,0.0,0.0,0.0,0.0
0.03354018237414518,-0.03581740289325922,0.6875549884142161,-0.0060412094423437,-0.389864563156917,-0.009376625826811313,0.9208046508739213,-0.0642949412637707,-0.6296749401338928,-0.6222689742455462,-0.08259688434735628,-0.35097408020125476,-0.7409056582351835,-0.07774533930680513,0.08577527567868025,1.0847244835294445,-0.11307966450111111,-0.0756801234799742,1.2021885905400882,0.0,0.0,0.0,0.0
0.0327496747142091,-0.037434806534594585,0.6866296965928896,-0.005956623301734651,-0.38987871074934355,-0.009311875822980783,0.920799868870499,-0.06301933982965395,-0.62260759138103,-0.6177882597004646,-0.07771171114048273,-0.35507178170224263,-0.7399936483839167,-0.07259291864021433,0.0810803430589504,1.0872497621896953,-0.10806547376211978,-0.07049376926480144,1.1932200857398327,0.0,0.0,0.0,0.0
0.031775993567272155,-0.03931887346023144,0.685545537911003,-0.005856186603474533,-0.38988585790725216,-0.009236457798247178,0.9207982464849357,-0.061183986035517605,-0.6150041387687084,-0.6127129442736031,-0.07198588461093033,-0.36028300036475586,-0.7382002679758403,-0.06659080973764424,0.07551802597374759,1.0900158240648312,-0.10227645124238832,-0.06498121255863218,1.183726589857017,0.0,0.0,0.0,0.0
0.03059099901535609,-0.04146783286451113,0.6843511062610145,-0.00574119202168093,-0.38989100614340566,-0.009153095025324713,0.9207976232018142,-0.05882046057418032,-0.607378211519719,-0.6071867855503612,-0.06538705971314632,-0.36671664826932343,-0.735089990340341,-0.05974260961095396,0.06931082391609952,1.092540463485087,-0.09593404537399515,-0.05948711161089566,1.173985070614802,0.0,0.0,0.0,0.0
0.02915954118129493,-0.04388021895452677,0.6830875864243572,-0.005611519493420787,-0.3898979961660576,-0.00906325501583291,0.9207963514497578,-0.055951921509028175,-0.5999895836480554,-0.6012711754850282,-0.0578926671005784,-0.37454901922081124,-0.7301323914909932,-0.05205888314724703,0.06263462755031246,1.094385979225455,-0.08910808516201107,-0.05421014185349248,1.164064001986961,0.0,0.0,0.0,0.0
0.027443630785200797,-0.04655134885572732,0.6817899460349358,-0.005466243819199662,-0.38990822602508474,-0.00896811358116917,0.9207938251287721,-0.052613269706961646,-0.5929387102274326,-0.59500409449104,-0.04949991051459469,-0.3840085008394001,-0.7227254236790893,-0.04357071119076335,0.055631637024822454,1.0951564562727112,-0.08181723405608439,-0.049250174178370895,1.153925979554103,0.0,0.0,0.0,0.0
0.02540724878703067,-0.04946908000243604,0.6804903276245658,-0.005304178414357152,-0.38992017610425467,-0.0088692624472741,0.9207906700992452,-0.04885709606907644,-0.5862302005796278,-0.5884432038109576,-0.04023852382345286,-0.3953546517876894,-0.7122149670634006,-0.03434448534817945,0.04843547652033475,1.094482993713727,-0.0741015310712898,-0.04463422146967879,1.14348736947128,0.0,0.0,0.0,0.0
0.02302241955461249,-0.05260910081055633,0.679221611558977,-0.005124320176493915,-0.3899291677671819,-0.008769292298840669,0.9207888384313199,-0.044749191728498824,-0.579792819532265,-0.5816901342295917,-0.030185469575721123,-0.4088515071747273,-0.6979239850077571,-0.02449717481925312,0.04119791339184423,1.0920144181030687,-0.06606795300949864,-0.040327086655744616,1.132659247377168,0.0,0.0,0.0,0.0
0.020277727667801025,-0.055929907075961446,0.6780192918574539,-0.0049262327790416385,-0.3899272348307634,-0.008672278632046976,0.9207916568644449,-0.04035437528426363,-0.5734527844143806,-0.5748965068313455,-0.019480675232651644,-0.4247300068905255,-0.6792105146631684,-0.014210778680519277,0.0341082669757404,1.0874318753713244,-0.05790990839208404,-0.036226112260504886,1.1213876409516998,0.0,0.0,0.0,0.0
0.017190945802203962,-0.059367157406956264,0.676918325178359,-0.00471040748118341,-0.38990309363307607,-0.008584013937768477,0.9208038359723716,-0.03571547069852537,-0.5668650521840053,-0.5682596752231277,-0.008344355364648106,-0.4431319322800719,-0.6555831957963993,-0.0037452004218071055,0.02738797749781801,1.0805211545178024,-0.04989220066475501,-0.032134514993117334,1.1097031710024825,0.0,0.0,0.0,0.0
0.013827934351396195,-0.0628250559775141,0.6759361062327006,-0.004478920807684065,-0.3898393367251463,-0.008508494258296629,0.9208326863961515,-0.03086688954229387,-0.5594367299589936,-0.5620647480080961,0.00288371050215034,-0.4640306326845662,-0.6269247522416955,0.006553343811095017,0.021205044467854164,1.0713771080160275,-0.042281293785105686,-0.02771191187863857,1.0977763514266412,0.0,0.0,0.0,0.0
0.010322941185708694,-0.06616518577099922,0.6750271226462249,-0.004231249277490013,-0.3896818649239188,-0.008461837153430326,0.9209009382072304,-0.026250162423634805,-0.5505351403905295,-0.5567998815983771,0.013778065687318167,-0.4871869485891178,-0.5939826061030435,0.016194449557469216,0.015413508041250506,1.0607917851569801,-0.03525912814013296,-0.022516965719905465,1.0859563546989253,0.0,0.0,0.0,0.0
0.007157895843161651,-0.06924145928857972,0.674139521084077,-0.003993259189671991,-0.3893752159833272,-0.008404680492845974,0.9210322233259782,-0.021969966842252404,-0.5398849356711152,-0.5528753915973746,0.023687399441279275,-0.5094688443194706,-0.5627379557472667,0.024884828234370736,0.010218938293095815,1.050269715021653,-0.028799261586971256,-0.016155663052313946,1.0752338611217518,0.0,0.0,0.0,0.0
0.004585883304703735,-0.07176395588646539,0.6734035325696177,-0.0037903525685591137,-0.38897762462367186,-0.008348131692447702,0.9212015791708009,-0.018921649138809046,-0.5281796071982409,-0.5514946985831728,0.03175208188675627,-0.5286696994337216,-0.5360759256975743,0.031854021261111407,0.0062008936353820775,1.0406253597404038,-0.023458853290194533,-0.009536144152242848,1.0658974930617378,0.0,0.0,0.0,0.0
0.003004826273145045,-0.07329277039550465,0.6728424707886117,-0.0036786180888998448,-0.3886040814223941,-0.008299215101390412,0.9213601134732902,-0.01812852298345266,-0.5182662320080869,-0.5544537304574036,0.0365938502849803,-0.5415720308348678,-0.5186561887191332,0.036038678306683586,0.0032732934785396767,1.0347897018319268,-0.020162160563144262,-0.004525520510106646,1.0585440081090007,0.0,0.0,0.0,0.0
0.0030463248439080337,-0.07341770838787531,0.6727652770030588,-0.003588239509678304,-0.38862296646907213,-0.008239809162248058,0.9213530376652422,-0.018122074242710468,-0.5182773793960539,-0.5544788754369654,0.03671397463360861,-0.5417410393316019,-0.5186137776340096,0.03617610580811559,0.003321529592269094,1.0347416366896534,-0.02018751290140313,-0.0044906410155320445,1.0585487549759867,0.0,0.0,0.0,0.0
0.0030463248439080337,-0.07341770838787531,0.6727652770030588,-0.003588239509678304,-0.38862296646907213,-0.008239809162248058,0.9213530376652422,-0.018122074242710468,-0.5182773793960539,-0.5544788754369654,0.03671397463360861,-0.5417410393316019,-0.5186137776340096,0.03617610580811559,0.003321529592269094,1.0347416366896534,-0.02018751290140313,-0.0044906410155320445,1.0585487549759867,0.0,0.0,0.0,0.0
0.0030463248439080337,-0.07341770838787531,0.6727652770030588,-0.003588239509678304,-0.38862296646907213,-0.008239809162248058,0.9213530376652422,-0.018122074242710468,-0.5182773793960539,-0.5544788754369654,0.03671397463360861,-0.5417410393316019,-0.5186137776340096,0.03617610580811559,0.003321529592269094,1.0347416366896534,-0.02018751290140313,-0.0044906410155320445,1.0585487549759867,0.0,0.0,0.0,0.0
0.003427799031080761,-0.0737081521484132,0.6721248870759919,-0.0034886939198316633,-0.38886070060593364,-0.008197730813749858,0.921253483981744,-0.017421055396073724,-0.5173228526531912,-0.557157857498847,0.037480775994876425,-0.5396671038915641,-0.5241734970958025,0.036851127727529236,0.0010666071483612749,1.0406948808949055,-0.019620806791706222,-0.007571932420172682,1.0667089439961657,0.0,0.0,0.0,0.0
0.004234714399710918,-0.07410138318830883,0.6712532440899001,-0.0034604610123128592,-0.38896760685609555,-0.008110962716493175,0.9212092261316295,-0.016608133804268583,-0.5135182097122912,-0.5669134976718968,0.0384796616504562,-0.5338906614389382,-0.5382935831571544,0.038172451736579543,-0.0018626761858759632,1.0484869354997262,-0.018480202884836743,-0.011344742489083147,1.0773648289282611,0.0,0.0,0.0,0.0
0.00556265350642291,-0.07472177660062325,0.6703505478945546,-0.0034778147467610047,-0.3890545464399212,-0.007995845706477833,0.9211734533465739,-0.01519284406984306,-0.5059726675208648,-0.5836816245871346,0.04016361055822076,-0.5232627784022338,-0.5618856164935773,0.04040009085191057,-0.003957007323015771,1.0565486346488544,-0.016497303750236825,-0.014676396810613869,1.0898035010835265,0.0,0.0,0.0,0.0
0.007565176914129396,-0.07589803157551112,0.669973301440704,-0.0034887373179974287,-0.3894131325506909,-0.007921480005338263,0.9210225247318923,-0.011751446035441544,-0.4928469847153054,-0.6061413210432774,0.0438463698282759,-0.5050998750802579,-0.5966171750053747,0.04423506587136916,-0.00133662979248758,1.0605525641474496,-0.012954904583647954,-0.014659887144394094,1.1018212657634823,0.0,0.0,0.0,0.0
0.010619987931734163,-0.07830127171515376,0.6717043226717222,-0.003471209931762154,-0.39075502527630585,-0.008026537481115375,0.9204531686180386,-0.0033704971085536054,-0.46824952564981503,-0.6330240073624308,0.052156724841254325,-0.47194545899088436,-0.6467534560713861,0.05135098884877642,0.01630723110090446,1.0485972052652468,-0.006115160374137841,-0.0028872140098784773,1.105915252515627,0.0,0.0,0.0,0.0
0.013636172631032041,-0.08071579343992492,0.6728624440687525,-0.0032399859603171534,-0.3902746754915094,-0.008003443869785814,0.9206579848386681,0.004255839363257724,-0.4469206584578118,-0.6664553938182798,0.05107038193778047,-0.49958314274746196,-0.6092726882611866,0.05250408396349932,0.007293313744517756,1.0623977272850258,0.0006298416597270992,0.00486420964668137,1.1070464075169328,0.0,0.0,0.0,0.0
0.017180924101427936,-0.08323450855675064,0.6740976894336608,-0.003128347488032329,-0.3897279476123279,-0.007919166645150534,0.9208906705421243,0.012102847524288623,-0.42295957585362354,-0.7047343395188194,0.049122204945610724,-0.5207774264496892,-0.5902740874667517,0.054217759489273654,-0.0003827212665000624,1.0755236671497057,0.008215482915268985,0.01396252500766627,1.1081890310636713,0.0,0.0,0.0,0.0
0.020500939409294306,-0.085931382475448,0.6753681706971243,-0.0029820159732933064,-0.38947432382895314,-0.007871713837123259,0.9209988571002579,0.020816797136214295,-0.4019561102111892,-0.7350585593900019,0.049073401226482315,-0.536907879266858,-0.5820030655479946,0.05754813617067964,-0.006780553742109339,1.0878972463339611,0.016277584697557176,0.023104602909753025,1.1099409682326065,0.0,0.0,0.0,0.0
0.023395467065863557,-0.08873266862299957,0.6767075961025834,-0.0028041486004962233,-0.38941975601250967,-0.007843791479848913,0.9210227279025227,0.03000052608947958,-0.3843005230318595,-0.757307802058305,0.050711117904939595,-0.5495309887301006,-0.5797290300795419,0.06238303758145201,-0.01253825414109404,1.099489648230282,0.024648703295674684,0.032129536877073914,1.1111827712968811,0.0,0.0,0.0,0.0
0.025788200144602577,-0.0915729744989245,0.6781062115725933,-0.0026106083144992968,-0.3894724033074804,-0.007817423407387511,0.9210012593245425,0.03929302958642643,-0.370010086489119,-0.7722613472440827,0.05352630598242639,-0.5598244153153706,-0.5807321867766203,0.0682516401217548,-0.018081042007266214,1.1103309979581937,0.03319010592463043,0.04080633562844546,1.1114315169936113,0.0,0.0,0.0,0.0
0.027683812127951665,-0.09439342078423946,0.679542624774361,-0.0024146049803484278,-0.38957341065594475,-0.007783876478531112,0.9209593577675675,0.048415434084164946,-0.35884145771793485,-0.7810087020190631,0.05702322067173356,-0.5686429697508371,-0.5834486572883597,0.07465980296975254,-0.023627841269286638,1.1205082288497419,0.04173919512852353,0.0489861638982961,1.1105608969835863,0.0,0.0,0.0,0.0
0.02913432516993294,-0.09714162850951301,0.6809968993145936,-0.0022253666265836065,-0.38968879567109216,-0.007739969252501692,0.9209113872397069,0.057156160361733155,-0.3503842788235851,-0.7847557101266529,0.06080004018654345,-0.5765969537559373,-0.5869875083096978,0.08122404700868749,-0.029290092339395054,1.1301480160276003,0.05012706379594342,0.05663225122499199,1.1085911252293992,0.0,0.0,0.0,0.0
0.03021468709503288,-0.09977302628004514,0.6824531456403178,-0.002048641734181785,-0.3898006664403658,-0.007685498036105907,0.920864906829242,0.06536133202890816,-0.34414491541252296,-0.784706484212445,0.06455834451821228,-0.5841117335940584,-0.5908526864035194,0.087691475998562,-0.03512562627562142,1.1393951132529527,0.05819798182134517,0.06379011326284999,1.1056017694428766,0.0,0.0,0.0,0.0
0.031005869508325172,-0.1022518454431291,0.6838979917714527,-0.0018875301891294225,-0.3899008037927233,-0.007621840318206935,0.9208233858790388,0.07292762650322795,-0.3396150110219943,-0.7819832781628863,0.06808705327308016,-0.5914772887371801,-0.5947811985654474,0.09391625926170134,-0.041162904892773355,1.148394571140223,0.06582219333484543,0.07054224829556667,1.1017062251136505,0.0,0.0,0.0,0.0
0.03158400755021564,-0.1045511128386781,0.6853180021732219,-0.001743274155282368,-0.3899863267537147,-0.007551156835553901,0.9207880353104124,0.07979410282032665,-0.3363224904356458,-0.7775753958804982,0.07124185557812623,-0.5988874484245704,-0.5986483177377542,0.09982880835960509,-0.04740944297007337,1.157279011317396,0.07290097489366985,0.07696767925513297,1.0970498552223091,0.0,0.0,0.0,0.0
0.03201418346155182,-0.10665161897327186,0.6866969600535662,-0.001615939224706818,-0.3900567525614184,-0.007475882667249816,0.920759050837953,0.08593257133386346,-0.3338664858857324,-0.7723123103897185,0.07392806859130246,-0.6064639253102364,-0.6024102355359765,0.10540934392333966,-0.053850460316558074,1.1661584739998334,0.07936546353593106,0.08311112981009666,1.09181663278731,0.0,0.0,0.0,0.0
0.03234747592653745,-0.10854015839776286,0.6880130132415759,-0.0015050265554949708,-0.3901118953596781,-0.007398382904863562,0.9207365029824438,0.09133758612485979,-0.33193988510541067,-0.7668555680823173,0.07608828455431044,-0.6142581432588006,-0.6060648088751814,0.11066306153601961,-0.06043945202361942,1.1751076073217,0.08517168513897821,0.08895963077862479,1.0862408270672455,0.0,0.0,0.0,0.0
0.03261992761956931,-0.11020742574308624,0.689235675544971,-0.0014100608054587731,-0.3901504156034792,-0.007320793525270041,0.9207209517085606,0.09601747747592729,-0.3303438241608163,-0.7617013954964738,0.07769357941480542,-0.6222229439124118,-0.6096159753273659,0.1155860050370151,-0.06708027677378751,1.1841410583219862,0.090293918288685,0.09442355578312027,1.0806229915101078,0.0,0.0,0.0,0.0
0.032852221970321185,-0.11164593787933993,0.690323261129672,-0.0013311575328405845,-0.3901693787435679,-0.007245189019239036,0.9207136314547301,0.0999875498996748,-0.32899754198441167,-0.7571825471138007,0.07873577081408449,-0.6301483493538548,-0.6130301974695289,0.12010820728578746,-0.0735981349947355,1.1931619633878336,0.09471771476807755,0.09932252189716338,1.0753465796528565,0.0,0.0,0.0,0.0
0.033049311822787975,-0.11284851415654018,0.691222009905634,-0.0012694319840188153,-0.3901673162577911,-0.007174310857868503,0.9207151476598749,0.103266152786359,-0.32794394772550506,-0.753449099780491,0.07921863060826606,-0.6375663919403508,-0.6161685802844343,0.12401043008169094,-0.0796901577802008,1.2018670867661263,0.09843400297940193,0.10338305275750868,1.0708941170746076,0.0,0.0,0.0,0.0
0.03327355139797723,-0.11377655398598299,0.6918797322861472,-0.001231350230032566,-0.3901273553790476,-0.007111791543569171,0.9207326174208244,0.10579397717372747,-0.3267958970381593,-0.7515526187506334,0.07888111592865056,-0.6436279577716094,-0.618738547601862,0.1267446210896495,-0.08470773366490174,1.2096682222215822,0.10135233322465197,0.10645907304637471,1.067658357695521,0.0,0.0,0.0,0.0
0.03344989510072692,-0.11443730417066865,0.6922525496264875,-0.001216990425366665,-0.39007250474517663,-0.0070701332609950695,0.9207561963906626,0.10764366045513422,-0.3261035650417488,-0.7505133544724181,0.0777059182840773,-0.647131438913719,-0.6201927916373953,0.12755990766954187,-0.08780945912083905,1.2151407830841947,0.10347779468069382,0.10817756756474141,1.066075090066111,0.0,0.0,0.0,0.0
0.0335370607821962,-0.11482713024004737,0.6923369459703538,-0.0012251116075821477,-0.3900351154811571,-0.007069179567067908,0.9207720317719246,0.10886668044589543,-0.3260976709785432,-0.7497118235207141,0.07553099216708063,-0.6468249376091628,-0.619888008245458,0.1256728492103035,-0.08750536948169957,1.2159249558718321,0.10475590354832476,0.10845349619959292,1.0662552479392695,0.0,0.0,0.0,0.0
0.03352023845081304,-0.11494782939563965,0.6921401830706924,-0.0012559022036557057,-0.3900154826447907,-0.007108481883266624,0.9207800038512571,0.10946328294256123,-0.3268599403721067,-0.7489714739254467,0.07237419786296073,-0.6427080417446092,-0.6177782596339999,0.1210850961034176,-0.08379590775627355,1.2119678319171616,0.10519078821696276,0.10729288208023478,1.0681334902367479,0.0,0.0,0.0,0.0
0.03339366083941075,-0.11481442638317926,0.6916795541808884,-0.0013090129180980145,-0.3899870045685918,-0.007168713929908669,0.9207915248813863,0.10940889202999553,-0.32844562346748873,-0.7482930306058709,0.06848205557372047,-0.6360180202698958,-0.6144381028876991,0.11459225075748758,-0.07820322274751042,1.2055075207969927,0.10485968731816073,0.10475203804385902,1.0714942599325095,0.0,0.0,0.0,0.0
0.03315160506795886,-0.1144474450789578,0.6910065388390048,-0.0013800701447067292,-0.3899436812523813,-0.007239007424852219,0.9208092189097804,0.1087082207927913,-0.330835213815271,-0.7475239199361334,0.06406993408891712,-0.627952203562824,-0.6103506385028034,0.10699789857939315,-0.07167346182977623,1.1978221256300332,0.10382325680740158,0.10107498394191593,1.0758978152507832,0.0,0.0,0.0,0.0
0.03277880797011422,-0.11386611480562432,0.6901827825503535,-0.0014650728865948455,-0.38989000940929996,-0.007314132399946453,0.9208312210125638,0.10737376306654695,-0.33404154589062557,-0.7463434524136134,0.059257410969890865,-0.6193484637195347,-0.6057887792292567,0.09881504059391513,-0.06476926388061945,1.1895395935639472,0.10212564629947746,0.09654742005989501,1.0808350339095893,0.0,0.0,0.0,0.0
0.03224954586289289,-0.11308735974025781,0.6892647488128846,-0.0015616401805458998,-0.38983269677703747,-0.007391499424815583,0.9208547092455692,0.10542022118271135,-0.3381507663427521,-0.7443057259178041,0.054109018778890565,-0.6106896826802963,-0.6008636253807552,0.09029122381788378,-0.057829247550305274,1.180920672929957,0.09980403935572854,0.09140938990142032,1.0858346161570267,0.0,0.0,0.0,0.0
0.03153028716130526,-0.1121269117003735,0.6882982039436033,-0.0016687787689691285,-0.38977695450943806,-0.007469448340032694,0.920877488188447,0.10286622923222453,-0.3433225658510672,-0.7408817300199226,0.04867372202555777,-0.6022027240942848,-0.5956006013320329,0.08151610358510106,-0.05105522109202725,1.1720343710300785,0.09689723936453717,0.08582929038272678,1.090504618299892,0.0,0.0,0.0,0.0
0.030583259750357153,-0.11100119436641256,0.6873185704447732,-0.001786253884913172,-0.3897255376059602,-0.007546532184278699,0.9208984007407091,0.09973941638282399,-0.3497748002201012,-0.7354868115947453,0.04300260413995529,-0.5939558571123593,-0.5900026360782551,0.07251498516710683,-0.04456110867574486,1.1628596734697716,0.09345266303084125,0.07991265622195229,1.09453212629844,0.0,0.0,0.0,0.0
0.029370522560295917,-0.10972945054974495,0.686353687502986,-0.001913997553164354,-0.3896790189209814,-0.007621333362628674,0.9209172134909432,0.09608301817178232,-0.35776231455386215,-0.7275009696910159,0.0371489245005206,-0.5859217536367919,-0.5840933735271547,0.06330701688817374,-0.03840111243971742,1.1533441590085152,0.08953256240436284,0.07372534982044532,1.0976667850073465,0.0,0.0,0.0,0.0
0.027859269463116128,-0.10833572823489845,0.6854268487761533,-0.002051647254425524,-0.3896364629417868,-0.007692504797175111,0.9209343314589279,0.09196266901402485,-0.3675492007437483,-0.71629828454777,0.031155619244626898,-0.5779997392675188,-0.5779446559696543,0.053932590847060445,-0.032581879136656076,1.143444168752877,0.08521936301810122,0.06732051697696687,1.0997052859096625,0.0,0.0,0.0,0.0
0.026029562639047644,-0.1068503041570308,0.6845589285918029,-0.0021982217537487624,-0.38959617893049436,-0.007758824888165077,0.9209504795700116,0.08747158866455224,-0.37936746387731285,-0.7013064993444755,0.025032566899423743,-0.5700004347166878,-0.5716955501573294,0.044456994826869635,-0.027056710603393593,1.1331658113252745,0.0806192551936917,0.060764924007738065,1.1004874084123741,0.0,0.0,0.0,0.0
0.023885855443343502,-0.10531024222620916,0.6837684402536479,-0.0023519611686231446,-0.38955645110547343,-0.007818998170906775,0.920966396210184,0.08273211141996578,-0.3933510813303586,-0.6821240421465573,0.01872927343301513,-0.5616016351543356,-0.5655739975136501,0.03495212213923793,-0.02169739456271232,1.1226207694885573,0.07586365330536259,0.054160497222650865,1.0999155620698544,0.0,0.0,0.0,0.0
0.02147350499268164,-0.10375977227769663,0.6830664216921227,-0.0025104146350529996,-0.3895161045457302,-0.007870601264824544,0.9209826033935765,0.07789339178262301,-0.40943496412840175,-0.6587285080548697,0.012128325468804841,-0.5522984716458743,-0.5599457655313331,0.0254586138497173,-0.01624363697696478,1.1121010212599902,0.0711123902509541,0.04764507377391611,1.0980300919340389,0.0,0.0,0.0,0.0
0.018900385841955032,-0.1022549402638312,0.6824353795623805,-0.0026707301107299205,-0.38947670609099033,-0.007906876261448259,0.9209985037560996,0.07313456317261559,-0.4272290755309474,-0.6317889582108306,0.005141814325180315,-0.5414139688066945,-0.5554361732902221,0.01595975672439281,-0.010259698576837995,1.102175247240031,0.06657680508261268,0.04131264119788332,1.0952567193545115,0.0,0.0,0.0,0.0
0.016561139267032576,-0.10080087317206578,0.6817940091747506,-0.0028296646110091365,-0.3893360933602502,-0.007926851204221909,0.9210573078995431,0.06855971440615866,-0.44415127265124926,-0.606863351029771,-0.0024775322779363044,-0.5284989029145976,-0.5531557145275167,0.006056839114631146,-0.0030459180424529447,1.0941169993292614,0.06229620538514063,0.03535093646550968,1.0924426285927538,0.0,0.0,0.0,0.0
0.014725565264553821,-0.09951974305196824,0.681277984890473,-0.002956723997188459,-0.3891809067364376,-0.00793194712072035,0.9211224477939308,0.06451226525204751,-0.4577585220126939,-0.5871704819678427,-0.010426089807589339,-0.5135257584092994,-0.5549386290343559,-0.0035624265001684627,0.00469186542909905,1.0889732325666035,0.05856641100851162,0.030822593887939002,1.0895951435299112,0.0,0.0,0.0,0.0
0.013673122868315533,-0.09863725510932964,0.6810161492015676,-0.0029976077427805925,-0.3890859111197439,-0.007903691133157021,0.9211626890959115,0.061583916434566274,-0.46554593548339845,-0.576021484106261,-0.016958958943635482,-0.49810814709573886,-0.5640051023151887,-0.011057367078499105,0.0104166938577019,1.087913253526781,0.05595934761106259,0.02861597007511705,1.0871497397785195,0.0,0.0,0.0,0.0
0.013678420529558337,-0.09854469406166576,0.6809769500663827,-0.003083703614714111,-0.38910079963564254,-0.007945153365303232,0.921155759376731,0.06151012131880004,-0.46566025213162177,-0.5759994363586131,-0.016974775876483182,-0.4981060842056247,-0.5640145789364959,-0.011050576701829531,0.010444722426546212,1.0879233952790532,0.05587943923023911,0.02860845599751675,1.0871112454217078,0.0,0.0,0.0,0.0
0.013678420529558337,-0.09854469406166576,0.6809769500663827,-0.003083703614714111,-0.38910079963564254,-0.007945153365303232,0.921155759376731,0.06151012131880004,-0.46566025213162177,-0.5759994363586131,-0.016974775876483182,-0.4981060842056247,-0.5640145789364959,-0.011050576701829531,0.010444722426546212,1.0879233952790532,0.05587943923023911,0.02860845599751675,1.0871112454217078,0.0,0.0,0.0,0.0
0.013514497280563071,-0.09808525975881173,0.6805307093633848,-0.00325379101315527,-0.3889017297009926,-0.007999709951035794,0.9212387649900096,0.06045205851645068,-0.4671290051653861,-0.5770151150504987,-0.01819411848055596,-0.5017552688377866,-0.5594590573811924,-0.01204976968928537,0.007152650356604402,1.0921396309156997,0.054875965699394805,0.02640040214577334,1.0883530361816696,0.0,0.0,0.0,0.0
0.01375303326116073,-0.09739507500092016,0.6799724232478253,-0.003363304295144097,-0.3887639363939609,-0.00804050200199824,0.9212961740239923,0.05859694254857883,-0.4649577878946229,-0.5851409747604598,-0.020292171801752,-0.5028501747564136,-0.559420019522156,-0.013957891506378139,0.0037304125114144414,1.0988882215544797,0.05304031617356959,0.024519758264757784,1.0907768611450321,0.0,0.0,0.0,0.0
0.014524973821762623,-0.0964335090427935,0.6794201138786047,-0.003431864941162689,-0.38876105528464794,-0.008081882157769308,0.9212967748656132,0.05584949089380528,-0.4578859874013921,-0.6018606213421075,-0.02334417969820058,-0.5000819658241366,-0.5653508845048888,-0.01689796552500447,0.0010299678629888177,1.107815532883924,0.0502751623009637,0.02390475431116105,1.0937157764194392,0.0,0.0,0.0,0.0
0.015974304005990515,-0.0950709746154572,0.6792446136291725,-0.003477677924014337,-0.38901946888164096,-0.008136834981391013,0.9211870333997263,0.05177408433694216,-0.4439878784743834,-0.6286891516105129,-0.027705647469173755,-0.49172767176763094,-0.577984742346916,-0.02128434009638347,0.0011862709979337505,1.1169583261519611,0.04616976724913568,0.026953778983506156,1.0943216946810626,0.0,0.0,0.0,0.0
0.018429769376372824,-0.09289883536805217,0.6806363715050935,-0.003517968945715011,-0.3900377199732081,-0.00826180595096891,0.920755094178157,0.045058415375948915,-0.41763015973695444,-0.668779896281772,-0.034367391765001,-0.4733330466044299,-0.5972906292004352,-0.02854335791388556,0.010842132328832481,1.120297257768868,0.03930022502486046,0.04113784985247777,1.0836847385826813,0.0,0.0,0.0,0.0
0.020706541478471237,-0.09051701439009607,0.6812714903359505,-0.003921439704176788,-0.38968416630904484,-0.008186539704386618,0.9209038241892253,0.034631945732935265,-0.4560774577651365,-0.6217711491133758,-0.042581694251091484,-0.45922754758011824,-0.6178672527441335,-0.03494169221480433,0.014912883709634756,1.1241859729719446,0.02707561134268635,0.03241099284344535,1.0875587786795522,0.0,0.0,0.0,0.0
0.023541724760352854,-0.08817853970445821,0.6820357358384058,-0.004230918422005145,-0.3893583575746917,-0.008207418388433328,0.9210400680749139,0.02380671259831462,-0.4852452404827905,-0.5971572867796832,-0.050426328048838544,-0.44100345665119284,-0.6455742904459423,-0.041806760381918925,0.02088658138700892,1.127734794411956,0.013617998448092312,0.023307526404424968,1.0938962045974479,0.0,0.0,0.0,0.0
0.026302283349341173,-0.08590728805228455,0.6829142584213554,-0.004500020723974685,-0.3892116749590267,-0.008256109801443864,0.9211003520464094,0.01394161191585681,-0.5066389352318774,-0.5861455786504406,-0.057963435907654716,-0.42380213723272814,-0.6700053245885113,-0.04873019486437907,0.02775823076960781,1.1304505152831437,0.0008212977423848605,0.015326079085925957,1.101846377349831,0.0,0.0,0.0,0.0
0.02879840916741956,-0.0837644030104112,0.683888936413585,-0.004739479943619691,-0.38918564729493,-0.008313690633728471,0.9211096307267322,0.005416147686260139,-0.5226918111757076,-0.5827287100928128,-0.06499858540735354,-0.40854684898023075,-0.6899626348454373,-0.05540144225348247,0.035066568376798835,1.1318134216151075,-0.010964117807586389,0.008396436962974239,1.110708744934802,0.0,0.0,0.0,0.0
0.030935776809770037,-0.08177745014723975,0.6849165370127356,-0.004953718750695387,-0.38922195762337847,-0.008377239015335108,0.9210925850536654,-0.0020958687786215248,-0.5353226063524259,-0.5835233811343177,-0.0714159228928365,-0.39564996424976845,-0.7052879195138542,-0.061663470178274275,0.0423347986666975,1.1318206671086275,-0.021894573502465202,0.002079680484053062,1.119942468593034,0.0,0.0,0.0,0.0
0.032690570441391044,-0.07996513732165739,0.6859651431217676,-0.005145781555176774,-0.3892847041847584,-0.008447001104565678,0.921064377876113,-0.008972344334252088,-0.5458801210006128,-0.5865975429329435,-0.07713923003757964,-0.3851144126672525,-0.7163883835816057,-0.06740820004831559,0.049281764569442305,1.130599557704871,-0.032175643753939116,-0.004010065623499945,1.1292241854957963,0.0,0.0,0.0,0.0
0.03408338666574983,-0.07834203882444044,0.6870164664853335,-0.005317641733484106,-0.38935465499776134,-0.008523411979305418,0.9210331301132438,-0.015445067521255275,-0.5552664341669201,-0.5908321864278692,-0.08212095601857139,-0.37670053977147716,-0.7239461610365816,-0.07255811766283435,0.05580137501371314,1.1282868234739762,-0.0419487698020614,-0.010134959541185512,1.1384033823669635,0.0,0.0,0.0,0.0
0.03515823964169219,-0.07691814608801596,0.6880601654093351,-0.005470688310183754,-0.3894229193080934,-0.008606215797828934,0.9210026028935077,-0.02160378667152811,-0.5640668265403163,-0.5955776006786152,-0.08634139034807004,-0.3700607410829284,-0.7287259597943038,-0.07706387233243171,0.06189285324994349,1.1250150675484447,-0.051291344040026686,-0.016449237309690733,1.1474388929125743,0.0,0.0,0.0,0.0
0.035967750210941354,-0.07569853272960078,0.6890884519842161,-0.005606125741835749,-0.38948633985249065,-0.008694521108307934,0.9209741406386903,-0.027452556427517573,-0.5726547839405046,-0.6004629865790975,-0.08980508763431884,-0.3648280573283806,-0.7314625782267945,-0.08090188199932485,0.0675993955383278,1.120922838179458,-0.06024469630853752,-0.02303157027021498,1.1563484303414626,0.0,0.0,0.0,0.0
0.03656376405750712,-0.07468421363756837,0.6900924070619796,-0.005725164857391855,-0.3895444387933018,-0.008787123776740976,0.920947956807712,-0.03295945562372289,-0.5812658165261201,-0.6052868853493113,-0.09253360018463463,-0.36066786865689676,-0.7328044634913176,-0.08406863724266952,0.07296592579033756,1.116164661188279,-0.06883931458166649,-0.02991031623287563,1.1651749202380577,0.0,0.0,0.0,0.0
0.03699202192776761,-0.07387390931514706,0.6910593876248053,-0.005829017642271818,-0.38959742406997816,-0.008882765831633567,0.9209239741599434,-0.03808636580552422,-0.5900398340742966,-0.6099495940903739,-0.0945567792466409,-0.3573052893877269,-0.7332927199675727,-0.08657264699539967,0.07801164757550709,1.1109194260788449,-0.07710793228882311,-0.0370756505419173,1.1739639036662306,0.0,0.0,0.0,0.0
0.03728945152511571,-0.07326620482057918,0.6919707576412093,-0.00591873795326315,-0.38964487734802244,-0.008980211095620368,0.9209023802261362,-0.04280229271721214,-0.5990311237650847,-0.6144049727484301,-0.09590462977582204,-0.35453887218708835,-0.7333596392132418,-0.08842573883048593,0.08271084559656033,1.1054001809982863,-0.08508242827330775,-0.04447835619138844,1.1827431284967769,0.0,0.0,0.0,0.0
0.03748281860352152,-0.07286172595441814,0.6927996825202424,-0.0059949341950819735,-0.3896849842065952,-0.0090780882086074,0.9208839569470081,-0.047085952820173894,-0.6081830260452689,-0.6186168890561121,-0.09660072890354987,-0.3522481608099741,-0.7333340284839713,-0.08963486651362658,0.08697790021420691,1.0998660591080178,-0.09276862591544549,-0.05201556720255454,1.1914928520471406,0.0,0.0,0.0,0.0
0.03758775141034605,-0.0726651044373653,0.6935095188062607,-0.006057358428673203,-0.38971446870047277,-0.009174429312024833,0.9208701163254096,-0.05091945699900308,-0.6172653512201426,-0.6225106579140813,-0.09665753589590384,-0.3503991740318144,-0.7334425463519704,-0.09019482771141227,0.09065715658125378,1.0946316611919156,-0.10009066540124555,-0.059501408709793244,1.2000912456450699,0.0,0.0,0.0,0.0
0.037607640839967635,-0.07268650679408738,0.6940543443986285,-0.0061044368047915324,-0.3897297272528891,-0.00926577634456838,0.9208624332306196,-0.054269846296639924,-0.6257821225065459,-0.6259168377213239,-0.09607387147878226,-0.34904702994731285,-0.7337989585491252,-0.09008182132084382,0.09352473559247028,1.0900619630406312,-0.10680195857054002,-0.06661503413449507,1.2082134160713465,0.0,0.0,0.0,0.0
0.0375329296614795,-0.07294219003046151,0.6943843100209659,-0.006133003315661676,-0.3897300328307351,-0.009345745075449932,0.9208613059679882,-0.05705512187647613,-0.6328844849397907,-0.6285182262656647,-0.09483565850325205,-0.34832678253443145,-0.7343802678763774,-0.08924833928101714,0.09531741938371154,1.0865338386305419,-0.11238721024898043,-0.07280849397340741,1.2151559316454146,0.0,0.0,0.0,0.0
0.03734320990652973,-0.07345260488989787,0.6944591112658488,-0.006139058010020954,-0.3897237820266089,-0.009403192325153714,0.9208633262671079,-0.059111304780372506,-0.6373838013847295,-0.6298371226072087,-0.09292339320436543,-0.3484116821751077,-0.7350046337507526,-0.08762230629336112,0.0958098572822314,1.0843451929498822,-0.11605158470190434,-0.07714484406459282,1.2195555871787487,0.0,0.0,0.0,0.0
0.037016780930990464,-0.07423480700961013,0.6942697390509088,-0.0061212348585066145,-0.3897354037948083,-0.00942106288318164,0.9208583436592491,-0.06024576892626572,-0.6380746832478553,-0.6293680295591475,-0.09033446373318756,-0.3494150636652487,-0.7353594315283049,-0.085118720709446,0.09494412002473564,1.083577063195719,-0.1170213405252837,-0.0781114140795868,1.2190922434844076,0.0,0.0,0.0,0.0
0.03653898239620334,-0.07529618620916742,0.6938179149076885,-0.006079312660285471,-0.3897656404591639,-0.009398292137850785,0.9208460563959254,-0.060436731585124186,-0.6349642699842828,-0.6270849024627037,-0.08703962138376105,-0.3514268480751972,-0.7352797382202156,-0.08170808554649935,0.09271345746484744,1.0841590685770157,-0.115266677533131,-0.07570839228782657,1.2137726290053965,0.0,0.0,0.0,0.0
0.03590303955241415,-0.07663472480543085,0.6931155697248406,-0.0060145965246259404,-0.38979250203862376,-0.009349856516513617,0.9208356043106913,-0.059846894364721105,-0.629261859953904,-0.623460629933855,-0.08298084897098908,-0.3545084384336165,-0.7347542704442284,-0.07741619439250974,0.08916287006670785,1.085879062612465,-0.11150672623613678,-0.07145285784565249,1.2059125662686416,0.0,0.0,0.0,0.0
0.03510191371749883,-0.07824459034916668,0.6922047652456849,-0.005931123287760521,-0.3898102897947679,-0.009285338189628687,0.9208292687797064,-0.05862429992203017,-0.6221590291073003,-0.6189469001357668,-0.07811754339929085,-0.3586579824904856,-0.7336483009520872,-0.07226161749500701,0.08450292102953649,1.0883219745937538,-0.10648992571497277,-0.06629982411202545,1.1968550303748136,0.0,0.0,0.0,0.0
0.03411912739085762,-0.08012242298418755,0.6911363705470946,-0.005831852452211055,-0.3898217014310761,-0.009210045118975354,0.9208258280800246,-0.05684072638667598,-0.6145150879940129,-0.6138335553870703,-0.07241188657583503,-0.3639077086014857,-0.7316756324405371,-0.06625049462606054,0.07898248833166287,1.0910019626696459,-0.10069344954655175,-0.060822528103204807,1.1872720186379697,0.0,0.0,0.0,0.0
0.032928137644615725,-0.0822677728805267,0.689957803309319,-0.005717895371067862,-0.38983138930753586,-0.009126642062090856,0.9208232718539168,-0.05452385416119577,-0.6068455278701581,-0.6082680925378938,-0.0658284503238173,-0.3703584530405329,-0.7284244179413335,-0.05938322460967104,0.07282079932456466,1.093445019462396,-0.09433714882743549,-0.055363849012910485,1.1774479350746638,0.0,0.0,0.0,0.0
0.031495344247369196,-0.08468081307077292,0.6887092822802574,-0.0055888996686896415,-0.3898428020915353,-0.009036493521062642,0.9208201212195339,-0.05169353178538445,-0.5994104299292415,-0.6023162555711203,-0.05834038823307938,-0.3781783710470712,-0.7233881617607386,-0.051666052078374346,0.06619172462973862,1.0952184677376,-0.08748862995235232,-0.05012015211972851,1.1674567220966154,0.0,0.0,0.0,0.0
0.029784152155518988,-0.08735872521103114,0.6874250810340478,-0.005443647834847668,-0.38985686758687627,-0.008940641802170558,0.9208159720692101,-0.04838165685409878,-0.5923094413181679,-0.5960212927692295,-0.049939561584273304,-0.3875879959428656,-0.7159882113374855,-0.04312506372189644,0.05923675912964883,1.0959276215082587,-0.08016416099357769,-0.04518743709054707,1.1572653926313445,0.0,0.0,0.0,0.0
0.027759596753258425,-0.09029128537293586,0.686136958147279,-0.005280568985479477,-0.38987142636634714,-0.008840559914078297,0.9208117239667755,-0.0446375039638503,-0.5855459001564914,-0.5894480157994912,-0.04064960281832529,-0.3988401801311009,-0.7055919346101514,-0.03382187214481086,0.05208987225435284,1.0952005373701366,-0.07240147237589914,-0.04058641246894328,1.1467943395307947,0.0,0.0,0.0,0.0
0.02539411573277981,-0.09345588003875809,0.6848778156432721,-0.005098151067409113,-0.3898808921770237,-0.008738803085727954,0.9208097154632823,-0.04052183438501023,-0.5790472583506824,-0.5827085488192676,-0.030541198169868458,-0.4121948547063033,-0.6915390492688638,-0.023870198785668456,0.044904069155948904,1.0926778558245247,-0.06430532973944623,-0.036273350083451845,1.1359586129035153,0.0,0.0,0.0,0.0
0.022675594127479166,-0.09681206905249294,0.6836838017342235,-0.00489532324984308,-0.38987608797424084,-0.008639585871629883,0.9208137864911387,-0.036090035053770356,-0.5726377839619726,-0.5759699604854333,-0.019748829703174303,-0.42788380631268297,-0.6731939443058943,-0.013452054033310942,0.03787114982843903,1.0880257379850884,-0.05606673975908745,-0.03213787419843729,1.1247080417160786,0.0,0.0,0.0,0.0
0.019619304250125265,-0.10029537664283979,0.6825916077219416,-0.00467190497967354,-0.3898444052665092,-0.008549136314023008,0.9208292052571676,-0.03136667267865764,-0.5659666859974273,-0.5694507731543607,-0.008489587129287204,-0.4460583905555451,-0.6500503322164003,-0.0028325525631804644,0.03121777454332206,1.0810054856743463,-0.047947339544069684,-0.027984413146853748,1.1130762388215485,0.0,0.0,0.0,0.0
0.01628595467887796,-0.10380799047796513,0.681622181164593,-0.004429541939749296,-0.3897681335397874,-0.008472844286711816,0.920863394942381,-0.02635012359818388,-0.5584225778881086,-0.5634580980589694,0.0028977842889575892,-0.4667164972321067,-0.621933658549825,0.007629076490982212,0.025124058332993443,1.0716770236284099,-0.040210700895558726,-0.023496166574257345,1.1012346218142173,0.0,0.0,0.0,0.0
0.012802510399566565,-0.10720496008882283,0.6807340621859719,-0.004169398681084819,-0.3896000438752363,-0.00842377668197617,0.9209361877532364,-0.02138323572583322,-0.5492949718303844,-0.5585156136882505,0.01395473315390128,-0.48966263977875735,-0.5894338525438818,0.01743027771853977,0.01945528869742949,1.0608243435166127,-0.03303233910307428,-0.01827746892797629,1.0895324654899652,0.0,0.0,0.0,0.0
0.009649640914944465,-0.11033740549452356,0.6798577323017668,-0.0039206754281332955,-0.38928457708166825,-0.008367740990200071,0.9210711846872938,-0.016757383011081515,-0.5382909713035099,-0.5550246460481747,0.024042745302012822,-0.5118119104565227,-0.558523423682087,0.02626946582045543,0.014335264085509414,1.0500964350431319,-0.02632738635381937,-0.011943366855589782,1.0790638073065184,0.0,0.0,0.0,0.0
0.00707952473876795,-0.11290819664968457,0.6791216878722126,-0.0037118955008999333,-0.3888875845700224,-0.00831744132689235,0.9212401904871811,-0.013405969009867536,-0.5260362485770641,-0.5542691019608804,0.0322867392014773,-0.5309925122299207,-0.5319763084103901,0.033361799370928376,0.010332600004700494,1.0403730592435565,-0.020658344430229746,-0.005482902601992401,1.0702256467005071,0.0,0.0,0.0,0.0
0.00549485640423601,-0.11446851087338562,0.6785513300726482,-0.0036021678779162734,-0.3885280670811785,-0.00828210506783055,0.921392626523779,-0.0123879556873114,-0.5153542855052274,-0.5582010258071922,0.03728877374224074,-0.5439643356456526,-0.5144522927041336,0.037625042610756027,0.007374456389927948,1.0346230431126517,-0.01702628713874665,-0.0008640317622402045,1.0637705097215036,0.0,0.0,0.0,0.0
