zhuoxili-jackie/tripod-support-walk/examples/trajectory_tripod_com_tilt_v0.05.csv
root_pos_x,root_pos_y,root_pos_z,root_rot_x,root_rot_y,root_rot_z,root_rot_w,FL_hip_joint,FL_thigh_joint,FL_calf_joint,FR_hip_joint,FR_thigh_joint,FR_calf_joint,RL_hip_joint,RL_thigh_joint,RL_calf_joint,RR_hip_joint,RR_thigh_joint,RR_calf_joint,FL_foot_joint,FR_foot_joint,RL_foot_joint,RR_foot_joint
0.0,0.0,0.72963,0.0,-0.5231245161092812,0.0,0.852256264656019,0.0,-0.81,0.872,0.0,-0.81,0.872,0.0,0.65,1.0,0.0,0.65,1.0,0.0,0.0,0.0,0.0
-0.00011193815928574419,0.00029522568157303746,0.7296160885095232,-9.170061775454123e-05,-0.5230601636589639,0.0001128345657501089,0.8522957491695093,-0.000997716311116681,-0.8108496447795918,0.8726175492903033,-0.0009977163111166804,-0.8088203992615648,0.8698784725924597,-0.0007127691346813325,0.6491565799389476,1.0009774416024873,-0.0007127691346813344,0.6497107326333601,0.9992066599830254,0.0,0.0,0.0,0.0
-0.00024739772364913357,0.0006534695861728328,0.7296043034294165,-0.0002055407231871189,-0.5229985013414314,0.00025489457941358957,0.8523335382210308,-0.0022214687887602558,-0.8117732275139381,0.8732682220458744,-0.0022198566169385993,-0.807255558717016,0.8671820676325798,-0.0015275257596795951,0.6481867834655591,1.002141021125233,-0.0015251472200647972,0.6494486692762133,0.9982333687757157,0.0,0.0,0.0,0.0
-0.000373631498365142,0.0009809186661347284,0.7295992634263071,-0.00030866042580708023,-0.5229438019140851,0.00037904418697748746,0.8523670225283754,-0.003325540410109016,-0.8125614317823253,0.8738061026360157,-0.003320686364478018,-0.8057844891128443,0.8646659949180969,-0.002312876928197117,0.6473420336288835,1.0031598682872316,-0.0023057651207858713,0.6492223228771786,0.997287567340694,0.0,0.0,0.0,0.0
-0.000474328359599737,0.001244725332177553,0.7296011715649378,-0.00038785851038101283,-0.5228984405280068,0.00046852333391495915,0.8523947741187999,-0.004188938171957326,-0.8131663437423929,0.8742284800357134,-0.0041803358736366095,-0.8046087487914865,0.8626536719078561,-0.0030354771021410243,0.6467223008521296,1.0039315067005694,-0.0030222679517580434,0.6490396101777646,0.9964534861883191,0.0,0.0,0.0,0.0
-0.0005512561981177294,0.001442007302346899,0.7296084872722024,-0.0004440433357715636,-0.5228607669670293,0.0005252391632765993,0.8524178232040829,-0.004808714063882015,-0.8135933617881006,0.874525256573403,-0.004796776889868399,-0.803741224088808,0.861154372099195,-0.003658487768515718,0.646302472277106,1.004457995649933,-0.003638858425793312,0.6488893051130511,0.995756987151223,0.0,0.0,0.0,0.0
-0.0006171947156138217,0.0015821297734584898,0.7296191272392436,-0.0004872865125042505,-0.5228234924412078,0.0005613459022448665,0.8524406391029296,-0.005235269537013952,-0.8138815917053196,0.8746751692274319,-0.005220709707756544,-0.8031100263203064,0.8600224238601936,-0.004105445954877512,0.6459749105038517,1.0047731392750971,-0.004080263915553794,0.6487441772257265,0.9951960478512849,0.0,0.0,0.0,0.0
-0.000675439350557892,0.0016754577897683824,0.729631261596758,-0.0005228527587840596,-0.5227835904572925,0.0005842900948032045,0.8524650742280645,-0.005511916352601338,-0.814081413076144,0.8747193322168679,-0.005495451162675094,-0.8026780485366881,0.859190389695203,-0.004366537160617178,0.6456918111663635,1.0049175286994048,-0.004337421412370994,0.6485986990952778,0.994757112229891,0.0,0.0,0.0,0.0
-0.0007265751446889246,0.001734026530884227,0.7296434258595249,-0.0005533885045576622,-0.5227425352509021,0.0005987272646429819,0.8524902211323512,-0.0056802680779872924,-0.8142246362254048,0.8746985634030324,-0.0056624879431233215,-0.8023976393551653,0.8585908644583068,-0.004477547675995344,0.645438669607229,1.004944101270391,-0.0044461503118713415,0.6484576914432383,0.9944207609221642,0.0,0.0,0.0,0.0
-0.0007684455923106042,0.0017697240262855322,0.7296542170243947,-0.0005801252861085787,-0.5227034714738665,0.0006074273539783607,0.852514149674849,-0.005777324432141927,-0.8143419899455793,0.8746671649922585,-0.005758652846432476,-0.8022306212080059,0.8581789510920718,-0.00449417246500779,0.6452204644337072,1.0049078518978116,-0.004461678781441451,0.648332225051359,0.9941662416031034,0.0,0.0,0.0,0.0
-0.00079661904216614,0.0017936614422084584,0.7296623528919846,-0.0006027404865524217,-0.5226710864694414,0.0006112490048812731,0.8525339866817121,-0.005833880138953064,-0.8144596276394312,0.8746864310622674,-0.0058145891777763945,-0.8021484062455517,0.8579312067259274,-0.004488598307865605,0.6450600625861538,1.0048634921933695,-0.004455438718461005,0.6482381455894174,0.993973333826201,0.0,0.0,0.0,0.0
-0.0008053903153434122,0.0018156851142041447,0.7296667819927727,-0.0006193492345859113,-0.5226513657218365,0.000609281205227261,0.8525460662580279,-0.0058736673905116984,-0.8145939930850993,0.8748140120673868,-0.00585391999443764,-0.8021288222429439,0.8578384789716869,-0.004545235328840361,0.6449945281919304,1.004863066003688,-0.00451096736745302,0.6481935357612327,0.9938236085421267,0.0,0.0,0.0,0.0
-0.0007894634438930121,0.0018435389190227399,0.7296669236278817,-0.0006267201732126226,-0.5226509983055092,0.0005991337562158149,0.8525462933065988,-0.0059118723148608825,-0.8147444194769077,0.8750872398943038,-0.005891778067381198,-0.802151171293946,0.857894252160148,-0.004751963544464919,0.6450684156223189,1.0049507444143648,-0.004715236756903119,0.6482147290053573,0.9937016862049307,0.0,0.0,0.0,0.0
-0.0007465298616443546,0.001881408800449087,0.7296630127316853,-0.0006212328101664678,-0.5226757088457157,0.0005777684007591749,0.8525311628533583,-0.005953089701056483,-0.8148875692445954,0.8755027629015028,-0.005932762632633564,-0.8021921619730344,0.858080524073828,-0.005179416455765763,0.6453195562269162,1.0051523086526313,-0.005137967329751365,0.6483100441200965,0.9935968492378475,0.0,0.0,0.0,0.0
-0.0006806536743075247,0.0019280249413752997,0.7296564486081142,-0.0006010064916596042,-0.5227270285767048,0.0005432696108291641,0.8524997344543257,-0.005989983744195968,-0.8149791870157236,0.8759982235213759,-0.005969584411001174,-0.8022248276530266,0.8583535015300646,-0.005843973709455542,0.6457541403627158,1.005459365839366,-0.005794771219570375,0.6484713037684515,0.993504809868948,0.0,0.0,0.0,0.0
-0.0006057974635295179,0.001975140259085926,0.7296499206549825,-0.0005695399034877863,-0.5227974020197801,0.0004978579307250487,0.8524566289279165,-0.006005350437460341,-0.8149710195342428,0.876447695297767,-0.005985081205137387,-0.8022224190493789,0.8586330273813836,-0.006655018224204417,0.6463103826234187,1.0058122380190446,-0.006595124850216726,0.6486647526287194,0.9934286585155295,0.0,0.0,0.0,0.0
-0.0005480305344124367,0.00200803380003719,0.7296469062193846,-0.0005409049223621021,-0.5228639954773419,0.0004524102311694743,0.8524158286777164,-0.005982472148692486,-0.8148540276238944,0.876690573967636,-0.005962477069322646,-0.80216969585012,0.8588025564140505,-0.007354530028453578,0.6468136495706616,1.0060902934081717,-0.007283753795468074,0.6488248460837057,0.9933769474719311,0.0,0.0,0.0,0.0
-0.0005441737795577555,0.0020105962303750896,0.7296499248131905,-0.0005460063015089103,-0.522882596532288,0.0004323206272986873,0.8524044258564396,-0.005930126675820455,-0.8147382307808543,0.8766178681014741,-0.005910230417353879,-0.8020819360004731,0.8587264926460983,-0.0074714496014982885,0.6469332142489044,1.0061249492240119,-0.007397252074847301,0.64885580881954,0.9933560535642468,0.0,0.0,0.0,0.0
-0.0006341543145091113,0.001978722998942573,0.7296574058885045,-0.0006352590087565003,-0.5227895977666098,0.0004807474758389413,0.8524613784769857,-0.005923869320234182,-0.8149314338945471,0.8762997610976362,-0.0059030973142610525,-0.8020020791834197,0.8582624769927646,-0.0063778682095745115,0.6461906053348759,1.005766943128909,-0.006318448613140342,0.6486498968717145,0.9933529647724626,0.0,0.0,0.0,0.0
-0.0008451455528364887,0.0019489937268538707,0.7296678962893683,-0.0008458158790089717,-0.5225645742133981,0.0006295182149887507,0.8525990582210877,-0.006119952759180699,-0.8156053752622754,0.8758023157997101,-0.006096072162345324,-0.801715283306805,0.8570161894234551,-0.00389713961440986,0.6443340345837347,1.0050934934550817,-0.0038669507767763716,0.6481825556537466,0.9932725028647945,0.0,0.0,0.0,0.0
-0.001169465031625126,0.002064721348854354,0.7297817408831917,-0.0009477217808094199,-0.5226853038500605,0.0006778457021929337,0.8525249060806376,-0.0064725153406939165,-0.813274104553499,0.872240676058207,-0.00644526899527822,-0.7983343219444533,0.8520779166848449,-0.0037475131299430503,0.6440362044172443,1.0049077571008074,-0.003710387206180606,0.6483159270251264,0.9924256234065468,0.0,0.0,0.0,0.0
-0.0013287309009297158,0.002120090517149378,0.729812415494684,-0.0011000443073757899,-0.5227541265557781,0.000731090343476704,0.8524824799245654,-0.006655119446443949,-0.812341421768112,0.8706435207300878,-0.009396932542853734,-0.8087250279692104,0.8550380946853974,-0.0028449484964650574,0.6435733265849546,1.0050077773068204,-0.002809900225834705,0.6485039379295962,0.9923168226456228,0.0,0.0,0.0,0.0
-0.0014113240025717575,0.002209599513439026,0.7298707730902064,-0.0011840023447690024,-0.5229691607999373,0.000704556481320965,0.8523504904620056,-0.006747518293221959,-0.8107042065594293,0.868881870621982,-0.01397722372187478,-0.821264296461604,0.8540948544167154,-0.0031012907390797245,0.6441623043652903,1.00530693789689,-0.003059894736974402,0.6491236736932874,0.9919815222905586,0.0,0.0,0.0,0.0
-0.0014483419115807852,0.0023128773163214583,0.7299418181400072,-0.0012451221481962927,-0.5232361048161236,0.0006457800819209298,0.8521866058885063,-0.006800425106170443,-0.8089062044721999,0.8672494432749649,-0.019095173490834928,-0.8341730828974614,0.851033579516609,-0.003797810426125001,0.645202306202138,1.0056438122303377,-0.003746617987914632,0.6499561624051113,0.991514191137,0.0,0.0,0.0,0.0
-0.0014666806011414742,0.0024036334168510685,0.7300143986923735,-0.0013108842367731718,-0.5234921608827262,0.0005860856631016995,0.8520292809407709,-0.0068163785562517015,-0.807245786424967,0.8658294829836358,-0.02418402844425078,-0.8466657151830084,0.8469128201345338,-0.004391769492848057,0.6462687784965104,1.005883833583076,-0.004329860358424198,0.650831636815692,0.9910365928881105,0.0,0.0,0.0,0.0
-0.0014823940672429984,0.0024623052704490695,0.730083648761818,-0.0013902721184442814,-0.5237079316085483,0.0005375549794596691,0.8518965785518667,-0.006773565206471846,-0.8058166784760483,0.8645905713961882,-0.02902338173364853,-0.8585143429980705,0.8422106704242118,-0.004614078692851619,0.6471599745038339,1.0059438462142427,-0.004544654260897314,0.651654163966839,0.9906286217393604,0.0,0.0,0.0,0.0
-0.0015000763704594298,0.0024794339141418005,0.7301484608904305,-0.0014807323878471752,-0.5238782228263448,0.0005001066630635615,0.8517917380282763,-0.006649619270980967,-0.8046035414232297,0.8634793510494985,-0.03358031089516819,-0.869772921261171,0.8371249525643135,-0.004411756574652118,0.6478401827235161,1.0057966757653887,-0.004340637992409713,0.6523921060823445,0.9903270315544108,0.0,0.0,0.0,0.0
-0.0015158440597604452,0.0024545601457143192,0.73020898741739,-0.0015749433175969284,-0.5240110091167314,0.0004683603966627255,0.851709905141739,-0.006433460119659768,-0.8035585289172257,0.8624709937028324,-0.03790400292027014,-0.880594777803367,0.8317385677149748,-0.003859764323720305,0.6483651403902797,1.0054600680081098,-0.003792409259809434,0.6530549432254202,0.9901388528637948,0.0,0.0,0.0,0.0
-0.0015206782904678758,0.0023934133513103567,0.7302652405940505,-0.0016649709292903762,-0.5241191613157586,0.0004358834513659674,0.8516432014752934,-0.006127181001283854,-0.8026440662648281,0.861585846378141,-0.04206705883288186,-0.8911400269419054,0.8260936925037037,-0.0030886173933441286,0.6488258471147733,1.004980290867854,-0.003028223120786811,0.6536728730558021,0.9900547137755588,0.0,0.0,0.0,0.0
-0.0015026995447436125,0.0023051119852336315,0.7303166933645433,-0.001743429227476333,-0.5242164886765696,0.00039657248209280587,0.8515831587017226,-0.005742004043065085,-0.8018432765371719,0.8608828972050911,-0.046137900779156624,-0.901542243127131,0.8202188352160278,-0.0022472578296382105,0.6493222217140667,1.0044187430891511,-0.002194443602655774,0.6542844448815436,0.9900579587311399,0.0,0.0,0.0,0.0
-0.0014485677849062398,0.0021997637870675235,0.7303624518250723,-0.001802778615938533,-0.5243168028776143,0.00034425924797001743,0.8515212984388759,-0.005291581670276572,-0.801150318672289,0.8604402314287561,-0.050169333715402595,-0.9119033765112449,0.8141356305792866,-0.0014923464911590428,0.6499576079599662,1.003842318248491,-0.001445768934237621,0.654930030321954,0.9901303942355643,0.0,0.0,0.0,0.0
-0.0013450370242572877,0.0020860059694301904,0.730401642131283,-0.0018344588885978992,-0.5244334414453694,0.0002720593071700869,0.8514494267060644,-0.004784567742732818,-0.8005554796418102,0.8603297910125267,-0.05419145004799071,-0.9222925046235106,0.8078593585289213,-0.0009810518866317924,0.6508364702075417,1.0033127011650396,-0.0009382874275520531,0.6556460599280292,0.9902568229150246,0.0,0.0,0.0,0.0
-0.0011817293512780538,0.00196799769681041,0.7304337391433935,-0.0018294867048461697,-0.5245767834000771,0.00017287861950162495,0.8513611580340087,-0.004218048740666393,-0.8000386130473769,0.8605926156556096,-0.05820234145350191,-0.9327294467839838,0.8014020922013104,-0.0008446084057849466,0.6520481157676995,1.0028694846059965,-0.0008028191709902387,0.6564552449812894,0.9904301550120889,0.0,0.0,0.0,0.0
-0.0009555316014780494,0.0018422062879293762,0.730458550243807,-0.0017815561404297116,-0.5247485404539238,4.1984204351219265e-05,0.8512554220599841,-0.0035744720164711382,-0.7995809385777772,0.8612221074429939,-0.06215805127937213,-0.9431375901449762,0.7947894328073953,-0.0011318528079436035,0.653626610387209,1.0025078268572596,-0.0010879817109330178,0.6573507552137868,0.9906577095063828,0.0,0.0,0.0,0.0
-0.0006757674571330412,0.0016957711355646762,0.7304755904908149,-0.0016923023772775138,-0.5249342477168358,-0.00011861271512016364,0.8511410914869798,-0.002826019169654054,-0.7991954627419353,0.8621623254590397,-0.06597268531317964,-0.9532551952174043,0.788108628053977,-0.0017362227718433713,0.6554927042618561,1.0021622987092254,-0.0016872437829368498,0.6582777428453058,0.9909673816374928,0.0,0.0,0.0,0.0
-0.00036770440440312346,0.0015094823528409044,0.7304829412410166,-0.0015758694627370964,-0.525099573280416,-0.0002963080815117964,0.851039286389108,-0.0019494169410030565,-0.7989541298887883,0.8633178982900874,-0.06954470789882589,-0.9625097394068672,0.7816113206318833,-0.0023573068851175894,0.6574106703319654,1.0017195202495701,-0.002301995571033882,0.6591235635671476,0.9914094157214051,0.0,0.0,0.0,0.0
-7.06482307811696e-05,0.0012676666556109032,0.7304766531348357,-0.0014567030465804267,-0.5252005012926632,-0.00046963603256336726,0.8509771388822184,-0.0009471964309788886,-0.7989558835295729,0.8645469539284448,-0.07281175668259479,-0.9699013401403087,0.7758817743932797,-0.0025869686885042413,0.6590273385581136,1.0010807757240225,-0.0025290743588558913,0.6597360660132472,0.9920464919093119,0.0,0.0,0.0,0.0
0.00017295961948020534,0.0009717160209032574,0.7304532493040243,-0.001353139631782308,-0.5252168121414891,-0.0006218527727758117,0.8509671454035095,0.00014458633003932198,-0.7991608194194987,0.8655838305474814,-0.07578389844610305,-0.9740313547844187,0.7720121252988774,-0.002198316514737522,0.6600723095626887,1.0002612979684191,-0.0021457837800044482,0.6599904277026521,0.9929255132978614,0.0,0.0,0.0,0.0
0.0003369855552033455,0.0006410590213676119,0.730416769209605,-0.0012520207008097721,-0.5251908103320208,-0.0007622486524348458,0.8509832337737049,0.0012944733785380156,-0.7991689046793139,0.8659432857143553,-0.0784521062555748,-0.9735801909191527,0.7714939456702347,-0.001468189682625085,0.6606517502716437,0.999414545503128,-0.0014248722966973364,0.6598883269312377,0.9940414177431686,0.0,0.0,0.0,0.0
0.00042204337685571665,0.000272388906287587,0.7303666835687963,-0.001150751968965323,-0.525124584743697,-0.0008929853925829918,0.8510241176633917,0.0025147735394713184,-0.7989582828704889,0.8656029932363689,-0.08079617375358879,-0.968555572345847,0.7743131486170399,-0.00040636263112317473,0.6607786028120572,0.9985410766598258,-0.0003742371991109321,0.6594263972995682,0.9954114777328225,0.0,0.0,0.0,0.0
0.0004564327772385766,-0.00016271137577146858,0.730297790765782,-0.0010606052890825084,-0.5249726823662403,-0.0010065063371737881,0.8511178207690216,0.0038640461632280885,-0.7989354940333974,0.8650509901837803,-0.08279348924969465,-0.9603118231430233,0.7789799506256548,0.0013024492153977968,0.6603415353209068,0.9974618424043119,0.001321275107391252,0.6585933185326321,0.9970719626247513,0.0,0.0,0.0,0.0
0.0004869086895013528,-0.0006772754612753171,0.7302121095168848,-0.0009617266318834575,-0.5247493268173409,-0.001121565119276219,0.8512555204979972,0.005413826336455788,-0.7991667293186301,0.8645803266534974,-0.0843988792538721,-0.9502802333868022,0.7844135323381934,0.0034868725311303092,0.6596041172940877,0.9961187869993303,0.003498893630015327,0.6575040530635317,0.9990084651866645,0.0,0.0,0.0,0.0
0.0005596694467499644,-0.001268748962848367,0.7301112237715134,-0.0008284275362514614,-0.5244909313378248,-0.0012621366187032077,0.851414695470635,0.007206873343028325,-0.7996001556571777,0.8643897973800486,-0.08564333088925537,-0.9394870757556729,0.7900307188927184,0.0057996284745797134,0.6589144113330405,0.994563151606382,0.005819187125409927,0.656299977125719,1.0011956192299356,0.0,0.0,0.0,0.0
0.0007113512973932344,-0.001930385077621578,0.7299945253532774,-0.0006431234068762333,-0.5242265054406615,-0.0014459908080750722,0.8515773990051277,0.009264108759137354,-0.8002151465908303,0.8646601670710649,-0.08659848064446692,-0.928519278749596,0.7955769792730416,0.007969053666510111,0.6585308406110074,0.9928684298957963,0.00801162197537537,0.6550920807558936,1.0036170674078297,0.0,0.0,0.0,0.0
0.0009684823342489522,-0.0026596355299928712,0.7298602874058371,-0.00039738359848619925,-0.5239691668863066,-0.001683913123748276,0.851735474590167,0.011604553953099856,-0.801049785164957,0.8655670170504874,-0.08732271443020831,-0.9176368818571564,0.8009630539153414,0.009864037861302967,0.6585974279095076,0.9910728377294618,0.009941771752105906,0.6539492634143514,1.006267718749091,0.0,0.0,0.0,0.0
0.0013507643926609831,-0.003460527597304235,0.7297069766036742,-8.741875949770722e-05,-0.5237199748840067,-0.001983498401268554,0.8518881651951434,0.01425888631497867,-0.8021712364241503,0.8672677928853937,-0.08783976568726588,-0.906894045410992,0.8061587763516842,0.01144925193895045,0.6591890697828342,0.9891663856238854,0.011570609820572059,0.6529085707963647,1.0091479253419708,0.0,0.0,0.0,0.0
0.0018741219461156353,-0.004341759354104441,0.729534286738369,0.0002903868205646856,-0.5234748926020779,-0.0023528451996929775,0.8520378023363774,0.017271890049643093,-0.8036368414256709,0.869884358140695,-0.08814983645001467,-0.8962210476630439,0.8111339074718374,0.012716307424506062,0.6603630620527284,0.9871025302070547,0.01288729289413291,0.651990473676243,1.0122530378234886,0.0,0.0,0.0,0.0
0.0025509802968530886,-0.0053126812083850875,0.7293441200499602,0.0007412210945306106,-0.523229959079131,-0.0028017569588719106,0.8521866055455715,0.020694389372309156,-0.8054648115147981,0.8734832279389954,-0.08826092282482387,-0.8854621407358678,0.8158232238538278,0.013637010521586744,0.6621864292206047,0.9848144092581759,0.013862051785823335,0.6512103575740018,1.0155591922741503,0.0,0.0,0.0,0.0
0.003386715290733203,-0.006377885844803448,0.7291416699545744,0.001270202003351971,-0.5229834196992957,-0.003339563470889968,0.8523353662862553,0.02456433771952607,-0.8076178218045649,0.8780506419761823,-0.08823282479525477,-0.8743812431370244,0.8200951687197181,0.014150304891879559,0.6647308886464834,0.9822289528706895,0.014432439470270201,0.6505831681951268,1.0190057606262852,0.0,0.0,0.0,0.0
0.004372167490084813,-0.007529257796936706,0.728936027518369,0.0018776445644184524,-0.5227356635028936,-0.003969238816469589,0.8524835163780571,0.028872834717000057,-0.8100005829972952,0.8834642819158326,-0.08823119159646033,-0.8626540322253122,0.8237049231813214,0.014173991273930568,0.6680347778604457,0.9792903961205859,0.01451483419453163,0.650119334642777,1.0224784814986847,0.0,0.0,0.0,0.0
0.005471811104373968,-0.00873265373966868,0.7287366144886228,0.002551767446725353,-0.5224884454795214,-0.004677244640717794,0.8526297181108935,0.03350581877259597,-0.8124823915309647,0.8894689676002048,-0.08858580307645969,-0.8498710114891294,0.8262017974706086,0.013623668957045204,0.6720157743533298,0.9760421421841118,0.01402327538524636,0.649795723970493,1.0258221767270832,0.0,0.0,0.0,0.0
0.006602180098627846,-0.009905002670392325,0.7285256691912725,0.0032550444858084693,-0.5222367672176877,-0.00541356944888838,0.8527771437586938,0.03813976794790142,-0.8150482284237398,0.8957015666782322,-0.08985615863232015,-0.8356079932041665,0.8266938247112848,0.012474116262811273,0.676183552375316,0.9729538238848848,0.012930588280297207,0.649392319820272,1.0290454645422098,0.0,0.0,0.0,0.0
0.007603432780329429,-0.0109012658318458,0.7281970780778335,0.0038852316735306374,-0.5219069238699527,-0.006047245823440455,0.8529721558230358,0.042121516979354776,-0.8184071141935525,0.9020438274233189,-0.09293177051047363,-0.8197074585929469,0.8232663325638788,0.011219831196485126,0.6789141718812568,0.9714024786722847,0.01173368190942101,0.6481158969695908,1.0327894235928403,0.0,0.0,0.0,0.0
0.008350268693176194,-0.011650684004307573,0.727807149993632,0.0043246779572916096,-0.5213861472768108,-0.006449144079054603,0.8532855273172381,0.04499689487891187,-0.8230444266475616,0.908500249202206,-0.09829887316800612,-0.8023738847305378,0.8127986963420138,0.010969580063733834,0.6793124170472455,0.9709038840583972,0.011546981933079284,0.6459955905292393,1.036395291631828,0.0,0.0,0.0,0.0
0.008702364406165654,-0.012017065241841972,0.7274343518543054,0.004485715062387564,-0.5206885603852415,-0.006498014838068754,0.8537101834038809,0.04612083664015695,-0.8286796664974159,0.9144059024348525,-0.10537467466529737,-0.7846072775299977,0.7915382755419567,0.012148302559309595,0.6769657443705352,0.9712944934254971,0.0127812986959343,0.6433418070913999,1.0390609747577286,0.0,0.0,0.0,0.0
0.00871918447388216,-0.012035345080757504,0.727428224072751,0.004511151380641504,-0.5206802120973076,-0.0064929101778477575,0.8537151798819944,0.04615094340758662,-0.8286996544711638,0.9144285556911421,-0.10535334364024106,-0.7845595821389565,0.7915563387504712,0.012137610856326569,0.6769877160248482,0.9712442134650826,0.012779022373748162,0.6433342014450195,1.0391291725609837,0.0,0.0,0.0,0.0
0.00871918447388216,-0.012035345080757504,0.727428224072751,0.004511151380641504,-0.5206802120973076,-0.0064929101778477575,0.8537151798819944,0.04615094340758662,-0.8286996544711638,0.9144285556911421,-0.10535334364024106,-0.7845595821389565,0.7915563387504712,0.012137610856326569,0.6769877160248482,0.9712442134650826,0.012779022373748162,0.6433342014450195,1.0391291725609837,0.0,0.0,0.0,0.0
0.008780655188357397,-0.011883918769553317,0.7273964650271852,0.004275221137899714,-0.5205847586131418,-0.0060880786509255455,0.8537775863082019,0.044837754375867185,-0.8311037061214113,0.9170114867090439,-0.10673238591592324,-0.783871262473999,0.7910139325468686,0.015245296591892452,0.6754415649477669,0.9713555707930692,0.01593589102345411,0.644424786341789,1.0391038317401786,0.0,0.0,0.0,0.0
0.008954476745537676,-0.011627164959939708,0.727355891359038,0.004166489750057893,-0.520695319497024,-0.005793435736086544,0.8537127507068327,0.043450946434765124,-0.8327791573371268,0.91964638299067,-0.1081363385282454,-0.7826977249177655,0.7902920550804764,0.01611415562464827,0.6752353459058893,0.972381221730605,0.01682908850845161,0.6458281109194134,1.0389768207874006,0.0,0.0,0.0,0.0
0.009180236326104606,-0.011374396009701821,0.7273029460713226,0.004141045465090138,-0.5209244228754905,-0.005595529424968655,0.8535744182230085,0.04227309712242508,-0.8337509148941251,0.9218807970800945,-0.10930443509096317,-0.7814879013502044,0.7897415300948785,0.01588063736538618,0.6757996172444128,0.9738097720384008,0.01658990801409161,0.6472891184200635,1.0390392294992232,0.0,0.0,0.0,0.0
0.009426080787695372,-0.011174493724160213,0.7272387644466174,0.004153097906944613,-0.5211909798394334,-0.005451955951307532,0.8534125558533174,0.0413525923867262,-0.8343489181154159,0.9237818098029008,-0.11021240204078592,-0.7805445908624391,0.7896204312209422,0.015426324606324551,0.6766466611765252,0.9752596265993762,0.01612405466438924,0.6487066835944841,1.0393571339413983,0.0,0.0,0.0,0.0
0.009661207309084936,-0.01105661984884328,0.7271670471878736,0.004178475145015606,-0.5214531358357459,-0.005335637809379645,0.8532530096294397,0.04070849744242488,-0.8346627651417444,0.9252336262352165,-0.11084843639325385,-0.779935786615865,0.7899163002782713,0.015274341631362787,0.677476290396367,0.9765036858613719,0.015972645788395072,0.6500175524552636,1.0399716242935904,0.0,0.0,0.0,0.0
0.009862017844882562,-0.011042833320153737,0.7270908121959919,0.004204930870096014,-0.5216882805137264,-0.0052308656561692885,0.8531097787362986,0.0403629447283025,-0.8346883547974979,0.9260817400034727,-0.11119216412242712,-0.7796758383879491,0.7905793156742352,0.01576240763989889,0.6780996744646456,0.9773969958180564,0.01648550764156774,0.6511798444795961,1.0409267503512414,0.0,0.0,0.0,0.0
0.010015525198746201,-0.01115566876228639,0.7270114411737876,0.004226301062122486,-0.5218818197493142,-0.005130443602174702,0.8529919009831931,0.04035852005611527,-0.8344071397391277,0.9262100666015238,-0.11120337846721777,-0.7798239631692125,0.7916530162060816,0.01714096981224194,0.6784019179153342,0.9778236002724534,0.01792577603499002,0.6521690911815514,1.042278111159565,0.0,0.0,0.0,0.0
0.010122071136136942,-0.011422650604608847,0.7269277725485881,0.00424031500802371,-0.5220223343753544,-0.005035459523664285,0.852906411213636,0.04077146923198098,-0.8338220526073868,0.9255791096270787,-0.11081195926696394,-0.7805412782861045,0.793352424124987,0.019611947543316036,0.6783316022461201,0.9776721259362647,0.020514412738759917,0.6529758886821572,1.044101460513437,0.0,0.0,0.0,0.0
0.010200679363677254,-0.011875725233255361,0.7268375291699282,0.0042626975458794885,-0.522124805396763,-0.0049693839562608335,0.8528439612391706,0.04173717007276162,-0.8327987815164264,0.9241101049711163,-0.10988544444969726,-0.7820268680947045,0.7960211361091457,0.02313937511719419,0.6780461160789866,0.9768803847832374,0.0242377954074376,0.6536339816958114,1.046498240692456,0.0,0.0,0.0,0.0
0.010369695394684235,-0.012600020300001073,0.7267360501314545,0.004372215578187844,-0.5222411691547068,-0.005032579936374238,0.8527717854795894,0.04369981777842566,-0.8311168509394281,0.92207260767215,-0.10800541605964117,-0.7852543857076556,0.8013526847122995,0.027157845328421526,0.6783665533805364,0.9752634670760748,0.028539853598524567,0.6543206726253187,1.0496331918606372,0.0,0.0,0.0,0.0
0.010714136394124982,-0.013678733509636373,0.7266260800162706,0.004624940783318855,-0.5224017015079008,-0.0053067971029564205,0.8526704580838419,0.04706087839831967,-0.8285535717961918,0.9195736057251883,-0.10478513512436122,-0.790998402766315,0.8106598745834389,0.03137412350244891,0.6799097264610475,0.9725352234585062,0.033133880138785016,0.6551810288679031,1.0536067922721022,0.0,0.0,0.0,0.0
0.011272037692251467,-0.015189034351450829,0.7265199790696115,0.005046958452423205,-0.52260765087848,-0.00584361829525727,0.8525383414127927,0.052139837498886135,-0.8248811606674051,0.9164881973105722,-0.09990055135755445,-0.7997187566644894,0.8246694539629615,0.03584335714298473,0.6830068444341734,0.9682817975953373,0.038096656054220926,0.6563143893029272,1.058431675215464,0.0,0.0,0.0,0.0
0.012156812095979705,-0.017166527846573746,0.7264428794769725,0.005717686573993085,-0.5229262192217401,-0.006739859977484495,0.8523321251708057,0.05923064463451901,-0.819728770175028,0.9130137519533839,-0.09303173698455292,-0.8118219532040087,0.8442991395775395,0.039719273610560546,0.6886824522728745,0.9622035564812489,0.04254575852054066,0.6580743092400426,1.0638503784813096,0.0,0.0,0.0,0.0
0.01343343440489403,-0.019613273982924086,0.7264371798833122,0.006684492298398941,-0.5234050402965355,-0.008054950343401595,0.8520197175710549,0.06844644286732275,-0.812696928359526,0.9091289298303449,-0.08400030621637364,-0.8271623000896956,0.8695784615338469,0.04234900346539361,0.6977431323960349,0.9538941431104183,0.045775497116549865,0.6608142098415135,1.069385717878258,0.0,0.0,0.0,0.0
0.014955490790444764,-0.022452975765806352,0.7265133319111184,0.007829990136241699,-0.5239301356715982,-0.009675373436617505,0.8516702949724553,0.07933518902850016,-0.8041226354184456,0.904463978346377,-0.07317477966097487,-0.8446151963175748,0.8983639082138363,0.044598645169698886,0.7091416384981082,0.9432059547381869,0.048714551227885206,0.6642583407821111,1.0747143473442646,0.0,0.0,0.0,0.0
0.016253660186254033,-0.0249453107304211,0.726437520603514,0.008765884367443008,-0.5242864440340399,-0.010979136604219293,0.851426063984903,0.08860241942961472,-0.7974052354618528,0.9004952298277704,-0.06384569414521049,-0.8597038563157079,0.9224680013275193,0.04783035909428202,0.7177681399316205,0.9345514766414019,0.05278691287116434,0.6668658701009949,1.0804100709871383,0.0,0.0,0.0,0.0
0.017276731438846525,-0.02691150969193488,0.7263038354875772,0.009469369218910702,-0.5245466970147769,-0.011915500087902936,0.8512456252781209,0.09568263641956984,-0.7924490087408346,0.8974201559554654,-0.056640522019284864,-0.8713105709295674,0.9407830795411461,0.05130534479895589,0.7239098353883422,0.9280902254535729,0.057141924063726736,0.6690247013471992,1.0854610364769421,0.0,0.0,0.0,0.0
0.018040386402412786,-0.028350160809606933,0.7261380256391027,0.009970199541051869,-0.5247605229348739,-0.01252840868819327,0.8510993054079946,0.10067895130348832,-0.7890192475083916,0.8952339762007538,-0.051518316338391885,-0.8796094728267859,0.9538333346481457,0.0545281033321814,0.7279709638035088,0.9238529537999114,0.06119260064952224,0.6707886460060247,1.0897477940843796,0.0,0.0,0.0,0.0
0.01858905952896167,-0.029341501349980172,0.7259545219805912,0.010313538421938438,-0.5249551098007879,-0.012891770871748927,0.8509697796414701,0.10396718864112461,-0.7867786768666009,0.8937893340906246,-0.048132861353633524,-0.8852002761922061,0.9626591153632006,0.0572678482891172,0.7304426552841699,0.921541754243944,0.06465380132340814,0.6721921631449791,1.0933512914073449,0.0,0.0,0.0,0.0
0.01898046418202047,-0.030006510888753137,0.7257860662652147,0.01054457260966628,-0.525136249861821,-0.013085070361363903,0.8508522268897113,0.10603698204492062,-0.7853231442999999,0.8928721999462186,-0.04599703421284326,-0.8888105313203468,0.9684889979885893,0.05953612937814108,0.731923650695576,0.9204135434811824,0.06752850515745434,0.6733852630496795,1.0962281792875241,0.0,0.0,0.0,0.0
0.019255206266323283,-0.03044959629666519,0.7256433377882918,0.010696015014480646,-0.5252980883668452,-0.013167355630367224,0.8507491606617379,0.10729139575520522,-0.7843743297543284,0.8922745458744661,-0.04470140377366972,-0.8910618488217017,0.972266581203335,0.06145238304136227,0.7327596615017028,0.9199508316277922,0.06995392561614609,0.674412846825487,1.098480940955722,0.0,0.0,0.0,0.0
0.019441243735322463,-0.03075050605779569,0.7255285903371228,0.01079108970513192,-0.5254341455545818,-0.013180080011022778,0.8506637388293952,0.10803019944256444,-0.7837337903876908,0.891820169416965,-0.043937642569633624,-0.892417673355796,0.9746647340458432,0.06314707352348892,0.7331600993093238,0.9198032980122823,0.07208689272116922,0.6752894583202764,1.1002363428112962,0.0,0.0,0.0,0.0
0.019558484076251378,-0.030965044836523695,0.7254402645008614,0.010844880766802872,-0.5255391387428985,-0.013149881191211006,0.8505986614350997,0.1084584274781426,-0.7832815919904861,0.8913980808531721,-0.04349447878110479,-0.8932065574393722,0.9761507306501866,0.06473757913835838,0.7332468222205355,0.9197486394318564,0.07407141189687674,0.6760239209656188,1.1016077742357961,0.0,0.0,0.0,0.0
0.019623562839900403,-0.031128246086442695,0.7253748757763795,0.01086693311096411,-0.5256110533581922,-0.013093016688387374,0.8505548208472227,0.10870448866483812,-0.7829627680241497,0.8909736433453969,-0.04324052834182524,-0.8936523608337328,0.9770479552457682,0.06630335034724152,0.7330986323540706,0.919666449854436,0.07600737743909566,0.6766323143881534,1.10268386918846,0.0,0.0,0.0,0.0
0.01965402133779597,-0.031257624901563204,0.7253273777900069,0.010863656864623003,-0.5256526359978364,-0.01301936497904468,0.8505302953825902,0.1088376013865124,-0.7827768630466191,0.8905956541230836,-0.04310672702163874,-0.8939040804072605,0.9775883244897672,0.06786690205157053,0.7327838339359886,0.9195236953509133,0.07792692925107618,0.6771442686544189,1.1035291044535498,0.0,0.0,0.0,0.0
0.01967135507668709,-0.031355541686328474,0.7252903422071748,0.010841450405630093,-0.5256747262187786,-0.012936710588587842,0.850518187158312,0.10888267513317015,-0.7827549435408552,0.8903849790103376,-0.04306999962364812,-0.8940513658869355,0.9779415237178954,0.069364078372682,0.7323898401124664,0.9193804247185933,0.07975866164893068,0.6776041615584119,1.1041954227504032,0.0,0.0,0.0,0.0
0.019709433925469897,-0.031405349709584716,0.7252526898159823,0.010816615645834618,-0.5257129961701953,-0.01286037118331127,0.8504960066553834,0.1088263671788268,-0.7828832474349696,0.8905091752374699,-0.04314197760814822,-0.8940945758735419,0.9782151886030714,0.07049891501291344,0.73212789723531,0.9194511303543872,0.08115642399618463,0.6780942890788291,1.1047296506847466,0.0,0.0,0.0,0.0
0.019867298005713737,-0.03133735911988568,0.7251993896084903,0.010823713930576526,-0.5258381599120595,-0.012814256985251177,0.850419232858103,0.10853742341409849,-0.7833910599917824,0.8917788598984707,-0.04346644123029258,-0.8940705628962061,0.9787626936924959,0.07046202246838751,0.7325472914943306,0.9201966303352667,0.08116113558706617,0.6788749311900967,1.1050291551691824,0.0,0.0,0.0,0.0
0.020197102103280337,-0.0311146123231052,0.7251216927757408,0.010885038587514457,-0.5260936917365228,-0.012813074786126536,0.8502604122058782,0.10794698984581205,-0.784352489128189,0.8945726883979682,-0.04411592209945733,-0.8939744922379442,0.9797445906071995,0.06878171145486274,0.733966956918454,0.9218793115263626,0.07921076922406606,0.6800832442217319,1.105050648349485,0.0,0.0,0.0,0.0
0.02065618956754936,-0.030774634909235047,0.7250243737882384,0.010994427529607524,-0.5264561581095776,-0.012849040372245137,0.8500340806775408,0.10712845927300248,-0.7855827177350686,0.8984356753365171,-0.04500665850216876,-0.893790580559212,0.9810151464630509,0.0657502235643055,0.7362018589606484,0.9242881729198446,0.07566548544443362,0.681600265580383,1.1048694093214,0.0,0.0,0.0,0.0
0.021122344156631296,-0.030423791156342573,0.7249268158825274,0.011133521014228123,-0.5268590025140789,-0.012906727946480923,0.8497817676047251,0.10630815940045728,-0.7865406807377628,0.90208368725228,-0.0458812368007129,-0.8934645720647799,0.9821597208839757,0.06223062338357712,0.7387211579364426,0.9268116232850332,0.07157274165844578,0.6831086623905669,1.1046699810848073,0.0,0.0,0.0,0.0
0.021524864180424402,-0.030156980075376656,0.7248630920664392,0.011300842232249142,-0.5272416817793084,-0.012982459434346033,0.8495410264998412,0.10571039889948623,-0.7868514541630741,0.904703463818283,-0.04649564312583785,-0.8931304707437474,0.9831849978024395,0.05887771684182531,0.7412747159397552,0.9287239749057074,0.06771909471321698,0.6844706466413976,1.1044284412046257,0.0,0.0,0.0,0.0
0.02176706858291115,-0.03014605547394214,0.7249114621992038,0.011494318305736488,-0.5275069822977764,-0.013083483293053373,0.8493721721004875,0.10577810955743737,-0.785842921251737,0.9050187545775034,-0.04637304471906712,-0.893081697861892,0.9843216298939437,0.05686363788142065,0.7436219977726953,0.92856853082715,0.06547786697212127,0.6856241824048488,1.1039448802765186,0.0,0.0,0.0,0.0
0.021780401733714157,-0.0306849623430322,0.7253080886338908,0.011706351043180479,-0.5274894550007228,-0.013235018932003056,0.8493778137449575,0.10730372000040236,-0.7824887935211717,0.9016037116849421,-0.04467604189428586,-0.893972564175618,0.9867273857440791,0.05815694239319806,0.746191482724187,0.9227528688829327,0.06713107804018555,0.6871880057441775,1.1018830789386191,0.0,0.0,0.0,0.0
0.021753219789999223,-0.03226920712774042,0.7269927716595358,0.01199966671035596,-0.5270667208179014,-0.013623986775860202,0.8496299587405307,0.11185102022102063,-0.7734946922007073,0.8929239296076633,-0.039680815460580596,-0.8961251744120501,0.99392376081303,0.06425592403858918,0.7545329212350528,0.8999071421420792,0.0744833813664015,0.6932993010034411,1.0910655043452082,0.0,0.0,0.0,0.0
0.02095754863704993,-0.034105843076965854,0.7295652845797171,0.011147297367910222,-0.5252502320039032,-0.012863355900503477,0.8507775652990706,0.11485016792027052,-0.7693920698089459,0.8857015000790216,-0.036582598316595986,-0.8966594935853087,0.9982791527857452,0.04130952339966859,0.7212364457850152,0.9505190816402095,0.10093977751561216,0.702290488916349,1.0731692783673126,0.0,0.0,0.0,0.0
0.02041015458323026,-0.03594604848231648,0.7321712540557441,0.010611632600769565,-0.5239344454303253,-0.012376481132224846,0.8516025556912963,0.11825135094220711,-0.7623112945250737,0.8768073681832782,-0.032884220575074674,-0.896279644321897,1.0028396209659778,0.024221413041767878,0.6974653286664593,0.9859181471762756,0.1213800790195054,0.7119874557306581,1.0542448321462476,0.0,0.0,0.0,0.0
0.02018585966385604,-0.037609652761382145,0.7344570398625067,0.010453480428584325,-0.5231280115611787,-0.012201468995427055,0.8521026536875296,0.12173275953355898,-0.754009966040177,0.8680524952925576,-0.0290012822526324,-0.896065511279475,1.0080477758595074,0.015241004435452472,0.6816333988304548,1.0114845379393733,0.13498232876271116,0.7211701501206946,1.0371352284718385,0.0,0.0,0.0,0.0
0.02035512321833935,-0.0389760010821478,0.7363765331653219,0.010567250401848284,-0.5226818028166286,-0.012265708766390411,0.852374107192236,0.12494498448367788,-0.7465728335681622,0.8619953945820293,-0.025412412060964923,-0.8967648013451782,1.014700941572031,0.010840565909599852,0.6719326623160794,1.0320094840333893,0.1428742358536225,0.7298533587294915,1.0220619909482325,0.0,0.0,0.0,0.0
0.0207159404156643,-0.04004783814652325,0.7379934028805212,0.010802010146729745,-0.5224528533098306,-0.01243482541964793,0.8525090660878565,0.12764145751886896,-0.7402166370216362,0.857980147771218,-0.02238162551889191,-0.8976348173593593,1.0213644013633312,0.008558731841373096,0.6655858232363072,1.0499781457067918,0.14726764524900457,0.7378441607786325,1.0088292397351541,0.0,0.0,0.0,0.0
0.021126088792203353,-0.040929174665434824,0.7393840053141607,0.01106133110178954,-0.5223119784331249,-0.012627586320065363,0.8525892259483817,0.12993466633685705,-0.7347899295317656,0.8551011361187748,-0.01979597267610864,-0.8985129796984204,1.0275621689232808,0.007235991628042972,0.6605812021214713,1.066575178134091,0.1501121884630069,0.7450538443645219,0.997144233497473,0.0,0.0,0.0,0.0
0.021536053933372382,-0.041675254006116914,0.7406091946494245,0.011302450642287538,-0.5222011702631447,-0.012805499159879616,0.8526512836890279,0.13189089124796402,-0.7301908794524549,0.853014617823637,-0.01758955372941618,-0.8993382149514044,1.0332192266465736,0.006198598739013609,0.6560264402099143,1.0824949532363373,0.15230301032251256,0.7516018532899373,0.9866264528388093,0.0,0.0,0.0,0.0
0.02192610337349364,-0.04233485058327557,0.741715432556768,0.011515440670008717,-0.5220983259644055,-0.012960622203629991,0.8527090681606685,0.13361228422400442,-0.7261905688347052,0.8513848068337382,-0.015649893798094054,-0.900099825218606,1.0383947273173861,0.005212095773383283,0.6515247670439849,1.098165872584841,0.15427854376296496,0.7576293951222695,0.9769858279493808,0.0,0.0,0.0,0.0
0.022291362721164942,-0.042942913174052105,0.7427354174859248,0.011702193197475466,-0.5219954231420711,-0.013096029092106836,0.852767454183799,0.13518685646366405,-0.7225889476297065,0.8499785375830671,-0.013878308597947017,-0.9008131909019892,1.0431888916039191,0.004214722210036423,0.6469500319188299,1.1138385205467245,0.1562360381022968,0.7632564303551043,0.9680091117557688,0.0,0.0,0.0,0.0
0.022633038788459344,-0.04352024679848238,0.7436898180650844,0.011866685995610117,-0.5218891542195631,-0.013216454270245207,0.8528283636277543,0.13667225534679817,-0.7192622630114721,0.8486740005880856,-0.01221008819921404,-0.9015014100879684,1.0476932584886864,0.003196744710232067,0.6423027042793152,1.1296446881924158,0.158252348652451,0.7685660974930012,0.9595519304043695,0.0,0.0,0.0,0.0
0.02295564866457661,-0.04407531403661807,0.7445892969428317,0.012013888890345386,-0.5217811369296325,-0.013327432222449299,0.852890667769619,0.13809822878354744,-0.7161421589819122,0.8474282735787259,-0.010611304958945439,-0.9021794305170513,1.051971436300992,0.002159176298830707,0.6376575099589622,1.1456403127010968,0.16030869558219926,0.7736085330658361,0.9515334812376683,0.0,0.0,0.0,0.0
0.02326424680924978,-0.0446069137128115,0.7454360678222529,0.01214782804069873,-0.5216754960061918,-0.0134330458587024,0.8529517339331373,0.13946902701757646,-0.7132120831935534,0.8462580024984785,-0.009076632498186408,-0.9028520131453165,1.0560528154874613,0.0011054180600204068,0.63312257977915,1.1618099953606953,0.16233831190599962,0.7784013080465246,0.9439331004528799,0.0,0.0,0.0,0.0
0.02356035201663753,-0.0451068421708532,0.7462245314948402,0.012269951208788534,-0.5215764093059762,-0.01353403458348821,0.8530089843962441,0.14076623910796132,-0.7104988763262382,0.8452070399881678,-0.007626221710052562,-0.9035095975089725,1.0599164674828863,3.4335168340500965e-05,0.6288126109059343,1.1780312829933315,0.16426805792193533,0.7829195957424988,0.9367965046992153,0.0,0.0,0.0,0.0
0.023834612863576934,-0.04556215473727083,0.7469406869298845,0.012376322727217075,-0.5214844636752107,-0.013624492737161155,0.8530622216337941,0.1419477545076304,-0.7080656916059104,0.8442974159149161,-0.006306479595198059,-0.9041158275484551,1.063450470235227,-0.0010788260972593086,0.6248181558498148,1.1939808332057404,0.16607225046101118,0.7870703568582624,0.9302563127287367,0.0,0.0,0.0,0.0
0.024052808717892865,-0.04595461907169746,0.7475615604516209,0.012454044361061232,-0.5213961480836057,-0.013686954594630207,0.8531140725697566,0.14293346375159305,-0.7059684885766927,0.8434150202897651,-0.005202084299426607,-0.9045394953239071,1.0663277142380299,-0.0023432547374974914,0.6211708910295579,1.2089852313341716,0.16782027630736585,0.7906558208982016,0.9245620449099395,0.0,0.0,0.0,0.0
0.024184361178756893,-0.04628255910862387,0.7480543074695226,0.012488929740984844,-0.5212964117425523,-0.013706119057696472,0.8531742026331084,0.1436977703207609,-0.7043258975417511,0.8424832089316618,-0.004345879726925005,-0.904801823873473,1.068383686512718,-0.0039909955588715035,0.6180191713243159,1.2217839130543326,0.16970438689640435,0.793416777924071,0.9200838673064736,0.0,0.0,0.0,0.0
0.024190223769056652,-0.04655724982379032,0.748377408804829,0.012460255075061481,-0.5211577308291448,-0.013662007361212635,0.8532600489858546,0.14424407173027196,-0.7032960647507064,0.8413850819147994,-0.0037432043945429695,-0.9049966791049908,1.069486855800309,-0.006473190324062351,0.6157915434921354,1.2301572038659887,0.17208870746162766,0.7950158197427656,0.9173103531576448,0.0,0.0,0.0,0.0
0.02404105879453531,-0.04679808266701808,0.7484951339981867,0.012346469309105445,-0.5209467338458013,-0.01353640677937219,0.8533925420827713,0.1446035626168213,-0.7030681736674326,0.8400761540645788,-0.0033731347281977892,-0.9052898641955002,1.069632950723279,-0.01040388149615205,0.6156364498980212,1.2306510916479148,0.175383380889409,0.7951612062784666,0.9166639766351448,0.0,0.0,0.0,0.0
0.02374094570302896,-0.0469992666927474,0.7484054220274692,0.012151370018054202,-0.5206703782987503,-0.013332933084099134,0.8535671820450312,0.1447670729805748,-0.7036332906545151,0.8385774537206462,-0.0032443994060497978,-0.9056674137214118,1.0688161526158229,-0.015794092121254356,0.6175728506469685,1.2232734111100199,0.17947882987641353,0.7938478744287624,0.9181563383275155,0.0,0.0,0.0,0.0
0.02332510316815658,-0.047130981209424355,0.7481403584530668,0.011900103477104912,-0.5203697379538199,-0.013073662001129738,0.8537580469436216,0.14468407053374674,-0.7048181051628152,0.836995593929978,-0.003398790278501954,-0.9059493601512094,1.0670343061231669,-0.022067002816985308,0.6204721709013541,1.2114845643564862,0.1838141671992454,0.7913560169299992,0.9213789759814173,0.0,0.0,0.0,0.0
0.0228348127842391,-0.04717336005351001,0.7477396790931856,0.011612259625553335,-0.5200722083433216,-0.012778166681088105,0.8539477571793018,0.1443308348450942,-0.7065137575314243,0.8355233913272597,-0.003855130336295749,-0.9060382760150332,1.0644118420195385,-0.02880986416604802,0.6238913532952853,1.1975055999823263,0.18796508793486363,0.7880147941855781,0.9258362029180927,0.0,0.0,0.0,0.0
0.022301353609745313,-0.04712151296924577,0.74723647012025,0.011299365313549862,-0.5197885791316212,-0.012459487771660253,0.854129333597851,0.1437147758816122,-0.7086614164698002,0.8343150656308941,-0.004603047303654555,-0.9059174759667347,1.0611127352803722,-0.035811484751174384,0.6276569261120004,1.182591168247156,0.19172420390505776,0.7840805197308024,0.9311324107651553,0.0,0.0,0.0,0.0
0.021750611933285494,-0.04698471567530763,0.74665529978745,0.010968810481191336,-0.5195170996562689,-0.012127936087622906,0.854303565208305,0.1428792769291842,-0.7112451553423966,0.8335018896948512,-0.005597488305562585,-0.9056659890202242,1.0573704281400205,-0.04297287091351047,0.6316897527154457,1.1674007064610825,0.19503855804933432,0.7797351884766964,0.9369875839623204,0.0,0.0,0.0,0.0
0.021180134366489738,-0.046767595736017104,0.7460124703862191,0.010620146498064153,-0.519251536168795,-0.011781496908851325,0.8544742541500551,0.1418269597605615,-0.7142209100295901,0.8330385393140017,-0.006832834937243526,-0.9052541933296252,1.0531768480636268,-0.05026515339128562,0.6358702652184082,1.1522356526267707,0.19793944383972592,0.7750434349992069,0.9432365127119432,0.0,0.0,0.0,0.0
0.020566577941419393,-0.04646865786373537,0.7453172874172969,0.010247699458240939,-0.5189830402802027,-0.011408698029902242,0.8546469622988159,0.14052199371265733,-0.7175291439576146,0.8327576128093552,-0.008341132105898208,-0.9045631725162678,1.0483310844061793,-0.05768652746948003,0.6400573832480834,1.137195850899024,0.20049273245682847,0.769977981762945,0.9497981849960472,0.0,0.0,0.0,0.0
0.01988521472837839,-0.04608745150624891,0.7445745590894954,0.00984560300252366,-0.5187001546951349,-0.010996945621611687,0.8548288020462079,0.13892940742723373,-0.7211301941878565,0.8324949159423857,-0.010154073907704625,-0.9034939794685688,1.0426367214435712,-0.06524023458996332,0.6441558709006232,1.122290152109326,0.20277395871515688,0.7644791108567869,0.9566340076915277,0.0,0.0,0.0,0.0
0.019113511714139768,-0.04562583187629124,0.7437864433035658,0.009408562811160056,-0.5183893042665775,-0.01053375429721146,0.8550280978940097,0.1370210115541091,-0.72500461800977,0.832108234025805,-0.012297093889179414,-0.9019795544063837,1.0359328384180613,-0.07294620250364296,0.6481346745379751,1.1074869487111343,0.2048682535466137,0.7584756800249276,0.9637271353424303,0.0,0.0,0.0,0.0
0.01822563018677851,-0.04508626248410908,0.7429534838022296,0.008930267759771293,-0.5180352002090486,-0.010003857801068394,0.85525417537198,0.1347630334666131,-0.729134369361424,0.8314342718682767,-0.014800844865124577,-0.8999437347619952,1.028031528983363,-0.08088117385635503,0.6520250651152978,1.0927260832314216,0.20688425488541287,0.7518808748298755,0.9710769945743649,0.0,0.0,0.0,0.0
0.017198636554311128,-0.04447748247622838,0.742076182093545,0.008403842838695915,-0.5176193251001707,-0.009390947642077247,0.8555182171121607,0.13213570838052005,-0.733513342377848,0.8303220292291187,-0.017682141102724484,-0.8973466796881491,1.0187968023182892,-0.08925132353361233,0.6559665834058348,1.077931142297259,0.20898516634048414,0.7446169765109829,0.9786852738806711,0.0,0.0,0.0,0.0
0.016024336000835346,-0.04382419733724074,0.741157408497863,0.007823043933195398,-0.5171189355293528,-0.008681901778271463,0.8558337636960351,0.12916984880991653,-0.7381624398211889,0.828693977623557,-0.020908592779259664,-0.8942670451149262,1.0082912584047354,-0.09854808932020268,0.660285137906686,1.063036126234122,0.2114337149972611,0.7366606630235386,0.9865383367800606,0.0,0.0,0.0,0.0
0.01473083809067401,-0.04318457809458931,0.7402026293421984,0.00718425030803438,-0.5165034705808357,-0.007879474964284991,0.8562187017928016,0.1260282146269609,-0.7431764589110355,0.8266755375141072,-0.02432094776889269,-0.8910898178343943,0.9970740114942426,-0.10986815794220142,0.6656306847045375,1.0480264890888413,0.2146322520010185,0.7280846990649097,0.9946117606709128,0.0,0.0,0.0,0.0
0.013443948582089027,-0.042660444608515466,0.739233464839257,0.00649216693797449,-0.515729042529455,-0.007024268027748443,0.8566983518828407,0.12309975192533379,-0.7489516381194382,0.8251493825483528,-0.02755594236115207,-0.8888666399232958,0.9868621098326925,-0.12509864984749497,0.6731451341597801,1.0328855177366596,0.21904174825750053,0.7192522783752673,1.0026801408682624,0.0,0.0,0.0,0.0
0.012248125953939312,-0.04228227907507063,0.7383361708063061,0.005765627916982716,-0.5148151880770164,-0.006125161960662829,0.8572599151079588,0.12046252185250358,-0.755391168615121,0.824521811429401,-0.03053747658893765,-0.8877504116195204,0.978402659385028,-0.14569452224098747,0.6835370076928613,1.0173159098392552,0.22472533060870864,0.7108665930939784,1.0099492693183327,0.0,0.0,0.0,0.0
0.011451433501655148,-0.042046038357872635,0.7377007323964161,0.005139719220931371,-0.513887344442802,-0.005339369731317369,0.8578256650618045,0.11842789334177392,-0.7622101810526574,0.8264367423464675,-0.03294657780930421,-0.8883751905306344,0.9740192105765176,-0.16936487888797946,0.6963357804678408,1.0012752568463077,0.23004585663522698,0.7046567488442571,1.0145019652996172,0.0,0.0,0.0,0.0
0.011461287742074713,-0.04204801899469615,0.7376889676518311,0.005131063205054301,-0.5138909689485072,-0.00533760858695043,0.8578235565418583,0.11841945113471426,-0.7622306969063046,0.8264381226772503,-0.03294892037810847,-0.8883560202521961,0.9740028334965346,-0.16936192466004546,0.6963211987355841,1.0012654890366988,0.23002469264011738,0.704656000808403,1.0145120912423513,0.0,0.0,0.0,0.0
0.011461287742074713,-0.04204801899469615,0.7376889676518311,0.005131063205054301,-0.5138909689485072,-0.00533760858695043,0.8578235565418583,0.11841945113471426,-0.7622306969063046,0.8264381226772503,-0.03294892037810847,-0.8883560202521961,0.9740028334965346,-0.16936192466004546,0.6963211987355841,1.0012654890366988,0.23002469264011738,0.704656000808403,1.0145120912423513,0.0,0.0,0.0,0.0
0.011898477931971418,-0.042438043221916924,0.7376367662755715,0.004972886346170194,-0.5142587523932569,-0.005415943082552715,0.8576035643284404,0.11971784601331487,-0.7613729521431519,0.8269990625540454,-0.03162318802368822,-0.8892927283799549,0.9774332702320162,-0.1671880630016614,0.698502228641129,1.0009566097726235,0.23528251055005295,0.707649662960158,1.0162379050811459,0.0,0.0,0.0,0.0
0.012380992488842953,-0.042926722015020104,0.737537980452849,0.004891515627268337,-0.514570945059083,-0.005557329590827301,0.8574158452371226,0.12141023667165597,-0.7606457867241725,0.827687449928256,-0.029915525734776287,-0.8913721332551863,0.9821795256943351,-0.16517637151550718,0.7006511754328189,1.0006377964651116,0.24044851839053996,0.7102845545058781,1.0184421028436643,0.0,0.0,0.0,0.0
0.012782412452613546,-0.04333737459533859,0.7374403375033527,0.004853548290982135,-0.5148331816301751,-0.005692368425999599,0.8572577413492636,0.12285576691820975,-0.7599672809321444,0.8281567124518961,-0.028451127580919052,-0.8932088439239956,0.9861896333862159,-0.16378843566368836,0.702463514571407,1.0005014346997294,0.24458300377663883,0.7123865765169215,1.0204093612902758,0.0,0.0,0.0,0.0
0.013082343208599717,-0.04361718399287125,0.7373574103205874,0.004829776523829164,-0.515055422956213,-0.005793513195762555,0.857123689876191,0.1238607696591562,-0.7594132569565638,0.8284929662887754,-0.027427147141775323,-0.8943976170726712,0.9889541140647392,-0.16303674478570657,0.7038864360661039,1.0006178813903635,0.24757851065088582,0.7140083659628801,1.021947596016971,0.0,0.0,0.0,0.0
0.013285078881398992,-0.04375228663336279,0.737292076201442,0.004799415300545969,-0.5152501056776417,-0.005848992347086324,0.8570064664286237,0.12437180065402836,-0.7590356786167454,0.8287995410235737,-0.026901429207918316,-0.8948026733165526,0.9903649021604439,-0.1628397043264595,0.704937043749586,1.0010240511613768,0.24954952573706643,0.7152478804289947,1.0230315082034789,0.0,0.0,0.0,0.0
0.013400100281942644,-0.043737024315114656,0.7372435589946594,0.004747296646010648,-0.5154285154966263,-0.005851668218387461,0.8568994495076775,0.12436653511455245,-0.7588835601573277,0.8291822126695876,-0.026900296019514505,-0.8943625588427542,0.9904077089314696,-0.16312368778993253,0.7056443920852519,1.0017560060789474,0.2506385611464195,0.7162009746993178,1.0236758987377017,0.0,0.0,0.0,0.0
0.013433001976487611,-0.04355820578032881,0.7372104402469353,0.004661067514555213,-0.5156007206482032,-0.00579255068344963,0.8567967189907172,0.12379660881225082,-0.7590153562951965,0.8297476415643043,-0.027475498098692375,-0.8929857578680652,0.9890067385672853,-0.16386838960501363,0.706022301169142,1.002875450656381,0.2509282680716709,0.716942838565225,1.0238822499214093,0.0,0.0,0.0,0.0
0.013400152778316863,-0.04317387879008691,0.7371903980392925,0.00452080011469929,-0.5157718287690919,-0.005651687403307786,0.8566954192967328,0.12252360518931996,-0.759703915336279,0.8309193126816606,-0.02878001040461138,-0.8905594104470163,0.9860726512592041,-0.16514497981984433,0.7060823330423315,1.0045068847130463,0.2504205395252642,0.7175809896125939,1.0235705007180518,0.0,0.0,0.0,0.0
0.013349704603646713,-0.04249228513682072,0.7371772581588593,0.004286973608174879,-0.5159346154225732,-0.005387999032024168,0.856600294146853,0.12025644005561889,-0.7617051516186014,0.8338421606633459,-0.031145290513356176,-0.8870103809813281,0.981623553214768,-0.1671355295692301,0.7058405270810774,1.0068810367828578,0.24904496738048312,0.7183142728355173,1.0225203015156963,0.0,0.0,0.0,0.0
0.01332186825346879,-0.04140394682925161,0.7371642317387533,0.0039192572180111835,-0.5160756705962893,-0.00495613109030595,0.856519689444478,0.1166454404228722,-0.7658179796361995,0.8396819055652994,-0.03495702383152047,-0.882198964740694,0.9755439131579335,-0.170107918048417,0.7052703969881107,1.010271397797598,0.24659333059260768,0.719286476231432,1.0204622408423643,0.0,0.0,0.0,0.0
0.01331072922574031,-0.03980598013621804,0.7371379288432446,0.003393235506449955,-0.5161785327226444,-0.004313418047292716,0.8564634275518395,0.11133407618664101,-0.7725412049945294,0.8490184353962625,-0.04057786917744601,-0.8758220209633416,0.967332584420228,-0.1743592137035078,0.704185470551741,1.015021765718779,0.2426935710778228,0.7204188876583314,1.0172305183207413,0.0,0.0,0.0,0.0
0.013306897832547123,-0.037625902074033664,0.7371146625904922,0.002703217735832895,-0.5162199766623384,-0.0034446205295227458,0.856444839378471,0.10408419406062892,-0.782053211444819,0.8620540028251475,-0.04821904479229569,-0.8676053450736175,0.9565557054368359,-0.1802632892703278,0.7025917889283118,1.0211005369678066,0.23682032998268202,0.7216678292728954,1.0124145765067751,0.0,0.0,0.0,0.0
0.01331946057553207,-0.03482804714760824,0.7371442690141629,0.0018578783239920037,-0.5161724536520733,-0.0023512733318205863,0.8564794322648095,0.09477107580696613,-0.794308996821083,0.8788106744548984,-0.05795170810190617,-0.8573708179669837,0.9430307122788898,-0.18812713842814624,0.700741397630191,1.028023253652354,0.22853624375199316,0.7231849939599828,1.0053190823576807,0.0,0.0,0.0,0.0
0.013362322177773922,-0.0314119623363916,0.7372324472588351,0.0008737199782213782,-0.5160113592147288,-0.0010435892892839689,0.8565806586049927,0.08337093419670275,-0.8092244578424508,0.8991313020119293,-0.06973181973948585,-0.8451544544512628,0.9267491704137117,-0.1981262466901046,0.6987241155504637,1.0355961179208784,0.21769152595044408,0.7250011346902272,0.9957024145192712,0.0,0.0,0.0,0.0
0.013473207892919423,-0.02751559226415813,0.7372698459529122,-0.00022119768962292386,-0.515728118855913,0.00046446575349359305,0.8567521478026694,0.07021356144592525,-0.8266593114200544,0.9224765208149482,-0.08316649271099268,-0.8317415750105321,0.9085497462577845,-0.2095642592370516,0.6961723099374987,1.044268080267769,0.20539176411476795,0.7269106476032552,0.9847485127980201,0.0,0.0,0.0,0.0
0.013610311973732043,-0.024108633009125264,0.7372234087787728,-0.0012076135370135258,-0.5154573264835058,0.0017425310680613541,0.8569126267184412,0.058700520516012065,-0.8417660146149706,0.9423477546281132,-0.0947027818859582,-0.8199638247773069,0.8922534428314156,-0.2198405061134415,0.6938886436506201,1.0522350616119334,0.19485029702258105,0.7284784700064729,0.9754773508570481,0.0,0.0,0.0,0.0
0.013728885824288814,-0.0213324053352507,0.7371944215155697,-0.0020343550257802337,-0.515264761285934,0.002788820261150357,0.857024100978572,0.04921449083066942,-0.8535345593075858,0.9577641587553049,-0.10403144878495196,-0.8097301262038389,0.8781578371013287,-0.22816415082397773,0.6922580842067593,1.0585129850662003,0.1866924991411522,0.7301278032793027,0.9676883682270265,0.0,0.0,0.0,0.0
0.013817629945699317,-0.01918599199950836,0.7371769066280193,-0.002694727641935292,-0.5151479573934722,0.0036038861506146945,0.8570894541650145,0.04181833711537489,-0.8622280997493368,0.9691358676327445,-0.11119441474604719,-0.8012919054544215,0.8665841823609196,-0.23452835962748997,0.6911451463811795,1.0632832757216513,0.18072460660359696,0.7316642758423418,0.9615728176381018,0.0,0.0,0.0,0.0
0.013875295139656189,-0.017628651932389675,0.737124196221758,-0.0032003278462440204,-0.515097302139374,0.004198347233175182,0.8571154537814172,0.036432087254306855,-0.8683664334311367,0.9770604631264019,-0.11635123273481852,-0.7948634055658002,0.8576942590602897,-0.23909239527760978,0.6902650811472979,1.067117557988373,0.1767225660220682,0.7327753758611856,0.9575368934013928,0.0,0.0,0.0,0.0
0.013920327260463421,-0.01654332052008732,0.7370602825319156,-0.0035793198248887876,-0.5150986126099891,0.004619772654789532,0.8571109994962575,0.0326637734515697,-0.8725500160592361,0.9824476131378169,-0.1199284227889585,-0.7901490319093722,0.8512039570151382,-0.2421933220201387,0.6896576192981296,1.070066401574126,0.17427637968404291,0.7336331189471534,0.9550388060474956,0.0,0.0,0.0,0.0
0.013970486458396028,-0.01581689302205016,0.7369979315238198,-0.0038611311459820115,-0.5151345312364849,0.0049109494407658955,0.857086570288924,0.030131043150556907,-0.8753476404150331,0.9861059745826871,-0.12231969816842703,-0.7868544087530746,0.8467723617051968,-0.2441711740736022,0.6893212161829033,1.0722435447151057,0.17300769829021148,0.7343674844079738,0.9536072804806169,0.0,0.0,0.0,0.0
0.014003168934885618,-0.015324177743629756,0.7369467281885524,-0.004066350420413393,-0.515184946499206,0.005112945827709481,0.8570541368430769,0.02840804608138401,-0.8771458688305057,0.9884755999772629,-0.12393541519049067,-0.7844471712689455,0.8435708137175567,-0.2454712054866924,0.6891234100388635,1.0738443357576908,0.17233005651054156,0.7349358002975279,0.9527824148298738,0.0,0.0,0.0,0.0
0.014020268767217098,-0.014987634011103666,0.7369079113595595,-0.0042144039911810195,-0.5152370208847978,0.005251884857350662,0.8570212767570025,0.027232973227423435,-0.8782773782328903,0.9899775218004528,-0.12502942559883742,-0.7826681476305177,0.8412171671003509,-0.24634885080508265,0.6890092017005913,1.0750095225073573,0.17195724051381606,0.7353586025832802,0.9523013267690557,0.0,0.0,0.0,0.0
0.014027550301700015,-0.014756677020352953,0.7368797874569458,-0.004321233929738858,-0.5152855462828118,0.005347079753537439,0.8569909809720626,0.02643017542107649,-0.8789754697003642,0.9909159403440598,-0.12577110375258774,-0.7813459463601524,0.839476506842713,-0.24695080944531023,0.6889512444433032,1.075851561380299,0.1717558134616952,0.7356748135435695,0.9520187294998056,0.0,0.0,0.0,0.0
0.014029792745767782,-0.014597477009632605,0.7368600176874786,-0.004398876701020198,-0.5153289918294657,0.005412501898033553,0.8569640511054122,0.02587985715327811,-0.8793960040588662,0.9914957451032699,-0.12627520649669322,-0.78035710779403,0.8381852553000811,-0.2473666683074109,0.6889329469605355,1.0764578843450914,0.17165931658716743,0.7359190810544785,0.9518527705720706,0.0,0.0,0.0,0.0
0.0140303083274257,-0.0144873005230935,0.7368464821299027,-0.004456177696375117,-0.5153677022265933,0.0054581355495753195,0.856940186208082,0.025500264260579754,-0.8796400858297129,0.9918507364392896,-0.12661953223484337,-0.7796099591891826,0.8372244975457819,-0.24765183489138382,0.6889441307865624,1.0768940464751169,0.1716357459474868,0.7361195085556318,0.9517570269442773,0.0,0.0,0.0,0.0
0.014031422530174573,-0.01441093953551611,0.7368374617445922,-0.0044997015464384215,-0.5154031109103542,0.005491208620537298,0.8569184515330545,0.02523558834412864,-0.8797719305897994,0.9920673020240671,-0.12685682421829977,-0.7790353187477294,0.8365071321758423,-0.2478386999865193,0.6889794387858321,1.077208359582075,0.1716749662451088,0.7363001068428082,0.9517062894129956,0.0,0.0,0.0,0.0
0.014035121465696666,-0.014358345720226531,0.736831541417727,-0.00453458119078949,-0.5154374553096275,0.005517234253307268,0.8568974427336996,0.02504744035492251,-0.8798321109845396,0.9922023992505503,-0.12702310632151678,-0.7785801933616048,0.8359704718774082,-0.24794210133622308,0.6890376132621602,1.0774367654498969,0.17178476029729123,0.7364842590453192,0.9516894991854951,0.0,0.0,0.0,0.0
0.014043756202960587,-0.014323026743555522,0.736827404143097,-0.004565307625656853,-0.5154738068405555,0.0055409268281980135,0.8568752596250362,0.024908621613248427,-0.8798475529073468,0.9922976203717294,-0.12714375697466343,-0.7782031177381337,0.8355719878932129,-0.24796114229460467,0.6891214109339852,1.0776073578133099,0.17199209461799422,0.7366989169292314,0.9517066436409511,0.0,0.0,0.0,0.0
0.014060912031366262,-0.01430087192491787,0.7368236492044361,-0.004596549487317495,-0.5155163356241402,0.005567114853488429,0.8568493372056009,0.024798066545303293,-0.8798399705338242,0.992392079530646,-0.1272384534457776,-0.7778702986893594,0.835287569092676,-0.24787822251121233,0.6892386224939892,1.0777438998050377,0.17234859120771132,0.73698054951163,0.951767093228202,0.0,0.0,0.0,0.0
0.01409271650957844,-0.014289013918880126,0.7368191026263103,-0.004634132188795771,-0.515570715469795,0.005601795337627679,0.8568161891898494,0.02469563689548119,-0.8798343857440588,0.992538184168894,-0.1273262763878651,-0.7775512503267016,0.835112438523151,-0.24765608043885112,0.6894065453860604,1.0778646470723636,0.17293920692043646,0.7373860873350628,0.9518832071608382,0.0,0.0,0.0,0.0
0.014150433117248715,-0.014284095426187719,0.7368157655527344,-0.004686305745374007,-0.5156444098301662,0.005653464109062341,0.856771217708046,0.02457490795967928,-0.879868092354965,0.9928288688280262,-0.1274327183660706,-0.7772105401070925,0.8350679954094291,-0.24723437393092856,0.6896707993147029,1.0779577415291541,0.17389079077096276,0.7380213823535506,0.9520350635218902,0.0,0.0,0.0,0.0
0.0142583076665859,-0.014279170270017426,0.736834088722644,-0.004765454402618321,-0.5157467268212559,0.005734982826380129,0.8567086518703302,0.024391657709758183,-0.8799902837036765,0.9934623124595164,-0.12760040117769253,-0.7767833115281717,0.8352368570357992,-0.24652495274592215,0.6901915669835045,1.0778456551208153,0.17537767403594584,0.7391471072361924,0.9520057845093818,0.0,0.0,0.0,0.0
0.01449949613429254,-0.014245693089083626,0.7369832228085402,-0.004897483019161093,-0.5158883217548137,0.005873084679950003,0.8566217140683634,0.024020399290898966,-0.8803226694951438,0.9951490285534949,-0.12795188452002035,-0.7761010339336769,0.8360046109696557,-0.24542068677006323,0.6916735571224676,1.0765588265394856,0.17764246434673417,0.7416980782989745,0.9506003415084326,0.0,0.0,0.0,0.0
0.01526956034883161,-0.014066197291647596,0.7377972560178786,-0.005188847345264768,-0.5161204526002113,0.00617522502969992,0.8564780329155052,0.022957153305737867,-0.8812859112716926,1.0011233149282959,-0.12897961053967386,-0.7744392983013624,0.8393313265857905,-0.24352985707178004,0.6975960324995779,1.0693140145844993,0.18169734809677923,0.7501295203017013,0.9420199175196649,0.0,0.0,0.0,0.0
0.01606437501504981,-0.014177529015261377,0.7391903347389048,-0.0060009717270049,-0.5168057287491231,0.006989992466362457,0.8560531333251106,0.021580332780592043,-0.8787919953251865,1.0042942930989331,-0.1300222453690392,-0.7673241702189767,0.8390443497318565,-0.23172881329495587,0.7050891399809934,1.0566802132711388,0.147758875714778,0.7230031394347651,0.9759272783532618,0.0,0.0,0.0,0.0
0.017081153463689137,-0.014345943991215148,0.740683294584536,-0.006793767090842583,-0.5175507146867117,0.007784085867635941,0.8555901533229532,0.020441434899963692,-0.8763902015283432,1.0086473722695788,-0.13086855141472384,-0.7608755256023007,0.8407219611804312,-0.2199732410474333,0.7140559793951221,1.042655769191697,0.12090719071479383,0.7033989974414157,1.001016539589186,0.0,0.0,0.0,0.0
0.01812351784824422,-0.014453600094627109,0.7420067154420482,-0.007462348562943932,-0.5181879956685507,0.008442983824345654,0.8551925107968832,0.019457996571199107,-0.8749339495464141,1.0138328775901235,-0.13164524537699748,-0.7559493603800775,0.8435380884924306,-0.21045482755948763,0.7226754329561115,1.0298887091890665,0.1029615975778334,0.6902804275951875,1.020808449032122,0.0,0.0,0.0,0.0
0.019075278948710653,-0.014496948363714799,0.7431428711015767,-0.00801469839896722,-0.5187133912230011,0.008980435762564486,0.8548634593600442,0.018567444614130787,-0.8740388600002995,1.0189336459561986,-0.1323798009348742,-0.7520080890934835,0.8463783061798843,-0.20295645992607278,0.7303921215071753,1.0187701793974964,0.09057478459327306,0.6812170418304173,1.0378824572354959,0.0,0.0,0.0,0.0
0.01991586550860085,-0.014483198724537502,0.7441378807033171,-0.008482424176574912,-0.5191419146080254,0.00942864809835387,0.8545939512846085,0.01771328625545177,-0.8734798437888399,1.0237054264541683,-0.13310470383870945,-0.7486400331062599,0.8488500628114377,-0.19696528787804773,0.7372304248126278,1.0089846390958876,0.08105987473021893,0.6744884394063291,1.053583710450157,0.0,0.0,0.0,0.0
0.02064906163049373,-0.014429074159995496,0.7450409375643754,-0.008889714319010424,-0.5194931334956763,0.009812910155069686,0.8543720290508453,0.016883843803152502,-0.8730538879735473,1.0280275614407,-0.13381581967786724,-0.7455680859950333,0.8508260972648192,-0.1920064744958484,0.7433537531384974,1.0001057195414218,0.07288331979115224,0.6689827515944402,1.0686101079642594,0.0,0.0,0.0,0.0
0.021290151837072675,-0.014350066344388302,0.7458872385786521,-0.009254187088833018,-0.5197852988836471,0.01015222248334029,0.8541864758145092,0.016079739117676073,-0.8726399345092962,1.03188817060649,-0.13450434510859965,-0.742637780678904,0.8523252644812751,-0.18771678956705104,0.7489338427383037,0.9917961375395036,0.06528429077422351,0.6640379310905256,1.0833281848342897,0.0,0.0,0.0,0.0
0.021868306370958303,-0.014252230806255541,0.7466972517678404,-0.009592172019500628,-0.5200335996996202,0.010463337673930716,0.8540278473118571,0.015283729864731505,-0.872255764944473,1.0354578619280663,-0.1351862777055123,-0.7397994866217719,0.8534941085025078,-0.1838521702971313,0.7541381173449564,0.983840596679722,0.05791097585240441,0.659319698323897,1.0979484191471642,0.0,0.0,0.0,0.0
0.022403294469478655,-0.01414482520140748,0.7474808337572494,-0.009912732739148394,-0.5202512395996017,0.010756516055237511,0.8538879802333988,0.014499300008066438,-0.8718925935714442,1.03881907968315,-0.1358580695657345,-0.7370365591817247,0.854451121886125,-0.1802320905557531,0.7590729247302426,0.9761186831594022,0.050624465320231515,0.6546555684475311,1.1125892410446985,0.0,0.0,0.0,0.0
0.022908657594991746,-0.014038244720207621,0.748240487431698,-0.010220381500645475,-0.5204485258325819,0.011037458955842901,0.8537605344945803,0.013741790597632746,-0.8715377352669769,1.042010143785807,-0.13650567941574324,-0.7343626309871567,0.855302987471501,-0.17672598011985527,0.7637980776188974,0.9685787931989557,0.04337996985066798,0.6499796882498277,1.1273116143879125,0.0,0.0,0.0,0.0
0.02339323025094047,-0.01394360049780165,0.748973675424534,-0.01051660521187379,-0.520633550762988,0.011308695767796546,0.8536405685268081,0.013034541797887563,-0.8711763182665732,1.0450380443876002,-0.13710801054080282,-0.7318117608111864,0.8561462062395185,-0.17323806431452293,0.7683386200303849,0.9612190256779735,0.036170856985062,0.645290658031857,1.1421348279822634,0.0,0.0,0.0,0.0
0.023861836230640553,-0.013872833500023298,0.7496734795814974,-0.010800692886198681,-0.5208127920076321,0.011570383368450564,0.8535241689273363,0.012407527564752099,-0.8707916542437227,1.047882853452191,-0.13763806957267632,-0.7294340150536228,0.8570679708198808,-0.16969641228388135,0.7726881595255848,0.9540822047691391,0.029005439337558746,0.6406236596631449,1.1570259978290434,0.0,0.0,0.0,0.0
0.024314894413936094,-0.013838916430036145,0.7503276317212656,-0.011070037799002664,-0.520991447890018,0.011820640652663745,0.8534082481105698,0.0118970044014764,-0.8703659514848193,1.050494947161753,-0.13806320806197087,-0.7272945906740922,0.8581425956126918,-0.16604800666314806,0.7768019545340633,0.9472672767225581,0.021903124618392188,0.6360338230661428,1.1718600928610212,0.0,0.0,0.0,0.0
0.02474614235139645,-0.013855861389998754,0.7509160630565958,-0.011319828400964684,-0.521173147652496,0.012055341108002859,0.8532907361513613,0.011545494420565546,-0.8698800980193502,1.0527810021852917,-0.13834492844571358,-0.725473916248889,0.8594168821293097,-0.1622623822724707,0.7805768177741685,0.9409579190830981,0.014907835709366,0.6315911409300174,1.1863350368544159,0.0,0.0,0.0,0.0
0.025136974939760182,-0.013938696574729823,0.751407532020687,-0.011541752080721947,-0.521358887045678,0.012267160004933315,0.853171269817973,0.011402742648689432,-0.8693039136387939,1.0545647003313114,-0.13843716570109346,-0.7240623747237629,0.8608719045424611,-0.1583451811173473,0.7838155682243211,0.9354651620184193,0.00812883204155718,0.6273951258187894,1.1998182606881342,0.0,0.0,0.0,0.0
0.025452596523050805,-0.014100189513467016,0.7517570277075809,-0.011723350873960271,-0.5215460956253974,0.012445204990075938,0.8530517862679526,0.011517132796779867,-0.8685995947932653,1.0555736246690313,-0.13829375380426553,-0.7231477865010044,0.862381641064143,-0.15437328994631813,0.7862035082801739,0.9312691752966449,0.001816523068616991,0.623656560788025,1.2111130306892584,0.0,0.0,0.0,0.0
0.025665858427973406,-0.014331734431109596,0.7519074708739992,-0.01185525762538825,-0.5217258115309438,0.012579439065495747,0.8529380916349154,0.011879837454575805,-0.867891066092982,1.0557324976176223,-0.13792768249487913,-0.7228560466616095,0.8638374930604025,-0.15059056914164798,0.7873904798680758,0.9290119226163635,-0.003596765265990191,0.6209939529638547,1.2181217851162236,0.0,0.0,0.0,0.0
0.025755010108482766,-0.01461505359308688,0.7518119568011312,-0.011928254116979304,-0.5218847869954026,0.012659779943961032,0.852838622383071,0.012457755320167054,-0.8673326032350112,1.0550465792145556,-0.13737557771544126,-0.7232975471407069,0.8651377187636278,-0.14731475736434324,0.7870922115273078,0.9292443820285415,-0.007475535146158611,0.6207660489165638,1.2175552239891638,0.0,0.0,0.0,0.0
0.02572100447176603,-0.014951421147928749,0.751466941775139,-0.011942429011002937,-0.5220259980142087,0.012685510728570694,0.8527516130762473,0.013255427047353545,-0.866918115541594,1.0535074095575427,-0.13663266009714303,-0.7244774638541932,0.866288304585777,-0.14455568700453533,0.7853075644447854,0.9320046383745277,-0.009826349914061904,0.6229935689486495,1.2094459441222345,0.0,0.0,0.0,0.0
0.02558759655780489,-0.01536257018464124,0.7509121246431479,-0.011906943428962308,-0.5221674562426022,0.012665711408157209,0.8526657915583543,0.014316200082447255,-0.8664863386973325,1.0510952795891324,-0.13565208063484346,-0.7263038821673486,0.8674122660941084,-0.1419977951498263,0.7823129207064846,0.9368062922153145,-0.011291213711881559,0.6263538099881875,1.1971309265010557,0.0,0.0,0.0,0.0
0.025383658332763116,-0.01586209722478541,0.750198213799066,-0.011830590922783983,-0.5223209979229667,0.012609626477001248,0.8525736387944941,0.01566254102058969,-0.8659085126752128,1.047869340730761,-0.1344078553393392,-0.7286789490828837,0.8686506600306049,-0.13937671191585677,0.7784461638533603,0.9430472574365487,-0.012294442966722323,0.6302458309002429,1.182743713807694,0.0,0.0,0.0,0.0
0.02514404235099896,-0.016444788518393833,0.7493644017937631,-0.011723948200330214,-0.5224920080139183,0.012526291540838706,0.8524715494492549,0.017268751273331717,-0.8651997787008364,1.0440592554221353,-0.13292427813359484,-0.7315449740415615,0.8701605753597434,-0.1365830392945277,0.7740066967189762,0.9502765080890165,-0.013073546441190981,0.6344608845315812,1.1675099793743475,0.0,0.0,0.0,0.0
0.02488466434274027,-0.0171072929148352,0.7484352151517903,-0.011592818853658992,-0.5226825730020361,0.012420842992504068,0.8523580568577697,0.019119033408629846,-0.8643473763215522,1.039760264930953,-0.13121425508824602,-0.7348452350606495,0.8719886355958388,-0.13354736930723196,0.7691593422282622,0.9582158839593485,-0.013713873285589814,0.6388941309507057,1.1520821699842727,0.0,0.0,0.0,0.0
0.024606280552900806,-0.017852361472564783,0.7474216362689814,-0.011439564152524931,-0.5228924839239026,0.01229566910403343,0.8522331858999482,0.02121658872939279,-0.8633100061901701,1.0349437938645034,-0.12927123550897832,-0.7385402951159815,0.8741154465836402,-0.13018877844553853,0.7639475890355888,0.9667281471692281,-0.014231016552673316,0.6434692654271885,1.136768274473985,0.0,0.0,0.0,0.0
0.024296693139277473,-0.0186916176518811,0.746323589027362,-0.011264019619809303,-0.5231201871182507,0.012151529016168628,0.8520978418197878,0.02358862071298258,-0.8620075081466352,1.0294555402583194,-0.12706412178688573,-0.7426080166061394,0.8764748463823868,-0.12637612215739888,0.7583101074636636,0.9757768395958613,-0.014611742857656781,0.6481166523138113,1.1216703140225448,0.0,0.0,0.0,0.0
0.02393264117219371,-0.01964553085544672,0.7451323122409977,-0.011064736318444932,-0.5233638449025522,0.011989020048160022,0.8519531212791613,0.026283149394544746,-0.860315464441217,1.0230201375226882,-0.12453956712568866,-0.7470313478231163,0.8789539832155028,-0.1219084948369835,0.7520972573774806,0.9853960935365997,-0.01483241308436428,0.6527764410123397,1.1067609013709934,0.0,0.0,0.0,0.0
0.023500880890650708,-0.020728496703223853,0.7438314462164237,-0.010845784550199907,-0.5236220235481375,0.011812895560995055,0.8517997422583018,0.029324455513883147,-0.8581974157208239,1.015481489010337,-0.12166945409827305,-0.751822192721246,0.8814938054122976,-0.11657820491482357,0.7451484272187613,0.9956847457666941,-0.014938355038931843,0.6574763273065575,1.091926772327069,0.0,0.0,0.0,0.0
0.022985637571760045,-0.021953481003851274,0.7423987196473519,-0.010615113911867242,-0.5238933355494136,0.011631824391653028,0.8516382993882258,0.0327240654079481,-0.8556327589095224,1.0066734509759294,-0.11843679943690132,-0.7569756661910447,0.8839932314057934,-0.11013168256159832,0.7372534210829794,1.0067907324276693,-0.015049405042024597,0.6623322852169317,1.0769384687674333,0.0,0.0,0.0,0.0
0.022376033823754197,-0.023320278413307492,0.7408069378605691,-0.010389163182259051,-0.524176241811408,0.011461368335126648,0.851469300588534,0.03644594908265572,-0.8526852493574122,0.9965356313467594,-0.11487113138210586,-0.7624527151935158,0.8863088188130026,-0.10232098770461383,0.7281821534127091,1.0189171320059671,-0.015454005125519879,0.6676259567709694,1.0614048664733038,0.0,0.0,0.0,0.0
0.021678754840420582,-0.02479359045180204,0.7390265360093453,-0.010199423382672889,-0.5244741184889401,0.01132771898455256,0.851289935087052,0.04034567031575405,-0.8495947687078489,0.9852978199907741,-0.11110970025622605,-0.7681198122997397,0.8882234552101458,-0.09303235377715859,0.7177647194225418,1.032345328793646,-0.01675296609515255,0.6739014150850774,1.044737492978848,0.0,0.0,0.0,0.0
0.021009808093177127,-0.02622352129017873,0.737028150983418,-0.010120096657303825,-0.5247835984609943,0.01128775692813481,0.8511006667683371,0.043941252504634515,-0.8475393422060353,0.9747562590027977,-0.10765327005133012,-0.7739302645169265,0.8899441659610016,-0.08263436515225507,0.7061732836368032,1.0474745314673775,-0.02032511693533149,0.6822591431801813,1.0259906774053429,0.0,0.0,0.0,0.0
0.020392210844147985,-0.027510780119004888,0.7348399852742297,-0.01021978118193634,-0.5250931706555482,0.0114343401151506,0.8509065601284478,0.0467755693642321,-0.84710925091804,0.9657453178547509,-0.10495234654540216,-0.7793679384883534,0.8909783134403751,-0.07064988418578111,0.6933054953537929,1.064121378956872,-0.02756073523316612,0.6935748636061329,1.00337433949345,0.0,0.0,0.0,0.0
0.01985185444054537,-0.02854840113359107,0.7326219756144842,-0.010574060589685363,-0.5253786675414639,0.011832912170096525,0.8507205340912939,0.048449952838600194,-0.8485739349901795,0.95906080223571,-0.10338744216515292,-0.7836244972355727,0.8907663078514396,-0.056808840358409635,0.6796661096863303,1.0809845927212436,-0.041202552632357406,0.7086362815547753,0.9736069014715568,0.0,0.0,0.0,0.0
0.01949946439716922,-0.029188093815632355,0.7308817668266002,-0.011212118909516625,-0.5256232723497742,0.012512836118858759,0.8505515227698651,0.048538257694430945,-0.8514550981322107,0.9558605461762472,-0.10333328685911722,-0.7852384177635287,0.8890454553396642,-0.041781741296440356,0.6677613208790979,1.0939414601319073,-0.05994128546212199,0.7280846919294653,0.9337250888011048,0.0,0.0,0.0,0.0
0.01951423090700133,-0.029191444713043194,0.7308486926826486,-0.011218083675442364,-0.5256396466117407,0.012513988143232648,0.8505413079970227,0.04854053319398364,-0.8514526954370466,0.9558163582605038,-0.10332962914228191,-0.785267994090445,0.8890588947917738,-0.04175924192287825,0.6677582827272837,1.0939598969553266,-0.05994598580421841,0.7280771119786907,0.9337115030240963,0.0,0.0,0.0,0.0
0.01951423090700133,-0.029191444713043194,0.7308486926826486,-0.011218083675442364,-0.5256396466117407,0.012513988143232648,0.8505413079970227,0.04854053319398364,-0.8514526954370466,0.9558163582605038,-0.10332962914228191,-0.785267994090445,0.8890588947917738,-0.04175924192287825,0.6677582827272837,1.0939598969553266,-0.05994598580421841,0.7280771119786907,0.9337115030240963,0.0,0.0,0.0,0.0
0.019823118799116673,-0.028617682708575082,0.7307054474633415,-0.011063107277313581,-0.5255824864602042,0.012322895099232607,0.8505814504443729,0.04752576805349687,-0.854548949765724,0.9609709726996994,-0.10447444100595303,-0.7864696444753273,0.8904025503916305,-0.049449504343281755,0.6697417117576371,1.096402642383498,-0.06677541507318961,0.7270901314990675,0.9318941935457792,0.0,0.0,0.0,0.0
0.020177123605715722,-0.027958957645114833,0.7305028618658098,-0.011032626793446394,-0.5255748090042772,0.012220377590720545,0.8505880693130454,0.04612703081317249,-0.8583267605872404,0.9669853006746284,-0.10598815811436861,-0.7871418941238123,0.8912336733495634,-0.05643322762071299,0.6714357079342947,1.0995572231938315,-0.07278499443124928,0.7265029398501117,0.9304208974290044,0.0,0.0,0.0,0.0
0.020491038798660256,-0.027413285292781496,0.7303037528280584,-0.011047393747697207,-0.5255979275843643,0.012172299915300295,0.8505742817209891,0.044887838453880544,-0.8615942062253905,0.9721096014987772,-0.1073161320587277,-0.7875772022585604,0.8918616084708556,-0.06177879056217716,0.6727279395247316,1.1024169642727535,-0.07726690798796583,0.7261687640787249,0.9295529656961109,0.0,0.0,0.0,0.0
0.020727241038029524,-0.02703008171386839,0.7301378025154404,-0.011063824764733683,-0.5256239171225192,0.012140573392512248,0.8505584612524029,0.04401340306531254,-0.8639924432014325,0.9758226527404497,-0.10825688643674866,-0.787964881505272,0.8924120939216188,-0.06557049460126045,0.6736263075663441,1.1046312659382187,-0.0803897945267893,0.7258880242113909,0.9291780284876259,0.0,0.0,0.0,0.0
0.020869541813412253,-0.026805551331833485,0.7300155022924404,-0.011059872357880224,-0.525633239092453,0.01209853998810267,0.8505533507751055,0.04355573059248996,-0.8654647773580569,0.9780411706317484,-0.10876339769551778,-0.7883903115560239,0.8928923067321788,-0.06814423937271938,0.6741634708419452,1.1061415131885548,-0.08248814754090258,0.7255022913382791,0.9291422473008016,0.0,0.0,0.0,0.0
0.020909063006770187,-0.026724741238299935,0.7299383573929,-0.011023462748058281,-0.5256124294272914,0.012027950688475609,0.8505676843748641,0.04352018613812313,-0.8660355361222052,0.9787872609218661,-0.10883391556989706,-0.788897418032476,0.8932717956415562,-0.06983142666434178,0.6743621242814862,1.1069866230781567,-0.08385846427467263,0.7248822959051349,0.9293376975355148,0.0,0.0,0.0,0.0
0.020836006395264794,-0.026779309004332653,0.7299057074701935,-0.010945863555508388,-0.5255507428045165,0.011915564724678697,0.8506083847023477,0.043916031175823225,-0.8657085101933967,0.9780381298772832,-0.10846083130394997,-0.7895186112620924,0.8935133458789063,-0.07086009420114478,0.6742180122249763,1.1072034799381658,-0.0846949697688463,0.7239143650030551,0.9297138430639126,0.0,0.0,0.0,0.0
0.020634544360831595,-0.02697504758513657,0.7299186638661722,-0.0108180965078782,-0.5254372096452287,0.011750861497386418,0.8506824464876723,0.04477984126211478,-0.8644196467514941,0.9756536706697044,-0.10760706955926656,-0.7902883566876304,0.8935806531702539,-0.07131711425666819,0.6736879258057378,1.1067770722143468,-0.08506945422174987,0.7224884360917319,0.9302711114234861,0.0,0.0,0.0,0.0
0.020279650423972662,-0.02733569666287981,0.7299818266261592,-0.010629232956416313,-0.525258418152398,0.011525056711580512,0.850798323126341,0.04618666527032062,-0.8620143243345206,0.9713363789001805,-0.10619463005206044,-0.7912509566964894,0.893439510599993,-0.07112751837037755,0.6726784563069453,1.1056160538090514,-0.08491857757320034,0.7204881433883331,0.9310589016227184,0.0,0.0,0.0,0.0
0.019735639079920313,-0.02790548177876146,0.7301028366023697,-0.010366049380274791,-0.5249972269005824,0.011231334560685572,0.8509666937612366,0.04825488976124104,-0.8582385277071725,0.9646075579154195,-0.1040992045498626,-0.7924680272609819,0.8930608196310826,-0.07003663419747652,0.6710351004275379,1.1035461027165356,-0.08402821620636508,0.717782235160997,0.9321876255804836,0.0,0.0,0.0,0.0
0.0189570991880545,-0.02875001866952694,0.7302889740498866,-0.010014023510584653,-0.5246329472524603,0.010866030969171618,0.8512002815796665,0.05114447991895172,-0.852745644749081,0.9548029835527562,-0.10115121634313377,-0.7940273873741516,0.8924280192906718,-0.06760602735702989,0.6685362201557,1.100328017317503,-0.08202301957520314,0.7142152287119159,0.9338595161952831,0.0,0.0,0.0,0.0
0.017894123281520485,-0.02995204489591257,0.7305393091104715,-0.00956008444990912,-0.5241442284159455,0.010430136219729968,0.8515119757595906,0.05504161593096699,-0.8451325559234152,0.9411125187128231,-0.0971504254706234,-0.7960498676529874,0.8915454766845745,-0.06326432389766501,0.6649044983125517,1.0957227023365206,-0.07839212682531148,0.7095955268917965,0.9364155075784483,0.0,0.0,0.0,0.0
0.016505755753811264,-0.03159297516179248,0.7308315223514305,-0.008998002040676833,-0.5235167097963078,0.009929744808581607,0.8519100249975703,0.06011199322934292,-0.8350372582176909,0.9227281349897388,-0.0919125445123082,-0.7986795071191238,0.8904354264112094,-0.05649320233096695,0.65986273748686,1.089638099072306,-0.07261858648222158,0.703688223666419,0.9403668061844174,0.0,0.0,0.0,0.0
0.014789984543318657,-0.03370040429198017,0.7311087830871432,-0.008338227100231866,-0.5227574112843061,0.009373151482787556,0.8523891757568467,0.06638327687090444,-0.8223716118565976,0.8992643782002068,-0.08539005854643705,-0.8020185314755026,0.8891035098496978,-0.04727277102371507,0.6532933101882683,1.0823766308886387,-0.06454023516392127,0.696263218247542,0.9462772236414686,0.0,0.0,0.0,0.0
0.012851440749977804,-0.03611987389108303,0.7312999722403463,-0.007627302876144095,-0.5219135056437988,0.008765863892179883,0.8529192672859839,0.07346136873044913,-0.8078724999074319,0.8718966190902081,-0.07797086238210586,-0.8059092409826385,0.8874781940402355,-0.03692589163324331,0.6456715216381266,1.0748242765381757,-0.05514008629999716,0.687429282146672,0.9540191656269073,0.0,0.0,0.0,0.0
0.011169165048464673,-0.0381954400019424,0.7315415776228317,-0.007023002575666335,-0.5211007991438592,0.008247624968928469,0.8534263947458066,0.07946291908741301,-0.7950424716928015,0.8475934153262307,-0.07160936137235269,-0.8092047552642389,0.8859624187853475,-0.02865365773941425,0.639578899914545,1.0672366741108348,-0.0472615767454779,0.6800019250255229,0.9594604441535574,0.0,0.0,0.0,0.0
0.009864362337547599,-0.039849387108020225,0.7317699221515722,-0.006541833007119228,-0.5204105715550864,0.00781438212498505,0.8538553606241633,0.08426782466602192,-0.7847103960672378,0.8280424825057993,-0.06649027599653612,-0.812058963060176,0.8851295086054833,-0.022611521994277167,0.6352210358484706,1.0605708316642326,-0.0413142329974253,0.6742194798113227,0.9631077429853622,0.0,0.0,0.0,0.0
0.008902126761220286,-0.04109666370496484,0.7319447500553868,-0.006174215190843629,-0.51986102325918,0.00745818891102155,0.8541959792581928,0.08795381796663199,-0.7769102888672111,0.8132345171414228,-0.06255727744927275,-0.8144767541875189,0.8848169736580614,-0.01848284111913135,0.6321727012959772,1.0553524351590606,-0.037159055174105504,0.6697871875964707,0.9656099945008236,0.0,0.0,0.0,0.0
0.008205541391347894,-0.04199090318841235,0.7320626755488081,-0.005902269132816455,-0.5194387962938832,0.007169831426032712,0.8544571923982897,0.0906736447809914,-0.7712835133159996,0.8024612094646302,-0.05965493003102779,-0.8164032193253592,0.8846984561629143,-0.015872598137683068,0.6300233144835858,1.0516019693240126,-0.034485230707153876,0.6663913713711886,0.9673340047194979,0.0,0.0,0.0,0.0
0.007723007159829503,-0.0426015901960594,0.732129151219512,-0.005707051400437664,-0.5191282251668419,0.0069383899279971345,0.8546491526612804,0.0926174827962021,-0.7674476884468233,0.7950278006627967,-0.057587078530469474,-0.8179186466542117,0.884727460953944,-0.014402116252641494,0.6285403566230023,1.0491354731341935,-0.03295053479467729,0.6638308534522448,0.9685407583284596,0.0,0.0,0.0,0.0
0.007426997466640406,-0.042992451935084594,0.7321505294712699,-0.005572670275090662,-0.5189122906513143,0.00675512662191205,0.8547826321476899,0.09395650331238173,-0.76513025828188,0.7904403649015393,-0.056178640556271815,-0.8191906416417537,0.8850451521027632,-0.013756939762214508,0.6275996231566228,1.0477212725944052,-0.032253438157874716,0.6619845517079549,0.9694101285197158,0.0,0.0,0.0,0.0
0.007235590120285023,-0.043252586271610924,0.7321515114715885,-0.005477584772557162,-0.5187628149785782,0.006610478756165867,0.854875101655894,0.09490898652473663,-0.7636420563418354,0.7874598062049405,-0.05518474007905897,-0.8201882836761568,0.8853963179685723,-0.013505416698743439,0.6269779118564045,1.0469023379516558,-0.0319645590714358,0.6606298307664694,0.9700670038941813,0.0,0.0,0.0,0.0
0.007109874718155825,-0.04342924857369498,0.7321449713754588,-0.005409442202333471,-0.5186575424317713,0.006496485590092246,0.8549402828786773,0.09559892064298602,-0.7626676327368191,0.7854928493100422,-0.05447009225490755,-0.8209654531554634,0.8857324877472759,-0.013453790125682196,0.6265671370993603,1.0464154554568503,-0.03188574628645698,0.6596343096096228,0.970550768523117,0.0,0.0,0.0,0.0
0.007024374741993124,-0.04355285592931207,0.7321369729578857,-0.005359398360732302,-0.5185831085484064,0.006405875480381987,0.8549864333057061,0.09611090702725245,-0.7619935414648342,0.7841394470686481,-0.05394225872920181,-0.8215601242566506,0.8860182596435286,-0.013498917906079702,0.6262975298680701,1.046113502273366,-0.031910590068427315,0.6588964598541216,0.9709057441636312,0.0,0.0,0.0,0.0
0.006971346974392683,-0.04363735860505434,0.7321276382713182,-0.005322335447167513,-0.5185333701570775,0.00633249057353637,0.8550173778012159,0.09649156047454306,-0.7615434854922654,0.7832538669215521,-0.053552490158227925,-0.8220244138230967,0.8862844465916635,-0.01362033861163712,0.6261466077335578,1.0459506636683553,-0.03201640795691912,0.6583596915105687,0.9711686388226599,0.0,0.0,0.0,0.0
0.006944693461782274,-0.04369235747754118,0.7321161104475251,-0.005294107564142686,-0.5185045075721516,0.0062707815054799144,0.8550355111641682,0.09677596864537537,-0.7612578594824362,0.782724021984505,-0.05326394425083796,-0.8223940816736064,0.886546147933154,-0.013815810433734555,0.6260971652469334,1.045906863234021,-0.0321993571267897,0.6579750626291748,0.9713736658542188,0.0,0.0,0.0,0.0
0.006938733253660122,-0.04372478823046232,0.732101968765498,-0.005271089397962638,-0.5184931939388638,0.006215580762790123,0.8550429170582116,0.09699204382983492,-0.761086176177762,0.7824559041963864,-0.05304713907960821,-0.8226942228778966,0.8868070238901696,-0.01409455108038631,0.626135844720132,1.0459673079033938,-0.03246701908993168,0.6576993232008352,0.9715425418551445,0.0,0.0,0.0,0.0
0.006947415867458804,-0.04374021081272616,0.7320858423053479,-0.005249718754267432,-0.5184960351256287,0.0061617518495949136,0.8550417152549622,0.09716417722403538,-0.7609780632626626,0.7823586220068528,-0.05287597820473308,-0.8229414246190735,0.8870603561612898,-0.014473894506443062,0.6262531389165734,1.046112769279704,-0.03283477967194103,0.6574930277476939,0.9716826168043781,0.0,0.0,0.0,0.0
0.006962385295850308,-0.043745209209793,0.7320703618019289,-0.005225791378432329,-0.5185087191276735,0.0061038180507230295,0.8550345856737329,0.09731931732414598,-0.7608645961246363,0.7823121953403815,-0.052720932238549977,-0.8231441849788994,0.8872850738387338,-0.014969507710544847,0.6264401381324989,1.0463040770724759,-0.03331600188531508,0.6573161190094756,0.9717866622272366,0.0,0.0,0.0,0.0
0.006969540066014275,-0.04375191488623814,0.7320618143298799,-0.005193360824135266,-0.5185246290052545,0.006035648614035191,0.8550256189519243,0.09749759132370636,-0.7606248531945241,0.7821095638761064,-0.05253708126598938,-0.8233029453520132,0.8874385595257648,-0.015572445607356374,0.6266813085310128,1.046454166162074,-0.03389951640426077,0.6571214108697222,0.971834637794961,0.0,0.0,0.0,0.0
0.00694315974851844,-0.04378674762144202,0.7320723078928834,-0.005142962275356231,-0.5185328690254877,0.005950373525406336,0.8550215241350002,0.09777177292106017,-0.7600262846653421,0.7813516953494791,-0.052242288593119954,-0.8234116627574155,0.8874465714946322,-0.01619894549456797,0.6269380083987924,1.046383372540655,-0.03450112679299168,0.6568427759552794,0.9718080487039902,0.0,0.0,0.0,0.0
0.006835668793479347,-0.043907280662292304,0.7321203966152133,-0.0050586767379415575,-0.5185160094108595,0.0058409120867829786,0.8550330060999358,0.09828342083244741,-0.7586190372472374,0.7792534828295361,-0.05167694085963907,-0.8234660312684619,0.8871885086586189,-0.016586623728361446,0.6271057633502725,1.0457654410745547,-0.034864465217382276,0.6563642863704534,0.9717532337251187,0.0,0.0,0.0,0.0
0.006558484886792566,-0.04423421561113277,0.7322207800808687,-0.004913069952235432,-0.5184492952306373,0.005701506190151043,0.8550752498146953,0.09931010900467646,-0.7555498891272339,0.774268550496342,-0.05052952595917446,-0.8234924151035373,0.8864640098181487,-0.016096141483794523,0.6268912553796712,1.044130579168421,-0.03437234882722886,0.655415857133891,0.9720138863614154,0.0,0.0,0.0,0.0
0.0059408184720874235,-0.04500954704446555,0.73232504453278,-0.004655027729685668,-0.5183047491675576,0.00551989596470492,0.8551655093931991,0.10141345695865041,-0.7492380995652466,0.7633103171339204,-0.048176768419567584,-0.823678527205496,0.8849002908364236,-0.01345986444505772,0.6254388579221959,1.0412494866303328,-0.0318027289921322,0.6531461516291891,0.9740282443696842,0.0,0.0,0.0,0.0
0.004833202965028214,-0.04649055469709098,0.732665110451535,-0.00419328617958011,-0.518288384646051,0.005170702046658766,0.8551799989080356,0.10539159212204495,-0.7354094640401282,0.7410182943238333,-0.04361888460407106,-0.8223423593435748,0.8808569728557191,-0.008356647435123916,0.6242682205957207,1.0348947616940798,-0.026827644238721086,0.6504071515274551,0.9769940701207355,0.0,0.0,0.0,0.0
0.0038820673777639064,-0.04763813537253911,0.7330123501474283,-0.0034703527525131173,-0.5189717140284089,0.004756638923669547,0.8547711337406864,0.09796261589786935,-0.7647658245086058,0.7842360225598177,-0.039856260330777556,-0.8171804160968211,0.8733421957007907,-0.007737291383203552,0.6263308585654799,1.0308383714668385,-0.02627222936027063,0.6492992617745067,0.9797435549598408,0.0,0.0,0.0,0.0
0.002759501373526199,-0.04904474304117945,0.7333346559911064,-0.002712864661313036,-0.5195954808464832,0.00425603568578515,0.8543974852546574,0.09191673305576563,-0.7895849317851801,0.8080348734436934,-0.035249615203171644,-0.8123008107312649,0.8654942636802242,-0.006105767978469491,0.6277376090698328,1.0262516309403122,-0.024711854080320696,0.6472566402896882,0.9835872957689874,0.0,0.0,0.0,0.0
0.0016155813788063123,-0.05055734703776462,0.733648427295153,-0.001980510584210421,-0.5200883617307953,0.003758524451557526,0.8541018950125039,0.08816413986128642,-0.8099339128912769,0.8190934756240902,-0.030414211987126388,-0.8081861372606197,0.8583565151546948,-0.00359287728108266,0.6286345932701242,1.0210774401685025,-0.02224272894163828,0.6448945005585581,0.9875948442445421,0.0,0.0,0.0,0.0
0.0005513343559473138,-0.05202707819141996,0.733965278651655,-0.0013011338292711824,-0.520484950737582,0.003289479964819927,0.8538635151053218,0.08624621879528482,-0.8268172503908129,0.82313187436885,-0.02577278021528598,-0.8046766478861703,0.8520982624567323,-0.000897754759783508,0.6294640136948397,1.0156391553713107,-0.01954611487981524,0.6427057509023848,0.9911199865735474,0.0,0.0,0.0,0.0
-0.00039347346338526883,-0.05337752035990694,0.7342635469384711,-0.0006879492612506971,-0.5208150505710593,0.0028571814771280665,0.8536644811273839,0.08544230148207911,-0.8412043111345702,0.8233468476889696,-0.0215236147510807,-0.8016838906958337,0.846705032817431,0.0015984996817928862,0.6303135544632791,1.0104094105782357,-0.017011186582640572,0.6407791943743767,0.9941374426329308,0.0,0.0,0.0,0.0
-0.0012076436849207221,-0.05457907873236233,0.7345293477784945,-0.0001446457094763355,-0.5211002970868216,0.0024627016920098044,0.8534918831213459,0.08513653819292358,-0.8539266397221662,0.8214517212897379,-0.017732582634193597,-0.7991402453522182,0.842119216270845,0.0037420427066122805,0.6311941400869492,1.005666970818391,-0.014808788356283627,0.639122323707705,0.9967252165929364,0.0,0.0,0.0,0.0
-0.0018945695144493408,-0.05562999381164099,0.7347589000706476,0.00033134665182616726,-0.5213558996791304,0.002103631184248821,0.8533366808095159,0.08492673874849341,-0.8656350460917128,0.8183542622103368,-0.01439126566872179,-0.7969854644173985,0.8382702020255914,0.005507069125187224,0.6321071709059777,1.0015120054031537,-0.01297980895895451,0.6377275509439304,0.9989613015280213,0.0,0.0,0.0,0.0
-0.002465182757554659,-0.056543069062146914,0.7349544535529903,0.0007460756691880837,-0.5215922937189454,0.0017763049694510258,0.8531926905715734,0.08460428169793656,-0.876799257528236,0.8145364998872114,-0.01145539324998759,-0.7951628993582179,0.8350794693225401,0.006931043724346456,0.6330542758806175,0.9979347333248914,-0.011496456591104718,0.6365819575716151,1.0009103891226545,0.0,0.0,0.0,0.0
-0.002933643662323223,-0.057336758325050266,0.7351207819407864,0.0011069239144469731,-0.5218162872418427,0.0014769180801745487,0.8530558925425524,0.08409199731846548,-0.8877385246255102,0.8102543757114776,-0.008868820922665485,-0.7936201024154351,0.832464715282979,0.00807434348626938,0.6340359881243305,0.994872694472214,-0.010303027895345658,0.6356678856865176,1.0026242191227759,0.0,0.0,0.0,0.0
-0.0033144287218579422,-0.0580295364928756,0.7352630705465832,0.001421113079584241,-0.5220318686593038,0.0012019708800568522,0.8529239496037696,0.0833831413521248,-0.8986615404208056,0.8056388473303531,-0.006577513291284304,-0.7923114087480669,0.8303464422710717,0.008996236255887007,0.6350503958583903,0.9922484728016518,-0.009341631865737917,0.6349638939508858,1.004141882588136,0.0,0.0,0.0,0.0
-0.003620488377006629,-0.05863669880926028,0.7353858097798461,0.0016947692803527647,-0.5222407025799345,0.000948387380295655,0.8527959174898058,0.08249549217386809,-0.9096949661419916,0.800749192370361,-0.004536848862602588,-0.7912011299264112,0.8286549707524828,0.009741977914757933,0.6360924888481885,0.9899915937616165,-0.00856673879074138,0.6344459939702154,1.0054896794707155,0.0,0.0,0.0,0.0
-0.003862518148735162,-0.05916903692656575,0.7354922747646371,0.0019324612436262107,-0.5224422443684609,0.0007135110064803597,0.8526721865962504,0.08144044922433978,-0.9208833514158935,0.7956101711408362,-0.002714250719723008,-0.7902663850580447,0.8273349632561584,0.01033818711181923,0.6371525224828629,0.9880488793070763,-0.007950877602677254,0.6340872961689037,1.0066819910343734,0.0,0.0,0.0,0.0
-0.004049526402570923,-0.05963321949983389,0.7355843467503086,0.002137185256413831,-0.5226334562288032,0.0004950981067097514,0.8525546655478347,0.08020391760710494,-0.9321470059824791,0.7902555491131602,-0.001087919997359243,-0.7894985075468411,0.8263447281689358,0.01079594609331318,0.6382117791807373,0.9863856128064195,-0.007481889596007101,0.633854610332523,1.007724790942279,0.0,0.0,0.0,0.0
-0.0041908486682187265,-0.06003402818003051,0.7356625824625449,0.002310848427703484,-0.5228083335231025,0.00029140339804529884,0.8524470783939612,0.07873937346822613,-0.9431924884216095,0.7847967661051674,0.00035840745789709767,-0.7889013968285286,0.8256479861818489,0.01112289568232939,0.6392352462657505,0.9849781813647024,-0.007150458193141727,0.6337019181976575,1.0086237275882628,0.0,0.0,0.0,0.0
-0.004299376055480759,-0.060378565833778375,0.7357265290684625,0.0024553180575375626,-0.5229578880283936,0.00010143714580324502,0.8523549779713989,0.07697920208863572,-0.9533919311816295,0.7795301503079882,0.0016447023757782987,-0.7884843511314987,0.825197080405238,0.011345432189411435,0.6401632886598925,0.9837989537756683,-0.0069269544568838866,0.6335632684358784,1.009398432109838,0.0,0.0,0.0,0.0
-0.004394670169390626,-0.06068159317378123,0.7357753632194685,0.002573917645173056,-0.5230718646133015,-7.461824847000638e-05,0.8522846905993542,0.07487057257373465,-0.9616943479945411,0.7750761254867741,0.0028058668318677715,-0.7882464844451859,0.8249105748450322,0.011536718020094388,0.6409096754109642,0.982797464485022,-0.006732480634937911,0.6333524769139616,1.0101011246463,0.0,0.0,0.0,0.0
-0.004502485765940279,-0.060968404448855006,0.7358091253155572,0.002672623370175652,-0.5231439622410267,-0.00023511498738267657,0.8522401050032925,0.0724227022020578,-0.9667136000138905,0.7724850375593929,0.003897211564142268,-0.7881511366027945,0.8246568092798187,0.01183065100270986,0.6413822832097579,0.9818895432520418,-0.006425359888620204,0.6329844293213046,1.0108256712234922,0.0,0.0,0.0,0.0
