zhuoxili-jackie/tripod-support-walk/examples/trajectory_tripod_lowstep_v0.10.csv
root_pos_x,root_pos_y,root_pos_z,root_rot_x,root_rot_y,root_rot_z,root_rot_w,FL_hip_joint,FL_thigh_joint,FL_calf_joint,FR_hip_joint,FR_thigh_joint,FR_calf_joint,RL_hip_joint,RL_thigh_joint,RL_calf_joint,RR_hip_joint,RR_thigh_joint,RR_calf_joint,FL_foot_joint,FR_foot_joint,RL_foot_joint,RR_foot_joint
0.0,0.0,0.72963,0.0,-0.5231245161092812,0.0,0.852256264656019,0.0,-0.81,0.872,0.0,-0.81,0.872,0.0,0.65,1.0,0.0,0.65,1.0,0.0,0.0,0.0,0.0
1.735567782105021e-05,-1.7078718826565835e-05,0.7296285864768808,-1.3952537557421816e-06,-0.523124241279641,3.08500038989207e-06,0.852256433342768,3.576878846918579e-05,-0.8100647808715641,0.8721223387130062,3.5768788469185444e-05,-0.8101335584142165,0.8722419279392523,0.0001441963857325817,0.6500261151696762,0.9999346909978629,0.00014419638573258192,0.6500612952759274,1.000059338904067,0.0,0.0,0.0,0.0
4.5894537763900255e-05,-4.356759672673783e-05,0.7296243004759154,5.985645148863623e-07,-0.5231285205383747,2.915821138409907e-06,0.8522538066740863,0.00010209589507750234,-0.8101382515188286,0.8722926936072026,0.00010209844238126114,-0.8103409678015989,0.8726200757495063,0.0003104044452707008,0.6500920005866311,0.9998666007008636,0.0003104775621255459,0.6501450796802456,1.0001728132733438,0.0,0.0,0.0,0.0
8.252028836407832e-05,-7.862430313187061e-05,0.7296172776542477,4.809179647944938e-06,-0.5231357111866419,7.140354292315759e-07,0.8522493928760573,0.00019427444336498744,-0.810218960578249,0.872494861376881,0.00019428735574580303,-0.8106094814781835,0.8731057334775738,0.0005080636573539743,0.6501804983939524,0.9997952109833182,0.0005083111867861209,0.6502429761207397,1.0003370454289495,0.0,0.0,0.0,0.0
0.00012442634317958926,-0.0001246020047751845,0.7296084218313318,1.0690674312215663e-05,-0.523143729959752,-2.710928517108058e-06,0.8522444706081456,0.00031641869063726597,-0.810298015351532,0.8727036202110918,0.0003164573736884938,-0.810937407540671,0.8736881941657272,0.0007617409629060574,0.650278322882584,0.9997013625622669,0.0007623349134679534,0.6503495647318706,1.0005509622187914,0.0,0.0,0.0,0.0
0.00016645987105199267,-0.0001855236767313987,0.7295994972239278,1.746568224117817e-05,-0.5231492876326588,-6.317916322961942e-06,0.852241058917297,0.000476395204218387,-0.8103552637571587,0.872869791886454,0.0004764875768750635,-0.8113184041144034,0.874344266416918,0.0011102087819794097,0.6503645660400375,0.9995515889608695,0.0011114886976078954,0.6504551759546494,1.0008112774010975,0.0,0.0,0.0,0.0
0.00019789243071620017,-0.00026510860941508855,0.7295946093260659,2.369478082952309e-05,-0.5231482999104207,-9.7003344809613e-06,0.8522416650488859,0.0006834712599937384,-0.8103390405353301,0.8728900326737203,0.0006836647771795558,-0.8117128793536106,0.8749932341655086,0.0015901103511917576,0.6504118494143933,0.99929592026529,0.0015927355773491091,0.6505420868937196,1.0010951614989478,0.0,0.0,0.0,0.0
0.00020009028818948073,-0.00035762900640085363,0.7296169165862714,4.546664662076143e-05,-0.5231939574023506,-7.365373750394606e-05,0.8522136325156846,0.0010791764248238845,-0.8096551463309747,0.8721694895067419,0.0010796013906450726,-0.8117229678994311,0.8751553404414526,0.0016758565367690531,0.6507934019065801,0.998933924663097,0.0016789975246821597,0.6506295864990629,1.0012340646748767,0.0,0.0,0.0,0.0
0.0003019957732528164,-0.00048371732306730147,0.7296031254960199,4.96602969018993e-05,-0.5231583332746219,-7.707095416976596e-05,0.8522355014426719,0.0014057715854554676,-0.8101458050289118,0.872956760223389,-0.003516833136543426,-0.8115428605869673,0.8722416065014434,0.002484002634906751,0.6508908101710694,0.9984636157035667,0.002490178271990177,0.6508163063073777,1.0016252245167145,0.0,0.0,0.0,0.0
0.0004653156827522767,-0.0006710364045295243,0.7295781736917966,7.315544677249884e-05,-0.5231439699007286,-0.000128673961673472,0.8522443105399987,0.0020075323090672998,-0.8106233890410334,0.8739569771266028,-0.009336372879501604,-0.8122999180379398,0.869744725802377,0.0032817656302561956,0.6512911208703688,0.9979240452508007,0.0032928295030256157,0.6510693251253163,1.002264547526521,0.0,0.0,0.0,0.0
0.0006510651789031429,-0.0009053186895680312,0.7295504105093814,0.00010807041747318416,-0.5231418584043749,-0.00020162951712022066,0.8522455888131892,0.0027799974648099373,-0.8109910199608941,0.8748991456863695,-0.01505594095023003,-0.813581750457711,0.8676144907287645,0.00419296243203686,0.6518245803487609,0.9972747203831004,0.004211282908273984,0.6513625872547825,1.003070258791119,0.0,0.0,0.0,0.0
0.0008418259241016218,-0.0011684474767621352,0.7295223344280699,0.00014799237505362417,-0.5231440478263826,-0.0002802119979316993,0.852244216644103,0.003638301679687969,-0.8112715431829066,0.8757401686093547,-0.020285920499656204,-0.815083411347436,0.865719119915745,0.00523466491682663,0.65239114865012,0.9965367202774262,0.0052635253248747155,0.6516762872045971,1.0039727391581021,0.0,0.0,0.0,0.0
0.0010325148568843692,-0.0014471314107257875,0.7294941060626138,0.00018945590689272253,-0.5231476444933303,-0.00035770065088883097,0.8522419716358633,0.004532535091977842,-0.8115019291434716,0.8765068466537204,-0.025045241449279772,-0.8166484290354359,0.86397005625384,0.006380943578377115,0.6529534307422209,0.9957453882540701,0.00642431578409592,0.6520043136943879,1.004930583342613,0.0,0.0,0.0,0.0
0.0012239639809314908,-0.001734365709774186,0.7294650856861772,0.00023109273075707504,-0.5231520514033272,-0.00043239575036415316,0.8522392215467176,0.005441151085099514,-0.8117138570719642,0.8772426730041394,-0.029478258842233183,-0.8182194310398915,0.862306962546524,0.007603594996804437,0.6535062124133183,0.9949267619401414,0.007665875168116349,0.6523475367648646,1.0059254587595858,0.0,0.0,0.0,0.0
0.001419630256291149,-0.0020283517118076574,0.7294343874526735,0.0002728686092279663,-0.5231573397524643,-0.0005049276192095183,0.8522359230013401,0.006361373755605409,-0.8119316163912286,0.8779901972539063,-0.033724101735385516,-0.8197860254050967,0.8606882649381425,0.008886788739521291,0.654057920621121,0.9940927116680223,0.008972711006973423,0.6527100060281723,1.006955513532967,0.0,0.0,0.0,0.0
0.0016241594174994847,-0.0023308948694054747,0.7294009107619148,0.00031556699477257007,-0.5231634831463778,-0.0005767910661717165,0.8522320914115399,0.007301466668388637,-0.8121756013733463,0.8787887790532536,-0.037873156149351356,-0.8213414304813276,0.8590894170668011,0.010228764243751555,0.6546209082192445,0.993244169605596,0.0103435377378536,0.6530966385861601,1.0080307061866183,0.0,0.0,0.0,0.0
0.001842797684745694,-0.0026460085980029736,0.7293631880463511,0.00036046389867836094,-0.5231700198524907,-0.000649676385351797,0.8522280084073255,0.008275583607141847,-0.8124664565449762,0.8796770776006845,-0.04196432962972499,-0.8228450779273161,0.8575079358682459,0.011638623587076563,0.6552066248973364,0.9923763636557618,0.011788239736552537,0.6535114275431478,1.0091698659960684,0.0,0.0,0.0,0.0
0.0020810813256708686,-0.002978778597497118,0.7293192702161528,0.0004091037374355274,-0.5231759719898166,-0.0007252286234972828,0.8522242715448124,0.009300390948576225,-0.8128276577980846,0.8806953287016877,-0.04599701058901648,-0.8241877923046448,0.8559758788728239,0.013131536940389335,0.6558235414342757,0.9914835896123703,0.013323157005596978,0.6539561989058373,1.010398175919793,0.0,0.0,0.0,0.0
0.002344678831261241,-0.0033343851182121922,0.7292668299192296,0.00046313411465495456,-0.523180091593043,-0.0008050401993106543,0.8522216432230317,0.010392688239972655,-0.8132854431927121,0.881886068983814,-0.04994650216408077,-0.8251654908495918,0.8545778050539294,0.014723204918825988,0.6564780123336629,0.9905622631924162,0.014965520868593698,0.6544311109178338,1.0117435383978342,0.0,0.0,0.0,0.0
0.002639699874795341,-0.003717526485502235,0.7292036582669248,0.0005243041577903481,-0.5231816741696631,-0.0008909033164161855,0.8522205508021145,0.011568638177023433,-0.8138649378951193,0.883293702806703,-0.05377871741465078,-0.825487104020849,0.8534620272247869,0.016424490165699315,0.6571805934972059,0.9896100123822134,0.01672795793890086,0.6549392531556957,1.013231199404361,0.0,0.0,0.0,0.0
0.002974075577400308,-0.004133421791211006,0.729128452869489,0.0005949830585361809,-0.5231819341116433,-0.0009855621404733965,0.8522202405960724,0.012848024208553764,-0.8145821681068524,0.8849638095608261,-0.05745901489909919,-0.8248718303649962,0.8528067326393968,0.01824059599494039,0.6579597002435259,0.9886172472765743,0.0186176032316897,0.6554962628163005,1.0148805865981083,0.0,0.0,0.0,0.0
0.003359436972412945,-0.004592801206316233,0.7290391962825792,0.0006789047696845924,-0.5231803858054002,-0.001092861084425795,0.852220997541997,0.014267052302644464,-0.8154668571210266,0.8869643242485713,-0.06095623433115349,-0.8233156192525086,0.8526053245136268,0.020199297572393277,0.6588492666689441,0.9875551686181588,0.020665446289049295,0.6561201915314612,1.016727048875729,0.0,0.0,0.0,0.0
0.00381073563219615,-0.005112358236948379,0.728933440317979,0.0007814488924022429,-0.523174538538471,-0.0012181598186050946,0.8522243294164646,0.015880621356695015,-0.8165583284831731,0.8893792017844261,-0.06424876751971907,-0.8210868277450237,0.8526607637738872,0.022349661747360968,0.6598896785489146,0.9863711883192933,0.02292575623621217,0.6568303322220812,1.018819455599438,0.0,0.0,0.0,0.0
0.004343265123470741,-0.005710159166605121,0.7288105702594517,0.0009093043508005669,-0.5231629281754684,-0.0013688945375973144,0.8522311012138739,0.017752369458958955,-0.8178745677596968,0.8922740705974783,-0.06733498259321126,-0.8184501682078921,0.852783907767928,0.024729675397338006,0.6611409641141244,0.9849934013408495,0.025442956017365414,0.6576541255094462,1.0211923021046625,0.0,0.0,0.0,0.0
0.004969625227225532,-0.006403904397817837,0.7286719066610943,0.0010700878201296042,-0.5231432621952424,-0.001554286847105475,0.852242668683148,0.01994976250662952,-0.8194117714489516,0.895683042578992,-0.07024887313654501,-0.815559412910704,0.852806258592278,0.027357965425159197,0.6626693381010117,0.9833341224714565,0.028242864512250405,0.6586137199259309,1.023858287022452,0.0,0.0,0.0,0.0
0.005696952973467263,-0.007208706024296848,0.7285214132002213,0.0012720240319602557,-0.5231113275313732,-0.0017850732590902274,0.8522615411226099,0.02253788093858549,-0.8211401379593908,0.8995952658495425,-0.07308625995283198,-0.8124365726260161,0.8525391147277521,0.030221120080063387,0.6645399367970476,0.9812912823820084,0.03131885839353335,0.6597170429634078,1.0267956277817658,0.0,0.0,0.0,0.0
0.006523249401857828,-0.008131503285954094,0.7283668698470208,0.00152296360209715,-0.5230608762081673,-0.0020724612181655085,0.8522914438539848,0.025562704115568845,-0.8229989559527287,0.9039423354431687,-0.07604434008690061,-0.8089779118424869,0.8517106299596747,0.03324636649623532,0.666810240735311,0.9787602682812429,0.03460143392717466,0.6609504133920633,1.029924845374532,0.0,0.0,0.0,0.0
0.007431181900382949,-0.009159165864240405,0.7282196063765384,0.0018281081098215526,-0.5229847600979737,-0.0024253094410185416,0.8523366216467054,0.02901376031307267,-0.8248982187105303,0.9085868058746107,-0.07945733930644137,-0.8049551220596589,0.8498820497453553,0.03624968768383869,0.669508160197174,0.9756864443815693,0.037899134727757196,0.6622600146187477,1.0330865880382565,0.0,0.0,0.0,0.0
0.008375554159784518,-0.010236207707370762,0.7280837767973328,0.0021858255523789596,-0.5228782687852048,-0.0028441025194210316,0.852399817737956,0.032752002854721365,-0.8267461143957047,0.913302939559961,-0.08378559519121875,-0.8000026672633702,0.8463142955272893,0.03884563806144602,0.6725374913622829,0.9722630679511974,0.04079403716506672,0.6634721380480172,1.0360959667284564,0.0,0.0,0.0,0.0
0.00924953564514759,-0.011224960122710417,0.7278913855150634,0.0025785148690300676,-0.5227379770585503,-0.003303835337113191,0.8524831043920283,0.036366994979721096,-0.8286437228482488,0.917747203022196,-0.08952027490008031,-0.7936327395966992,0.8396263170279382,0.040343120241688867,0.6752082524914567,0.9697049790950847,0.04251757543051779,0.663907554040027,1.0392496608453559,0.0,0.0,0.0,0.0
0.009925456772835364,-0.011969348663012322,0.7276233475858728,0.0029915680755619634,-0.5225479842515394,-0.003769790383112021,0.8525962956496876,0.03936657633523898,-0.8305955359864673,0.9214977524163757,-0.09659683177639734,-0.7851185462711502,0.8274892133593563,0.039942689623405955,0.6769551384692283,0.9688628378083092,0.042165727257519006,0.662995930069656,1.0423734867737906,0.0,0.0,0.0,0.0
0.01026276642263074,-0.01232197014812026,0.7273841908561473,0.0034122143831383663,-0.5222969322026177,-0.004178071625655554,0.8527466300855304,0.04118556028997109,-0.8321780862098056,0.9238485043833559,-0.10343684419193439,-0.7737577451551994,0.8072078790121926,0.03705246109241701,0.6777154511559907,0.9694141211405433,0.03907618115557967,0.6607709707113298,1.0442901557212592,0.0,0.0,0.0,0.0
0.010279821478246399,-0.012345705547609777,0.7273780414085449,0.0034396568378308855,-0.5222893295545673,-0.004178556872153076,0.8527511739404084,0.041238724595850575,-0.8321874801437024,0.9238756649220986,-0.10344199971766918,-0.7737372800988175,0.8072072345561374,0.037037197915599236,0.6777531401538609,0.96934816670707,0.03908230709874253,0.6607596538157652,1.044370194661819,0.0,0.0,0.0,0.0
0.010279821478246399,-0.012345705547609777,0.7273780414085449,0.0034396568378308855,-0.5222893295545673,-0.004178556872153076,0.8527511739404084,0.041238724595850575,-0.8321874801437024,0.9238756649220986,-0.10344199971766918,-0.7737372800988175,0.8072072345561374,0.037037197915599236,0.6777531401538609,0.96934816670707,0.03908230709874253,0.6607596538157652,1.044370194661819,0.0,0.0,0.0,0.0
0.01030232777104217,-0.012665764677925365,0.7280927950338104,0.0028852788905599,-0.5222271147930693,-0.0035687695810307516,0.8527941015416954,0.04071658944081328,-0.8315052739902999,0.9237682729808517,-0.10387516164282054,-0.7708401928719071,0.8065138664913428,0.025864215622716964,0.6719086192310737,0.9857165796610566,0.04946820803129483,0.6667269560616346,1.0396007679073134,0.0,0.0,0.0,0.0
0.010387371396862615,-0.013160820686992546,0.7289397049775481,0.002518725041372523,-0.5221779845616226,-0.003149720271623469,0.8528269975355719,0.041037453396485166,-0.8295708452316015,0.9227950506533971,-0.10347531102011982,-0.7690545345294094,0.807728076924762,0.015605034410339579,0.6683023071425095,0.9979108856989328,0.0586084038270411,0.6728579356384519,1.033893213544507,0.0,0.0,0.0,0.0
0.010515631821446,-0.01378367520577064,0.7297443873395986,0.0023130601380985266,-0.5221412163488444,-0.0029141248670174814,0.8528509294236634,0.04208684710803076,-0.8270119913424082,0.9212348903075382,-0.10238061929575268,-0.768599813581324,0.8105836699279529,0.007947646222319582,0.6659014280878792,1.0071105413816461,0.06636381181835005,0.6783316594934057,1.0286763494347,0.0,0.0,0.0,0.0
0.010664661164944796,-0.014469874846589173,0.7304788583362939,0.002205675614637653,-0.5221107742682294,-0.0027820173867686288,0.8528702918775942,0.04351966505628384,-0.8242352768840112,0.9193815008493671,-0.10092688588682709,-0.7689958248413316,0.8143446634435768,0.0022349365528750234,0.6642364492401988,1.0145045476564871,0.07322718184299146,0.6831963924655515,1.0241165008948347,0.0,0.0,0.0,0.0
0.010822578238877204,-0.015176358823110126,0.7311445726181066,0.0021541880920274356,-0.5220803715266701,-0.0027088098197906563,0.8528892703567084,0.04513023718669186,-0.8214652319408443,0.9174423236359621,-0.09931104292161708,-0.769907186798274,0.8185500179417939,-0.002406898800447769,0.6630589178030732,1.020880472066124,0.07946906970893859,0.6875528745303274,1.0201310091711957,0.0,0.0,0.0,0.0
0.01096935541435299,-0.01586545922639832,0.7317471273269803,0.0021296501658471956,-0.5220468135921321,-0.0026648710798855943,0.8529100113555945,0.046758900379807726,-0.8187973955269519,0.9154689153726355,-0.09768176571638623,-0.7709994827304534,0.8227122638421283,-0.006564243101061475,0.6621579812174506,1.0266727085313703,0.0851988215495453,0.6914447701794012,1.0166099030003262,0.0,0.0,0.0,0.0
0.01107555588147679,-0.016500136412406476,0.7322917799641412,0.0021111801447840687,-0.5220102445281953,-0.0026285264476921823,0.8529325520665298,0.04826350333663391,-0.8162369838433101,0.913383311413476,-0.09616782640472658,-0.7719081272547793,0.8262680239705672,-0.010591117881211488,0.6613429038107989,1.0320901110282754,0.09041103414837949,0.6948582673614679,1.0134537614046049,0.0,0.0,0.0,0.0
0.011146635704496378,-0.0170769173321189,0.7327814528779577,0.002092705351393452,-0.5219702886890722,-0.0025934114982597424,0.8529571574979364,0.04962295246042971,-0.8138370653587,0.9112737418913497,-0.09479226626077777,-0.7726314858021992,0.8292504433641912,-0.014617198205858056,0.6605729575560829,1.0372535805232683,0.09516159243368187,0.6978440584609273,1.0106320530345108,0.0,0.0,0.0,0.0
0.011191218484041998,-0.01760124808092976,0.7332171486101001,0.002072384227250061,-0.5219285075938758,-0.0025575030004389614,0.8529828822214705,0.050848065396532305,-0.8116231663297794,0.9092018061351159,-0.0935474538752209,-0.7732196853058921,0.8317702199590207,-0.018707696641152897,0.6598555280330182,1.0421883949241901,0.09952267463844913,0.7004508615503914,1.0081536155739887,0.0,0.0,0.0,0.0
0.011213047305840981,-0.018080959200088398,0.7335957040734296,0.002049348090645869,-0.5218858306849495,-0.0025198570738368007,0.853009161863465,0.05195777343451783,-0.809603107940011,0.9071776154869541,-0.09241686599619363,-0.7737221880450781,0.8339081408236589,-0.022918008670855385,0.6592287603841647,1.0467843506501173,0.10357157958306112,0.7026888994365589,1.0060747620191657,0.0,0.0,0.0,0.0
0.011208526581177722,-0.0185251608820294,0.7339087915820321,0.00202238197888643,-0.5218414721699518,-0.0024793088420108334,0.8530364827616078,0.05297357698281194,-0.8077716514226445,0.9051517602531316,-0.09138029802740795,-0.774177421922555,0.8356899721040016,-0.027332316785096865,0.6587801112534616,1.0507402461021944,0.10739673747215338,0.7045177886416313,1.0045075733611473,0.0,0.0,0.0,0.0
0.011166480291957938,-0.018944977210662507,0.7341445809772568,0.0019891878717300483,-0.5217920136802708,-0.0024337650496617878,0.8530669460123174,0.05391993892225287,-0.8061097888967339,0.9030145147594727,-0.09041348241738778,-0.7746121536977629,0.8370895304549727,-0.03209557956500742,0.658702020544812,1.0534670920387177,0.11111037587751911,0.705853662923263,1.0036062507529484,0.0,0.0,0.0,0.0
0.01107332101255614,-0.01935439438307576,0.7342958498338805,0.0019472935673454715,-0.5217314837335261,-0.0023815542011116422,0.8531042111773702,0.054829383234301275,-0.8045777886155794,0.900626466384278,-0.08948337117331566,-0.7750495601909144,0.8380771724174719,-0.03740351095750543,0.6593894962210798,1.053994196678975,0.1148373391733461,0.7066190641362513,1.0034876531164494,0.0,0.0,0.0,0.0
0.010925370909810356,-0.019769096317838724,0.7343732579649754,0.001897682901860474,-0.5216566541078456,-0.0023231997825255237,0.8531502427869208,0.055741469754551236,-0.8030968075192103,0.8978846934248584,-0.08854919992994105,-0.7755065869039802,0.8386980460910899,-0.04323237419249559,0.660835348303625,1.0523013126004286,0.11867633092437344,0.7068501013434959,1.0040990650630925,0.0,0.0,0.0,0.0
0.010731742037630491,-0.02020923915144192,0.7344057303268718,0.0018456337080133786,-0.5215654780083765,-0.0022629614766739954,0.8532062615753969,0.05671390915994396,-0.8015597037730723,0.894744000242052,-0.08755282378740477,-0.7760292799955104,0.8391264702585566,-0.0493605326466499,0.6626439347517556,1.049332903295054,0.12270474414010504,0.7067000077821444,1.0052151527279418,0.0,0.0,0.0,0.0
0.01049957153736317,-0.020698403178941737,0.7344279164126081,0.0017950786894936818,-0.5214517816610054,-0.002204077315587548,0.8532760157992539,0.05781093987063345,-0.7998490134517825,0.891141458997251,-0.08642916900553078,-0.7766642565897472,0.8395425838964826,-0.05565661656898421,0.6646318038910308,1.0456774119798435,0.1270332679493737,0.7063359803035116,1.0065619186020014,0.0,0.0,0.0,0.0
0.010220571815463925,-0.021254587575271627,0.7344730497680868,0.0017443852814028815,-0.521305379201024,-0.002143119023200529,0.8533657280304376,0.059067106016558346,-0.7978323056868941,0.886926133062684,-0.08513886488461431,-0.7773653886252319,0.8399462641193556,-0.062140768571729794,0.666699301169155,1.041670347506104,0.13179720609068798,0.70587462839727,1.007875917653761,0.0,0.0,0.0,0.0
0.009884501295746119,-0.021899616246387525,0.7345701697020366,0.0016886615106982289,-0.5211101617929521,-0.002073610247094647,0.8534852358646685,0.06052122528296158,-0.795413815135892,0.8819564586188923,-0.08364010093129962,-0.778124196953138,0.8403656112998394,-0.0690529691601614,0.6688130140963947,1.0375442113511375,0.13719253080161672,0.7054015039351714,1.0089353748270453,0.0,0.0,0.0,0.0
0.009479449177533504,-0.022654383051090746,0.734743011890608,0.0016163976823207,-0.5208437105459754,-0.001982149480856167,0.8536482223531355,0.062196442290109295,-0.7925663872141782,0.8761366598570299,-0.08190875841655468,-0.7789497791993459,0.8408290265848511,-0.07702077439123751,0.6709840373918566,1.0335324466264502,0.14348736975567075,0.7049763204407046,1.0095561709407397,0.0,0.0,0.0,0.0
0.008994161072837958,-0.02353204473647197,0.7350056075850716,0.0015039909386365927,-0.520474938601967,-0.0018426294971744962,0.8538736329311681,0.06407255181049987,-0.7894096126981449,0.8695067130229539,-0.07996832326901375,-0.7798691241114661,0.8413596159273824,-0.0873857771995402,0.6732993093229014,1.029960585694856,0.1510442976160916,0.7046292470406408,1.0096066405655724,0.0,0.0,0.0,0.0
0.008424833018066529,-0.024527319225985087,0.7353512415830415,0.0013085521947166698,-0.5199614771483237,-0.0016083529052163515,0.8541871944567063,0.06604585587872093,-0.7863542549298742,0.8624175872935731,-0.07793528558413147,-0.7809569427140801,0.8420050383193212,-0.10270200149500455,0.676024432441369,1.0273528373332874,0.16034362803247534,0.7043441352951644,1.0090679293922962,0.0,0.0,0.0,0.0
0.007792529888868173,-0.025599879714452694,0.7357241528758635,0.0009660507739396422,-0.5192474838494995,-0.0012086466832526685,0.8546225227754422,0.06788616587298174,-0.784360345515665,0.855861934446907,-0.0760739569988411,-0.7824767574246058,0.8429925844912981,-0.12703540029045401,0.6797511870744573,1.0265094868332059,0.17190761107668012,0.7039726170629602,1.0082231377524424,0.0,0.0,0.0,0.0
0.007118823992355454,-0.02661036845968206,0.735948612053138,0.00041730107777027483,-0.5182887116306848,-0.0005669022686895768,0.8552054232041756,0.06910545731313696,-0.7850083399304782,0.85143969238938,-0.07492379716175304,-0.784725056813877,0.844221218703877,-0.16389230887365921,0.6849230681286097,1.0283496279508144,0.18553652530432124,0.7027672891236474,1.0081918935291017,0.0,0.0,0.0,0.0
0.006472837129130092,-0.027283807945731424,0.7355156525045919,-0.00013214064318774782,-0.5171783819495884,0.00011434690087809866,0.8558776143279144,0.06945033481290695,-0.7898325676612161,0.8507783539066351,-0.07481346519265997,-0.7890714982222152,0.8460147848942621,-0.2027847866696197,0.6884108341448629,1.0339245405800932,0.1965800580337654,0.6978761221490316,1.0128200431106955,0.0,0.0,0.0,0.0
0.006475064717452429,-0.02729454268660914,0.7355105734036782,-0.00014534730108859952,-0.51717901676962,0.00012696568493178212,0.8558772268071432,0.06944719392697028,-0.7898461425864882,0.8507519549370584,-0.07481575092839557,-0.7890716471864786,0.8460311918767323,-0.20279673712034696,0.6884109308905412,1.033924287012756,0.19659819574493018,0.6978484667622169,1.0127920301736029,0.0,0.0,0.0,0.0
0.006475064717452429,-0.02729454268660914,0.7355105734036782,-0.00014534730108859952,-0.51717901676962,0.00012696568493178212,0.8558772268071432,0.06944719392697028,-0.7898461425864882,0.8507519549370584,-0.07481575092839557,-0.7890716471864786,0.8460311918767323,-0.20279673712034696,0.6884109308905412,1.033924287012756,0.19659819574493018,0.6978484667622169,1.0127920301736029,0.0,0.0,0.0,0.0
0.006593694041637656,-0.027483671016461084,0.7356399858079993,-0.00013021187068678754,-0.5178728702387764,0.00011803228490790524,0.8554575731057035,0.06983059658366048,-0.7853368647938134,0.8467841241236255,-0.07421670509070949,-0.7857497666045257,0.8438924111354892,-0.20324439366687244,0.6917014100901641,1.0335784603501024,0.19947802775023502,0.7012845530685309,1.0134368732637316,0.0,0.0,0.0,0.0
0.006711255657576913,-0.027705304837458526,0.7357024521866983,-9.3068866513267e-05,-0.5183270117808243,8.297338655115895e-05,0.8551824912332832,0.07039375786340758,-0.7822776359282624,0.8440736513947881,-0.07353017777287288,-0.7842337023655874,0.8434621546279757,-0.20326188004811796,0.6939419785127275,1.0332526741574626,0.20187930838910648,0.7035725635747965,1.0142714558730312,0.0,0.0,0.0,0.0
0.0068145780728924785,-0.027921044986326148,0.73571962102683,-4.8577895485987865e-05,-0.5186146503175845,3.789191670437554e-05,0.855008093926812,0.07099132217699872,-0.7802666510513944,0.842266141795135,-0.0728672616626375,-0.7837907565201087,0.8439331499286562,-0.20305529483050727,0.6953935337950125,1.033023229410382,0.20377704688028694,0.7050126025914565,1.015168412724391,0.0,0.0,0.0,0.0
0.006909433312223334,-0.028139988462958485,0.7356976715628147,-3.4169750108455515e-07,-0.5187998178929053,-1.217231952240943e-05,0.8548957531804717,0.07162565410778088,-0.7789240229340674,0.8410116140179476,-0.07220467243452384,-0.7840625195523518,0.8450089647587575,-0.20264679962062512,0.6962980050413903,1.032937818950289,0.2054246594513412,0.7058841246522641,1.0162279282409787,0.0,0.0,0.0,0.0
0.007016043086326896,-0.028402349497385643,0.735624309522099,5.5930891413987874e-05,-0.5189310295437787,-6.964512895860476e-05,0.8548161080594617,0.07239753223444859,-0.7779785316746902,0.840055213631316,-0.07143374266070705,-0.7850331693196667,0.8468248024413201,-0.20192149319749586,0.69681996711824,1.0330798827806484,0.20723986936580843,0.7063894084761626,1.0177525524037512,0.0,0.0,0.0,0.0
0.007213176953332868,-0.02880555960135617,0.7354519938409517,0.00013510646311367544,-0.5190502050289894,-0.00014280665447685004,0.8547437311919095,0.07357216240775889,-0.7774255450925697,0.8395460330776126,-0.07030733501786138,-0.7873385526473288,0.8504948591067454,-0.20051732994973212,0.6971320746201527,1.0336241298546236,0.21010040987806877,0.7067843961242855,1.020448707458548,0.0,0.0,0.0,0.0
0.0075343888147588805,-0.029447511460023508,0.7350636342360486,0.00021266671266488744,-0.5192099189334272,-0.0002283107841725088,0.854646688830068,0.07541021663292156,-0.7772645572713255,0.8392912260430029,-0.06857524424873994,-0.7914321941349873,0.8566014862096824,-0.19770221518828066,0.6968921584797441,1.0354203703825693,0.215312902478441,0.7070121397360675,1.0257230137982531,0.0,0.0,0.0,0.0
0.008119362363989477,-0.03041745823426068,0.7353056934517028,-0.0004337251603626602,-0.5197668141928108,0.0005406136800433987,0.854307894428695,0.07619940947995649,-0.7759563708272089,0.8393099126239286,-0.06775194937998702,-0.7906817893261365,0.8611811462539678,-0.1811647696858043,0.6979825016002456,1.030522871672835,0.16751985089891386,0.6969559597533401,1.0221346936915434,0.0,0.0,0.0,0.0
0.008720925166785179,-0.03151551342094468,0.735256918089357,-0.0010014514655151358,-0.5203147221015021,0.0012040085751878354,0.8539731479518251,0.0775706836704516,-0.7750186258579939,0.8391150340729654,-0.06639394599401834,-0.7916513335163534,0.8672153509457999,-0.16500171378166034,0.6980163858116148,1.0277928590700982,0.12620181632294475,0.6880279073781184,1.0207425711311044,0.0,0.0,0.0,0.0
0.00930519869967726,-0.0325494516628893,0.7351317072263706,-0.0013383094462736957,-0.5207281120392848,0.0016076307041258152,0.8537200113522859,0.07934565392137571,-0.7743459809466173,0.8391775405627488,-0.06467550906746337,-0.7942125098056452,0.8743555364745733,-0.15260332439853722,0.6982310159563112,1.0257823168903504,0.0995913141489051,0.6820406976262269,1.0215368637078097,0.0,0.0,0.0,0.0
0.00980978743182794,-0.03345530430366641,0.7350140934595399,-0.0015237234270365724,-0.5210273470290313,0.0018383528692943079,0.8535366438375889,0.08116520090485421,-0.7736941328041944,0.8391567295563838,-0.06291928474360681,-0.7971803525605861,0.8811849867468228,-0.14325638090898787,0.6986146350532522,1.0240178880933424,0.08299487237857733,0.6779409397896534,1.0238320129153973,0.0,0.0,0.0,0.0
0.010225886635909795,-0.034221218216308774,0.7349379891774369,-0.0016317783018820304,-0.5212452648095914,0.001976877853003579,0.8534030719227033,0.08282443327630355,-0.7730235834978493,0.839018112305288,-0.06131352649250253,-0.7999185885717722,0.8871160269867326,-0.13600669119215877,0.6991063404285606,1.0222749484687745,0.07185703929479814,0.6748368264445785,1.027000127853486,0.0,0.0,0.0,0.0
0.010565061147310055,-0.03486137050325177,0.7349134388097062,-0.0017060552191432128,-0.5214073635808438,0.0020714454595027526,0.8533036737838243,0.08425608259195358,-0.7723378976586743,0.8387998757078498,-0.05992102087937946,-0.8021999056747108,0.8920584054469625,-0.13014388614146255,0.699674579015811,1.0204368398884152,0.06339183227932167,0.6722187176007713,1.0306183114701726,0.0,0.0,0.0,0.0
0.010843327916924338,-0.035399748877566715,0.7349363563794118,-0.0017683122688926594,-0.5215312944094357,0.0021472195544632823,0.8532276199652254,0.08546754508438885,-0.7716468438620923,0.8385355608554681,-0.0587354073289755,-0.8040110658109914,0.8961330443073041,-0.12518888108051182,0.7002927099394658,1.018472925061678,0.05613509420638905,0.6698308388055072,1.0344184797557587,0.0,0.0,0.0,0.0
0.011075764983074093,-0.03586199004664446,0.7349938183114266,-0.0018280751067787557,-0.5216294626090023,0.0022162406523260256,0.85316730490392,0.08649864877769342,-0.7709630106286678,0.8382430558890737,-0.0577199975504144,-0.8054359938613723,0.8995289109974578,-0.1208218221607116,0.7009241206518423,1.0164240454798696,0.04938529477126276,0.6675558490738118,1.0382222403768642,0.0,0.0,0.0,0.0
0.01127524942411509,-0.03627116302954733,0.7350669745425821,-0.0018887169530320573,-0.5217110295827856,0.0022838019390627644,0.8531171189283709,0.0873973911388643,-0.77030878799046,0.837935609804163,-0.05683076786914789,-0.8065968696184168,0.9024410336698899,-0.11682973667049991,0.7015164700369458,1.0143922228036286,0.0428417231867731,0.6653555129738927,1.0418821204108542,0.0,0.0,0.0,0.0
0.011452757669811305,-0.036645102485773955,0.7351316181106848,-0.0019508008816354438,-0.5217818243172269,0.002352595915801558,0.8530734947708573,0.08820449444017728,-0.7697385402749916,0.8376500371015747,-0.05603216910453214,-0.8076358645021869,0.9050539585426712,-0.1130744943960498,0.7019911938175399,1.0125414739203893,0.036411910803598097,0.663256694753317,1.045211866467875,0.0,0.0,0.0,0.0
0.011601912942886277,-0.03700823010062884,0.7351593652694943,-0.0020111519759369043,-0.5218460869768159,0.0024192365570822653,0.8530338586886197,0.08898796341042163,-0.769200111043207,0.8372132149088773,-0.055256334079236226,-0.808664368601066,0.9074373869621424,-0.10942299021248465,0.7022033291689758,1.011075910116058,0.030145666595103163,0.6613201323533937,1.0478799302106345,0.0,0.0,0.0,0.0
0.01171456740793949,-0.037376481393861766,0.7351188588823121,-0.0020660021911654224,-0.5219046670538435,0.002480569256966021,0.852997712141436,0.08979403235380568,-0.768685815849551,0.8364975687378864,-0.054458350875139165,-0.8097918361750751,0.9096314895479504,-0.10580805786296338,0.7019852822231497,1.0102482521809804,0.02420155298464354,0.6597438106029038,1.0493173325916203,0.0,0.0,0.0,0.0
0.011782669382696696,-0.037759898305254606,0.7349845594380373,-0.002111524992432534,-0.5219567143641138,0.0025338552436164493,0.8529655968267592,0.09065289864786222,-0.7681974126232552,0.8354050239635264,-0.053609130540660764,-0.8111029675823763,0.9116525560391928,-0.10220225060111053,0.701195062890807,1.0102720582079348,0.018818176619988327,0.6589491186430002,1.0486094383490323,0.0,0.0,0.0,0.0
0.011807157856983849,-0.03816837814574674,0.7347493736414333,-0.0021469627649512366,-0.5220033770607562,0.0025785325871030803,0.8529368183269785,0.09159062403602257,-0.7677218265878293,0.8338966758482953,-0.05268294197809411,-0.8126466719026381,0.9135559835144829,-0.09854232300054172,0.6998007899797717,1.0111825591514727,0.014013592658529576,0.6589460365647132,1.045771708790268,0.0,0.0,0.0,0.0
0.011797289442724252,-0.03861308928693981,0.7344238875075353,-0.0021747257575184574,-0.5220476077379176,0.002616393168982614,0.852909561624081,0.0926322506498812,-0.7672274955268735,0.8319817522160428,-0.05165419720453714,-0.8144391536388927,0.9154368751938697,-0.09471520034441695,0.6978726707714878,1.0128385385795486,0.009574314222642405,0.6593283456072419,1.0417365800565395,0.0,0.0,0.0,0.0
0.011759039186594928,-0.03910389694897827,0.7340229282263027,-0.002197355180333273,-0.5220901752659918,0.0026498317007386325,0.8528833442581084,0.09379743158680047,-0.7666693707414298,0.8296479274565635,-0.05050161512783197,-0.8164740534959308,0.9173568909832769,-0.09060634527131357,0.6954823231699059,1.0150611774923741,0.005343117600593779,0.6598991189529924,1.0370553642688742,0.0,0.0,0.0,0.0
0.011689736853145003,-0.03964928376920634,0.7335573177078267,-0.002217345232109974,-0.5221293264555965,0.0026812910248810887,0.8528592266684969,0.09510119056873237,-0.7659878963477834,0.8268202998621675,-0.04920719036758952,-0.818725684670267,0.9193078903419097,-0.08610705483306401,0.6926481417665517,1.017716732846708,0.0012256854999043746,0.6605722972651636,1.0319876276203273,0.0,0.0,0.0,0.0
0.011579181845179897,-0.04025518717874703,0.7330328509080735,-0.0022383823170475147,-0.522161820588961,0.002714555402868119,0.8528391723840956,0.09654846462164983,-0.7651195497791691,0.8233771121419503,-0.047761987606005044,-0.8211447303081582,0.9212105981291504,-0.08110955935919867,0.6893334530700913,1.020729063979237,-0.00284785036993113,0.6613166158242203,1.0265930759951758,0.0,0.0,0.0,0.0
0.011417583649555913,-0.04091856510486318,0.7324524212544496,-0.0022677134315039027,-0.5221855534800105,0.002757245723545747,0.852824426718998,0.09811400451429764,-0.7640447644209422,0.8192519270574244,-0.046188239570711546,-0.8236506923817581,0.9229407037839402,-0.0755307276032833,0.685486078190927,1.0240734969147947,-0.006978595251612045,0.6621515364965451,1.0207984658486198,0.0,0.0,0.0,0.0
0.011225914302890147,-0.04160368243271814,0.7318169294608318,-0.0023222158103996474,-0.5221984503548421,0.002828812742203328,0.8528161487561084,0.09967328272265588,-0.7630554004048583,0.8148994524440648,-0.04462089409325244,-0.8262008362920819,0.9245106609093909,-0.06940893694048662,0.6811271229110687,1.0277985721439196,-0.01146052373144945,0.6632259375575955,1.014431152226671,0.0,0.0,0.0,0.0
0.011031214046689294,-0.042263083628551426,0.7311274383482322,-0.00242846364996434,-0.5221981539709635,0.002959114022190599,0.8528155921404242,0.10105341449273175,-0.7625591052619892,0.8109448658701298,-0.04324794986992468,-0.828722561101619,0.9259214226463875,-0.06272941949530081,0.6762618749240085,1.0319706808568703,-0.016816358277334156,0.6647401957715716,1.0071179987871814,0.0,0.0,0.0,0.0
0.010841781416525597,-0.042855275110306644,0.7303901969742745,-0.002625665175599304,-0.5221793209897293,0.003197405914083415,0.8528256792618943,0.10204882403381271,-0.7629149134296235,0.8078639659597991,-0.042286051543399594,-0.8310177557987265,0.9269912501984281,-0.055188315266397114,0.6707684783877749,1.0365874580059813,-0.02368229225703084,0.6668823236866963,0.9981661424196498,0.0,0.0,0.0,0.0
0.01068001362090856,-0.043324540956774904,0.7296360112203056,-0.0029730200800292253,-0.5221238481871169,0.0036361201087474642,0.8528567446742946,0.10231830149124363,-0.7647268772559546,0.806502127179139,-0.04209581505760583,-0.8328164199677044,0.9275789304793612,-0.046143976274148964,0.664505159163499,1.041390799789302,-0.03238695763533597,0.6700427588102427,0.9865462582683426,0.0,0.0,0.0,0.0
0.010577742563385395,-0.04363303332439471,0.7290149187568067,-0.0035002100588486743,-0.5220261054876907,0.004287270652899096,0.8529115505310308,0.1017463668911795,-0.7679392075209648,0.807291447587697,-0.042783804397722926,-0.8336742246418097,0.927613780141133,-0.03562731988724711,0.6581925785852872,1.0451050708107839,-0.04128756751475467,0.6751935046176245,0.9712829820025584,0.0,0.0,0.0,0.0
0.010579267530272605,-0.04363895863226063,0.7290077036898764,-0.003504991692406674,-0.5220287545574046,0.004290292308680579,0.8529098943267027,0.10175292242946882,-0.7679349078308314,0.8072586412454493,-0.04277527864655666,-0.8336853175785514,0.9276255679594483,-0.03561693061379147,0.6581703701973739,1.0451038033827857,-0.041290341188286714,0.6751908930112552,0.9712770713679929,0.0,0.0,0.0,0.0
0.010579267530272605,-0.04363895863226063,0.7290077036898764,-0.003504991692406674,-0.5220287545574046,0.004290292308680579,0.8529098943267027,0.10175292242946882,-0.7679349078308314,0.8072586412454493,-0.04277527864655666,-0.8336853175785514,0.9276255679594483,-0.03561693061379147,0.6581703701973739,1.0451038033827857,-0.041290341188286714,0.6751908930112552,0.9712770713679929,0.0,0.0,0.0,0.0
0.010240415750836734,-0.04389159755012811,0.7292370685666743,-0.0030162590787265967,-0.5224614874634855,0.0037533986061150126,0.8526492879827647,0.09376869499701368,-0.7803088618531018,0.8297174680137289,-0.040887978338171524,-0.8311188561106664,0.924096100157409,-0.040930977712962814,0.6614444127909899,1.0440238539018187,-0.04621857665468371,0.6743526710479107,0.9706343736004509,0.0,0.0,0.0,0.0
0.009543607293735016,-0.044622496238964186,0.7295000602970246,-0.0025874695130949947,-0.5227478495329602,0.0032264182957843,0.8524773199535369,0.0852612618147272,-0.7894188415669958,0.8428338010577384,-0.03775634209110114,-0.8286037451187702,0.9196467406647175,-0.04204838559423068,0.6627836523900981,1.0412238045061917,-0.04723658968053264,0.6725676023999425,0.9716091718730143,0.0,0.0,0.0,0.0
0.008637000993962541,-0.04566329814756209,0.7297167323519267,-0.00220356703747815,-0.5229230346622907,0.002760212753387868,0.8523725859842326,0.07838100413644429,-0.7960390492283148,0.8498677689402585,-0.033980579606585064,-0.8263906644870926,0.9148567078431595,-0.03996381619972221,0.6624296594420364,1.0377813070284523,-0.04534670320400749,0.6700257874382741,0.9742465203348218,0.0,0.0,0.0,0.0
0.007633186280404383,-0.04685253712671164,0.7298613329998697,-0.001854918223227578,-0.5230304106746756,0.00235223065050681,0.8523087561434718,0.07339840608240546,-0.8010475000846988,0.853452749134728,-0.029979798474095456,-0.8244579023154865,0.9099544563913363,-0.03610240610305778,0.6609511375235078,1.0343725561334207,-0.04181713650331475,0.6669573362040514,0.9780990088924333,0.0,0.0,0.0,0.0
0.006655546865046301,-0.04801043974894405,0.7300226980604456,-0.0015544752242171915,-0.5230943880550891,0.0020140881710454684,0.852270959402518,0.06971407292606333,-0.8050208448567765,0.8552032169047494,-0.026236136451367516,-0.8225106240585937,0.9051382112809023,-0.031727486668933526,0.6593303551734908,1.0306773764893926,-0.037761429958663065,0.6641997281503526,0.9815892077069834,0.0,0.0,0.0,0.0
0.005758413890818699,-0.04905655776454445,0.7301941510423408,-0.0013032536537300157,-0.5231299567227196,0.0017386335119501984,0.8522501552142485,0.06672473539310193,-0.8084000143493567,0.8559363225858645,-0.02293398658106035,-0.8205866510408139,0.9005828345914487,-0.02750781513161852,0.6578295262968304,1.0269974919255098,-0.0337917284132006,0.6618575192974707,0.9844595997743604,0.0,0.0,0.0,0.0
0.004965393639086474,-0.04996516104956301,0.730360406917497,-0.0010969503102821476,-0.5231490340693222,0.0015146669312750222,0.8522391628154852,0.06397741989175094,-0.811465134973996,0.856117833973456,-0.020108141071807528,-0.8187698011807614,0.8964273853436043,-0.02372701990696622,0.6565242116233813,1.0235776819684967,-0.030188686907492924,0.6599014661736978,0.9867628511838693,0.0,0.0,0.0,0.0
0.0042826327105041926,-0.050738827737645674,0.7305118388723081,-0.0009289975489251848,-0.5231597541822107,0.001330933215468609,0.8522330885293874,0.061199282238456096,-0.8143671670469057,0.8560213964901859,-0.017721906047767525,-0.8171296523392614,0.8927628360506756,-0.02046138853432608,0.655428947847354,1.0205339675742477,-0.027044102101991336,0.6582812313667594,0.9886112012131834,0.0,0.0,0.0,0.0
0.0037054246547107966,-0.05139305845757422,0.7306443042583634,-0.0007924371269458039,-0.5231668806404707,0.0011777586125686025,0.8522290771435634,0.05825692344765976,-0.8171471839719768,0.8558155619533142,-0.015710664711434997,-0.8157069003700325,0.8896256633037888,-0.01768580057121351,0.6545310399121685,1.0178912782703826,-0.024350141551497624,0.6569442561822674,0.9901146120048767,0.0,0.0,0.0,0.0
0.003222293863981667,-0.05194805068975951,0.7307570333299581,-0.0006808697123295176,-0.5231724866060797,0.0010474579372192776,0.8522259022739898,0.05510205580564987,-0.8197366588782575,0.8556238965647994,-0.01400367200934938,-0.8145146487699261,0.8870030391403846,-0.015330331447909787,0.6538014543544954,1.015623882829407,-0.0220505372814544,0.6558369340214955,0.9913678637200756,0.0,0.0,0.0,0.0
0.00281778527302301,-0.05242496337451684,0.730851089468924,-0.0005887646846314383,-0.5231767786075544,0.0009341752738184626,0.8522234677586189,0.0517300158488906,-0.8219519135420122,0.8555704106197662,-0.012532892889811518,-0.8135444130968038,0.8848444175481328,-0.013306848964787519,0.6532009189827194,1.0136805159081486,-0.020066638496769314,0.6549051393564936,0.9924507451026608,0.0,0.0,0.0,0.0
0.0024747444209107855,-0.052844459799997676,0.7309287437109622,-0.0005114243188933157,-0.5231792968506824,0.0008335587820240399,0.8522220760880044,0.048157424983620044,-0.8235138138306224,0.8558050917008581,-0.011235681877346844,-0.8127709246924611,0.8830746323043847,-0.011520780887293131,0.6526880592987688,1.0119961265413833,-0.01831008207517933,0.6540990866197235,0.9934293921672109,0.0,0.0,0.0,0.0
0.0021769323757199997,-0.05322518396020051,0.7309934698319255,-0.00044495339105369924,-0.5231806824515354,0.000742501165854833,0.8522213469621869,0.044412296304190246,-0.8241470119940425,0.8564793687030187,-0.010057803112045896,-0.8121529312439949,0.8816058682496024,-0.009882503771883527,0.652232557709224,1.0104992690319412,-0.01669508503365144,0.6533839900323863,0.9943526350491485,0.0,0.0,0.0,0.0
0.0019119022449863442,-0.0535793826250774,0.7310479624787171,-0.00038646270813047127,-0.5231805379053369,0.000658460317508194,0.8522215333078997,0.0405261648452915,-0.8238465245890494,0.8575865133902154,-0.008962567144607263,-0.811658261599505,0.8803666587213284,-0.008339437732991862,0.6518113964063711,1.0091392485378552,-0.015170541829348334,0.6527299652822716,0.9952476855333283,0.0,0.0,0.0,0.0
0.0016713358644045414,-0.05391332108517595,0.7310940150518681,-0.0003338998982158451,-0.5231776266676383,0.0005791945934349852,0.8522234002882685,0.03652804509191264,-0.8228806079070075,0.8589679100694527,-0.007928987615108107,-0.8112673146123615,0.8793077626802881,-0.006874470175283697,0.6514094974004565,1.0078870524472134,-0.013719578581609394,0.6521121240309716,0.9961232059453978,0.0,0.0,0.0,0.0
0.0014489547333425027,-0.05423213577212367,0.731134160335747,-0.00028554963110139246,-0.5231724078767128,0.0005029196069045161,0.852226670064813,0.03244106799555313,-0.8215282416423874,0.8604823697925906,-0.006940013741838629,-0.8109544474651017,0.8783839614557936,-0.005473691336496179,0.6510252406856396,1.0067115624946024,-0.012328641998597876,0.6515206954761966,0.9969790299703879,0.0,0.0,0.0,0.0
0.001239179711373455,-0.054540889326595524,0.7311710845378614,-0.00023991620268946437,-0.523165711202393,0.00042811661373066566,0.8522308359702053,0.02827469987583868,-0.8199855656257359,0.8620440235044111,-0.005979426425674405,-0.810693829134833,0.8775535088367175,-0.004120833378442051,0.6506600970280351,1.0055800966204262,-0.010981845308033755,0.650950646573011,0.9978136375133375,0.0,0.0,0.0,0.0
0.0010369658855793396,-0.054843853511348094,0.7312072528730253,-0.00019586283571846182,-0.5231580938823104,0.0003535420729402651,0.8522355574905215,0.024016717622337196,-0.8183567533041014,0.8636171276540002,-0.005033601143700526,-0.8104616746300162,0.8767777843458345,-0.002801288811319998,0.650314774541406,1.00446304890269,-0.009664797095339203,0.6503976197974484,0.9986239298973685,0.0,0.0,0.0,0.0
0.0008383212992571689,-0.05514312310413951,0.731244877812611,-0.0001528236954304942,-0.5231497543529505,0.0002784257710653158,0.8522407134398449,0.01963322647221978,-0.8166800234640651,0.8652005992710886,-0.00409542122695335,-0.8102356962192464,0.8760213900626512,-0.0015089896258903758,0.6499902319052613,1.0033380754339,-0.008371444521989584,0.6498592409752018,0.9994002999995879,0.0,0.0,0.0,0.0
0.0006413034051903024,-0.05543692755420459,0.7312860885343394,-0.00011103288535448842,-0.5231407745897025,0.00020291459866455218,0.8522462534144988,0.015085775672336252,-0.8149652722753624,0.8668131335696647,-0.0031696117610967296,-0.8099934323650718,0.8752536192305915,-0.00025350997531327075,0.6496913554345352,1.0021935723496131,-0.00711131955187995,0.6493401413363588,1.000119400777,0.0,0.0,0.0,0.0
0.0004476538248746889,-0.05571774031168646,0.7313331126501816,-7.174105233649037e-05,-0.5231315744634533,0.00012882812811716826,0.85225191936183,0.010378581500714988,-0.8132371184124821,0.8684792661255396,-0.0022794437866029494,-0.8097118362022735,0.8744543079482991,0.0009335539459375303,0.6494323591055637,1.0010323993308383,-0.005916225138441403,0.6488601217178077,1.000736381641836,0.0,0.0,0.0,0.0
0.0002654311730808423,-0.05597041295387071,0.7313880924544682,-3.734777854978405e-05,-0.5231235354977644,6.0704555947136804e-05,0.8522568635853979,0.005651972657076326,-0.8115847182103848,0.8702115909706407,-0.0014742154296768849,-0.8093722205617817,0.8736295984354846,0.0019938886701176568,0.6492430619865002,0.9998781541156291,-0.004845366076488241,0.6484645442302324,1.0011803723665735,0.0,0.0,0.0,0.0
0.00011275429857227515,-0.05617095477066452,0.731451263903204,-1.131289187796802e-05,-0.5231196791489318,6.8818294370111926e-06,0.8522592335151187,0.0013323793681862357,-0.8102176636738678,0.8719797829823692,-0.0008353141072609343,-0.8089779488445804,0.8728440759211012,0.0028411219592137296,0.6491704807805644,0.9987933811515551,-0.003987160776413233,0.648230330299446,1.001366242629814,0.0,0.0,0.0,0.0
2.0875405735080074e-05,-0.05628721161264234,0.7315122030739876,2.310674508929915e-06,-0.5231238287288409,-2.026415414709434e-05,0.8522566863334678,-0.0016742120524191459,-0.8095040390505426,0.8736125328644672,-0.0004753760261631712,-0.8086059932015712,0.8722734079581922,0.003364484636392757,0.6492427185005434,0.9979527881769905,-0.0034558145209610744,0.6482308770906495,1.0012723291782488,0.0,0.0,0.0,0.0
2.1005724069273302e-05,-0.05628734504431538,0.7315119395605231,1.5813817249891265e-06,-0.5231235867748457,-2.080861057470678e-05,0.8522568348357914,-0.0016791826651495626,-0.8094994667432543,0.8736145089562705,-0.0004733505548072291,-0.8086074882428158,0.8722740623044705,0.0033641870189904215,0.6492431845542213,0.997952919938626,-0.0034547701774703446,0.6482291573480962,1.0012731479924633,0.0,0.0,0.0,0.0
2.1005724069273302e-05,-0.05628734504431538,0.7315119395605231,1.5813817249891265e-06,-0.5231235867748457,-2.080861057470678e-05,0.8522568348357914,-0.0016791826651495626,-0.8094994667432543,0.8736145089562705,-0.0004733505548072291,-0.8086074882428158,0.8722740623044705,0.0033641870189904215,0.6492431845542213,0.997952919938626,-0.0034547701774703446,0.6482291573480962,1.0012731479924633,0.0,0.0,0.0,0.0
2.1005724069273302e-05,-0.05628734504431538,0.7315119395605231,1.5813817249891265e-06,-0.5231235867748457,-2.080861057470678e-05,0.8522568348357914,-0.0016791826651495626,-0.8094994667432543,0.8736145089562705,-0.0004733505548072291,-0.8086074882428158,0.8722740623044705,0.0033641870189904215,0.6492431845542213,0.997952919938626,-0.0034547701774703446,0.6482291573480962,1.0012731479924633,0.0,0.0,0.0,0.0
5.787945096378517e-05,-0.05633527144349104,0.7315029865338842,-5.921135804600989e-06,-0.523138221303238,-9.003613393301486e-06,0.8522478520334091,-0.0015851438255319245,-0.809550352773555,0.8737615528662904,-0.00037940141741889385,-0.8088298520105027,0.8727376146495003,0.003809228673224547,0.6492858740853826,0.9978519703156735,-0.003010489877806384,0.6483951594124338,1.0015311624966836,0.0,0.0,0.0,0.0
0.00011092196292449645,-0.056403667890553025,0.7314886082373605,-4.988679773237843e-06,-0.5231590224884165,-4.7207924077978236e-06,0.8522350832615327,-0.0014241997483606605,-0.8095944927162956,0.8739482544599991,-0.00021846146467241451,-0.8091918271863734,0.8734370722200309,0.004293753180416293,0.6493871344971271,0.997737860776918,-0.0025274321669580225,0.6485776303318744,1.0018981833861995,0.0,0.0,0.0,0.0
0.00017683950718446617,-0.056491672453378806,0.7314702235269399,3.4331950544364815e-07,-0.5231828780477021,-4.519139754368265e-06,0.8522204386760404,-0.0012052729004268512,-0.809641898676522,0.8741698244298969,5.454497454684493e-07,-0.8096763262238991,0.8743410764083133,0.004858610382439661,0.6495222443480237,0.9975923040657688,-0.001963950451775002,0.6487799245253689,1.002358853721241,0.0,0.0,0.0,0.0
0.0002543333343259896,-0.05660824484820473,0.7314491277290451,8.397897205048982e-06,-0.523205967896017,-6.788863296190747e-06,0.8522062632023885,-0.0009089265757094981,-0.8096881454767435,0.8744037278820567,0.00029708165075662126,-0.8103115521889889,0.8754858573720409,0.005584732706226239,0.6496733880913863,0.997363291510907,-0.0012378879997128327,0.6490054647409585,1.0029272864790673,0.0,0.0,0.0,0.0
0.000342798698529735,-0.05677096653196672,0.73142651640412,1.8264192430678637e-05,-0.5232215406236478,-1.1127646823450197e-05,0.8521967020412666,-0.000491048805026958,-0.8097270187866185,0.8746169526438079,0.0007153409868989455,-0.8111708624197398,0.8769666360584185,0.0065986401502792745,0.6498169210439504,0.9969643771959096,-0.00022034283237985504,0.6492517184982624,1.003640067748303,0.0,0.0,0.0,0.0
0.00044333455059641507,-0.057007307569743315,0.7314021101414078,3.384304641223974e-05,-0.5232259837075737,-2.549558346812261e-05,0.8521939733287635,0.0001373239674830665,-0.8097035805201459,0.8747246126283358,0.0013444834705003067,-0.8123647591010656,0.8789309495303067,0.008010582219920563,0.6499587234133041,0.9963022879083158,0.001202355082085069,0.6494995955680207,1.0045762998426297,0.0,0.0,0.0,0.0
0.0005774943443820475,-0.05735441557645883,0.7313879866002784,0.00013151165645216388,-0.523326623739181,-0.0002220187425580006,0.8521321366420304,0.0014915908782480293,-0.8085874299979172,0.8738818527587594,0.0027004902121629173,-0.8137689686255127,0.8813603028871887,0.008518186073312475,0.6510202129914927,0.9955303930978265,0.001706633063554688,0.649632103884632,1.00576461426586,0.0,0.0,0.0,0.0
0.0008237217020158356,-0.05767185403844164,0.7313469237383485,0.00013103169295891983,-0.5232259809107606,-0.00019894875602586518,0.8521939428029633,0.002234336763056361,-0.8099110525517174,0.8758695526440897,-0.006124893365148992,-0.8116153729863289,0.8749555008660508,0.010815317712747914,0.6510860852381395,0.9943434867077616,0.004033920471743667,0.6501182877279216,1.006819970788383,0.0,0.0,0.0,0.0
0.00118196636282804,-0.05809036260444777,0.7312806666522739,0.00019473381843513403,-0.5231909362865391,-0.0003092472070020344,0.852215413280304,0.0035582136184090416,-0.8109717728733921,0.8780374155074269,-0.017549354111959965,-0.8106566753128197,0.8700161115431632,0.012563401915582174,0.651910196748665,0.9932128967735991,0.005808522364162563,0.650618364800324,1.0083309686951047,0.0,0.0,0.0,0.0
0.001584918922391058,-0.05859705055044971,0.7312043997818141,0.0002868148180120861,-0.5231829675632553,-0.0004697016539636762,0.8522202060320572,0.005227023706527915,-0.8117962126421961,0.8800729474424702,-0.028800532627687975,-0.8105664555857889,0.8661443239025148,0.014425438442359722,0.6530155893756963,0.9919291821126814,0.00770274140964757,0.6511636865993111,1.0101833247953458,0.0,0.0,0.0,0.0
0.0020010807490456217,-0.059165096862218824,0.73112503825745,0.00038674012090422256,-0.5231767555212696,-0.0006414603417057206,0.85222386814906,0.0070800316793085665,-0.8124980906978588,0.8819591418811594,-0.03902481138381164,-0.8109432797137313,0.8628536670136544,0.016589810501523188,0.654164432591674,0.9904515059776091,0.009915301149679567,0.6517445134057677,1.012238735057226,0.0,0.0,0.0,0.0
0.002422115696570496,-0.05977144925904851,0.7310436769863081,0.0004871658793031055,-0.5231672948557955,-0.0008100235531375132,0.8522294809055355,0.009023918920091495,-0.8131471394219048,0.8837501418183663,-0.04823864040700619,-0.8115319788674249,0.8598848007618354,0.019036942559453013,0.6552884447661093,0.9888297060629222,0.012432181857620976,0.6523656906526866,1.01442013561517,0.0,0.0,0.0,0.0
0.0028506679454461032,-0.06040192936324257,0.7309587886434759,0.0005868046442603838,-0.5231566923334189,-0.0009727812654602594,0.8522357564803741,0.01101647584288777,-0.8137892954760407,0.8855207527522233,-0.05673821430709006,-0.8122055635813922,0.8571012431140269,0.021696030772692165,0.6563913691319758,0.987125470700842,0.015185089637647992,0.6530362160369242,1.0166966437067793,0.0,0.0,0.0,0.0
0.0032935828578126076,-0.06105110116111637,0.7308682028879077,0.0006867006873133004,-0.5231476690594634,-0.0011317643674070466,0.8522410245401432,0.013048990525289017,-0.814459224117523,0.8873440315856068,-0.0648192960232498,-0.8129142333336973,0.8544262174165483,0.024512675010063805,0.6574986956781038,0.9853783875748796,0.01812102243186965,0.6537658507370683,1.0190651424310313,0.0,0.0,0.0,0.0
0.0037590422973419134,-0.061720215349178126,0.730769705281839,0.0007887451289033298,-0.5231414989515221,-0.0012902910993181276,0.8522444984303245,0.015132913070802062,-0.8151872062472003,0.8892856859149613,-0.07268168360425223,-0.8136342539568363,0.85181740802115,0.02746508862443068,0.6586373971565859,0.9836017160356165,0.021220046659091735,0.6545641388508153,1.0215393730195674,0.0,0.0,0.0,0.0
0.004255786103253655,-0.062415024814408915,0.7306609156102757,0.0008952352221994524,-0.5231377945494475,-0.001451779788423848,0.8522464073278825,0.01729142098511519,-0.8160040212748539,0.8914071583726584,-0.08042255423465117,-0.8143222170011992,0.8492627293812968,0.030559311645392932,0.6598300361803111,0.9817897426952285,0.02449154023293956,0.6554398335880408,1.0241447815094762,0.0,0.0,0.0,0.0
0.0047931489605274194,-0.06314407286637487,0.7305390167144757,0.0010088126411339807,-0.5231348587712171,-0.001619578994165559,0.8522477801668688,0.019554723271707108,-0.8169440640744325,0.8937706701948961,-0.08806098335084168,-0.8148741863469627,0.8467891148606318,0.03381902989972149,0.6610948206325008,0.979926520901625,0.027964524530017326,0.656400597715743,1.026915719002671,0.0,0.0,0.0,0.0
0.005381366327609397,-0.06391749612861297,0.7304007122408767,0.0011325605686769698,-0.5231302940847673,-0.0017972864344319,0.852250070389446,0.02195790623729431,-0.8180453604654954,0.8964424487987146,-0.09556672313839178,-0.8150954698097714,0.8444787283347885,0.037275049167344185,0.6624493932249751,0.9779915748768863,0.03167721778938491,0.6574540865984362,1.0298921104867957,0.0,0.0,0.0,0.0
0.006032239822837748,-0.06474656744703013,0.7302426953796568,0.0012704202424870673,-0.5231220574407734,-0.001989550933879845,0.8522545046747603,0.0245417534051663,-0.8193440140946296,0.8994922908472351,-0.10288386856045757,-0.814705253179566,0.8424789835011275,0.04095509645022092,0.6639206589369036,0.9759593606876251,0.03566650619452416,0.6586125177329542,1.0331140082516246,0.0,0.0,0.0,0.0
0.006760594629032727,-0.06564524464848098,0.7300626461173453,0.0014283560561121913,-0.5231097390037295,-0.002203610076181205,0.8522612890780967,0.02736018598013123,-0.820862171860761,0.9029888988553718,-0.10994555782155825,-0.8134299244388169,0.840965973613936,0.04487832042181261,0.6655623112722173,0.9737869411996899,0.03996214043739747,0.6599012238744183,1.0366166896742324,0.0,0.0,0.0,0.0
0.00758576215862701,-0.06663659991467874,0.7298580651621798,0.0016147396771012967,-0.5230888307039119,-0.00244923869275216,0.8522731188054773,0.03049691171025843,-0.8226352576298731,0.9070210405295863,-0.11669156690590554,-0.8112648576800447,0.8399192564510288,0.04909534479422323,0.6674375039219068,0.9713868530477835,0.044631243947330854,0.6613469008946866,1.0404482305452678,0.0,0.0,0.0,0.0
0.008530942401537104,-0.06775425746846396,0.7296267283131515,0.0018407318062938069,-0.5230494739143677,-0.0027395337534556474,0.852295931293312,0.03407163194134648,-0.8247062325085427,0.9116865165898551,-0.12308316478026143,-0.8084683431724757,0.8391068206777345,0.05368953269578656,0.6696191430038144,0.9686146156933152,0.049782733914552436,0.6629742927578548,1.044665832209971,0.0,0.0,0.0,0.0
0.00962023235503213,-0.0690377192678902,0.7293682728669543,0.0021213278754005516,-0.5229826131712322,-0.003093458827380691,0.8523350965442628,0.03823438948712528,-0.8270714847507734,0.9170353072673261,-0.1291112840286215,-0.8052941665859545,0.8382952583079711,0.058724104548621384,0.6722154181489466,0.9652874966390378,0.055511461871911534,0.664811512614703,1.0493174215834244,0.0,0.0,0.0,0.0
0.010897732292850137,-0.07051717628133626,0.7290818720440378,0.0024811005556056825,-0.5228857553415543,-0.003539066889593812,0.852391814840145,0.04313324899755226,-0.8297705168679115,0.9232690141310921,-0.13487379598127558,-0.801804264470367,0.8371999777590561,0.0640930802366112,0.6754527756455219,0.9612561491973256,0.06172979111891047,0.6669273311969902,1.0543996367614663,0.0,0.0,0.0,0.0
0.012417826821210502,-0.07220923379730107,0.7287701898324868,0.0029505301548241325,-0.5227587214579272,-0.004109544798648535,0.8524656738854807,0.04889535819303841,-0.8328654269984536,0.9306816238376372,-0.14065152037247225,-0.7978426441656001,0.8353966567882095,0.06953752699785193,0.6796443521873068,0.9563776885543991,0.06817409357715859,0.669418201846685,1.0598144150215747,0.0,0.0,0.0,0.0
0.014189645670911067,-0.07412658180172693,0.728448049674233,0.0035501238019650726,-0.5225916437931787,-0.004833465425802931,0.8525620259374163,0.05563155610973467,-0.8362210992707171,0.9391738182360889,-0.14691749246796723,-0.7931743354849834,0.832290112041039,0.07483964455549967,0.6849906229407147,0.9504211943705598,0.07461459004948716,0.6722877797662141,1.065374091196109,0.0,0.0,0.0,0.0
0.016161354073368755,-0.07623522532174346,0.7281338749316051,0.004281020526242028,-0.5223788651844858,-0.0057099528600104464,0.8526836403439197,0.06325903975912557,-0.8395572556380551,0.9482780726165665,-0.1542360178458048,-0.7874623509122801,0.8269909811251814,0.07974121070988216,0.6914597382139239,0.9433379121257879,0.08075782525102271,0.6754269773170003,1.070824417729702,0.0,0.0,0.0,0.0
0.018246283515881923,-0.07838586734007358,0.7277724748307408,0.005140709221402942,-0.5221561564707572,-0.006736487240389384,0.8528077984563973,0.07138898038848551,-0.8427505764261938,0.95758338983559,-0.1636289862099822,-0.779995507483982,0.8179874200463764,0.08325339774557469,0.6986708359944975,0.9363633695702849,0.08540215219291777,0.6782749307771861,1.0763402207931143,0.0,0.0,0.0,0.0
0.02025983724289492,-0.08024946191690475,0.7271644694301803,0.006095642333812947,-0.5219931798041602,-0.007832410958078826,0.8528919138560663,0.07896696124993222,-0.8462062578982055,0.9667500914729968,-0.17570308297461837,-0.7696525011565365,0.8025640154192227,0.08387090323498628,0.7050731632274917,0.932988083986102,0.08663257520260334,0.6794543163646447,1.0830914535828198,0.0,0.0,0.0,0.0
0.022004816700952463,-0.08155138876947331,0.7263946164164299,0.007081650407137819,-0.5218038741494478,-0.008816359472374889,0.852990526885142,0.08480422755495316,-0.8504885053744112,0.975902600494866,-0.18953054085190624,-0.7541287670496736,0.7757182663479102,0.081011719584389,0.7097991957530215,0.9335026188232134,0.08362005544135906,0.6785955816722967,1.0898290752159359,0.0,0.0,0.0,0.0
0.02304248198396981,-0.08210699044025818,0.7257025312309963,0.008002506503522827,-0.5215408576053928,-0.009495243584264746,0.8531359411530895,0.08784539006865089,-0.8542793386834091,0.9824038007057627,-0.20278444701390574,-0.7317331698326234,0.7325566903803736,0.07483307795519314,0.7120096481902695,0.9367697519683098,0.07651329799928246,0.6754283685705759,1.0947077931986817,0.0,0.0,0.0,0.0
0.023090997797727098,-0.08216247381253863,0.7256775564939718,0.008065891697581757,-0.5215183274386359,-0.00949329809178267,0.85314913867862,0.08798584625739736,-0.8543115830118835,0.9824526127528929,-0.20280001426921682,-0.7316902701725704,0.732551261180493,0.0747716403960535,0.712100583748272,0.9366293350682064,0.07654615337972312,0.6754182641537644,1.0948996308620025,0.0,0.0,0.0,0.0
0.023090997797727098,-0.08216247381253863,0.7256775564939718,0.008065891697581757,-0.5215183274386359,-0.00949329809178267,0.85314913867862,0.08798584625739736,-0.8543115830118835,0.9824526127528929,-0.20280001426921682,-0.7316902701725704,0.732551261180493,0.0747716403960535,0.712100583748272,0.9366293350682064,0.07654615337972312,0.6754182641537644,1.0948996308620025,0.0,0.0,0.0,0.0
0.022908514117268568,-0.08286959147542779,0.7270971975152822,0.006770159999291655,-0.5209899745228393,-0.008322393339648697,0.853495371486791,0.0873773942813762,-0.8544153274816827,0.9823841257604461,-0.20318053031331354,-0.7266991979412425,0.7311410821938107,0.05033721167382237,0.7000218923341169,0.9656555783782987,0.10100691875679091,0.6860823078746223,1.0854387992046577,0.0,0.0,0.0,0.0
0.022777217929047293,-0.08386527543418613,0.7287274905132548,0.005906388947769771,-0.5205986256820128,-0.007495652983636341,0.8537482068466944,0.08810609879083318,-0.8511717801268854,0.9794437425106242,-0.20215748753004228,-0.723425785195478,0.7326781568741467,0.028321689905214747,0.6928923010005394,0.9856487177157187,0.12191270410969779,0.6966456820027225,1.0745142362710853,0.0,0.0,0.0,0.0
0.022721713403838092,-0.08501987591801424,0.7302168019350836,0.005412711630889184,-0.5203550170045079,-0.0070041569662251425,0.8539041518907327,0.08991109364179009,-0.8461831363677413,0.9748382102830292,-0.20011688737334532,-0.7223297980906189,0.7368316485411809,0.01190350467237953,0.688877803894931,0.9994853176150826,0.13882628615651443,0.7058318825950244,1.0648251350269748,0.0,0.0,0.0,0.0
0.022727921792176316,-0.08623266643605264,0.7315072022802297,0.005151492769526205,-0.5201952062732462,-0.006729366419741433,0.8540053425595001,0.09231250178387267,-0.840639139045703,0.9696171042330352,-0.19756041525139367,-0.7228863071542591,0.7426869186253772,-0.0008084877251281659,0.686851677248293,1.0097750954406373,0.15291070211794194,0.7136751644056228,1.056737385695604,0.0,0.0,0.0,0.0
0.02276979785591044,-0.08743435657028663,0.7326118788452398,0.005020543798640211,-0.5200666076741816,-0.0065755641274680785,0.8540856395459652,0.09494092159253503,-0.835212021558515,0.9643862298754448,-0.19484363977937957,-0.7244846322229306,0.7493679317411789,-0.011476107241249225,0.6860091552528684,1.0180229217371057,0.16507280927316845,0.7203609159338723,1.0500556445918556,0.0,0.0,0.0,0.0
0.02275094096621711,-0.08853031542138216,0.7335579178877589,0.004928448121894377,-0.5199483987398522,-0.006457424855613007,0.8541590453254051,0.09736763412660643,-0.8300779654058865,0.9590373565546961,-0.19231260986668952,-0.7258629013514811,0.7549279189860219,-0.021299461615607106,0.6855854884014331,1.0249595895785113,0.17574529563837324,0.7258799418046307,1.044491180509021,0.0,0.0,0.0,0.0
0.022673604093296093,-0.0895237780395317,0.7343731087086797,0.0048487038445326185,-0.5198283381093163,-0.006350783924941487,0.8542333735654871,0.09955571064047775,-0.825319545670244,0.953700886522011,-0.1900057622404784,-0.7269539527137129,0.759395892198266,-0.030808514097616542,0.685289480715044,1.03109637486226,0.18530249083752762,0.7304282999199168,1.0398310876518617,0.0,0.0,0.0,0.0
0.022550093391720257,-0.09043349079079198,0.7350849421075046,0.004773510967949864,-0.5197029519027624,-0.006249385234776532,0.8543108336903971,0.10154303436770526,-0.8209052006594547,0.9484243492861285,-0.1878910277196363,-0.7278237292023889,0.7630101389507896,-0.040252953590357334,0.6849858134067744,1.0367437845044036,0.19399767882728974,0.7342048171756256,1.035881068914264,0.0,0.0,0.0,0.0
0.022387641231299035,-0.09127919151240048,0.7357149262177604,0.0047005689306155035,-0.5195700760141311,-0.006151789976874211,0.8543927646243729,0.1033778554706694,-0.8167669846007596,0.9431835952241497,-0.18592330577544638,-0.7285365536116658,0.7659644429228034,-0.04974736802195654,0.6846216799936974,1.0420057773778202,0.20201666259880507,0.7373496308690446,1.0324995989235755,0.0,0.0,0.0,0.0
0.022186295513369102,-0.09208041352509715,0.7362767032192081,0.004628870833776723,-0.5194275233873893,-0.006057121401193902,0.8544805046241714,0.10510745614816658,-0.812823638233193,0.937892576744256,-0.18405566981889934,-0.7291393745142982,0.7683802503838779,-0.05935741241692211,0.6842064589989215,1.046794422355306,0.20952786562380443,0.7399406490297027,1.0296192968551061,0.0,0.0,0.0,0.0
0.0219381184962108,-0.09285779264757872,0.7367767458786488,0.004556854456472888,-0.5192716283557275,-0.0059635043718634555,0.8545762971659466,0.10677879893149941,-0.8089854813044386,0.9324027610093439,-0.1822391990302234,-0.729664576353058,0.7703123322833794,-0.06916018141268634,0.6838142673156276,1.0508008250431256,0.21671328874824902,0.7419961537395862,1.0272459738303463,0.0,0.0,0.0,0.0
0.021626766167974817,-0.0936344816457879,0.7372176347848716,0.004481327794300032,-0.5190948329913067,-0.005867562416744994,0.8546847628068568,0.10844159393702608,-0.8051538708443344,0.9265029187352979,-0.180420348546508,-0.7301350505529277,0.7717616475484439,-0.07928690919725255,0.6836230958550666,1.05340956122933,0.22377923392572005,0.7434813936073248,1.02542982718628,0.0,0.0,0.0,0.0
0.021232624076758834,-0.09443786376483437,0.7376068707101885,0.004398292936746612,-0.5188855750083321,-0.005765586325364935,0.8548129462530617,0.11015489839089118,-0.8012078585972219,0.9199414441624848,-0.17853502830211174,-0.730575776145271,0.7727313838135031,-0.08991080013065672,0.684008553694294,1.0536174802498715,0.2309483203877715,0.7443598233194081,1.0241811769668527,0.0,0.0,0.0,0.0
0.02074570252585259,-0.09530111151921525,0.7379706949278405,0.004308507959980631,-0.5186336755466806,-0.005657741377101833,0.8549669802457923,0.11199735714223515,-0.796966031956379,0.9124706747749128,-0.17649879642686028,-0.7310338656448232,0.7733371083695548,-0.10099958756492859,0.6849601693299576,1.0513911089728865,0.23841159806987602,0.7446988168514153,1.0233367641900246,0.0,0.0,0.0,0.0
0.02017522871098222,-0.0962733146279366,0.738354115364749,0.00421966441235669,-0.5183257454213885,-0.00555075586088607,0.8551548428062498,0.11410139613506531,-0.7922170926507203,0.903903606537193,-0.17418225615555918,-0.7317038892319712,0.7740055284916106,-0.11236205624237483,0.68611573352105,1.047689809157005,0.24638164751735583,0.7446901017646592,1.0225614758986874,0.0,0.0,0.0,0.0
0.019509406916527392,-0.09739101326831737,0.7388103764166485,0.0041275544044489425,-0.5179421723966728,-0.0054373533136633165,0.8553883939688426,0.11653325938183547,-0.7867378665582653,0.8939622524939509,-0.17150668712311204,-0.7325700848715139,0.7748275275199459,-0.12391072852455395,0.6872524339964264,1.043088888691536,0.25508666797900975,0.7444974919734926,1.021427539417325,0.0,0.0,0.0,0.0
0.018729348168323882,-0.09869299937588388,0.7393920928646257,0.00401995819943467,-0.5174514358084779,-0.005301367254707392,0.8556867107890891,0.11934731273172665,-0.7803560946303649,0.8823636700239101,-0.16840715539407447,-0.7336187703741859,0.775863951021786,-0.13579873755089375,0.6882246363328007,1.037930709518073,0.2648247902027542,0.7442421209233764,1.0194963188991109,0.0,0.0,0.0,0.0
0.01781294169715259,-0.10021582091213767,0.7401461028120915,0.0038741648890802016,-0.5168094857454613,-0.005115125322073495,0.8560763878199559,0.12257177322510429,-0.7730098694980495,0.8688932044638993,-0.16485090318347445,-0.7348518556617244,0.7771600382793037,-0.14859225333299034,0.6889042364185017,1.0324823279928288,0.2759511387448655,0.7439933787253051,1.0163397646165018,0.0,0.0,0.0,0.0
0.01673695809298048,-0.1019772632100951,0.7411006388578738,0.0036506549546753996,-0.5159595044766219,-0.004832819943005978,0.8565915632960899,0.12615844870232756,-0.7648769518606342,0.8535504563902738,-0.16089281166867678,-0.7362548066215824,0.7786669350078632,-0.16360714302965507,0.6892020322906913,1.027069443023013,0.28882223065727414,0.743724151706113,1.0116044961671162,0.0,0.0,0.0,0.0
0.015485676942575594,-0.10394949702050102,0.7422305552244302,0.00328700944121997,-0.5148331552939569,-0.004388360054731065,0.857272862089447,0.12992592314171197,-0.7566341532239204,0.8368566441998568,-0.15674942456641205,-0.7378413855370127,0.7802185905646414,-0.18357687351012772,0.6892736457225819,1.0222581290740356,0.3036542509315235,0.7431778514996178,1.0052486060490256,0.0,0.0,0.0,0.0
0.014068085236555186,-0.10598466221052953,0.7433898667482506,0.0026913833989835583,-0.5133639788269213,-0.0036809817940495,0.8581588617915822,0.1333604681246761,-0.7500034281761718,0.8205566198895341,-0.15302528851180533,-0.7395926609124119,0.7813037640644949,-0.21340900504773008,0.6900278487185484,1.0189937255199557,0.3202279717355276,0.7416633797980199,0.9980147117538204,0.0,0.0,0.0,0.0
0.012552007450549352,-0.10772768789963971,0.7441358797595825,0.0017365080925047535,-0.5114348523945546,-0.0024675120764981033,0.8593167563128029,0.13518177279265456,-0.7494166100855694,0.8094012376717316,-0.15126889942224375,-0.7420005195214449,0.7814153992847271,-0.2598926023680711,0.6940106285148789,1.0176800525113734,0.33832365776810935,0.7374285406866493,0.9928655783363276,0.0,0.0,0.0,0.0
0.011012183004151747,-0.10909065922888575,0.7438744310420357,0.000631488557810219,-0.509092593755856,-0.0010267123847251638,0.8607109143416362,0.13585704561480655,-0.7564091682154346,0.8048588980956791,-0.1512370760770914,-0.7478825155927142,0.782627487445277,-0.3203980710257219,0.699457681053367,1.0200067679582958,0.3542294397099875,0.727158355089239,0.9950922869814481,0.0,0.0,0.0,0.0
0.009721289042579033,-0.11000890498827816,0.7425803112930458,-0.00030946153197310004,-0.5064973662341277,0.0003534348683741261,0.8622413799599541,0.13575607977842497,-0.7705878480174156,0.8081289313322548,-0.15265073112098207,-0.758810660964833,0.7876651194693105,-0.38482964216353543,0.7018897205312293,1.027673877435578,0.3647234583075616,0.7113641763293836,1.0048524042660227,0.0,0.0,0.0,0.0
0.009730041860076297,-0.11004477648179962,0.7425496492098363,-0.00036089212600200633,-0.5064967177451399,0.00039397854055578363,0.8622417233300549,0.13575541332755892,-0.7706691395374208,0.808005162401378,-0.1526706512793851,-0.7588252586723887,0.7877090847475341,-0.38486684567593216,0.7018878155745111,1.0276748182562914,0.36476916248025787,0.7112890116323727,1.0047390821631221,0.0,0.0,0.0,0.0
0.009730041860076297,-0.11004477648179962,0.7425496492098363,-0.00036089212600200633,-0.5064967177451399,0.00039397854055578363,0.8622417233300549,0.13575541332755892,-0.7706691395374208,0.808005162401378,-0.1526706512793851,-0.7588252586723887,0.7877090847475341,-0.38486684567593216,0.7018878155745111,1.0276748182562914,0.36476916248025787,0.7112890116323727,1.0047390821631221,0.0,0.0,0.0,0.0
0.009715609120827138,-0.11038946420644943,0.7430649074637447,-0.0004170681534415996,-0.5079774262259785,0.00042802714216015625,0.8613701743685762,0.1360033573241832,-0.7592225398408106,0.7964648299660205,-0.15126782436665348,-0.7494031859732991,0.7795826489307485,-0.3876769106492607,0.7095454549851625,1.025588438269581,0.37327815601390074,0.7195257466015543,1.003885921348144,0.0,0.0,0.0,0.0
0.009650485989034584,-0.11074504633191644,0.7434452423064031,-0.0003777642512541327,-0.5089366513585066,0.00035709696986739614,0.8608038189273526,0.1366610416116693,-0.7504699520224601,0.7870788877601054,-0.1498293101396397,-0.7435943936969848,0.7745730820706528,-0.3896044533151431,0.7147685652616812,1.023546337562205,0.3788375008791368,0.7248010151569835,1.0031993426319163,0.0,0.0,0.0,0.0
0.009596326616310819,-0.1110332429209714,0.7436990780210488,-0.00030177810695950256,-0.5095391232798628,0.00024642782202170593,0.8604474010946233,0.13736168286817402,-0.7443356192830319,0.7803210875963524,-0.14863076550926613,-0.7402701520088344,0.7717986838076442,-0.3911622904204403,0.7182532543790104,1.0219978985898948,0.38208095494542427,0.7280166226965915,1.00276201893586,0.0,0.0,0.0,0.0
0.009683174616295549,-0.11146968210404756,0.7438080282796167,-0.00017823480929908582,-0.5099132311215178,8.922064840988102e-05,0.8602258174451882,0.1386460768568428,-0.7400922406209427,0.7757048455271253,-0.14713127508960144,-0.7402728307497828,0.7732458748567673,-0.39174895601039994,0.7207818773411887,1.0208459308846778,0.3853794695630563,0.7301728484870298,1.00338666320542,0.0,0.0,0.0,0.0
0.009933940483927007,-0.112189764179589,0.743669129107597,4.836455162458019e-06,-0.5101627382980453,-0.00013051778296540155,0.8600778821676309,0.14086942503289107,-0.7370686724340624,0.772244150947677,-0.1449528462224397,-0.7439784274793602,0.7795318523895866,-0.39121061290172016,0.7223795547588779,1.0209730069993463,0.3903182547403923,0.7313955872696208,1.0065370480591078,0.0,0.0,0.0,0.0
0.010430093482626978,-0.1132769613241755,0.7430715125458752,0.00025013583265124,-0.510379237114513,-0.00038079940375477205,0.8599493163822429,0.1441809014088628,-0.7356064497173369,0.7701848685873388,-0.14200020093151386,-0.7521367544072003,0.7916419409736959,-0.3896416348949147,0.7227227118890259,1.0242630936141202,0.39891584842375777,0.7316674164168675,1.0144915404700698,0.0,0.0,0.0,0.0
0.011188602818788335,-0.11473854232505085,0.741629726242897,0.00034383752721606957,-0.5109042211679705,-0.00043126128085377335,0.8596374657855554,0.14812155817129566,-0.7358641065466124,0.7690338199978214,-0.13864737049968973,-0.7630355333510498,0.8072592809481337,-0.385961801626139,0.720898776559277,1.034895474964701,0.4173728805852447,0.7318944626596003,1.0315624999907491,0.0,0.0,0.0,0.0
0.012700464483006138,-0.11674619224099182,0.7421737262227748,-0.000987234832924902,-0.5124770393823553,0.001230289943318508,0.85869947936396,0.14949316160931292,-0.7320990471848595,0.7688589325831867,-0.1370150133530679,-0.7606847524799825,0.8180775075878988,-0.35768558211438545,0.7280478517624295,1.0269021735342565,0.33355347366752064,0.7193457128550309,1.0229476876842887,0.0,0.0,0.0,0.0
0.014365258446151705,-0.11904384731698071,0.7417733639929327,-0.002313134257596307,-0.514221926089275,0.0028783766732737473,0.8576492144733004,0.15178195712456763,-0.7301377440608587,0.7691504773509258,-0.13474100269644823,-0.7620048939844979,0.8323229291354628,-0.32760151128231274,0.7315946375256489,1.02653483070155,0.2565791576226483,0.7086986798096487,1.0192842062915604,0.0,0.0,0.0,0.0
0.016073757330302862,-0.12134518203415906,0.740996387504859,-0.003113705158104112,-0.515605790658393,0.003911623566892834,0.8568113401915224,0.15550812650417067,-0.7293971825084642,0.7704999271612728,-0.13137704659784488,-0.7689757353675337,0.8514624506147884,-0.30322222870902615,0.7338325115642244,1.028426065427903,0.20534069912863356,0.7026489868600242,1.0196467255358619,0.0,0.0,0.0,0.0
0.01761463520901006,-0.12340663147427353,0.7401813991556979,-0.003545708885804417,-0.5166350414604115,0.0045033748719779405,0.8561865342893793,0.15961012462910126,-0.7290854226863595,0.7719877208337006,-0.12775318230566074,-0.7778244015659929,0.8706793331230334,-0.28434502326204103,0.7354680686296206,1.0305063657383204,0.17288295767883477,0.6992892877654231,1.0224713056356984,0.0,0.0,0.0,0.0
0.01889861301583303,-0.1251490392663666,0.7394690525608785,-0.0037790746942715932,-0.5173920901548363,0.004840817902299667,0.8557264224749062,0.1634494116203644,-0.728787681156119,0.7730774787996116,-0.12436326938449789,-0.7862788061079922,0.887464505490846,-0.26966596757410327,0.7367078436790917,1.0321255929714828,0.15118343441688306,0.6971256142592784,1.0265097361598587,0.0,0.0,0.0,0.0
0.019928545280750942,-0.12658349271927374,0.7389030318239818,-0.003921359382261,-0.5179562553076053,0.005048392057735467,0.8553832207063389,0.16677011801766395,-0.72837710098947,0.7736836850336007,-0.12140915813834838,-0.7934603138762707,0.9012181595513475,-0.2579439039682111,0.7376697283925153,1.0331098380473815,0.1349595509109149,0.6953960000695074,1.0310257763685406,0.0,0.0,0.0,0.0
0.020751497009090864,-0.1277575770474,0.7384822183902389,-0.004030013868216655,-0.518387939641525,0.005196952099264994,0.8551202808443469,0.1695376562749249,-0.7278803860261961,0.7739641773803395,-0.11892327722081614,-0.7992486146262692,0.9122606633798078,-0.24823649290978772,0.7384673198450598,1.0334520030303773,0.12127089318839387,0.6937917044718825,1.0356221598090578,0.0,0.0,0.0,0.0
0.021418828731816397,-0.12873005160421191,0.7381821451493705,-0.004131557254401989,-0.5187301766310831,0.005323299670015718,0.8549114553961493,0.1718236384273582,-0.7273398068788941,0.7740536441035362,-0.11684940394699944,-0.8038342487562776,0.9211662762907403,-0.23985488626429402,0.7391569570712929,1.0332555155188736,0.10866567404084246,0.6921974241438403,1.0400757460728332,0.0,0.0,0.0,0.0
0.02197715860037159,-0.1295551447627673,0.7379668662531733,-0.004236441755289338,-0.5190126893565649,0.005445553435981487,0.854738689188629,0.17373173565027888,-0.7268212947584716,0.7740773015437419,-0.11510562821628811,-0.8075192282882524,0.9285291654922455,-0.23232652445688534,0.7397473091820643,1.0327037641525452,0.09649631885467208,0.6905860258291447,1.0442284945442002,0.0,0.0,0.0,0.0
0.022457546385724895,-0.13028386001600162,0.7377945900869534,-0.004346293356571876,-0.519255582530595,0.00556958133089168,0.854589801898355,0.17538259197301,-0.7263426703173786,0.7740294683432464,-0.11358904302132704,-0.8106182136738905,0.9348419907629397,-0.2252986269191339,0.7401747740124531,1.0320380304541512,0.0845256779049901,0.6889641003969136,1.0478839988682465,0.0,0.0,0.0,0.0
0.02287129556156438,-0.13096457701348085,0.7376207058225365,-0.004457609019949319,-0.5194721698464029,0.005692561834848106,0.8544567801923346,0.17690497065457367,-0.7258402512708247,0.7737224553297697,-0.11217972972120252,-0.8134106471348062,0.9404463788590891,-0.2184921028698321,0.7402981960379289,1.0315451657644583,0.07273862110924798,0.6873742706060324,1.0507092346898548,0.0,0.0,0.0,0.0
0.023225180860023807,-0.13162785441287214,0.7374005611555773,-0.004566033668090039,-0.5196692014435051,0.005811595971337982,0.8543355884896037,0.17838453628153947,-0.7253260374896906,0.773062014180074,-0.1108030944424066,-0.8161370940706486,0.9455883193456532,-0.21176630748318087,0.7399581584048996,1.031551650917387,0.06127311247173135,0.6859938027894941,1.0521460854636686,0.0,0.0,0.0,0.0
0.02352096569824947,-0.13229428366661106,0.7370978743089308,-0.004666891136032257,-0.5198495707392126,0.005923222388504361,0.8542245368554553,0.1798820960491357,-0.7248139687038485,0.7719659013034786,-0.10940655538290135,-0.8189806482878434,0.9504277830862641,-0.2050491718046595,0.7390119047522804,1.0323335489304588,0.0503640478566268,0.6852208898908932,1.0512914437888272,0.0,0.0,0.0,0.0
0.023765784642637396,-0.1329804824418166,0.7366964782726789,-0.004758912485355436,-0.5200173041671504,0.006026279553379666,0.8541212092399009,0.18144378793781277,-0.7243006754702448,0.770401131561385,-0.10794864568526352,-0.822055446112424,0.9551084423204635,-0.1982483920257907,0.7374176617083646,1.0339869066537604,0.0400290163283443,0.6850660966569051,1.048177695708296,0.0,0.0,0.0,0.0
0.023972349069227336,-0.1337019105308609,0.7361981914219508,-0.004844455759422708,-0.5201778119444064,0.006122383784940944,0.8540223015975137,0.18310719166115197,-0.7237632735620506,0.7683726760437241,-0.10639334233581585,-0.8254195059756154,0.9597729247303611,-0.1912209492827803,0.7352212741192594,1.0364382508107064,0.030046572888488374,0.6851484334718232,1.0437560470659666,0.0,0.0,0.0,0.0
0.024147051567404817,-0.134472940923944,0.735607921075746,-0.004926168788179773,-0.5203330975731735,0.006213555429403058,0.853926573049406,0.1849046421020968,-0.723159136002698,0.7658395918600444,-0.10470691719432994,-0.8291052160620621,0.9645114811561362,-0.18380297271909693,0.7324441734398893,1.039588266292941,0.020245433736571748,0.6853054990212984,1.038581079480592,0.0,0.0,0.0,0.0
0.02428272299011936,-0.13530906896725992,0.7349242096901822,-0.0050071744010059096,-0.5204807219722949,0.006301987523203376,0.8538354825216471,0.1868682232155268,-0.7224142354932958,0.7626455890333634,-0.10285176961618454,-0.8331292690399035,0.9693264468420333,-0.1757902054530383,0.7290112188464543,1.0433995337938453,0.010504475604957228,0.6854946541929543,1.0328802819551384,0.0,0.0,0.0,0.0
0.024353916400430563,-0.1362310159101982,0.734137321186912,-0.005092687016663736,-0.5206143535226296,0.00639167714652049,0.8537528365448747,0.18903452026291523,-0.7213897423904602,0.758445891322486,-0.10077840906886643,-0.8374805381444121,0.9741037729304403,-0.16687681462179588,0.7247153887435849,1.0479074050664372,0.0007108479553956625,0.685730417090438,1.026618106723208,0.0,0.0,0.0,0.0
0.024330464967115436,-0.13725382154257787,0.733232459966184,-0.0051949326659249265,-0.5207253067476219,0.006494569878706321,0.8536837752641678,0.191409948705881,-0.7199980802876811,0.7529215039846877,-0.09846879127642735,-0.8421113847860519,0.9786577247673418,-0.15669363042933332,0.7192770055374014,1.0531986309753196,-0.00934600609937459,0.6860986587895699,1.0195331913212269,0.0,0.0,0.0,0.0
0.02419659834213036,-0.13836687860449678,0.732195081496694,-0.005340540314587785,-0.5208048735535425,0.006639374837078515,0.8536332239397665,0.19391109796214342,-0.7183887583365566,0.7461202708715182,-0.09600965307152393,-0.8469087512663391,0.9827719399441212,-0.14489131130445218,0.7124341372709628,1.0593884596131993,-0.020132085535951486,0.6868009309281563,1.0111261425384896,0.0,0.0,0.0,0.0
0.02396337448728548,-0.13951036408364778,0.7310139532508799,-0.005580260831709216,-0.5208422552684551,0.00688705333332817,0.8536069202579741,0.19628030496545726,-0.7171792044704824,0.7388215007944381,-0.09369279171335887,-0.8516425590180956,0.9861831414808,-0.13115380553685285,0.7039595850923894,1.0666258610666217,-0.0325232608711521,0.6881898974886642,1.0005720122033228,0.0,0.0,0.0,0.0
0.02370477209292661,-0.1405563149993254,0.7296975767741326,-0.006003008175662421,-0.5208167622085733,0.007359046486206361,0.8536156679268693,0.19799191597483182,-0.7178525841386371,0.7332162654465945,-0.0921407824163973,-0.8559953638234536,0.9887896069765565,-0.11502456549762105,0.6937383940991442,1.0749212145519504,-0.047960132703543525,0.690835150702673,0.9865265016280576,0.0,0.0,0.0,0.0
0.023429250092021337,-0.14143133673502892,0.7283104249873064,-0.0067241724173653815,-0.5206859648065428,0.008227138946717059,0.8536821573299588,0.1985033143579632,-0.7214911011881842,0.7307140291836687,-0.09194608898493913,-0.8593208330934234,0.9900933387024787,-0.09485604178030389,0.6812995633190153,1.083649692477079,-0.06739024713116692,0.6953758340706205,0.9666952948046885,0.0,0.0,0.0,0.0
0.02317410417490476,-0.1420574222356398,0.7271274658623618,-0.007814152158423637,-0.5204351230816798,0.009529398779719964,0.8538122816216096,0.19753451515235304,-0.7281244787342761,0.732201650882611,-0.09334803497287902,-0.8606068071830458,0.9896827046230138,-0.07074084162134503,0.6677987637367021,1.0905190051546345,-0.08762201301543822,0.7036342558404797,0.9387951260215929,0.0,0.0,0.0,0.0
0.023184550982687933,-0.14207721506478846,0.7271020706528776,-0.007841616644134144,-0.5204490842506896,0.009545751954024295,0.8538033370575786,0.19754730208312302,-0.7281391122775325,0.7321273781817018,-0.09333004374557226,-0.8606133180862142,0.9897200869949588,-0.07073696479609065,0.6677445091302745,1.0905069563821106,-0.08762785502537987,0.7036335700881232,0.9387874110459427,0.0,0.0,0.0,0.0
0.023184550982687933,-0.14207721506478846,0.7271020706528776,-0.007841616644134144,-0.5204490842506896,0.009545751954024295,0.8538033370575786,0.19754730208312302,-0.7281391122775325,0.7321273781817018,-0.09333004374557226,-0.8606133180862142,0.9897200869949588,-0.07073696479609065,0.6677445091302745,1.0905069563821106,-0.08762785502537987,0.7036335700881232,0.9387874110459427,0.0,0.0,0.0,0.0
0.022218941669678114,-0.1424004543752781,0.7277304310123445,-0.006780056505496146,-0.5213996452956956,0.008370154879694692,0.8532446198052438,0.18247255584085675,-0.75209728924984,0.7805653930506454,-0.0894743724443767,-0.8540347254604863,0.980249757443509,-0.08564777199255098,0.6753244425465903,1.088144740295921,-0.10024459973550784,0.701310084736704,0.9356734008470513,0.0,0.0,0.0,0.0
0.02045947164759465,-0.14366236383536837,0.7284875555510759,-0.005865620583062247,-0.5220524476398758,0.007264434919203181,0.8528622775065707,0.16616385356913355,-0.7685325726582816,0.8095536756469403,-0.08323799727278164,-0.8471396183611204,0.9684610297025217,-0.09036392730183798,0.6780824253316261,1.082368617108377,-0.10395208116292075,0.6973516657936538,0.9358601138131715,0.0,0.0,0.0,0.0
0.018372453518210166,-0.14568736857738493,0.7291599032049252,-0.005030606772104247,-0.5224232420190063,0.006232453889188488,0.8526487000590421,0.15210446292122745,-0.7790109103282772,0.8252764462051011,-0.07527570435768151,-0.8420875159953752,0.9578399926039882,-0.08667594280874469,0.677071681241109,1.0748618205722935,-0.1009236321019756,0.6919968075179118,0.9399330061293039,0.0,0.0,0.0,0.0
0.016181797555876603,-0.14814991360498433,0.7296412151050006,-0.0042573349495950924,-0.5226725320089655,0.00530507079112143,0.8525063962260724,0.14146451593354223,-0.7860767177558874,0.8337675650900302,-0.06653719582726157,-0.8383677522069936,0.9482641840776798,-0.07804387674324711,0.6737497306530345,1.0673339722987427,-0.09384393200593245,0.685680971406847,0.9474290840395696,0.0,0.0,0.0,0.0
0.01402648145589741,-0.15068308237317185,0.7300116142298119,-0.0035700105203345348,-0.5228389970665192,0.004519189944344646,0.8524119984453574,0.13367799724504495,-0.7912692421357755,0.8382807016826676,-0.058040148641022554,-0.8350694818589096,0.9390895025141847,-0.06754343036416946,0.6694866536925784,1.059990354709449,-0.08495814796682721,0.6793353266253589,0.9559402897312083,0.0,0.0,0.0,0.0
0.01202111040843524,-0.15301414019474213,0.7303949559548167,-0.002985674800953745,-0.5229513815316484,0.0038598143600178506,0.8523485438089452,0.12730733457596788,-0.7954922573004517,0.8407251679053587,-0.050414519560101484,-0.8315331132671258,0.9300214056605043,-0.057522518353682786,0.6656140564352265,1.0525150042853533,-0.07614197444658984,0.6738683639197534,0.963127136900836,0.0,0.0,0.0,0.0
0.010270085901147358,-0.15505928157140186,0.7307657892642192,-0.0025045596078325945,-0.5230174055186667,0.0033229769303549316,0.8523118434763263,0.12161864656410952,-0.7991715828539554,0.8419828232262405,-0.04386273677137856,-0.8281941618377563,0.9218394280785162,-0.04859809869904745,0.6623979782503503,1.045345026276117,-0.06803019792143605,0.6693956143152431,0.9688819854392163,0.0,0.0,0.0,0.0
0.008793763830969577,-0.1567999883404535,0.7310973008838212,-0.0021169281476774095,-0.523055947312856,0.002892226564388155,0.8522908128223421,0.1160834671914407,-0.8025827633547876,0.8426686845958927,-0.038376050243368265,-0.8252349585879278,0.9147865494204658,-0.04095449625329965,0.6598132637026151,1.0388786866944262,-0.06090352717965316,0.6657934746007915,0.9734729109117852,0.0,0.0,0.0,0.0
0.007577027820074492,-0.1582674972216022,0.73137968409082,-0.001805253737036253,-0.5230795815612311,0.0025396147638560088,0.8522781487105741,0.11035081250053784,-0.80582678158342,0.8431262155595479,-0.033791849131623045,-0.8227784802018613,0.9089689699323098,-0.03453084090338207,0.6577872808471926,1.0332416719305637,-0.054800455198722786,0.662895823956902,0.977190520671385,0.0,0.0,0.0,0.0
0.006565987264569104,-0.15950018613439865,0.7316166893971968,-0.0015535425730360609,-0.5230959314150383,0.002245109860807136,0.8522694365775533,0.10423787375296442,-0.8089185145345197,0.8436016386691394,-0.029952147424455743,-0.8207093673134516,0.9040977987387063,-0.029176301424547104,0.6561709000844477,1.0284203123886362,-0.04964112682147043,0.6605129574602334,0.9802420848661514,0.0,0.0,0.0,0.0
0.005704094102356008,-0.16054190295835571,0.7318164476750102,-0.0013476634902746725,-0.5231088656152001,0.0019930480234763327,0.8522624749908162,0.09769311618606914,-0.8117307684448546,0.8442863892916608,-0.026701210830106334,-0.818882785663815,0.8998454479418262,-0.0246992436277439,0.6548267419506087,1.0243140482937436,-0.04528084697328878,0.6584806382741497,0.9827924850805511,0.0,0.0,0.0,0.0
0.0049642613682692235,-0.16144673513608565,0.7319847263571437,-0.0011753168910134614,-0.5231179958735795,0.0017717510440888539,0.8522576147630792,0.09077742603479824,-0.8139566738206163,0.8453106679010683,-0.023872649105515814,-0.8173355749251605,0.8962087320789702,-0.02083080563320488,0.6536859828159892,1.020752877773314,-0.04148679630572959,0.656718228960526,0.9850162450208315,0.0,0.0,0.0,0.0
0.004318803092686536,-0.16225864284158387,0.7321279611631041,-0.0010270008098980214,-0.523125784518332,0.0015728493571457913,0.8522534159428848,0.08355338565457066,-0.81530754625032,0.8468222961504409,-0.021334254228468713,-0.8160389342836644,0.8931017677192324,-0.017355417403706393,0.6526961439834581,1.0175863479046177,-0.03806198380145882,0.655163598092277,0.987046050094894,0.0,0.0,0.0,0.0
0.0037440702463727195,-0.1630085284718471,0.7322514961216154,-0.0008956498334844004,-0.5231327598907163,0.0013898276307424246,0.8522496005981198,0.07608647081611056,-0.8157658109668247,0.8488055553504892,-0.018991945286702894,-0.814954612434494,0.8904257994059316,-0.014133224284549356,0.6518139157067533,1.0147008087771068,-0.03487383289337635,0.6537601204194666,0.9889661396873373,0.0,0.0,0.0,0.0
0.0032218994204800504,-0.1637160904701771,0.7323594074100822,-0.0007761500431888088,-0.5231379652446371,0.0012174272993107258,0.8522467863134376,0.06843396337998718,-0.815586370242016,0.8510912845888146,-0.016783221613484785,-0.8140494113892752,0.8880939821708412,-0.01108794902373582,0.6510071442771442,1.012018120873872,-0.03184789840866941,0.652459197234046,0.9908221174098535,0.0,0.0,0.0,0.0
0.0027380504282392215,-0.16439602880036602,0.7324560561890842,-0.0006646183053138814,-0.5231418485108068,0.0010516086560498823,0.8522447176359844,0.06063085773378056,-0.8150363303101661,0.8535288059508432,-0.01466118313732922,-0.8132832824919635,0.886025001025223,-0.00816509465098587,0.6502606180425259,1.0094702341058137,-0.02893053244176223,0.6512316508410428,0.9926380295556181,0.0,0.0,0.0,0.0
0.0022810745815565726,-0.16505968208019514,0.7325454443279182,-0.0005581481789687762,-0.5231451332381325,0.0008891437704132148,0.8522429626950419,0.05267584371185582,-0.814302908486726,0.8560246505404393,-0.01258937942794046,-0.8126179115524198,0.8841472271954579,-0.0053235348474207096,0.6495661674640216,1.006999437469942,-0.02608085140918466,0.6500576353254595,0.9944271884245849,0.0,0.0,0.0,0.0
0.0018421867340839616,-0.16571417285305456,0.7326308485413354,-0.00045491799216104445,-0.5231482640413622,0.0007275284702809542,0.8522412555036599,0.04451964324586506,-0.8134858049387125,0.8585381267629577,-0.010543620840435662,-0.8120188007352239,0.8823983678677207,-0.0025407222912999694,0.6489190930722357,1.0045640496158208,-0.023275942870348197,0.6489225852557412,0.9961917493263183,0.0,0.0,0.0,0.0
0.0014158077996562217,-0.16636017449031343,0.7327148412116817,-0.00035447875426892627,-0.5231513516054109,0.0005652792211239304,0.8522395309522122,0.03606834248021019,-0.8126245844377812,0.8610670677689712,-0.008518201890222394,-0.8114524805652902,0.880722551062403,0.00017643701196487114,0.6483191565227994,1.0021453890624588,-0.020522126770340737,0.6478188648824871,0.9979147510593875,0.0,0.0,0.0,0.0
0.0010007814494733082,-0.1669887330669687,0.7327994882413161,-0.00025813917743919875,-0.5231544336076662,0.0004027662870266508,0.8522377659668252,0.02722242104394657,-0.8117367776623957,0.8636355681427635,-0.006535913455768282,-0.8108817967445935,0.8790681789959024,0.0027788028898077083,0.6477739348664185,0.9997561435029146,-0.017868718356702534,0.6467520439769877,0.9995480801075307,0.0,0.0,0.0,0.0
0.0006027155228809794,-0.16757756479935634,0.7328864070831089,-0.00016934376518315734,-0.5231579743342696,0.00024375466104408695,0.8522356750317474,0.017984076478439998,-0.8108583346835168,0.8662854934777879,-0.004661312461807775,-0.8102642175027452,0.8773938837611459,0.005163696730155827,0.6473035361588926,0.9974509932909639,-0.015420932519508749,0.645751837659952,1.0010004222644144,0.0,0.0,0.0,0.0
0.00023811378297052183,-0.16808789676701832,0.7329760848065697,-9.394170867194909e-05,-0.5231634665567677,9.796956946778565e-05,0.8522323443974797,0.008672410898511522,-0.8100837216453572,0.8690660779501936,-0.003015452670599396,-0.809561797383669,0.8756951376211517,0.007173446654530121,0.6469442632487176,0.9953401144497168,-0.013343254640333065,0.6448875801760414,1.0021337635842424,0.0,0.0,0.0,0.0
-5.9961328731287556e-05,-0.16846469176253967,0.7330644463509265,-4.182128689676902e-05,-0.5231711663693565,-8.136501662485375e-06,0.8522276273769259,0.0002491134999616767,-0.8096143385842288,0.8719979856342647,-0.001803542131575953,-0.8087798450748382,0.874071115349181,0.008675605445614736,0.6467125606597917,0.9936001401726727,-0.011779563655978285,0.6442914157659749,1.002797977989577,0.0,0.0,0.0,0.0
-0.0002485987333642098,-0.16865200389369217,0.7331368441560799,-2.1287442536802404e-05,-0.5231853513338147,-4.358478612951636e-05,0.8522189189386281,-0.005537908826049161,-0.8098338953916072,0.8750024128775757,-0.0012459167465663614,-0.807982582030194,0.8727134819368753,0.009552942138480888,0.6466016101578533,0.9925058824423655,-0.010861235617937089,0.6440917945390413,1.002941255599732,0.0,0.0,0.0,0.0
-0.00024872935257124303,-0.1686535698653779,0.7331362896462983,-2.169620829360749e-05,-0.5231850270548555,-4.474299038277418e-05,0.8522191179461708,-0.005547678244890683,-0.8098297790998276,0.875004263556462,-0.0012396154025702284,-0.8079845965138127,0.8727120988054383,0.009550987707126236,0.6466049692476857,0.9925009901231415,-0.010858434520564123,0.6440865755832678,1.002946231371347,0.0,0.0,0.0,0.0
-0.00024872935257124303,-0.1686535698653779,0.7331362896462983,-2.1696208293607497e-05,-0.5231850270548557,-4.4742990382774203e-05,0.8522191179461708,-0.005547678244890683,-0.8098297790998276,0.875004263556462,-0.0012396154025702284,-0.8079845965138127,0.8727120988054383,0.009550987707126236,0.6466049692476857,0.9925009901231415,-0.010858434520564123,0.6440865755832678,1.002946231371347,0.0,0.0,0.0,0.0
-0.00024872935257124303,-0.1686535698653779,0.7331362896462983,-2.1696208293607497e-05,-0.5231850270548557,-4.4742990382774203e-05,0.8522191179461708,-0.005547678244890683,-0.8098297790998276,0.875004263556462,-0.0012396154025702284,-0.8079845965138127,0.8727120988054383,0.009550987707126236,0.6466049692476857,0.9925009901231415,-0.010858434520564123,0.6440865755832678,1.002946231371347,0.0,0.0,0.0,0.0
-0.00021290705546626545,-0.1687061139458154,0.7331276729159043,-2.7824128142089282e-05,-0.5231991801822713,-3.37434296398543e-05,0.8522104293798558,-0.005440830596638342,-0.8098636690660422,0.8751244325970945,-0.00113315641182719,-0.8082152688466582,0.8731841492067609,0.010005887239739449,0.6466498691204289,0.9923801091604711,-0.010403921678176952,0.6442460028001583,1.003216149668414,0.0,0.0,0.0,0.0
-0.00016178117605884215,-0.1687805140972385,0.7331139623204435,-2.5974186239502297e-05,-0.523219046181456,-3.0005644332458422e-05,0.8521982328883171,-0.005264073585842765,-0.8098864667686206,0.8752744755104261,-0.0009564340620719831,-0.8085860543533873,0.8738915896153576,0.010515458942761928,0.6467480323734341,0.9922387943010607,-0.009897870103291137,0.6444209916161412,1.003597953145047,0.0,0.0,0.0,0.0
-9.816254361570566e-05,-0.1688753909393459,0.7330963891702598,-1.991139869469063e-05,-0.5232418586858815,-3.0202103107983868e-05,0.8521842265674208,-0.005027505424800572,-0.8099097680584076,0.8754540270011704,-0.0007196477017021972,-0.8090796820948264,0.8748038858579408,0.011113207832067897,0.6468779395382456,0.9920620517227274,-0.009304667391115637,0.6446155438177023,1.0040760505692714,0.0,0.0,0.0,0.0
-2.3239369041748602e-05,-0.1689997343563013,0.7330760910232528,-1.1255922257097637e-05,-0.5232638755806979,-3.2714592012680224e-05,0.8521707078486842,-0.004711688690238443,-0.8099298112726131,0.8756415742146626,-0.00040337446074819553,-0.8097248339496272,0.8759579350960185,0.011878074794524336,0.6470226333737427,0.9917985194144635,-0.008542612024065714,0.6448328045477049,1.004666227746451,0.0,0.0,0.0,0.0
6.223760060131039e-05,-0.169171286578298,0.7330541044090011,-9.397443377953174e-07,-0.5232785062735157,-3.7114395424882695e-05,0.8521617237906175,-0.004272204464734435,-0.8099392764840756,0.8758020454345484,3.68902491036292e-05,-0.8105937981710225,0.8774471181699303,0.012935290886395475,0.6471589540721363,0.9913620670067728,-0.007481870459100783,0.6450695993605275,1.0054078624193126,0.0,0.0,0.0,0.0
0.00016138697741276757,-0.16941854449785165,0.7330299450218352,1.5830258938978447e-05,-0.5232827908246032,-5.211285214896007e-05,0.8521590918722091,-0.003616076619422962,-0.8098866921349873,0.8758630529100601,0.0006943324652936298,-0.8118094500650136,0.8794420998822701,0.014389969497897096,0.6473032536787799,0.9906573294302533,-0.006012804999115962,0.6453105942032401,1.0063844169024898,0.0,0.0,0.0,0.0
0.00029663675556588413,-0.16977890279892888,0.7330159841433194,0.00011558969200206694,-0.5233831981375292,-0.00025042547402040705,0.8520973840080938,-0.002225125970602138,-0.8087529208079995,0.8749964020163066,0.0020868545580989706,-0.8132587455385224,0.8819401578434337,0.01496655382956076,0.6483689220235207,0.9898369305600161,-0.005458132783562492,0.6454370412701469,1.0076179629507402,0.0,0.0,0.0,0.0
0.0005455512180302421,-0.17010846700085114,0.7329739312001865,0.00011736651549155381,-0.5232821825642218,-0.000228841919391545,0.8521594283156769,-0.001452143843682442,-0.810070201854514,0.8769775525914986,-0.006711681086143362,-0.8111006536326312,0.8754661166776107,0.017287434039793183,0.6484510909798306,0.9886098909144896,-0.003094312398047662,0.645917747134279,1.0087267353934253,0.0,0.0,0.0,0.0
0.0009063329014214101,-0.17053832038951347,0.7329063819309254,0.00018214439108637856,-0.523246278623401,-0.0003394696085263785,0.8521814263937978,-0.00010291144431451944,-0.811138196442697,0.8791532881686251,-0.018103042779946836,-0.8101501608471172,0.8704806274755279,0.019087226437970787,0.6492751679705677,0.9874471161352051,-0.0012776642851696643,0.6464097510150998,1.0102917989272966,0.0,0.0,0.0,0.0
0.0013117971244347017,-0.17105540914662568,0.7328287287566992,0.0002748011190363145,-0.5232380265757233,-0.0004996514314973101,0.8521863894582773,0.0015874163594065027,-0.8119734558987926,0.8812023055681355,-0.029324806133157306,-0.8100686927490699,0.866583947425018,0.021003768599800642,0.6503786362437433,0.9861358820334986,0.000655143073089985,0.6469478340636303,1.0121984394947128,0.0,0.0,0.0,0.0
0.001730368714686488,-0.17163290173859191,0.7327478338026817,0.00037512243667990917,-0.5232321904145139,-0.0006708241346401197,0.8521898169962885,0.00345875436807534,-0.8126866138751244,0.88310373473959,-0.039525865007491084,-0.8104515857262141,0.8632820297578773,0.023215408543741718,0.6515276205108126,0.9846347254955549,0.002900409890992526,0.6475221062100418,1.0143085944717942,0.0,0.0,0.0,0.0
0.002153588532627672,-0.17224788014577969,0.7326648413385022,0.00047581475049604993,-0.5232235177138959,-0.0008385655394232092,0.8521949430260988,0.005418331289329694,-0.8133467554853879,0.8849100245003272,-0.048721828172959294,-0.811044000546395,0.8603094423898289,0.025702091948487448,0.6526534134244423,0.9829923430737177,0.005444934083125172,0.6481368949467083,1.0165444465511637,0.0,0.0,0.0,0.0
