zhuoxili-jackie/tripod-support-walk/examples/trajectory_tripod_com_tilt_v0.05.csv
root_pos_x,root_pos_y,root_pos_z,root_rot_x,root_rot_y,root_rot_z,root_rot_w,FL_hip_joint,FL_thigh_joint,FL_calf_joint,FR_hip_joint,FR_thigh_joint,FR_calf_joint,RL_hip_joint,RL_thigh_joint,RL_calf_joint,RR_hip_joint,RR_thigh_joint,RR_calf_joint,FL_foot_joint,FR_foot_joint,RL_foot_joint,RR_foot_joint
0.0,0.0,0.72963,0.0,-0.5231245161092812,0.0,0.852256264656019,0.0,-0.81,0.872,0.0,-0.81,0.872,0.0,0.65,1.0,0.0,0.65,1.0,0.0,0.0,0.0,0.0
-9.98636550539855e-05,0.00014548766935818368,0.7295895892764878,-0.00020958019951386014,-0.523059965870358,-4.92292144692259e-05,0.85229585576625,-9.508213416555994e-05,-0.8105985124374202,0.8722711118629658,-9.508213416555976e-05,-0.8093702016265096,0.8705496482825568,9.627787427682755e-06,0.6492225139757577,1.000827068626149,9.627787427681867e-06,0.6494588863828537,0.9998179354304135,0.0,0.0,0.0,0.0
-0.0002243948458272471,0.0002887768079137503,0.7295512997662734,-0.0004165745404674322,-0.5229905171630016,-9.740549161803016e-05,0.8523383928554424,-0.00018936685169444699,-0.8110790613804173,0.8723011436952881,-0.0001889550458138623,-0.8086366923016005,0.8688790464314767,2.5068687677928383e-05,0.6483702971231339,1.0016367813442253,2.5786548060082252e-05,0.648843457931072,0.9996347274807658,0.0,0.0,0.0,0.0
-0.000346754216651326,0.0004000992785666549,0.7295361330748781,-0.0005752547393368274,-0.522925873428073,-0.00013260720764724705,0.8523779574794272,-0.00027019163188503174,-0.8113331307240865,0.8721007758072108,-0.0002691519836119066,-0.807946261531416,0.867357442344876,3.841076447001353e-05,0.6476729135773662,1.0021304586544022,4.018931230884846e-05,0.6483358307420146,0.9993602158862357,0.0,0.0,0.0,0.0
-0.0004576841325886709,0.0004811880342183907,0.7295417513734171,-0.0006881900075384529,-0.5228677692134938,-0.00015570497326103947,0.8524135135415085,-0.00033774036133705365,-0.8114146123132745,0.8717690913087662,-0.0003360863409362434,-0.8073396285205132,0.8660651262772333,4.8311619158858846e-05,0.6471498392858319,1.0023319960750836,5.108512718373295e-05,0.6479569281695706,0.9990054298694101,0.0,0.0,0.0,0.0
-0.0005539226547680589,0.0005403196588788375,0.729559739403126,-0.0007679688220676832,-0.5228163247384129,-0.00017019826788044912,0.8524449963742272,-0.000395065149620477,-0.8114019727946623,0.8714004788808153,-0.00039289534209083253,-0.8068258859700066,0.8649987603453667,5.4842071765066086e-05,0.646764415140416,1.0023449470442118,5.841059903518189e-05,0.647681668003775,0.9986155402506404,0.0,0.0,0.0,0.0
-0.0006348093333138814,0.0005849725558245409,0.7295829715822951,-0.0008259722348841636,-0.5227713964808964,-0.00017920346813657108,0.8524724937951943,-0.0004450889875197477,-0.8113538607586489,0.8710574296876239,-0.0004425036713684213,-0.8064005661949989,0.8641319759066625,5.841324254560619e-05,0.6464783580551383,1.0022597255003822,6.259049788002893e-05,0.6474824841055563,0.9982284509537648,0.0,0.0,0.0,0.0
-0.0007012201893042696,0.0006202415106967662,0.7296071632018803,-0.0008699493194343183,-0.5227327208856415,-0.00018479620656513602,0.8524961651257075,-0.0004899455671063314,-0.8113023833929157,0.870769089143216,-0.00048702257100935806,-0.8060525310280888,0.8634330891533962,5.9598074807416e-05,0.6462638524571543,1.002133496418842,6.42471076070169e-05,0.6473391159593221,0.9978656682964715,0.0,0.0,0.0,0.0
-0.0007548488183826247,0.0006491830531088883,0.7296303486020125,-0.0009045395039735934,-0.5226999303971651,-0.00018816607755161124,0.852516233959572,-0.0005310728054129527,-0.811259965259735,0.8705413485465977,-0.0005278684177713492,-0.8057680609741935,0.8628712923925551,5.905162322229788e-05,0.6461029814899272,1.001995601947605,6.407680962489984e-05,0.6472384607209986,0.9975352350906641,0.0,0.0,0.0,0.0
-0.0007974303042147085,0.0006736983967232049,0.7296518817505386,-0.0009326079579716186,-0.5226726066584413,-0.00019000158211629427,0.8525329556038674,-0.0005695163530996684,-0.811230045084633,0.8703711670313495,-0.000566070534933426,-0.8055342109572872,0.8624206102156037,5.739313352124561e-05,0.6459847640518602,1.001859209484202,6.272737749800621e-05,0.6471727569076042,0.9972371397058664,0.0,0.0,0.0,0.0
-0.0008299783580245797,0.0006954487135704048,0.7296715057503681,-0.0009566316978733778,-0.5226503953536283,-0.00019089439130886012,0.8525465457391883,-0.0006062325406513834,-0.8112172462910235,0.8702605073551618,-0.0006025699570078657,-0.8053413402860281,0.8620630227608782,5.5071056161766943e-05,0.645902615992079,1.0017326005232479,6.067289873322233e-05,0.6471382304503783,0.9969681301624792,0.0,0.0,0.0,0.0
-0.0008522203383427481,0.0007165896250171636,0.7296886238864587,-0.0009798106063112718,-0.5226330557707575,-0.00019166042971356385,0.8525571489660829,-0.0006423427225795382,-0.8112354936420926,0.8702272694602013,-0.0006384675948513944,-0.8051850795356315,0.8617906976658762,5.2273067930655e-05,0.6458521272834105,1.0016280309031664,5.8136044621427166e-05,0.6471338464436204,0.9967253795952807,0.0,0.0,0.0,0.0
-0.0008624331246464854,0.0007402164532187273,0.7297017950676409,-0.0010067422973812105,-0.522620359432825,-0.00019352489357640947,0.8525649001245401,-0.0006793144799810581,-0.8113129837631633,0.8703109485536884,-0.0006752002679490239,-0.8050675382129097,0.861606348490222,4.894229211471625e-05,0.6458285123595756,1.001567547880206,5.511337087351716e-05,0.6471594053103273,0.9965091728209722,0.0,0.0,0.0,0.0
-0.0008579056245430097,0.000770405163523626,0.7297084796257579,-0.0010434888478849879,-0.5226117498888377,-0.00019811428282024058,0.8525701324582524,-0.0007190482503978708,-0.8114927680267999,0.8705704725053544,-0.0007146246386313974,-0.8049974604672391,0.8615205432693224,4.496160204765147e-05,0.6458230373274888,1.001585108134795,5.156304373018674e-05,0.6472121600157075,0.9963247963067878,0.0,0.0,0.0,0.0
-0.0008362752723551591,0.0008116979487764036,0.7297051028521037,-0.0010968094730860142,-0.5226056980120585,-0.00020718445797878103,0.8525737730477693,-0.0007638315037901957,-0.811827171905066,0.8710710450733552,-0.0007589721276402301,-0.8049888055027562,0.8615445870994556,4.056530604553956e-05,0.6458179486186251,1.0017239034816467,4.781284080358215e-05,0.6472812965248107,0.9961836314640143,0.0,0.0,0.0,0.0
-0.0007979640821809377,0.0008678810724671612,0.7296875160689855,-0.0011723295166595343,-0.5225987331910792,-0.00022201565829108944,0.8525779380324305,-0.0008161136999271209,-0.8123640855222092,0.8718567894361543,-0.000810629898197622,-0.805057048155714,0.8616775652207869,3.7023404517240554e-05,0.6457796651190609,1.0020277795927297,4.5229628539299374e-05,0.6473398512464356,0.9961034288375147,0.0,0.0,0.0,0.0
-0.0007498197673746383,0.000940033814632923,0.7296518427681824,-0.0012716094723247814,-0.5225842115155575,-0.00024246580027989005,0.8525866912486663,-0.0008780856467423943,-0.8131242149814581,0.8729077885645239,-0.0008717362756065026,-0.8052124245269682,0.8618862916675798,3.7608641218611116e-05,0.6456499957310048,1.0025270530868917,4.714845687499208e-05,0.6473338257867136,0.9961081976955936,0.0,0.0,0.0,0.0
-0.0007098220159921516,0.001024256782644649,0.7295954434014373,-0.0013887233167021167,-0.5225509732665482,-0.00026586202681512413,0.8526068737132697,-0.0009511794943400629,-0.8140718287140616,0.8740851991036009,-0.0009437136265982853,-0.805449130199858,0.8620767323906461,4.880754457337375e-05,0.6453345491322112,1.003222893456595,6.0003882619731826e-05,0.6471682774467891,0.9962289141193967,0.0,0.0,0.0,0.0
-0.0007123727734002463,0.0011106003037518384,0.72951772648341,-0.0015086668701021072,-0.5224821745467331,-0.00028640431901058605,0.852648825236837,-0.001035943510300747,-0.8150872020647028,0.8750774112404913,-0.0010271861081745173,-0.8057257268553982,0.862051399775897,8.169885850888428e-05,0.6446881167917162,1.00407833122715,9.459845301538567e-05,0.646692315940913,0.9965022169561967,0.0,0.0,0.0,0.0
-0.00081281889368575,0.0011880979067052445,0.7294257741578296,-0.0016153634938774221,-0.522359393862053,-0.00029766500475847786,0.8527238507514588,-0.0011324809187404784,-0.8159213579839955,0.8753527580014882,-0.0011223933654792454,-0.8058762339332355,0.8613990800319292,0.00015216737018151688,0.6435358955067458,1.004997493940459,0.0001663584152383262,0.6457273463229257,0.9969129723634499,0.0,0.0,0.0,0.0
-0.0010786439200962457,0.00127637445667794,0.7294224039810657,-0.0017473517126995078,-0.5223514423166061,-0.00032248923797676847,0.852728452364787,-0.0011996485913323893,-0.8149395279501809,0.873202632222449,-0.0011880117149919505,-0.804101949919197,0.8581444039912612,0.0002239210616572929,0.6426258676554836,1.0055350027821937,0.000239879791912538,0.6450053952195159,0.9968499529358844,0.0,0.0,0.0,0.0
-0.0012004280945957675,0.0011898962640235107,0.7295357369978751,-0.0017884207056287245,-0.5226124785738178,-0.0004591390789705477,0.8525683479825044,-0.0005724333885846037,-0.8120077280670288,0.8698813053060469,-0.0018211871974986894,-0.8158035554639276,0.8590625166434308,0.00020181515012675867,0.6437332550774248,1.0049829391523104,0.00021919578914040931,0.6456393503393131,0.9966381701990314,0.0,0.0,0.0,0.0
-0.0013074488167407763,0.0010644259581683913,0.7297070185911035,-0.001788601027849752,-0.5229369291848187,-0.0005995563185071357,0.8523692917587634,0.00013601361615558482,-0.8084157527766858,0.8660207160215503,-0.0024875185137462398,-0.8316908738679476,0.8566337476368013,0.00016374532675516345,0.6453812850105827,1.0039025707499993,0.0001822966475155017,0.6467105858288268,0.9961408237766403,0.0,0.0,0.0,0.0
-0.001405725958753222,0.0009487265462982371,0.729868238829771,-0.0018051897073030191,-0.5232516573026671,-0.0007444532106168218,0.8521759737340346,0.0008401708888673903,-0.8049948471462226,0.8623595375801364,-0.0031660664260578066,-0.8487910649340754,0.8522160655889105,0.00013209614982435708,0.6469748924979374,1.0029174110452648,0.00015237819077876808,0.6477430401677904,0.9956712932909603,0.0,0.0,0.0,0.0
-0.0014867482883523114,0.0008541748425319764,0.7299964802999895,-0.0018520115190777254,-0.5235424900239133,-0.0008950753614359106,0.8519970833477021,0.0015242655004337677,-0.8020004669452486,0.8591751563445367,-0.003854101632277389,-0.8657169086165215,0.8468750980372215,0.00010808651192854016,0.6483792589563941,1.0022370205538327,0.000130935598214242,0.6486255088847819,0.9953646052008268,0.0,0.0,0.0,0.0
-0.0015438048215020647,0.0007763013447220986,0.7300910320343277,-0.0019220982729132377,-0.5238076815453607,-0.0010496230859330046,0.8518337376411436,0.002190813980782804,-0.7994666531492914,0.8565308063943305,-0.004550867808462625,-0.8819729296670205,0.8410474647377251,8.986440623883401e-05,0.6496093017619948,1.001844003242717,0.00011605541481465597,0.649365460258706,0.9952342820102723,0.0,0.0,0.0,0.0
-0.0015735209594574054,0.0007055832718251777,0.7301596898665146,-0.0020021041952186596,-0.5240498301960466,-0.001205471950346835,0.8516843980534474,0.0028483687857640285,-0.7973337246731873,0.8543851756783973,-0.005256315639919519,-0.8975212054492878,0.8348466024539558,7.524250799870161e-05,0.6507277954751588,1.0016380740725852,0.00010534170655195447,0.6500082682559544,0.9952446791424892,0.0,0.0,0.0,0.0
-0.0015751555455259837,0.0006327004623502459,0.7302116824259819,-0.002079462501575047,-0.5242731392094969,-0.0013605106907769958,0.8515465344593824,0.00350660802363961,-0.7955129805253072,0.8526563732994046,-0.005971032691713342,-0.9125033172197397,0.8282727541746545,6.230163565245495e-05,0.6518013002976228,1.0015120548808365,9.662140198183087e-05,0.6506026945445421,0.9953513000015509,0.0,0.0,0.0,0.0
-0.0015493144320442862,0.0005506382102848648,0.730254570240265,-0.00214514504018795,-0.5244818969666637,-0.0015135908524367776,0.8514175515866101,0.004174185687281224,-0.7939219713594231,0.8512620382758886,-0.006696242946819784,-0.9270968235011121,0.8213066522725347,4.9513956430455436e-05,0.6528829139189947,1.0013831660468873,8.81371069759091e-05,0.6511875953012733,0.9955178544469039,0.0,0.0,0.0,0.0
-0.0014964590310950605,0.00045518202426790685,0.7302933408807003,-0.0021942127562798903,-0.5246797053104029,-0.0016645496410930113,0.8512952610817597,0.004858005579546678,-0.7925027091800992,0.850144716415079,-0.007433798617160534,-0.9414608730401232,0.8139368435669548,3.5630198968856876e-05,0.6540097261653935,1.0012000969100383,7.848576869286761e-05,0.6517903690766731,0.9957201098213246,0.0,0.0,0.0,0.0
-0.001415608849045799,0.0003446560553134495,0.7303305234397455,-0.0022253526342178235,-0.5248690877086569,-0.0018140484441456417,0.8511781234276277,0.005563200058338487,-0.7912300080752511,0.8492868025341523,-0.008186181370245104,-0.9557249247161848,0.8061592272060345,1.9515724647833738e-05,0.6552063600902402,1.0009390828160003,6.648111653836742e-05,0.6524300987525249,0.9959439108097263,0.0,0.0,0.0,0.0
-0.0013036998752829795,0.00021922929943129547,0.7303666720252379,-0.0022398208864843634,-0.5250510426027504,-0.0019632700311613908,0.8510655271099553,0.0062934024365409,-0.7901134813974764,0.8487155607123915,-0.00895651487627733,-0.9699832104809698,0.7979716858328847,1.3692196894341384e-07,0.6564885332562654,1.000595551196213,5.113189980205636e-05,0.6531201072523308,0.9961817473001656,0.0,0.0,0.0,0.0
-0.0011561171813456164,7.983028516504826e-05,0.7304009392095608,-0.0022398150065846053,-0.5252242049764223,-0.002113434796058687,0.8509583133908406,0.007051127342791852,-0.7891934642374837,0.8484953975969838,-0.009748579509431886,-0.9842658802598102,0.789378885149732,-2.312451267899337e-05,0.6578627082360671,1.000173784302022,3.190668953119997e-05,0.653866280114119,0.9964300975389038,0.0,0.0,0.0,0.0
-0.0009689656203118132,-7.329621404893554e-05,0.7304316104083952,-0.0022263173583306757,-0.5253835696316702,-0.0022651355827875714,0.8508595756250825,0.007838202249720153,-0.7885285773258845,0.848702067256226,-0.010566825996463296,-0.9984652462978226,0.7804224044354843,-4.9722926781869885e-05,0.6593193195875572,0.9996763344717411,9.39310095323505e-06,0.6546587859317381,0.9966890631593897,0.0,0.0,0.0,0.0
-0.0007434892486767116,-0.00024204728479256272,0.7304564122300897,-0.002196957280053344,-0.525519266600137,-0.0024176803811688597,0.850775427849405,0.008656256956472461,-0.7881717332258539,0.8493739338975221,-0.011416411576604736,-1.0122090589112651,0.7712564006880432,-7.683886357855567e-05,0.660818527181538,0.9990976059789147,-1.3699003089894967e-05,0.6554565088780789,0.9969662225807412,0.0,0.0,0.0,0.0
-0.0004922470550855224,-0.0004310073806089428,0.7304722893258173,-0.002145379216561074,-0.5256167894684922,-0.002568976634733319,0.8507148689989509,0.009507359429435614,-0.7881332375609011,0.8504424956933406,-0.012303336991833056,-1.0247044895452373,0.7622930015727207,-9.83826717969474e-05,0.662271459694577,0.9984304162034456,-3.159820276471222e-05,0.6561679174658882,0.9972867688044929,0.0,0.0,0.0,0.0
-0.0002444638719278669,-0.0006456722148397889,0.7304746360392306,-0.002064441013388829,-0.5256613379188574,-0.002716867202443356,0.8506870837936023,0.010395224599599061,-0.7883352126217897,0.8516627861475271,-0.013234832295163713,-1.0346394593976933,0.7544279080145033,-0.00010534756360765248,0.6635313060217541,0.9976939934316927,-3.5703900499549765e-05,0.6566433555553773,0.9977080163931291,0.0,0.0,0.0,0.0
-4.3760060702901637e-05,-0.0008877408851579587,0.7304574496712298,-0.0019544315007009455,-0.5256494290058137,-0.0028626333439559686,0.8506942243331085,0.01132809284560174,-0.7885731703978045,0.8525981041161534,-0.014220075560538573,-1.0403256188573857,0.749277002681117,-8.960254365887111e-05,0.6644307709307279,0.9969723481822108,-1.7965023432077725e-05,0.6567139814978694,0.9983223001974785,0.0,0.0,0.0,0.0
7.285447390991007e-05,-0.0011514520739881792,0.7304175222595191,-0.0018294876384702837,-0.5256027809423136,-0.0030141655712107086,0.850722801179442,0.012321957080476658,-0.7885480094254734,0.8527744959312951,-0.015270211569477811,-1.0403704855762623,0.7490430160650466,-5.115238568028685e-05,0.6649030066038288,0.9963986854276042,2.2285477598870846e-05,0.6563104881509779,0.9992132774177083,0.0,0.0,0.0,0.0
0.00010949462581929411,-0.0014355047074486108,0.7303528049475093,-0.0016939367777729995,-0.5255228186796917,-0.0031744590084022946,0.8507718968296665,0.013384436722945656,-0.7882864428919975,0.8522406929383369,-0.016395492558909815,-1.034778323572047,0.7537034673406251,8.991880041952224e-06,0.6649557256572038,0.995998222442038,8.436726389007348e-05,0.6554371780029318,1.0003923751643986,0.0,0.0,0.0,0.0
0.00011354670180439667,-0.0017434790953263905,0.7302624244092859,-0.001541129690901768,-0.5253891276076188,-0.0033408546411646677,0.8508541168738902,0.014513842554195093,-0.7881580206263417,0.8515934744082246,-0.017605174243202616,-1.0249591079573628,0.7610633221680786,8.928882212120423e-05,0.6646734023833483,0.9956802247664212,0.0001666769463736897,0.6541748875432901,1.0017951669085563,0.0,0.0,0.0,0.0
0.0001403093291544578,-0.0020725222870110866,0.7301485974465186,-0.0013766566373664675,-0.5252061164809175,-0.003516817342761676,0.8509666691612036,0.015717366906575242,-0.7884396893680795,0.8513985379667772,-0.018910684155308465,-1.0126024281050616,0.7695255575483393,0.00017983776972764934,0.6642465317687934,0.9953932918853641,0.0002598997706116809,0.6527080719327183,1.003346825375136,0.0,0.0,0.0,0.0
0.00022930842643399682,-0.002416935108631725,0.7300119625289584,-0.0012123762761562502,-0.5249886627855251,-0.0037090274043820766,0.8511002744719007,0.01700802662145436,-0.7892758198620213,0.8520146082094241,-0.020326149195737758,-0.9990116033419968,0.7781939771923823,0.000270343954304723,0.6638387705164217,0.9951482303901198,0.000354505737600148,0.6511943846109076,1.0050117421842693,0.0,0.0,0.0,0.0
0.00040072515243629655,-0.0027734059289570567,0.7298524067057186,-0.0010577127918864693,-0.524750822747119,-0.003923974503664206,0.851246179253667,0.018402642951808514,-0.7907019149577372,0.8535878229217534,-0.021868075030052444,-0.9849667417854691,0.7866417499589333,0.00035400390335957327,0.6635516832568568,0.9949715312764403,0.00044426521117755136,0.6497266715088205,1.006785287003682,0.0,0.0,0.0,0.0
0.0006596427910317917,-0.0031442780368185876,0.7296715459711731,-0.0009145217070531268,-0.5245017574372686,-0.004166313419398079,0.8513986797780199,0.019922068505799983,-0.7926698928796909,0.8560954244824113,-0.02355536771331273,-0.9708193686915341,0.794693399295811,0.0004278949208242194,0.6634409626770763,0.9948579526847225,0.0005265863007036742,0.6483451115157567,1.0086699394693075,0.0,0.0,0.0,0.0
0.0010006065482085302,-0.00353941037172483,0.7294753436487272,-0.0007744700386920308,-0.5242458892554105,-0.004438343535688328,0.8515550181295524,0.021592611827560743,-0.7950558284633372,0.8593783137799968,-0.025409641488331636,-0.9566340025418489,0.8022775783053469,0.0004921020491669534,0.6635452594982203,0.9947356846268399,0.0006017277178513703,0.6470621441128684,1.010653561105645,0.0,0.0,0.0,0.0
0.001410266166990767,-0.003977722350439881,0.7292771239898557,-0.0006171632164494592,-0.5239852504256112,-0.004739962518843499,0.8517139245082787,0.023448362263269216,-0.7976448192362215,0.8631438136565283,-0.027455653794486497,-0.9422926341000165,0.8093399897457294,0.0005485481959084124,0.6639168383106459,0.9944359961139804,0.0006717213722655564,0.6458889461933645,1.0126894945063605,0.0,0.0,0.0,0.0
0.0018687302283546259,-0.004488372066579722,0.7291007380640405,-0.00040897800253676263,-0.5237228813300415,-0.005068953595317726,0.8518735129218429,0.02553376579898196,-0.800104021652241,0.8669519766863418,-0.029721804083646754,-0.9275450347698528,0.815792259153641,0.0005997513595126594,0.664651618923092,0.9936664253488666,0.0007392439178877304,0.6448614491637512,1.0146775545101518,0.0,0.0,0.0,0.0
0.0023513743395039443,-0.005109953672528098,0.7289823138601792,-0.00010490493915419302,-0.5234668157834558,-0.005422109009403007,0.8520288037985414,0.027905163724032418,-0.8019673835511332,0.8702169599616574,-0.032240711907614024,-0.9120246978128403,0.8214740995931207,0.0006472741181700666,0.6659142900340355,0.9920040282004171,0.0008063538985844039,0.6440637568377771,1.0164517171256529,0.0,0.0,0.0,0.0
0.002832655174046484,-0.005884635614544398,0.7289674304016627,0.000342148023157306,-0.5232344283500306,-0.005798219370646804,0.8521689953149415,0.0306291960805819,-0.802663782793368,0.8722609168643214,-0.035049940074394215,-0.8952708344025134,0.8261115042860859,0.0006895817280749982,0.6679457978953734,0.9889451258289658,0.0008730130103226497,0.6436405235656325,1.0177901167333319,0.0,0.0,0.0,0.0
0.003291958589143425,-0.006842689942065959,0.7290986515110176,0.0009580765529020785,-0.5230574837489175,-0.006204455484360554,0.8522742842041594,0.033775280657746806,-0.801621242249279,0.872450079222953,-0.03819290826028883,-0.8768070459113773,0.8292612206850093,0.0007192810974257472,0.6710264225632464,0.9840742633656174,0.0009353126180272963,0.643778861352676,1.0184778458421473,0.0,0.0,0.0,0.0
0.0037176196561772594,-0.007969799727842421,0.7293825371482363,0.001699874809938677,-0.5229895732082743,-0.006668516898853413,0.8523112973693516,0.03739789244097863,-0.7984860400684078,0.8704279130491985,-0.04171983506311449,-0.8563275295866681,0.8302390095119391,0.000720420548308152,0.6753246912023786,0.9774921467356368,0.0009830878968620162,0.6446063151427663,1.0185033263402752,0.0,0.0,0.0,0.0
0.004091461179994465,-0.00914034350059102,0.7296896214076629,0.002362950161666779,-0.5231108770473162,-0.007259454910229175,0.8522304424835617,0.04149470930826923,-0.7936235249497292,0.8664810645466022,-0.045688959782725,-0.8340876149800502,0.82799604780356,0.0006708464926686338,0.6803081544776356,0.9710203158346888,0.0009991568516895819,0.6457305993055489,1.0187650768564231,0.0,0.0,0.0,0.0
0.004390443637573306,-0.010117007431165139,0.7297729494639292,0.002586954246448307,-0.5235129052070479,-0.008081703486489462,0.8519754878035869,0.045996961913846904,-0.7881863561870566,0.8616613399199257,-0.05016149486283061,-0.8109016266082134,0.8204009691236237,0.000551244384733384,0.6847539174471258,0.9680624213033454,0.0009620782194625615,0.6462938691699274,1.0208905676983757,0.0,0.0,0.0,0.0
0.004548275315183172,-0.010649498833136595,0.7295834270652892,0.002056617163614895,-0.5239622668851227,-0.00916207266215599,0.8516897144095255,0.05059452513403887,-0.7845489409879032,0.8583321030959765,-0.05509742092259955,-0.7864942605734335,0.7998691833183778,0.0004694268756915875,0.6872814101055332,0.9695898371559314,0.0009709986706541039,0.6454928395444213,1.0241494132801665,0.0,0.0,0.0,0.0
0.004583137662593258,-0.01072049960958239,0.729568761717999,0.002098954740487646,-0.5239312662244421,-0.009196430463038429,0.8517083117641794,0.05083551549207182,-0.7846059165641007,0.8584151865711603,-0.05536897359187312,-0.7862992933111176,0.7998975131631527,0.00044802043946113354,0.6873750209360776,0.9693882869522413,0.0009677992670075148,0.6453452781587158,1.024364597755307,0.0,0.0,0.0,0.0
0.004583137662593258,-0.01072049960958239,0.729568761717999,0.002098954740487646,-0.5239312662244421,-0.009196430463038429,0.8517083117641794,0.05083551549207182,-0.7846059165641007,0.8584151865711603,-0.05536897359187312,-0.7862992933111176,0.7998975131631527,0.00044802043946113354,0.6873750209360776,0.9693882869522413,0.0009677992670075148,0.6453452781587158,1.024364597755307,0.0,0.0,0.0,0.0
0.0047433721680520645,-0.010662911183668834,0.7292983918910609,0.002002304434023668,-0.5236655284620092,-0.009208428827226865,0.8518718271642114,0.05085393858904492,-0.7882019876107883,0.8624301298904451,-0.05548041294243246,-0.7893529384353558,0.803188576004252,0.0006136926335023883,0.6857522752179954,0.9713706300739068,0.0011212191921276572,0.643924051165638,1.0259178474019648,0.0,0.0,0.0,0.0
0.004927834189529474,-0.010600771787774521,0.7290509260095983,0.0018927178408745275,-0.523533175618138,-0.00923214418304759,0.85195316723406,0.05088803929366365,-0.7910556422116997,0.8658725619747508,-0.05555076227628346,-0.7916219499976592,0.8058311127997393,0.000738946731515423,0.684678633901716,0.9734202248766584,0.0012403711469525138,0.6430272067596495,1.0274841696565662,0.0,0.0,0.0,0.0
0.005115673600463096,-0.010568175160456448,0.7288474360148157,0.001822427052762104,-0.5234855738069853,-0.00925067778415726,0.8519823693810468,0.050942232495082056,-0.7931380663809355,0.8685855811022278,-0.05557694529795135,-0.7933992340894446,0.8081327005153126,0.0008437419684763015,0.6840891760109372,0.9751274857125902,0.0013422522885041543,0.6425480240827585,1.0289130230638002,0.0,0.0,0.0,0.0
0.005300217682986899,-0.010577612417421691,0.7286797798445072,0.0018109430185399174,-0.5234964640333285,-0.009257491937063742,0.8519756284501457,0.051019652857611064,-0.7945465784560399,0.8705991016244506,-0.05556033812528295,-0.7948980675646191,0.8102889948225769,0.0009377050161089228,0.6838615599879703,0.9764721852949881,0.0014350091928562298,0.6423538281816228,1.0302734867427887,0.0,0.0,0.0,0.0
0.005487740587434188,-0.010629332559615954,0.7285347719566123,0.0018587434041590423,-0.5235557522211016,-0.009252310809023443,0.8519391493139913,0.05112259413089473,-0.7954174522659045,0.8720591526981905,-0.055503642300164115,-0.7962580116774347,0.8124496729147737,0.00102342339730302,0.683923371074311,0.9775477910829058,0.0015207138224074912,0.6423754925360254,1.0316573224925454,0.0,0.0,0.0,0.0
0.005691943260552589,-0.010719290518172489,0.7283998584222481,0.0019594667660959558,-0.5236622270213865,-0.00923732783590691,0.8518736433623512,0.05125345271756633,-0.7958877793694132,0.8731572688176621,-0.05540923451834141,-0.7975816582312508,0.8147557389295621,0.0010994690112526586,0.6842499468542234,0.9784682663292474,0.0015980041595546346,0.6425946963350291,1.0331455345541651,0.0,0.0,0.0,0.0
0.005928653195894491,-0.010844274573551537,0.7282651925068684,0.0021078991939189754,-0.5238185305712616,-0.009214683349211156,0.8517774318458586,0.051415267086338035,-0.7960691018991127,0.8740723317664765,-0.05527813725836074,-0.7989551259192776,0.8173482391882447,0.0011626309687057916,0.6848484235261281,0.9793244179223134,0.0016640047365079668,0.6430222562427632,1.034802008489424,0.0,0.0,0.0,0.0
0.006213487980039249,-0.011005374426786075,0.728125209773737,0.00230537169078416,-0.5240283573228008,-0.009184817551115974,0.8516481697916616,0.051612302502091104,-0.7960319196642699,0.874940121883969,-0.05510924432361025,-0.8004645329829291,0.8203831456991336,0.0012090101769954475,0.6857531126730196,0.9801529720161501,0.0017152798693614267,0.6436895516146497,1.0366675497772089,0.0,0.0,0.0,0.0
0.006570196220540042,-0.01121544577134674,0.7279816990834815,0.0025711747807978034,-0.5242925862139938,-0.00914342898281313,0.8514852146735871,0.05185365500142967,-0.7958287443227585,0.8759083554127518,-0.05489802335818584,-0.8022938190126314,0.8241923976035409,0.0012329401014455584,0.6870614386477195,0.9808640316737979,0.0017468889470369333,0.644673346860886,1.038740885995998,0.0,0.0,0.0,0.0
0.007013952222407936,-0.011498678558171811,0.7278450143614067,0.002942336969394565,-0.5246056215983165,-0.009080949173252669,0.851291854068107,0.05214991953279405,-0.795426666183195,0.8769894145588385,-0.05463640135121665,-0.8046449724997032,0.8291187261884553,0.0012310082542041309,0.6888768532301927,0.9812413190652273,0.0017565717240954986,0.6460432718926544,1.0409760199738607,0.0,0.0,0.0,0.0
0.007555932888614588,-0.011896953298330105,0.7277376978931595,0.003483582350657842,-0.5249505332118145,-0.008979718296967686,0.8510782378805987,0.052515288653639525,-0.7947190539227956,0.878087997685204,-0.05431189007519591,-0.8078110493393359,0.8356296352088686,0.001201873493971212,0.691330990185527,0.9808713508783248,0.001745356971308929,0.6478757360257276,1.0432575494899954,0.0,0.0,0.0,0.0
0.008209122136752353,-0.012472245206035399,0.7276968420348197,0.0042913297171499705,-0.5252959531781943,-0.008812850747805431,0.8508631380695534,0.0529682727592235,-0.7935534112679506,0.8790557294399662,-0.053907636104700646,-0.8122250415674946,0.8443992530153227,0.001145042160480239,0.6946058156527554,0.9790998691354195,0.0017181563437739902,0.6502724827340651,1.0453763687214213,0.0,0.0,0.0,0.0
0.008998533444345994,-0.01330258641547967,0.7277713124749071,0.005487879973740763,-0.5255942594789883,-0.00854578989286817,0.8506747480977878,0.05353076989097293,-0.7918171555984381,0.8798271910173577,-0.053404757756417245,-0.818501367954478,0.8563761348302715,0.0010577869674510561,0.6989467369350548,0.9750515758994645,0.001684306664555483,0.6533761622893717,1.047026507037051,0.0,0.0,0.0,0.0
0.009963792744202057,-0.014455367455774722,0.7280024130462746,0.007180974990008033,-0.5257844109245129,-0.008147026140188727,0.8505485364116658,0.054219307726728956,-0.7896090123329452,0.8806171522030848,-0.05279165590103672,-0.8273371041810181,0.8725884504673074,0.0009320968038098009,0.7045743205667064,0.9678931170683648,0.001659375292911196,0.6573125258342338,1.0478889660598307,0.0,0.0,0.0,0.0
0.011057044993911188,-0.015856295281370367,0.7283596245022175,0.009261658225452253,-0.5258509087484045,-0.0076425300679790415,0.8504919959585464,0.05499157798422872,-0.7871719942266728,0.8815018882451825,-0.052094041452944995,-0.8381704431780537,0.8919296990793851,0.0007677024582127883,0.7111230376596728,0.9581361742241692,0.0016704130800619971,0.6618105275640482,1.0479984430097251,0.0,0.0,0.0,0.0
0.012019568538467907,-0.01700052103339147,0.7285658676143368,0.010957646141037138,-0.5259823275868206,-0.007240538864747843,0.8503940825607539,0.055654136986263064,-0.7852708494176618,0.8824900738724917,-0.05146454181271602,-0.8469396836157117,0.9076190449286419,0.000600766569654347,0.7165584745499831,0.950907411555725,0.0017151313796215574,0.6655709035091439,1.048824229065579,0.0,0.0,0.0,0.0
0.012844308330188287,-0.017822318362779692,0.7286076368639591,0.01216482808561157,-0.526217847268955,-0.006971426718773633,0.8502341991373782,0.056195818797924804,-0.7840329969197639,0.8838033571510002,-0.05093560516969607,-0.8532921742354547,0.9192790880719558,0.0004491694521102427,0.720790386913195,0.9467744997575382,0.0017573846414745688,0.6686234281020548,1.0503862325733129,0.0,0.0,0.0,0.0
0.013549607142221014,-0.01838329342369694,0.7285362111345111,0.012975667907184118,-0.5265264130863974,-0.006808950773859677,0.8500324738232616,0.05663874378044015,-0.7833198012659793,0.885370294994362,-0.05050116818784726,-0.8577376791020229,0.9277969776685712,0.0003252785419612864,0.7240643885745334,0.9449926935955675,0.0017869919787549585,0.6711307830946969,1.0523695395169725,0.0,0.0,0.0,0.0
0.014147884752595577,-0.018766064662292775,0.7284048646982169,0.013515907476217335,-0.5268610411880835,-0.006716571575372754,0.8498174222676161,0.057005911059251915,-0.7829346383928955,0.8869854191950467,-0.05014309083264346,-0.8608673482192475,0.9340926969534359,0.0002341358416177712,0.7266176540156878,0.9446458356456515,0.0018106490785064144,0.6731997572473422,1.0544792657682274,0.0,0.0,0.0,0.0
0.014646494946863526,-0.019038403795182356,0.7282527175679916,0.013889176986054965,-0.5271839571319021,-0.006664242794121944,0.8496115312149312,0.057314897764015535,-0.7827044443616011,0.8884445857109143,-0.04984282069150172,-0.8631356256780571,0.9388471889338231,0.0001756597718352177,0.7286214801269839,0.945018998523215,0.001838401194054271,0.6748906818762126,1.0565186813107188,0.0,0.0,0.0,0.0
0.01505280628816211,-0.019246322436860787,0.728103979653238,0.014166026921529412,-0.5274727155750112,-0.006631941744700795,0.849427969491161,0.05757832776329114,-0.7825095516636573,0.8896148367281446,-0.04958550084777427,-0.864844070367278,0.942516239462932,0.000146771616742625,0.7301961804915361,0.9456532062862312,0.0018771045265441304,0.6762485217684958,1.0583794683519698,0.0,0.0,0.0,0.0
0.015376824604126324,-0.019417286885760873,0.7279713896572407,0.01438858480280452,-0.5277182984354812,-0.006608281823147405,0.8492718626771281,0.057805382593685346,-0.7822850509545789,0.8904484475406079,-0.04936049104959118,-0.8661785843335363,0.9453990598398738,0.0001427237731548223,0.7314336645035876,0.9462948329247867,0.001929044040893575,0.6773204773058794,1.060014072048877,0.0,0.0,0.0,0.0
0.015631411718978572,-0.019565663747382486,0.7278600241047681,0.014578776133232408,-0.5279210655864051,-0.006587966631978495,0.8491427480066162,0.05800302316949384,-0.7820095301205514,0.890968111500765,-0.04916059384461528,-0.8672495549391275,0.9476975041652754,0.00015796108089295306,0.7324120261222472,0.9468281499820917,0.001992785238695174,0.6781608836734494,1.061411387683309,0.0,0.0,0.0,0.0
0.015831478163214494,-0.0196973981079548,0.7277703149724003,0.014745475082743325,-0.5280871320678149,-0.006569579017748276,0.849036743928379,0.058176785197229325,-0.7816915638562774,0.8912451268113183,-0.04898107395267941,-0.8681211294918925,0.9495550685595548,0.00018668081284665364,0.7332027617837708,0.9472212223684062,0.002064463509319975,0.6788303807386545,1.062579777818054,0.0,0.0,0.0,0.0
0.01599316572286857,-0.01981308394157332,0.7277000410479019,0.014889228923046307,-0.5282260390949458,-0.006554140374856016,0.8489479405287985,0.05833124960144253,-0.7813590209095904,0.8913820119114844,-0.0488188805441129,-0.8688282978566484,0.9510787253257548,0.0002231220351746775,0.7338742649624255,0.947491461593504,0.0021387349495375057,0.6793943503922907,1.0635367348707658,0.0,0.0,0.0,0.0
0.016133364101432134,-0.01990955720145938,0.7276454319519897,0.01500470781961394,-0.5283496744524542,-0.006544386639565626,0.8488690424634093,0.05847030434779876,-0.7810522635255206,0.891502185175363,-0.048672140351314314,-0.8693844398583991,0.9523487733973601,0.00026163833920262423,0.7344938705437272,0.9476878626396199,0.0022092399853683763,0.679922373839218,1.0643034791023063,0.0,0.0,0.0,0.0
0.016269345710216068,-0.019980571500019268,0.7276016762513181,0.015081721491749342,-0.5284719705451504,-0.006544488346849729,0.8487915454911464,0.058597277859283786,-0.7808194325676072,0.8917431287125359,-0.048539823901082496,-0.8697826984559579,0.953420593896776,0.000296674437626405,0.7351287230719705,0.947883845018929,0.002268764592299592,0.6804879540213987,1.0649029454552696,0.0,0.0,0.0,0.0
0.016417860957176966,-0.020017308670140916,0.7275630701690274,0.015105959568504392,-0.5286090189802835,-0.0065598611048613975,0.8487056517194297,0.05871498837268002,-0.7807083603826228,0.8922432668309828,-0.048421324141179035,-0.8699926140752577,0.9543184459018654,0.0003227413849914463,0.7358443402255664,0.9481754453050121,0.0023093825774190687,0.6811662852271352,1.0653615559549647,0.0,0.0,0.0,0.0
0.01659785955435602,-0.02000670441709192,0.7275225935902343,0.01505626031757449,-0.5287811511499363,-0.006598075148706229,0.8485990034274903,0.0588259461713669,-0.7807770523795183,0.8931682541111612,-0.04831669395746413,-0.8699554335313279,0.9550400107037451,0.0003338263749291898,0.7367160613744776,0.948691908376128,0.002321509833580423,0.682047322659913,1.0657076181905805,0.0,0.0,0.0,0.0
0.016840205152896727,-0.01992672938527596,0.7274732439033521,0.014897006106366573,-0.5290149676296357,-0.006671208576021152,0.8484555016080793,0.05893296328696334,-0.7811482130889525,0.8948235262892342,-0.04822848117375796,-0.8695951133845964,0.955605752121444,0.000321889921773334,0.7378696542789103,0.9495913082610385,0.002291251666231256,0.6832795272852095,1.065935798372986,0.0,0.0,0.0,0.0
0.017135101145351602,-0.019784376659995304,0.7274232890567565,0.014637390631789015,-0.5293130050643181,-0.0067771063762249294,0.8482732816106133,0.05903791389012711,-0.7816978809027882,0.8970382861145649,-0.048149474237558165,-0.8688523675085168,0.9559408960224745,0.00028684894905423383,0.7393324429463756,0.9507815417100589,0.0022207616884555048,0.6848742732046704,1.0660089922142009,0.0,0.0,0.0,0.0
0.017443124607927827,-0.019618971996234493,0.7274044396902576,0.014336822627679787,-0.5296500752835418,-0.006897974876688428,0.8480670204716615,0.05914383325839592,-0.782092544554808,0.8992646025856438,-0.04806277530982493,-0.8677509303088118,0.9560109733908316,0.0002357153985992175,0.7410972194040243,0.9518140530868674,0.002128032862236581,0.6867640388936295,1.0657801248725933,0.0,0.0,0.0,0.0
0.017718228678823868,-0.019513407860218514,0.7274928620974864,0.014122807615895074,-0.5299652822167181,-0.006995594070624714,0.847872872318485,0.059259928598356305,-0.7818339802701981,0.9007483203650025,-0.04794060776816942,-0.8665437562766521,0.9561269431353517,0.000181356244751539,0.7432776764742816,0.9516063473596422,0.0020472921920495412,0.688940166199635,1.0648052257088747,0.0,0.0,0.0,0.0
0.01791995143956758,-0.019655938732561898,0.7278951283639531,0.014286343182306933,-0.5301167797358084,-0.006983257189708798,0.8477755212083186,0.05941149164065211,-0.780025011111279,0.9003748926498046,-0.04772910320076785,-0.8660399114495382,0.957578759180852,0.00014680285436162634,0.7464806610612021,0.9473019250024777,0.0020472062536544323,0.6917228852639732,1.0616996836784793,0.0,0.0,0.0,0.0
0.0181918668688613,-0.020443254795875852,0.7293334347330163,0.015422729275258075,-0.5298252450185249,-0.006688635659724281,0.8479402168288597,0.05967324862306334,-0.7748862357155019,0.8974821040239316,-0.047308213362708705,-0.8680348784397098,0.9647389989888925,0.00014647532099835178,0.7542313269917962,0.9298350111631251,0.002239850092972253,0.6978441246269919,1.0507542721427279,0.0,0.0,0.0,0.0
0.01815236783743137,-0.021175530041022964,0.7313231320675978,0.016354113000896092,-0.529227410508294,-0.006381107898152068,0.8482983982164718,0.05982272937449113,-0.7687259195366618,0.8930223356859331,-0.04694668933606298,-0.8679993657263989,0.9693096292352553,-0.0004601891406241733,0.7225595388075583,0.97768507053963,0.003356360530015684,0.7048737965438954,1.0346360027717658,0.0,0.0,0.0,0.0
0.018265090106724557,-0.0219370670555942,0.733441196493759,0.01731632561966497,-0.5287263500986081,-0.006077929514389683,0.8485939254739312,0.06000451077469201,-0.7621300921149019,0.8889565344143479,-0.04653780097812314,-0.8677913515136588,0.9746652311898227,-0.0010518292990657524,0.6981117362371771,1.0144616654433618,0.0043398574699582085,0.7133873669107534,1.0170508227603565,0.0,0.0,0.0,0.0
0.01851570456231234,-0.022667340440034763,0.7354285485622889,0.018235091510974508,-0.5283291297466234,-0.00579937171905055,0.8488239978855606,0.0602118896573596,-0.7560740356164358,0.8858758249644252,-0.046123455973265476,-0.8678494053401847,0.9805846711121705,-0.00163271810260007,0.6803610973582516,1.0441076554179107,0.0051817451854747325,0.7222022009214947,1.0001488279636817,0.0,0.0,0.0,0.0
0.01883791072408572,-0.0233194368966216,0.7372283382067514,0.019041767114819568,-0.5280397644484789,-0.005561945805736189,0.8489879168899838,0.06042424367373128,-0.7506313332826372,0.8835589454385091,-0.04572495038736456,-0.8678250304449592,0.9862561535268352,-0.0022110987024863277,0.6672146186111525,1.0701693717596792,0.005912903285558793,0.7308290107262468,0.9844944927188447,0.0,0.0,0.0,0.0
0.019194216178137602,-0.023892097493434076,0.7388514045817037,0.019735085271055122,-0.5278375173833216,-0.005362895825967308,0.8490991231889923,0.060633105777459305,-0.7457326385922358,0.8817940153438634,-0.04534881502589313,-0.8676398144967478,0.9914602513538241,-0.0027957353807520017,0.6569140498869702,1.0945549716333451,0.006568073567144707,0.7391014350377989,0.9700966694787013,0.0,0.0,0.0,0.0
0.019569355066321056,-0.02440400980845838,0.7403279938850599,0.020343243548367463,-0.5276973424310174,-0.005191811518839115,0.8491729578397597,0.060837304018568364,-0.7412802169556102,0.880431536512486,-0.044993422866267785,-0.8673631608387147,0.9962862861930855,-0.003395716433856402,0.6482243523330733,1.1182857345931736,0.0071750512087779186,0.7470090388502559,0.9567804800441788,0.0,0.0,0.0,0.0
0.019954475619070728,-0.02487395795760628,0.7416873105710573,0.020893832054419283,-0.5275990609513326,-0.00503898847109181,0.8492215772462108,0.061036966213479954,-0.7371768535825188,0.8793461714638414,-0.04465523144567105,-0.8670626538722545,1.0008459734798019,-0.004020412985509909,0.6403703258575166,1.1419117884009424,0.007755610034830741,0.7545825550716988,0.9443536448339651,0.0,0.0,0.0,0.0
0.020343975017852726,-0.02531547515251486,0.742951147121772,0.02140624838570295,-0.527528400063708,-0.004897463420453408,0.8492535395912809,0.06123219243646422,-0.7333520773642936,0.8784508468409048,-0.044331418649393495,-0.8667842950547482,1.0052212277980996,-0.004679505989398799,0.6329266545574017,1.165732684394624,0.008326688200621015,0.7618538771622156,0.9326651724092565,0.0,0.0,0.0,0.0
0.02073462212370034,-0.025736039403345703,0.7441332226713696,0.02189079900157738,-0.5274765623478155,-0.004763184784211813,0.8492741495909993,0.061422763843368894,-0.7297679807762547,0.8777009048466448,-0.04402069010734341,-0.8665525900538185,1.0094590673093293,-0.005383090943140044,0.6257055386336773,1.1899132824113465,0.008901498779926862,0.7688452000312299,0.921618215816632,0.0,0.0,0.0,0.0
0.021125201573636287,-0.026137472170062827,0.7452401022522575,0.022349452025510856,-0.5274393718462659,-0.004634737901456109,0.8492860120272561,0.06160816433685384,-0.7264187100552235,0.8770937797038183,-0.04372342474355082,-0.86637442733537,1.0135768117749095,-0.006141821033871807,0.6186682335773559,1.214538747810994,0.009490366330416524,0.7755670202948951,0.9111676042371594,0.0,0.0,0.0,0.0
0.021516354238645393,-0.02651638861601122,0.7462721365543074,0.022776590170580542,-0.5274167721837467,-0.004513112411477949,0.8492893542108252,0.06178767663108257,-0.723328111229178,0.8766672470110716,-0.04344160911807268,-0.8662413412437907,1.0175664689343566,-0.006967067251942092,0.6118672906584314,1.2396317924847684,0.010101173699071365,0.7820187676848391,0.9013155736382507,0.0,0.0,0.0,0.0
0.021910064458040335,-0.026864543982245807,0.7472239664506198,0.023159556745872785,-0.5274124294590347,-0.004401535073077518,0.8492822797353387,0.06196045773660726,-0.720546740948854,0.8764945433355127,-0.04317871010184735,-0.8661301017057491,1.0213948130633186,-0.00787109325613497,0.605410636625995,1.2651353915053782,0.01073975622396838,0.7881870744470887,0.8921108779475314,0.0,0.0,0.0,0.0
0.022307774746505034,-0.027169454044644756,0.7480844499363895,0.023479531019018816,-0.5274325249307502,-0.004305106077483337,0.849261508211671,0.062125471010354615,-0.718147632307704,0.8766697748661715,-0.042939526882896706,-0.8660041364331185,1.024997300382205,-0.008867253659582115,0.5994332439988793,1.2908461609443251,0.01141113434069545,0.7940348332337497,0.8836546180088326,0.0,0.0,0.0,0.0
0.022705603780720507,-0.027415737466933838,0.7488357729850043,0.023713338804040175,-0.5274829419748557,-0.00422993191221036,0.8492240759448203,0.062281023639523224,-0.7162171453499064,0.8772711495703717,-0.04273001301724932,-0.8658158491343224,1.0282593604723682,-0.009970221668792764,0.5940698124272062,1.3162640378453039,0.012122623198558497,0.799472434477444,0.8761183473461015,0.0,0.0,0.0,0.0
0.023083428873480853,-0.027586552721594396,0.7494513387867994,0.023834991536016495,-0.5275636177290525,-0.004181818292204029,0.8491707924928196,0.06242319190159398,-0.7148379012231783,0.8782839620688078,-0.04255753979292131,-0.8655006037914253,1.0309598854558106,-0.011196267043570723,0.5894294697032055,1.3403054594019814,0.012890864017233942,0.8042957351037586,0.8697803565565053,0.0,0.0,0.0,0.0
0.02339027288277033,-0.027664384264165592,0.7498950365623435,0.023815777267501188,-0.5276631717253063,-0.004165366811936084,0.8491095545789463,0.06254374019389282,-0.7140519018904592,0.879489306487345,-0.042430683413278186,-0.8649454038006453,1.0326754143030104,-0.012563633462044643,0.5856235241946166,1.3608683518143425,0.013748766283408933,0.8081200082236567,0.8650525879332114,0.0,0.0,0.0,0.0
0.02358093461405264,-0.027653068401229997,0.7501311468903444,0.023659682410046158,-0.5277495006174551,-0.004174900198037098,0.8490602182617079,0.06263951153145514,-0.713948038310141,0.8806977700485926,-0.042353129316846136,-0.8642620060574798,1.0332556263732975,-0.014092744425645821,0.5831306581831696,1.3743056590507448,0.014737746989314262,0.8105125486913561,0.8623718440115812,0.0,0.0,0.0,0.0
0.02361185984666728,-0.027568163666835316,0.7501340664465586,0.023387165734763352,-0.5277772593558633,-0.004199184066237179,0.8490503941692072,0.06270946035429861,-0.7146114048830366,0.8817123886571839,-0.0423253872669543,-0.8636501078363795,1.0326735648856362,-0.015806555090585726,0.5833795538044553,1.3750900316663963,0.01590740500762076,0.8110618485894806,0.8620750260504192,0.0,0.0,0.0,0.0
0.023468717066008313,-0.027405978572501936,0.749904239586712,0.022988165853220558,-0.5277377811598413,-0.004239167741962711,0.8490856305603386,0.06275316876100581,-0.7160499116769626,0.8824798255772038,-0.042347404516201594,-0.8630698433981734,1.0308193060340252,-0.01772770377634175,0.5863061728346582,1.3632066495325226,0.01728193341630015,0.8097053076471638,0.8641583849619998,0.0,0.0,0.0,0.0
0.023163320576647252,-0.027147226808524265,0.7494696022805533,0.022427579009635795,-0.5276529794493003,-0.004305926137228687,0.8491529873810393,0.06277072273410621,-0.718190970648728,0.8830649243041685,-0.042418181396655305,-0.8622690256540193,1.0275182161278515,-0.01987884825908609,0.5903788336547646,1.3441274480833638,0.01886469762408876,0.8067121072976456,0.8682623965887545,0.0,0.0,0.0,0.0
0.022701993123256957,-0.026794870158064688,0.7488754765627461,0.021702078578545034,-0.5275152726081307,-0.004399235229840313,0.8492569126477174,0.06276433477635278,-0.7209429110785912,0.8834608484862426,-0.04253212964212822,-0.8611537495939198,1.0227785992211436,-0.022285976277619555,0.5950161067044981,1.3213986324973284,0.020678500717337376,0.8023438603063078,0.8738606646883597,0.0,0.0,0.0,0.0
0.022058022597570344,-0.02637569379166353,0.7481736302593057,0.020841440490833772,-0.5272792869827811,-0.004505139596825853,0.8494244472549692,0.06273416803414228,-0.7241487131617264,0.8833906740231908,-0.04268035295340492,-0.8597542160057254,1.0166210069720492,-0.02497871891389159,0.5999118871379832,1.2969120050926861,0.02277997570770347,0.7966788554641646,0.8804258292203444,0.0,0.0,0.0,0.0
0.021167943898742055,-0.025936012174250747,0.7474214938431013,0.019901217518165967,-0.5268658938423588,-0.004597608502953254,0.8497029677734688,0.06267733553832237,-0.7275707117753056,0.882283436714013,-0.042852192313378924,-0.8581715147816341,1.0090036223587298,-0.027990736694260998,0.6047337757587322,1.2714884005585831,0.025259307249378058,0.7896069394349785,0.8874405763993302,0.0,0.0,0.0,0.0
0.019937250090376193,-0.025536802653759433,0.7466834554663025,0.018954259381346646,-0.5261659703111309,-0.004640584801315286,0.8501579692683898,0.06258859892663889,-0.7309149230957678,0.8793377100164187,-0.04303737062347482,-0.8565561807157844,0.9998205503724695,-0.03136017753252383,0.6090425460669827,1.2453006912860318,0.028235723298669108,0.7808707412670496,0.894357157245048,0.0,0.0,0.0,0.0
0.01825051213680825,-0.02524939830823638,0.746030410422459,0.01808223904396378,-0.5250474259335989,-0.004589481795258576,0.8508684797361515,0.06246064296256293,-0.7338578163382531,0.873600377139462,-0.043228777160972356,-0.8550922090215449,0.9889220699806583,-0.03513014592423146,0.6122969757329606,1.2181411279824945,0.03185360008857198,0.770129005775539,0.9005622259047947,0.0,0.0,0.0,0.0
0.015985537027636346,-0.025149173404241956,0.7455380560677545,0.017362447456200664,-0.5233611404006179,-0.004393599257328611,0.8519227420502762,0.062285252928905424,-0.7361091522927622,0.8640968858346483,-0.04342567849835495,-0.8539969706464082,0.9761601016057873,-0.039349246353989537,0.6138518859822528,1.189580139643458,0.03627437017472884,0.75703391277277,0.9053213433759848,0.0,0.0,0.0,0.0
0.013034168558680621,-0.025306652033715807,0.7452796084201824,0.0168498705435474,-0.5209543615249428,-0.003999889260029044,0.8534088328326069,0.062054378803489366,-0.737490682502596,0.8500013192183486,-0.04363728731032129,-0.8535155687801602,0.9614452905565044,-0.044072101853100704,0.6129754631827448,1.159087565532897,0.04166447580016336,0.7413336752881725,0.9077569034962182,0.0,0.0,0.0,0.0
0.00933345027577455,-0.025774039562025872,0.745310177078225,0.016553911762993853,-0.5176931329136961,-0.0033598196404460955,0.8553996140701309,0.06176263337419403,-0.738061556180336,0.8309037430342184,-0.0438860574446081,-0.8539277069879283,0.9448459188541591,-0.049359853437028305,0.6089166943005201,1.1261899987338575,0.048174477560585065,0.7229965347863485,0.9068891725247848,0.0,0.0,0.0,0.0
0.004914395541149912,-0.026565649066788922,0.7456399188516357,0.016413298366938184,-0.5134977798730951,-0.0024416995464339353,0.8579304586068996,0.06141368917016635,-0.7383300390070925,0.8072712922929108,-0.044209231583349134,-0.8556026486520041,0.9267994184905297,-0.05528065925787784,0.6011342335801579,1.0907424664857002,0.055903031868381414,0.7023513002044985,0.9018024662002742,0.0,0.0,0.0,0.0
-1.7568802284013453e-05,-0.02763626374823525,0.7461827920223087,0.016285239148731166,-0.5083800106559352,-0.0012484489339707739,0.8609779306849852,0.061037348909968196,-0.7397483079481065,0.781389908977161,-0.044657949957746294,-0.8593338374338805,0.9087304118698996,-0.06191056993622855,0.5899331735926463,1.053221646971822,0.0648427855969019,0.6801292275219721,0.8921369316035656,0.0,0.0,0.0,0.0
-0.004980791639629949,-0.028814919428597992,0.7466403730770004,0.01588982441255037,-0.5024112213774273,0.00014812679262146195,0.8644827680021351,0.06070693456389582,-0.7463140747832928,0.7596822858463721,-0.045333553511609684,-0.8672914621727464,0.8942335943555775,-0.0693386680810055,0.577836749362854,1.0137247380236105,0.07485454517929178,0.6569348156975434,0.8791878939895192,0.0,0.0,0.0,0.0
-0.009535479989723226,-0.02997386020901953,0.7466255183514863,0.015073068515486435,-0.49582152823418896,0.0016631178648956362,0.8682920296674432,0.060516824542635635,-0.761163384513143,0.7475795869890959,-0.046264596830151314,-0.8812681788182198,0.8864260893038335,-0.07767082671547972,0.5658498754287064,0.9714605879650922,0.08570162133909737,0.6327347942409716,0.866319988870969,0.0,0.0,0.0,0.0
-0.013392127021347282,-0.03105862863835711,0.7460353291613798,0.01380189272252357,-0.4888496596640381,0.0032314249001806723,0.8722528738254431,0.060525222345469566,-0.7852404560032487,0.7477440826321434,-0.04743164793111212,-0.9016728814148225,0.8869412242210797,-0.08702278019444905,0.5542389462515781,0.9246140850895078,0.09720957509137321,0.6080956779188947,0.855147036014214,0.0,0.0,0.0,0.0
-0.01600251786728902,-0.031877710085447895,0.7451928991452639,0.011949267637029314,-0.4821484343525136,0.0046683741523459036,0.8759956098846228,0.06076640110820852,-0.8171673020785873,0.7625618206909575,-0.048742798184822377,-0.9261090661746324,0.8964059194265556,-0.09745882574146254,0.5449147189023776,0.8773426583839188,0.10895417477349045,0.5872668915565138,0.8439083129597256,0.0,0.0,0.0,0.0
-0.01597404060234947,-0.031968677017394455,0.7449919286682691,0.011780546944786731,-0.4821650702100748,0.004758261916537357,0.8759882549021584,0.06081798257943225,-0.8175662570045905,0.7621412635713869,-0.04878003054575935,-0.9262881604676849,0.896318190016522,-0.09823374688867942,0.5448442522219382,0.877345143479392,0.10938395770143013,0.5875161410194807,0.843830178222197,0.0,0.0,0.0,0.0
-0.01597404060234947,-0.031968677017394455,0.7449919286682691,0.011780546944786731,-0.4821650702100748,0.004758261916537357,0.8759882549021584,0.06081798257943225,-0.8175662570045905,0.7621412635713869,-0.04878003054575935,-0.9262881604676849,0.896318190016522,-0.09823374688867942,0.5448442522219382,0.877345143479392,0.10938395770143013,0.5875161410194807,0.843830178222197,0.0,0.0,0.0,0.0
-0.0158878467664692,-0.03177818648717272,0.7450335346114411,0.011546193400510657,-0.4834128190257861,0.0045972006583617315,0.875304288556618,0.06071166598014122,-0.8108067345474151,0.7561058333309406,-0.048595848579390775,-0.9186719163473237,0.889327144985575,-0.09943553912253814,0.5474662135522721,0.8820140649426179,0.10931010898326855,0.5909926651952722,0.8455727970973949,0.0,0.0,0.0,0.0
-0.015780102776793228,-0.031542891404044406,0.7450915923643795,0.011270643140503587,-0.4843631628309999,0.0044397468333699005,0.8747831661295302,0.06058937238410795,-0.8062498207302176,0.7525973746425177,-0.04851488310074168,-0.9126802266286959,0.8838984660353206,-0.10052117019044236,0.549690869453381,0.8855743891735869,0.10929237503500323,0.5938632631217712,0.8465868464397036,0.0,0.0,0.0,0.0
-0.01567208426136217,-0.031327949970260685,0.7451536379438668,0.011035896255528569,-0.4850931170198108,0.004311607042822214,0.8743822315546843,0.06045562104203883,-0.8030012216879884,0.7504121102904101,-0.048499163100038885,-0.9080435552645539,0.879785982824609,-0.10146914669889759,0.5515656647016189,0.8882161895220955,0.10927872655356256,0.5961997418068455,0.8472141671904995,0.0,0.0,0.0,0.0
-0.015570427277981587,-0.031131126533038546,0.7452125094376529,0.010833283514360978,-0.4856632896792031,0.0042086298054467685,0.8740687023692317,0.06030593553925532,-0.8006680971135266,0.7490935261322655,-0.04853796347199722,-0.9043800569688735,0.8765881754432928,-0.10228807854908936,0.5531210570704835,0.8902554566758842,0.10925364799312494,0.59812343726996,0.847576743668495,0.0,0.0,0.0,0.0
-0.015480287860455827,-0.030939923071093476,0.7452655887732509,0.010642353671949939,-0.48611505011854184,0.004123095223111142,0.8738202895574981,0.06013492762384746,-0.7990254709284412,0.7483994906170776,-0.048627416259881345,-0.9013737714193859,0.8739551830347465,-0.10299198797659079,0.554383831833648,0.8919190696860094,0.10921244589937798,0.5997295773036629,0.8477183748861659,0.0,0.0,0.0,0.0
-0.015407327661104774,-0.03073798091395568,0.7453124390899628,0.010438547910136113,-0.48647818998985887,0.004046249226238149,0.8736209906183102,0.0599366627208707,-0.7979324878829048,0.7481867438169223,-0.04876704566630648,-0.8987518124612524,0.8715685130974764,-0.10359545475108815,0.5553721830698674,0.8933796843887476,0.10915471208643117,0.6010911067345531,0.8476439631339318,0.0,0.0,0.0,0.0
-0.01535333233337313,-0.030510737694242333,0.7453541715821882,0.010200771521716685,-0.4867740170594147,0.003970610709771428,0.8734593492697836,0.05970629951432929,-0.797311270498143,0.7483978919363693,-0.048957612691922586,-0.8963146312218314,0.8692034236701307,-0.10411313208527614,0.5561117687602073,0.8947549424977305,0.1090822134792242,0.6022738656654021,0.8473386123137094,0.0,0.0,0.0,0.0
-0.015319845398769336,-0.030238712752997478,0.7453912525651377,0.009901127251212978,-0.4870192054721778,0.003886792623409741,0.8733264876456608,0.05943824336193899,-0.7971421422447371,0.7490474410157687,-0.04920251175634593,-0.8938719512333541,0.866633834812521,-0.10455858914002016,0.5566122820222101,0.89617060441532,0.10899760518899752,0.6033333269847979,0.8467698804179739,0.0,0.0,0.0,0.0
-0.015307021650294069,-0.0298963479334107,0.7454226536746831,0.009503032529528596,-0.48722692739281165,0.003782871168225782,0.8732154965882288,0.0591262486040814,-0.7974709728240945,0.7502359763404808,-0.049507785324038205,-0.8912389415326948,0.8636305237930665,-0.10494476496115225,0.5568661418915556,0.8977777340607713,0.10890428295239002,0.6043182030104717,0.8458911269225761,0.0,0.0,0.0,0.0
-0.015312345113302607,-0.029449204610104463,0.7454449192560939,0.008957012369359137,-0.48740756058282436,0.00364302258086878,0.8731210512881881,0.0587632527546547,-0.7984281293296441,0.752180346631643,-0.04988262879111193,-0.8882285534687151,0.8599526917921506,-0.10528487184519608,0.5568450988125107,0.8997747741952623,0.10880689286923305,0.6052740723407807,0.8446402082535358,0.0,0.0,0.0,0.0
-0.015328131227652189,-0.028849634706031423,0.7454509747060167,0.008194280317933848,-0.4875685795400707,0.0034454522756213655,0.8730394394722184,0.05834118107238197,-0.8002669149479184,0.7552725144571477,-0.05034033868439901,-0.8846485437674481,0.8553462228261985,-0.1055938507318553,0.5564960629482106,0.9024342249451177,0.10871233903298161,0.6062485075675502,0.8429329422852213,0.0,0.0,0.0,0.0
-0.015336070529573424,-0.02803088359507286,0.745428686415318,0.0071179694819915595,-0.48771313761312,0.0031595538786218734,0.8729692131623585,0.057850916399031324,-0.8034330409285384,0.7601868122493068,-0.05089971801607977,-0.8803144295186129,0.8495680621921136,-0.10589088045703642,0.5557402846972904,0.9061313647125174,0.10863160758720461,0.6073019176969932,0.8406479019426094,0.0,0.0,0.0,0.0
-0.015295203822773048,-0.02690117869726567,0.7453572751416542,0.005594137490239226,-0.48783376811038365,0.002743036631778005,0.8729143119842872,0.057283276624183796,-0.8087024323870713,0.7680825231688172,-0.0515873689626295,-0.8751304308318866,0.8425053358162684,-0.1062024184606152,0.554470460236083,0.911374815047155,0.10858243200551736,0.6085145259126269,0.8376151351687767,0.0,0.0,0.0,0.0
-0.015191573755256352,-0.025394733178175095,0.745222368670215,0.0035238321962994808,-0.4879219786366167,0.0021639421384556834,0.8728774500033797,0.05662840193743843,-0.8165077636667064,0.7795409699078739,-0.052411799639865086,-0.8689312639428872,0.8338876491522393,-0.10654365574590798,0.5525879154667609,0.918485271638402,0.1085744883726829,0.6099111074950095,0.8336777005087819,0.0,0.0,0.0,0.0
-0.01502253633638391,-0.023556352767893356,0.7450299661918058,0.0009670301104473837,-0.487956064889938,0.0014389374344493178,0.8728664691972947,0.05589432741040447,-0.8266507622115781,0.7941978428637744,-0.053341503086156414,-0.8619738277455369,0.8240342072385622,-0.10691060552723862,0.550179157535168,0.9271058961201976,0.10860406111979648,0.6114632422338481,0.8288231511421493,0.0,0.0,0.0,0.0
-0.014902135690817626,-0.02203284578109724,0.7448844806304131,-0.0011392040056985066,-0.48796364640669215,0.0008523401979583811,0.8728627930642393,0.05520153924706318,-0.8348251073069755,0.8058443000811923,-0.05414195808013502,-0.8560499383881167,0.8155527893042065,-0.10723077976338662,0.5482413453962929,0.9339103198767803,0.1086163417949448,0.6127938108113502,0.8245193920574734,0.0,0.0,0.0,0.0
-0.014835440377102327,-0.02088004458818927,0.7447990368284195,-0.0027115478162622725,-0.4879590762853454,0.0004282873438936401,0.8728621906974454,0.05458307276741748,-0.840746028858144,0.8141975922322339,-0.054804386257508914,-0.8513399428493097,0.8087806192317769,-0.10748469759814037,0.5468563121164121,0.9386993799715121,0.10859647963844977,0.6139016857846015,0.8209316048952182,0.0,0.0,0.0,0.0
-0.014821232444507922,-0.020032820259220617,0.7447595332684901,-0.003844338837289047,-0.48794975532404083,0.00013686422353362376,0.8728632416400046,0.054041244687238005,-0.8448128205128153,0.8198554340238529,-0.05535356734575716,-0.8476067293958327,0.8033727701488578,-0.10767067071726377,0.5458671668133568,0.9419247742297185,0.10854384944485443,0.6147789709223368,0.818013861101166,0.0,0.0,0.0,0.0
-0.0148469211141612,-0.019415404785902063,0.744749273753532,-0.004648346252237334,-0.4879347477635235,-5.647418825632353e-05,0.8728677285893505,0.05356942951104025,-0.8475444543782163,0.823563055021443,-0.05581519748628498,-0.8446544321062668,0.7990377101876944,-0.10779622322298864,0.5451291739346232,0.9440406724295847,0.10846523317409157,0.6154384913243327,0.8156617484938511,0.0,0.0,0.0,0.0
-0.014899943616431837,-0.018964962932955198,0.744755708452375,-0.005215714129834825,-0.48791080090858263,-0.0001802544354479516,0.8728778919134107,0.053158412623678694,-0.8493723752336185,0.8259322336853365,-0.05620954222201187,-0.8423309575171942,0.7955493475810639,-0.10787009055368203,0.5445387884053087,0.9453896992185333,0.10836809330685053,0.6159038126352309,0.813758765696456,0.0,0.0,0.0,0.0
-0.014972169244581536,-0.018634284885076655,0.7447707825530167,-0.005615617718944123,-0.4878744694298893,-0.00025571613281655454,0.8728956991103795,0.052798922206828185,-0.8506067270724897,0.8273961719778259,-0.05655154599851379,-0.8405110918254921,0.7927190861743996,-0.10789862954010951,0.5440233467106413,0.946207526521902,0.10825757342674422,0.6161978032215273,0.8121956675674417,0.0,0.0,0.0,0.0
-0.015060344821879472,-0.018389626403999607,0.7447898310395625,-0.005897297978238722,-0.487822420575804,-0.0002977814417161856,0.8729229170931029,0.052482572544954566,-0.8514536920097289,0.828234603294707,-0.05685212467364503,-0.8390901414733313,0.7903837651866866,-0.1078847563823471,0.5435292403398675,0.946647219023975,0.10813586922230961,0.6163364172311017,0.810877997659292,0.0,0.0,0.0,0.0
-0.015165779067794132,-0.01820791551328916,0.7448106275786105,-0.00609416079595333,-0.48775117878665547,-0.00031634350845883717,0.8729613672569971,0.05220205676658096,-0.8520378720694245,0.8286045644405506,-0.057119267925436715,-0.8379793370711209,0.7883968108832777,-0.10782765893113354,0.5430133187544128,0.9467995120321174,0.1080022282502733,0.6163259188600697,0.8097259884234025,0.0,0.0,0.0,0.0
-0.015294514068022118,-0.0180746222542829,0.7448326519352894,-0.0062269423437444444,-0.4876567048407467,-0.0003172446526698207,0.8730132088168786,0.05195101941148352,-0.8524171073620888,0.828558098154552,-0.05735875248188806,-0.8371006376647471,0.7866171752590132,-0.10772242148477496,0.5424353578989194,0.946706809804445,0.10785288980127306,0.616159544995416,0.8086734082848674,0.0,0.0,0.0,0.0
-0.01545936732308784,-0.017982039476031723,0.7448564922243239,-0.006306258949438634,-0.48753410642589046,-0.0003030316710144068,0.8730811155564971,0.0517235298232983,-0.8525830588233904,0.8280347640744959,-0.057574487630204826,-0.8363708163153691,0.7848782528616977,-0.10755894662352408,0.5417473860055672,0.9463743256161778,0.10768046546966446,0.6158102687333651,0.8076667945486521,0.0,0.0,0.0,0.0
-0.015682564652610594,-0.01792763472814029,0.7448841787959543,-0.006335029643221873,-0.4873777921694134,-0.0002736528409624277,0.8731681855253375,0.05151326825874258,-0.8524520427489308,0.8268424175889809,-0.05776863564441668,-0.835676291850387,0.7829456933751601,-0.10732080877816477,0.5408876712922057,0.9457727678063621,0.10747324293082998,0.6152287266781775,0.8066556615278588,0.0,0.0,0.0,0.0
-0.0159829780294242,-0.01791860006331185,0.7449215741680436,-0.006301943501747331,-0.48717910471096115,-0.000224430590222235,0.8732793110294308,0.05131617185009542,-0.8519204476453933,0.824772006634822,-0.05794240352309545,-0.8349749722324943,0.7807005749453269,-0.10698853567022137,0.5398263924781769,0.9447901170829062,0.10721829814160788,0.6143803369919648,0.8055738321254634,0.0,0.0,0.0,0.0
-0.0163857588509718,-0.017968126771394265,0.744979236228566,-0.006186899282103017,-0.4869275073185044,-0.00014758714644466582,0.8734204618120044,0.05112783760274882,-0.8508177555769727,0.8215087578857682,-0.05809580839492501,-0.8342126347479646,0.7779980164011094,-0.1065360774729943,0.5385451797120147,0.943238889911522,0.10689888108174941,0.613233766923052,0.804318889090655,0.0,0.0,0.0,0.0
-0.016915003501196024,-0.018095035268905938,0.7450758349384468,-0.005961705688324542,-0.48660918308063883,-3.238235025507425e-05,0.8735994276316019,0.0509439622014212,-0.848943841552537,0.816711010315596,-0.05822877025528712,-0.8333601377406274,0.7747478221791659,-0.10593275491317823,0.5370731453360008,0.9408163178253394,0.10649626196634239,0.6117995545195871,0.80270436604823,0.0,0.0,0.0,0.0
-0.01757627943977055,-0.01831778853154383,0.7452440151478176,-0.005599117240088321,-0.4862058353699462,0.00013201354559458166,0.8738263661110073,0.05076077802752481,-0.8461785659696698,0.8102287568812768,-0.05834401031470404,-0.8324744431703729,0.7710662172372974,-0.10515052851887315,0.5355591145611814,0.9370586527583689,0.10599522171719342,0.6102174829922645,0.8003596527563297,0.0,0.0,0.0,0.0
-0.018318050261934754,-0.01863578028941694,0.7455360044763746,-0.005100430437955693,-0.4856989316041814,0.0003473126063218613,0.8741112130740903,0.050575723475924705,-0.8427395771363871,0.8026110283235645,-0.05845302524945233,-0.831793310491739,0.7675502583242175,-0.10418748529278249,0.534398023644,0.9313584890141254,0.10540048930606559,0.6089218814221186,0.7965969828163825,0.0,0.0,0.0,0.0
-0.018668921604093166,-0.018974089277812453,0.7459373794279066,-0.004577995526937099,-0.484966713140162,0.0005768794988523289,0.8745204379046992,0.05044034311415689,-0.8423994865422334,0.8002175074790139,-0.05864925920636576,-0.8345170038139412,0.7697816819836354,-0.10318651735876117,0.5344342083797279,0.923699097162047,0.10482691770927002,0.6089040085150013,0.7907770358230932,0.0,0.0,0.0,0.0
-0.018499922000266,-0.019273776962156177,0.7465385136877876,-0.004114550191328117,-0.4839700412748282,0.0007958425704152362,0.8750745318312991,0.05034946521123218,-0.8461540546832256,0.8050347782391651,-0.05896503967691417,-0.841075191361066,0.7789105556529664,-0.10215383846262185,0.5363616079179941,0.9132325176786124,0.10427843633025397,0.6110760799212914,0.7814366374226731,0.0,0.0,0.0,0.0
-0.017637712451161004,-0.019370419457282947,0.7472571490933722,-0.003947198082363452,-0.48261849464343193,0.0009278397953949248,0.8758212987640346,0.05030398837388387,-0.8564712013028902,0.8205927894293708,-0.059478839913714054,-0.8523708663906159,0.7961826198475228,-0.10113561933473048,0.5398673690840958,0.9010159604020579,0.103781184652612,0.6154885516147032,0.7683742576397766,0.0,0.0,0.0,0.0
-0.015837092087346998,-0.019261709387771612,0.7477711033032501,-0.004077002937141761,-0.4812845450803844,0.0009635193760650987,0.8765544115137576,0.05032471548070545,-0.8731994015019969,0.8473088664670099,-0.06018115629611509,-0.8682673620290352,0.8220177376714555,-0.10060915347339401,0.5445391458851729,0.8915502995386735,0.10371410415273263,0.6213806455306119,0.756619908306794,0.0,0.0,0.0,0.0
-0.01209605699421817,-0.01917950727364758,0.7489735544968936,-0.007035580125066748,-0.4889171776571418,0.0016506799934563427,0.8723002747102845,0.049686738188835795,-0.8505744346934292,0.84718514077655,-0.05944681533306683,-0.8331234765325386,0.8095997339814709,-0.09125615825433281,0.5718120121626673,0.9049594456549462,0.0922879008720818,0.61126576948292,0.8446238997081712,0.0,0.0,0.0,0.0
-0.007692046266649931,-0.018851527613636072,0.7496343756787878,-0.0098721926389421,-0.49585672657955887,0.00216726625894759,0.8683455242443914,0.04920886514677065,-0.83703526589627,0.8585494390386225,-0.05902961780115328,-0.8065450295680212,0.8067390362821849,-0.08293742741849137,0.5987202051278185,0.9186252403206292,0.08203385395692342,0.6073103042309568,0.9124280550124226,0.0,0.0,0.0,0.0
-0.0029305691983899686,-0.018403629194796826,0.7497555092295248,-0.012491053415164606,-0.5017722064842625,0.0025532586238643205,0.8649058372186499,0.04888478112262863,-0.832519234981079,0.8796253940894114,-0.05889880934637686,-0.7896805946700962,0.8138468296161234,-0.07553610136604177,0.6235851491301151,0.9318537040095822,0.07291095943361647,0.6081362311942573,0.9638684899953174,0.0,0.0,0.0,0.0
0.001810848409289835,-0.01793007376155505,0.749778728442565,-0.014820218928006572,-0.5067019117040847,0.0028495308873113293,0.861989219166965,0.04864791021999051,-0.8329507501361009,0.9048979642021179,-0.0589378094003029,-0.7792436744593596,0.8268222577989821,-0.06887352623318112,0.6473682297022028,0.9410521349307439,0.0647829990302043,0.6113430438786291,1.0057574964306353,0.0,0.0,0.0,0.0
0.006084374063383859,-0.017576979540488993,0.7499857838793236,-0.016674881647494814,-0.5107637916223443,0.003131134906486741,0.85955365945577,0.048449044885178136,-0.8338450279860398,0.927871876899796,-0.059031406906026665,-0.7717931924063973,0.8406906967703006,-0.0627820219767691,0.669950127365881,0.9445515403591249,0.0575324755592613,0.614002016601097,1.0418982997008115,0.0,0.0,0.0,0.0
0.009727680082107698,-0.01737561037059736,0.7503885918652848,-0.018044702012035972,-0.514035220624743,0.003421779892148809,0.8575724296576576,0.048273236857429756,-0.8340671329741592,0.9467798710162347,-0.05914640335149348,-0.7661211148373434,0.853564893546404,-0.057156954720846115,0.690436990340438,0.9434306400512271,0.0510590682404155,0.6153028078352718,1.0742325535886372,0.0,0.0,0.0,0.0
0.012728453559629684,-0.01730529507038716,0.7509390186918224,-0.01900416698105793,-0.5166312588535692,0.003721228671327779,0.8559889815119749,0.048112460911574347,-0.8334377592275188,0.9615329753196001,-0.059267171085402554,-0.7615677150614261,0.8646923661013556,-0.05194605064103991,0.7083756159211964,0.9391765101238838,0.045274561432897265,0.6152610229910338,1.1040741229497957,0.0,0.0,0.0,0.0
0.015152327050780009,-0.017327945349386146,0.7515898596896357,-0.019654394303085986,-0.5186745034577623,0.004020378062141453,0.8547363925840878,0.04796213211043286,-0.832106962542135,0.9727131579919477,-0.05938481900595089,-0.757730412024331,0.8739211586974224,-0.04712357320981188,0.7237895688941189,0.9329570012326792,0.040101029025389694,0.6141125861515507,1.1323353559705536,0.0,0.0,0.0,0.0
0.01709694939898909,-0.01740556775067929,0.7523052716529653,-0.020091730869651624,-0.5202787714340158,0.004308867434479475,0.853749234850143,0.04782042779411738,-0.8303099304957011,0.9810991664414649,-0.059494090885648776,-0.7543588483745003,0.8814027044788987,-0.0426745496639364,0.7369797450796521,0.9255628879027096,0.03546945144021145,0.6121100445247921,1.159641234957536,0.0,0.0,0.0,0.0
0.018664428627038633,-0.017508239489759436,0.7530583836282834,-0.0203932653238997,-0.521542484258706,0.004578584908807263,0.8529692775258199,0.047687864974907915,-0.8282681161894078,0.9874398258708776,-0.05959192358365076,-0.7513066624986826,0.8874218762014346,-0.03858609206558248,0.7483454007839455,0.9175096357289254,0.031318573949118814,0.6094773926201368,1.1864057703344943,0.0,0.0,0.0,0.0
0.019946355103383405,-0.017616819491475054,0.7538274700605602,-0.020612414258061432,-0.5225468423301416,0.004824967617833289,0.8523477257767156,0.04756681101416828,-0.826152361217881,0.9923532668837938,-0.05967638543853089,-0.7485032767944503,0.892301884874556,-0.034843377289492265,0.7582710268881434,0.9091424972787016,0.027593930646282468,0.6064122310611025,1.2128747603934917,0.0,0.0,0.0,0.0
0.021016599193197736,-0.017723111521854396,0.7545928867629416,-0.020779599663226837,-0.5233561014299435,0.005047296747227661,0.851845716153713,0.04746089973397246,-0.824073718643241,0.9962896616208922,-0.05974596679247192,-0.745935166971912,0.8963526610416229,-0.031427923302663426,0.7670651936202078,0.9007138572825879,0.02424700211622223,0.6030891769278829,1.2391301275555167,0.0,0.0,0.0,0.0
0.021928278939072312,-0.017828646033986716,0.7553337154820479,-0.020905566845127656,-0.5240190108292431,0.0052483836733308266,0.8514337837044306,0.04737447374296324,-0.822088662345025,0.9995249726203964,-0.05979914603669786,-0.7436320106773217,0.899839474897023,-0.02831743080746958,0.7749256799558938,0.8924486947145084,0.021234481302878794,0.5996554589724877,1.265043714059818,0.0,0.0,0.0,0.0
0.022712313906424676,-0.017942437738575408,0.7560229031132466,-0.020986387951648804,-0.5245706864614583,0.005433764586670117,0.851090853333834,0.047311918114274445,-0.8202151114459888,1.002169626034277,-0.05983432492164621,-0.7416560532573347,0.902956531691533,-0.025486310222444103,0.7819085412471619,0.8846185999734797,0.018517639803487314,0.5962267486146592,1.2901599504180932,0.0,0.0,0.0,0.0
0.02337635193909019,-0.018077167335390446,0.7566201073973631,-0.021010863211564326,-0.5250347909097391,0.0056100880793233995,0.8508028789756259,0.04727678304224109,-0.8184608246348707,1.0041893026795763,-0.05985006126017524,-0.7400908850048245,0.905794082813032,-0.02290703721617366,0.7878884280770981,0.8776417044494146,0.016061784026306848,0.5929157820754699,1.3134747752230311,0.0,0.0,0.0,0.0
0.02390486166176248,-0.01824316191777876,0.7570642722735543,-0.02097114947169837,-0.5254252803260904,0.005782484769600333,0.8505616077357209,0.04727048410741064,-0.8168679076521026,1.0054497310095099,-0.059845852185932864,-0.7390286346074761,0.9083040271539833,-0.02055165665268051,0.792518739878475,0.8721900364908448,0.01383580858165861,0.5899580625144834,1.3330678366800113,0.0,0.0,0.0,0.0
0.024265691232589554,-0.018440081249319305,0.7572738301973857,-0.020876404436244868,-0.5257476266445827,0.005950912438407151,0.8503635666328568,0.04729108024271145,-0.815569246979811,1.0058173632568579,-0.05982338129403595,-0.7385539990455589,0.9102992611884327,-0.018394006392302004,0.7952520731660767,0.8692107903339427,0.011811837282313168,0.5880583824357843,1.3455634587198808,0.0,0.0,0.0,0.0
0.024435321251456685,-0.018652373698385558,0.7571774757655497,-0.020758674986888093,-0.5260016131546084,0.006108519685698787,0.8502082488183633,0.047333901238291995,-0.8147915435136965,1.005330755198332,-0.059787206060392124,-0.738720675713295,0.9115866983546533,-0.01641248669681527,0.7955987316723832,0.8695733321022896,0.009965067486120124,0.5889833435619216,1.3457987087115422,0.0,0.0,0.0,0.0
0.024418290026384595,-0.018881925669196897,0.7567678169863297,-0.020618853167991825,-0.5261965989944647,0.006257172459693666,0.8500899069472034,0.04739870314331683,-0.8145273412812556,1.0039909343587166,-0.059737121870754056,-0.7395243596169669,0.912178158033691,-0.014584934946870725,0.793553238116158,0.8733619908846212,0.008270687958117895,0.5927493904773153,1.3338122563033215,0.0,0.0,0.0,0.0
0.024247566267996495,-0.01915056188685731,0.7561036453950029,-0.02042240482813535,-0.5263506009421849,0.0064087044200306816,0.8499981757489208,0.047489844728407005,-0.8145212411515572,1.0017464390842594,-0.05966825230583021,-0.7409104687820394,0.9123065844698296,-0.012887115610416477,0.7896131042619413,0.8798270356289245,0.0067037381481741725,0.5976492327692234,1.3148129497653236,0.0,0.0,0.0,0.0
0.023964984870964896,-0.019469181439259655,0.7552576785988895,-0.02015045556480008,-0.5264768915919565,0.006570343672736589,0.8499252157361991,0.04760922173345197,-0.8145736597167536,0.9986777082484193,-0.05957824985155918,-0.742792145867205,0.9122108766350157,-0.011297207980270087,0.7843660824107673,0.8880732527400091,0.005241680955617318,0.603025975645632,1.2922297827182867,0.0,0.0,0.0,0.0
0.023626669486509252,-0.01982299987509124,0.7542800531766157,-0.019825821254548234,-0.5265908927457933,0.006737123639337235,0.8498609178294054,0.04775572562621549,-0.8147226614270591,0.9951761176752533,-0.0594699734764306,-0.7450926635824534,0.9121225276674634,-0.009803188588518844,0.7783128659694579,0.8975239763112705,0.0038634894415980735,0.6087974682851355,1.2680936200559123,0.0,0.0,0.0,0.0
0.023259090546365536,-0.020201856060518154,0.753201059433979,-0.01946417863650383,-0.526699843679366,0.006906138894605838,0.8498004034264199,0.04792636888099983,-0.8149759958142517,0.9914308767549455,-0.05934589962964781,-0.7477355488861634,0.9121127085320101,-0.008388347384010524,0.771723408091536,0.9078402229990171,0.0025496203451434714,0.6149326810011386,1.2435077169590059,0.0,0.0,0.0,0.0
0.022864177144214293,-0.020602464645584784,0.7520363892983827,-0.019070721074098067,-0.5268028716029443,0.0070775130007726525,0.8497440502164929,0.048117598817080574,-0.8153029465137814,0.9874467031735573,-0.05920762874545148,-0.7506588055003512,0.9121424852958869,-0.007032022627628316,0.7646865356020115,0.918843010719857,0.001281515160182102,0.621360451497188,1.2190059124067223,0.0,0.0,0.0,0.0
0.022426976795609177,-0.021028654016921493,0.7507939099512366,-0.018639777951523356,-0.5268910152621747,0.007254735530427897,0.8496974670588916,0.04832565379158098,-0.8156405742924954,0.983092855493545,-0.05905647038079342,-0.7538265006424671,0.9121207211173156,-0.005708765772088866,0.7571729446982586,0.9304240482919733,4.126983857476803e-05,0.627959210474021,1.19479034475387,0.0,0.0,0.0,0.0
0.021918442366657766,-0.021491408513783162,0.7494758904254887,-0.018154804471039707,-0.5269493845937079,0.007444724704265243,0.8496701272994176,0.048546730221988625,-0.8158830727197823,0.9781078776235123,-0.05889304328605178,-0.7572201910523573,0.9119115668163877,-0.004389337615315396,0.7490633547437454,0.9425186046658135,-0.001188636821105574,0.6345742788475176,1.1708638482033191,0.0,0.0,0.0,0.0
0.02130913197364335,-0.022001044676019293,0.7480774375886787,-0.017601091909887123,-0.5269626341587,0.007654150814846903,0.849671699975589,0.04877679273073889,-0.8159484044147747,0.972239246383791,-0.05871870810386165,-0.7608386526411298,0.9113808467587058,-0.0030448660645121884,0.7401990588298181,0.9551321478595347,-0.0024256773765617273,0.6410972817265492,1.1471194477747328,0.0,0.0,0.0,0.0
0.020583876413436515,-0.022557223905460198,0.7465822692001647,-0.016981878378358472,-0.5269215940665457,0.007884548191586972,0.8497076458482221,0.049011528053419726,-0.8158634177224807,0.9654066960744808,-0.05853719278579393,-0.7646956610170578,0.910436831776162,-0.0016525798393642753,0.7304271678051972,0.9683986224303043,-0.0036876653091931825,0.647575009541879,1.1233842227652426,0.0,0.0,0.0,0.0
0.019733467162384048,-0.02315155321895693,0.7449604343485313,-0.01631407508463597,-0.5268235880198185,0.008133478025919953,0.8497791504827941,0.04924610296597413,-0.8157216818178603,0.9576148243930772,-0.058353635567027815,-0.7687981126564646,0.9089698136773077,-0.00019447825162238882,0.71956944528365,0.982597599021522,-0.004992902902671061,0.6542499096035628,1.0993792879856772,0.0,0.0,0.0,0.0
0.018766535782711195,-0.023756259262039708,0.7431667929090543,-0.01564596780760131,-0.5266799982492908,0.008388954223989643,0.8498782316205765,0.04947464798072962,-0.8157490581439428,0.9490931623974029,-0.058175817837465726,-0.7731110464090827,0.9068488952506049,0.0013369626135593757,0.707476497373623,0.998191931449315,-0.006360418209401359,0.6617064244098191,1.0747013659267677,0.0,0.0,0.0,0.0
0.017779638435588687,-0.024285458741739107,0.7411556738037295,-0.015117222645577025,-0.5265253912649782,0.00861044934610272,0.8499813774988273,0.04969232567311218,-0.8167059202685096,0.9411196174376597,-0.05802316143923139,-0.7776214506443703,0.9042688028505106,0.002922082698814607,0.6943416668991207,1.0157295144026564,-0.007811314791305669,0.6712080152217987,1.048752291914198,0.0,0.0,0.0,0.0
0.016818585301848522,-0.024690904117523952,0.7389564916305328,-0.01480333347314745,-0.5263714362941202,0.008776747116178426,0.8500805497609073,0.04989156963168878,-0.8188531422558133,0.9343015400606468,-0.057906977078736446,-0.7821461528170542,0.9012102903374464,0.004567758513040466,0.6805042456336898,1.0349615752796997,-0.009366489099242932,0.683952584215163,1.0201548886482374,0.0,0.0,0.0,0.0
0.015963358096664493,-0.024925211382759126,0.7367673931412522,-0.0147719521612508,-0.5262027111589097,0.00886950895480045,0.8501845846692703,0.050062333646622346,-0.822229103543745,0.929463345028729,-0.0578358269290955,-0.7863107101352587,0.8979170654646174,0.006296554572290898,0.6670927076336954,1.0540721332502567,-0.01104864749650332,0.7012994682586144,0.9864168577154506,0.0,0.0,0.0,0.0
0.015361018899612548,-0.024975413543565094,0.7351476914006835,-0.015020359623309871,-0.5260185571881009,0.008890344623086655,0.8502939656748235,0.05019551011346631,-0.8258145284776626,0.9272643299659608,-0.05778802807678555,-0.7890708205803714,0.8950006648889594,0.008142537969504812,0.6570527475319767,1.068083139667149,-0.012881695288588221,0.723625931461748,0.9451475933597729,0.0,0.0,0.0,0.0
0.015345843836289659,-0.024968670168621133,0.7351313202711108,-0.015032572717032728,-0.5259872909569033,0.008868936155300313,0.8503133148909279,0.050244078245244565,-0.8258989679766483,0.9272177468951522,-0.05774571368862009,-0.7891559818283247,0.8949119671702555,0.008000254537867471,0.6569998347743263,1.0679811119882237,-0.012848686995935553,0.723824103605757,0.945297061555212,0.0,0.0,0.0,0.0
0.015345843836289659,-0.024968670168621133,0.7351313202711108,-0.015032572717032728,-0.5259872909569033,0.008868936155300313,0.8503133148909279,0.050244078245244565,-0.8258989679766483,0.9272177468951522,-0.05774571368862009,-0.7891559818283247,0.8949119671702555,0.008000254537867471,0.6569998347743263,1.0679811119882237,-0.012848686995935553,0.723824103605757,0.945297061555212,0.0,0.0,0.0,0.0
0.01578103840143092,-0.024917193783644875,0.73493617538395,-0.015173551203033455,-0.5262673842043415,0.008805319638731626,0.8501381476046518,0.05040653526487165,-0.8272691226865831,0.9304394446506271,-0.05764194237872442,-0.7899972930246549,0.8973887788351137,0.008034596702352789,0.6583712801740575,1.069725613397826,-0.012888505033199067,0.7249718061307876,0.9468540646373277,0.0,0.0,0.0,0.0
0.016223712819931933,-0.02486456242557949,0.7347066296218255,-0.015317544135716493,-0.5265425677606632,0.008740120082064984,0.8499658272416656,0.05057263740016626,-0.8288334245027874,0.9338330146909387,-0.05754152028204191,-0.7910180191379398,0.9000240070764958,0.008084493299250149,0.6595876011351964,1.0717794904305145,-0.012943049518709521,0.7259689402632514,0.9486901280920299,0.0,0.0,0.0,0.0
0.01659791995768054,-0.024834154451821185,0.7345100043401529,-0.015424932106752927,-0.5267658994022348,0.008684098037719874,0.8498260675795536,0.05074227861610362,-0.8301579105048457,0.9366713250919457,-0.05743112457881077,-0.7920097553251891,0.9023959247787869,0.008136220678119505,0.6605920535168742,1.0734825747106362,-0.01299116022929454,0.7267644413508557,0.9502833761335365,0.0,0.0,0.0,0.0
0.016873634975748612,-0.02483464777500253,0.7343614045652389,-0.015481849771610075,-0.5269259753252914,0.008640688957264593,0.8497262308234832,0.050916884130493015,-0.8310729284213169,0.9386563824524086,-0.05730361960464044,-0.792882733225589,0.9043120186275035,0.008184398019071096,0.6613251818361244,1.0746958524673693,-0.0130244901607171,0.7272946207151725,0.9515560162690113,0.0,0.0,0.0,0.0
0.0170418469179502,-0.024868779017903825,0.7342578252080344,-0.015484808090858445,-0.5270205943105291,0.008610388901665017,0.8496678027876119,0.05109892299179722,-0.8315462437575879,0.9397068790926068,-0.05715540589815389,-0.7936275176679235,0.905720028303827,0.008226963853221405,0.6617369574872207,1.075447944425104,-0.013039801678436063,0.7275029744435818,0.952562816805053,0.0,0.0,0.0,0.0
0.017099565647123772,-0.024938958007222192,0.7341921980343132,-0.015431057677787588,-0.527049591639546,0.00859355767530848,0.8496509643247713,0.05129120075688992,-0.8315775916159793,0.9397938869215008,-0.0569839246511031,-0.7942636105052088,0.9066177433676111,0.008263496947831385,0.6617856627774207,1.0757980450850002,-0.01303567215695484,0.7273398655744127,0.9533871008131312,0.0,0.0,0.0,0.0
0.017041264281802377,-0.025050451166043153,0.7341590698257626,-0.01531317625279832,-0.5270112670249977,0.008591982339484123,0.849676884998783,0.0514965095182325,-0.831144141493124,0.9388499411576775,-0.05678631970114201,-0.7948148538363367,0.9070028178840306,0.008294387832972271,0.6614265554937832,1.0757812359520944,-0.013010712118074598,0.7267510082660441,0.9541060714287773,0.0,0.0,0.0,0.0
0.016854091020688685,-0.025213286041102935,0.7341568686447049,-0.01511590089011321,-0.5269005134489593,0.00860980314519431,0.8497489215982001,0.05171742886858943,-0.8301716626239936,0.9367180874994352,-0.05655873042988451,-0.7952983526491963,0.9068461886217708,0.0083204107136428,0.6606016406771683,1.075385937855135,-0.012962565584520552,0.7256665525766502,0.9547809727414817,0.0,0.0,0.0,0.0
0.016515262464978656,-0.025443672124060065,0.7341885833106253,-0.014813893560473133,-0.5267079173013964,0.008654202104776328,0.8498731806543456,0.05195617808871339,-0.8285174401341115,0.9331202660373953,-0.056295916428634706,-0.7957207584970549,0.9060795140513953,0.008342534263492398,0.6592327780318635,1.074544548024625,-0.012887335880806457,0.7239927208862923,0.9554580702586633,0.0,0.0,0.0,0.0
0.015991087661939556,-0.02576532089657131,0.7342612491431117,-0.014369855421493109,-0.5264197096545241,0.008736042161948608,0.8500585145210632,0.052214470042439294,-0.8259592859489229,0.9276361574321597,-0.05599109513105715,-0.7960800253528908,0.9045932832228035,0.008361902705216919,0.6572183874793588,1.0731324621491147,-0.012779289254124204,0.7216057584253781,0.9561784614778318,0.0,0.0,0.0,0.0
0.015238075247341259,-0.026210625457172707,0.7343836263214093,-0.013733148502064394,-0.5260189966358587,0.008870433734525006,0.8503156656299977,0.05249333686482101,-0.8221916954741892,0.9196939311406924,-0.05563602758742205,-0.7963736279714967,0.9022474763451174,0.008379948045863788,0.6544341376529795,1.0709804695431775,-0.01263085195883692,0.7183478965985522,0.9570021909300015,0.0,0.0,0.0,0.0
0.014207791605940026,-0.026820889359159085,0.7345605025034608,-0.01284034319934698,-0.5254893584891818,0.009076835069723418,0.8506548482000607,0.05279288234450188,-0.8168385906375293,0.9085881480666355,-0.05522158316226823,-0.7966158434510984,0.8989011580149062,0.008398547253526888,0.6507389612075183,1.0679161802199613,-0.012433104073414811,0.7140263492175222,0.9580578615635104,0.0,0.0,0.0,0.0
0.012859089405837291,-0.027642553154033543,0.7347816253794476,-0.011622524044292672,-0.5248225751271974,0.009377240929315042,0.8510806359706762,0.053111818806964105,-0.8095096995444833,0.8935713253396237,-0.054739424804719786,-0.7968643126539909,0.894469970693518,0.00841985750018333,0.6459914689979599,1.0638617432492232,-0.012177299874905392,0.7084231597442701,0.9596239778760024,0.0,0.0,0.0,0.0
0.011185547047996194,-0.028708979655904923,0.7350068614318632,-0.010035115998553099,-0.5240320228112754,0.00978758177094927,0.8515831954414645,0.05344630148469964,-0.7999761048062018,0.8741595265994212,-0.05418664272998386,-0.7972368255695501,0.8890152838448877,0.008444534063720926,0.6401028283360432,1.0590083929573935,-0.011858835997677892,0.7013577549772724,0.9621833905140628,0.0,0.0,0.0,0.0
0.009278211560499358,-0.029972886968859403,0.7351733331525986,-0.008161969817089238,-0.5231724574321511,0.010286140376779041,0.8521256699274222,0.05378618944146403,-0.7886633918568436,0.8510837581195092,-0.05357838402618888,-0.7977903155364143,0.8828184251856638,0.008464876953932103,0.6332768224576131,1.0539551695743332,-0.011488877423318174,0.6930134578116478,0.9660630175083914,0.0,0.0,0.0,0.0
0.00760847628746447,-0.03101156022790758,0.7353691684022112,-0.006657509172532477,-0.5223545776648327,0.010680308267774946,0.8526355046439933,0.054096715520656986,-0.7789767372361331,0.8310115943930052,-0.053019819061000735,-0.7980656722065851,0.8770711365757597,0.008446847822026201,0.6275202925216038,1.0489473168965322,-0.011140126802192953,0.6858973610470823,0.9684253197279897,0.0,0.0,0.0,0.0
0.006312301150573207,-0.03181751616860724,0.7355394619951243,-0.005519067664672866,-0.5216602796622296,0.010970294392235999,0.8530649126272776,0.05438826353750943,-0.7715420984482804,0.8153467450678212,-0.05253552534351608,-0.7984883318311734,0.8727928268425739,0.008425010926406911,0.6231180906059284,1.044624171125574,-0.01085044611897434,0.6803449977099039,0.9698435630583219,0.0,0.0,0.0,0.0
0.00535574442128153,-0.03241611634413404,0.7356561059871302,-0.004697660669489308,-0.5211046011908868,0.011169678866351581,0.8534067991737257,0.05466090678014714,-0.7662188517122958,0.8038287825485362,-0.05212585117856121,-0.7990578318266857,0.8698481190816633,0.00841021458386728,0.6197988210408091,1.0413314749267253,-0.010623802053344934,0.676101717701147,0.9708259359929229,0.0,0.0,0.0,0.0
0.004672554292345232,-0.032843680624470364,0.7357199772931342,-0.0041320195332784256,-0.5206749192449742,0.011296096067720997,0.8536702835975051,0.05491339603044034,-0.7626344828831637,0.795752404618693,-0.05178298210059913,-0.7996983533094777,0.8679209308860141,0.008404253387122659,0.6172975321169025,1.039051746208205,-0.010452491412769419,0.672890509107174,0.9715975380603963,0.0,0.0,0.0,0.0
0.004200200522260427,-0.0331336794705078,0.735743022215374,-0.0037686238219802183,-0.5203487956236591,0.011365191156458636,0.8538698734569998,0.05514503623484351,-0.7604182128246048,0.7904045715574557,-0.05149765046902783,-0.8003440075561253,0.8667259022814972,0.00840549562422675,0.6154167648700257,1.0376144338420303,-0.010326281417969619,0.6704882619451327,0.9722185718216559,0.0,0.0,0.0,0.0
0.0038698458820980853,-0.03334106069888871,0.7357461016957639,-0.003522766053147945,-0.5201042030821309,0.011402331634047197,0.8540194347255474,0.055356239776470834,-0.7589917043456054,0.7867643013597669,-0.05125404126625574,-0.8009502315239356,0.866018257052778,0.008413247908389607,0.6140136444212296,1.0366805508730725,-0.01023063014181289,0.6686883609636618,0.9727415563852277,0.0,0.0,0.0,0.0
0.003638742858381705,-0.03349263153076522,0.7357404158477443,-0.003354119892835303,-0.5199213597584899,0.011419497770843893,0.854131210422198,0.05554779792808163,-0.7580647606320464,0.7842709952438854,-0.05104323817720255,-0.8014951291579581,0.8656326370908763,0.008425430866671153,0.612978043427393,1.0360589601156844,-0.010156605628921227,0.6673455278401065,0.9731697332345917,0.0,0.0,0.0,0.0
0.0034778367448562507,-0.03360549807160874,0.7357316088592054,-0.0032374658852126585,-0.5197857413308893,0.0114240855616288,0.8542141372002809,0.05572095425120314,-0.7574554628842494,0.7825555748485931,-0.05085888322812397,-0.8019701174527214,0.8654566220990831,0.0084405373899504,0.6122248118735425,1.0356358661352218,-0.010098205926356822,0.6663501913684328,0.9735148215585152,0.0,0.0,0.0,0.0
0.0033650888294155393,-0.03369311695461572,0.7357227872344961,-0.003153174013566723,-0.519686491078714,0.011421787098420915,0.8542748686830324,0.05587719358519646,-0.7570253670403331,0.7813339496843168,-0.05069565107065361,-0.8023730169336715,0.8654078301387913,0.008457629701829431,0.6116852093029321,1.0353333474258903,-0.01005085109678671,0.665613742320866,0.9737979002613739,0.0,0.0,0.0,0.0
0.003285743300498481,-0.03376156112133964,0.7357146677795456,-0.0030928828270338398,-0.519615711265357,0.011414848340243863,0.8543182357408653,0.05601791839084616,-0.756704698718795,0.7804436312148331,-0.050550049218933434,-0.802697010429507,0.86541759752374,0.008475864442414506,0.6113039633482948,1.0351195998293006,-0.01001185124438874,0.6650707855169744,0.9740325000211486,0.0,0.0,0.0,0.0
0.003232587925013611,-0.03381653700448943,0.7357067275214619,-0.0030485481567565503,-0.5195688742097136,0.011405446778121399,0.8543470062511942,0.05614495165735347,-0.7564522899460545,0.7797901356895747,-0.05041932936970283,-0.8029575455866969,0.8654744875405513,0.008495186889795555,0.6110500455804796,1.034976145431286,-0.009979343187747328,0.6646811914238036,0.9742421625144824,0.0,0.0,0.0,0.0
0.0031981181929120425,-0.03386285897683749,0.7356989909789404,-0.0030134641632523712,-0.5195424182422511,0.011395349875869164,0.854363354013933,0.05625981587877584,-0.7562224702277669,0.7792762417377318,-0.050300739496283234,-0.8031571536219783,0.8655521385187881,0.008515523808567616,0.6108958954431156,1.0348852579064165,-0.009951679119316357,0.664409716289349,0.9744443785156568,0.0,0.0,0.0,0.0
0.003174087196955485,-0.03390494761752017,0.7356926330269743,-0.00298149360571706,-0.5195330639252352,0.01138615667260418,0.8543692770813821,0.056363744336536875,-0.7559620190446444,0.7787961336742241,-0.05019146193380386,-0.8032874691914756,0.8656109492872296,0.008536713667148853,0.6108175881114416,1.0348217111983382,-0.009927246545363842,0.6642255466891049,0.9746458723896512,0.0,0.0,0.0,0.0
0.003149939744920263,-0.033947646585882785,0.7356908125904519,-0.002945832102953843,-0.5195373797249119,0.01137967475846884,0.8543668627376564,0.05645757158978165,-0.7555968996243233,0.778213011657082,-0.050088299873221574,-0.8033245475020588,0.8655885732759148,0.008558418807673327,0.6107936019262808,1.0347429625869313,-0.009904203575919262,0.664100008646454,0.9748386215081792,0.0,0.0,0.0,0.0
0.0031100417838655445,-0.0339976172284316,0.7357001379498469,-0.0028969028087462915,-0.5195510684053305,0.011378559605760797,0.8543587207106242,0.05654154011778906,-0.7550087971009822,0.7773196475977748,-0.049987115729569986,-0.8032200392153432,0.865382432250342,0.008579976384335351,0.6108026403003834,1.034572253341107,-0.009880024243842935,0.6640026152403732,0.9749928612067726,0.0,0.0,0.0,0.0
0.0030291589185666955,-0.03406624250295399,0.7357327036169306,-0.0028179602624532557,-0.5195681346399939,0.01138765571930691,0.8543484850246386,0.056615008426869326,-0.753992540052663,0.7757674176143347,-0.049881810756988,-0.8028886012655998,0.8648235255150586,0.00860025593357539,0.6108196244560713,1.034172728177894,-0.009850698057568583,0.6638932692615903,0.9750520406266832,0.0,0.0,0.0,0.0
0.002864931494289597,-0.03417692982188093,0.7358069917561764,-0.0026740209674274507,-0.5195808098356016,0.011417399922421132,0.8543408421944123,0.05667609685290308,-0.7521718145964054,0.7729238888377836,-0.049762305101826776,-0.8021974635305896,0.8636436133596145,0.008617843902973845,0.610802195234363,1.0333205885207137,-0.009809185729361259,0.6636986996303191,0.9749595069006812,0.0,0.0,0.0,0.0
0.002544123978307573,-0.03438621308277206,0.735938839828157,-0.0023799310191535954,-0.5195838368609985,0.011493706025878651,0.8543388479537484,0.05672151818267634,-0.7488098888343899,0.7675382302071398,-0.04961000465449895,-0.8009873485970093,0.8614512423675462,0.008632783366901247,0.6106318409315266,1.031733075614963,-0.009741969607066503,0.6632228686878117,0.974844534782133,0.0,0.0,0.0,0.0
0.0019323868191273535,-0.03485047028913068,0.7360844910218814,-0.0016998855774870655,-0.5195942954550927,0.011689128782321912,0.8543314595564532,0.056748136290231135,-0.7423334269811478,0.756825721720249,-0.04938601055970763,-0.7992575759581552,0.8577922169158609,0.008653653765398285,0.60984807957753,1.0294114858500547,-0.009619739823603509,0.6617797076872226,0.9758729022084136,0.0,0.0,0.0,0.0
0.000919457794820479,-0.03589674014664186,0.7363671910632572,-0.00013463583773378864,-0.519913938703303,0.012152643525420557,0.8541321861811281,0.056737140700356174,-0.7279555991802403,0.7345874196420978,-0.048965338073975705,-0.7956399947729487,0.8515949172910248,0.00871155371311925,0.6097052899589305,1.0248529514483644,-0.009412659877181548,0.6601751718611296,0.9788727308590442,0.0,0.0,0.0,0.0
0.0001832172432242829,-0.03686253207562345,0.7365990715097748,-0.00029460280113912583,-0.5201488908473679,0.010965235048600697,0.8540051569983471,0.050690901205747714,-0.7636654182391497,0.7819122362527893,-0.0430850894160964,-0.793817902326592,0.847264694141702,0.008757952193632894,0.6114014575750646,1.021798497739274,-0.0094750181465051,0.6572962661720776,0.9802289723071745,0.0,0.0,0.0,0.0
-0.0006787578488525269,-0.03809017762372119,0.7367689338359399,0.00010769011822381554,-0.5204864488726088,0.010061224911233362,0.853810644520262,0.04527480156444681,-0.7939204231895445,0.8066432279329455,-0.03771432390523367,-0.7919104362377165,0.8426817028505441,0.008814240835681109,0.6127258296218698,1.0185772044394967,-0.009468843690028227,0.6540086494279421,0.9835828024767267,0.0,0.0,0.0,0.0
-0.001558921015027552,-0.0393572687068803,0.7369411738757424,0.0007374118665066904,-0.520833031421419,0.009343836370252875,0.853607112391878,0.040490820464750596,-0.8198681708038398,0.818322821480533,-0.0329281381768725,-0.7898852029184407,0.8380372695143661,0.008871687096006,0.6139255236790145,1.0150670738675973,-0.00942378374495206,0.6508774268819805,0.9871922572149895,0.0,0.0,0.0,0.0
-0.0023872971232587097,-0.040550501201531815,0.7371438772824779,0.0014009975879963937,-0.5211533257777425,0.00873952415676007,0.8534171717009623,0.03625871234036151,-0.8422131914132335,0.8226339367164534,-0.028678991625954168,-0.7877833018788616,0.8335507931472784,0.008922671809878335,0.6151984458830762,1.011288929704539,-0.009362168321313835,0.6482119986060527,0.9902220959863666,0.0,0.0,0.0,0.0
-0.003130462402570761,-0.041633166717592644,0.7373530324945508,0.002023999761762181,-0.5214451595775568,0.008212701554879654,0.8532428731089825,0.032506046866914086,-0.8617340562517039,0.8227570677924172,-0.02490958076467869,-0.7857511360345386,0.8294265232030706,0.008967741226245628,0.6165090424790295,1.0075755061676417,-0.009296399743021383,0.6459867083744473,0.9927203541879839,0.0,0.0,0.0,0.0
-0.0037750848320990266,-0.04259853429920175,0.7375490240920972,0.002580449189891714,-0.5217140066278342,0.007744203879825314,0.8530813934652298,0.029169047700779566,-0.8792092518731003,0.8204099410401868,-0.021563122323145795,-0.7838917565863025,0.8257900238292103,0.009009068375457216,0.6178169734446367,1.0041523436278736,-0.00923327613855653,0.6441400232666984,0.9948410820498093,0.0,0.0,0.0,0.0
-0.00431982486118274,-0.043452480274820515,0.7377232707284752,0.0030655917987761775,-0.5219660577527303,0.007322656149165969,0.852929314426417,0.02619181629581524,-0.8953139604399577,0.8165063856778059,-0.018586541533635956,-0.7822509393085082,0.8226906540333634,0.009048474728150025,0.6191086447859934,1.0011115443914322,-0.009176168998348597,0.6426256391036679,0.9966945867327114,0.0,0.0,0.0,0.0
-0.004770313042196437,-0.04420608558111573,0.7378747509060681,0.003484084700731264,-0.522206395482912,0.006940673551887935,0.8527837760658845,0.023525453967000193,-0.9105718311563652,0.8115371637631529,-0.01593161992920803,-0.7808342509832099,0.8201230935871875,0.009087100694746136,0.6203881064450287,0.9984579788841614,-0.009126371752783424,0.6414103735135358,0.9983434391467758,0.0,0.0,0.0,0.0
-0.005135505040861882,-0.04487187234187883,0.7380061067241745,0.003844020360044393,-0.5224385732334862,0.006592907664012897,0.8526427706101568,0.021127195743440068,-0.9253593525571805,0.8057717226771921,-0.013555310418419994,-0.7796268349649472,0.8180519535446187,0.009125525998175019,0.6216658137808652,0.9961532590565387,-0.009084029039846196,0.6404669501948264,0.9998204790138661,0.0,0.0,0.0,0.0
-0.005424945894992916,-0.04546161773051057,0.738121024923059,0.004153499417210287,-0.5226645688931332,0.006274903316310871,0.8525052037698757,0.018959600845399525,-0.9399345856895304,0.7993589449240915,-0.0114196766551746,-0.7786093637577107,0.8164336543428948,0.00916396682552468,0.6229518859898044,0.994145547607482,-0.009048789552996785,0.6397701912926135,1.0011427332779075,0.0,0.0,0.0,0.0
-0.005646950637859298,-0.04598504819652129,0.738222731988924,0.00441858555338745,-0.5228847008212499,0.005982392159024435,0.8523709736569136,0.01698981274226792,-0.9544600090897397,0.7923795814509768,-0.00949163118725007,-0.7777694730244623,0.8152327962868863,0.009202430903035885,0.6242523201101515,0.9923872465011376,-0.009020229825788127,0.6392952642584568,1.0023191365583048,0.0,0.0,0.0,0.0
-0.005807933206226967,-0.04644921798972507,0.7383132242203412,0.004642282491360724,-0.5230972646815055,0.005710903358022359,0.8522412137879937,0.015188885020642418,-0.9689938662416239,0.784885196900916,-0.007742517522365857,-0.7771088213674358,0.8144306703159269,0.009240782124050845,0.6255653371755878,0.9908437835753778,-0.008998044755258979,0.6390150161518889,1.0033543335544268,0.0,0.0,0.0,0.0
-0.005913281862645252,-0.04685867887052226,0.7383930131972124,0.004824662842819781,-0.5232978308517706,0.005455725261413184,0.8521187346351192,0.013531173926384301,-0.9834311706610972,0.7769499993917046,-0.00614750703748543,-0.7766448068054298,0.8140225395044091,0.009278689373404593,0.6268757743618033,0.9894950151425538,-0.008981959209512783,0.6388939678584777,1.0042510539667775,0.0,0.0,0.0,0.0
-0.00597021780090564,-0.04721678765746122,0.7384613245714355,0.0049646666157578765,-0.5234784973079579,0.005212373545316971,0.8520084777181626,0.011993827574477464,-0.9973889218193079,0.7687594679477114,-0.004684751822300834,-0.7764041384789419,0.8139990834362582,0.009315463058476846,0.6281470298288792,0.9883294409313432,-0.00897129794906694,0.6388779419313663,1.0050138066437913,0.0,0.0,0.0,0.0
-0.005992617443800644,-0.04752852164887052,0.7385166995929393,0.00506416551261092,-0.5236280146113551,0.004977752786849545,0.8519174129685484,0.01055645842701311,-1.0100610410150528,0.7607557496273749,-0.003334302808769645,-0.7764043457002181,0.8143088223991034,0.009349859483579727,0.6293128836035816,0.9873323775110148,-0.008964225379441528,0.6388812829139484,1.0056576022517814,0.0,0.0,0.0,0.0
-0.006006109529759186,-0.04780453943131766,0.7385578230366361,0.005134010531808368,-0.5237345282890502,0.004751947391730914,0.8518528070093399,0.009201148790743345,-1.0201297486079342,0.7538381156070267,-0.002077067614909045,-0.7766216190733364,0.814808144439023,0.009380095583813277,0.6302771143318577,0.9864733622311275,-0.00895695541666141,0.6387804685834858,1.006224718677172,0.0,0.0,0.0,0.0
