zhuoxili-jackie/tripod-support-walk/examples/trajectory_tripod_com_tilt_v0.20.csv
root_pos_x,root_pos_y,root_pos_z,root_rot_x,root_rot_y,root_rot_z,root_rot_w,FL_hip_joint,FL_thigh_joint,FL_calf_joint,FR_hip_joint,FR_thigh_joint,FR_calf_joint,RL_hip_joint,RL_thigh_joint,RL_calf_joint,RR_hip_joint,RR_thigh_joint,RR_calf_joint,FL_foot_joint,FR_foot_joint,RL_foot_joint,RR_foot_joint
0.0,0.0,0.72963,0.0,-0.5231245161092812,0.0,0.852256264656019,0.0,-0.81,0.872,0.0,-0.81,0.872,0.0,0.65,1.0,0.0,0.65,1.0,0.0,0.0,0.0,0.0
-0.00010244739046462982,0.00011172351431540904,0.7295697585672514,-0.000162127858483042,-0.5230055813854458,-2.7769659331432812e-05,0.8523292408354153,-9.978085768011589e-05,-0.8108515967600488,0.8724043918103139,-9.978085768011589e-05,-0.8098761378632822,0.8710613037997601,7.856755032137279e-05,0.6489772714929746,1.000770302826718,7.856755032137191e-05,0.6492119378137383,1.000015945228113,0.0,0.0,0.0,0.0
-0.00022228821059793198,0.00021470483003131936,0.7295107763116877,-0.0003112445873231083,-0.5228746184490152,-5.1013764322147735e-05,0.8524095458793264,-0.00019871180187328117,-0.8116429898334473,0.8726464053907752,-0.00019845210632288716,-0.8097621244348473,0.8700618155307638,0.0001640318743634978,0.647882304159081,1.0014859607504998,0.00016427542215319144,0.6483444434734879,1.0000408277806312,0.0,0.0,0.0,0.0
-0.00032986296172669925,0.0002872957369539403,0.7294631843075527,-0.0004134843321970019,-0.5227390388430116,-6.040487524780571e-05,0.8524926525498283,-0.00028979444866823127,-0.8123637204639127,0.8728429828915314,-0.0002891719358201309,-0.8098334510882936,0.869380485046264,0.0002507949587135191,0.646887487079186,1.001967888672622,0.00025131045985519,0.6475366188521502,1.0000483405031046,0.0,0.0,0.0,0.0
-0.00041355702864812115,0.0003409574984983437,0.729409981376493,-0.00048563304239413954,-0.5225942923843149,-6.000831518154792e-05,0.852581354550337,-0.0003798114436526525,-0.8132060823026277,0.8732327550788026,-0.0003788347108890177,-0.8101859943574905,0.8691209977111276,0.00033985660311962437,0.6459238108290267,1.0023916358184286,0.00034054827008177957,0.6467375037392163,1.0001343963598794,0.0,0.0,0.0,0.0
-0.0004493941389730045,0.00041420381539713217,0.7293108280673493,-0.0005851421878606387,-0.5224331381670217,-6.514456330377866e-05,0.8526800510799836,-0.000486686889217467,-0.8146316343547378,0.8743894214302573,-0.0004852354102554471,-0.810956983645625,0.8694005560138809,0.0004313757893203331,0.6448199709063632,1.0032235326810488,0.00043232041876602797,0.6458324647546881,1.0004950534060717,0.0,0.0,0.0,0.0
-0.00039431306129851615,0.0005687811639471264,0.7291037767562009,-0.0008041029702653894,-0.5222425667762248,-0.00010053804329144793,0.8527966022197178,-0.0006392921887944001,-0.8174025447654059,0.8772795973864023,-0.0006367913707238786,-0.8123897043446339,0.8704565140301308,0.0005246151332828765,0.6433253633811465,1.0051782947780203,0.0005263486964657153,0.6446611283532733,1.001411642417151,0.0,0.0,0.0,0.0
-0.00021928634476551398,0.0008610346940816907,0.728722896656415,-0.001226477174224005,-0.5219878835146323,-0.00018713777471415658,0.8529519975925427,-0.0008703898043035394,-0.8223208462542965,0.8828090769411016,-0.0008652386530637,-0.814812976464993,0.8725392901362067,0.0006267488937643861,0.6410767055549748,1.0089469717012485,0.0006310012014051836,0.6429473433121506,1.0031860340166832,0.0,0.0,0.0,0.0
2.3816907433921912e-05,0.001276730977424852,0.728142967636406,-0.001830611590619538,-0.5215992573697329,-0.00031363208855427247,0.8531885871291649,-0.0011945082014690757,-0.8295349077776305,0.8907550696374856,-0.0011834632730832982,-0.8184939304509153,0.8756235368890134,0.0007653091595143128,0.6376283982595792,1.0145826366538016,0.0007760820323016884,0.6402415774277824,1.0059930082580402,0.0,0.0,0.0,0.0
0.00019911079268753932,0.0016786345599613182,0.7274381027695311,-0.0024086831518370312,-0.5209947121861123,-0.0004152711400273976,0.8535564045038057,-0.0015814159656911465,-0.8379970316905825,0.8992476005682447,-0.001561173836386228,-0.823530354960489,0.8794856325097771,0.0009838260543526577,0.6328128989006215,1.0208509953733196,0.0010044850335288176,0.6362112976416823,1.0095877063721026,0.0,0.0,0.0,0.0
0.00022568287574775182,0.0017853229814269378,0.7269415626885879,-0.002543890184948638,-0.5203566827764707,-0.0003919413897877627,0.853945137403183,-0.0018514262508978667,-0.8439734036650152,0.9043558033743018,-0.0018258635701110476,-0.8285502486322934,0.8834525214223131,0.0012409092123408668,0.6286714716581244,1.0242435207108669,0.0012639624312142121,0.6324605848780084,1.0123847511321562,0.0,0.0,0.0,0.0
0.0004598561354401605,0.0009278585117677155,0.7273529621267153,-0.0024474983162108,-0.5212151436367961,-0.0012381193637329146,0.8534209107211443,0.002657443012692731,-0.8354259552973727,0.8972825535931287,-0.006197236875410475,-0.8420348584114847,0.8696494481231065,0.0011055149471126578,0.6353818526772921,1.0200923676722269,0.0011298268176445309,0.6355223526874783,1.0123578543626288,0.0,0.0,0.0,0.0
0.0007508389146642445,-0.000289581607343359,0.7279080971541685,-0.0018741490591938055,-0.5220333272226187,-0.0019947578630856175,0.8529206960645601,0.007489061035171031,-0.8254271009114531,0.8886610236832294,-0.010707875571026437,-0.8676208237835719,0.8550774810683518,0.0009763374412423137,0.6431740263121264,1.0132583681471188,0.0010027836270965072,0.6390409694631268,1.0120964173130074,0.0,0.0,0.0,0.0
0.001107370532542634,-0.0015256142011649933,0.7283445267717412,-0.0012856473180771187,-0.5226896250018451,-0.0027456328876343896,0.8525176622958908,0.01229423098041425,-0.8169481282539125,0.881495221811819,-0.01529731421052656,-0.8979873608797264,0.8391702700210856,0.0008888875255525917,0.6502162100645908,1.0069489789748447,0.0009287572702096041,0.6417877610541315,1.0125364992417352,0.0,0.0,0.0,0.0
0.0015661075932505019,-0.0026941785435677604,0.7286033844007825,-0.0008096370839495865,-0.5232070350981229,-0.003527213264177573,0.8521979240048716,0.017060498254248588,-0.8106179957957396,0.8766898468664172,-0.01999908763646071,-0.9294933518241477,0.8225626915791127,0.000828003824990918,0.6563287226538629,1.0020412594077983,0.0008944525781714326,0.6437018171751552,1.0139314579167276,0.0,0.0,0.0,0.0
0.00214300747163004,-0.0038204018090358836,0.7287113586979549,-0.0004178104997023519,-0.5236100529288046,-0.004340817196665328,0.8519468852060825,0.02185660576911029,-0.8062108008972192,0.8741575447514741,-0.02485693063958471,-0.9600944934319386,0.805376404910965,0.0007820135429396647,0.6617730253858454,0.9982761805797152,0.0008865969652892874,0.6449895612765408,1.016157717862297,0.0,0.0,0.0,0.0
0.0028283943831649274,-0.004977460304756766,0.728722098997343,-1.5782987650216506e-05,-0.5239136453043689,-0.005173130512013843,0.8517556754935601,0.026779754774199353,-0.8031084295092993,0.873229949360439,-0.029918489879522184,-0.9880098969701538,0.7877852468669554,0.0007454384023573542,0.6668864051762285,0.994966214908352,0.0008988063210158723,0.6458536642293231,1.0190056136136378,0.0,0.0,0.0,0.0
0.0036450611525499633,-0.006225707533543743,0.7286491795289254,0.0004735974521074744,-0.5241087876573484,-0.006014107159519595,0.8516299577403743,0.03191209973577541,-0.8011673828777374,0.8737991795693318,-0.035243933081561395,-1.0105982376469407,0.7702453235666362,0.0007124849923103574,0.6718416756761756,0.9917383899005211,0.0009261489653792036,0.646353615622082,1.0224988748547121,0.0,0.0,0.0,0.0
0.004494847362418407,-0.007660532312203097,0.7285149877346108,0.0011670534743393108,-0.5241971061657295,-0.006851837496006587,0.8515686021669606,0.037385560662421435,-0.7993436328811221,0.8742171296678117,-0.04090392917475531,-1.0249950171179665,0.7550035226562772,0.0006904801911951357,0.6765582946709208,0.9881523981384702,0.0009782890770304172,0.6462312977984946,1.0268187022717499,0.0,0.0,0.0,0.0
0.005281123740246189,-0.009246251110144543,0.7284279167972644,0.0019803021873690116,-0.5242273773381099,-0.007729436157548395,0.8515409509055569,0.04326945954140511,-0.7966245462690298,0.8732663574439964,-0.046959226685680616,-1.0286491785650573,0.7464663831769296,0.0006853496378021703,0.6814020771464178,0.9835539689069709,0.0010682260785053993,0.6458444652598614,1.0310328646183906,0.0,0.0,0.0,0.0
0.005951198489917192,-0.010954656910652855,0.7284766496610121,0.002828154037346276,-0.5242945871364821,-0.008699705220241745,0.8514878170433254,0.04966472157776421,-0.7919931314517988,0.8699078602982536,-0.05348382508594954,-1.0201167690931041,0.7493310731784038,0.0006815024318414866,0.6869276426569328,0.9774946747939117,0.0011880505223218665,0.6456781272431845,1.0344696813491587,0.0,0.0,0.0,0.0
0.006587642883912191,-0.012870364810046329,0.7286782275244469,0.0038140552548066777,-0.5243825967994573,-0.009751785312157285,0.8514183741496284,0.05666942535745638,-0.7855149234678072,0.8644741197128101,-0.060561620605753985,-1.000194090667277,0.7580696818365621,0.0006620308660878874,0.6935367148303206,0.9693727811989459,0.0013283448181240674,0.6459404801605445,1.0371276573072432,0.0,0.0,0.0,0.0
0.0073305376363254566,-0.015077165112821454,0.7290473453089906,0.0050325415691204215,-0.5245106874421174,-0.010884273413070274,0.8513194141311603,0.06441095700885158,-0.7773171314412705,0.8576320078079025,-0.06829409939994913,-0.9706854209374525,0.7674885002425971,0.000586051466921181,0.7019243278862052,0.9585867302694028,0.0014627842552870178,0.6471008586018403,1.0390053137633497,0.0,0.0,0.0,0.0
0.008080159148108855,-0.01766671049057858,0.7296034979246366,0.006570622477440899,-0.524738728057706,-0.012108634224974322,0.8511518520063536,0.07303933210357763,-0.7659375882636518,0.8472606945017209,-0.07677219149632385,-0.9342471901623008,0.774452462650641,0.000439399534280876,0.7122318251766347,0.9447546431884807,0.0015998874484874854,0.6490376853606388,1.0403668685426406,0.0,0.0,0.0,0.0
0.008892653108861635,-0.02045953543485489,0.7301899451989434,0.008101921676028119,-0.5252312409003873,-0.01355632363604736,0.8508129809405058,0.08264041294498457,-0.7518850475931084,0.8341721696057784,-0.08614095623983889,-0.8928508562293365,0.7772210163096016,0.00015628698632027253,0.7242887838315543,0.9302222400335561,0.001693363544499586,0.6516976744504471,1.0422064880664363,0.0,0.0,0.0,0.0
0.009733942726739183,-0.023022899243656636,0.7304611590265281,0.008960987296072248,-0.5261779956051531,-0.015421783768092428,0.8501873830121413,0.0931149329989225,-0.7369332766577532,0.8202123236305019,-0.0965117659277692,-0.846973195259508,0.7724324997681763,-0.0002938207087761683,0.7364035570635548,0.9204237868791566,0.001696610972784471,0.6541097337973248,1.0465953810457889,0.0,0.0,0.0,0.0
0.010558103629921458,-0.024965835992766812,0.7302806825578247,0.008589443078519643,-0.5275399522816552,-0.01782119315593932,0.849299844159157,0.10425027917517105,-0.7235341513649842,0.8082245042367845,-0.10795906389043479,-0.7947031622509214,0.750920362301298,-0.0008611916808516516,0.7471463796013056,0.9183752395911818,0.0016306185686874126,0.6556454780807364,1.0535479012357476,0.0,0.0,0.0,0.0
0.01109294336359948,-0.025900433727565304,0.7297524671125523,0.00651382902330973,-0.5288954054000584,-0.02075918826209825,0.8484080835782163,0.11554990632982771,-0.7146706030138833,0.8009221798309082,-0.12040188663010487,-0.7353589431627546,0.6957428638708231,-0.0013552682538685483,0.7545354350905561,0.9240912508812251,0.0016914363025180485,0.6551176536240022,1.0606384121523387,0.0,0.0,0.0,0.0
0.011188972360823526,-0.026060519021286442,0.7296979141559111,0.006554780617549557,-0.5288220734644881,-0.020871865610328905,0.8484507143574809,0.11619708999010846,-0.7147700000934494,0.8010312750944114,-0.1212836321267299,-0.7351285166911882,0.6957372845347225,-0.001448812810981741,0.7548674055481421,0.9236391822379934,0.0017692491703845082,0.6547838512807941,1.0611667829600127,0.0,0.0,0.0,0.0
0.011188972360823526,-0.026060519021286442,0.7296979141559111,0.006554780617549557,-0.5288220734644881,-0.020871865610328905,0.8484507143574809,0.11619708999010846,-0.7147700000934494,0.8010312750944114,-0.1212836321267299,-0.7351285166911882,0.6957372845347225,-0.001448812810981741,0.7548674055481421,0.9236391822379934,0.0017692491703845082,0.6547838512807941,1.0611667829600127,0.0,0.0,0.0,0.0
0.011552469602579545,-0.02618158145978384,0.7292928651106954,0.006727106579986464,-0.5283659525661438,-0.020809663759321227,0.8487350140651421,0.11644031884004312,-0.7201753131973779,0.8074707625829511,-0.12153155251982874,-0.742276001367492,0.7048117719434253,-0.0012208233105301819,0.7528821237459087,0.9255210583515799,0.0020024030418390546,0.6528302721372449,1.0637978158520491,0.0,0.0,0.0,0.0
0.01201495069847045,-0.02631102578382633,0.7288997894285792,0.006896129612527265,-0.5281506363961028,-0.020766932835272547,0.8488687078526185,0.11672786110070762,-0.7245510846101766,0.8133449587084144,-0.12167603262808817,-0.7484391884262701,0.7133154399860757,-0.0010847502863223146,0.7519374309210148,0.9276727507361934,0.0021544519483628513,0.6518733353837444,1.0666608000044788,0.0,0.0,0.0,0.0
0.01253584489301089,-0.02652383211967647,0.7285558457846016,0.007176507090834127,-0.5280983966074375,-0.02071096559491812,0.8489002515907007,0.11706686703418874,-0.7276492349938325,0.8181054175298221,-0.12170282810732394,-0.7542449517370623,0.7219963437087246,-0.0010153774290691817,0.7519652292854527,0.92929364713505,0.0022514385178233646,0.6517238295290069,1.0695482165590393,0.0,0.0,0.0,0.0
0.013106023343566382,-0.026875516193103535,0.7282770559523402,0.007653990578038475,-0.528160014265895,-0.020617867405959993,0.8488600116052771,0.11747031507392386,-0.7293874696960317,0.8215414938962656,-0.12160497343709571,-0.7602453137217161,0.7315662749489247,-0.0010021336020394822,0.7529403289491582,0.9299024232006892,0.002307176583787985,0.6522770260861195,1.0723970525060287,0.0,0.0,0.0,0.0
0.013721451521183757,-0.027425437712233127,0.7280844484176625,0.008421043251412264,-0.5282909987396222,-0.02046221237918247,0.8487750023096813,0.11795262042282058,-0.7296398829172697,0.8234189976023268,-0.12137372352832947,-0.7669762592784833,0.7427431471687914,-0.0010387446588229412,0.7548880944447152,0.9289672220012992,0.002333886429348642,0.6534775366716697,1.075116041896279,0.0,0.0,0.0,0.0
0.014396556993805612,-0.028243956795277816,0.7280079874425309,0.009586953565884035,-0.5284533256013901,-0.020214775380871814,0.8486675060578539,0.11853234536594154,-0.7282439311976285,0.8235437917151911,-0.12099661752917563,-0.7750525059386321,0.7564416077227315,-0.001128984996056672,0.7579668694365269,0.9258128281190688,0.002341170440103626,0.6553815280518953,1.0775574206121135,0.0,0.0,0.0,0.0
0.015167216751362525,-0.029390565030848102,0.7280758289922846,0.011244978292821886,-0.5286094227331828,-0.019850124460420712,0.8485585431894437,0.11922600756214613,-0.7251926331707204,0.8219959886121108,-0.12046959217305946,-0.7851001453707191,0.7736266035797852,-0.001284624279543773,0.7623965591541935,0.919777495300815,0.002342112421130095,0.6581137011290973,1.0795283636246198,0.0,0.0,0.0,0.0
0.016040890106809792,-0.03080426707397968,0.7282787947098202,0.01330611229083454,-0.5287408459541483,-0.019388883681557417,0.8484575041715279,0.12000763506101118,-0.7209429807204628,0.8193698488964841,-0.11982166353980042,-0.7968019400786778,0.7937292835984159,-0.0015161390265842202,0.7680787337789652,0.9110871757534693,0.002353601022897999,0.6616443984873112,1.0808731852733646,0.0,0.0,0.0,0.0
0.0168555929796912,-0.03197595608171531,0.728390044241936,0.015006438114507052,-0.5289367839714921,-0.01902296549287029,0.8483152787501046,0.12070036583795286,-0.7174789230944417,0.8175841894708344,-0.11921346874081126,-0.8063592295242782,0.8103303043043806,-0.001781236404607265,0.7731231690996558,0.9043669836678037,0.002369706383441366,0.6648896106908994,1.082440779302844,0.0,0.0,0.0,0.0
0.01764787925793805,-0.03281461544176408,0.7283911020294894,0.016202642438387472,-0.5292635157220961,-0.018793221628189125,0.8480945820628345,0.12129748237591986,-0.7151782916033147,0.8174026801999205,-0.1186806779445167,-0.8133157741728227,0.8230637810772321,-0.002077150453628928,0.7776081429257764,0.9003291208898697,0.0023362834591023943,0.6680759498706951,1.0842148407916814,0.0,0.0,0.0,0.0
0.01842602293891939,-0.033375862236643704,0.7283196515647317,0.01697658286287924,-0.5297137769261628,-0.018678611076646867,0.8478008136686156,0.1218177357319813,-0.7137458820304551,0.8185223969032337,-0.1182141945004369,-0.8180880018667707,0.83270470305909,-0.0023953769180847166,0.7817622084097411,0.8983942511883303,0.0022365992119694226,0.6713475060163472,1.0860129923452166,0.0,0.0,0.0,0.0
0.01920038291589242,-0.03372513618393738,0.7282137036899714,0.01742489161901016,-0.5302718655840407,-0.01865392018698075,0.8474433036986867,0.12228037591243929,-0.7128771983023773,0.8206080990643678,-0.11779610514014557,-0.8211303172912444,0.8400345064550523,-0.002738556268901259,0.7858368994564526,0.8978771634523026,0.002066270508426431,0.6748347489392161,1.0876553303692151,0.0,0.0,0.0,0.0
0.019990842207205827,-0.033904817718306404,0.7280994840613882,0.017608334789492155,-0.5309384467656071,-0.018704230068384224,0.8470209348473122,0.1227006895703576,-0.7123703519380926,0.8235035793071419,-0.1174096247088091,-0.8227202400029596,0.845594326756703,-0.0031182130107766043,0.7900897628625014,0.8983041730782999,0.0018197541163540794,0.6787024927102953,1.0890084037677707,0.0,0.0,0.0,0.0
0.020816867537518793,-0.03394514196227083,0.7280004705321537,0.01756850731399752,-0.531721469849744,-0.018819957045108745,0.8465278703435617,0.1230906309755705,-0.712046700620906,0.8270945848201579,-0.11703771123838344,-0.8230139352962067,0.8497543833240739,-0.0035481661677743428,0.794776192046285,0.8992861203394926,0.001491995883717611,0.6831292808101295,1.089935821311049,0.0,0.0,0.0,0.0
0.021663372080126263,-0.033904836088899055,0.7279602000781243,0.01739160948282132,-0.5325984006222462,-0.018978221708708068,0.8459765378986568,0.12345952627141643,-0.7115117889171764,0.8308436040882318,-0.11665188915822337,-0.8222491609393262,0.8528946341258257,-0.004033167361480254,0.8000798427119262,0.9001124337975487,0.0010939104917472157,0.6881773160513452,1.090205547344422,0.0,0.0,0.0,0.0
0.02249510442257219,-0.03388420261776686,0.7280666331508476,0.017228498496754955,-0.5335121103546492,-0.01913804049227709,0.8454003444230384,0.12381726410485043,-0.7101138998970856,0.8338363068402536,-0.11621076184463278,-0.8208502589876238,0.8556582950852675,-0.004569147954334423,0.8062687460956355,0.8994484976959093,0.0006522226498298579,0.6939228168791051,1.0893023658951686,0.0,0.0,0.0,0.0
0.02322191603214138,-0.03412707938415655,0.7285677265145225,0.017451724767904894,-0.5342789469837231,-0.01919680901270059,0.8449100109694044,0.12418187730736625,-0.706406048556975,0.8340293533526281,-0.1156336099351326,-0.8199903639789847,0.8597908515966923,-0.005122257054574855,0.8139744854601194,0.8936905638380255,0.00024131440494318463,0.7005428073336385,1.0856434456568516,0.0,0.0,0.0,0.0
0.02385804834049488,-0.03523275782308219,0.7304780224424922,0.01893729687556585,-0.5344055331732629,-0.01891973633864408,0.8448042071851461,0.12463008664884836,-0.6970196943060082,0.8284149677159027,-0.11473240442672736,-0.8227445466410243,0.871627403086892,-0.005627813396157619,0.8275060596088352,0.8694840194511597,1.1929334047855607e-05,0.7108340478363585,1.0714658313747223,0.0,0.0,0.0,0.0
0.02346800976142678,-0.03629453777572506,0.7336076466412689,0.019830883199127458,-0.5326642722378111,-0.018423957752717553,0.8458936498955596,0.12489943380824121,-0.6910726284561534,0.8231652260408439,-0.11425791777824067,-0.8255333125114588,0.8805150308073061,-0.010842276786671873,0.7682893033336048,0.9615520410075941,0.005642241754308814,0.719163122596794,1.0455598288014216,0.0,0.0,0.0,0.0
0.02304860742741626,-0.03749743457015655,0.7369813138805298,0.020848992818600972,-0.5308389485157773,-0.01786219626370282,0.8470279051966061,0.12517989926438544,-0.6839748543885543,0.8165281870126241,-0.1136991701090321,-0.8282656963946395,0.8898328808222963,-0.01618507099691908,0.7214801086209988,1.0336249899458498,0.011321794996745023,0.7287567573452652,1.0167707121144753,0.0,0.0,0.0,0.0
0.02254511631791739,-0.03868516274600815,0.7401618843852681,0.021785727560818736,-0.5290176918733033,-0.017289074646610673,0.8481549101771164,0.1254645470064192,-0.6771131258841238,0.8092681662512955,-0.1131302005161489,-0.8306909783717623,0.897927480377536,-0.021721778074820536,0.685388532720309,1.092899331489599,0.017063927081259308,0.7378384366694856,0.9886775109471725,0.0,0.0,0.0,0.0
0.021865218447396095,-0.03977763812456644,0.7430525093903395,0.022524585760668573,-0.5271571412171557,-0.016726061569809735,0.8493045568960695,0.12573225779417094,-0.6710698568614907,0.8015828013330776,-0.11259866866548277,-0.8325468058411175,0.9037920400927447,-0.02752847565906184,0.6562661074526406,1.1453357094534378,0.022989247422639688,0.7454868671510366,0.9622152479739814,0.0,0.0,0.0,0.0
0.02087799095711857,-0.04075510352713019,0.7456155887236795,0.023027964097553047,-0.5251477469939059,-0.016163985977058922,0.8505458731039025,0.12596494124056573,-0.6661460143314777,0.793149055959098,-0.11213856616895432,-0.8338694991144335,0.9067714155623261,-0.033686079918823324,0.6312822352726283,1.1933450776079633,0.029263693153460096,0.7507430508401682,0.9378963128723801,0.0,0.0,0.0,0.0
0.019393648170802063,-0.041643513524624955,0.7477360297204625,0.023321063625006647,-0.5228433662348669,-0.015568061559642944,0.8519674746343703,0.12615370812974355,-0.66258055321483,0.783045158319711,-0.11177220589092,-0.8350520961949978,0.9062349317283629,-0.040281705422741385,0.6088037599274057,1.236267011910519,0.03607472381094322,0.7519972400155579,0.9170863884188979,0.0,0.0,0.0,0.0
0.017313429600323123,-0.042484399565175864,0.7495063508788353,0.02341658614532487,-0.5200807063301189,-0.014896818735788377,0.8536660981836026,0.12629022487485148,-0.6604355052863475,0.7708731964671306,-0.11152675087384706,-0.8363624517057701,0.9022222548630072,-0.04740831237913754,0.5875688521589724,1.2720959216126826,0.043620863016318644,0.7489453697134509,0.8989354250540488,0.0,0.0,0.0,0.0
0.014547221537190316,-0.043357170819099164,0.7510388229632139,0.023361111471322884,-0.5166642552599336,-0.014086468239242644,0.8557533974341366,0.12637532074376046,-0.6597357705358976,0.7561315875819498,-0.11143143692969008,-0.838302864722851,0.8951124540040929,-0.055166742757046666,0.5671086181286997,1.2960530564995454,0.052121035247620504,0.7414769200745094,0.8821269908206355,0.0,0.0,0.0,0.0
0.011024523820702537,-0.04437184590914896,0.7524786855766017,0.023214496077132593,-0.5123712142445959,-0.013051945487923105,0.8583510195161322,0.12641734358950626,-0.660507080505932,0.7383377206411416,-0.11152480601412748,-0.8415476559259024,0.8856247944342356,-0.0636670487584522,0.5484463133553048,1.2997761237580316,0.0618147831976142,0.7298362912439095,0.8646473040891531,0.0,0.0,0.0,0.0
0.006726314345198737,-0.04565163454266177,0.7540002683363992,0.023017697258733913,-0.5069859856835187,-0.011695431466458019,0.861567532359611,0.1264351512781422,-0.6628564500178211,0.7173067968908925,-0.11185873133341748,-0.8468404421128475,0.8748352495543358,-0.07302939892793642,0.5353559225685633,1.2716325903151584,0.07293791858341975,0.7148702296258733,0.8436785127419304,0.0,0.0,0.0,0.0
0.001574094759080327,-0.04723616974679001,0.7555518854577805,0.02267473709254156,-0.5003906627284559,-0.00994901905423504,0.865445583483918,0.12644333653343343,-0.6671951305720476,0.6926782911390335,-0.11250428578154102,-0.8543381726627408,0.8623906602466905,-0.08337058730302296,0.5229239618266073,1.2231775017938924,0.08566117287019173,0.6966221931949651,0.8182430640017869,0.0,0.0,0.0,0.0
-0.004422035610422599,-0.04916622143022822,0.7570330337428784,0.022073644122143073,-0.4925341203621885,-0.0077497175737985865,0.8699786413422691,0.1264856624008442,-0.6741074203021447,0.6646004311647516,-0.11354192482663183,-0.8643506652564448,0.8484037427583563,-0.09482600239228278,0.5086529656236878,1.1621967656419516,0.10009656107582007,0.6755332147599156,0.7874717002813687,0.0,0.0,0.0,0.0
-0.011127429874465805,-0.05140343479045634,0.7582115864093644,0.021013784039256522,-0.4835173058073709,-0.005091518644097377,0.8750677186955473,0.12663972290483064,-0.6847193052261467,0.6344618579581617,-0.11506706351751787,-0.8770478121596048,0.8330771370110316,-0.10754044284536324,0.4916677073588078,1.093764500808443,0.11621938656552429,0.6521464435431913,0.7516883518933896,0.0,0.0,0.0,0.0
-0.018026774368786455,-0.05379642332126004,0.7585732847492637,0.019279482981786385,-0.47368363985478334,-0.0020840029556854216,0.8804815544925173,0.1271082585404636,-0.7023475411398349,0.6082004442074185,-0.11720685983783137,-0.8939377050450342,0.819208427892011,-0.12164796000075062,0.47441184130461966,1.0215944629956315,0.1337051215607507,0.6264275473881643,0.7151914763243735,0.0,0.0,0.0,0.0
-0.024644688302903194,-0.05630023916797193,0.757946200849148,0.016831627901559103,-0.4633166029443101,0.0011845419580655625,0.8860321769544701,0.12804958107616535,-0.728999306576843,0.5906585973619596,-0.12001763700222269,-0.9162513681409719,0.8100083502375794,-0.13737342285709778,0.4580974489895099,0.9436152183042668,0.15238531740456626,0.5989266283901894,0.6805498896395736,0.0,0.0,0.0,0.0
-0.03044117729403644,-0.05870188886783922,0.7565934895924706,0.013482353973296717,-0.4528824767721424,0.004508480285951556,0.8914568761132419,0.12951706408048846,-0.7654549195230299,0.5869194491460329,-0.1234643859222629,-0.9427053621565009,0.8070083886520637,-0.15492345866925156,0.44380151369126764,0.8610651415869439,0.17198339525237583,0.5728637976455242,0.6464314223745371,0.0,0.0,0.0,0.0
-0.03445306223162495,-0.06035528915813135,0.7548676386508051,0.008967985266426365,-0.44387266466023406,0.007305235770178624,0.8960152154612256,0.13141022666829513,-0.8097757803688305,0.6029831558178413,-0.12712120753267875,-0.9677040547422634,0.8093294073478556,-0.1741402799966638,0.4332182282758903,0.7922815293059535,0.19137254774110196,0.5535037417456248,0.6152675476662327,0.0,0.0,0.0,0.0
-0.03435798535136538,-0.06052299864471518,0.7543296451553858,0.008535802035672817,-0.4439408221841626,0.007470600374935941,0.8959843060076976,0.13160005978263825,-0.8107423707609079,0.6020521295126791,-0.1274222164519792,-0.96806155327087,0.809239277737787,-0.17560981729603595,0.43327929364036133,0.792365528775653,0.1921846458353781,0.5539312647522493,0.6151593255755101,0.0,0.0,0.0,0.0
-0.03435798535136538,-0.06052299864471518,0.7543296451553858,0.008535802035672817,-0.4439408221841626,0.007470600374935941,0.8959843060076976,0.13160005978263825,-0.8107423707609079,0.6020521295126791,-0.1274222164519792,-0.96806155327087,0.809239277737787,-0.17560981729603595,0.43327929364036133,0.792365528775653,0.1921846458353781,0.5539312647522493,0.6151593255755101,0.0,0.0,0.0,0.0
-0.03449928353346079,-0.06022974715046611,0.754433208172984,0.008148156798493561,-0.4454382646483788,0.007186732281533009,0.8952467318046693,0.13128568794999337,-0.8003426090316729,0.5903934563854335,-0.12671049271559318,-0.9570866718323652,0.7974768642794183,-0.17714646771491274,0.4348553358300594,0.799216753444547,0.19196553423435794,0.5576769227582146,0.616310860850259,0.0,0.0,0.0,0.0
-0.03472002389813906,-0.05981013126864157,0.7545792547119972,0.007645859834827383,-0.44656430210807735,0.006887180498758782,0.8946923670485233,0.13095308363824434,-0.7926313845586995,0.5817109112060066,-0.1262055005492452,-0.9471288822354494,0.7859998790266244,-0.17847589665051924,0.43610322868773305,0.8040882059889751,0.19177103040721358,0.5606430689330687,0.6162614647531746,0.0,0.0,0.0,0.0
-0.03495192979243546,-0.05933076289985684,0.7547207414598401,0.007090652610040332,-0.44741380929096003,0.006594546872940429,0.8942746322315404,0.13062177812472764,-0.7871995642635682,0.5756877702521456,-0.1258800400644379,-0.9383905050961016,0.7754330411140054,-0.1796072654189015,0.4369581109204053,0.8078811292343216,0.19156799299013727,0.5630142914916199,0.6155461751452341,0.0,0.0,0.0,0.0
-0.035192054184370006,-0.058770097035988796,0.7548328517064923,0.00643866775420225,-0.44806003089218277,0.0062929587881227385,0.8939581371317888,0.13028269852869093,-0.7837900603030644,0.5720663023501746,-0.12571594222655005,-0.9304062703335466,0.7652689770799864,-0.18056016104269187,0.43728779477875973,0.8113335043588022,0.19134272213478645,0.564931242057003,0.6143065648499523,0.0,0.0,0.0,0.0
-0.0354529334098615,-0.058078012114551075,0.7548949822108382,0.00561477888126487,-0.4485502101905835,0.005955406207645362,0.8937201554921986,0.1299240161869254,-0.7823670123401973,0.5708259543679293,-0.12570585862925365,-0.9226253165068107,0.754757629450863,-0.181356793113347,0.43691599843719225,0.8150752961852604,0.19109074643717347,0.5664501584082765,0.6125970096617441,0.0,0.0,0.0,0.0
-0.03574322134427195,-0.05719857018493644,0.7548910824429163,0.004539814387875138,-0.4489137126288243,0.005553151582381634,0.8935463229215551,0.12953728934960113,-0.7830557200807294,0.5721694559097799,-0.12584760135783274,-0.9145687907444253,0.7432127358284344,-0.18202134084316804,0.435689255078833,0.8196095770179032,0.19081362561586013,0.5676102029172874,0.6104116223219784,0.0,0.0,0.0,0.0
-0.036065699933714786,-0.05607181813911883,0.7548059073750215,0.003130764392589776,-0.44916606139092297,0.005055979650582043,0.8934285000371639,0.12911769378868806,-0.7861225863201405,0.576493267796191,-0.1261428620893384,-0.9058297746736316,0.7300209335342739,-0.18257704378166034,0.4334608593687796,0.8253707117586329,0.19051582178973975,0.5684407090767727,0.6077006953822313,0.0,0.0,0.0,0.0
-0.036433458599026206,-0.054717381624325434,0.7546458323975522,0.0014113431698195467,-0.4493057305164289,0.0044698673826527105,0.8933657643547445,0.12866586890886503,-0.7912692411151618,0.5832988826203448,-0.1265663056684616,-0.896349203137029,0.7150496380629664,-0.1830118671845144,0.43028933319225726,0.832159786041715,0.19018274595996287,0.568969882349202,0.6043617834424145,0.0,0.0,0.0,0.0
-0.03681373916394425,-0.0536401127569676,0.7545143250498997,5.677632090093736e-05,-0.4493072315164641,0.004018817198026876,0.8933682653820813,0.12825406430548955,-0.795379024429331,0.5881106211635073,-0.12695723835752354,-0.8887328418396205,0.7023970741108188,-0.18322668785852617,0.4274792492839837,0.8369408829650471,0.1897731415613574,0.569191518817538,0.6009957093287297,0.0,0.0,0.0,0.0
-0.037229262726324444,-0.052870803483779504,0.7544301105537445,-0.0008931710246968508,-0.4491739363943383,0.0037146703100110366,0.8934361635472472,0.12789000724161761,-0.7980773436603356,0.5903725308623826,-0.12730345848485586,-0.8830389007283503,0.6921949292360402,-0.18319114337127823,0.4251039786928594,0.839459971690748,0.18926659601672824,0.5691590213370897,0.5974631374815993,0.0,0.0,0.0,0.0
-0.03771955211498251,-0.052370409574659035,0.754389592111227,-0.001492740863499811,-0.44889887666130573,0.0035392168976518573,0.8935743081583555,0.12756844629502118,-0.7994152726486073,0.5900262655615878,-0.12761442309240353,-0.8789396627908594,0.6838505838297289,-0.1828757277873899,0.42298956709749935,0.839860147120881,0.18863848469870334,0.5688451434152939,0.5935497115170582,0.0,0.0,0.0,0.0
-0.0383240943142783,-0.05210841811606784,0.7543994117638224,-0.001784609791173915,-0.4484627622888026,0.0034795097650380255,0.8937929620555227,0.12728042652318147,-0.7994090683077905,0.5869436296661563,-0.12789930802497537,-0.8761487581259688,0.6768118814007362,-0.182238192832671,0.42104148317299184,0.8380516341519506,0.18785470353176312,0.5683013483378999,0.5888321700659295,0.0,0.0,0.0,0.0
-0.03907063897894772,-0.05208035060140958,0.7545022533740178,-0.0017764276239051282,-0.44783798587374524,0.003535655782281692,0.8941059679096395,0.1270145377806308,-0.7979122408919858,0.5808563783700161,-0.12816078492965768,-0.8745112348462941,0.6708320509079545,-0.1812212808332885,0.4194513186633178,0.8333972945100961,0.18687131716691766,0.5678717340423928,0.582387387675262,0.0,0.0,0.0,0.0
-0.03986511357098625,-0.05234961003832631,0.7548324141477312,-0.001383618696938091,-0.4469972539727915,0.0037391923196616896,0.8945264439807701,0.12678113255381385,-0.7949347534021044,0.5723649807494561,-0.1283986099009652,-0.874760643082086,0.6676083176276549,-0.1797997481362446,0.4193292394027461,0.8240779663655692,0.18567420268875198,0.5687951047372215,0.5722801774924886,0.0,0.0,0.0,0.0
-0.04024881841828485,-0.05290145076120877,0.7555335805989063,-0.0006218497816859718,-0.4458850422277496,0.0040863703436049646,0.8950806913333691,0.12667988751839795,-0.7938876195157174,0.5683272130007732,-0.12873482946513204,-0.8797910150088115,0.673054120797997,-0.17814248467350688,0.42248693011678085,0.8085835478356843,0.18439972434208365,0.5732343594845118,0.5561969565107472,0.0,0.0,0.0,0.0
-0.039970783049711724,-0.053729192484653215,0.7568177083224101,0.000501495158795157,-0.44442321372611593,0.004580476949910311,0.8958050986876934,0.12674271017777028,-0.7966397584690388,0.5728047994043612,-0.12923229931875788,-0.8909713838696174,0.6903317862901609,-0.17623677037105612,0.4308460997865965,0.7840839906176056,0.18303592265836902,0.583799418304813,0.5299571459984591,0.0,0.0,0.0,0.0
-0.03887554055438323,-0.05457083413017424,0.7575220720066587,0.0016431885326044866,-0.44258053284340204,0.0051072249793474465,0.8967127121506123,0.1271915972547827,-0.8099715516642154,0.5930520382261666,-0.13026251456127017,-0.9110770639767356,0.7201966589132034,-0.17463953425515857,0.437126936859338,0.7644891101821979,0.18206608251999723,0.5911954831281664,0.5106501863776731,0.0,0.0,0.0,0.0
-0.03623552042758504,-0.05529317080116018,0.7581264730806169,0.0026626734091808914,-0.4409363791548505,0.005618599540831316,0.8975168249382993,0.12789801690055425,-0.8337104796306356,0.6338723530247092,-0.13179009853975066,-0.9382740006697899,0.7647778834977174,-0.17400284898662585,0.44579616417806717,0.7487861370139173,0.18211808850878305,0.6005253102878909,0.4956513089745762,0.0,0.0,0.0,0.0
-0.030238592329339162,-0.055343613342555886,0.7608526600431617,-0.0040498601653944175,-0.45354789832856424,0.0073003118984180425,0.8911928006893731,0.1251154186302593,-0.8025314422725291,0.6405705071360436,-0.1283964216929564,-0.8765006951508901,0.7438728189700169,-0.15666676475172353,0.47925116046389404,0.7874920600916595,0.16112046260312754,0.589814491563664,0.6228613536414321,0.0,0.0,0.0,0.0
-0.023132638357533854,-0.0551644499688042,0.7627901054090785,-0.009941863937525613,-0.46562871978469006,0.00888191584080585,0.8848797467589115,0.12309867929092748,-0.7816340816886744,0.662811109686768,-0.12597916948789142,-0.8246626073197417,0.7337181927257563,-0.1409520463109358,0.5168503209019123,0.8217520636987353,0.14195123028528656,0.5793112166777906,0.74933722651146,0.0,0.0,0.0,0.0
-0.015665618908871116,-0.05504504175833718,0.7634027861924598,-0.014774584505039873,-0.47657020748845336,0.01037463010815603,0.8789510316492238,0.12185035112663058,-0.7702783451239266,0.6938775225142162,-0.12443346832347034,-0.7864588799237355,0.7354638537276896,-0.12685106137679486,0.5522314460667891,0.8558024526331527,0.12471559744553995,0.5678057343582373,0.8751803038464429,0.0,0.0,0.0,0.0
-0.008181836617863997,-0.0550068948551837,0.7629047098585001,-0.018745198567090622,-0.4863177067665312,0.011749126181083291,0.8735019540046853,0.12113758874770147,-0.7664874072270609,0.7300319700259662,-0.12358007571520958,-0.7603795797902914,0.7473613937223312,-0.11397038281468255,0.5846559080729603,0.8890531650044108,0.10912226537560861,0.5644121595670808,0.9840317136452855,0.0,0.0,0.0,0.0
-0.001328567422411317,-0.055020838678987785,0.7621033128747433,-0.021905646762528184,-0.4946423452335461,0.012930426324187618,0.8687242928667572,0.12074097321053612,-0.7652906192178187,0.7638096468256222,-0.12307722038945189,-0.7418331388360521,0.762825698061986,-0.10219553751246663,0.615560426459749,0.9143005315368065,0.09507278063554729,0.5665418564404718,1.0701342441953792,0.0,0.0,0.0,0.0
0.004476595247172406,-0.05530192746000065,0.7614810107760754,-0.024016394479012312,-0.5013780557904962,0.014021945350487654,0.8647812688862765,0.12053022974121691,-0.7632502230442691,0.7899894024477978,-0.12275400687431061,-0.7291527276634346,0.7793777015975132,-0.09112861491387171,0.644076411694607,0.9288549978927094,0.08232206760120966,0.5690519164655256,1.1406660559404145,0.0,0.0,0.0,0.0
0.009182578758086767,-0.055864842677526894,0.761075927667375,-0.025171863416498557,-0.5066730935064523,0.01505435735354754,0.8616392051975204,0.12044459266511807,-0.7599300632920591,0.8084096826162158,-0.12253433767187193,-0.7210582473385033,0.7956959506706563,-0.0806339221540272,0.6685263832924211,0.9357788774906358,0.07070376873925469,0.5712192936402737,1.19776354759481,0.0,0.0,0.0,0.0
0.012879600900220275,-0.056652827846199884,0.760762114653377,-0.02558943680319081,-0.510766599890448,0.016034515734069145,0.859188893937544,0.1204465824971276,-0.755824073401884,0.8203236452064947,-0.12238033258153275,-0.7165616178724513,0.8110381643827517,-0.07065681615540166,0.6879143214754824,0.938765273960207,0.060067915803841895,0.5737878974153283,1.2398526541946777,0.0,0.0,0.0,0.0
0.015701479840669476,-0.057595997811716815,0.7604056147493116,-0.025491703472714296,-0.5138756611671633,0.016962248646222033,0.8573180623519685,0.12051334544841034,-0.7516293302116963,0.8272555247515523,-0.12227403267869849,-0.7149840817916542,0.8251204877247517,-0.061163768254685225,0.7019693762833233,0.9405434752795658,0.05027800693875066,0.5788503788949532,1.2609776798426708,0.0,0.0,0.0,0.0
0.01781199557483025,-0.05862493199139003,0.7599326481338415,-0.02507436949216693,-0.5161782594584079,0.01783460340872362,0.855928272332625,0.12063282358465509,-0.7480349838675426,0.8308552719554345,-0.12221222009336123,-0.715847725978317,0.8380697670242228,-0.052123994902339585,0.711070456801064,0.9425937530272641,0.04120910036073351,0.591002212843629,1.2510104038281475,0.0,0.0,0.0,0.0
0.01928160347232465,-0.05971457198465339,0.7590948562678912,-0.024467702399629213,-0.5178798514741866,0.018659921518701404,0.8548997592146541,0.1207964589402534,-0.7453976288353097,0.8315702483912313,-0.12218432365466882,-0.7188265249045115,0.8494966924126711,-0.04349256386466893,0.714677375912008,0.9478797148565571,0.032729777652801335,0.6057057501863979,1.2221119819408794,0.0,0.0,0.0,0.0
0.020201520719583466,-0.06082932599474366,0.7577190461814766,-0.023789604572509417,-0.5191512057028428,0.01943731493186029,0.8541301254023347,0.12100027168194974,-0.744095036664227,0.8300842467183428,-0.12218962632143375,-0.7236535798826143,0.8592519337804243,-0.03522348977040946,0.7126980992651805,0.9583672318183667,0.02471820611951408,0.6215033186066193,1.1824380573687803,0.0,0.0,0.0,0.0
0.02066465815877736,-0.061919094995705234,0.7556995392132918,-0.023157034922994264,-0.520116209323251,0.020155852996100312,0.8535435677941619,0.12124227355063501,-0.7445467043793977,0.8272368715894001,-0.1222376926826147,-0.7300617668402858,0.8672395314320187,-0.027262727071663474,0.7053294935283589,0.9751245355825143,0.017060125536807275,0.6387117709563296,1.1363634772156086,0.0,0.0,0.0,0.0
0.020772085942080326,-0.06290551235027597,0.7529700735581966,-0.022716908568667173,-0.5208740337182004,0.020789753717295793,0.8530779385282379,0.12152064426340514,-0.7473147050763578,0.8241551692539182,-0.12234823509705327,-0.7376831644988147,0.8732753929262642,-0.019554873341468444,0.6929877007222,0.9986882157981277,0.009646743779772617,0.6588573047069678,1.0854416092658932,0.0,0.0,0.0,0.0
0.02064610156825065,-0.0636428285166103,0.7494808837451169,-0.02271353877591913,-0.5215044014626394,0.0212821143196134,0.8526806706038644,0.12183036762537526,-0.7534584533643186,0.8227450754298172,-0.12256283668478815,-0.7459443621231018,0.8769329237709996,-0.012047737383905664,0.6762381247528961,1.0294102501514193,0.0023735529971330178,0.6846797258397658,1.02867376236688,0.0,0.0,0.0,0.0
0.020324649807051207,-0.0639983115363806,0.7453043660181691,-0.023363670821854345,-0.5219818127975798,0.02158168725785679,0.852363394784985,0.12214533864478837,-0.7637202459715697,0.8242865869473456,-0.12292242649729215,-0.7541196182877378,0.8774376959015201,-0.004628624429337269,0.6557226029889927,1.0662725681610292,-0.004864297718396515,0.719034418538773,0.9620202984204629,0.0,0.0,0.0,0.0
0.019980508766763962,-0.06395297791616161,0.7414905675807102,-0.024623878936049347,-0.5221355701732415,0.021707307571443454,0.8522305461223538,0.12240738612787287,-0.7763997611297395,0.8294392178466533,-0.12338022069337232,-0.7605847448400538,0.8756545133969105,0.0028776172156748077,0.6364245221095863,1.099059839602748,-0.012157693193602836,0.7626325373846603,0.8805466762210005,0.0,0.0,0.0,0.0
0.019998707214825433,-0.06395918572960294,0.7413890518384134,-0.024649604468090554,-0.5221543690349733,0.021704244020990835,0.852218362679855,0.1224348285126163,-0.7765506580246514,0.8293290186996746,-0.12337671302341587,-0.7607046215597589,0.8755768304784132,0.003191375270399418,0.6364510446583338,1.0989921806883243,-0.012510182596946917,0.762747564396791,0.8806383864058404,0.0,0.0,0.0,0.0
0.019998707214825433,-0.06395918572960294,0.7413890518384134,-0.024649604468090554,-0.5221543690349733,0.021704244020990835,0.852218362679855,0.1224348285126163,-0.7765506580246514,0.8293290186996746,-0.12337671302341587,-0.7607046215597589,0.8755768304784132,0.003191375270399418,0.6364510446583338,1.0989921806883243,-0.012510182596946917,0.762747564396791,0.8806383864058404,0.0,0.0,0.0,0.0
0.02013803496338597,-0.06443350831589134,0.7409393107361031,-0.02399092617441413,-0.5233740664094583,0.021894538124844373,0.851483793898405,0.12242733360127014,-0.7690388330582353,0.8205589134615388,-0.12293928390175234,-0.7580664172694082,0.8738365786820103,0.0036757905719474286,0.6386862186220927,1.1029764966987317,-0.0125499163836848,0.763448435141845,0.8894776694096712,0.0,0.0,0.0,0.0
0.020208133011563385,-0.0650235696421304,0.7403984800928398,-0.023169772600203694,-0.5243542528856311,0.02211804036819186,0.8508975093445024,0.12251783129235695,-0.7622357743729219,0.811701746967342,-0.1225242334225289,-0.7573636668686518,0.8737885549456439,0.0041272276479860075,0.6395876929037216,1.1072801819744964,-0.012560114651862252,0.7628278892877858,0.899158423812504,0.0,0.0,0.0,0.0
0.020103707499140543,-0.0656057247709075,0.7400300938505144,-0.022356841005085042,-0.5249809575630089,0.02232379328229023,0.8505273741097279,0.12265371584979856,-0.7560093486811211,0.8028167552867127,-0.12210792917548198,-0.7572992976528699,0.8737991468278691,0.004498004768482685,0.6396372367031715,1.1098648326055764,-0.012518888080840168,0.7616971564385375,0.9065407662372228,0.0,0.0,0.0,0.0
0.019729555274501688,-0.06619635948793484,0.7398650104614125,-0.02152846289983115,-0.5252389332268457,0.022519211050456005,0.8503843092635005,0.1228117890786121,-0.7497428332963627,0.7928037330464954,-0.12166231329784814,-0.7574676222167062,0.8730808631824396,0.004785142489497331,0.6386159285005176,1.1105088197443813,-0.012419825844614568,0.759756115417858,0.9116479334230276,0.0,0.0,0.0,0.0
0.01901493842921173,-0.06684177386390854,0.7398807288423914,-0.020618942261161958,-0.5251359276667195,0.022724081093323936,0.8504650097635462,0.12297917884009184,-0.7428027339494674,0.7804805574488458,-0.12116429256159582,-0.7577610162575641,0.8712350383532403,0.004996664599870082,0.6362411106041881,1.1093549606468245,-0.012260359774922687,0.7565918960134309,0.9150811692913637,0.0,0.0,0.0,0.0
0.01791056681175173,-0.06759424035323727,0.7400313119983531,-0.019555478542832704,-0.5246902321761119,0.022960693797398454,0.850758808393002,0.12314769573181016,-0.7346129313531075,0.7647413413860299,-0.12059670400439398,-0.7582079566668434,0.8680702122430317,0.005144551518412738,0.6322578443182946,1.1066830396494498,-0.012040396840002354,0.7518125841844706,0.9176045762679619,0.0,0.0,0.0,0.0
0.01640533029103518,-0.06849984462017673,0.7402372851584539,-0.01827767047226938,-0.5239454903870971,0.023249170788191397,0.8512382310039845,0.12331308559647133,-0.7247441106106094,0.7447361790618531,-0.11995243027417879,-0.758933613972266,0.8636001075556071,0.00524428071525372,0.6264882928434039,1.1030293698060776,-0.01176475742625721,0.7450877793979649,0.9202118845617435,0.0,0.0,0.0,0.0
0.01459329969177687,-0.06955061966918848,0.7403977116919919,-0.016807168677025548,-0.5230082124885435,0.02358879754961496,0.8518353698812722,0.12347508098603065,-0.7132907816528822,0.720752420986163,-0.11924785520935627,-0.7600048551781524,0.8581426777337867,0.005311948415471409,0.6191739615193206,1.0992219872466236,-0.011450207585892136,0.7365523412744411,0.9238078784787063,0.0,0.0,0.0,0.0
0.013006617526309206,-0.07038445604436237,0.7406376638399033,-0.015670633115920048,-0.5221114840634954,0.02384250379853502,0.8523998853116871,0.12363309212924917,-0.7034685950581702,0.6999912474312436,-0.11861923191525388,-0.7605417727315917,0.852894591390218,0.00534237346414195,0.6131396917435357,1.0949314824722243,-0.0111497096978736,0.729534872838148,0.9253096266361454,0.0,0.0,0.0,0.0
0.011803919861939547,-0.07101951430565445,0.7408675804201421,-0.01482851265489561,-0.5214005850622285,0.024022465456907123,0.8528449250963396,0.12380332499199506,-0.6957544343422044,0.6838024072079544,-0.11808994861107973,-0.7609329161417578,0.8489458827156126,0.005378296756599038,0.6088159152089523,1.0910562410961693,-0.010896525608570636,0.7244187200954483,0.9258118539976526,0.0,0.0,0.0,0.0
0.010958510601483056,-0.07148450216451922,0.7410422224259395,-0.014232658947495,-0.5209060135372383,0.02414085009885371,0.8531538992681985,0.12397997124795565,-0.6899912052472035,0.6719048105129755,-0.11765051301065081,-0.7611963406438421,0.8461926538976908,0.005429711301812606,0.605925115385272,1.0881047765097727,-0.010693435211090317,0.7209008934417866,0.9260569484243922,0.0,0.0,0.0,0.0
0.010388364431280722,-0.07181976542785874,0.7411859600542091,-0.013818978544259513,-0.5206000584569376,0.024213833467703786,0.8533453610557831,0.1241517889155941,-0.6856347441775413,0.6633022172466843,-0.11727666964196141,-0.7612264698157803,0.8442600839934568,0.005494770660470112,0.6042087285021505,1.0858583153924954,-0.010531326494162874,0.7187084009354844,0.9260859127345032,0.0,0.0,0.0,0.0
0.009968877733905788,-0.07209315913121893,0.7413747780046404,-0.013483175309034787,-0.5204235541790195,0.024268804404594526,0.8534568257223294,0.1243020174435378,-0.6816331349609025,0.6561516568586295,-0.11692635971925601,-0.7608435342758415,0.842620678433733,0.005567798968365423,0.603470877182931,1.083510070764598,-0.01039319123520922,0.7176050437023298,0.925516534043188,0.0,0.0,0.0,0.0
0.009590433422893096,-0.07233926222048366,0.741679353592599,-0.013173542533382177,-0.5203236168918962,0.02431881728431456,0.8535211693962538,0.12441325602128679,-0.6771576815484335,0.6489677931579816,-0.116565825734963,-0.7597455241123288,0.8406141731691572,0.005639949756840928,0.6035689798713982,1.0803581693440107,-0.010265606545915193,0.7174363563060201,0.9238451908943813,0.0,0.0,0.0,0.0
0.00913708198533597,-0.07265356133177642,0.7421163533574362,-0.012749672682685339,-0.5202792044844803,0.024402722013292615,0.8535522845062408,0.1244693567772201,-0.6708900118511509,0.6394020792848718,-0.11614902406460118,-0.7578685762004805,0.8378176790498701,0.005714364689202676,0.6042145111031776,1.0760420110692832,-0.010133055173642465,0.7177839710677857,0.9214047538692437,0.0,0.0,0.0,0.0
0.008341251008643425,-0.07332261322344545,0.7424149037051782,-0.011807909003070874,-0.5203084286850718,0.024634618652760145,0.853541356870351,0.12445540941665029,-0.6599356907369573,0.6214453430124082,-0.11558823371955762,-0.7559191535601821,0.8337217806108645,0.0058173125659933015,0.6035413090636913,1.0723430018643134,-0.00996507614770106,0.7162144620396272,0.9223547927979642,0.0,0.0,0.0,0.0
0.006961918233594526,-0.07473262859827495,0.7425420482588013,-0.009778868853791941,-0.5204863391168572,0.02517524513983716,0.8534427640731518,0.12431876501650334,-0.639250008316728,0.5866265042692467,-0.11473076299986774,-0.7541366232612666,0.8280784259575635,0.005972004338346724,0.6010469378799175,1.0687664123019913,-0.009712807869314366,0.7116312775648171,0.9290706009595431,0.0,0.0,0.0,0.0
0.004724014304242614,-0.07746131404182706,0.7433591004077224,-0.005754489811690018,-0.5214991643786061,0.026274266501204114,0.8528277495011795,0.12373299254851929,-0.5931127626168277,0.5139160823760084,-0.11305322636248682,-0.7470369824316391,0.8165627490357561,0.0061867136618681635,0.6020344105215476,1.0576083507559733,-0.0093074225808539,0.7088341542391252,0.9372808021623976,0.0,0.0,0.0,0.0
0.00258103311311476,-0.0797068014022951,0.7438542601871215,-0.006332502630257378,-0.5211364877333866,0.023400704721331416,0.8531289864855681,0.109175202532812,-0.6838608141450673,0.6397707412753879,-0.0991299178832791,-0.7477661245602427,0.8093529083582853,0.006379215650779942,0.6016122936850639,1.050120019473852,-0.009507831293224802,0.6974463581376944,0.9402515746007559,0.0,0.0,0.0,0.0
0.00044211811159641616,-0.08260043457281536,0.7442539509499504,-0.0056477160006490595,-0.5207881350125176,0.02105587927727484,0.8534075648141517,0.09571537693222623,-0.7570779799903985,0.7100138790292002,-0.08598265623415002,-0.7512587913852059,0.8061031220863086,0.0065360620581631015,0.6010460647628885,1.0411341758537975,-0.009536057624016542,0.6855761999390844,0.9466534279665605,0.0,0.0,0.0,0.0
-0.0016508549938717555,-0.08572174348575526,0.7443806751986819,-0.004227991185041399,-0.5208358865130065,0.019192405664033234,0.8534305800565017,0.08360915856499435,-0.8168015792857719,0.7454903490215814,-0.07404768053612187,-0.7538933049028177,0.8022836205352961,0.006716737864995314,0.6003350079511374,1.034077336716609,-0.009473860183482096,0.6739032629484097,0.9573160286095826,0.0,0.0,0.0,0.0
-0.003434441053469747,-0.08871330716546853,0.744450924731588,-0.002666536094398811,-0.5210673304917284,0.017597732890228923,0.8533299751424447,0.07268207080035335,-0.8664052414615209,0.7606434169386557,-0.0632657259147448,-0.7561265736168146,0.7993502032085458,0.006895059515520037,0.6005137127317343,1.0276355141676519,-0.009374007184319738,0.663965604940699,0.9680361307063174,0.0,0.0,0.0,0.0
-0.004863464778807079,-0.09138205955515584,0.7445323282968672,-0.0013047407966206193,-0.5213600921435879,0.016136464197195523,0.8531831963269646,0.06275793759092452,-0.9082033835824221,0.763835355751835,-0.05352594177686355,-0.7580341578029589,0.7973759995904209,0.007056383499553222,0.6015938824177173,1.0216619449142776,-0.009270921707594507,0.6559764711720308,0.9771939280947225,0.0,0.0,0.0,0.0
-0.005963264001315334,-0.09370823760586826,0.7446271160613853,-0.00021562688778243728,-0.5216399113858357,0.014758298127246074,0.8530380700712075,0.053683883275669274,-0.9431657155978536,0.7600912894551912,-0.04469697299365907,-0.7600114593929996,0.7966290429980676,0.007202046223421886,0.6032971349133063,1.016165853028103,-0.009177308993836958,0.6495965651736573,0.984647455037181,0.0,0.0,0.0,0.0
-0.006800486104815532,-0.09571888659263236,0.7446936633334581,0.0006034771214351058,-0.5218614918765185,0.01344028368724,0.8529241337224459,0.045324278914669225,-0.9709761145897828,0.7530307515442348,-0.0366502034673055,-0.7623409932405759,0.7970471675274079,0.007334870819222473,0.605129811558695,1.011456864809467,-0.009096396540893321,0.6442117645535053,0.9908979038799376,0.0,0.0,0.0,0.0
-0.007468547466648061,-0.09748171535340298,0.7447309918786353,0.001219573216283838,-0.5220184101027319,0.012179579557501994,0.8528463812415391,0.037551908123850855,-0.9900567855167068,0.7464079554447294,-0.029245025289070907,-0.7649138981688014,0.7981591493207264,0.007455000838485607,0.6068574583370384,1.0074230476151673,-0.009023901305264594,0.6394186055607507,0.9962886840487492,0.0,0.0,0.0,0.0
-0.008108277049540836,-0.09909792855438265,0.7448091764294743,0.0017547729865674568,-0.5220889819001809,0.010993638324574517,0.8528183603010588,0.03026146215310261,-0.9978497793960612,0.7447372200297294,-0.022351914326741905,-0.7673194095831058,0.7991112841142302,0.007554877095677933,0.6084575134511762,1.0031621242500552,-0.00894204669831578,0.634977202293017,1.000622535309522,0.0,0.0,0.0,0.0
-0.008815934285794432,-0.10064345824932587,0.7449899718267936,0.002295691769920601,-0.5221104008971703,0.009889599592254902,0.8528174804107843,0.023357481238355834,-0.9928409252751355,0.7525535598671851,-0.015856761853140118,-0.7689168870042628,0.7989817851493238,0.007632183848615192,0.6101376947383289,0.9980082377575448,-0.008842614946110139,0.630913955292967,1.0037595453921975,0.0,0.0,0.0,0.0
-0.00954435509383114,-0.10206218138330607,0.7451816833444911,0.002731851203386677,-0.522028820463699,0.008816284050524814,0.8528779049370561,0.016748146249888976,-0.9768905607075004,0.7661087338825568,-0.009697115091218126,-0.7703719616246787,0.7984141216567385,0.007689455224601389,0.6114342317699571,0.9928528197015213,-0.008738808344420328,0.6267930984813832,1.006157090512022,0.0,0.0,0.0,0.0
-0.010184161776373168,-0.10327396633692447,0.7452698707270808,0.002925683319244179,-0.5218469255678231,0.007717530463101647,0.8529992182740131,0.010348636090260068,-0.9530590626902306,0.7819447907782223,-0.003823885734436409,-0.7723515536360879,0.7983076824381228,0.007737922892463492,0.6120408587097103,0.9889952346555062,-0.00865378796362838,0.6224151758649575,1.008470830392186,0.0,0.0,0.0,0.0
-0.010612815762306533,-0.10427142389004915,0.7452521255055858,0.002849441662562539,-0.5216136001913422,0.006568744336701682,0.8531517944513024,0.0040736641199488706,-0.923816144178833,0.7977469143296936,0.0018429944321252667,-0.7752786486461739,0.7997158070764128,0.007787931349607554,0.6123949842684185,0.9865752086305224,-0.008600470406059737,0.6182205367401125,1.0107088555802455,0.0,0.0,0.0,0.0
-0.010733602934595394,-0.10510311502376449,0.7451900264800316,0.002557503061651615,-0.5213709486950491,0.00537117817428106,0.8533094066514996,-0.0021554999764441364,-0.8908006932981646,0.8116873464672152,0.007395662403294429,-0.7794882126230481,0.80367386031245,0.007845030209471878,0.6132120391374062,0.9849366985211074,-0.008577432628108991,0.6148245957265059,1.0125209863452256,0.0,0.0,0.0,0.0
-0.010664000762528191,-0.10578508077238835,0.7451817456892691,0.0020478860192362047,-0.521098217845562,0.004108003282738838,0.8534843746841886,-0.008413205095025203,-0.8562992592007008,0.8222014092555726,0.01292120551860836,-0.7841740551233716,0.8089169745843642,0.007894528842070519,0.6146380994853272,0.983167024460513,-0.008577420996827524,0.6122731701717361,1.013112190468677,0.0,0.0,0.0,0.0
-0.010490674258762262,-0.10633014013252293,0.7453334633595455,0.0013165399327775484,-0.5207792738075195,0.0027625565729579643,0.8536858807408608,-0.014761521443421861,-0.8236539156385481,0.8267902404486773,0.018493671331367343,-0.7886396791900884,0.8144693097544723,0.00792270602732983,0.6169604157873373,0.9802674672020486,-0.008593116927996417,0.6107625968504938,1.0115825443059583,0.0,0.0,0.0,0.0
-0.010350034028779383,-0.10666244749467524,0.7456349744915629,0.0002693279633820367,-0.5204253613152005,0.001321900849384998,0.8539060974958169,-0.021126880146548885,-0.8008642429240468,0.8257203681861164,0.02400787766234718,-0.7917450796816695,0.8183341780138504,0.00792144278058896,0.6197017998000769,0.9766898265553735,-0.008619564358062473,0.6099722471966048,1.0078725808577498,0.0,0.0,0.0,0.0
-0.010348739167211907,-0.10668112505048395,0.7456331318882641,0.00023191449014308172,-0.5204252921227743,0.0012642025113070734,0.8539062380183229,-0.021568325653256924,-0.8008368797024149,0.8257379176537714,0.02424549038809215,-0.7917726470915819,0.8183315294689603,0.007923835784666827,0.6197744485291959,0.9766834280444084,-0.008593242518867499,0.6099087785060525,1.007887292187033,0.0,0.0,0.0,0.0
-0.010348739167211907,-0.10668112505048395,0.7456331318882641,0.00023191449014308172,-0.5204252921227743,0.0012642025113070734,0.8539062380183229,-0.021568325653256924,-0.8008368797024149,0.8257379176537714,0.02424549038809215,-0.7917726470915819,0.8183315294689603,0.007923835784666827,0.6197744485291959,0.9766834280444084,-0.008593242518867499,0.6099087785060525,1.007887292187033,0.0,0.0,0.0,0.0
-0.010566480906109156,-0.10651750336601083,0.7452663523913404,3.257241909544563e-05,-0.520223833990257,0.0012399804497303457,0.854029053332496,-0.02179594085848464,-0.8026758531051715,0.8260669333819861,0.024042636103595284,-0.7922599198075143,0.8167759290078895,0.007918237329412058,0.6166588819662726,0.980315028987795,-0.008561158531500275,0.6071858502573736,1.0103450061099082,0.0,0.0,0.0,0.0
-0.010815882943434782,-0.10633720824186768,0.7449750300598489,-0.00019568187451803265,-0.5200170929445684,0.001204255380398008,0.8541549827303374,-0.02201313944454606,-0.8041941236209629,0.8260683126284128,0.023842774446218108,-0.792295619033743,0.8147000832183103,0.00790791060321777,0.613820296020933,0.9832995426820966,-0.008535828384957637,0.6047390882905965,1.0120510350167855,0.0,0.0,0.0,0.0
-0.011051763101296871,-0.10617413845716613,0.7447835870774794,-0.00039953458123159725,-0.5198180813536547,0.0011748056479118688,0.8542760809607238,-0.022218132167978497,-0.8053541576786003,0.8259217887984157,0.02364981462146759,-0.7921155034913914,0.8126784522285744,0.007896852566481363,0.6115584079429948,0.9852961535589663,-0.008511151220359113,0.6028232409429739,1.0129182025924155,0.0,0.0,0.0,0.0
-0.011266819405711077,-0.10602955082258549,0.7446547259559102,-0.0005763853681972986,-0.5196351715930239,0.0011529768950898623,0.8543872815460652,-0.022413600800053616,-0.806259093640914,0.8257037909710565,0.02346304238988654,-0.7918319374626611,0.8108016018334696,0.007887476515902658,0.6097232759322041,0.9866684117302756,-0.008486508685535592,0.6012971196851287,1.0133073059542788,0.0,0.0,0.0,0.0
-0.011459409201770573,-0.10589978050973754,0.7445508079204765,-0.0007313991638071616,-0.5194750551400177,0.0011376700287700444,0.8544845451202991,-0.022603025087366068,-0.8070103425038043,0.8254665933379415,0.02328054454614012,-0.7915157857465632,0.8090793105154966,0.007882070370587961,0.6081423666530835,0.9877947447867648,-0.008461906106484065,0.6000019048871511,1.0135604968621936,0.0,0.0,0.0,0.0
-0.011617827384184735,-0.10579017361301246,0.7444557233799283,-0.0008559503513570809,-0.5193492037479207,0.0011323043019921173,0.8545609339317849,-0.022788254376157818,-0.8076321567254585,0.8252581546393642,0.02310117444086081,-0.7912353229152309,0.8076251724931304,0.007883955498133255,0.6067977153378525,0.9888244826296816,-0.008436602826136523,0.5989170094466922,1.013863026461438,0.0,0.0,0.0,0.0
-0.011620614188627651,-0.10578859804042694,0.7444510702846318,-0.0008579222444424794,-0.5193478961814376,0.0011319511627078135,0.8545617270788005,-0.02279036739978933,-0.8076439143489912,0.8252488881372632,0.023099483085181793,-0.791232362928734,0.8075950570065356,0.007883829636663514,0.6067635701492364,0.9888675156418756,-0.008436262671622596,0.5988865250873837,1.0138951427450464,0.0,0.0,0.0,0.0
-0.011620614188627651,-0.10578859804042694,0.7444510702846318,-0.0008579222444424794,-0.5193478961814376,0.0011319511627078135,0.8545617270788005,-0.02279036739978933,-0.8076439143489912,0.8252488881372632,0.023099483085181793,-0.791232362928734,0.8075950570065356,0.007883829636663514,0.6067635701492364,0.9888675156418756,-0.008436262671622596,0.5988865250873837,1.0138951427450464,0.0,0.0,0.0,0.0
-0.01087358687022328,-0.10589052843739921,0.7450306970656941,-0.0007047004738082299,-0.5198223450138337,0.0011729041478734743,0.8542732919373173,-0.02273445377808718,-0.8067254205071278,0.8290696827367116,0.023146995485925248,-0.7911964530467777,0.812683670144148,0.007919266545518642,0.6129487788878055,0.9838524492374172,-0.00850305385408516,0.6048716388840002,1.0096778481960131,0.0,0.0,0.0,0.0
-0.009740914261725684,-0.1058651605037953,0.745404448804087,-0.0007279073042907753,-0.5203260958387789,0.0011591758791484109,0.85396655698652,-0.022759089542578236,-0.8089387013280467,0.8378593494814232,0.02316475299534431,-0.7933162398964613,0.8213576534005552,0.007914993496633051,0.6191736899014534,0.9809902421966545,-0.008669750194360538,0.6111141789574231,1.0066240458393236,0.0,0.0,0.0,0.0
-0.008666536912849283,-0.10576351773625932,0.7455716947090529,-0.0008642568189601114,-0.5207754556099031,0.0011171788751326399,0.8536925265022586,-0.022832893888014117,-0.8120422420802481,0.8469493969627289,0.023146529157382606,-0.7956957683349984,0.8294449188135039,0.007930063373188556,0.6240334209751996,0.9801533831399106,-0.008822847150369633,0.6161517555190344,1.0050082443163322,0.0,0.0,0.0,0.0
-0.007746322042553813,-0.10564483608935765,0.7456021285805798,-0.0010277471053962537,-0.5211352288271677,0.0010747424296791977,0.853472824371024,-0.022934398092687627,-0.815284900978426,0.8551224238682927,0.023102755506037874,-0.7980581556326528,0.8364129924515304,0.007976973406623563,0.6275571654155384,0.9804866558097263,-0.008926370212003586,0.6199150240549975,1.0044372204075582,0.0,0.0,0.0,0.0
-0.006993141049506903,-0.10552095439947946,0.7455222818255991,-0.001200342126004695,-0.52138295981193,0.0010383607536842672,0.853321328810828,-0.023063176891462207,-0.8186356331909226,0.8623242513962656,0.02303321217071811,-0.8004639676692472,0.8423407641121033,0.00806006678366049,0.6297805342417478,0.9816840481687553,-0.008967053569417141,0.6224223814760088,1.0047036369374374,0.0,0.0,0.0,0.0
-0.006382226195250557,-0.10536847379545597,0.7453186796134269,-0.001415960333435248,-0.521498609090855,0.0009991357330493857,0.8532503721068188,-0.023235337760780732,-0.8225110081541575,0.8691195814528252,0.022927890050840165,-0.8031421392002935,0.8475307841405156,0.008181887600886862,0.6306263584050871,0.9839107374202279,-0.008941957231417668,0.6236394334049244,1.0058034253569927,0.0,0.0,0.0,0.0
-0.005886710503745906,-0.10515567298852851,0.7449525526169601,-0.001720971562448127,-0.5214492798253174,0.0009457020199666507,0.853280019966616,-0.023476190763901807,-0.8275154321511957,0.8762229531323927,0.022771190214199242,-0.8064460309832823,0.8523536587033795,0.008348435575410632,0.6298645072807323,0.987551819285487,-0.008844740331999598,0.6233954627317583,1.0078924867861596,0.0,0.0,0.0,0.0
-0.005505499783240759,-0.10488478987707822,0.7443932821035457,-0.0021105770498201313,-0.5211793158933746,0.000883683780238291,0.8534441313011693,-0.023806048259199828,-0.8340794932717387,0.8839844609186008,0.022551512661006655,-0.8108266430893349,0.8572101111351291,0.008571983221004739,0.6272063507179146,0.9927450430122198,-0.008653918644741536,0.6214120840193231,1.011138141160773,0.0,0.0,0.0,0.0
-0.0052709410838925,-0.10466700017647121,0.743701487576109,-0.0024147824669577857,-0.5206284134918789,0.0008681236419753126,0.8537795208670144,-0.0242054497725911,-0.841757579017205,0.8916884451853837,0.022285679928607784,-0.8167254553950221,0.8626591111532796,0.008865969124481378,0.6227912721688688,0.9983996146590747,-0.008332808230280306,0.61767084212597,1.015287148425931,0.0,0.0,0.0,0.0
-0.005188864486333056,-0.10485358326971346,0.7432621559839825,-0.002112207610740332,-0.520043641978109,0.001029563763647256,0.8541364580765828,-0.024434409488304016,-0.8464126134168348,0.8953845080945134,0.02215018607085035,-0.8228113946878316,0.8686172009022559,0.009159088305065592,0.6194122139482722,1.0003027808872709,-0.007958894138996666,0.6143368407796643,1.0186520490260502,0.0,0.0,0.0,0.0
-0.00481581090139635,-0.10597133967946978,0.7437888192933921,-0.002127199824413243,-0.5212315352825397,-0.0002218533385219953,0.8534126272964384,-0.017972743218035,-0.8354699573989459,0.8868788092189726,0.01572323798789703,-0.8364685426365375,0.8578915309891428,0.00914124138467095,0.6285231597146107,0.9952808892514154,-0.00818891417494657,0.6184128878331795,1.0188021180479032,0.0,0.0,0.0,0.0
-0.004369635040584486,-0.10747755616908745,0.7444076271024225,-0.0015744384108293404,-0.5222755402623406,-0.0013092303184980547,0.8527743353920448,-0.011420089830307949,-0.8238371149674053,0.8774218260369367,0.009384863826577806,-0.8628840720936269,0.8465074867015595,0.0091171659632359,0.6383017996542643,0.9875334231448165,-0.008366866981644076,0.622538896248292,1.0190960609897415,0.0,0.0,0.0,0.0
-0.0038603414187302117,-0.10897977866910638,0.744863658469095,-0.0009771281527948038,-0.5230633727986103,-0.0023316709453569794,0.8522900425135317,-0.005174707727246041,-0.8144728356392936,0.8700212142846886,0.0032323319631114107,-0.8938273239357987,0.8324861935808997,0.009133154356416623,0.646803110897655,0.9804989962699474,-0.008459819155588267,0.6255415182741687,1.020235652569584,0.0,0.0,0.0,0.0
-0.003249712939388944,-0.11037869798365174,0.7451112008655058,-0.00048743733979329085,-0.5236527111409535,-0.003340989706855051,0.8519251365626839,0.0007923247697789754,-0.8078293721277433,0.8655011322676534,-0.0027946225601265867,-0.9257078805538792,0.8169966044955767,0.009175691005830537,0.653967291174813,0.9751195839810303,-0.008504197690404157,0.6275048321000409,1.0223806299238924,0.0,0.0,0.0,0.0
-0.00252189073063073,-0.11169537158320263,0.7451849986154909,-8.85654249378675e-05,-0.5240921455538626,-0.004346788096605805,0.8516504685363343,0.006582251553481052,-0.8035424543994546,0.8636804572237247,-0.008764710011111173,-0.9566090846634927,0.8005722959038571,0.009231837351456346,0.6601555758810527,0.9711464889112419,-0.008522803223587457,0.6287255501062963,1.0253736712108203,0.0,0.0,0.0,0.0
-0.0016618155930564408,-0.11298560750975715,0.7451325191633777,0.00028485775645715084,-0.5244077233411655,-0.005345721962969794,0.8514504576385457,0.012303132907689189,-0.8011649494171902,0.8642117289211501,-0.014747598224897168,-0.9848049548693932,0.7835244483995211,0.009291611645094101,0.6657754082314223,0.9680081469324514,-0.00852723947936617,0.6294837566699688,1.0290058085897276,0.0,0.0,0.0,0.0
-0.0006393465109912275,-0.11429991881256682,0.7449805333009468,0.0006910804934623934,-0.5245961967754037,-0.006334896446488702,0.8513273294236158,0.01804881638859737,-0.8005707158274458,0.8670863230007662,-0.02081938109098696,-1.0077944462914723,0.766491657644375,0.009348510641972145,0.6711021785998467,0.9652479690401597,-0.008521948561786395,0.6299403335563581,1.033155598528377,0.0,0.0,0.0,0.0
0.000393462460466466,-0.11577426199339406,0.7447401627496903,0.0013049878680860387,-0.5246507191376253,-0.007286118151083183,0.851285400084675,0.023979336291994252,-0.8003393174330916,0.869912518205565,-0.027063323353776456,-1.0227692647326219,0.751659807125679,0.009406752503248742,0.6758744313242913,0.9623831181879785,-0.008473295235505565,0.6295844815093554,1.038264619668585,0.0,0.0,0.0,0.0
0.001338970463852819,-0.11738629415705704,0.7445344977651271,0.0020600522540339854,-0.524626853296356,-0.00824156515858394,0.8512899022006611,0.030190060306003498,-0.7992977972920396,0.871310645883001,-0.03355505570208045,-1.0270548472925354,0.7434716845741743,0.009466999462569303,0.6805735429958136,0.9585758486313908,-0.008369856664065981,0.6288456443903988,1.0433299365702713,0.0,0.0,0.0,0.0
0.0021461409020821897,-0.11910376193167166,0.7444599248765534,0.0028656991287537782,-0.5246318724201442,-0.009257118831288783,0.851274040459581,0.03678840432465654,-0.7963561470318332,0.8702074444764293,-0.0403749469465858,-1.0191099540491486,0.7466219028080205,0.009517052455687996,0.6858261760337275,0.9533448773982249,-0.008229872472476555,0.6282767975290692,1.047629549363799,0.0,0.0,0.0,0.0
0.002896462985237627,-0.1210062182985026,0.7445253079020876,0.0038169091191041387,-0.5246416338302601,-0.010323666603915444,0.8512520244701584,0.04387048704564512,-0.7917018481221183,0.8670652760146679,-0.04761207985951893,-0.9998419034109095,0.7557152441445855,0.009543864196426796,0.6919640880927788,0.946169207314381,-0.008058025576509111,0.6280205600794653,1.0512156311918792,0.0,0.0,0.0,0.0
0.003729133535914383,-0.12317712528297496,0.7447388552685513,0.005008063183122201,-0.5246708209551193,-0.011438876634117707,0.8512136048271224,0.051562990380800804,-0.7855359908110578,0.8626275649231836,-0.05536973342674185,-0.9711528515393801,0.7656932342276473,0.009517375447097591,0.6996226310169349,0.9365141320979724,-0.007884131746879184,0.6284923542070086,1.0541517166076146,0.0,0.0,0.0,0.0
0.00456564682780456,-0.1257063487288356,0.7451098616381782,0.0065272885775524495,-0.5247882391529541,-0.012612207312363293,0.851114346476005,0.06001973266154742,-0.7765143530404179,0.8550048581555426,-0.06374439927713234,-0.9355915252815453,0.7733642138371297,0.009417683631007853,0.7089781744871527,0.924096780506241,-0.00770553580542895,0.6296125644113866,1.056784708169099,0.0,0.0,0.0,0.0
0.0054690288784974336,-0.12839449726948993,0.7455267694682718,0.008022811336627689,-0.5251680705921279,-0.013982327310636882,0.850845830131274,0.0693125731765053,-0.7650731346227991,0.8451022990775077,-0.07286870669480076,-0.8952533949071249,0.7770738221060015,0.009212758829853717,0.7200373104031564,0.9110179576132535,-0.007606668145633563,0.6315824181931555,1.059655784605322,0.0,0.0,0.0,0.0
0.006395669461938071,-0.1308619187835254,0.7456643868343028,0.008902145678703637,-0.5259984271303804,-0.01573628226808387,0.8502933469568371,0.07939317779961425,-0.7525808575334063,0.8342315109238108,-0.08286139974712455,-0.8510891560727426,0.7740100023885437,0.008909537269820253,0.7311379108756803,0.9024477288873499,-0.007684454199206388,0.6334472614803831,1.0647754567692385,0.0,0.0,0.0,0.0
0.007300795522039851,-0.1327214252641227,0.7453981483771984,0.00861274687394554,-0.5272045692687499,-0.017992771890432312,0.8495042218218436,0.09004574238559707,-0.7415780799134886,0.8252828505946742,-0.09379422803858162,-0.8015004640240413,0.7555238810321943,0.008580449382987715,0.7407949531044306,0.901225702157189,-0.0079300353329036,0.6345360809631138,1.0719685137521706,0.0,0.0,0.0,0.0
0.007899885317401321,-0.13360967584309613,0.7448416210415022,0.006700231864827982,-0.5283841216616891,-0.020769603818904775,0.8487248967869203,0.10082372534868642,-0.7346141950151565,0.820363505248278,-0.1055985520254025,-0.7463996822591259,0.70617860562592,0.008369405023927086,0.7471897920958263,0.9071732294511785,-0.008119889485804182,0.6336977111652811,1.0788324042770652,0.0,0.0,0.0,0.0
0.007980792202836514,-0.13374718847231082,0.7447930987340833,0.0067276079546919835,-0.5283244176989439,-0.020874909345102076,0.8487592633450981,0.10141435413280442,-0.7346937487397325,0.8204684701146011,-0.10641026940159826,-0.7461852590877203,0.7061904664275265,0.008297642399740547,0.747483691553126,0.906805780296369,-0.008058132051808746,0.6334034391668147,1.079292827191128,0.0,0.0,0.0,0.0
0.007980792202836514,-0.13374718847231082,0.7447930987340833,0.0067276079546919835,-0.5283244176989439,-0.020874909345102076,0.8487592633450981,0.10141435413280442,-0.7346937487397325,0.8204684701146011,-0.10641026940159826,-0.7461852590877203,0.7061904664275265,0.008297642399740547,0.747483691553126,0.906805780296369,-0.008058132051808746,0.6334034391668147,1.079292827191128,0.0,0.0,0.0,0.0
0.008310435963536167,-0.13389025585206055,0.7443506444047451,0.006942821950533554,-0.5277426244301541,-0.020789020537415173,0.84912150850631,0.10163632032081506,-0.7406689010039029,0.8271312205981214,-0.1066799674705003,-0.7541269720528372,0.7158501243356504,0.008553692823779603,0.7448312033871853,0.9088004869819923,-0.007732779864943663,0.6308649743808615,1.0821057659935398,0.0,0.0,0.0,0.0
0.008760579339896697,-0.1340576842264348,0.7439325855618145,0.007175604089183416,-0.527433742886808,-0.020719294433943845,0.8493131745172257,0.10191069076009676,-0.7454162699175889,0.8331294410446016,-0.10683338199641124,-0.7610562325690093,0.7250807907428217,0.00874190975440282,0.7434277202273688,0.9109403689563511,-0.007534607910334743,0.6295074782762072,1.0851308219442402,0.0,0.0,0.0,0.0
0.009278284311318132,-0.1343158886182903,0.7435775316528795,0.007529408565749641,-0.5273132356761302,-0.020633727291164514,0.8493870194354831,0.10223795470228884,-0.7487212679615081,0.8379218060631701,-0.1068623230668869,-0.7674976601741783,0.7344323334731407,0.008876261665801698,0.7431631629367887,0.9124276622624305,-0.007414957717488788,0.6291026824753752,1.0881308412527104,0.0,0.0,0.0,0.0
0.00985653592809796,-0.13470494336444946,0.743294273483049,0.008067389987154039,-0.5273322929151796,-0.0205130795392627,0.849373171012265,0.10262578719173546,-0.7506220818187971,0.8414573353229685,-0.10676799369692712,-0.7739337680370721,0.7444972588465296,0.008961001020029483,0.743977910037172,0.9129002024001457,-0.007350877738036195,0.6295315814668978,1.0910605598685443,0.0,0.0,0.0,0.0
0.010502085723512206,-0.13526952727333622,0.7430949738438036,0.008859674753485423,-0.5274549242199434,-0.020337072486813934,0.8492933607194055,0.10308543263635062,-0.7511110012574399,0.8436963566564473,-0.10654812952545732,-0.7808423893109667,0.7559301768274198,0.008994046731616735,0.7459079016648125,0.9119598087126636,-0.0073263164696828744,0.6307650673501721,1.0938663962219857,0.0,0.0,0.0,0.0
0.011235555260047554,-0.13606026501610896,0.7430002281277356,0.009985457193225028,-0.5276514855498674,-0.020083542576015863,0.8491647965850079,0.10363027362266534,-0.7501493707360604,0.8446320546984712,-0.10619758434295874,-0.7887259179640689,0.7694897713438014,0.008966228556089247,0.7491002617712039,0.9090945933910053,-0.007328382885245119,0.6328707609704236,1.0964335646686607,0.0,0.0,0.0,0.0
0.012088705328577346,-0.13712003160692596,0.7430344424528528,0.011512583076502936,-0.5278949759890733,-0.01973346220017983,0.8490023234514711,0.10427048535699725,-0.7477543869932248,0.8443829154658159,-0.10571390851143264,-0.7980401124743656,0.7859005965853304,0.00886239375128947,0.7537638686735655,0.9037640068806031,-0.0073443481209000214,0.6359811140253967,1.0985793793455503,0.0,0.0,0.0,0.0
0.013052452901248514,-0.13839770968038084,0.7431945888173986,0.013367345052977282,-0.5281607542606115,-0.019304733254822983,0.8488196858102767,0.10498235910768115,-0.7442593371830871,0.8433213877431596,-0.10511962448989437,-0.808495824964895,0.8046077900760534,0.008677057542253142,0.7597613059886591,0.8961193524011184,-0.007358964586049205,0.640021589353947,1.1001285154025306,0.0,0.0,0.0,0.0
0.013945454640766006,-0.13946087851219677,0.7432625735100695,0.01490428301724265,-0.5284696659119587,-0.018964524338387655,0.8486094634019016,0.10562315087198464,-0.7414359709430797,0.842847575234992,-0.10455884098985913,-0.8171258686589405,0.8202144847126798,0.008479025159432893,0.7650094690387065,0.8903626810811005,-0.007388871145732806,0.6436682434121426,1.101931962106031,0.0,0.0,0.0,0.0
0.014776002498025959,-0.14026371325813658,0.7432424167290327,0.016049773782983303,-0.5288405097447093,-0.018733016283086455,0.8483626548330664,0.1061886712262048,-0.7394697505383518,0.8433105686614262,-0.10405609066529434,-0.8237552817909675,0.8326188415671086,0.008287709169646133,0.769521723516655,0.8867426200396696,-0.007468307973002847,0.64700846429488,1.1038693589862827,0.0,0.0,0.0,0.0
0.015550109667975405,-0.14085705148401145,0.7431739663298074,0.01687826093831322,-0.5292644318627556,-0.018589761651307428,0.8480853177802575,0.10669280592258226,-0.7380871570073676,0.8444356598970973,-0.10360198187246737,-0.8287253153202835,0.8424709035376321,0.008104225178769698,0.7735375895507485,0.88465744300269,-0.007605654636485307,0.650181765319259,1.1057403648917028,0.0,0.0,0.0,0.0
0.016282415682251875,-0.14129665305722136,0.7430956139927422,0.017471875902774662,-0.5297316199238583,-0.018512453295593787,0.8477832467548893,0.10715037570885465,-0.7370327935832336,0.8459895570289462,-0.10318196437861013,-0.8324044051906005,0.8504509843401594,0.007921984269212687,0.7773354489232743,0.8834570989645438,-0.007801048355016004,0.6533494281627888,1.1073531680899995,0.0,0.0,0.0,0.0
0.016987901758468416,-0.14162867853167072,0.7430399935550174,0.017898350631709904,-0.5302382460590243,-0.018483241243611774,0.8474582120990063,0.10757348222673524,-0.7360766881809299,0.8477739958955313,-0.10277986068213363,-0.8350627544244739,0.8570844379974022,0.007730902636268395,0.7811769314770411,0.882590138732649,-0.008054057915906352,0.6566710721595828,1.1085424361749558,0.0,0.0,0.0,0.0
0.017676764882558902,-0.14189423835650508,0.7430406579193676,0.018217758276116654,-0.5307816026134465,-0.018486592296814788,0.8471111199339468,0.10797168584608907,-0.7349766053990124,0.8495658380856805,-0.10237782455483804,-0.836894343068634,0.8627759239343668,0.007519894736256936,0.7853119482277875,0.881523296879479,-0.008362354077155028,0.6603015304572767,1.1091256686348692,0.0,0.0,0.0,0.0
0.018346333340528386,-0.14214233394443396,0.7431447775823263,0.018502262160419378,-0.5313488336197507,-0.01850328226045052,0.8467489072041768,0.10835217811578078,-0.733400006676356,0.8509928476778823,-0.10195359188535202,-0.838077530161168,0.8678895591975072,0.007277440302467491,0.7899997585483381,0.8795514499739812,-0.008714294286558344,0.6643842160055857,1.108826865009548,0.0,0.0,0.0,0.0
0.018968293748788348,-0.14245431111369472,0.7434407722778749,0.01887337977700677,-0.5318935481318453,-0.018499212855365346,0.8463987406153444,0.1087200749935236,-0.7307873101340998,0.8513265904524154,-0.1014745595423236,-0.8388910870215329,0.8729093689191196,0.006990193113773043,0.7955726131626216,0.8753896820235283,-0.009072645386098324,0.669055972913558,1.107095467044254,0.0,0.0,0.0,0.0
0.01948997397679745,-0.14299717804691303,0.7441579501900036,0.019579018617290337,-0.5322824773075837,-0.018402823959614616,0.8461402735076476,0.1090827842501652,-0.7260917045406355,0.8492753997852391,-0.1008855827095016,-0.8400011133296043,0.8790263100004703,0.006635645466578763,0.8028796835207125,0.8658248273286774,-0.009341868173102695,0.6747119357886561,1.1023344656425331,0.0,0.0,0.0,0.0
0.020013490681808688,-0.1441882766304113,0.7462629617929906,0.021194416020304415,-0.5321610878615429,-0.01805210872845969,0.8461852602509886,0.10948621764257498,-0.7167939558234031,0.8434988045185577,-0.10004961560663567,-0.8431498423432402,0.8911057806213504,0.006135613816256452,0.8169354263871482,0.8382841951654035,-0.009308856917062258,0.6847111284015078,1.086841286303131,0.0,0.0,0.0,0.0
0.019848549045512816,-0.14509818957573264,0.7496871697130375,0.021665814839663643,-0.5307451405150019,-0.01763180766968739,0.8470710168842653,0.10979094375590508,-0.7104490448330132,0.8399496515377853,-0.09948893627445608,-0.8430588292582377,0.8983449007029126,-0.0003688414808312628,0.75738586589946,0.9377302023380801,-0.002744881368878879,0.6963250990499327,1.058389139050927,0.0,0.0,0.0,0.0
0.019713877308478074,-0.14606989605492882,0.7532964785217446,0.022169753319764438,-0.5293305625301545,-0.01718252557942751,0.8479518962912714,0.11009793254505565,-0.7032921906538118,0.8357406690743356,-0.0988819777503035,-0.8425311984386965,0.9056372843771257,-0.006847881689842363,0.7112980273549955,1.0147534808891476,0.0036789175662574995,0.7093880544598669,1.0273002780545533,0.0,0.0,0.0,0.0
0.019471566811165037,-0.14704028647903794,0.7566503115503592,0.022650694727175465,-0.5278990102435661,-0.01671477078379918,0.8488405017727916,0.11040801764672398,-0.6964234122091167,0.8307102171602349,-0.09828111729427935,-0.8420348134698395,0.9118472169144255,-0.01338346045965033,0.6760032732574129,1.0770795233281905,0.010058109837428175,0.721505343318928,0.9974133761025616,0.0,0.0,0.0,0.0
0.01897543448861301,-0.1479578719338225,0.75962131479078,0.023033313646383797,-0.5263722281842241,-0.01623598829722288,0.8497871124833883,0.11070038074414705,-0.6903223339972644,0.8245692958233896,-0.09772084242071447,-0.8414921149270661,0.915911933487463,-0.020066863090782414,0.6476385082323097,1.1311183633388937,0.016550212822492985,0.7313223791860928,0.9700887623438624,0.0,0.0,0.0,0.0
0.018053739293935955,-0.1488156189121095,0.7621075494905177,0.02329857000064998,-0.5246343332180157,-0.01573043387474567,0.850863412361188,0.11095881571637208,-0.6852845971614149,0.8166603920051227,-0.0972241598822428,-0.8410512445175036,0.9170136027628275,-0.02699232176379245,0.6235175120924429,1.1794248367554776,0.023334141382625614,0.7373884036280625,0.9466041968909026,0.0,0.0,0.0,0.0
0.01660792138077525,-0.14962396677664572,0.7641757093955359,0.023426277247584355,-0.5225582297875907,-0.015175849898016998,0.8521465833971592,0.11116997900006849,-0.6814192877706612,0.8067026247785385,-0.09681289558285522,-0.8407791723757442,0.914912266163297,-0.03425755190276817,0.6016931996955412,1.2225161626648693,0.030591019473092507,0.7392865315371729,0.9265223126734093,0.0,0.0,0.0,0.0
0.014545814845312525,-0.15042356670370052,0.765907688339372,0.023426574532369297,-0.5199913183526652,-0.014532288878493428,0.8537265586963361,0.11132725982862891,-0.6787974506286184,0.7943228144896454,-0.09650934371233137,-0.8409258342819446,0.9096260494141116,-0.04196549724152065,0.5809715997710514,1.258480880638548,0.038516508716997105,0.7367399968716327,0.9090548081158029,0.0,0.0,0.0,0.0
0.011780922846726286,-0.15128213197508514,0.7674105608209763,0.023328044262096434,-0.5167506733707187,-0.013741432551036447,0.8557077286978655,0.11142815838526283,-0.6774712369227105,0.7790862841695627,-0.09634151926345101,-0.8418873788469536,0.9014015112510168,-0.05022575134242673,0.5609922751319683,1.282590481711345,0.04732807369114026,0.7296725921295151,0.8929067232091232,0.0,0.0,0.0,0.0
0.008244111911962393,-0.15229539324994068,0.768826484923079,0.02316997559771492,-0.5126231574448079,-0.012724311097195221,0.8582067015522652,0.11147535604648603,-0.6775082691208344,0.7605937729612896,-0.09634788486935716,-0.8442230964921772,0.8908040530591003,-0.059156049138477454,0.5428585001888644,1.2865421121707994,0.05726517865815669,0.7183461270792686,0.8760822553684182,0.0,0.0,0.0,0.0
0.003915596277685364,-0.15357374901056367,0.7703277663483579,0.022975708284434637,-0.5073953284715412,-0.011388151380759277,0.8613317638878845,0.1114812556911567,-0.6790782609281407,0.7387528612975939,-0.09658020041416089,-0.8486001584367376,0.8787871387921872,-0.06888334576746981,0.5303462417269249,1.2587029596966186,0.06856533755575951,0.7035907550668218,0.8557892595360121,0.0,0.0,0.0,0.0
-0.0012846505009940007,-0.15515178264421864,0.7718596758697872,0.022642443125079702,-0.5009435983358191,-0.009666508948636283,0.8651296952829876,0.11145445354740849,-0.6826515679954461,0.7132617872104076,-0.09711009318832553,-0.8551891858812534,0.8649803715763792,-0.07952957343255754,0.5183022584665998,1.210556179552852,0.08140603730154773,0.6854090436951299,0.8310767380055738,0.0,0.0,0.0,0.0
-0.007341928768265482,-0.1570630688073533,0.7733118384412707,0.022049093524847855,-0.493210637943458,-0.00749848092281343,0.8695981122783041,0.11143221537919136,-0.6889413081591934,0.6844277724716961,-0.09801957567789239,-0.8643592345634226,0.849538231559848,-0.09123487972963366,0.5040796169966982,1.1497649790834457,0.09590364333309456,0.6641819346904088,0.8011630517601169,0.0,0.0,0.0,0.0
-0.014099198305367242,-0.15925694679745098,0.7744315258415538,0.020980754044866257,-0.48429357063561185,-0.004883416664461779,0.8746403247291996,0.11148853877372847,-0.6993456257115774,0.6540423998727539,-0.09940811710126711,-0.876442514143514,0.8328771232456827,-0.10415364443460315,0.48710473440779983,1.0810559543898162,0.11203512489431036,0.6403835256026099,0.7665631008564806,0.0,0.0,0.0,0.0
-0.02105128237427036,-0.16148735697520605,0.7746400625230239,0.0190937430622875,-0.4745095135729879,-0.0019666043628686664,0.8800410689120581,0.11179990354675413,-0.7180268892145061,0.6290095167412381,-0.10144233089076066,-0.89283984588082,0.8173593211321651,-0.118403049016634,0.47030445782434527,1.0089423864112719,0.1294745059140888,0.6135882466161682,0.7319451504185759,0.0,0.0,0.0,0.0
-0.027732973361296712,-0.16377824276912745,0.7738032500809541,0.016426037544286544,-0.4640770245136809,0.0011987253910936899,0.8856417242127648,0.1125161157029529,-0.7468557587748319,0.6138115003665239,-0.10416800611897917,-0.9152403583584057,0.8067988995445625,-0.13422567589099346,0.45512747117002744,0.9304008010966838,0.1481124645751504,0.5844128841444939,0.6994417934108532,0.0,0.0,0.0,0.0
-0.03356890308943168,-0.16594726868324536,0.7722455850925055,0.012818513262439582,-0.4534867562788667,0.0044110099426302035,0.8911599130283512,0.11369847844391531,-0.7861386357327694,0.613087070945393,-0.10752692475278681,-0.9423535768484442,0.8030833165920981,-0.15182980087161385,0.4426856910269732,0.8461555596807965,0.16766079930692085,0.5566429409086218,0.6670532245718308,0.0,0.0,0.0,0.0
-0.03756302061383961,-0.16743682815405928,0.7704145968852322,0.008105977270382085,-0.4442735186052747,0.007114975426894931,0.8958262727355429,0.1152946179863937,-0.8327304233137836,0.6314033964921452,-0.11104865429707843,-0.9686222221232383,0.8059306610187912,-0.17106802374897473,0.43491818394423554,0.7728530250907585,0.18699162222237542,0.5363136655667223,0.6363367588486283,0.0,0.0,0.0,0.0
-0.03745449608917217,-0.1675991264280045,0.7698792387306601,0.0076677107884393055,-0.4443459211427909,0.007265048545621823,0.8957930160727193,0.11546208600538563,-0.8336871225626069,0.6304631626966077,-0.111317961617782,-0.9689789348326864,0.8058413971465416,-0.1725219262763667,0.4349728145854594,0.7729240695275397,0.18777342016415907,0.5367693643359719,0.6362472862131965,0.0,0.0,0.0,0.0
-0.03745449608917217,-0.1675991264280045,0.7698792387306601,0.0076677107884393055,-0.4443459211427909,0.007265048545621823,0.8957930160727193,0.11546208600538563,-0.8336871225626069,0.6304631626966077,-0.111317961617782,-0.9689789348326864,0.8058413971465416,-0.1725219262763667,0.4349728145854594,0.7729240695275397,0.18777342016415907,0.5367693643359719,0.6362472862131965,0.0,0.0,0.0,0.0
-0.037543011052517915,-0.1673683850823218,0.7700073502742514,0.007368693314496452,-0.44601987416926975,0.006988402115816199,0.8949654386850552,0.1152127405448812,-0.8221376584624743,0.6179696858640888,-0.11055329778865479,-0.9574466015369132,0.7939922864576425,-0.17422595631997273,0.4369231106543069,0.7803803428928546,0.18764340717535555,0.5407517797255247,0.6383649167033193,0.0,0.0,0.0,0.0
-0.03768344239416654,-0.16700671195120673,0.7701832627112613,0.006948440223391169,-0.44728149834365194,0.006698574836279557,0.894341159464934,0.11494308218392499,-0.8136793618791668,0.6089946130395768,-0.1100167598972506,-0.9473138145868265,0.7829524376931047,-0.17570058850485928,0.4386497563609399,0.7855450364180907,0.1875367388069442,0.5440515374606528,0.6389711009386507,0.0,0.0,0.0,0.0
-0.03783640245135241,-0.16656273271481228,0.770348954766759,0.006443824570443421,-0.44823494434822647,0.006409230189963104,0.8938695842003014,0.11466244258145372,-0.8078137481816599,0.6030065276993767,-0.10967781428369382,-0.9385140125300894,0.7728818417268298,-0.1769495497172177,0.4399105757466436,0.7895847504224217,0.18741246224708918,0.5467365681875401,0.6387187329518741,0.0,0.0,0.0,0.0
-0.03800043659685869,-0.1660147687323935,0.7704792664582232,0.005810964958017281,-0.44896012862229745,0.006103089261065895,0.8935120524621805,0.1143625923543912,-0.8042297822579009,0.599686876356829,-0.10951437030392433,-0.930532369940089,0.7632136477670549,-0.1779966420169566,0.4405580045647373,0.7932982719054771,0.18725598259831944,0.5489394895742993,0.6377948520808161,0.0,0.0,0.0,0.0
-0.03817987054950339,-0.1653226261694733,0.7705572620399876,0.004988359814354801,-0.44950790170546806,0.005756395278301842,0.8932438785035751,0.11403589038959125,-0.8028406302570711,0.5989852478829968,-0.10951455784709375,-0.9228834750118909,0.7533339851495426,-0.17886937915714335,0.44046226914225006,0.7972772811759685,0.1870640740522454,0.5507432804344359,0.6362719980040336,0.0,0.0,0.0,0.0
-0.03837791596872287,-0.16442908726528724,0.7705661986397242,0.0038950922755448545,-0.44990989905053047,0.005338634645548781,0.8930495002924685,0.11367626613580718,-0.803784758033637,0.6011430073028692,-0.10967562919592487,-0.9151111089132948,0.7426095928994664,-0.17959675540255762,0.439469517492049,0.8020656387230741,0.18683970276126574,0.5521942300023381,0.6341644124890545,0.0,0.0,0.0,0.0
-0.03859095060762655,-0.16327265332491164,0.7704879367028946,0.0024458732761940536,-0.45018151184428773,0.004817823075847003,0.8929207202648609,0.1132813464601244,-0.8073662221295799,0.6066176368294333,-0.10999988884933942,-0.9068601768166055,0.7305133562296787,-0.18020611932099448,0.4374199376348889,0.8081510436142468,0.1865889235812276,0.5533127283156368,0.6314606197729548,0.0,0.0,0.0,0.0
-0.03883654165717367,-0.16187836739887737,0.770326755613868,0.0006712447684117385,-0.45032289441931916,0.00420229341756222,0.8928556327437825,0.11285175101598888,-0.8132189931155062,0.6147917990667215,-0.11045969252752454,-0.8980728284073501,0.7169055907783533,-0.18068544535150066,0.4343645889700205,0.8153333715007115,0.18629829228673728,0.5540921032372981,0.6281197667048862,0.0,0.0,0.0,0.0
-0.039125525435226724,-0.16076201043925767,0.7701988927716034,-0.0007382467304626137,-0.4503287605904255,0.003726768649890739,0.8928547326257987,0.11244363278056162,-0.8178605561368912,0.6206420934188513,-0.11088394490446406,-0.8909253724874838,0.7052383840778935,-0.18092903215936526,0.4316760214430595,0.8203785239559452,0.18593266121283264,0.5545424615164736,0.6246864450872697,0.0,0.0,0.0,0.0
-0.0394832751045298,-0.1599600204711308,0.770123487345996,-0.0017344749567124729,-0.450203735211965,0.0034061815117562917,0.8929176817183813,0.11206642324797676,-0.8208879902527065,0.6235800314561061,-0.11125949944146968,-0.8854539381493519,0.695597809033161,-0.18090535375652136,0.42943175131600964,0.8230123980671334,0.18547192738081722,0.5547041169961163,0.621050991066166,0.0,0.0,0.0,0.0
-0.039946436916401304,-0.15943631538234387,0.7700970264903341,-0.002367393086196906,-0.44994017544159887,0.0032233732817242428,0.8930497432048482,0.11171733499476699,-0.8223632286598335,0.6235752265157154,-0.1115960766316963,-0.8813591414325816,0.6874324728440014,-0.18058479270329802,0.42746430972137267,0.8233704084760276,0.1848918203772321,0.5545477270408972,0.6170138082457202,0.0,0.0,0.0,0.0
-0.040550405032933,-0.15915966454118696,0.7701280456199144,-0.002680596493256143,-0.4495190154739795,0.003164822886118261,0.8932611337262156,0.11138854444157091,-0.822328610234757,0.6205597444346165,-0.1119037588392385,-0.8783671272639091,0.6802235688856487,-0.17992662065390497,0.42570144771478813,0.8213442299393284,0.1841602556270477,0.5541425641311627,0.612137154293462,0.0,0.0,0.0,0.0
-0.04131174065814889,-0.15911649485459986,0.7702658516688132,-0.002693888218081441,-0.4489163574374921,0.003226285382827638,0.8935638970291665,0.11106896840525282,-0.8207272334432086,0.6144679494216807,-0.11218781418331539,-0.8763024462568646,0.6737555108519563,-0.17888240139751135,0.42440219551857955,0.8162642260337323,0.18324070930477365,0.5539087072423048,0.6054221848826232,0.0,0.0,0.0,0.0
-0.042079196288515225,-0.15934837479726863,0.7706390001628647,-0.0023511381538762048,-0.4481012636363152,0.0034296804529864965,0.8939731354850151,0.11078063290774139,-0.8181427071490875,0.6069069725565261,-0.11246856983584003,-0.8761931270997504,0.6702966895188719,-0.1774619980630322,0.4247376876642911,0.8064650571399357,0.18214738884145892,0.5551358313496334,0.5950462498086492,0.0,0.0,0.0,0.0
-0.04242306623213905,-0.15977840657047038,0.7713779525049347,-0.0017516912972873886,-0.4470037500916772,0.003742779425815853,0.8945225377729429,0.11059835831085553,-0.8181345490033436,0.6047295635212238,-0.11287147183591689,-0.8805600443146191,0.6750407590295004,-0.17581029412796417,0.42828280134122454,0.790708905762802,0.18099215538016633,0.559890483137402,0.5785831369797809,0.0,0.0,0.0,0.0
-0.042102369861569976,-0.16036610920189467,0.7726206541562637,-0.0009475247350313378,-0.445531938072213,0.004152901478364947,0.8952559118843088,0.11055788422393757,-0.8229092607981804,0.6121718011823003,-0.1134792291660906,-0.8908624067130203,0.6909929030964935,-0.1739272282228258,0.43641790018332444,0.7670440083101,0.17977534565009473,0.570113269873881,0.5529074908084415,0.0,0.0,0.0,0.0
-0.040957406780786805,-0.16096945201712703,0.7732698324414072,-0.0001244414846176218,-0.4435896273512606,0.0046036841735549805,0.8962181838775181,0.11085227542123727,-0.8384796274832449,0.6351733590168249,-0.11463012136411962,-0.9108218835492903,0.7203494273926065,-0.17225124596817348,0.4421710818706997,0.7482372514908713,0.17890437267829018,0.5771461641470896,0.5336724134095971,0.0,0.0,0.0,0.0
-0.0383074586776911,-0.16158316666966155,0.7737711860166125,0.0007380826882087668,-0.4417069224582378,0.005105890167421867,0.8971445701624772,0.11139244881271546,-0.8638038415716358,0.6767498244878738,-0.11628120708332752,-0.9392932512179274,0.7658673997923856,-0.171354741057683,0.44984268703383984,0.7328947829614056,0.17896438956568864,0.585429962216491,0.5191187310939993,0.0,0.0,0.0,0.0
-0.03232573145647031,-0.16180847400706871,0.7764050949308613,-0.005678769507769467,-0.45443841512734223,0.006765283595184681,0.8907343652129425,0.10911701182898091,-0.8299426220735037,0.6803256232020376,-0.11296334459851429,-0.8780564917542378,0.7456531706215317,-0.1546444673646153,0.482090466292065,0.7744051975703377,0.15829644135376927,0.5757878188536718,0.6460458268678835,0.0,0.0,0.0,0.0
-0.025259785753083297,-0.16193784633583536,0.7782451790248577,-0.011128189576430319,-0.4665279045989836,0.008404305245892973,0.8843965430057755,0.10750816323142791,-0.8060350951942243,0.6981416480203754,-0.11059596950772158,-0.8280006559948239,0.7377043383953011,-0.13935490105594284,0.5187404736954363,0.8100089361470546,0.1393769830611848,0.5658171611283384,0.7723144500865006,0.0,0.0,0.0,0.0
-0.01783123511466382,-0.16210679769337016,0.7787875221215296,-0.015542278334194547,-0.47737359970369997,0.009952843246910434,0.8785065877962535,0.10655788246487853,-0.7925012007793827,0.7256079326104975,-0.10909002649944056,-0.792147040428994,0.7423613637335051,-0.12558300373741982,0.5531623539807892,0.8447000178791743,0.12236912102191634,0.5544234551725366,0.8970874915448235,0.0,0.0,0.0,0.0
-0.010366059381978182,-0.16233042428139727,0.7782756597540097,-0.019124956278811014,-0.486917802200818,0.011382726880073519,0.8731642018979203,0.1060540769923326,-0.7874863546388913,0.7593994444335854,-0.10827685262823776,-0.7688712062110936,0.7577941274075766,-0.11291236165286297,0.5846890663677113,0.8777603009482872,0.10695791662270898,0.5539463555767498,0.999193997015993,0.0,0.0,0.0,0.0
-0.003520916846532921,-0.16251057072873845,0.7774200174671414,-0.022043524778083644,-0.49506933294718397,0.01259018357667764,0.8684825420629328,0.10579219651135403,-0.7858569353170622,0.791949138720551,-0.10781168223555393,-0.7524978445141635,0.7758598171502891,-0.10130442548048071,0.6143556129268383,0.903738981614146,0.09306409406418586,0.5576866141325789,1.0812520829245558,0.0,0.0,0.0,0.0
0.0022942529170291662,-0.16288662474257032,0.7767079510716525,-0.024032589446922045,-0.5016976305548999,0.013694667366441541,0.8646007045022559,0.10566381405769303,-0.7838781294079148,0.8177428081484022,-0.10752251795903006,-0.7412726504472168,0.7940766948776727,-0.09036733931360413,0.6416659933830274,0.919619954486864,0.08044373361241934,0.5611188275941389,1.1497035803534403,0.0,0.0,0.0,0.0
0.00701742234775294,-0.1635015255332804,0.7762012270513946,-0.02514050485219855,-0.5069398972574142,0.014737707644470369,0.8614886508583877,0.10562310934850667,-0.7808122528545842,0.8361808919203634,-0.10733124317293927,-0.7340403501093646,0.81131148903986,-0.07996398483439722,0.6651214059180964,0.9280084076158995,0.06893195380595968,0.5638373940715214,1.2058868711584965,0.0,0.0,0.0,0.0
0.010724309398146444,-0.1643206220678486,0.7757978543481976,-0.025543625999644645,-0.5110102490822447,0.015731918168887093,0.8590509619658312,0.10564311742825465,-0.7769605958276754,0.8482018465082354,-0.10719984339518622,-0.7299808148463267,0.8270286141107097,-0.07003567465685283,0.6837464990929121,0.9322616079370172,0.05838010871901772,0.5667165948337214,1.2476477781935456,0.0,0.0,0.0,0.0
0.013537492196186784,-0.1652879775994092,0.7753830026272646,-0.025437743542231727,-0.5141030397828786,0.016679512182383845,0.8571888820807472,0.10570714308362134,-0.7729096489910112,0.8551363280746189,-0.10711019992134405,-0.7285439846266506,0.8410966518693959,-0.06054665217522781,0.6972405813548532,0.9348929063519844,0.048652731668062166,0.571926309944675,1.268650389829186,0.0,0.0,0.0,0.0
0.015611764717901625,-0.1663436323102234,0.7748987783098445,-0.02500148693273995,-0.516374902838808,0.01757895943727604,0.855817074820587,0.10580595819322695,-0.769286377842942,0.8585074240129836,-0.1070588401089683,-0.7293535790219039,0.8537582034857906,-0.051463852160021764,0.7059452045286388,0.9372139092344772,0.0396256207755192,0.584104681880494,1.2585281385303129,0.0,0.0,0.0,0.0
0.017006344955040723,-0.16747252422253833,0.77411196533363,-0.024349331690117892,-0.5180130102863719,0.01844183914662077,0.854827192939711,0.10593186935243472,-0.7663763148959521,0.8586231258406384,-0.10703462461201264,-0.7321447613290929,0.8646829716639836,-0.0427384479665221,0.7092783403257618,0.9420368295981634,0.03116801245313123,0.5986658376199255,1.2293371569541727,0.0,0.0,0.0,0.0
0.0178043139056487,-0.16864663657892143,0.7728590589533504,-0.023589512256498323,-0.5191732134530682,0.019270238557564164,0.854126083930382,0.10608046010491717,-0.7645152915469438,0.8560675547575367,-0.10703653893801802,-0.736705455866774,0.8737752217761574,-0.03432158314643189,0.707099729335583,0.9512409816229175,0.02315847954588893,0.6140977935187129,1.1891960033762263,0.0,0.0,0.0,0.0
0.018097690197897337,-0.16981768790337695,0.7710326015577438,-0.022840262316967997,-0.5199728972651443,0.020054112427416244,0.8536418107741282,0.10624896052622045,-0.7641391173770002,0.8516715853699458,-0.10707491367987725,-0.7428165985426224,0.8809929260185164,-0.02616056674513042,0.6995378418337402,0.9659603961072487,0.015482899450354023,0.6306756006973839,1.1425204921149807,0.0,0.0,0.0,0.0
0.01799836743735771,-0.1708979396096842,0.7685466865039375,-0.022267880844484608,-0.5205167889016316,0.02076312591250646,0.8533084474892837,0.106435744614737,-0.7659304604587334,0.8467164163720295,-0.10717251498427952,-0.7501541943138391,0.8862110706622052,-0.018209932498470523,0.6869077612321364,0.9870304383384035,0.008032279101894744,0.6499007047257173,1.0910102894977114,0.0,0.0,0.0,0.0
0.017652262618875876,-0.17172032786597857,0.7653133064321671,-0.022152957607104347,-0.5208994892431222,0.02132846642998016,0.8530639279064948,0.10663827749106346,-0.7711903844988593,0.8434428119296845,-0.107376404487862,-0.7582175015116558,0.8891041882854807,-0.010438815554046823,0.6696437705797487,1.0153152936240628,0.0007030616267319914,0.6745123483602593,1.0338522883599124,0.0,0.0,0.0,0.0
0.017111941136769206,-0.17215048787838366,0.7613694678681295,-0.022716095501629632,-0.5210968756647616,0.021695971311603564,0.8529192869236989,0.10683609281577282,-0.7808416189999062,0.8433296550530625,-0.10773633098617791,-0.7664766039524553,0.889118733165626,-0.002737220762569809,0.6482491513961268,1.0501347149452678,-0.006615617312565754,0.7069808422497186,0.9677594603702568,0.0,0.0,0.0,0.0
0.016617046006281548,-0.17219837819282777,0.7578641413827885,-0.02385938050457421,-0.5210240095163764,0.021895928540678126,0.8529274762737793,0.10698736089717067,-0.7925421405808916,0.8468404892249085,-0.10817158910665883,-0.7729896024204996,0.8873520743501164,0.005039161105360267,0.6287472113801675,1.0802315663718518,-0.014012425773808882,0.7479886003169653,0.8884070947266005,0.0,0.0,0.0,0.0
0.016635224902374287,-0.1722076542343872,0.7577760509743049,-0.023888616451609307,-0.5210401271695679,0.021894846434089333,0.8529168397814502,0.10701939501260357,-0.7926721320791149,0.8467404603848864,-0.10815863434417072,-0.7730896467199295,0.8872888161328036,0.005341784783550211,0.628741086233028,1.080160060394784,-0.014369747564843213,0.7481198307964572,0.888506357347642,0.0,0.0,0.0,0.0
