zhuoxili-jackie/tripod-support-walk/examples/trajectory_trotting_acc_f015.csv
root_pos_x,root_pos_y,root_pos_z,root_rot_x,root_rot_y,root_rot_z,root_rot_w,FL_hip_joint,FL_thigh_joint,FL_calf_joint,FR_hip_joint,FR_thigh_joint,FR_calf_joint,RL_hip_joint,RL_thigh_joint,RL_calf_joint,RR_hip_joint,RR_thigh_joint,RR_calf_joint,FL_foot_joint,FR_foot_joint,RL_foot_joint,RR_foot_joint
0.0,0.0,0.72963,0.0,-0.5231245161092812,0.0,0.852256264656019,0.0,-0.81,0.872,0.0,-0.81,0.872,0.0,0.65,1.0,0.0,0.65,1.0,0.0,0.0,0.0,0.0
0.0007263287507711346,-0.0001612737423902464,0.7295654274952189,-9.02678092395118e-05,-0.5233693623510914,0.0001975041315170989,0.8521058991674993,-7.314029111689609e-05,-0.8126454505351354,0.8778250375593553,-7.314029111689636e-05,-0.8125724148406195,0.8784090791206447,0.0029141079704143643,0.6517784269872381,0.9996818666630062,0.002914107970414365,0.6531703289822796,1.0012305768793972,0.0,0.0,0.0,0.0
0.0021109556619649077,-0.0003680822005301926,0.72944754701003,-9.843778263219625e-05,-0.5237095866168487,0.00026834017386196914,0.8518968172197636,0.00026396177588260816,-0.8179390897585428,0.8894221402344468,0.00026411220448823943,-0.8186210486491853,0.8914087374675679,0.0048816442567105565,0.655903827564337,0.999411967284857,0.00490413110115064,0.6579210717224084,1.002530292898485,0.0,0.0,0.0,0.0
0.004130224800859525,-0.0006778763847702627,0.7293329343290655,-2.100003779045352e-05,-0.5241433808267839,0.00020950791094867296,0.8516300088658822,0.0011667985910242063,-0.8253174842552304,0.9060325418720077,0.001167295962309408,-0.827853327824918,0.9106408149174737,0.006263618216843332,0.6626035781178692,0.9984176027084558,0.006311637963717708,0.6645113768876073,1.0035163328818242,0.0,0.0,0.0,0.0
0.0067950915332680335,-0.001278669375772162,0.7293808741855557,0.00018004276576455685,-0.5246638040143852,-4.1071911996931195e-05,0.8513094963964958,0.0032676406535616168,-0.8336186032395024,0.9264813416262485,0.0032708244806318827,-0.8402449170601473,0.9364550632000542,0.0077039799607952104,0.6728413804237795,0.9945240369582793,0.007781991910205058,0.6736636541008313,1.0031786679487351,0.0,0.0,0.0,0.0
0.010256606696636642,-0.002482611151714835,0.7302227791586083,0.0006202816481767475,-0.5253686063259132,-0.0007123935962669594,0.8508742182210063,0.007930291339895491,-0.8396025387827296,0.9490040265191864,0.00794990736114467,-0.8549038187839616,0.9698763391983267,0.009125022743171413,0.691046041906668,0.9809921060827608,0.009240797205313397,0.6885982635286206,0.9964826270273023,0.0,0.0,0.0,0.0
0.013306014939561874,-0.0034028282281800618,0.731073063809271,0.0008055980072160775,-0.5251326261645285,-0.0007809430809792878,0.8510196625679695,0.010426669106164266,-0.8503716898038804,0.9737978438825212,0.003114654864994193,-0.8453927799268927,0.9409830327338021,0.004862521676480508,0.6817654942514886,1.0058986287385063,0.014553141534524965,0.7018111781545032,0.9875235180705744,0.0,0.0,0.0,0.0
0.016292328021888517,-0.004537927876139508,0.7319564634268324,0.0010680053046298221,-0.5250426492375038,-0.0010235608157807422,0.8510746313747046,0.013931677486265115,-0.8585584020294501,0.9953685450329834,-0.000904989283927498,-0.8444405458770213,0.9225256632517163,0.0014229702225461009,0.6751438284991942,1.0267139360952062,0.019968336846401966,0.7151166750706602,0.9788909227794094,0.0,0.0,0.0,0.0
0.019004496638523834,-0.005806779382537612,0.7328367100273586,0.001353790508985499,-0.5250530364055801,-0.0013293832533159608,0.8510673938958678,0.017964911613541926,-0.864109678141628,1.0128109205122535,-0.004388557289406011,-0.8486843856408349,0.9118527031289181,-0.0006665450710079857,0.6705233223712513,1.0446092661973645,0.026012392792835005,0.7278914964020049,0.9709390135503659,0.0,0.0,0.0,0.0
0.02132722628784859,-0.007138285335807673,0.7337037026282628,0.0016265004632216218,-0.5250942116159641,-0.0016359091335554007,0.8510409785815011,0.022183174806794756,-0.8673888304448214,1.026097700782105,-0.007481416396990877,-0.8555689974837077,0.9056133592537527,-0.0017926564287806424,0.6670104328935119,1.0607412378248249,0.03284076079438997,0.7396797567516835,0.9636755123593111,0.0,0.0,0.0,0.0
0.023232793886014843,-0.008479042617375934,0.7345584297519614,0.0018711537850863054,-0.5251320985115535,-0.001914904560717963,0.8510165163126318,0.026367064381785724,-0.8687751232517043,1.0355977106692509,-0.010236374696643529,-0.8637033622334119,0.901698950695014,-0.0023141561307739042,0.664027157854273,1.0757963636896415,0.04032805606884649,0.7503155602569787,0.9570008330684907,0.0,0.0,0.0,0.0
0.02474775608188617,-0.009789520096686868,0.7354038976035511,0.002084237583241617,-0.5251552638657477,-0.0021572486442862342,0.8510011463365253,0.030380347791199525,-0.8686398583959817,1.041881283692723,-0.012722780726315558,-0.8723816943916743,0.8988583351699648,-0.0024864802244201783,0.6612190578369554,1.09020274792747,0.04820806830569583,0.7598143628245614,0.9507747484516501,0.0,0.0,0.0,0.0
0.025926756222539635,-0.011042251289246442,0.7362412369492102,0.002267339727588293,-0.5251632478860874,-0.0023633634524160975,0.8509952037194377,0.03414496274582101,-0.8673371853554346,1.0455907765709818,-0.015037032760063539,-0.8812684474053436,0.896376860191718,-0.002490305196852462,0.6583873994348387,1.1042415642313774,0.05618700049245247,0.7682860336761238,0.9448604206131873,0.0,0.0,0.0,0.0
0.02683450688809082,-0.0122203922786092,0.7370689496439794,0.002424035829349063,-0.5251597418919781,-0.0025379773747385764,0.8509964325525075,0.03762509979269,-0.8651904888544285,1.0473534522198849,-0.017281319242456974,-0.8902199887426554,0.8938658274004453,-0.002456143328688214,0.6554395736386734,1.1181040254603063,0.06401102001560918,0.7758781620648815,0.9391489058430098,0.0,0.0,0.0,0.0
0.02753478378438085,-0.013315920995448018,0.73788352921691,0.00255850685388014,-0.5251491611432337,-0.0026873493785365262,0.8510021097192146,0.04081501183585896,-0.8624814648044515,1.0477311447302808,-0.019543894759231316,-0.8991908654471326,0.891126184329689,-0.0024760797855157483,0.6523540776825623,1.1319209552304335,0.07149504279181218,0.7827428530173864,0.9335673036269763,0.0,0.0,0.0,0.0
0.02808467453666701,-0.014327472349204218,0.7386802113379497,0.002674946714574953,-0.525135210778116,-0.002817807683628446,0.8510099382621544,0.04372862621101978,-0.8594460586379211,1.0471988187994306,-0.0218890583578359,-0.9081861670895791,0.8880614612268494,-0.002609122892035891,0.6491584983261637,1.1457775698185473,0.07852506327526339,0.7890185651353908,0.9280781706472981,0.0,0.0,0.0,0.0
0.028532243588109737,-0.015258021731970205,0.7394531681682993,0.0027772963811403604,-0.525120456473507,-0.0029349809846585216,0.8510183186656363,0.04639055785972258,-0.8562777177196563,1.046142742034714,-0.02435449669277797,-0.9172318011474379,0.8846254461846593,-0.002885536508735452,0.6459173176219863,1.159717254064714,0.08504576747934864,0.7948194987948561,0.9226777711681372,0.0,0.0,0.0,0.0
0.028915896779060698,-0.0161126390321959,0.7401948447025606,0.0028690632581887263,-0.5251062665463581,-0.00304334979906026,0.8510263893274792,0.04882844993949488,-0.853136056015184,1.0448685993833677,-0.02695153577426901,-0.9263400732555733,0.8807983820434775,-0.0033136017838965638,0.6427245252833836,1.1737313933106477,0.09104281870627283,0.8002264014738368,0.9173991362095318,0.0,0.0,0.0,0.0
0.02926388239586773,-0.016896503512688017,0.7408943518240688,0.0029530441862172393,-0.5250927541072918,-0.0031458543019796097,0.8510340667181098,0.051066540405285354,-0.8501575641480386,1.043609582033193,-0.02966581819263908,-0.9354510572767006,0.8765926837869568,-0.003892622748143774,0.6396950712517953,1.187725653799356,0.09652678777849427,0.8052737298122018,0.9123243653068115,0.0,0.0,0.0,0.0
0.02959259447562615,-0.017613386780564178,0.7415350101182319,0.003030760802049948,-0.5250785352513516,-0.0032433651462690886,0.851042200416515,0.05312046353126601,-0.8474641086865206,1.0425246973986717,-0.03245971766497908,-0.9443363643802114,0.8720942337647055,-0.004637941240565115,0.6369513762043002,1.2014457611087253,0.10152413283919157,0.8099295898118714,0.9076087836307496,0.0,0.0,0.0,0.0
0.02990301250825755,-0.018264921864033466,0.7420915109008159,0.0031014622496946943,-0.5250602773421218,-0.0033339698649180616,0.8510528601293035,0.054993899526988056,-0.8451649496498279,1.0416807569661226,-0.03528146102877908,-0.9524709884992346,0.8675435275470796,-0.0056247976481533235,0.6346121093396686,1.2143391573055624,0.10607938831277201,0.8140688954440674,0.903514962093527,0.0,0.0,0.0,0.0
0.030176528448655586,-0.01885117028601711,0.7425281851838847,0.00316083599914824,-0.5250321999304386,-0.0034123357623359286,0.8510696529172189,0.056678887412015475,-0.8433500416047864,1.0410232934964767,-0.03808585654744846,-0.95892483757242,0.8634417823881695,-0.0070523837320623445,0.6328199889231585,1.2253276262265365,0.11027021352108089,0.8174515853934787,0.900441003790718,0.0,0.0,0.0,0.0
0.03037586452771267,-0.01937299485468847,0.7428025825117701,0.0032004069573305454,-0.5249861632998388,-0.0034701415563581596,0.8510976699865893,0.058163189221619116,-0.8420766104141351,1.0403700867965866,-0.040860580069260966,-0.9624115044940866,0.8606138965038606,-0.009304166220213761,0.6319018850729116,1.232485759962362,0.11422652269918655,0.8197454969960281,0.8988909842715085,0.0,0.0,0.0,0.0
0.030464186677478983,-0.019835326117894375,0.7428841498403498,0.0032113435970514527,-0.5249163044869551,-0.0035012132076011125,0.8511405888935945,0.05944948626160491,-0.8413393066086325,1.0394955326052473,-0.04361773214166125,-0.9617533537054209,0.860058532486057,-0.012903533632336976,0.6327621250369063,1.232829090535593,0.11809391543431388,0.8206843002878716,0.8992630336255222,0.0,0.0,0.0,0.0
0.030434100592478013,-0.02024221804449188,0.742773940692222,0.003194371144057345,-0.5248227482340158,-0.003505940903302028,0.8511983243096003,0.060548232383739284,-0.8410933421670996,1.0383217493233488,-0.046327401225534394,-0.9569489308436969,0.8617494447469858,-0.01784323144409305,0.6353692736512583,1.2263450302315058,0.12188684085043794,0.820247053350665,0.901575209314402,0.0,0.0,0.0,0.0
0.030308282125875673,-0.020598756628169648,0.7425056684464137,0.003159496448966055,-0.524710470927566,-0.003490846383540527,0.8512677330151117,0.06148187845017806,-0.841254886659181,1.036919698221578,-0.048915825605781164,-0.9491817679290616,0.8646656902452495,-0.02359424199695837,0.6387754387129108,1.2159854474875078,0.12551243843265011,0.8186681998864562,0.9054552841948078,0.0,0.0,0.0,0.0
0.030109866423874164,-0.02091772397904349,0.7421277043630119,0.003115928903661138,-0.5245849765099855,-0.0034639268343448714,0.8513453439221781,0.06229571779438459,-0.8416683701709853,1.0353056240233167,-0.05133736774612749,-0.9397399410430061,0.8679735316248081,-0.029762281210453885,0.6426223021286485,1.203641043390105,0.1289363727323104,0.8162660530032855,0.9104022945468542,0.0,0.0,0.0,0.0
0.029842229094201502,-0.021216802852228135,0.7416848913451949,0.0030686312470708937,-0.524448086732066,-0.0034300495058074945,0.8514299868960058,0.06304059537273386,-0.8421261132378217,1.0333427402082045,-0.05358299205223286,-0.9295469454358162,0.8711618011490337,-0.036122102040612926,0.6467392962110505,1.190353873755223,0.13221149438741306,0.8132791748619932,0.9160012179022755,0.0,0.0,0.0,0.0
0.02948770864259727,-0.021516838632343934,0.7412146854638514,0.003019159838214985,-0.5242978332757585,-0.0033909515347486747,0.8515228523908829,0.06376793413086863,-0.8423790124689,1.030742228314124,-0.05564883763201492,-0.9191195988653271,0.8739805825064344,-0.042560653562686894,0.650982880863631,1.1766406716471671,0.13545198913751574,0.8098365806396954,0.921959444872257,0.0,0.0,0.0,0.0
0.02901228593003864,-0.021842037509195417,0.7407483726543478,0.002966952368166265,-0.5241286020898904,-0.0033460395659373593,0.851627388993664,0.06453179864712826,-0.8421460729786192,1.0270943308024603,-0.057514593085742076,-0.9086827474188413,0.8763377584214974,-0.04902530469434642,0.6552087669215335,1.162725890117258,0.13881769889626014,0.8059763984338179,0.9280836842382088,0.0,0.0,0.0,0.0
0.02837063470953397,-0.022221072328350255,0.7403131207352485,0.0029100680601668373,-0.5239311603229663,-0.0032930135678744727,0.8517492746155745,0.0653931525684859,-0.8411213393916608,1.021897328481963,-0.05914275202739354,-0.8983006416384983,0.8782183458919972,-0.0554996462409532,0.6592811057473431,1.1486896664972426,0.14251231699817485,0.8016728116937106,0.9342495204372734,0.0,0.0,0.0,0.0
0.027510635458920272,-0.02268789530839725,0.739932997940434,0.002845186532311929,-0.5236925775193612,-0.0032279802378413773,0.8518964545696316,0.06642242896748818,-0.8389841159112594,1.014584240117049,-0.06049554615555556,-0.8879723703342307,0.879642272456196,-0.06200990200555774,0.6630821410044017,1.134557697072906,0.1467876542772058,0.7968580430420018,0.9403809113757333,0.0,0.0,0.0,0.0
0.026378562875855535,-0.02328105945027753,0.7396279894993281,0.0027668505386987214,-0.5233961300042629,-0.0031448720067992777,0.8520791896383328,0.06769701850339092,-0.8354234089452403,1.00456299832571,-0.061564338931364926,-0.8776826197369149,0.8806558242870742,-0.06866577227945306,0.6665176209369743,1.1203610485168085,0.15194512623436707,0.7914382209710042,0.9464432052984224,0.0,0.0,0.0,0.0
0.02492705770742302,-0.024040115403356592,0.7394103904186454,0.0026658676087163795,-0.5230213005565885,-0.003033915915949082,0.8523100419848416,0.06928976651593576,-0.8301917788865784,0.9912957446307987,-0.06240673650826096,-0.8674159626244337,0.8813466775743235,-0.07574978979547163,0.6695285808514024,1.1061910810878732,0.15832659049775316,0.7853072431969161,0.9524480865085145,0.0,0.0,0.0,0.0
0.023128587150562152,-0.024997134278907367,0.7392781317653933,0.002526602374743787,-0.5225438918098804,-0.0028786760497762536,0.8526037829125698,0.07124324562018945,-0.8232107873899536,0.9744558262286052,-0.0631842103239474,-0.8571491584103219,0.8818707884440234,-0.08388939897809755,0.6721320708435864,1.0922743893452824,0.16628886848991845,0.778365966469491,0.9584664862850223,0.0,0.0,0.0,0.0
0.020997839637164867,-0.02616066185009669,0.7392047967308092,0.0023225942803105862,-0.5219358956139456,-0.0026507928132167985,0.8529774321299122,0.07352265929147024,-0.8147639091305252,0.954224592788077,-0.06418656792675294,-0.8468431468131501,0.8824721561209,-0.0943839359912401,0.6745319109396566,1.079096760792592,0.17616164520345673,0.7705576389260317,0.9646436003287353,0.0,0.0,0.0,0.0
0.018627510293914247,-0.027488203695686428,0.7391265366028678,0.0020092029911028364,-0.5211626409794727,-0.0023004622858580387,0.8534519158241506,0.07593613019260571,-0.8058454874689847,0.9318385142601762,-0.06582847519103115,-0.836461180694361,0.8834322959817157,-0.10982851175854251,0.6773770431223802,1.0675897149946545,0.18819834295120516,0.7619326713458873,0.9712032940085684,0.0,0.0,0.0,0.0
0.01624127659436551,-0.02883735270952295,0.7389261109804945,0.0015074748853876874,-0.5201396962503846,-0.001733988926961306,0.8540781095347362,0.07798734707237089,-0.7989826989867447,0.9107511375559709,-0.06870631862080061,-0.8259865612421072,0.8845124114115429,-0.13526686853709594,0.6822870381150897,1.059062637981468,0.2024874543437006,0.7526487220425464,0.9783546241321827,0.0,0.0,0.0,0.0
0.014219254065928907,-0.029970597608134357,0.7385316563507952,0.0007357100113592326,-0.5187777691647221,-0.0008371799243820899,0.8549084068372633,0.07892151919399572,-0.7978252012639304,0.8966546391871212,-0.07345699119803745,-0.8162369275642719,0.8848364878411744,-0.17688419051651494,0.6907364414641372,1.0553045026462828,0.2187003412103233,0.7435550126754,0.9854656824719791,0.0,0.0,0.0,0.0
0.01285600640953244,-0.030718179056517116,0.7380626083497256,-0.00017732152144910783,-0.5172605806909439,0.0003206193716546196,0.8558278783865153,0.07841117828493922,-0.8027375054508532,0.8920518289276311,-0.07912939724233077,-0.8106908980171441,0.8845593140454022,-0.22849252963481004,0.6987785604419534,1.0587765099016688,0.23461642057008306,0.7362615081854488,0.9909464034043263,0.0,0.0,0.0,0.0
0.012869081086833972,-0.03075308882618966,0.7380437710813488,-0.00020282838464264223,-0.5172496861955491,0.0003526352201292162,0.8558344446443213,0.07841650419007253,-0.8027825422882987,0.8919612473921782,-0.07915060807992609,-0.8106856878637028,0.8845682411679932,-0.22849861230637403,0.6987975748006512,1.058784095949113,0.23464231693256238,0.736180057496381,0.9908845319644092,0.0,0.0,0.0,0.0
0.012869081086833972,-0.03075308882618966,0.7380437710813488,-0.00020282838464264223,-0.5172496861955491,0.0003526352201292162,0.8558344446443213,0.07841650419007253,-0.8027825422882987,0.8919612473921782,-0.07915060807992609,-0.8106856878637028,0.8845682411679932,-0.22849861230637403,0.6987975748006512,1.058784095949113,0.23464231693256238,0.736180057496381,0.9908845319644092,0.0,0.0,0.0,0.0
0.01295576690858825,-0.030951126728073423,0.7379181479797806,-0.000222883619983347,-0.5180272183101117,0.0002835340633786301,0.8553640575925638,0.07899602241049332,-0.7984052398598197,0.8876061692587598,-0.07833070107230576,-0.8076521940295336,0.8821728785288384,-0.22983969777685184,0.701480145173542,1.0608508516118575,0.23817375110323735,0.7387522447624143,0.9939552777625346,0.0,0.0,0.0,0.0
0.013537691446294617,-0.03116874202988561,0.7376756615881004,-0.0002111718223307571,-0.5186250322678103,0.0002146962294015197,0.8550017457392722,0.07973455812435519,-0.7978233389671909,0.8891612534640378,-0.07761834295453882,-0.8086399882219139,0.8859693305424664,-0.2317450638881271,0.7048750958131763,1.062999619969349,0.24238906139077354,0.7420153355693251,0.9972932745027571,0.0,0.0,0.0,0.0
0.01474893174987634,-0.031359896610734475,0.7374123011638364,-4.584663316054251e-05,-0.5194272347986523,-0.00014340627379017912,0.8545146722451011,0.08115700968535026,-0.798558593162825,0.8952482524473667,-0.07636639970343402,-0.8123713249148948,0.8953140428231604,-0.2394433202355737,0.7124883241998224,1.0652803450422654,0.24486873938638343,0.7472956648585846,1.0002620981654138,0.0,0.0,0.0,0.0
0.016687199165188082,-0.031578599010110994,0.7372831255126482,0.0004423756668431954,-0.5208973739615295,-0.0012000094523393066,0.8536183515371879,0.08429493257628758,-0.7966652498825829,0.9028101850918792,-0.07336276358179356,-0.8172368742361934,0.9092153737069902,-0.2598083074819467,0.7289450693789252,1.067139592057216,0.242642222822551,0.756032830641008,1.0020098304478917,0.0,0.0,0.0,0.0
0.019320008084958193,-0.03217735715855085,0.737513328499323,0.0011421486851068473,-0.5229518434433629,-0.0028434777427996443,0.8523567208451494,0.08976836806546397,-0.7910413468686971,0.9102634495519367,-0.06794354869366265,-0.8232742217986463,0.928471736513688,-0.2905188030241439,0.7549524837034011,1.065178772593816,0.23951085373546485,0.7696133828120232,1.0010766330269736,0.0,0.0,0.0,0.0
0.021170024440147112,-0.03464038510063872,0.7387378703430232,-0.0011256118031707611,-0.5204284803558222,0.0015811987810905558,0.8539030563494973,0.07618727740496767,-0.8045333885473305,0.9012643237391864,-0.07271498363846357,-0.837759350533345,0.9591442974610496,-0.19217063513828278,0.732331402045498,1.0380319607657833,0.19297272525205234,0.7320823107427903,1.0144541920458878,0.0,0.0,0.0,0.0
0.023597653681234156,-0.0362068765423985,0.739561738244161,-0.0020232036026733846,-0.5212616216923517,0.0026260510702005822,0.8533904922446808,0.06752944734584944,-0.8121806863080615,0.8996411204035889,-0.07108727119577106,-0.8421854984446194,0.9789923469813541,-0.1750823275466833,0.7434347988851409,1.0226643558138069,0.14183229023085345,0.7139491045658211,1.0293529212590964,0.0,0.0,0.0,0.0
0.025953417142968786,-0.03764453361870786,0.7398350268175033,-0.0027536290060333982,-0.5216921668989307,0.0035881726438793072,0.8531218116662316,0.05970974721945267,-0.8243554817548329,0.8988703926786965,-0.06974000065608421,-0.8501747073663559,1.0005540360925413,-0.1552778647041517,0.7497112185568504,1.0120695341348576,0.10875722529057613,0.7016100251920062,1.0438446313151333,0.0,0.0,0.0,0.0
0.028139574970040104,-0.03868976418332981,0.7397472626936411,-0.0032379543808927166,-0.5221864501713704,0.004165499071301959,0.8528150300776465,0.053109906116523574,-0.8374630164441778,0.8983970963816202,-0.06850187403187452,-0.8580591358634566,1.0196650546783679,-0.1420261284185268,0.7554568018477179,1.0065470100112228,0.08554101351085153,0.6938603442642917,1.0583953755053004,0.0,0.0,0.0,0.0
0.03010534230060769,-0.03920003798085787,0.7393650786198175,-0.00352757765101623,-0.5229015997423043,0.004337553068608122,0.8523747173727245,0.04671014517489712,-0.8518635166942292,0.8994127505668571,-0.06763560205451292,-0.8642357419378883,1.0345627608045247,-0.13797507762472272,0.7619313459341936,1.0063369683120102,0.06789995465655459,0.6892116634366076,1.073553172277596,0.0,0.0,0.0,0.0
0.032145565920910744,-0.03863435605367687,0.739190788846931,-0.0026356018215189015,-0.5255220868919159,0.00204026424029571,0.8507734287773883,0.04440367185660677,-0.8619392949941419,0.9081529876363237,-0.06336959927421655,-0.8630880844397582,1.0406385099551991,-0.1812317397018695,0.7888520069215222,1.0127228299050826,0.04309549590555688,0.691454415017021,1.0894355593313274,0.0,0.0,0.0,0.0
0.03387645179579351,-0.037876905168714024,0.7394739471806371,-0.0016457183227539432,-0.5286855144171784,-0.000682410042923798,0.8488159121818929,0.044086763570387856,-0.8667806755869996,0.9157882383429561,-0.058414440740268074,-0.8565157990939635,1.0406171462442757,-0.2456972337239918,0.8255879109811859,1.016531159671666,0.014325884250285477,0.6941466307875239,1.1039261216205596,0.0,0.0,0.0,0.0
0.03381984340528173,-0.03951302959437539,0.739851693977416,-0.0036235688876650727,-0.523532571802191,0.004526574598092513,0.8519859307131239,0.026646392336390833,-0.8939127052338646,0.9006612467755373,-0.06753355167495383,-0.8752553988073252,1.0627614649212747,-0.11903141491615193,0.7727745295436393,0.9963379217619359,0.03752102954349756,0.6737094997139816,1.1102000364699374,0.0,0.0,0.0,0.0
0.03518370061499609,-0.038842347191308066,0.741132814525547,-0.001934814438907034,-0.5278275560285308,0.0001421266836166877,0.8493493435507211,0.02999837485144472,-0.8936528312102622,0.9133729927273493,-0.05805550810714524,-0.8619521869521812,1.0559779917413499,-0.21646670661428224,0.8267011117137446,0.9934444690017359,-0.0015683361960548772,0.6786934675820926,1.1258051007191903,0.0,0.0,0.0,0.0
0.03599477935608261,-0.03851704562759526,0.7420586489756317,-0.0007997238665711076,-0.5318831170626013,-0.0034220663403766835,0.8468104862880894,0.032591119738001224,-0.8942867221173176,0.9248255202700799,-0.049749883909749264,-0.8468823103899524,1.0453465629802015,-0.32633560291816344,0.8815227543609074,0.992032654589645,-0.034355957889836114,0.6842771767435525,1.1392775916326077,0.0,0.0,0.0,0.0
0.03490169775486317,-0.04093359873552922,0.7430955361707496,-0.002106210640874826,-0.5275298507764972,0.0007924900961247336,0.8495335145689724,0.021075830345468963,-0.9109180559353284,0.9072134348861308,-0.05427814947045849,-0.8593116364677891,1.0587790981007486,-0.19924430234278745,0.8314243604104705,0.9672153120196789,-0.025994323275688715,0.6611647959173513,1.1474614734125574,0.0,0.0,0.0,0.0
0.03323451805014828,-0.043919221157338845,0.7439302255768302,-0.005162293168379673,-0.5219085114644938,0.00732970331963915,0.8529543550738258,0.003000271252082555,-0.9345321478258737,0.8852361623250263,-0.06246256828178656,-0.871354727439518,1.070547631864092,-0.07319451969766513,0.7777621198822245,0.9371372939635966,0.014724947707293677,0.6431551996614027,1.1514631396472168,0.0,0.0,0.0,0.0
0.03328431642658147,-0.04479263662911504,0.7451461139812219,-0.004169987712789627,-0.5248800082301396,0.004526292373650814,0.8511539818623608,0.006284318736181106,-0.9357936347340046,0.8891346961720188,-0.05284371144693317,-0.8598957615186403,1.0625051052649868,-0.1374863102850613,0.8150935909503044,0.9269173933811029,-0.01432625546279584,0.6438678007568879,1.1690762508206156,0.0,0.0,0.0,0.0
0.03353307464758527,-0.04539377205907342,0.7456365112669822,-0.002755990157378744,-0.5281791948988103,0.0010718713012621312,0.8491277840738757,0.008185219008209616,-0.9424424344182347,0.8973719508094167,-0.04270128075104493,-0.850556557224756,1.0553812842273087,-0.21041802000280008,0.8521305288258542,0.9263129415830165,-0.040231545707354086,0.6476960369365223,1.186015538190211,0.0,0.0,0.0,0.0
0.033241601072722525,-0.046290710328678514,0.7456509949214846,-0.001706279176594692,-0.5309010842475789,-0.001634313453666618,0.8474305023868635,0.009510532934665543,-0.9465110030723712,0.9003049400141606,-0.03370462338504956,-0.8421675236924727,1.046652713537126,-0.274362265977055,0.88099288695452,0.9292026035774569,-0.06197255022207068,0.6490407687107943,1.1987534774713173,0.0,0.0,0.0,0.0
0.031551498824153326,-0.04973795724254911,0.7461329370622013,-0.0028976933964367365,-0.5262186513553538,0.0023892305730216583,0.8503410056653752,-0.0014403183035581434,-0.9614284267691857,0.8802837358032811,-0.03494620930152583,-0.858789263263522,1.061647628624763,-0.14758029880063267,0.8288640686676365,0.9058023319439881,-0.0504692123158052,0.6264759426827718,1.2023640754587688,0.0,0.0,0.0,0.0
0.03005635122065795,-0.052673987277191185,0.7461711957494389,-0.004236507586460363,-0.5247663285957112,0.004782049812005782,0.8512223472015072,-0.009079871360484857,-0.9672012325159373,0.8699675169703818,-0.03284396020768149,-0.8610741901657321,1.0621586848364797,-0.10701287096731829,0.812460978013369,0.8910225002340032,-0.0393170482168016,0.6190795515989566,1.2075349025508315,0.0,0.0,0.0,0.0
0.029044748698546004,-0.05498513444120251,0.7458621086280397,-0.004112071336545115,-0.5253486813903023,0.004391834743176747,0.8508657741491206,-0.010081854279661281,-0.9650822072690295,0.8697104203997242,-0.025785663626048123,-0.8607265056362408,1.0599295011913912,-0.10701903472913604,0.8134934137276233,0.8878583237794518,-0.048589903948233135,0.6162686081535848,1.2092568446578156,0.0,0.0,0.0,0.0
0.027957012303078004,-0.05705699488445635,0.7450274736466861,-0.0037228663372643207,-0.525933476210095,0.003675825030360898,0.8505096161585396,-0.011992689156970902,-0.9607871888598952,0.8720130773726495,-0.018698975639264995,-0.8619977723423917,1.0574968303632533,-0.10646093778383124,0.8107622715230021,0.8921814295702529,-0.054739742287679555,0.6164185298868851,1.203337490475773,0.0,0.0,0.0,0.0
0.026734597606018283,-0.05921949439051665,0.7440395422518524,-0.0034995526890329214,-0.526050522487636,0.0033887725327389462,0.850439367116894,-0.015364276040116254,-0.9546940111146422,0.8737360554514056,-0.012441162230500154,-0.8649138826342117,1.0559436960330288,-0.09520129174331673,0.8022186715696397,0.8970755613795498,-0.056953391629172845,0.6161925462614565,1.1929222830226218,0.0,0.0,0.0,0.0
0.02543171019681436,-0.06144255149300887,0.7430494847233724,-0.003305460437218116,-0.5260096383017261,0.003210763941261351,0.8504661223940074,-0.01896176625742669,-0.9468035088262063,0.8753872680492153,-0.006295361077342002,-0.8681760351731189,1.0543876672214403,-0.0803850595197338,0.7919370785301773,0.9015489009530386,-0.058476794968007,0.6156613124234919,1.1802493471635327,0.0,0.0,0.0,0.0
0.024048703393807155,-0.06367976431412589,0.7420547789962181,-0.003036542209397013,-0.5260191092513393,0.002913036229075975,0.8504623391625088,-0.02228736747607716,-0.9377592775075877,0.8772825603541964,0.0001669682161463985,-0.8710260373616491,1.0519775497973325,-0.06671792570740395,0.7819163665220678,0.9062450902381429,-0.060642488025825246,0.6153556771068363,1.1665775465919686,0.0,0.0,0.0,0.0
0.022532987905151482,-0.06596822171305998,0.7410434845059176,-0.0027049424885137985,-0.5260674015523318,0.0025165630307920563,0.8504348530138117,-0.02537686001912588,-0.9282727004548392,0.8790393983654807,0.00698776527623416,-0.8733320752114956,1.048385861066085,-0.05385558443186161,0.7718724554158091,0.911152814034006,-0.06314392934937241,0.6152832084899625,1.1524647220050661,0.0,0.0,0.0,0.0
0.02081333000950591,-0.06837650237311357,0.7400226468702455,-0.0023505679724768577,-0.526095006537121,0.002099884539719406,0.850419960614656,-0.028298943469619125,-0.9187117285139761,0.880226523587234,0.014151420709154875,-0.8750227718379797,1.043338724771201,-0.0403879213654852,0.7611383265069942,0.9158380530071857,-0.06546714129750156,0.6152212147386409,1.1381209180345484,0.0,0.0,0.0,0.0
0.01881903341781634,-0.0709612325180271,0.7390045981056804,-0.0020001172505956528,-0.5260656468048192,0.0017136692996472446,0.850439885071451,-0.031060784807819677,-0.9091962135319259,0.8806265096698791,0.021673717376111165,-0.8759077489832215,1.0364241632004632,-0.02548452769779686,0.7493054055406697,0.919898552377622,-0.06732189515478308,0.6149671336141043,1.1236020129972057,0.0,0.0,0.0,0.0
0.01648921778085593,-0.07374929249047699,0.7379979104456148,-0.0016669564873536449,-0.5259689616095318,0.0013781385973345775,0.8505010131760377,-0.03367233208304532,-0.8997649227612602,0.8802041634711405,0.02956044275763809,-0.8756880644011974,1.0271036649522747,-0.009016176154826933,0.7362317767817967,0.923109353498924,-0.06863978380342423,0.614394813496662,1.1088905009969905,0.0,0.0,0.0,0.0
0.013780196672942228,-0.07673119787040951,0.7370066450016927,-0.001360763249379051,-0.5258084536180467,0.0010998726683956656,0.850601204271009,-0.03620708947151552,-0.890465533044463,0.8790420067933762,0.0377508087415434,-0.8740023618798464,1.014783333078592,0.008684507316654017,0.7219463656558882,0.9254069337461311,-0.0695311329492224,0.6134269442860182,1.0939279793894972,0.0,0.0,0.0,0.0
0.010675157036282948,-0.07985665137485162,0.7360318727652506,-0.0010932484330789746,-0.5255941149127706,0.0008819856832889484,0.8507343023989213,-0.03882087520869487,-0.8813629569388755,0.8773322260835861,0.04608447172835116,-0.870479096481433,0.998906718091865,0.02700073505831797,0.7066006600497282,0.9268651782840156,-0.07030255429260178,0.612000079137382,1.0786319001567737,0.0,0.0,0.0,0.0
0.007198782883574458,-0.08303144143710975,0.7350696959104336,-0.0008784744530080435,-0.5253401114287304,0.000726253415246044,0.8508915725065452,-0.04172024322522091,-0.8724862368033647,0.8754089229809384,0.054294363021744015,-0.864826351285915,0.9791029499016671,0.045126372287162445,0.6904511504129243,0.9277272609401588,-0.07153876366992101,0.610051508387407,1.0629161802943161,0.0,0.0,0.0,0.0
0.0034376463331181723,-0.08612094848204045,0.7340967796043318,-0.0007360149862256091,-0.525051927545642,0.0006522513790636654,0.8510696247844147,-0.04511659425687449,-0.8637826200223486,0.8737289447370457,0.06197865479905833,-0.8570556623849124,0.9554927207723047,0.06232754508372263,0.6737077876112558,0.9285041145126341,-0.07406105261618516,0.6075741210045477,1.04672175139589,0.0,0.0,0.0,0.0
-0.0004515077849457827,-0.08896490682193187,0.7330458361526763,-0.0006705563766953544,-0.5247468343839885,0.0006432963642098618,0.8512578318746421,-0.049536074079039885,-0.8551041046674999,0.8727941527133014,0.0687890886968435,-0.8476518259222661,0.9288759416173189,0.07763435265310858,0.6565937609834686,0.9302987627595414,-0.0796779259240119,0.6046939913447756,1.0299182390391706,0.0,0.0,0.0,0.0
-0.003942534226488879,-0.09147222860103521,0.7317891572030017,-0.0006439429164703799,-0.5243736539086699,0.0006493418075069853,0.8514877772341819,-0.05464362563081081,-0.845785732822584,0.8717802073420392,0.0747208050371455,-0.839935669618533,0.9045997917135181,0.0904602966825213,0.6398524207778977,0.934226220253964,-0.09095253780353768,0.6021193636017058,1.0123870917807303,0.0,0.0,0.0,0.0
-0.006760587030083056,-0.09334223620162406,0.7303913453604939,-0.0006299867612796317,-0.5240435187837545,0.0006287811588325205,0.8516910227140331,-0.06015803728239661,-0.8375139595525252,0.8714779113637606,0.07917440187416032,-0.8342513936023991,0.8843151430056373,0.0992874467846114,0.6246966684019388,0.941135957769289,-0.11090754267622516,0.5987668245297436,0.9942850367267667,0.0,0.0,0.0,0.0
-0.008490183659324184,-0.09433073528478039,0.7291017199482561,-0.0006008741234326168,-0.5238247648271128,0.000578838675808388,0.8518256392301743,-0.06443430048147011,-0.8326803562991462,0.8715860403464943,0.08160635411999828,-0.8315856611086637,0.8714767726788114,0.1032844004679493,0.6134165082031408,0.9497740452738787,-0.1364979367531031,0.5949015610937609,0.9775369933567976,0.0,0.0,0.0,0.0
-0.008502829911759907,-0.09445190821022065,0.7290281761837845,-0.0005152688771245078,-0.5238345026144516,0.0005964143823018427,0.851819694922898,-0.06444676678789268,-0.83270324401179,0.8715962813348518,0.08178735172514559,-0.8316632004032256,0.8712965751465759,0.10331636739242842,0.6133237568075168,0.9496934647355891,-0.1365215012696661,0.5949315146905023,0.9775405772328299,0.0,0.0,0.0,0.0
-0.008502829911759907,-0.09445190821022065,0.7290281761837845,-0.0005152688771245078,-0.5238345026144516,0.0005964143823018427,0.851819694922898,-0.06444676678789268,-0.83270324401179,0.8715962813348518,0.08178735172514559,-0.8316632004032256,0.8712965751465759,0.10331636739242842,0.6133237568075168,0.9496934647355891,-0.1365215012696661,0.5949315146905023,0.9775405772328299,0.0,0.0,0.0,0.0
-0.008502829911759907,-0.09445190821022065,0.7290281761837845,-0.0005152688771245078,-0.5238345026144516,0.0005964143823018427,0.851819694922898,-0.06444676678789268,-0.83270324401179,0.8715962813348518,0.08178735172514559,-0.8316632004032256,0.8712965751465759,0.10331636739242842,0.6133237568075168,0.9496934647355891,-0.1365215012696661,0.5949315146905023,0.9775405772328299,0.0,0.0,0.0,0.0
-0.007736547164420817,-0.09490514834532648,0.7288899104289681,-0.0006045957125676677,-0.5240899006937756,0.0008514327154173428,0.8516623072069961,-0.06402786001492973,-0.8353034828371502,0.8771406018522655,0.08238041140787015,-0.8350719140073815,0.8788441168144702,0.1082550540404599,0.6145937346123429,0.9487661122059415,-0.1330297776882861,0.5974222156052306,0.9809866821211253,0.0,0.0,0.0,0.0
-0.006248962171463916,-0.0956250835376977,0.7286685074074583,-0.0005763535348512092,-0.5244816085147854,0.000943917315871147,0.8514210586815709,-0.0626331114808308,-0.8403881693153242,0.8883563060092194,0.08416301510695515,-0.8427750691529818,0.894340071313962,0.11391074691157024,0.6180364281693689,0.947688141529257,-0.13007271298897732,0.6012101013554642,0.9857153046238898,0.0,0.0,0.0,0.0
-0.004053697994569939,-0.09668551573294314,0.7284419329486704,-0.00041967492279639174,-0.5250129719754059,0.000863767400056046,0.8510936828789116,-0.060031392263117475,-0.8473090554472121,0.904486867976577,0.08735034954000766,-0.8543460038054057,0.91729629957019,0.12065039186939391,0.6241174409583748,0.9453035319863332,-0.12727879827851668,0.6067226626159503,0.991192515892967,0.0,0.0,0.0,0.0
-0.0011130900865195547,-0.09828643710339686,0.7285008695152362,-9.37903411901772e-05,-0.5256825307801246,0.0005446852446391928,0.8506806518041653,-0.055513601744989066,-0.854649078318533,0.9245118393409514,0.09262732569720165,-0.8692635531985894,0.9478102266568466,0.12911229674847025,0.6347144165019325,0.9379315995433076,-0.12393567664258254,0.6154583317611575,0.9952875650221925,0.0,0.0,0.0,0.0
0.0028214426130966984,-0.10086991429900592,0.7299082151986133,0.0005520355823312495,-0.526669506890686,-0.00035847032510784315,0.8500698778731448,-0.046985693271811964,-0.8575679961783842,0.9463946814885605,0.1019587702624388,-0.8853169910094844,0.9868245368848733,0.13937052334234634,0.6575397817816119,0.9140302685326698,-0.12006609395748553,0.6329862867352365,0.9896303344579848,0.0,0.0,0.0,0.0
0.006090568721474905,-0.10311887083623916,0.7316214000358701,0.0003831383318807479,-0.5261070831605,2.966816289091716e-05,0.8504182437913532,-0.0424363941755157,-0.8679231663434609,0.9717802506824409,0.09182969361752177,-0.8680676076899285,0.94879359043603,0.10909866991260396,0.648283700200998,0.9556119070108813,-0.10337092757381143,0.6515462369162951,0.9785904038373061,0.0,0.0,0.0,0.0
0.009448127716300795,-0.10556066101559321,0.7331568036258231,0.0003972710202970498,-0.5258413257128205,5.796426931411178e-05,0.8505825879880585,-0.036408411637739904,-0.8758442099384771,0.9945647169004332,0.0820330450576619,-0.8618335266314693,0.9256792735840019,0.08344748917465611,0.6443031961135737,0.9879338836573434,-0.08819508628880561,0.6693829946168973,0.9693618345944273,0.0,0.0,0.0,0.0
0.012644189164902998,-0.10809660138406099,0.7345231057043264,0.0005795853436324337,-0.525797282989518,-0.00013987019294625245,0.8506096999905416,-0.029510190411413104,-0.8809824082100763,1.0134001180158245,0.07387260711735649,-0.8628335975501431,0.9130231896394506,0.06699860943987446,0.6422021092484769,1.0129431777508506,-0.07422724158328511,0.6860062614293628,0.9618518421907102,0.0,0.0,0.0,0.0
0.015499790652274557,-0.11063249101137548,0.735774403188702,0.0008405797098214844,-0.525838066660736,-0.0004267941223545268,0.8505841750955798,-0.022330128681156504,-0.8837497963434169,1.0280813574666445,0.06747315366864605,-0.86778361608849,0.9060841600026399,0.05708031405887007,0.6406848282972594,1.033337445474092,-0.06060112106554015,0.7012574099610986,0.9554448497851384,0.0,0.0,0.0,0.0
0.017943287868803975,-0.11310044123979135,0.7369407451758888,0.0011196898893490869,-0.5258920945854717,-0.0007290435899967091,0.8505502452192351,-0.015238048057971411,-0.8846063082330361,1.038895393656915,0.062431601154966605,-0.8747742590916168,0.9020881609793789,0.050845304617424404,0.6393497541581301,1.0509633702945906,-0.04694724019617904,0.7150780186923399,0.9497837153205402,0.0,0.0,0.0,0.0
0.01997346146794493,-0.11545420798997864,0.7380387128491261,0.0013857857309892679,-0.5259311179101129,-0.0010128368025020627,0.8505254334664768,-0.008453155289981305,-0.8839698463127116,1.0463602402716523,0.05821197339878377,-0.8827618402288417,0.899458564394816,0.04646498468428943,0.6380180451281654,1.066984097788744,-0.033262396093798705,0.727501809806919,0.9446494733837522,0.0,0.0,0.0,0.0
0.02162893407557334,-0.11766618636585012,0.7390795357022192,0.0016259605266974477,-0.5259485628644305,-0.0012665598415677803,0.8505138807211635,-0.0020909399416764235,-0.8822034004872437,1.0510800353731258,0.05435125251826374,-0.8912033878717709,0.8973096007876115,0.042916391516696385,0.6365848350603258,1.0821157488034912,-0.019717700183859675,0.7386374006243484,0.939875952147264,0.0,0.0,0.0,0.0
0.022966733054905743,-0.11972423621783992,0.7400716675682036,0.0018368530304412164,-0.5259468217913986,-0.0014893391578141171,0.8505141671291221,0.0038031564893922665,-0.8796169432437337,1.053656636529912,0.050526494257592126,-0.8998357126088234,0.8951570592815374,0.039650857950106935,0.634993686363875,1.096796961219453,-0.006518788703777912,0.7486388209967202,0.9353297183021596,0.0,0.0,0.0,0.0
0.024048682155145808,-0.12162792744085556,0.741021206092411,0.002019699576405115,-0.5259307880549983,-0.0016848970138444105,0.8505233025094152,0.009229526673861916,-0.8764720316859127,1.0546404102858604,0.046547290031622224,-0.9085478621432371,0.8927471297461906,0.03637793195038424,0.6332308059031199,1.111294353101263,0.006166127365280315,0.7576760256903811,0.9309112671078644,0.0,0.0,0.0,0.0
0.024933657742529945,-0.12338469364105747,0.7419318111010332,0.002177797011531731,-0.525905063883502,-0.001858501614729939,0.8505384570691757,0.014216362142243626,-0.8729871647970261,1.0545082245842916,0.042321514607267664,-0.9173095694846736,0.8899529983936166,0.032949981669559765,0.6313209719591093,1.125764254514223,0.018229565699863344,0.7659126499877198,0.9265578528658879,0.0,0.0,0.0,0.0
0.025673739607904107,-0.12500635457636664,0.7428043902858753,0.0023152322302911186,-0.5258730348877628,-0.002015489031737053,0.8505575399005152,0.018806016380668155,-0.8693447020421231,1.0536590071804257,0.03782107332048306,-0.9261267126549119,0.8867139559973348,0.02930317281927355,0.629324085210451,1.1402845459950406,0.02962110915913485,0.7734905762635843,0.9222454865180472,0.0,0.0,0.0,0.0
0.026312476142828962,-0.12650623851086662,0.743636338455395,0.0024361976797133904,-0.5258366967392893,-0.0021605056019449965,0.8505793117156812,0.023044767962733914,-0.8656995746176935,1.052418166673601,0.033057898885569925,-0.9349988526647878,0.8830063488204207,0.025424059988968642,0.6273315025011535,1.1548610567898725,0.0403327213378991,0.7805172937212994,0.9179938524886572,0.0,0.0,0.0,0.0
0.026883650397484107,-0.12789699791447925,0.7444200840170307,0.0025444714605942147,-0.5257966043488403,-0.0022969971449807347,0.8506034212982753,0.02697530878751207,-0.8621884061359537,1.0510419582123065,0.028070229297196325,-0.9438568742669766,0.8788456975999484,0.021323161246940767,0.625459180986446,1.1694037873528382,0.050383615031920126,0.7870511256109203,0.9138789760603074,0.0,0.0,0.0,0.0
0.027409141021037114,-0.12918921140402556,0.745140877151644,0.0026427330413928635,-0.5257516231944485,-0.0024266618819156287,0.8506305649238014,0.030631589210079923,-0.8589361121381921,1.0497126972647093,0.022913329851032616,-0.952465604511275,0.8743254528055704,0.01700203794643293,0.6238354695655877,1.1836591394440286,0.05981196408301922,0.7930803010220671,0.9100570806277469,0.0,0.0,0.0,0.0
0.027895113554462437,-0.1303909690430958,0.7457742094469277,0.002731473002343026,-0.5256984002411428,-0.002548751664983586,0.8506628209250072,0.03403622671634239,-0.8560563790119383,1.0485184992595584,0.017646084194088793,-0.960296067808377,0.8696963760163309,0.01240281945670705,0.6225912083955072,1.1970765307975888,0.06867850641867364,0.7984959332131819,0.9067980415613964,0.0,0.0,0.0,0.0
0.028327675053354776,-0.1315087721530379,0.7462843933029174,0.0028075682961227377,-0.5256307483126188,-0.002659414259452782,0.850704038725793,0.03720164330326264,-0.8536438181421018,1.047422673328241,0.01230755954273137,-0.9664181445278274,0.8654714984112432,0.0073369653183890365,0.6218880702636668,1.2085855973821222,0.07708319282422209,0.803070665436541,0.9045122931729002,0.0,0.0,0.0,0.0
0.028673555096811323,-0.13254995963972657,0.7466286757974484,0.002863546179589407,-0.52553978668062,-0.0027519930355515707,0.8507597541335028,0.040137178005178735,-0.8517586416024774,1.0462555499556756,0.006892874593881318,-0.9695495829251592,0.8624884644137333,0.001419230507190311,0.6220757747515214,1.2162782293538703,0.08518333530325695,0.8064829691640315,0.9037174516140598,0.0,0.0,0.0,0.0
0.02889873303094727,-0.13352538848536427,0.7467768722522754,0.0028915128817594044,-0.5254191288612242,-0.002821862908522366,0.8508339528190517,0.042865611920482716,-0.8503920818088252,1.0447952192583678,0.0013775598552312335,-0.9685173415230862,0.8617582725332535,-0.005880986120811647,0.6240744065959133,1.2171900823265556,0.09314841935985642,0.8084772214556685,0.9048188610258898,0.0,0.0,0.0,0.0
0.02899674180382371,-0.1344431220505623,0.7467318070897009,0.0028930710800841035,-0.5252685879642901,-0.002869954612001945,0.8509267324501278,0.04540948348996865,-0.849489951334337,1.0429584187067062,-0.004178915350043147,-0.9633177304546777,0.8632535447531581,-0.014540977267912251,0.6278318037298556,1.2112934212432642,0.10100672786120153,0.8090436120990648,0.9078275363862107,0.0,0.0,0.0,0.0
0.0289893198922609,-0.13531131636782057,0.7465304575274772,0.002878957199606056,-0.5250927862220787,-0.002902396993369404,0.851035165874284,0.04779813494591448,-0.8489517520299668,1.0407992352545978,-0.009638812351383686,-0.9551260502137022,0.8659405238451217,-0.02400737709844042,0.6323560664503539,1.2014934320531454,0.10867707072646317,0.808428063224364,0.9123534555187154,0.0,0.0,0.0,0.0
0.02889766246207628,-0.13614685481222685,0.7462253022899665,0.002859059962066848,-0.5248966505742041,-0.002926996610223143,0.8511561341393005,0.050087073603978086,-0.8485965059060785,1.0383044335758849,-0.014900428773368156,-0.9452244805246179,0.8689753027989835,-0.03387519643527364,0.6372537068157359,1.1896428869030167,0.11614306890483941,0.8069594369559772,0.9178764641543303,0.0,0.0,0.0,0.0
0.028722669293297434,-0.1369729670179743,0.7458655796142771,0.002838807031656772,-0.5246807469091441,-0.002948744917206223,0.8512892339862598,0.05234206478655724,-0.8481861588168135,1.0352982758493263,-0.01991885814340192,-0.9345355907293212,0.8718400093924027,-0.043917075661924425,0.6423306474953872,1.1767605665958893,0.12348700220844212,0.8048848970952047,0.9239634229887467,0.0,0.0,0.0,0.0
0.028443643835241256,-0.13781730088404728,0.7454933602653138,0.0028198987305801857,-0.5244411778968983,-0.002969542605623092,0.8514368331907991,0.05463268724709042,-0.847437144012322,1.0314436925106245,-0.024672922942022328,-0.9235799605972822,0.8742808081027774,-0.0540200745215712,0.6474281845718278,1.1633497648342788,0.1308626390052528,0.8023398516795707,0.9303035317670107,0.0,0.0,0.0,0.0
0.02802280222020679,-0.13871165819982623,0.7451447835688224,0.002801387449017882,-0.5241698030756486,-0.002988614407443678,0.8516039208199547,0.05703192338121821,-0.8460306613162372,1.0262731891723393,-0.029141553936548287,-0.9125913755999744,0.8762034331888539,-0.06413418453748465,0.6523899182997277,1.1496269268594774,0.13847607510512602,0.7993661566201581,0.93668341674545,0.0,0.0,0.0,0.0
0.02741026335932801,-0.13969236944804778,0.7448519593734194,0.0027800828955100556,-0.5238542618041189,-0.003002680418942147,0.8517980790299173,0.059617184828276444,-0.8436223936708015,1.0192197559524425,-0.03330500164230904,-0.9016497027198513,0.8775911005697522,-0.07425300425269053,0.6570655044248588,1.1356667530734992,0.14657910856909925,0.795937924725989,0.9429552911448016,0.0,0.0,0.0,0.0
0.026548801539920806,-0.14079989406706722,0.7446435018234048,0.0027500924299541877,-0.5234778077938659,-0.003005486708674228,0.8520295703721785,0.06246821628514329,-0.8398593729263544,1.0096500658442704,-0.03716577268045922,-0.8907771750635253,0.8784603387027171,-0.08442825260846484,0.661316349634371,1.1214904531132492,0.15546610786419046,0.7919815888583798,0.9490157187797006,0.0,0.0,0.0,0.0
0.02537976484890075,-0.1420760712105683,0.74454255556002,0.0027014889162773463,-0.523019056039938,-0.0029864046343529333,0.8523114749691496,0.06565736640177236,-0.8344175449215782,0.9969195097968251,-0.04077804599358126,-0.879986350658005,0.8788496096157623,-0.09482332074357999,0.6650214918759031,1.1071252261570967,0.16546342259517996,0.7873889287418513,0.954798809257913,0.0,0.0,0.0,0.0
0.023852532738720216,-0.14355705273890762,0.7445614233856531,0.002618023204128943,-0.5224516976510143,-0.0029277154400485102,0.85265983724952,0.06922700333961636,-0.8270800191638262,0.9804818130074139,-0.04427125877286635,-0.8692839489035956,0.8788296301841241,-0.10582593615143106,0.6681004143796223,1.0926613567078085,0.1769015516710985,0.7820267599797797,0.9602834359022113,0.0,0.0,0.0,0.0
0.021940627311548437,-0.1452592522365841,0.7446918118377871,0.0024735642946603904,-0.5217439757311115,-0.0027999467707052208,0.8530939371288807,0.07314744763030917,-0.8178878016139706,0.9601058931252796,-0.04784912324517336,-0.8586409618703809,0.8785210327206915,-0.11827105160338666,0.6705881355279005,1.0783349971049907,0.19006424894352253,0.775749384350811,0.9655144624918978,0.0,0.0,0.0,0.0
0.019668620176682562,-0.14715466099629393,0.7448892280788498,0.0022263899575612634,-0.5208568710773657,-0.002554046280357713,0.8536372999622562,0.07724653779591724,-0.8074197209958398,0.9362911318606097,-0.05174374896673227,-0.8479482552946482,0.8780916076231061,-0.13389091465912492,0.67283059582279,1.0646688773274644,0.20511941992449895,0.7684211563969764,0.9706426147872227,0.0,0.0,0.0,0.0
0.0171555940540042,-0.1491300607917008,0.7450490618560176,0.0018082125263930574,-0.5197346831457383,-0.0021059566987680525,0.8543232142750431,0.08109237706467551,-0.7973308790921547,0.9110655117212988,-0.056137438874015726,-0.8369741283965566,0.8776125675647354,-0.15624125948331086,0.6759427216598001,1.0526426727530662,0.22206797396640113,0.7599511153973129,0.9759894291445997,0.0,0.0,0.0,0.0
0.014680197328331996,-0.15091495160424964,0.7449684947366797,0.0010876392272221036,-0.5181974583394711,-0.0012596342224496207,0.8552593902045444,0.08368006682222921,-0.7919371195535193,0.8899870166891093,-0.06148528184066612,-0.8251336575088117,0.8757313432072916,-0.19227586249473194,0.68270466955646,1.0429976087207837,0.24097334045341362,0.7501684450852876,0.9820193543244379,0.0,0.0,0.0,0.0
0.012521933637165103,-0.15236358674852382,0.7445503629658257,1.4299124965187886e-05,-0.5161995907809251,3.80005004661922e-05,0.8564683186371241,0.08462116926098112,-0.7939888410148491,0.8773895935970192,-0.06903651621366547,-0.8139511525342531,0.8718273485406832,-0.24775883364856077,0.6934357326765915,1.0373818336958804,0.26143000694955876,0.7394286190181587,0.9887768889339469,0.0,0.0,0.0,0.0
0.010928377638442179,-0.15330846919704536,0.7435997390135045,-0.0011016817722492615,-0.5140015356524738,0.001506930075178169,0.8577872328298667,0.08402277836448309,-0.8035165426186238,0.8748304377547463,-0.0783072951858603,-0.8066357071214681,0.8643895041547244,-0.30840449893690997,0.7022862330648585,1.037700474575151,0.27875431203771434,0.7272734839284231,0.9977433710160258,0.0,0.0,0.0,0.0
0.010966030931544767,-0.15339438427679755,0.7435732882408985,-0.001108442578648473,-0.5139813781513032,0.0015581331762669598,0.8577992110568428,0.08408311844500524,-0.80357499719927,0.8747241727531956,-0.0783384973855877,-0.8066314500292906,0.8643968992751102,-0.3084208022113706,0.7023028865684965,1.037706638896266,0.2787951392274896,0.727177200768058,0.9976566565977449,0.0,0.0,0.0,0.0
0.010966030931544767,-0.15339438427679755,0.7435732882408985,-0.001108442578648473,-0.5139813781513032,0.0015581331762669598,0.8577992110568428,0.08408311844500524,-0.80357499719927,0.8747241727531956,-0.0783384973855877,-0.8066314500292906,0.8643968992751102,-0.3084208022113706,0.7023028865684965,1.037706638896266,0.2787951392274896,0.727177200768058,0.9976566565977449,0.0,0.0,0.0,0.0
0.010956054930529433,-0.1538197554424292,0.7437146274953111,-0.0009398922949570793,-0.5151525079460408,0.0011996189085840177,0.8570971771472895,0.08575550935592505,-0.7940066503474787,0.8649438807995475,-0.07616671747846651,-0.8014376648420714,0.8600949696925235,-0.3133573442861173,0.7081897008423208,1.0381271077436265,0.28157992263770243,0.7312642893222786,0.9995459977912324,0.0,0.0,0.0,0.0
0.011376701714482598,-0.15445099265608506,0.7437142607146354,-0.0007936715377600166,-0.5158812670667229,0.0009487023909649828,0.8566592019811006,0.0878413332106989,-0.7892697564047728,0.8613229080115687,-0.07393904652620967,-0.8018448455308804,0.8635897860486916,-0.31525153922362625,0.7129422697729665,1.0379155430624587,0.28697945894734456,0.7352459809961893,1.002056570813681,0.0,0.0,0.0,0.0
0.012337558222555169,-0.15529801424049072,0.7436203502894679,-0.0005875310962929443,-0.5164601258745763,0.0006510366556577587,0.8563107901574641,0.09069400991834642,-0.7876557641124613,0.8629527774830784,-0.07120527265331894,-0.8070088488335013,0.874642024038043,-0.3170069189268418,0.7187579943120116,1.0372071431241932,0.2944588921143314,0.7403625659179682,1.00511707506946,0.0,0.0,0.0,0.0
0.013885862396605667,-0.15644095560655363,0.7434372006182242,-0.00022927570069128234,-0.5171854242681487,0.0001165185606652907,0.8558733380475484,0.09491866162520515,-0.7868623827955583,0.8677396775966935,-0.0672470924231448,-0.8160104888694003,0.8925302864163109,-0.3216037651381811,0.7276319688118006,1.0363954786269403,0.3038097315206584,0.7474983447443351,1.0092761185787817,0.0,0.0,0.0,0.0
0.0160432798344148,-0.1579842866340244,0.7433017304623432,0.000265983100034066,-0.5184383928156486,-0.0007834746563330237,0.8551145819568162,0.10104544449189225,-0.7837170308968344,0.8727123737470969,-0.06134576147105471,-0.826564106532462,0.9152949280622908,-0.33112480693083834,0.7422257424024697,1.034706406679121,0.316794604010493,0.7588777720386002,1.0140818538509913,0.0,0.0,0.0,0.0
0.017869598775103242,-0.16016871599864727,0.7442366210143081,-0.0011354020505284766,-0.5187461348361438,0.0014585321185338264,0.8549263308255304,0.09001417105081551,-0.7946866950147695,0.8771735015662829,-0.06105812108724219,-0.8302890980337103,0.9337294371708442,-0.28544412125243407,0.7434209491127292,1.0182295405420008,0.2477232313395925,0.7308472155083396,1.025154914754497,0.0,0.0,0.0,0.0
0.01985204156770684,-0.16237148082587946,0.7448457173661304,-0.0021371661527520383,-0.5194973163666192,0.0028842916633575262,0.8544645409087008,0.07984827951558149,-0.8065870204204469,0.8789250301718965,-0.05868752090947408,-0.8351015030618685,0.9529288048605054,-0.2523413016844139,0.7483469751502658,1.005027243404776,0.18793115277698866,0.7098723082973101,1.035755355732408,0.0,0.0,0.0,0.0
0.02182892470309403,-0.1643856849258781,0.7452030856504573,-0.0025858685057692996,-0.5204526159110029,0.0034138060925163667,0.8538798122706893,0.07265788945602983,-0.8188623487203835,0.8807683126358524,-0.05469413346057196,-0.8412355503294756,0.9720727125041945,-0.2329023582782217,0.756298741241131,0.9951137211508022,0.14791085028442705,0.6973821825365806,1.0474929114458522,0.0,0.0,0.0,0.0
0.02358408864649954,-0.16618136254998586,0.7454222987697157,-0.0027579337539202593,-0.5213413285506948,0.003548302217062871,0.8533364064059271,0.0676476920654303,-0.8310765491813852,0.8823057061264179,-0.05034981025087114,-0.8474979649842516,0.9893719812553492,-0.21962703403738318,0.7642393079706704,0.9872146345100956,0.12175804620619923,0.689668865799788,1.0602394663481316,0.0,0.0,0.0,0.0
0.025024779573719173,-0.16776911906699293,0.7456044340408055,-0.0028284206822649406,-0.5220823407668118,0.0035624864901760496,0.8528829569090345,0.06383958854214376,-0.8429163978723384,0.8833231157881127,-0.04625404157737386,-0.852959339641353,1.0038781315416887,-0.2086235169170567,0.7709879679082507,0.9802859884614289,0.10356512857494285,0.684131471801387,1.0735638877789673,0.0,0.0,0.0,0.0
0.026142511073037295,-0.16917459089034245,0.7458119964428098,-0.0028768829716354608,-0.5226739875550722,0.0035676216090100095,0.8525203213728706,0.0604743457286143,-0.8543253344266035,0.8837713367924557,-0.04259166069183142,-0.8572280146004665,1.0154442095948177,-0.19825108690155704,0.7763309161657704,0.9736932997634259,0.08960797915436408,0.6793567172006715,1.087134277914875,0.0,0.0,0.0,0.0
0.026973894457064607,-0.17042410591436435,0.746072365260678,-0.002926777854879361,-0.5231495329146608,0.003586045542970206,0.8522283382168913,0.057083205165270046,-0.8653879012641199,0.8837003463929879,-0.039345189803091665,-0.8602465033992119,1.0243338806437852,-0.18819365250942263,0.7805374563321289,0.9671538998417157,0.07781545134661608,0.6747169050571362,1.1007663621024257,0.0,0.0,0.0,0.0
0.027578821646740394,-0.17153396301614138,0.7463950343161908,-0.002959283849717882,-0.5235812408194844,0.0035672868470306342,0.8519631455442054,0.05352456021500799,-0.8761139020685759,0.8832996613148916,-0.036351977969638384,-0.8620343444044737,1.030895032423873,-0.17934637812318,0.7843481726052308,0.9606486198459441,0.06685414711532058,0.6700750925621352,1.114391049866449,0.0,0.0,0.0,0.0
0.027996494296915482,-0.17256159479571473,0.7467676972460183,-0.003018087138705651,-0.523914567932398,0.003600525656300101,0.8517578604704686,0.04957137314920082,-0.886786226808015,0.8822719843361713,-0.03368851046929942,-0.8630484441647527,1.0358475474936675,-0.16996703093821167,0.7872293234169304,0.9539103269540127,0.05659940614466795,0.6650831170983348,1.1279289187575146,0.0,0.0,0.0,0.0
0.0282824824780486,-0.17351933415495308,0.7471789529006361,-0.003079333866065112,-0.5242030526168341,0.003636311779334224,0.8515799754378783,0.04531677958321112,-0.897414015173371,0.8807786592081143,-0.031206140848865853,-0.8634265776908823,1.0395605945472204,-0.16090324872265058,0.7897428290914457,0.9470693781078496,0.04656768149369961,0.6598483445896784,1.1413982619828487,0.0,0.0,0.0,0.0
0.02848022002365797,-0.17442122150335398,0.7476097283330635,-0.0031321248138339807,-0.5244723426554151,0.003654156185036892,0.8514138821550108,0.04083064687946952,-0.9080665828944532,0.8788892834964943,-0.028823427784038173,-0.8633630452939414,1.0423974058035863,-0.15246908038021567,0.7921340845178065,0.9402683700417417,0.03657567632429522,0.654460618332651,1.1548133083207353,0.0,0.0,0.0,0.0
0.028619783244360843,-0.17528685865928392,0.7480400498311345,-0.003178432326547362,-0.5247229538160291,0.0036601556513322113,0.8512592569641372,0.03614516226236285,-0.9188020054371333,0.8765770444611841,-0.026508155067141048,-0.8630843095649807,1.0447043896453327,-0.14446493069380978,0.7943760268667863,0.9335948755234628,0.02661114865989596,0.6489651651369095,1.168144638335716,0.0,0.0,0.0,0.0
0.028721519880132426,-0.17613367503447133,0.7484496876093079,-0.0032168717109828733,-0.5249576763091758,0.0036535016883706313,0.8511144116661865,0.03129390981280155,-0.929558952145358,0.8738535726150299,-0.024215772122804367,-0.862773235093733,1.0467362017843946,-0.13679304447037446,0.7964404692148045,0.9271711961070398,0.01665922670230114,0.6434383178461895,1.1812911256234795,0.0,0.0,0.0,0.0
0.02879423420804831,-0.17697843954775916,0.7488150332344096,-0.00324210273126459,-0.5251818420436787,0.0036258395118929716,0.8509761305966945,0.02630594844546912,-0.9400764700674727,0.8708199831217625,-0.021884756578840328,-0.8625754923129292,1.0486510290380064,-0.1294532788149345,0.7982786581312851,0.9211862766210466,0.006709902399453769,0.6379804856548308,1.1940013876190687,0.0,0.0,0.0,0.0
0.028829570980841344,-0.1778439871417776,0.7491051474691408,-0.003253830692688272,-0.5253885798853826,0.0035799864014765775,0.8508486565830669,0.02117786005458046,-0.949818686391263,0.8676932104600392,-0.019464583489498085,-0.8626424530882064,1.0505349360118237,-0.12220689896335467,0.7996473757270511,0.9158796223452963,-0.0031142958507864287,0.632676470200032,1.2057304311641457,0.0,0.0,0.0,0.0
0.02880173140360205,-0.17875306552913733,0.7492812225637733,-0.0032453277172120485,-0.5255772280861147,0.0035076925677417696,0.8507324733770154,0.015947303556949982,-0.957829221265196,0.8649644434380955,-0.016878482588859878,-0.8630678837980266,1.052324132642488,-0.11497704193423225,0.8002715890398516,0.9116209237715259,-0.012627464080271983,0.627690321884861,1.2154311521871994,0.0,0.0,0.0,0.0
0.02866400259918938,-0.17973435547007896,0.7492965915217753,-0.0032203806956343714,-0.5257274966830773,0.0034246359614916247,0.850640053282263,0.010641425198865788,-0.9628765365954048,0.8633413572551512,-0.014092033306814683,-0.8639495598851875,1.0538671968522537,-0.10729315598015822,0.7995967843985788,0.9088153628352362,-0.021294064700709596,0.6233893704614474,1.221239915454673,0.0,0.0,0.0,0.0
0.028372957111395355,-0.18080064942456392,0.7491166413142326,-0.003162618342129083,-0.5258512021326717,0.003310219841875646,0.8505642559533316,0.005402644115716094,-0.963765084880525,0.8637440954300238,-0.011026303659675064,-0.8652296145245998,1.0548661462687736,-0.0993878003797288,0.7974225890481016,0.9078841299117254,-0.028575058894912804,0.6208478810145748,1.2202931426599186,0.0,0.0,0.0,0.0
0.027906951002497106,-0.18196773920875484,0.7487361941722639,-0.0030607577696110757,-0.5259599123258597,0.0031467103104735918,0.8504980309220426,0.00033025092732609767,-0.9604649850288832,0.8661696409176425,-0.007598672966228346,-0.8668367452276781,1.0551584783063646,-0.09139559477164462,0.7937505813802171,0.9088953633897981,-0.03448124018509129,0.6201106672631266,1.2126191132209319,0.0,0.0,0.0,0.0
0.02726511204848964,-0.18326149733013136,0.7481824869396027,-0.0029151624161379767,-0.5260550459546554,0.002931402350560106,0.850440472539961,-0.004557285173404409,-0.9541211420285823,0.8696726862965614,-0.0037325076843513698,-0.8687130485588063,1.0547551945509817,-0.08312111662740017,0.7887110632357891,0.9114753443408449,-0.039553847426343346,0.6201423794918319,1.2011165167930749,0.0,0.0,0.0,0.0
0.026442038785303597,-0.18471291498622536,0.7474974018873242,-0.002735952095758711,-0.5261243175697043,0.0026837389231164207,0.8503990325566788,-0.009270820095457603,-0.9460079013094481,0.8733521453568185,0.0006088215197831101,-0.870766252540104,1.0536502969661667,-0.07404885437056098,0.7823675936631469,0.9150340029541804,-0.04403204535064957,0.6204711760240478,1.1876483555887778,0.0,0.0,0.0,0.0
0.025418310875509578,-0.18634448270233672,0.7467190380677574,-0.0025151255812928017,-0.5261806894106371,0.0023896965375554157,0.8503657128466054,-0.013712972197619478,-0.936995964987245,0.8766968081177443,0.005517063850290733,-0.8727665620198733,1.051614882578663,-0.06422784165994885,0.7749539123222202,0.919143639811141,-0.048135819204053916,0.6209192477602485,1.1732691667719601,0.0,0.0,0.0,0.0
0.024153752612307886,-0.18818972684493482,0.7458780191189814,-0.0022615474720289693,-0.5262103550213,0.0020693385170309168,0.8503489081015457,-0.017842501699693772,-0.9276284935705399,0.8793517639481951,0.011028506489187608,-0.8745065995996509,1.0483577202675485,-0.05318165013745372,0.7663766451325519,0.9233592387701306,-0.05176885485463527,0.6213172315631028,1.1585034858341567,0.0,0.0,0.0,0.0
0.022598482858265986,-0.19028063037056214,0.7449994264756356,-0.001986578772989887,-0.5261972087523664,0.0017462081102476888,0.8503584548666714,-0.02162897211551932,-0.9181625584964942,0.8811270238316341,0.01716326063387428,-0.8757439880006938,1.0434945898822983,-0.040481880040037756,0.7564916667841607,0.9272900657097889,-0.05479661450559287,0.6215116723415967,1.1435736266774594,0.0,0.0,0.0,0.0
0.020701929767076736,-0.19263679748553733,0.7441025723429069,-0.001700721807998139,-0.5261306196674506,0.0014387130977849736,0.850400851774208,-0.025067868558783478,-0.9087026585910715,0.8819617838740004,0.02391678359515755,-0.8761880563887376,1.0365561278150315,-0.025960465726245857,0.7452082711015209,0.9306402478723601,-0.05714110692300272,0.621386914146326,1.1285401515675322,0.0,0.0,0.0,0.0
0.018420336405911758,-0.19525668440909125,0.7432018354559299,-0.0014149410510493129,-0.5260061277202963,0.001160806636845487,0.8504788087133466,-0.02820456708038611,-0.8993092356733494,0.8818874833393491,0.031235243599730428,-0.8755013953303667,1.0270105525747002,-0.009747542103005324,0.7325221650843903,0.9332154853036245,-0.05882028623631075,0.6208658313653594,1.1133787699654256,0.0,0.0,0.0,0.0
0.015724477438774205,-0.1981097460924849,0.742308109181519,-0.001142326224807052,-0.5258249520070117,0.0009237878939230354,0.8505915362578839,-0.03115174771748388,-0.8900550056269068,0.8810206634005413,0.038991658638106184,-0.8733104996704365,1.0142991085629671,0.007744735914909821,0.7185302576008104,0.9349243996997616,-0.05998136259654225,0.6198961173489463,1.0980201833839311,0.0,0.0,0.0,0.0
0.012609680965993839,-0.2011297642507371,0.7414293923558467,-0.0008984806990395731,-0.5255939069259474,0.0007366274927493833,0.8507347971692993,-0.03409260042651868,-0.8810279425259564,0.8795889028881352,0.0469706102027512,-0.8692391854138818,0.9979046836866283,0.02585919962963014,0.7034393086392311,0.9357949045542047,-0.060947382522229296,0.6184336999635854,1.0823744182401045,0.0,0.0,0.0,0.0
0.0091108166135723,-0.20421094603592704,0.7405676709625194,-0.0006999042200509263,-0.5253254599503863,0.0006046779174767325,0.8509008788493604,-0.03725065407732201,-0.872280662261713,0.8779746472365625,0.05486727451525423,-0.8629951258578472,0.9774942628701003,0.04375090063110622,0.687561099158086,0.9360280078749558,-0.062294006039333286,0.616440114343035,1.0663583702384951,0.0,0.0,0.0,0.0
0.005323611009080615,-0.20721172158285028,0.739703608839344,-0.0005664038331438128,-0.5250257787088926,0.0005472589629576619,0.8510859600448395,-0.04084827650957026,-0.8637782486063991,0.8766999139628568,0.062264191736578184,-0.8545977872528205,0.953231832125966,0.0606462280005126,0.6711633430180384,0.936105857590243,-0.06479187808363228,0.6139479021143512,1.0499346340655813,0.0,0.0,0.0,0.0
0.0014146896959209825,-0.20997097365080328,0.7387704742857928,-0.000501385125516091,-0.5247118493276396,0.000545731566393925,0.8512795815507275,-0.04541383002881285,-0.8553667589119416,0.8763243177277817,0.06881825020276755,-0.8445799758870617,0.9260059743763585,0.07556326267882861,0.654511343428199,0.9371135334027463,-0.07009983057518071,0.6111648379299984,1.0330060726551467,0.0,0.0,0.0,0.0
-0.002086977400232047,-0.21239844321486245,0.7376460694807486,-0.0004651878325739327,-0.5243417967609925,0.0005445698488692252,0.8515075849417985,-0.05063390688123641,-0.8463742093681128,0.8761493650528197,0.07454058877199415,-0.8362183916849815,0.9011534497844105,0.08789720006063222,0.6384241056539834,0.940129302838864,-0.0805385728663418,0.6088762935836038,1.015522385772481,0.0,0.0,0.0,0.0
-0.00490366287952043,-0.21420295759482602,0.7363970661412064,-0.0004316284077108229,-0.5240255302944448,0.0005020460463196371,0.8517022984859856,-0.05624085165006657,-0.8385010841719642,0.8771229998189487,0.07885654488813028,-0.8298969828798747,0.8804002787777186,0.09618700994435551,0.6241272544067153,0.9459480551573141,-0.09890621747864095,0.6060702800853132,0.9976851526647487,0.0,0.0,0.0,0.0
-0.0066192539246055625,-0.21515445578435263,0.7352507824784332,-0.00038164545473509155,-0.5238227375053809,0.00042647170229397297,0.8518271022578483,-0.060613172202558276,-0.8341710693184761,0.8789649166173513,0.08123697728856476,-0.8267404452484376,0.8673332252243334,0.09977152227850866,0.6137385516780178,0.953445596739693,-0.12248131665966064,0.602936347878287,0.9813206934467968,0.0,0.0,0.0,0.0
-0.006632518770416952,-0.21527396074021485,0.7351804007501881,-0.00029676791429945816,-0.5238303478150632,0.00044336806258782276,0.8518224474980194,-0.060622187070851416,-0.8341947349323487,0.8789737844109333,0.08141490021606336,-0.8268176928427062,0.8671515228715833,0.09979185171372781,0.6136523022704401,0.953364966946011,-0.12249973419610453,0.6029673766805924,0.9813278086589976,0.0,0.0,0.0,0.0
-0.006632518770416952,-0.21527396074021485,0.7351804007501881,-0.00029676791429945816,-0.5238303478150632,0.00044336806258782276,0.8518224474980194,-0.060622187070851416,-0.8341947349323487,0.8789737844109333,0.08141490021606336,-0.8268176928427062,0.8671515228715833,0.09979185171372781,0.6136523022704401,0.953364966946011,-0.12249973419610453,0.6029673766805924,0.9813278086589976,0.0,0.0,0.0,0.0
-0.006632518770416952,-0.21527396074021485,0.7351804007501881,-0.00029676791429945816,-0.5238303478150632,0.00044336806258782276,0.8518224474980194,-0.060622187070851416,-0.8341947349323487,0.8789737844109333,0.08141490021606336,-0.8268176928427062,0.8671515228715833,0.09979185171372781,0.6136523022704401,0.953364966946011,-0.12249973419610453,0.6029673766805924,0.9813278086589976,0.0,0.0,0.0,0.0
-0.005880317870545686,-0.2157067293639455,0.735035460999969,-0.00039581952064916554,-0.5240785424264853,0.0007032039764974977,0.8516695545804166,-0.06025565511752984,-0.8368071722093947,0.8844416290342216,0.08194708805630155,-0.8301695790903664,0.8745569983648112,0.1046957866582402,0.6148111813634095,0.952576831532008,-0.11884489177974314,0.6054982903496974,0.9846740107787959,0.0,0.0,0.0,0.0
-0.004409694543420933,-0.2163504664319749,0.7348370946497833,-0.0003792944600661811,-0.5244642354243111,0.0008065266143874067,0.8514320122072728,-0.059063827221980704,-0.8418691029047388,0.8956240413709345,0.08350399012421376,-0.8375990053581522,0.8897013896884195,0.1100110470362371,0.6182897376389306,0.9515646651305336,-0.11593863017190759,0.6095371941847034,0.9887836369146471,0.0,0.0,0.0,0.0
-0.0022436280136781343,-0.21731213018634285,0.7346210912429953,-0.0002271695918740885,-0.5249952339509878,0.0007286418021729072,0.8511048242160587,-0.05669910015368483,-0.8486917993508923,0.911576337605253,0.08641798895590219,-0.8488289505676618,0.9121596389784065,0.11617464976494364,0.62435970080481,0.9494886087902054,-0.11336094148737513,0.6152296323553705,0.993638174581917,0.0,0.0,0.0,0.0
0.0006542971861878116,-0.21879199004519884,0.7346763785160595,9.92681126707351e-05,-0.5256666512171261,0.0004046800615715848,0.8506905419587442,-0.05245748383461837,-0.8558856490243705,0.9313000732277844,0.09136776099877794,-0.863363926444461,0.9420528145282375,0.12383490824099345,0.6348648845964249,0.9426985533334574,-0.11038122378567486,0.6240525039444261,0.9971145531942159,0.0,0.0,0.0,0.0
0.0045212133429847826,-0.2212200938101235,0.736024501364403,0.0007521755776926643,-0.5266568363671427,-0.0005073451474772418,0.850077498549723,-0.044293934831968425,-0.8586982007557975,0.9527288632288498,0.10027002702694449,-0.8790534287136332,0.9802427513660082,0.1329883466373799,0.6572309779609642,0.9201651416808133,-0.10712460741056096,0.6413242645551173,0.9911543596937635,0.0,0.0,0.0,0.0
0.007765046957499336,-0.22332417147438982,0.7376533808527153,0.0005791560505324026,-0.526089319027878,-0.00013445647816497553,0.8504291122160084,-0.040056476575413696,-0.8693431765759575,0.978216698327039,0.09022390908790476,-0.8632218419483803,0.9442714859092237,0.10339159015411739,0.6485592178193605,0.960238166638187,-0.09094539514555323,0.6595031087796381,0.9800753776060256,0.0,0.0,0.0,0.0
0.011068993454195191,-0.2256280629290372,0.7391264541096516,0.0005956272552510065,-0.5258248376185984,-0.00012291829052436896,0.850592658246379,-0.03432356755571005,-0.8772942489463794,1.0007609906222783,0.0803734739340316,-0.8579309275962287,0.9223889174665517,0.07822898455610328,0.6447874499610483,0.9916514388752721,-0.07631756953096328,0.6769962216392249,0.9706996550399485,0.0,0.0,0.0,0.0
0.014193380943238758,-0.2280340150421259,0.7404469352072572,0.0007794126148352893,-0.5257797680372871,-0.0003321318202501614,0.8506203134930922,-0.02771850718515793,-0.8823647787344358,1.0192197808933157,0.07209631583483493,-0.8595004295901275,0.9103635206734675,0.06196836430242903,0.6427311411614876,1.0161553709812088,-0.06285122248534637,0.6933032463723867,0.9629772103459756,0.0,0.0,0.0,0.0
0.016969890034440133,-0.23045141874714792,0.7416631157956036,0.001039047863055003,-0.5258157458879098,-0.0006260461715524335,0.8505976309760511,-0.02081686050207461,-0.885044284103585,1.0334983141829273,0.06555011653340104,-0.8647779196598481,0.9037097494204286,0.05201903179197525,0.6411874598381069,1.0362866843832919,-0.049656775620595325,0.7082505821515876,0.9563487497537568,0.0,0.0,0.0,0.0
0.019333532875969908,-0.2328144518546004,0.7428025715440659,0.0013143470552287088,-0.525861711183254,-0.0009318333397782169,0.8505685539037199,-0.013979814470723648,-0.8858175368213483,1.0439264996596567,0.06035639988748545,-0.8719424150350896,0.899805674137669,0.0456403863196075,0.6397873128576845,1.0537857671450082,-0.0363582269611219,0.7217825435523575,0.950478538383338,0.0,0.0,0.0,0.0
0.021287179762148868,-0.23507755335657268,0.7438806511567014,0.001575244685515136,-0.525890577078559,-0.001216904910062842,0.8505499037014822,-0.0074209946183694895,-0.8851057707031043,1.0510361649886926,0.05599497633145532,-0.8800078535652791,0.8971627439209571,0.04107689774425796,0.6383672187360342,1.0697516634776538,-0.022958734255768998,0.7339397593678489,0.945151527227379,0.0,0.0,0.0,0.0
0.022871852391682435,-0.2372127684552141,0.7449075440721672,0.0018098167223118786,-0.5258969243436029,-0.0014706829117292035,0.8505451114556732,-0.0012535826163693649,-0.8832693913776947,1.0554341899004747,0.05201092917403909,-0.8884686187926557,0.894946296411999,0.037345124520619256,0.6368325482325687,1.084863860045014,-0.009640439037223418,0.7448362220383364,0.9402002364407827,0.0,0.0,0.0,0.0
0.024145804921054517,-0.23920690431304506,0.7458905785528035,0.0020153951148265694,-0.5258840002183648,-0.0016930529018362884,0.8505522265379908,0.004476583785370961,-0.8806159963926313,1.0577216958639613,0.04808419604289469,-0.8970862058493813,0.892703209822511,0.03391423409922415,0.6351344867642843,1.0995407388960585,0.0033797050597673423,0.7546281162605534,0.9354895865511881,0.0,0.0,0.0,0.0
0.025171260389232314,-0.2410580515319604,0.746834711003466,0.002193621259548155,-0.5258572158716585,-0.0018882161957213214,0.8505679344891129,0.009767556625610473,-0.8774063388992827,1.0584474469598872,0.04402401834461795,-0.9057657015118329,0.8901988749524692,0.030500225661784886,0.633264407577207,1.1140381402955448,0.015923601716303297,0.7634848169951467,0.9309190237941694,0.0,0.0,0.0,0.0
0.026006908641181586,-0.24277194527228374,0.7477425773770219,0.0023479912494879427,-0.5258214107217604,-0.00206174289327488,0.850589254681666,0.01464408496127458,-0.8738592322952938,1.0580863886616105,0.03973600443569913,-0.9144855427689996,0.8873153716257999,0.026956469852732062,0.6312498313287739,1.128507096037392,0.0278748922389084,0.771567397286994,0.9264248476512148,0.0,0.0,0.0,0.0
0.026704283707263424,-0.24435869508781632,0.7486142376153972,0.0024826532109079496,-0.5257800366316622,-0.0022191316818269114,0.8506140517104224,0.01914464081984164,-0.8701578037900003,1.0570352794067142,0.03518909314049716,-0.9232563579639035,0.8839957155868325,0.02321776609852093,0.629151803884446,1.1430230231715242,0.03917551218696499,0.7790142184656539,0.9219821614394992,0.0,0.0,0.0,0.0
0.027306214282453473,-0.2458300748656564,0.7494464243592286,0.002601769280224736,-0.5257350896339372,-0.002365046603218233,0.8506410834651551,0.02331162134083514,-0.8664576879147983,1.0556170768575868,0.030392346917895836,-0.9320816677836474,0.880219635580166,0.019268422503637687,0.6270620272974377,1.1575906557431324,0.049811786807345354,0.7859292976420981,0.9176099891848295,0.0,0.0,0.0,0.0
0.02784564844572135,-0.24719737103954612,0.7502310876682226,0.0027090973981030056,-0.5256870275642219,-0.002503051347163558,0.8506700562356324,0.027184549836780574,-0.8628957479428225,1.0540851056588532,0.025381719579012935,-0.9408942043996701,0.8760010713584131,0.015114613823384316,0.625096222525561,1.1721196781294705,0.05979656742005905,0.7923667518015607,0.9133834649577195,0.0,0.0,0.0,0.0
0.028343637876239083,-0.24847007971783694,0.7509532216402871,0.0028072555423619677,-0.525634613678679,-0.002634868555096259,0.8507017278029257,0.030794698596572356,-0.8595965574909558,1.0526184470507796,0.020210830388051593,-0.9494609241482025,0.8714319814027698,0.010753191155290984,0.623382101738831,1.1863560680407914,0.06916369225116753,0.7983115516507143,0.9094576842397718,0.0,0.0,0.0,0.0
0.028805567994383736,-0.24965550129443428,0.7515883193018008,0.002896602083829338,-0.5255743703933393,-0.00275963845360661,0.8507382530941102,0.03416244823033788,-0.8566730345171663,1.0513019451036034,0.014937613968709015,-0.9572550069787801,0.866761188431004,0.006121586418273558,0.6220492487811551,1.1997480213838583,0.0779723875842991,0.8036529894097121,0.9061007044316733,0.0,0.0,0.0,0.0
0.029216815297291834,-0.25075958817067395,0.7521009398592091,0.002973800390495256,-0.5254998754171344,-0.0028733110243441065,0.8507836279169758,0.03729845727290714,-0.8542191521784536,1.0500961593094098,0.009600893193249988,-0.9633467518405506,0.8624956225574265,0.0010269039033640954,0.6212571197874281,1.211222367672021,0.08632314994937668,0.8081628038893025,0.9037201098657889,0.0,0.0,0.0,0.0
0.029543534227786498,-0.25178936497229776,0.75244869282045,0.003031083951918339,-0.5254019014351958,-0.0029689041201230435,0.8508436049631464,0.04021067220181411,-0.8522954751919086,1.048830205574218,0.004196373541841411,-0.9664545864067158,0.8594669079664652,-0.004917711689940633,0.6213526536544196,1.218866105125697,0.09437652860401571,0.8115193981231457,0.902830544027643,0.0,0.0,0.0,0.0
0.0297514226868142,-0.252755579682095,0.7526016149629536,0.0030604564130795016,-0.5252737484344324,-0.0030417340831535365,0.8509223646525879,0.04292162079983925,-0.8508938813481818,1.0472821671846253,-0.001298894026060554,-0.9654062889644317,0.858680428864973,-0.012240671232518124,0.6232543961740016,1.219709304971158,0.10230280262794102,0.8134662266772675,0.9038356160680467,0.0,0.0,0.0,0.0
0.02983414965987347,-0.25366667200814297,0.7525626204934341,0.003063686608937412,-0.5251152656952875,-0.0030929868550633862,0.8510199791958143,0.04545543481101212,-0.8499585519755373,1.045367583664945,-0.006824332895711112,-0.960198926189821,0.8601093360312344,-0.02092166283050459,0.6269135264892994,1.2137252699463206,0.11013025096033507,0.8139935812023902,0.9067463199828193,0.0,0.0,0.0,0.0
0.029813915960169083,-0.25453170909746126,0.7523687296392395,0.003051864176744461,-0.5249313092784282,-0.0031292448451607983,0.8511333705659653,0.0478447672923045,-0.8493854471816358,1.0431380679984592,-0.012241810226268916,-0.9520082360683265,0.8627264346210958,-0.030412772315393438,0.6313443823858397,1.203826007863444,0.11777971821631557,0.8133491093772903,0.9111733859592109,0.0,0.0,0.0,0.0
0.029712461559217137,-0.255368795250091,0.7520724877875272,0.0030353167004177877,-0.5247268265781737,-0.003158905967418208,0.8512593997336043,0.050149562353118536,-0.8489903476451628,1.0405781775543885,-0.017448683436617294,-0.9421156237469345,0.8656930674614384,-0.04030817455980315,0.6361577296463032,1.1918691521218554,0.1252381551414538,0.8118631902464067,0.9165969346931503,0.0,0.0,0.0,0.0
0.029531163322594083,-0.2562027524571633,0.7517234234166079,0.003019797759719043,-0.5245021168533023,-0.0031874070307535973,0.851397821628829,0.052440717144925826,-0.84853224086022,1.037509711464499,-0.02239825107308601,-0.9314424536857607,0.8684957006270796,-0.0503758734950173,0.641161163874126,1.1788756063611037,0.13259586752841776,0.8097852392332585,0.9225829020818656,0.0,0.0,0.0,0.0
0.029249667792093644,-0.2570632144046338,0.7513641525917983,0.0030072382484168706,-0.5242527853828743,-0.0032169903063700668,0.851551304684447,0.05479376497144177,-0.8477240045626414,1.0335917595048791,-0.027066902826653565,-0.920507790946531,0.8708828697769679,-0.0604980523927019,0.6461956976196347,1.1653490968815636,0.14001832141425782,0.8072533331467038,0.9288184096406286,0.0,0.0,0.0,0.0
0.028830390898619215,-0.2579843102014547,0.751031568788564,0.002996847363547611,-0.5239700245536921,-0.0032471373503729526,0.8517252423018298,0.0572883131976191,-0.8462424038679148,1.0283512297495354,-0.03143162934579334,-0.909543909517843,0.8727607183582903,-0.07062115046493143,0.6511029541201873,1.1515059052133962,0.14772588277391707,0.8043120886414196,0.9350871117711078,0.0,0.0,0.0,0.0
0.028223502239415197,-0.25900487325191,0.7507586589046181,0.002985506502367864,-0.5236406680367063,-0.0032747185461273086,0.8519277045309889,0.06000851804030409,-0.8437382237259302,1.0212141028071315,-0.03547284490575539,-0.898629028372533,0.8741106563758604,-0.08073733112057753,0.6557287458516323,1.1374208512511086,0.1559856176526575,0.8009379202790444,0.941237516701905,0.0,0.0,0.0,0.0
0.027371653063179967,-0.2601677138415746,0.750574904205212,0.002967277673012903,-0.523247026357422,-0.003293492826355835,0.8521695239659356,0.06303999963348236,-0.8398542311216608,1.0115396516398996,-0.03919692751683853,-0.8877825547490277,0.8749435016987126,-0.09090007353608721,0.6599284815365073,1.123116361877878,0.16510496775740077,0.797057926041368,0.9471617927094694,0.0,0.0,0.0,0.0
0.02621587943282378,-0.2615163422945054,0.7505041309173154,0.0029320077527791905,-0.5227666677241648,-0.0032925811726416806,0.8524644117828801,0.06645838927679881,-0.8342645437212868,0.9986773767752839,-0.04266653807961174,-0.8770117486827699,0.8752868478430927,-0.10127887050995062,0.6635731046906568,1.1086232260559383,0.1754171033608078,0.7925617333066166,0.9527889111374678,0.0,0.0,0.0,0.0
0.024705041027904946,-0.26308707058215824,0.7505588935639433,0.002862992904824143,-0.5221721487778844,-0.0032536208388881088,0.8528290944050575,0.07030431014905886,-0.8267558124671301,0.9820800096128579,-0.046022905252945875,-0.8663130536697203,0.8751920370856358,-0.11227423089236888,0.666572862806269,1.0940398492432648,0.18724626312859874,0.7873092790762329,0.9580916203056076,0.0,0.0,0.0,0.0
0.022811912407744602,-0.26489373521330023,0.7507303904013243,0.0027333961503212176,-0.5214304373104549,-0.003145945539403401,0.8532836167525873,0.07453802796660945,-0.8173828610611666,0.9615264612063609,-0.04947916131285635,-0.8556383066994249,0.874745318425326,-0.12474567581126877,0.668954988582178,1.0796188455539735,0.20084753001299716,0.7811406608464236,0.9631073516040651,0.0,0.0,0.0,0.0
0.020560054579956005,-0.2669012970561953,0.7509723508256063,0.0025005138775067255,-0.5205007939297921,-0.0029185449063019978,0.8538525358892098,0.07896485537740133,-0.806757652666887,0.9375484970502315,-0.05326199945548427,-0.8448452649071698,0.8740530249153671,-0.14047523073125107,0.6710646785254903,1.0659140723583642,0.21632714071663653,0.7738949217251798,0.9679785881093238,0.0,0.0,0.0,0.0
0.018067249488131765,-0.26898272627788544,0.751176096810326,0.0020944945428256058,-0.5193241404927814,-0.0024839436478630013,0.8545711674389666,0.08311207312080343,-0.7966083286114184,0.9122533154979516,-0.05751590078421696,-0.8336483593824154,0.8730717017024976,-0.16312719993364783,0.6740359361443788,1.05395475965461,0.23358500511222,0.7654380053498844,0.9730217068993383,0.0,0.0,0.0,0.0
0.015610925624885873,-0.2708440411528811,0.7511300758331555,0.0013786979924375908,-0.5177078029477301,-0.0016299612851595777,0.8555548335349925,0.08588506207881685,-0.7914553416712599,0.891416454905597,-0.06265765457850542,-0.8213532713622128,0.8701731675032892,-0.19981983102924739,0.6807003589366338,1.0444835848151905,0.2526244251080373,0.7555338935125712,0.9787092898139725,0.0,0.0,0.0,0.0
0.013456977915639677,-0.2723461345190057,0.7507301112648512,0.00031161263532248197,-0.5156068967234906,-0.00032251881323687307,0.8568251437314105,0.08695962818663827,-0.793942700937267,0.8791998205632275,-0.07017741728383182,-0.8094775737650918,0.8645372120105265,-0.25632448955430803,0.6911041185190737,1.0393049014402926,0.2728516807014281,0.7444023241857363,0.9851748375690855,0.0,0.0,0.0,0.0
0.0118329952709955,-0.27331117948259526,0.7497372111016891,-0.0007758373587094404,-0.5132877110596951,0.001142021965305454,0.8582154854914484,0.08644387390669254,-0.8040660465647207,0.8769787166699462,-0.07971426678754791,-0.8010499636624282,0.8541505862017662,-0.3175111709754814,0.6990683187285455,1.0404172456490672,0.28928580893511047,0.7312883329645071,0.9943289698606097,0.0,0.0,0.0,0.0
0.011875303854489299,-0.27340745353856183,0.7497095750938251,-0.0007736678392047003,-0.5132639413672936,0.001195165732907941,0.8582296309898982,0.08652050905598185,-0.8041269181023685,0.8768722573827771,-0.0797467618733167,-0.8010443802487153,0.8541574878042544,-0.31752869068908246,0.6990839713103473,1.0404234655691091,0.2893278559661235,0.731193742538492,0.9942406850368612,0.0,0.0,0.0,0.0
0.011875303854489299,-0.27340745353856183,0.7497095750938251,-0.0007736678392047003,-0.5132639413672936,0.001195165732907941,0.8582296309898982,0.08652050905598185,-0.8041269181023685,0.8768722573827771,-0.0797467618733167,-0.8010443802487153,0.8541574878042544,-0.31752869068908246,0.6990839713103473,1.0404234655691091,0.2893278559661235,0.731193742538492,0.9942406850368612,0.0,0.0,0.0,0.0
0.01188201913450367,-0.27386443527100873,0.7498779091079922,-0.0006258136390207598,-0.5144780569187348,0.0008541592555246851,0.8575028907930156,0.08822170328460158,-0.7942931312177628,0.8669014406465495,-0.07752318786427961,-0.7956059095893476,0.8497828117681958,-0.3221972657240796,0.7052223576095077,1.0406218765574837,0.2929615570122284,0.7357767482658285,0.9960279677563691,0.0,0.0,0.0,0.0
0.012316831067980502,-0.2745253909342652,0.7499005095446568,-0.0004872042585095527,-0.5152369452969208,0.0006016831218678243,0.8570474262317863,0.09038203834897494,-0.7892918984403542,0.8630722404459308,-0.07521181576797237,-0.7959340466804028,0.8533800098806791,-0.3240340586161017,0.710224600904292,1.0402173806208033,0.2989440066021264,0.7401216613467597,0.9984227686520414,0.0,0.0,0.0,0.0
0.013286820460088267,-0.2754091268669799,0.7498155982486152,-0.0002874533106045728,-0.5158202387858488,0.00030604894419503613,0.8566967403717303,0.09332486682082379,-0.7875468285519802,0.8645553002065279,-0.07239631835936308,-0.8012423487916303,0.8647627942765105,-0.32557850847540193,0.7161009516867594,1.0393836510651953,0.30706817395488706,0.7454607224238213,1.0014570510734948,0.0,0.0,0.0,0.0
0.014839944848284534,-0.27660129068077455,0.7496248339116822,5.1533046449793145e-05,-0.5165053011274496,-0.00019110551281762707,0.8562839685117728,0.09759653144761346,-0.7869460611282922,0.8694209244221371,-0.06842457267635414,-0.8106601008703632,0.8832694277257569,-0.3293187479971889,0.724642137327706,1.0384737886276836,0.31753827911738663,0.7527284333446572,1.0056959875284557,0.0,0.0,0.0,0.0
0.017009292153169427,-0.27820392932639565,0.7494630922637336,0.0005074793768317982,-0.5177213256095846,-0.0010008005173761272,0.8555485783239084,0.10367091575558915,-0.784155863931517,0.8745874590107882,-0.06261969651377486,-0.8216146894815688,0.9066921286417151,-0.3373217383445826,0.7386518342428764,1.0368331884019206,0.3327007532857022,0.76448630273622,1.0107954788405211,0.0,0.0,0.0,0.0
0.01889045643915408,-0.28037865952583324,0.7504397481634184,-0.0008964194953517237,-0.5182774170691858,0.0011736356098734021,0.8552112826475319,0.09266462709155449,-0.7942771770733285,0.8790214108210165,-0.06214200084146273,-0.8241858310790944,0.9243727579285381,-0.2941211624630018,0.7416915946151899,1.0206262904977976,0.25996350163182963,0.7359403527506473,1.0228778768501678,0.0,0.0,0.0,0.0
0.020944771233884985,-0.2826228830730107,0.7510581796224536,-0.0019355875680992407,-0.5191531261942669,0.002636476448078261,0.8546749873814166,0.08248561178804772,-0.8058557261864876,0.8806562189800069,-0.059737285262114796,-0.8286618354171569,0.9437829289698949,-0.2607600080282726,0.7472704412525125,1.007521469067212,0.19756209583619339,0.7143935241576811,1.0340243970424432,0.0,0.0,0.0,0.0
0.022996357147394036,-0.28470636580159653,0.7514096458074203,-0.0024312947958424935,-0.520149149796764,0.00324553607604507,0.8540658155358394,0.07530689673858096,-0.8180466536056935,0.8823023847532339,-0.05576526633199,-0.8349707545024072,0.9636713363519572,-0.23995940124692233,0.7552577650239158,0.9975070939346665,0.15617935757419465,0.70146719871867,1.0460619856110247,0.0,0.0,0.0,0.0
0.024824034005705237,-0.28656776974105835,0.7516166422438488,-0.0026362353472734897,-0.5210593749422284,0.0034416117957591064,0.8535094219493158,0.07035755131264479,-0.8302313361668712,0.8837244062585357,-0.05141481426860966,-0.8415440093111386,0.9817851714159611,-0.22552700568451037,0.7631841250999771,0.9895010620114046,0.12933844097117778,0.6935582356061485,1.0590106292570491,0.0,0.0,0.0,0.0
0.02633160641564709,-0.2882058176888019,0.7517832312896298,-0.002722616666548002,-0.5218225679571347,0.0034881359367680653,0.8530425709405101,0.06664098369625447,-0.8420627054136647,0.8847363135890094,-0.04728205886582679,-0.8473107030188164,0.9970065312934614,-0.2138650830193959,0.7700106756881833,0.9825405231513449,0.11079169372973782,0.6880224770791463,1.0724960750490113,0.0,0.0,0.0,0.0
0.02750929193992961,-0.2896446584045998,0.7519745097927848,-0.002773427940863859,-0.5224418321019647,0.003500114487059584,0.8526632332673767,0.06338411994068968,-0.8534703399484239,0.8852680947844941,-0.043562656420230605,-0.8518304773806127,1.0091470174005066,-0.20331608020980124,0.7755427998759348,0.9759950363449396,0.09662420251952238,0.6833826246379444,1.0862074054740796,0.0,0.0,0.0,0.0
0.028392614774189882,-0.290915852631147,0.752220700700017,-0.002819238384095636,-0.5229451287084425,0.003512797068683335,0.8523544476987249,0.060106062401542995,-0.8645278129182616,0.8853144565214409,-0.040256816181281616,-0.855048363173861,1.0184923005131608,-0.19332761117022693,0.7799812490890204,0.9695314253370757,0.08467629024189963,0.6789351926526146,1.0999623775418281,0.0,0.0,0.0,0.0
0.02903640429032954,-0.2920493986052657,0.7525292640997793,-0.0028622852341429706,-0.5233723473878042,0.0035191455009778508,0.852092019049563,0.05659188393277338,-0.8753247331791743,0.8849270191630788,-0.037273359625877536,-0.8570820309975413,1.0254967926184808,-0.18399343988634564,0.7837210418797648,0.9630273713671197,0.07376243301765288,0.6744127077842262,1.1136804654138093,0.0,0.0,0.0,0.0
0.029491611629248085,-0.29308453602823353,0.7528915007813298,-0.0029148932539468653,-0.5237260129018367,0.0035422295401588274,0.8518744152849926,0.05272705277008507,-0.8860148838176825,0.8840241924413946,-0.03457334736301791,-0.8582275473101297,1.0307424339346862,-0.17480066798979513,0.7867964035458582,0.9563779486638718,0.0634290240959336,0.6696364661430819,1.1273207537072398,0.0,0.0,0.0,0.0
0.029810110087255447,-0.2940445866670238,0.7532934285951784,-0.002969011007345083,-0.5240340755939885,0.003565735448857622,0.8516846588501527,0.048549182282242,-0.8966736700973472,0.8826625456555701,-0.03206194894756036,-0.8587058887777119,1.034686192813167,-0.16597129468320923,0.7894963738494687,0.9496401739369049,0.0533432317685299,0.6646276007931009,1.140891099614753,0.0,0.0,0.0,0.0
0.03003444506227096,-0.2949496858279399,0.7537170034549959,-0.003019348729975495,-0.5243138814972276,0.0035806007406783613,0.8515121939825019,0.04411858177815116,-0.9073716628788083,0.8808695103372852,-0.029669745631099323,-0.8587388195038155,1.0377290364349117,-0.15759185400964326,0.7919837267657611,0.9429048702050108,0.04335288927981526,0.6594404993791589,1.1543999128437903,0.0,0.0,0.0,0.0
0.030195959771886136,-0.29581977775917756,0.7541428372041215,-0.003065745018177288,-0.5245702575684403,0.0035885196237957005,0.8513540794575271,0.039480798229446425,-0.9181495816005709,0.8786313481725968,-0.027352836696246594,-0.8585445595644109,1.0402164348716199,-0.14953958459374483,0.794275537740733,0.9362611913983014,0.03341956083958174,0.65413030679421,1.1678221558788422,0.0,0.0,0.0,0.0
0.030316091816078545,-0.29667180317516684,0.7545499822313622,-0.0031054659469200857,-0.5248087476717099,0.0035858985649847006,0.8512069523799636,0.034674037680053865,-0.9289440918971006,0.875969725751112,-0.02506135444509606,-0.8583036375483235,1.0424038403500793,-0.14177159894373328,0.7963684750832667,0.9298445877952126,0.023521528471825627,0.6487827978476958,1.1810616826846656,0.0,0.0,0.0,0.0
0.03040451762316464,-0.29752179048416877,0.754913624979161,-0.0031327034718663114,-0.5250359021387075,0.0035633346536272695,0.8510668541780352,0.02972533272555792,-0.939500074784394,0.8729911644522296,-0.02273342019571223,-0.8581637227293917,1.0444526155308604,-0.13431530932379682,0.7982221482947794,0.9238591175220672,0.013653239110183284,0.6435037254823498,1.1938711375255675,0.0,0.0,0.0,0.0
0.03045429596943065,-0.29839032902781165,0.7552022704719504,-0.0031440862175941085,-0.5252499958342038,0.0035174153752285512,0.850934888453343,0.024640305876163462,-0.9492716998166484,0.8699302909966747,-0.020309627862947776,-0.8582651987708397,1.0464394256837755,-0.1270451572839016,0.7996418392031268,0.9185694972013151,0.003907286143696089,0.6383888963568349,1.2057095919360128,0.0,0.0,0.0,0.0
0.030439099694406557,-0.299301670134433,0.7553763763387545,-0.0031362186797550483,-0.5254451565803144,0.00344652889833909,0.8508147113192358,0.019438801284839297,-0.9573162689384246,0.8672584171616172,-0.017725427307347538,-0.858719239721235,1.048318131041584,-0.11976876900891437,0.8002993296144831,0.9143329247127899,-0.005496421215741154,0.6335811137500188,1.2155269602821002,0.0,0.0,0.0,0.0
0.03031297899129433,-0.30028313615382757,0.7553896223154413,-0.0031104469046162055,-0.5256046857125224,0.0033614767978160406,0.8507166037822653,0.014155926588475573,-0.9623848973431376,0.8656932272387836,-0.01493830644603884,-0.8596144792902254,1.0499296127240354,-0.11209428332912778,0.7996773707062911,0.9115650193605092,-0.014063453291124461,0.629441182795235,1.2214577426569735,0.0,0.0,0.0,0.0
0.03003215194749146,-0.3013489103558404,0.7552074032673491,-0.003052817548340261,-0.5257364658865202,0.00324625010668841,0.8506358272506591,0.008921856604325058,-0.963287736238922,0.8661417672632051,-0.01187676448741418,-0.8609060261114503,1.0509898692796673,-0.10417278216717987,0.7975407983413362,0.9106706693179328,-0.02124713756817162,0.627017105676824,1.220632386385292,0.0,0.0,0.0,0.0
0.029575010903468174,-0.30251545725479073,0.7548248402802323,-0.002953433493661877,-0.5258501129991864,0.0030856488538882755,0.8505665257112415,0.003831939181307118,-0.9599967506295639,0.8685941738200588,-0.008462512813382811,-0.8625284758340054,1.0513441934460142,-0.09609904595918002,0.7938760132419139,0.9117063917801267,-0.0270551026761389,0.6263448334389345,1.2130752209297988,0.0,0.0,0.0,0.0
0.02894094591277737,-0.30380832264886193,0.7542688575381693,-0.002813456642712926,-0.525946269795318,0.0028785012460122747,0.8505082715533617,-0.0010976680709364906,-0.9536647954256918,0.8721038322538923,-0.0046235104365711386,-0.8644265074366421,1.0510066294272618,-0.08766295554221339,0.7888044113763599,0.9143001715473572,-0.03201090843564431,0.6264006650311471,1.2016848713045436,0.0,0.0,0.0,0.0
0.028126794301154133,-0.30525378233831674,0.7535811630368613,-0.0026357721311655283,-0.5260236873902568,0.002629993060518432,0.8504617664222958,-0.00584519470426788,-0.9455455073876324,0.8758146313268038,-0.00030166421947462,-0.8664782533618604,1.0499418166122272,-0.07858500767342697,0.7824922468557425,0.9179121204259545,-0.03642999320681835,0.626748529163626,1.188330868313603,0.0,0.0,0.0,0.0
0.02711224058771322,-0.30687741961803167,0.7527998469654227,-0.0024179197194720953,-0.5260866719235474,0.002337221292544124,0.8504243086161551,-0.010336034293640174,-0.9365344922492581,0.8791832701095387,0.004576266930712846,-0.8684799558866103,1.0479484307688047,-0.0687277687125287,0.7750914629334718,0.9220811728748495,-0.04046791887797012,0.6271984772022071,1.1740631329021953,0.0,0.0,0.0,0.0
0.025857674630461677,-0.3087124500738058,0.7519560596105116,-0.0021671499552177276,-0.5261232986674972,0.002017398118485631,0.8504031444939127,-0.014519433101880759,-0.9271680409700815,0.8818621574794381,0.010052570013195095,-0.870220551312178,1.0447331460004219,-0.057652450757157934,0.7665285841503741,0.9263655055503626,-0.044052005370222976,0.6275860464688707,1.159405431330695,0.0,0.0,0.0,0.0
0.024313449723249725,-0.31079099610987015,0.7510749916722613,-0.0018936628861902177,-0.5261183046617033,0.001692351960655807,0.850407596088846,-0.018360842966722548,-0.9177022423383135,0.8836676350498285,0.01615185364837139,-0.8714580480558111,1.039912221440638,-0.04494551968644266,0.7566667891047408,0.9303783926394069,-0.047057086819556275,0.6277612855216675,1.1445790161879015,0.0,0.0,0.0,0.0
0.022428881166131502,-0.3131338925914215,0.7501762011215308,-0.0016077654332509155,-0.5260602585441898,0.0013808356494790573,0.8504446559086847,-0.021855091921570015,-0.9082436978871898,0.8845397829820416,0.022872096979851216,-0.8719071865936618,1.0330221059655946,-0.030419087716047226,0.7454083652891461,0.9338184595222065,-0.04940128613228075,0.6276086066973889,1.1296430488114129,0.0,0.0,0.0,0.0
0.020159939234769306,-0.31574158037083794,0.7492745364479824,-0.0013206034015375893,-0.5259432420321062,0.0010980088257152244,0.8505179342871212,-0.025046487856430787,-0.8988559972528662,0.8845099124491571,0.030162015596250688,-0.8712380309680986,1.023539466619612,-0.014173108281858145,0.7327387492885524,0.9364786897350098,-0.05109293479215503,0.6270507428329471,1.1145725950030914,0.0,0.0,0.0,0.0
0.01747703454218383,-0.318585746000704,0.7483813965319651,-0.0010454583471052887,-0.5257670011280858,0.0008564589029749697,0.8506275530570188,-0.028044962337904017,-0.8896169773789141,0.8836966480094405,0.03789773199784039,-0.8690844746670999,1.010913729078994,0.0034035217076510936,0.7187473904180063,0.9382524583726835,-0.05226625852486093,0.6260376924606801,1.0992994404469556,0.0,0.0,0.0,0.0
0.014374949203980414,-0.3216020161582943,0.7475050417744623,-0.0007979396005705726,-0.5255372993165026,0.000666037144877191,0.850769925840137,-0.031029715176859554,-0.8806239936869188,0.8823347029333704,0.045866942626904175,-0.8650752254371312,0.994631726810886,0.021659570983946667,0.7036387158527967,0.9391555211286884,-0.05322613175457149,0.6245318723198258,1.0837371831219946,0.0,0.0,0.0,0.0
0.010887564758041864,-0.3246852155197124,0.7466472046537903,-0.000594154858519744,-0.5252665732634304,0.0005319584010564187,0.8509373602165773,-0.03422074793057218,-0.8719456879154157,0.8808239768674819,0.05376706666079929,-0.8589157597193448,0.9743533004258562,0.03973100001549504,0.687728417267879,0.9393871203133799,-0.054518777777282555,0.622507208211793,1.067809499786179,0.0,0.0,0.0,0.0
0.00710899428851142,-0.3276919654111165,0.7457879197772794,-0.00045216459130847285,-0.5249640215540688,0.0004695816429342618,0.8511241690341322,-0.03783415334328688,-0.8635651386170855,0.8797265639116667,0.06118560277929911,-0.8506047633339883,0.9502107753823508,0.05677888894627621,0.6713056625530579,0.9394491202364186,-0.056879611796865036,0.6200142327168099,1.0514916174071205,0.0,0.0,0.0,0.0
0.0032050306581576362,-0.33045632246711915,0.7448587273207128,-0.0003754623777944369,-0.5246494571813505,0.0004623008025932387,0.8513181499212178,-0.04236687747638936,-0.8553516047344013,0.8796750665555539,0.06776062907238119,-0.8406457907312062,0.9230549600179877,0.071797089566713,0.6546342006349276,0.9404590696965723,-0.06181806901096953,0.6172960238382045,1.0347266380504638,0.0,0.0,0.0,0.0
-0.00029494933714600824,-0.3328885115781007,0.7437332105188809,-0.0003237896742283412,-0.5242866819049169,0.0004480011091402857,0.8515416429232252,-0.047540675902935994,-0.8465904004318333,0.8799998458982613,0.0735196652750526,-0.8323071812334639,0.8982164370560233,0.08414180618282678,0.6385484830838508,0.9435450660488068,-0.07148743617314438,0.6152552394225113,1.0174870910915512,0.0,0.0,0.0,0.0
-0.003111998208770314,-0.33469509911746714,0.7424822443320885,-0.00027363223566882424,-0.5239881886559475,0.0003867295616802784,0.8517253980683591,-0.053121936067062434,-0.8390148172855015,0.8817815619648012,0.07787849252727522,-0.8259351727761103,0.8773940512725228,0.0923638390370415,0.6243009536014913,0.9494660346731598,-0.08854670721440476,0.6129337049370732,1.000010661358937,0.0,0.0,0.0,0.0
-0.004825591159207467,-0.33564600477474177,0.7413404276110409,-0.00021538329728008632,-0.5238090458511456,0.0002954267329933186,0.8518356354471167,-0.05753276628805038,-0.8350948315608148,0.8847944202832804,0.08029076688246058,-0.8226598775771682,0.8642180280253012,0.0958907104169444,0.6140204255559469,0.9570003624157867,-0.1105638875130184,0.6104297307782877,0.9840485170371497,0.0,0.0,0.0,0.0
-0.0048391790630320656,-0.33576651829651344,0.741270194108699,-0.00012912558266917125,-0.5238168057960273,0.0003119689940724783,0.8518308752138405,-0.05754150857429205,-0.8351188172548152,0.8848037069787327,0.08047047630553109,-0.822737134165938,0.8640361891658187,0.09591089174005875,0.6139341010798653,0.9569202359780443,-0.11058120475016296,0.6104614372802105,0.9840558440352487,0.0,0.0,0.0,0.0
-0.0048391790630320656,-0.33576651829651344,0.741270194108699,-0.00012912558266917125,-0.5238168057960273,0.0003119689940724783,0.8518308752138405,-0.05754150857429205,-0.8351188172548152,0.8848037069787327,0.08047047630553109,-0.822737134165938,0.8640361891658187,0.09591089174005875,0.6139341010798653,0.9569202359780443,-0.11058120475016296,0.6104614372802105,0.9840558440352487,0.0,0.0,0.0,0.0
-0.0048391790630320656,-0.33576651829651344,0.741270194108699,-0.0001291255826691713,-0.5238168057960276,0.0003119689940724784,0.8518308752138405,-0.05754150857429205,-0.8351188172548152,0.8848037069787327,0.08047047630553109,-0.822737134165938,0.8640361891658187,0.09591089174005875,0.6139341010798653,0.9569202359780443,-0.11058120475016296,0.6104614372802105,0.9840558440352487,0.0,0.0,0.0,0.0
-0.004099517356770652,-0.33618750786125223,0.741116927050035,-0.00023613982412615744,-0.5240569167494844,0.0005750829013285709,0.8516830170460511,-0.05720370410901398,-0.8377497446771092,0.8902033799053793,0.08096748189500241,-0.8260656512461579,0.8713427262991966,0.10080518355908641,0.6149851563264188,0.9562431166760258,-0.1067530566680906,0.6130067625592396,0.987359448946932,0.0,0.0,0.0,0.0
-0.002644930911464355,-0.3367776921311182,0.7409295626054369,-0.00022719784033836926,-0.5244376699891815,0.0006845874049001625,0.8514485363294394,-0.05615018415677077,-0.8427865793590186,0.9013221269305552,0.08236775525683872,-0.8333010739183132,0.886209768131213,0.10585760613654753,0.6184596526276919,0.9553272991773292,-0.10385912488201417,0.6171986844142267,0.9910655606676595,0.0,0.0,0.0,0.0
