zhuoxili-jackie/tripod-support-walk/examples/trajectory_walking_sideways_sc_v0.20.csv
root_pos_x,root_pos_y,root_pos_z,root_rot_x,root_rot_y,root_rot_z,root_rot_w,FL_hip_joint,FL_thigh_joint,FL_calf_joint,FR_hip_joint,FR_thigh_joint,FR_calf_joint,RL_hip_joint,RL_thigh_joint,RL_calf_joint,RR_hip_joint,RR_thigh_joint,RR_calf_joint,FL_foot_joint,FR_foot_joint,RL_foot_joint,RR_foot_joint
0.0,0.0,0.72963,0.0,-0.5231245161092812,0.0,0.852256264656019,0.0,-0.81,0.872,0.0,-0.81,0.872,0.0,0.65,1.0,0.0,0.65,1.0,0.0,0.0,0.0,0.0
0.0006325077057755209,-9.816127577837462e-05,0.7295666208777437,-0.000334116884057053,-0.5230827603901128,0.00028868389169989917,0.8522817789969338,-0.00032218076414973213,-0.8145508602061812,0.8792752105229543,-0.00032218076414973213,-0.8131376185942988,0.8784074544508595,0.004588765021326867,0.6502022647714101,0.9992320363669968,0.004588765021326867,0.6527023410237821,1.0006357344969867,0.0,0.0,0.0,0.0
0.0019062569464341444,-6.665493011719393e-05,0.7294608333658981,-0.00046526643665153946,-0.5232719230612308,0.0004087429152438818,0.8521655420117463,-0.0006466227212534299,-0.8209547309281161,0.8917284319622351,-0.0006455725229256495,-0.8186359311015826,0.8899953184371735,0.006010154115637847,0.6534630341024364,0.999399177846796,0.006041973366021828,0.656963517895136,1.000883815791345,0.0,0.0,0.0,0.0
0.003801832802840989,0.0001407289769437367,0.7293336030467759,-0.00043761376145451674,-0.5236913989881671,0.0003873420040340865,0.8519078454188481,-0.001136377924481276,-0.8291487596415761,0.9091944786289106,-0.0011345939775334905,-0.8260042598807347,0.9060718999772164,0.004396903241267918,0.6597654610830487,1.000383340726357,0.00442280147276689,0.6629589175847976,1.0003813313628136,0.0,0.0,0.0,0.0
0.006301784970197296,0.00048568459374246975,0.729236554747591,-0.00024403638508190922,-0.5243643761319899,0.00021533792827908025,0.8514939196022061,-0.0016775202900065579,-0.8384706421118997,0.9308538256032683,-0.0016755638056393035,-0.8348334950030702,0.9261765500791243,-0.0002866462992123205,0.6695251796877943,1.0015319393899877,-0.00029087182390477063,0.6709299890131162,0.9987192113242874,0.0,0.0,0.0,0.0
0.009376976603042236,0.0008329265834609387,0.7292465561064964,0.0001873401565018844,-0.5253695036209303,-0.00021469368164419114,0.8508741407960323,-0.0016796238899992422,-0.8473277280529302,0.9549067569908287,-0.0016786485303675498,-0.8447054187425015,0.949916001909098,-0.008653687857841309,0.6837711999432463,1.0018165337701606,-0.00862445302267053,0.6810266742052231,0.99555094539895,0.0,0.0,0.0,0.0
0.011998824006873621,0.001055129430644466,0.7289811464377535,-2.847492086191517e-05,-0.5252859338603015,-0.00014512338617479842,0.8509257698629726,-0.00839535539653416,-0.8531262286991669,0.9319226335430151,-0.00231807890793135,-0.8577573279428583,0.9739865955887627,-0.008888833464351223,0.6903124417461488,1.0014926127764814,-0.008759813746476136,0.6879739933991177,0.9939273785878735,0.0,0.0,0.0,0.0
0.014415027268121279,0.0013451696913845557,0.7286284840290476,-0.0001267499928062637,-0.5254182775095969,-0.0001766975909279232,0.8508440435069454,-0.018761724305633082,-0.8682949812956506,0.9135577251159894,-0.0029414875103382625,-0.8686839454324576,0.99450081073049,-0.011022000838068773,0.6969247942660138,1.002879781279029,-0.010794462392048666,0.6940269773622281,0.9933004947833506,0.0,0.0,0.0,0.0
0.016469414204090982,0.0016028478113356925,0.7283042696511776,-0.0001369005594630175,-0.525729143559879,-0.00028052132531791924,0.8506519677152454,-0.02952538304811715,-0.8881309583558846,0.9001347003960968,-0.0033431630595354917,-0.8769166603749272,1.0106969020341798,-0.014095151033383551,0.7034500125505457,1.004646925260954,-0.013746082229301348,0.6992969747138534,0.9931014574992447,0.0,0.0,0.0,0.0
0.01805147975528971,0.0017438783258665945,0.7280441113140713,-0.0001207782130354381,-0.5260702975022401,-0.0003972691432936869,0.850440985416246,-0.0395720124594585,-0.9097780796276529,0.8894154502466545,-0.0034193829160999306,-0.8828266848855831,1.0227273737646752,-0.01661088510239396,0.708933174555614,1.0060180488091417,-0.016135512454018418,0.7035047815974466,0.9932786531119056,0.0,0.0,0.0,0.0
0.019125317812168093,0.001719739252062914,0.727865011076339,-8.791658973072328e-05,-0.5263796445238454,-0.0005193738791920031,0.8502494882988151,-0.04884448316527679,-0.9315662603533699,0.8798567894027503,-0.003052080934202775,-0.8867179045597152,1.030882883977005,-0.017946818236728192,0.7129942666586562,1.0066771801263703,-0.017381782142250318,0.706514528772247,0.9938654490053161,0.0,0.0,0.0,0.0
0.01969530287681802,0.0014997050795585826,0.7277758167212871,-2.4965793128053785e-05,-0.526643055819805,-0.0006626854377537161,0.8500862614943836,-0.05764590627655297,-0.9521624070036708,0.8707975872587636,-0.002122241763615086,-0.8888187203850809,1.0354872288183337,-0.017973089171856124,0.7156159854023757,1.006488098106456,-0.0173829312123778,0.70829652517493,0.994896419049745,0.0,0.0,0.0,0.0
0.019769548814004525,0.0010546629712847957,0.7277838080166869,7.894234945178481e-05,-0.5268513104352187,-0.000840560179493458,0.8499570482791368,-0.0662569811616624,-0.9699344473800305,0.862452567598432,-0.0005237525387652374,-0.8893078546476884,1.0368031784170737,-0.016590368858319382,0.7168279019394304,1.0053029693353268,-0.01604971875001791,0.7088513917173781,0.9963909620181377,0.0,0.0,0.0,0.0
0.019337069855158623,0.00034767400733796126,0.7279016718463012,0.00022042768413775527,-0.5269793654851704,-0.001051266333400532,0.8498773997486812,-0.07472202714665632,-0.9826591057406323,0.8559810959752439,0.001833533552638063,-0.888297533760209,1.034947509104646,-0.01345834675940931,0.7165334296657393,1.0028495829961104,-0.01304159647350242,0.7081801105069655,0.9983360302151586,0.0,0.0,0.0,0.0
0.01837091024520039,-0.0006636807259316983,0.7281520959334492,0.00038493874890838407,-0.5269973134320098,-0.0012799685107795211,0.8498658983264448,-0.08278116009439686,-0.9878068233948674,0.8534588516963578,0.005020430158881632,-0.8857764435692734,1.0298605602409239,-0.008076012651036775,0.7145967121549747,0.9987117388792403,-0.00783006398550649,0.706329126848436,1.000647324039896,0.0,0.0,0.0,0.0
0.016866472898665687,-0.0020041293182956584,0.7285643271735884,0.000564809363838974,-0.5269145718072362,-0.001515292278349059,0.8499167129177368,-0.09013238151039363,-0.9837844491193153,0.8571192122872738,0.009060175547216175,-0.8815430023830615,1.0213795859327714,-0.00029911608371583145,0.7112142673346941,0.9924689707615458,-0.00017547700437975378,0.703507476320681,1.0031142289142514,0.0,0.0,0.0,0.0
0.01487714082383006,-0.0036434120983349673,0.7291228601910296,0.0007252504969461999,-0.5266970270873195,-0.001732093936493669,0.8500510075987743,-0.09729952455782877,-0.9725447629995174,0.8651555482085144,0.013806486247784164,-0.8758466770856185,1.009851899308547,0.00975612911131346,0.7064710143052285,0.9840717684513105,0.009954791721209222,0.6998004830196786,1.0055733253340182,0.0,0.0,0.0,0.0
0.012504701221537863,-0.005520775425872043,0.7298010660825589,0.0008482433144511162,-0.5263706957773374,-0.0019247881099927497,0.8502525897054902,-0.10507663727575087,-0.9571272894287275,0.8762238714223166,0.019078006538193797,-0.8688399340246621,0.9956928504757755,0.02140327510228661,0.7008764568827656,0.9737136129625311,0.022028448716045174,0.6954352195174834,1.0078574109314895,0.0,0.0,0.0,0.0
0.009875364102786919,-0.00754561098772241,0.7305185266111854,0.0009382971867630305,-0.5260179124567151,-0.002115427224995874,0.8504703406590524,-0.11429945149063192,-0.9405070416197218,0.8903509566731103,0.024682128705091684,-0.860657386297312,0.9792893498227329,0.0335081026623316,0.6949915966808697,0.9623179882162265,0.034966715837685756,0.6904883842141034,1.01024679656721,0.0,0.0,0.0,0.0
0.00715902458474607,-0.009532168488367283,0.7310617923674427,0.0010646929305415604,-0.5258445135296984,-0.002382501708843738,0.8505767088894957,-0.1258082763391504,-0.925450493217923,0.9093887552446112,0.030300024027114382,-0.851334279018284,0.9608102389944215,0.0438078554284937,0.6893037285235142,0.9527686839519034,0.046327730188648775,0.6846062785131292,1.014095117286859,0.0,0.0,0.0,0.0
0.004698860447302881,-0.011043361229706138,0.7312108917983421,0.0013830960625271077,-0.5262564102160824,-0.002825196524860618,0.8503201138491081,-0.1404841459110156,-0.9147794172077831,0.9376343213924052,0.034972131382736894,-0.84023716978875,0.9403401482327768,0.0483139409063496,0.6851976172138683,0.9494792748455828,0.05154440183802601,0.6782272848810524,1.0203106537583864,0.0,0.0,0.0,0.0
0.0030646808202842986,-0.011979713477084339,0.7311434524389823,0.0021056006283591932,-0.5274477766019016,-0.0035440000921813384,0.8495774534832307,-0.15631165235474118,-0.9116058554805759,0.9808727429988164,0.03861239388874432,-0.8287172012078031,0.9220875464889583,0.04530327020526203,0.6858585703002792,0.9514591354642389,0.04845768664638826,0.6739519197125916,1.0268570536031312,0.0,0.0,0.0,0.0
0.00260710976926919,-0.012255906148896743,0.7310181153861823,0.003255823553443606,-0.5292825678904693,-0.004319340690529861,0.8484283742522162,-0.17068813664850682,-0.9211288064864395,1.0415335314166647,0.04043731536710112,-0.818642729158401,0.9099589026066186,0.03541811987543254,0.6922094276945715,0.9568203268840781,0.037878405579456556,0.6736216304459958,1.0317874028047118,0.0,0.0,0.0,0.0
0.0026123188897157644,-0.012297105917614468,0.7310063678654153,0.0032710560594588255,-0.5292772017313203,-0.004313282346397852,0.8484316940774428,-0.17070061521790222,-0.9211517949690085,1.0415387825922497,0.040479805608764,-0.8186509379021839,0.9098845217597724,0.035350287834580225,0.692293884258799,0.9566702373071314,0.03793727053314847,0.6735482440643032,1.0319138637689078,0.0,0.0,0.0,0.0
0.0026123188897157644,-0.012297105917614468,0.7310063678654153,0.0032710560594588255,-0.5292772017313203,-0.004313282346397852,0.8484316940774428,-0.17070061521790222,-0.9211517949690085,1.0415387825922497,0.040479805608764,-0.8186509379021839,0.9098845217597724,0.035350287834580225,0.692293884258799,0.9566702373071314,0.03793727053314847,0.6735482440643032,1.0319138637689078,0.0,0.0,0.0,0.0
0.003066458813591969,-0.012975033290121205,0.7330232010449126,0.002334140419460058,-0.5278559698651565,-0.003242359316904621,0.8493245045165465,-0.1717876913394351,-0.9264863862796231,1.0508355370037585,0.039928497135498724,-0.8218276547763149,0.9197101754754703,0.01725780939324563,0.666890771949194,0.9985125762177113,0.05638766700477585,0.6851437516554846,1.0141056329443061,0.0,0.0,0.0,0.0
0.003783274205345639,-0.014126793551058933,0.7356850403959913,0.001960139642173672,-0.5271892543269825,-0.0027718439646486747,0.849741116373557,-0.16994092094232086,-0.9248198063972167,1.056096293337936,0.04178435588728852,-0.8221421266199169,0.9294872908249485,0.0017556092627273034,0.6487159674054336,1.0342365968756353,0.07017616410037536,0.7006076880219981,0.9918752761615353,0.0,0.0,0.0,0.0
0.004509399426085926,-0.015675894449368767,0.7383612702500327,0.0019402217929495088,-0.5268759775396622,-0.0027005699403268866,0.8499356721264362,-0.16597780878078844,-0.9197234205192448,1.0581643986413145,0.04548626903871002,-0.821947751918164,0.9390949081559637,-0.008470055141103753,0.634966850083967,1.0655183422062346,0.08185895422372368,0.7161407767423086,0.970318506002529,0.0,0.0,0.0,0.0
0.005204091919835222,-0.017514604438777268,0.7408513557969609,0.0021058677474523517,-0.5266784868324169,-0.0028610363048958624,0.8500571459026787,-0.16070331775306565,-0.9134755412784461,1.0585148366215322,0.05042502118619922,-0.8224146203463204,0.9490381764936606,-0.015617881077345389,0.6243029566577296,1.0942136841712935,0.09292156862576337,0.7305802952708166,0.9508570209644005,0.0,0.0,0.0,0.0
0.005825935039560725,-0.019525829309215467,0.7431079646835336,0.0023636921029191503,-0.5265066202746135,-0.0031284335031804594,0.850161987312102,-0.15476102136622186,-0.9069095096267527,1.0576475817311404,0.05602798731271767,-0.8235040158817662,0.9589082625593413,-0.021026151755127044,0.6157669527925952,1.12115552729971,0.10394557152897656,0.7436115238192913,0.9337361879004795,0.0,0.0,0.0,0.0
0.006269245385499413,-0.021600834315105646,0.7451107127850135,0.0026514066141891373,-0.5263363063379143,-0.003423724776134972,0.8502654531275423,-0.14859318923644962,-0.9000232412516928,1.0550892228224966,0.06183935483013293,-0.8245355791096127,0.9674234146482616,-0.025648875666210946,0.6085815839015063,1.1462893977354087,0.11502129030361063,0.7548734204745043,0.9191065748652121,0.0,0.0,0.0,0.0
0.006451446846443221,-0.023660250295363297,0.7468390057116993,0.002937353693160805,-0.5261668871141458,-0.0036973383822168477,0.8503682193889764,-0.1425001796832429,-0.8927155682671771,1.0503811760557702,0.06753435266032244,-0.8249865383264487,0.9736113204454292,-0.030123578631627495,0.6024885851566755,1.1685527802655524,0.12605016510544687,0.7640432501609876,0.9071974895508067,0.0,0.0,0.0,0.0
0.006280663106762502,-0.025701915830033676,0.7482448651301858,0.0031912538454740794,-0.5259683561002116,-0.003920102389037605,0.8504891163779782,-0.13653624950834575,-0.8849860595373571,1.0430085023452853,0.07304250220510186,-0.8247413368354326,0.9768858239960767,-0.03528173182494097,0.5977351835506247,1.18552284868567,0.13731697004949056,0.7705359787185831,0.898680752126253,0.0,0.0,0.0,0.0
0.005652897707989224,-0.027786327004050395,0.7492650228389728,0.0033706037016140787,-0.5256753902549082,-0.004058561211757874,0.8506688845796153,-0.13060511903800157,-0.8769480583418698,1.0324080142924181,0.07845624180592012,-0.8239682350801155,0.9769087132392438,-0.04223719318344755,0.5953742036305801,1.1927432227070136,0.14962042876666445,0.7736018760448096,0.8945046764945563,0.0,0.0,0.0,0.0
0.004511582979889331,-0.029993378203721804,0.7498936268544157,0.003437690211643574,-0.5252226273589761,-0.004086212289561519,0.8509481046839857,-0.12455269573945273,-0.8686693019226058,1.018252128658075,0.08393457190444199,-0.822885684111166,0.9736996999488058,-0.05217007454912911,0.5980843510629593,1.1835607906853867,0.1637568290090838,0.7729249653338995,0.894955061811542,0.0,0.0,0.0,0.0
0.002840583813682084,-0.03231592945386391,0.7501871813784182,0.0034005471989542687,-0.5246418739553268,-0.004000692121748433,0.851306839414519,-0.11839621991508716,-0.8596273327033916,1.0000198765748718,0.08942540213116816,-0.821008561520199,0.9667722863174043,-0.06443520241051873,0.6027445711014349,1.164859376485101,0.1794131005931959,0.7687779842633521,0.8994213585868474,0.0,0.0,0.0,0.0
0.0006866628296305446,-0.034730372322832256,0.7502515533096528,0.0032546329375119933,-0.5239540300489959,-0.0037901010807614836,0.8517318926127256,-0.11223723076526534,-0.8495017748455629,0.9777235019624786,0.09481920807537124,-0.8179575397421991,0.9560768983829752,-0.07880178251213689,0.607839893467539,1.141497717851384,0.19629927350486281,0.7619231690510064,0.9065721117386222,0.0,0.0,0.0,0.0
-0.00186378526817777,-0.03719283246131585,0.7501631391977115,0.0029679096426625095,-0.5231540760838858,-0.003418274740957631,0.8522260965183853,-0.10629906861426339,-0.8384879179930719,0.9519882853895062,0.09992524976484449,-0.8136908269717738,0.9420038180432736,-0.09611318970627006,0.6128309711931557,1.1167736039734228,0.21434935609701283,0.7531079374811972,0.9152319818403521,0.0,0.0,0.0,0.0
-0.004630454527069939,-0.03960372249903168,0.7499441832746757,0.0024906481802230837,-0.5222234785683206,-0.00283267821463333,0.8528003348016331,-0.10100556097462635,-0.827671170832118,0.9247258211167237,0.10441569519351403,-0.8087888990310523,0.9258732867067736,-0.11906374072419743,0.6183032685844717,1.093491294612083,0.2334538182453039,0.7430828279510931,0.9245528744188769,0.0,0.0,0.0,0.0
-0.007080355434223703,-0.04178943427344255,0.7495088319473993,0.0017481229217403567,-0.5209797458904558,-0.0019401569181640474,0.8535650439359027,-0.09717488770972543,-0.8216589196437158,0.9029817235807596,0.10783375796415555,-0.8068991522667665,0.9135557242415692,-0.15329476736249725,0.6270798831108583,1.0740508422612816,0.2536764599218239,0.7327484168045316,0.9340210029832984,0.0,0.0,0.0,0.0
-0.00908670229993037,-0.0435611527914565,0.748871987730641,0.0007463542855384,-0.5195126254158203,-0.0007236553502454075,0.8544621415321899,-0.09531467295261707,-0.8211606402815683,0.8885710309299562,0.1096805805108493,-0.8079491947028573,0.9056006369181425,-0.20102988946481976,0.6379385240781852,1.061504561209791,0.2740551855783498,0.7227470533346735,0.9431663563247844,0.0,0.0,0.0,0.0
-0.010466388711405459,-0.04468182042518011,0.7477547944787393,-2.517092818537863e-05,-0.5182431563254754,0.00033619435757394707,0.855233253131324,-0.09500684844344814,-0.8250155183502172,0.8815429606453827,0.11029447337376805,-0.8120596637082522,0.9023450729258573,-0.24983623081851775,0.6464370993225363,1.0592213804388202,0.2883133806595769,0.711983370401084,0.9549496010971558,0.0,0.0,0.0,0.0
-0.010443638625063029,-0.04470065051977233,0.7477194284895435,-7.213188557522289e-05,-0.5182556754287557,0.00035779482336746756,0.8552256554066533,-0.0950249319437874,-0.8250192801174604,0.8814452043114599,0.11030425725509296,-0.8120715030645823,0.9023749065700062,-0.24983096567435864,0.646418905897081,1.0592106808807773,0.28830704609349656,0.711936506916715,0.9549031149238447,0.0,0.0,0.0,0.0
-0.010443638625063029,-0.04470065051977233,0.7477194284895435,-7.213188557522289e-05,-0.5182556754287557,0.00035779482336746756,0.8552256554066533,-0.0950249319437874,-0.8250192801174604,0.8814452043114599,0.11030425725509296,-0.8120715030645823,0.9023749065700062,-0.24983096567435864,0.646418905897081,1.0592106808807773,0.28830704609349656,0.711936506916715,0.9549031149238447,0.0,0.0,0.0,0.0
-0.010380270110029434,-0.04501453027003738,0.7477467554184972,0.00012280559106922482,-0.5190485249166279,0.0001146918796014941,0.8547447575425263,-0.09353369688500347,-0.8191699106547291,0.8758780550411106,0.11142480341459685,-0.8083642003034368,0.8993751221225925,-0.25274697905056304,0.6501120686563764,1.0600791675470458,0.28990195446993233,0.7143526924998688,0.9570134688889756,0.0,0.0,0.0,0.0
-0.009916141356458111,-0.04547592065671291,0.7476307058270656,2.2757858323870464e-05,-0.5192911580552237,0.00023538466039070417,0.854597353870117,-0.09269873553614366,-0.8199456205955304,0.8782499257640835,0.1123962285117655,-0.8102173204236155,0.9038794367090228,-0.24947707639651914,0.6513194591245346,1.0601754862885184,0.29633114946903544,0.7167692810425821,0.9595677233710872,0.0,0.0,0.0,0.0
-0.008935809813976053,-0.04590597748391765,0.7474001211834084,-0.0003127297480502924,-0.5191270720390517,0.0006600448840966976,0.8546967588665684,-0.0928240447898677,-0.8271626651123769,0.889257517790715,0.11288742981476779,-0.8170698531724774,0.9157559054275582,-0.24252294939156452,0.6513183069167929,1.0599730077749832,0.3062117754670114,0.7199408210829,0.9620217062924569,0.0,0.0,0.0,0.0
-0.00728760300058006,-0.046055758848004696,0.74712187266783,-0.0005443389328820593,-0.5191027723340224,0.0008803540673794048,0.854711202937562,-0.09328078376785424,-0.837374925600885,0.9068240618569777,0.11329623823685,-0.8264798244590392,0.9329463570713309,-0.24116637061880378,0.6546034639324925,1.060908886037939,0.3140749058659926,0.7250241786798485,0.9640442576172777,0.0,0.0,0.0,0.0
-0.004714584864796581,-0.04560602519637874,0.7471338106213219,0.0004260729727291758,-0.5207397262847456,-0.000840600941259731,0.8537149696009597,-0.09050320396483207,-0.8386794940166178,0.922410882469622,0.11637567714364229,-0.8316670778720497,0.9496233629494334,-0.2717916989342143,0.6747368540469956,1.0650288898360247,0.3033862497487565,0.7347403561429746,0.964225034494236,0.0,0.0,0.0,0.0
-0.0014680604062968878,-0.04452487507906486,0.7467548849678295,0.0011333889564333144,-0.5220130839869628,-0.0020347763570413356,0.8529342971536965,-0.0909204092305372,-0.84873561571277,0.949376499571854,0.0890723434213258,-0.8292045463901723,0.9203665153079508,-0.30697833434512306,0.6948505240231544,1.0720456274583656,0.2928439553539499,0.7446142275366959,0.964953938115899,0.0,0.0,0.0,0.0
0.001619748772840146,-0.043677490146122044,0.7459065113603764,0.002481973069817379,-0.524304650597258,-0.004372848081623551,0.8515159137511307,-0.08785887518296179,-0.8503919981949879,0.9667536660907852,0.06109514559587699,-0.8347914404290496,0.8991362608099626,-0.3642117442748618,0.7224564153484294,1.0848703633263836,0.27338943127600424,0.7519645797234916,0.9720929202441947,0.0,0.0,0.0,0.0
0.003760863807110805,-0.0439239622060226,0.7454827788064048,0.0041446783020323424,-0.527120255749804,-0.0072042707669042316,0.8497500550766389,-0.08055890612989547,-0.8397079986196492,0.9675648550014898,0.042422930639036974,-0.8420631969008123,0.88206932086633,-0.43210658478491804,0.7561804485348355,1.092415432417201,0.2533151823213321,0.7585837801799943,0.978636404742329,0.0,0.0,0.0,0.0
0.0035227524626640643,-0.047236597524623204,0.7457702497753548,0.0020669118055616693,-0.5219017539124761,-0.0032743004124186474,0.8529968148214145,-0.08220589047216026,-0.8696593601933345,0.9893350795643372,0.014736149046577853,-0.8663052871682702,0.8580300397547955,-0.30549003503360284,0.7088849822995961,1.0704896708115406,0.31170377729024645,0.7566455092366542,0.9758622040995074,0.0,0.0,0.0,0.0
0.0031035633852527994,-0.0509688801361463,0.7452412152197689,-0.0017001933219227855,-0.5146138593951959,0.0029045625686839045,0.8574154468968553,-0.08852305217467137,-0.9171678205446311,1.022884490158487,-0.020148161823622324,-0.8947008855224736,0.8333365189057905,-0.17952987364405643,0.6533183568425707,1.046397912643624,0.3888514097279865,0.7476960015604656,0.9768196684439883,0.0,0.0,0.0,0.0
0.004909028530176966,-0.05194272214421031,0.7468391405220357,0.0008088421165034876,-0.5184927524286257,-0.0013443391807174455,0.8550805834572468,-0.07520764402224446,-0.8882687654787464,1.008481750472453,-0.024706556816081807,-0.8988683519184619,0.8250980526505342,-0.25225791576765544,0.6997167008940195,1.0357630599379322,0.3593990066271251,0.7624499594577157,0.9671533938743495,0.0,0.0,0.0,0.0
0.006898672656205654,-0.052950338312828533,0.7470529930182128,0.002739264208763021,-0.5217433442515481,-0.005054460734800953,0.8530831328701122,-0.06369235988822051,-0.8690872046206807,1.000997623712941,-0.035091954088260144,-0.9088389261744839,0.8209386988934908,-0.3209386138986795,0.7373214112854712,1.0359574206004918,0.3378817297309691,0.771363460503516,0.9697600718949742,0.0,0.0,0.0,0.0
0.008559081444847686,-0.05451680178823844,0.7464612326079618,0.004170733058082593,-0.5241133210820574,-0.007973510945395213,0.8516009950518482,-0.05283884164369043,-0.8563719681325377,0.9956073169500095,-0.04443611568363065,-0.9156099225242559,0.8130847563174438,-0.3777728251779915,0.7655540755327193,1.040327453980577,0.3274591747557192,0.7753161437688942,0.9801981059564291,0.0,0.0,0.0,0.0
0.008684234160200715,-0.05838472880119566,0.7458072955626421,0.0023538372746252784,-0.5173256207593914,-0.0032254496232780342,0.8557793278823242,-0.05548318665400002,-0.8992812770775235,1.02770248830092,-0.07934538793609179,-0.9304236892711593,0.798833127146924,-0.25017077183752556,0.7114411018357979,1.019904894071347,0.38729435027146514,0.7645037893250962,0.9831836576601952,0.0,0.0,0.0,0.0
0.010008148385459832,-0.0604993406064541,0.7464657171650417,0.00412423414395983,-0.5199867929922607,-0.006792307118862798,0.8541373369490134,-0.04120230050825831,-0.8767694625580478,1.0133664049393383,-0.08175092462322014,-0.9141568724862617,0.8001692244668849,-0.30772093671462164,0.7461233833830072,1.0117704013808932,0.3727777598617455,0.7726645913515711,0.9831175138343853,0.0,0.0,0.0,0.0
0.01129539231398271,-0.06278669563104126,0.7462254372288946,0.006159901880643797,-0.5227195857099788,-0.010628061920013285,0.8524161745437691,-0.026211152105779612,-0.8549623078377604,0.9978058670638084,-0.08164139015500207,-0.8946911608112728,0.8057822422181999,-0.36904909758133125,0.7779194967463671,1.0125016413864243,0.358299605288757,0.7767463491318425,0.9925447905456541,0.0,0.0,0.0,0.0
0.011149615480852457,-0.06762317428387336,0.7457223254947558,0.004643264973671527,-0.5161272964265426,-0.0063489095356668475,0.8564757704229116,-0.024739423160229083,-0.891417151572285,1.0214253269374802,-0.10847176116004509,-0.88452604376938,0.8007569481386502,-0.24208064196621065,0.7264623307984615,0.9883820504118128,0.41866080484327595,0.7650358253259967,0.9961100840923232,0.0,0.0,0.0,0.0
0.011867799625952233,-0.07160080571424424,0.7454111922158749,0.004369751898503647,-0.5145749127995949,-0.006156327807229214,0.8574121902641487,-0.01492909379066815,-0.8964891368789231,1.0232630867044126,-0.11936317290392866,-0.8599251317111007,0.7994815263723655,-0.22655716602667825,0.7252013859554983,0.9724825546695985,0.44491127060186986,0.7628575970530481,1.0014329650265148,0.0,0.0,0.0,0.0
0.013379500815829231,-0.0746107714933676,0.7447487814732201,0.005718584133504088,-0.5151062660091804,-0.008599281026094472,0.8570641078002402,-0.001189919771550852,-0.8902739361939928,1.0206968733373423,-0.12849967156084788,-0.8328967418789884,0.7982983619160341,-0.24718991886236022,0.7390915881985796,0.9695225389098555,0.44627986108528966,0.7629438838834547,1.0116116716807817,0.0,0.0,0.0,0.0
0.015177950153850024,-0.07703975474642898,0.743296875883091,0.007021815641937297,-0.5152177061828961,-0.010935132983352053,0.856960811360334,0.010803059167088807,-0.8912813786155022,1.0254785466611946,-0.1445217585993107,-0.8051503839268332,0.7894811451678847,-0.26698290626752913,0.7476050886013056,0.9752339526514504,0.44577478740749443,0.7595740994342406,1.0271683160920813,0.0,0.0,0.0,0.0
0.016824736456727336,-0.07875796413463917,0.7415647414021078,0.008153413223374368,-0.5149279876294282,-0.012951246427147975,0.85709681753271,0.020318697037126757,-0.8967097806043847,1.0338547061421957,-0.16387350492971042,-0.7755493314351872,0.7683380626386049,-0.2856390912777334,0.7518290040219885,0.9850037001115984,0.4414369985891611,0.753350584185898,1.0432055833694114,0.0,0.0,0.0,0.0
0.017785707321048776,-0.07956938731118325,0.7400521722794857,0.009020697333403351,-0.5144661277077025,-0.014449189849094308,0.8573415021878772,0.026293118303557905,-0.902407636888187,1.0405059404173747,-0.1804725132948282,-0.7454696056680986,0.7301356445255955,-0.30242811874810477,0.7525882047958653,0.9954180403180047,0.43172010294307533,0.7450999579714851,1.0558468678191306,0.0,0.0,0.0,0.0
0.017806604001382703,-0.07967271001557483,0.740014264258654,0.009063830010383384,-0.5143809507581438,-0.014413607199525167,0.8573927527161567,0.026500722089980094,-0.9026018980203377,1.0404325018929101,-0.18049857600453303,-0.7454194025055594,0.7301564570308262,-0.3027488541031197,0.7525159560556803,0.9950505567635736,0.432021591492062,0.7447967973419615,1.0559723724244172,0.0,0.0,0.0,0.0
0.017806604001382703,-0.07967271001557483,0.740014264258654,0.009063830010383384,-0.5143809507581438,-0.014413607199525167,0.8573927527161567,0.026500722089980094,-0.9026018980203377,1.0404325018929101,-0.18049857600453303,-0.7454194025055594,0.7301564570308262,-0.3027488541031197,0.7525159560556803,0.9950505567635736,0.432021591492062,0.7447967973419615,1.0559723724244172,0.0,0.0,0.0,0.0
0.019058090151586302,-0.0817609763724109,0.7414855579944408,0.004755619150531661,-0.5122492966477228,-0.006673022503338095,0.8587977136328894,0.013470733867575826,-0.92938809556827,1.0662413593924327,-0.19447282272748379,-0.7422344743580049,0.7444914524690758,-0.17703994404610443,0.725115803463822,0.9650815956610734,0.36803708833366866,0.7027465674450719,1.0566131865915223,0.0,0.0,0.0,0.0
0.021796882795830277,-0.08196445468123255,0.742736996136837,0.004610972751998161,-0.5187782157801568,-0.007635742574387489,0.8548623264582286,0.01624181098405224,-0.8994539204249898,1.0548540467752,-0.18939264696695032,-0.7172494063684547,0.7346013996671622,-0.20710915729752472,0.7657958002639984,0.962260815827955,0.2501319693340084,0.7008443818723326,1.078679221942035,0.0,0.0,0.0,0.0
0.023786305297138488,-0.08493984441549347,0.7421374544192991,0.00031192325437863656,-0.5149129720361983,0.00014547182323090563,0.8572423885755307,0.005600920252680452,-0.9429603700739,1.094112953004414,-0.20218254133910477,-0.7372637470305335,0.7751894374582684,-0.08126109206989102,0.7260933027023424,0.9408941490171566,0.22132313972306328,0.6665146871227108,1.0917596834565544,0.0,0.0,0.0,0.0
0.02764806638871356,-0.08518479368574493,0.742452555588967,0.002065086972721289,-0.5210037677345236,-0.00407045017622787,0.8535421728641114,0.016614056289651923,-0.9153154193951709,1.0893299781946801,-0.19075972353075302,-0.7350777651522714,0.790884603231366,-0.14428761578592786,0.7752840111955468,0.9459122979526255,0.1336387941222084,0.6716470928993942,1.1229379763288143,0.0,0.0,0.0,0.0
0.03176522977973756,-0.08536109946510174,0.7416739576058282,0.0038415884452927,-0.5271775379813858,-0.008826088219907715,0.8497006448231258,0.028554781799349314,-0.890709719879353,1.0867285363664427,-0.17864766201599108,-0.73762590862781,0.8104026045525463,-0.23360959983215937,0.8305848180924383,0.9605092344780951,0.04594431609149989,0.6815647100669605,1.1527906380264785,0.0,0.0,0.0,0.0
0.03490628165715684,-0.08659082501315113,0.7409114013724584,0.0046421242838592044,-0.5322257532215217,-0.01211733994096124,0.8465030232448507,0.039634768796618945,-0.8691679360830842,1.0801183414589393,-0.16726170622077566,-0.7394721638160734,0.8273480112756393,-0.3263583104051328,0.8857067968095895,0.9675065626837118,-0.01587539215318793,0.689539610295564,1.1773853730787112,0.0,0.0,0.0,0.0
0.03480828954694616,-0.09095813070649125,0.7410271587732736,0.0039224545258883066,-0.5283154886704083,-0.007894420584568948,0.8490023774437112,0.04039513967410882,-0.8873046300404164,1.0875174165565458,-0.16861300812833904,-0.7653012268565241,0.8647411282702668,-0.19763174716760462,0.8414279677011344,0.9421677184823481,-0.020942780701799377,0.6596406168409985,1.1970211575578957,0.0,0.0,0.0,0.0
0.03354638777928541,-0.09633265870792955,0.7415776044700699,0.001832228711586728,-0.5237099876698379,-0.0023360002656163457,0.8518914454644827,0.04109359827859117,-0.9048277024500716,1.0875269275964206,-0.16967499719910026,-0.7848060981004119,0.8924961771504674,-0.07032237170388306,0.7957947698409832,0.9069779359717464,0.00883052770180668,0.6386967155145007,1.2042950182770158,0.0,0.0,0.0,0.0
0.03244257225952754,-0.10092759642460511,0.7416620540267936,0.0006511297847415125,-0.5238276116690274,-0.0008201430748437712,0.8518236534920024,0.04962697560305651,-0.89261895446777,1.06415854024767,-0.16098026379877975,-0.7878489014509682,0.9002055255865881,-0.041191904636140905,0.7928396039142409,0.8862183604982243,0.0005993546295367004,0.6287520274696338,1.212630344369946,0.0,0.0,0.0,0.0
0.03126404920978898,-0.10549977218863225,0.7408867609776344,0.00023897769579569103,-0.5241032180732306,-0.0004341286310376038,0.8516546079410809,0.06066642169505505,-0.8785433223000126,1.0374998975389242,-0.14995189428616387,-0.7961474206403573,0.9106273555034494,-0.014142231111246194,0.7862596274864142,0.876954900154045,-0.022318303778024032,0.6235024121695939,1.2047793972184482,0.0,0.0,0.0,0.0
0.029668567137835902,-0.1100334459580179,0.7394848143212632,-5.813448860485475e-05,-0.5239178569482794,1.988546167257525e-05,0.8517687922175077,0.07128254788628655,-0.8665822919433901,1.0093087398767362,-0.13936309731691154,-0.8066816106152414,0.9199050964937828,0.018928503169561853,0.7714490661470885,0.8746517107225611,-0.039535240184433926,0.6218001294324612,1.1849087487221437,0.0,0.0,0.0,0.0
0.02762945182655443,-0.11416578489845093,0.7376303182143064,-0.0002500363791060823,-0.5236515740518796,0.00037151244920984895,0.8519324083830231,0.08094689108211223,-0.8544968502124306,0.9783928463879048,-0.12949665500462812,-0.8158686163775428,0.9239182514874242,0.048741331977669354,0.7527106764999814,0.8790551148804174,-0.05459374077689983,0.6214258325918808,1.158297093615049,0.0,0.0,0.0,0.0
0.025155593103080947,-0.11774016754490481,0.7353518564874059,-0.00042183391188414316,-0.5233578061048341,0.0006506624733027456,0.8521126718243495,0.08922597164448422,-0.8424309331803884,0.9451726487853767,-0.12078789604969128,-0.8226700152538927,0.9215379277674329,0.07370431472990446,0.7307709135205508,0.8901816346443412,-0.07047392736763339,0.6214662878115472,1.1272787412392318,0.0,0.0,0.0,0.0
0.022379701928200768,-0.12078250175478393,0.7328878968276892,-0.00070028044043282,-0.522989295345707,0.00100682092065948,0.8523383675939616,0.09589351162699214,-0.8308432619099015,0.9109376033742841,-0.1135429430034706,-0.8267529035308585,0.9136208720220232,0.09561751321551296,0.7068287629484636,0.9047616427994747,-0.09059978291182788,0.6208416378141763,1.0933898745789359,0.0,0.0,0.0,0.0
0.019463170250589933,-0.12322043981368111,0.7303853068731886,-0.001055990927548777,-0.522673807522127,0.0012756206577216878,0.8525311423082567,0.10121328970371186,-0.8191799608136277,0.8763889216251903,-0.10753058007547765,-0.8278376455894829,0.9007177241934947,0.11276796512610002,0.683085285109698,0.9216923811561034,-0.12092755819371855,0.6185819726925409,1.0573605031717055,0.0,0.0,0.0,0.0
0.017169615973440168,-0.12499330286567505,0.7276844829519772,-0.0013752758790535496,-0.5223918672535339,0.0014544416844075232,0.8527031900040067,0.1051854384765353,-0.8119400634789323,0.8494712924769094,-0.10319405485361031,-0.8302512293068678,0.8902747416473666,0.12499549888178813,0.6609731268777723,0.9418330298484845,-0.16447492119454776,0.6157953061053116,1.0206385952903771,0.0,0.0,0.0,0.0
0.015810002318539036,-0.12585044632058615,0.7252495472467972,-0.001623531130636207,-0.5223496682915653,0.001509967054607241,0.8527285078979437,0.10727020289892289,-0.8093862220055013,0.8337307377473112,-0.10102455393587677,-0.8325586796608291,0.8828983614777492,0.13120074624219355,0.6442355157648612,0.9620100751223944,-0.2153153482424024,0.6124700124266221,0.9872877286186067,0.0,0.0,0.0,0.0
0.01585682675950968,-0.12584521473801444,0.7251796407183937,-0.001676761243080365,-0.5223493673192612,0.0015242422452875436,0.8527285638575025,0.10724705292012454,-0.809449728309639,0.8335635074816239,-0.10106840050965296,-0.8326188325542175,0.8829006248896487,0.13119769554785046,0.644233933216202,0.9619857335413746,-0.21533107063309592,0.6124637365962131,0.9872757875010686,0.0,0.0,0.0,0.0
0.01585682675950968,-0.12584521473801444,0.7251796407183937,-0.001676761243080365,-0.5223493673192612,0.0015242422452875436,0.8527285638575025,0.10724705292012454,-0.809449728309639,0.8335635074816239,-0.10106840050965296,-0.8326188325542175,0.8829006248896487,0.13119769554785046,0.644233933216202,0.9619857335413746,-0.21533107063309592,0.6124637365962131,0.9872757875010686,0.0,0.0,0.0,0.0
0.01585682675950968,-0.12584521473801444,0.7251796407183937,-0.001676761243080365,-0.5223493673192612,0.0015242422452875436,0.8527285638575025,0.10724705292012454,-0.809449728309639,0.8335635074816239,-0.10106840050965296,-0.8326188325542175,0.8829006248896487,0.13119769554785046,0.644233933216202,0.9619857335413746,-0.21533107063309592,0.6124637365962131,0.9872757875010686,0.0,0.0,0.0,0.0
0.01641994533810129,-0.12605041276881254,0.7250353454503826,-0.00193152656431992,-0.5223216192803274,0.0017655090201967082,0.8527445562508198,0.10741145319672632,-0.8130903714449176,0.839046486832891,-0.10120514849340526,-0.835650752526698,0.8887136956491136,0.13561708384079985,0.6441643901004626,0.9611090698208321,-0.21205214831656585,0.6142263068732006,0.9891175152593763,0.0,0.0,0.0,0.0
0.017541360055463234,-0.12624285491803702,0.7248737790745527,-0.001989764667094523,-0.522508249353501,0.0018503385562952247,0.8526299000394816,0.10793964462329406,-0.8179879369410588,0.8486767366325988,-0.101143950119588,-0.8409765193797125,0.8993544116175451,0.13870329890236513,0.6466098873722849,0.9606470610230289,-0.21182963658574278,0.6171659468646206,0.9904334885947915,0.0,0.0,0.0,0.0
0.019218233178911245,-0.12640364405963117,0.7247231716220146,-0.0018715013184545585,-0.5229195984197945,0.001791896899042711,0.8523780734960275,0.10875631207688005,-0.8239553337288232,0.8622276286105027,-0.10094859109926864,-0.8482047282391388,0.9143565071970207,0.14055191071748968,0.6517271984615927,0.9602790928833078,-0.21467057549171917,0.6215020423486002,0.9908929773390358,0.0,0.0,0.0,0.0
0.02141524973116624,-0.1266725533573055,0.7245889893125518,-0.001579225156256594,-0.5234878302639462,0.0015778840975303892,0.8520302271018478,0.11026104091876328,-0.8305884966493631,0.8787746483508151,-0.10023302674031365,-0.8578339337342982,0.9341595465378381,0.1418409525185811,0.6593698599209248,0.9591824742275906,-0.21975138333599603,0.6270306817840146,0.9908506954808195,0.0,0.0,0.0,0.0
0.023725858714482136,-0.1274667505123011,0.7244913789369919,-0.0010857772457591377,-0.5241839655308753,0.0009659045206327488,0.8516038153957248,0.11407907060951952,-0.8339953331702109,0.8918658319825828,-0.09716951390455501,-0.8695542901017816,0.9570341804912657,0.1432333875061327,0.6690307100244077,0.9561274362753226,-0.22560829033727406,0.6321183098686334,0.9919395716025348,0.0,0.0,0.0,0.0
0.02536562055889272,-0.12800240520677422,0.724425532003486,-0.001146488620166759,-0.5243960937638958,0.0009864977453723268,0.8514731054068646,0.09423035779009876,-0.8514370712951835,0.8899621903308714,-0.09611169481123139,-0.8774971716415326,0.9727911797216228,0.14899924077720095,0.6735682740126376,0.9525806716622617,-0.22452438505921524,0.6370904733582351,0.9926763764601997,0.0,0.0,0.0,0.0
0.02667561140427022,-0.1285678726386224,0.7243547492162811,-0.0011362395911788785,-0.5246921182830728,0.0008281664886850998,0.851290904515889,0.06871333415132491,-0.8745923234308686,0.8843935929244666,-0.09442456222287375,-0.8839092552453047,0.9854740137591912,0.15338632500015847,0.6778508269646706,0.9497653898301701,-0.22435854741748484,0.6407653887137587,0.9938975172905798,0.0,0.0,0.0,0.0
0.027646903138065154,-0.12924297712201482,0.7242906933560933,-0.0010419180463955252,-0.5250585786397721,0.0005687332659609258,0.8510652618607101,0.044360525570188554,-0.8996687593158953,0.8781231711510198,-0.09212417800382773,-0.8889564068509342,0.9954520267296532,0.15721661421201033,0.6816897204928317,0.9471754627603711,-0.2242746273011966,0.6433267248576107,0.9959427352258416,0.0,0.0,0.0,0.0
0.02822726142819637,-0.13006682716433002,0.7242548327164589,-0.0009023234162792233,-0.5254231690346539,0.0002795005086487168,0.8508405262641758,0.022931444934924848,-0.9247862526282402,0.8714894011804011,-0.08928616462184011,-0.8926734379018759,1.002683496906908,0.16122770481255655,0.6846281770263563,0.9443120010626711,-0.2231348940257409,0.6448611431840213,0.9988722019545659,0.0,0.0,0.0,0.0
0.028387689456113672,-0.1310590771561164,0.7242648258900735,-0.0007309537237449399,-0.5257578340522769,-1.828124942221197e-05,0.8506339784567203,0.003998956436559731,-0.9489623931881649,0.8643653430284114,-0.08591139339256512,-0.8950338666994215,1.007103655106286,0.16565392348494853,0.6865303638746906,0.9409054475580719,-0.22045925085506946,0.6454155929183677,1.002656191189181,0.0,0.0,0.0,0.0
0.02811931656095716,-0.13223931312581472,0.7243305231465412,-0.0005244252796601562,-0.5260585485161728,-0.00033078728664878655,0.850448128395233,-0.013457509602759179,-0.9712975456798845,0.8568281657602281,-0.08193777975281415,-0.8960547802358054,1.0087411379420643,0.17050129762643437,0.6874450732987285,0.9367956528705716,-0.21612643034385415,0.6449999890990885,1.0072818744887222,0.0,0.0,0.0,0.0
0.02741011140600159,-0.133637370239199,0.7244609248775665,-0.00028103106292155696,-0.5263154936613854,-0.0006663140248879924,0.8502890556623283,-0.030306865810114263,-0.990424219440232,0.8495036846562416,-0.07727325388861744,-0.8957816511247776,1.0076345797159794,0.17581596771686503,0.6874136779319294,0.9317610962633935,-0.20995540803576412,0.6436014381786674,1.0127594697249274,0.0,0.0,0.0,0.0
0.02622773387004752,-0.1352956204845137,0.7246745013179693,-1.2856812886828161e-05,-0.5264969529846805,-0.001020934887465607,0.8501764028861922,-0.046974238555105116,-1.0043033688468188,0.8438200186655961,-0.07182164470282601,-0.894226995834541,1.0037240315473246,0.1818058784775629,0.6863885819045764,0.9253799202522008,-0.20146512274194264,0.6412159770395427,1.0190631051981809,0.0,0.0,0.0,0.0
0.02452799580195158,-0.13726122327087492,0.7250058530937438,0.000258263100026451,-0.5265645717947547,-0.0013806883199255922,0.8501339769298372,-0.0634051777667397,-1.0105787651705227,0.8420966398414906,-0.06549881770437505,-0.8912926609040154,0.9968142526685889,0.18875559984169069,0.6843604219531676,0.9169987682350966,-0.1900193828519285,0.637911760157451,1.0260378387308535,0.0,0.0,0.0,0.0
0.022300030285494644,-0.13956270144176192,0.7255001563676591,0.0005230800086820645,-0.5265240945703906,-0.0017390401780294441,0.8501582675969187,-0.07938385945747731,-1.007846931023402,0.8468682302151348,-0.058260998645860054,-0.8867129910013577,0.9866731200484974,0.19675111956768954,0.6816740141870644,0.9059133013267177,-0.17542283985343837,0.6339223514269814,1.0333235557839708,0.0,0.0,0.0,0.0
0.01959817670877039,-0.14218026613037493,0.7261555215128779,0.0007385015293655036,-0.5263147272111779,-0.0020749695232719708,0.8502869851042011,-0.09546734025003978,-0.9981322671760352,0.8562722537919735,-0.05024104749079116,-0.8808046172470003,0.9737170538200346,0.2057931194958608,0.6784617602241011,0.8917478197540557,-0.15754281433783174,0.6293474498712917,1.040577843196955,0.0,0.0,0.0,0.0
0.01653946576176087,-0.14506004784579613,0.7269469509433134,0.0008809353296081298,-0.5259422581191173,-0.002387494527074576,0.8505164695333018,-0.11259457832704398,-0.9846830775308952,0.8690053592048766,-0.04161058016577647,-0.8738682926319563,0.9585417987156013,0.2156242946760603,0.67516334326829,0.8745121572774414,-0.13700163593410922,0.6243569531290538,1.0474938621433385,0.0,0.0,0.0,0.0
0.013273710115959498,-0.14808766320262862,0.727713282259587,0.0009699806502827561,-0.5255122199943305,-0.00271488483700052,0.8507811676186129,-0.13180005568703468,-0.9709066381891804,0.8853166278402446,-0.03260353178909844,-0.866216195448446,0.9415876650205299,0.22554957617417568,0.6718410455859355,0.8560901627859935,-0.11556627390801279,0.61858018874299,1.054795709255313,0.0,0.0,0.0,0.0
0.010038059525225719,-0.15081204201611104,0.7280055581650672,0.0011763629345086957,-0.5255187749863335,-0.003168828036415998,0.8507752886843772,-0.15472309755032881,-0.9602521593268915,0.9084233388613173,-0.024186842430617746,-0.8567475812693854,0.9214061635927977,0.23302178778465646,0.6678147261239982,0.8440597908883354,-0.0991104611284105,0.6108785272408812,1.0649639148658512,0.0,0.0,0.0,0.0
0.007366300223774766,-0.1529324686388564,0.7279362925479261,0.0016988814230617765,-0.5263213154648093,-0.0038626576909153937,0.8502752886947061,-0.18082642728492201,-0.9549556385971951,0.9437602088486036,-0.0169548405321598,-0.845372717257537,0.9001931793673971,0.23649403740973812,0.6655019505393165,0.8398579358042335,-0.09181462582025489,0.603531375750352,1.076026021947254,0.0,0.0,0.0,0.0
0.00571092028482695,-0.15421021447777705,0.727698747323235,0.0027476219948571355,-0.5281946220164978,-0.00481361364425523,0.8491052472867578,-0.20753530510084944,-0.9582692531734984,0.9991149305312425,-0.011599261970529004,-0.8320587785324036,0.8802167570878218,0.23481401262853943,0.6673225664135815,0.8435516831043122,-0.09669723687882886,0.5989546113433115,1.0857965642308292,0.0,0.0,0.0,0.0
0.005385505250425928,-0.15457469483627914,0.7274603798048571,0.004256285542979241,-0.5307241911251498,-0.005628967210991233,0.8475152103154667,-0.23020096828891518,-0.974881000038487,1.0764129157138578,-0.009355592772391091,-0.819843896534833,0.8664720404872517,0.2291899417512296,0.6734034366674837,0.8519901155349406,-0.11136604809277036,0.5987170935291433,1.0921987065938048,0.0,0.0,0.0,0.0
0.005399462796381581,-0.15462778980711128,0.7274372679676671,0.004272342513597356,-0.5307265187664737,-0.0056294062966604245,0.847513669006119,-0.23023646990979918,-0.9749160683788681,1.0764167304164474,-0.009292691471696181,-0.8198495328392825,0.866389679801146,0.22924560371815114,0.6735310747580321,0.8517837240411736,-0.11143153138860909,0.5985913387805274,1.0923880693911852,0.0,0.0,0.0,0.0
0.005399462796381581,-0.15462778980711128,0.7274372679676671,0.004272342513597356,-0.5307265187664737,-0.0056294062966604245,0.847513669006119,-0.23023646990979918,-0.9749160683788681,1.0764167304164474,-0.009292691471696181,-0.8198495328392825,0.866389679801146,0.22924560371815114,0.6735310747580321,0.8517837240411736,-0.11143153138860909,0.5985913387805274,1.0923880693911852,0.0,0.0,0.0,0.0
0.005102802853035144,-0.15639888213764852,0.7311543554414832,0.0023497815401718235,-0.5284207150726535,-0.0037237742998124405,0.848971236211088,-0.2302525118302362,-0.9771545485408527,1.0816868873972922,-0.008982133906622973,-0.8194548095087498,0.8744861124110157,0.16049832636750694,0.6448713139401021,0.9238085165505361,-0.07113233145381725,0.6189519472209233,1.066882168740205,0.0,0.0,0.0,0.0
0.005682248579478147,-0.15900355623922163,0.7356091006067461,0.0015153905548579533,-0.5275829453195433,-0.002865878963601503,0.8494973373337835,-0.2250133897674246,-0.9701866835852163,1.084418347125044,-0.004259360301834434,-0.8177107207873451,0.8876746218712425,0.10273344072117721,0.630425361851588,0.9801863907293947,-0.04132175667687304,0.6444679992569476,1.0363686017457854,0.0,0.0,0.0,0.0
0.006358735462651494,-0.1622446861250942,0.7398951503110546,0.0013504197097029707,-0.5273063342591541,-0.0026518045562037035,0.8496700383968924,-0.21635677918048685,-0.9589072960401037,1.0832023610841377,0.0034624957407643087,-0.8165557078257217,0.901949326373043,0.06447538980108193,0.6203328903607926,1.023861697368834,-0.015696386209903337,0.6689947120930716,1.0079782830451964,0.0,0.0,0.0,0.0
0.006965996946074136,-0.1659321815460271,0.7437842718121116,0.0015196070533519135,-0.5271292741830041,-0.0027905993362821093,0.8497791664009225,-0.2057722325805813,-0.9465300412480503,1.0795196354717504,0.013049427486226515,-0.8170867402520937,0.9169605673990566,0.03908792291968561,0.6123699532315064,1.0594968032064906,0.008837378525931746,0.6909789156275364,0.9832387818481586,0.0,0.0,0.0,0.0
0.0074617714082909035,-0.16987921230704484,0.7472387474718083,0.0018576573515324544,-0.5269259212801846,-0.0031162099985787423,0.8499034720645855,-0.194221633009719,-0.9341440244516404,1.0741071477399562,0.023670753815242487,-0.8190343079421575,0.9320031483082203,0.02036828382057034,0.6060930036718436,1.0901896813636656,0.033070634457433114,0.7102033027177174,0.962252975692887,0.0,0.0,0.0,0.0
0.00772992094066538,-0.1739000457863405,0.7502699805444958,0.0022501810849732636,-0.5266663319779157,-0.003492469836807441,0.8500619472135261,-0.18246545204329176,-0.9217563117256422,1.066540253474447,0.03456561630079413,-0.821247910442051,0.9452640183930344,0.004845194729597067,0.6008067974851719,1.1172091026918587,0.05724117530524782,0.7265533730590347,0.9448139105215442,0.0,0.0,0.0,0.0
0.007677066409601424,-0.17785567972576943,0.7528822971305809,0.0026375324291662556,-0.5263606389963076,-0.0038435552241883482,0.8502486390587888,-0.17099188938360424,-0.9091856257338338,1.0563267758702277,0.04521060370524551,-0.8228500909104183,0.9553782004066506,-0.00950112088193205,0.5962763141987166,1.1402888493671712,0.08110363969423907,0.7398475350088494,0.9308619018390779,0.0,0.0,0.0,0.0
0.0072175330460132175,-0.1817200394159005,0.7550462185251658,0.002978148578328137,-0.525984228934873,-0.004132791511335218,0.8504790659252915,-0.1599236612313409,-0.8964423644360261,1.0430534559642115,0.05545975306628298,-0.8236685616718951,0.9617814666471652,-0.024175640421235635,0.5927938881885281,1.1575174133125898,0.10480362749469652,0.7496077997934525,0.9208880776162415,0.0,0.0,0.0,0.0
0.0062598917800168186,-0.1855462810674806,0.7567159861137482,0.003223479711068982,-0.5254768056506794,-0.00432261346531874,0.8507908385229238,-0.14918921786696926,-0.8836527645484435,1.0262726815842385,0.06537596575300691,-0.8238891371460257,0.9642711731900331,-0.04061448040340346,0.5914347531794105,1.1648095903839653,0.12905290712566667,0.7552069905819028,0.915686508629212,0.0,0.0,0.0,0.0
0.00479275300532566,-0.1893876799505063,0.7579863001639483,0.0033223026615887626,-0.5247831055020516,-0.004367519352793058,0.8512182911917191,-0.13874310687253305,-0.8707859572723097,1.0059575506641631,0.07500066759340121,-0.8235207710929524,0.9630402101920896,-0.060300351019385356,0.5949323533048816,1.1558462811874701,0.15453185044388013,0.757015363646642,0.9144572016127405,0.0,0.0,0.0,0.0
0.0027848805556606434,-0.193237306493387,0.7588514628349958,0.0032738874633718986,-0.5239299626373753,-0.004260039602973321,0.8517444029603345,-0.12860875136238537,-0.857494139065069,0.9815652959663805,0.08427989535344617,-0.8222713688334351,0.9576300781553049,-0.08269088199345434,0.6001230580334836,1.1373836779996425,0.1808528545254821,0.7548841220559966,0.9172198495121852,0.0,0.0,0.0,0.0
0.000298673646509521,-0.19702617829618763,0.7594366946158787,0.0030497001731918556,-0.5229331365082747,-0.003964387041479171,0.8523590309874455,-0.11905416499741428,-0.8436137106154352,0.9533773979539351,0.09294043472482534,-0.8197094134118988,0.9480145439268303,-0.10804622416539006,0.605665705497093,1.1142580563213962,0.207543414747637,0.7496991593113902,0.9223296740030945,0.0,0.0,0.0,0.0
-0.0025603372900780768,-0.20063126502748937,0.7598075261732836,0.00257496616314385,-0.5217693673405357,-0.0033943276592807744,0.853075949370311,-0.1106186221011847,-0.8298277154023613,0.922613789490923,0.10049376091941958,-0.8158453286272735,0.9346590209738428,-0.1381124351460824,0.6115429918602501,1.0897630359672916,0.23444169343791843,0.7422248194265865,0.9285027637327571,0.0,0.0,0.0,0.0
-0.005575236905566059,-0.20386399976984157,0.759926867498814,0.001689753239448,-0.5202890339009,-0.002331385840658142,0.853985380774472,-0.1043632376234581,-0.8189510593173781,0.8930104653513787,0.10607135114860469,-0.8120693421484126,0.9197525756340429,-0.17655835517841068,0.6190412319001619,1.0661349615726956,0.26237551949693777,0.7330216012807639,0.935061929880936,0.0,0.0,0.0,0.0
-0.00829152206477909,-0.20668375134514097,0.7596456671002637,0.0003922337141808165,-0.5184117163257216,-0.0008079241507959793,0.8551306834557508,-0.10041936192914173,-0.8146043218154484,0.8703639243540893,0.1098225940175037,-0.8117823519225064,0.9086133591042389,-0.22936455956721624,0.630111625986533,1.0456965685967723,0.2909880340358886,0.7223500403683607,0.942720073565902,0.0,0.0,0.0,0.0
-0.010650367449123578,-0.20895020447426038,0.7584195609836569,-0.0010427519508079827,-0.5163725854307112,0.0008914518161853931,0.8563629318213344,-0.09855315054909079,-0.8174074974784055,0.8553501795280587,0.11201174891200966,-0.8162643127110911,0.9018884976271042,-0.29334057649565437,0.6431404442485043,1.030122043661881,0.3167303164417185,0.7074660305998645,0.9569723579604514,0.0,0.0,0.0,0.0
-0.012265523343744545,-0.21036618270222104,0.7567062233740904,-0.0021800683813918364,-0.514595693465704,0.002311113684007786,0.8574270688064047,-0.09849590446811825,-0.8250341505761927,0.8491220073194989,0.11274271986640352,-0.823888222435987,0.9002600940116573,-0.3570367388906445,0.6543865566524112,1.0224681428749738,0.33412702950125317,0.6920833127210447,0.9732950611889504,0.0,0.0,0.0,0.0
-0.012230409954140447,-0.21040505018982705,0.75664908568012,-0.0022593661052111576,-0.514617237681231,0.0023517605189485235,0.857413822590121,-0.09852457352717756,-0.8250469702402251,0.8489630024328627,0.11276380910843697,-0.8239191773641671,0.9003299415286974,-0.3570601828793617,0.6543638642725104,1.022457950015252,0.33415583747171695,0.6919972745467553,0.9731890464844665,0.0,0.0,0.0,0.0
-0.012230409954140447,-0.21040505018982705,0.75664908568012,-0.0022593661052111576,-0.514617237681231,0.0023517605189485235,0.857413822590121,-0.09852457352717756,-0.8250469702402251,0.8489630024328627,0.11276380910843697,-0.8239191773641671,0.9003299415286974,-0.3570601828793617,0.6543638642725104,1.022457950015252,0.33415583747171695,0.6919972745467553,0.9731890464844665,0.0,0.0,0.0,0.0
-0.012312254770745717,-0.21079432951927757,0.7569581314843018,-0.0015492408873903332,-0.5158724970196176,0.0016632081323172843,0.8566623607992393,-0.09573953686319944,-0.8131595430618468,0.837209923557081,0.11475786453124097,-0.8168232366282515,0.8936642153099092,-0.3672063112541729,0.6617770329471617,1.0221243827309625,0.3313087964809536,0.6955207293103378,0.973734559733786,0.0,0.0,0.0,0.0
-0.012083366013249523,-0.21150223822664158,0.757083881948011,-0.0012188400007636198,-0.5165200556788765,0.0013378805265375907,0.8562731787147368,-0.09317815185187595,-0.8077544562731391,0.8325581116978453,0.11706703395552846,-0.8154450992386699,0.8942561884652088,-0.36956586992289675,0.66613069312467,1.0211109968666796,0.33432474921763744,0.6983736250031505,0.975382230377308,0.0,0.0,0.0,0.0
-0.011453930658160243,-0.21236271146181068,0.7570982079224637,-0.0010364380276769924,-0.5168437093866908,0.0011669067928219035,0.8560783516665735,-0.09073194547937465,-0.8071904496792868,0.8344052798274058,0.11964920830401596,-0.8185240668055387,0.9012667618080356,-0.36874873344487386,0.6696394837064977,1.0198273308016896,0.34043202999324396,0.7015062891787603,0.9775801789071893,0.0,0.0,0.0,0.0
-0.010366570982706056,-0.21330102878642082,0.7570557127756171,-0.0008369972881858346,-0.5170548044401332,0.00095434600653195,0.8559513525105354,-0.08809807518999811,-0.8099647441173068,0.8418265546199375,0.1227029879381567,-0.8250756411112729,0.9139130501216175,-0.3684095532655851,0.6740807896396158,1.0184462597776802,0.3475982381328692,0.7055361448783387,0.9799835062748237,0.0,0.0,0.0,0.0
-0.008759316526511454,-0.2142642395652584,0.7570763732263714,-0.00025468534359759134,-0.5175840689025037,4.052578011100033e-05,0.8556323188796489,-0.08373164134445962,-0.8121348816663448,0.8517636331639105,0.12752730773626203,-0.833198294675879,0.9304248409211877,-0.3774195193357695,0.6835288362117864,1.017167020342336,0.3502238107342109,0.71106461687155,0.9820335501561949,0.0,0.0,0.0,0.0
-0.006727158874889068,-0.2147925441922387,0.756850853219772,-0.0001225463374976524,-0.5173077996704559,4.575883375181535e-05,0.8557994059875456,-0.08295313207334244,-0.8247949243698819,0.8737635099167159,0.10348080858786657,-0.8325328216271006,0.9013002408613374,-0.37884853306164623,0.6884441994458166,1.0165079239286514,0.35732420306269297,0.7162681881343975,0.9834894809041488,0.0,0.0,0.0,0.0
-0.0046562754818361436,-0.21551371597057398,0.7566480211734898,0.00015665514842274053,-0.5172126338829727,-0.0003432592795702177,0.855856850754885,-0.08064996336127704,-0.8351093242241352,0.8933471610827723,0.07533831647744901,-0.8417237128989606,0.8787596815592679,-0.38340063679719233,0.6951756906439402,1.0157062287178809,0.3630940198539868,0.7216237825283788,0.9853302548041492,0.0,0.0,0.0,0.0
-0.0028546838373776405,-0.21652861451509126,0.7564789318988425,0.00043264176822148994,-0.517152183037474,-0.0008185391559987205,0.8558929619960228,-0.0772712354351857,-0.8427246383528856,0.908499674390375,0.04904580976379197,-0.8561641043378592,0.8612022146442353,-0.3859739130042842,0.7013586800671783,1.0141168912110294,0.3700837803792406,0.7264367143563003,0.9876206088640264,0.0,0.0,0.0,0.0
-0.0013632620616630799,-0.21781483240957766,0.7563663540530458,0.000689812953709007,-0.517077205706072,-0.0012949664433874277,0.8559375038863526,-0.07309594631131652,-0.8479494668987423,0.9194737206436794,0.026173634875673674,-0.8728268233810669,0.8464924021418889,-0.38549316311393256,0.7065057342625041,1.0114745085021752,0.37854207378288357,0.7306479975564555,0.9900693353894074,0.0,0.0,0.0,0.0
-0.00013911908595663942,-0.2193133259033316,0.7562761310146574,0.0009408648960696393,-0.5169712634858089,-0.0017588800840559133,0.8560004286470793,-0.0683384302289285,-0.8514070483564663,0.9271608741154366,0.006359045375065795,-0.8899337459462737,0.833155279335196,-0.38232437042917283,0.7105166623271437,1.008173784185639,0.388115802366743,0.7341466728516713,0.9928329720975577,0.0,0.0,0.0,0.0
0.0009090311868682017,-0.2209968992073983,0.756190139971699,0.0012229026197936106,-0.5168421915627074,-0.0022497347546327337,0.8560768611657331,-0.06300348639762439,-0.8535666189275427,0.9325122750244631,-0.011130177732068154,-0.906139420971335,0.8205331757254873,-0.3774776115488525,0.7137978000472402,1.004419839854653,0.3983150826679886,0.737045754466588,0.9959667293579225,0.0,0.0,0.0,0.0
0.0018504399179104288,-0.22289626472776694,0.7560941406654436,0.0015570371116590638,-0.516670265668456,-0.0027926495500398157,0.8561784938422657,-0.056973737038377784,-0.8548229710443686,0.936201348780314,-0.026903525177784774,-0.9198644159960746,0.8087114002228196,-0.3711785602865818,0.7165264047182005,1.000185169471502,0.40913101028847915,0.7393925689173501,0.9995556025698477,0.0,0.0,0.0,0.0
0.002677212743153179,-0.2250794017271496,0.755938444866877,0.001921084113909621,-0.5163787151823783,-0.003355101444481466,0.8563516072482849,-0.05016058738289436,-0.8556593535961785,0.938456231330969,-0.04151985936358779,-0.9288802302733173,0.7984568995653857,-0.3622401691358036,0.7180267078918617,0.9955801277879259,0.4211571178515448,0.7407776428600894,1.004034121366605,0.0,0.0,0.0,0.0
0.0035290953950286906,-0.22746336416738192,0.7557491071999596,0.002380019888906883,-0.5160415513294544,-0.004040206572524532,0.8565507162670929,-0.04253693075401941,-0.8561649128132643,0.9402296310578169,-0.05523603959867219,-0.9304627459122505,0.7917214277507234,-0.35323419403249195,0.7195970723235947,0.9906302032391738,0.4331747652239689,0.7417703423042743,1.0089721881547107,0.0,0.0,0.0,0.0
0.004384056545091641,-0.23005004408799273,0.7555924012950176,0.0029052905551460507,-0.5156608364772863,-0.004818290132134984,0.8567743256485562,-0.034151117763887885,-0.8560184016296474,0.9411817388013316,-0.06803805141479356,-0.9231289616666098,0.7906870719113378,-0.34361523377676856,0.7213817519654803,0.984687399415338,0.4454593686490573,0.7426963225754295,1.0137533091481334,0.0,0.0,0.0,0.0
0.0052882960749301156,-0.2329220512696991,0.7554394868385964,0.0034575759355707507,-0.5150929121713536,-0.005604215895270705,0.8571090536003474,-0.02501443789188313,-0.8563375803823264,0.9423813320905278,-0.08018963282116849,-0.9085386782907651,0.792607989281161,-0.33143806226425776,0.7226139370849769,0.9773791014405346,0.4590160595818326,0.7433035558329556,1.0184481927146722,0.0,0.0,0.0,0.0
0.006330344597332938,-0.2361015943423644,0.7552216580982514,0.004042903906157869,-0.5142652933627909,-0.006389690136643523,0.8575978281400004,-0.01508723638882784,-0.8580946463209551,0.9450078680140931,-0.09238682412238403,-0.8889530292415562,0.7947652225950864,-0.31665094820757583,0.7230730796643073,0.9689904026081639,0.47397586304782247,0.7433497727274158,1.0234586042227931,0.0,0.0,0.0,0.0
0.007631305487243383,-0.23939197561090736,0.7548512225629468,0.00475765936734685,-0.5133298132061772,-0.007361398417100994,0.8581466525975616,-0.0043892229898588615,-0.8612105834207819,0.9497565940272681,-0.10559390638479352,-0.8660390678415486,0.7953727017312345,-0.30385645813368317,0.7240602926715147,0.9611439335140879,0.48795110919115037,0.7429163116435048,1.0293773907794117,0.0,0.0,0.0,0.0
0.009267952972014262,-0.24230174984069913,0.7541590162182682,0.0056949417706872426,-0.5125506114698466,-0.008691514785816581,0.8585941392129595,0.0062602989787253725,-0.8656803162468989,0.9574413672982236,-0.12063011237678853,-0.8407119056569612,0.7927749569828817,-0.29968129914119535,0.7266834747079435,0.9574665232871252,0.49723166004716046,0.7419534387128425,1.037409454151195,0.0,0.0,0.0,0.0
0.010999296947768626,-0.24468501613269114,0.7531688305975496,0.0066687463838044974,-0.5116423348891654,-0.010092741517812306,0.8591133717615425,0.01584002259444867,-0.8729319001883534,0.9683047666661593,-0.13807154692571086,-0.8131642667439398,0.7834330503383191,-0.30012655984242614,0.7282800070437829,0.9576328958014769,0.5015688933399324,0.7390542107192457,1.0467453437139402,0.0,0.0,0.0,0.0
0.012506615545141181,-0.24637034372118272,0.7519480859548004,0.007569228741766604,-0.5104562097439991,-0.011380338058053278,0.8597951224656544,0.023486344813548457,-0.8829983223098161,0.9810664676167749,-0.15735782726930325,-0.7845204931776091,0.7626767238705638,-0.30320692142927025,0.7270314961119284,0.9613392519026362,0.4992038746252242,0.7327409854924928,1.05649728119305,0.0,0.0,0.0,0.0
0.013333744466182147,-0.24716520990454627,0.7507294095254181,0.008187892468366547,-0.5087923711098934,-0.012256737196460199,0.8607630649084543,0.02797803308387344,-0.8955421917257845,0.9937124096715517,-0.17548939097004995,-0.7572913217583739,0.7252073543021272,-0.30486034003735785,0.7207961877815107,0.9666783170327027,0.48868246577694946,0.7216598124094735,1.0643101371803498,0.0,0.0,0.0,0.0
0.013404398157223938,-0.24726259094419908,0.7506978906494889,0.008315614861724377,-0.5087341565183827,-0.012259239069659181,0.8607962125836951,0.02824738836088105,-0.895610299515347,0.9937504676504094,-0.17551589145958757,-0.7572454786044287,0.7252256188463856,-0.3049393992274423,0.7208180850772988,0.9664719774033775,0.4887695847493939,0.721585248119103,1.0645256447958764,0.0,0.0,0.0,0.0
0.013404398157223938,-0.24726259094419908,0.7506978906494889,0.008315614861724377,-0.5087341565183827,-0.012259239069659181,0.8607962125836951,0.02824738836088105,-0.895610299515347,0.9937504676504094,-0.17551589145958757,-0.7572454786044287,0.7252256188463856,-0.3049393992274423,0.7208180850772988,0.9664719774033775,0.4887695847493939,0.721585248119103,1.0645256447958764,0.0,0.0,0.0,0.0
0.015530129662532437,-0.24884240316305864,0.7532282983056338,0.00592979810366289,-0.5120840534512902,-0.009197503081799329,0.8588656272272202,0.024897241227095246,-0.8835219757305136,0.9935480497526431,-0.17757120971898718,-0.7358157565544892,0.723618204591698,-0.26914076049285923,0.7416494298121697,0.9424619092675133,0.39384399677430054,0.707075668269525,1.0661376065585417,0.0,0.0,0.0,0.0
0.018094591858698557,-0.2507996761528936,0.7543023229523262,0.0036584313348710664,-0.5145768676120099,-0.0058163151965957725,0.8574167211317457,0.02201390212535305,-0.8819912580680768,1.0018705766560845,-0.18010919903333267,-0.7270593973378477,0.7355469427047163,-0.22378442736497117,0.7523192061955861,0.926977432949588,0.30196490299260365,0.6873787812444193,1.0788382946817665,0.0,0.0,0.0,0.0
0.020980198834809713,-0.25305265054203446,0.7539787734258504,0.001751426905508586,-0.5164278889599565,-0.0028299123183545155,0.8563242140710654,0.020975878159992856,-0.8879886929953222,1.016050384122631,-0.1816026524896991,-0.7308252144542436,0.7601503611154291,-0.1779820641638626,0.7552161104068044,0.9215459169431934,0.22218126013943035,0.6689929339197931,1.0990927329413875,0.0,0.0,0.0,0.0
0.024312456112084848,-0.2551555860727643,0.7530585209250281,0.0009157949418452227,-0.5185784117892415,-0.0016665721238689963,0.8550279613457845,0.023921737180486277,-0.8920300304581698,1.0304730825523207,-0.1795439919005315,-0.7424050553708709,0.7925384802378843,-0.15394752783750226,0.7629757496410244,0.9230905056376432,0.16150843251995056,0.6598347180818075,1.1247604619709577,0.0,0.0,0.0,0.0
0.027977658052901422,-0.25682016255954665,0.7518162770185307,0.0012634144945271775,-0.5214819587145444,-0.002667071719600397,0.8532572046267759,0.030946192005915953,-0.8900837788124146,1.0419371614595199,-0.17359297718883088,-0.7572536855864438,0.8267275327395931,-0.15931713724385588,0.7805200196040111,0.9315430682183126,0.1102288968067682,0.660111799706695,1.1535551796713317,0.0,0.0,0.0,0.0
0.03134466449333336,-0.25805012192657945,0.7504091769562458,0.002372630169340365,-0.5250346017928446,-0.005202670773775828,0.8510616721267198,0.04048137165553564,-0.8808907833224594,1.0463608069831034,-0.16484017154228786,-0.7698904800617762,0.854582235410485,-0.191346723056953,0.8064846988855621,0.9450187176898812,0.05926394657497173,0.6645734803050632,1.1817388662288182,0.0,0.0,0.0,0.0
0.03348592996853622,-0.26003037182083305,0.74933190912217,0.0031774618479374224,-0.5281604442465562,-0.007350220166354698,0.8491068384679229,0.050921832961724256,-0.8666948915317748,1.0397067901823744,-0.15465696172165538,-0.7783830294648115,0.874363117627037,-0.21742069689163326,0.8297191967488268,0.952236111785635,0.009562558441540997,0.6624214993170229,1.206566230035023,0.0,0.0,0.0,0.0
0.0332195462351177,-0.2644558349460449,0.7492335252330733,0.0014617656714575537,-0.5245389765587838,-0.0027385849066290492,0.8513807758368135,0.05150845143191411,-0.8852148983690967,1.0461110734362449,-0.15585021776068372,-0.7989671627155793,0.9041275860900377,-0.09113248790834805,0.7861457284659563,0.928926108655647,0.017896098871049496,0.6417481485476028,1.2177166686961818,0.0,0.0,0.0,0.0
0.03268450325029378,-0.2684882205371161,0.7489938303704391,0.0003986165701896173,-0.524038768113839,-0.0008443029579744642,0.8516938991040591,0.057543702045967954,-0.8812078449380005,1.032424294972082,-0.15009769713807214,-0.8065150200951925,0.9171294151184441,-0.04599854084068028,0.7745638571531215,0.9126259679500403,0.011791045930338208,0.6320083239625743,1.2237411266911957,0.0,0.0,0.0,0.0
0.03187050226950367,-0.27234160926954565,0.7482629263595495,5.687299029370079e-05,-0.5241130590111238,-0.0003086524920797312,0.8516486381560792,0.06627129193478404,-0.8711742984854554,1.011919985106451,-0.1414199999056835,-0.8147453981785924,0.9276083091074806,-0.017052881015768642,0.7662205806134901,0.9051282823103,-0.006986445798916408,0.6280170144643488,1.2141687961272831,0.0,0.0,0.0,0.0
0.03058239312486662,-0.27597681095315035,0.7470981072958932,-8.732068625727439e-05,-0.5240888001092653,-6.269635583353345e-05,0.8516636178939988,0.07500296089870942,-0.8602636887507707,0.9878388213683515,-0.13257137590840135,-0.8227848839969154,0.9342338959908377,0.009304743401204282,0.7542665621019441,0.9039949053633916,-0.02456332353105018,0.627149382915647,1.1935435449720486,0.0,0.0,0.0,0.0
0.028746238955925228,-0.27927589131068464,0.7455117363557906,-0.0001897973953091394,-0.5239586387501904,0.00010552100816378922,0.851743680763945,0.08293286003388228,-0.8489266915948468,0.9603018790277925,-0.12430445276288593,-0.8291834364493603,0.9351711923793247,0.03306474036426567,0.7383097686979215,0.9090168901464701,-0.04073579693285315,0.6273470382255185,1.165954265259281,0.0,0.0,0.0,0.0
0.026469002904674747,-0.28220299471422783,0.7437082649288971,-0.0003875095602409091,-0.5236814429741086,0.0003937572806582149,0.8519139869001447,0.08952975163896526,-0.8377879434102183,0.9306243291648892,-0.11719611868604517,-0.8332608712008996,0.9306542357969682,0.055376573008576555,0.719264926954751,0.9175126959562955,-0.05761014727121798,0.6274003734364482,1.1342088218761257,0.0,0.0,0.0,0.0
0.023915938140302268,-0.28474929273265004,0.7418919533796055,-0.000731311267837212,-0.5232831649543819,0.0008286680309428024,0.8521581471584069,0.09475286866670818,-0.8269494167674176,0.8999961586043053,-0.11134738608745824,-0.8348282479513727,0.9216234328596448,0.07609920038846849,0.6988900036343512,0.9270547033410025,-0.07882925871274145,0.6266257775290525,1.099880535221074,0.0,0.0,0.0,0.0
0.021224413579631014,-0.2868056263967168,0.740074271171161,-0.00115328056265068,-0.5229261294025838,0.001206741731110357,0.8523763704528478,0.09884784187290635,-0.8159430766482411,0.868942926928432,-0.10653198911863865,-0.833756393823614,0.9083275029994841,0.09268523835188165,0.6788297990268405,0.9382619472627042,-0.10911420472247342,0.6245736004807624,1.0636215511619505,0.0,0.0,0.0,0.0
0.01911008415370302,-0.2883494321196549,0.7380740769572988,-0.0015286195567423785,-0.5225962599964878,0.0014935517922481075,0.8525776103458135,0.10197110811830855,-0.8088777792906882,0.844721994624519,-0.10299868936502218,-0.8343415364394899,0.8979210605653842,0.10488175234475544,0.660356798205858,0.9521824429508086,-0.15115671762767274,0.6225379979437539,1.0267910256151656,0.0,0.0,0.0,0.0
0.01788337600807318,-0.28914047155060874,0.7362504381399357,-0.0018080399530496251,-0.522499914771321,0.0016545450102745758,0.852635814715931,0.10360224252067954,-0.8061496741734887,0.8307292115023085,-0.10123677540482794,-0.8354844420111995,0.8911587783737807,0.1115353644805513,0.6466650663987321,0.9666256845194461,-0.19933021077155136,0.6204756818486064,0.9933153722904383,0.0,0.0,0.0,0.0
0.017915539870288075,-0.28914033513789344,0.7362033507649574,-0.001855049779541526,-0.5224959412673448,0.0016690084671637405,0.852638120517845,0.10358610895307853,-0.806198456627773,0.8305862702799838,-0.10127003569836063,-0.8355222075260307,0.8911635490243329,0.11152616142259157,0.6466463480467288,0.966598419241781,-0.19934663346219758,0.6204721981038352,0.993305780675723,0.0,0.0,0.0,0.0
0.017915539870288075,-0.28914033513789344,0.7362033507649574,-0.001855049779541526,-0.5224959412673448,0.0016690084671637405,0.852638120517845,0.10358610895307853,-0.806198456627773,0.8305862702799838,-0.10127003569836063,-0.8355222075260307,0.8911635490243329,0.11152616142259157,0.6466463480467288,0.966598419241781,-0.19934663346219758,0.6204721981038352,0.993305780675723,0.0,0.0,0.0,0.0
0.017915539870288075,-0.28914033513789344,0.7362033507649574,-0.001855049779541526,-0.5224959412673448,0.0016690084671637405,0.852638120517845,0.10358610895307853,-0.806198456627773,0.8305862702799838,-0.10127003569836063,-0.8355222075260307,0.8911635490243329,0.11152616142259157,0.6466463480467288,0.966598419241781,-0.19934663346219758,0.6204721981038352,0.993305780675723,0.0,0.0,0.0,0.0
0.018464215103230097,-0.2893661614054712,0.7360842364873288,-0.0021277523333935377,-0.5224361063605569,0.0019297506416600524,0.8526735972828581,0.10375908420841244,-0.809966616451569,0.8361797151488357,-0.10139888522090071,-0.8385907902461607,0.8970304628807269,0.1162585824001712,0.6464689930745696,0.9654890026294892,-0.19548332842070046,0.6224118291856046,0.9949525201992057,0.0,0.0,0.0,0.0
0.01957865231626013,-0.2895806049222871,0.7359397563890894,-0.00219092463042792,-0.5226119174062003,0.0020225742548724683,0.8525654771497977,0.10431565924603169,-0.8148569052387449,0.8458008087072341,-0.10130009207787091,-0.8439000557081072,0.9076634078153782,0.11942066857289153,0.6489362844018279,0.9648697564386997,-0.19486003404356317,0.6255267203325928,0.9961450722860342,0.0,0.0,0.0,0.0
0.02125651537481354,-0.2897607242478638,0.7357990519969211,-0.002066230235013927,-0.5230334669213788,0.0019616273191442168,0.8523073830438639,0.10516997110196415,-0.8207178380780561,0.8592803361317318,-0.10104953266149629,-0.8510549680047218,0.9225984410997373,0.1211094035698597,0.6541926491594325,0.9644529979786283,-0.19749236024132116,0.630046795214136,0.9965304701948384,0.0,0.0,0.0,0.0
0.023460780211772753,-0.29004629820504363,0.7356724483253974,-0.001756466688759064,-0.523630118086194,0.001731613051013628,0.8519421434428815,0.10672932855741088,-0.8271457860479638,0.8757025281126696,-0.10025187337521724,-0.8605581701842366,0.9422814062311573,0.12200010989397682,0.6621003269910597,0.9633913151838267,-0.20255914216749052,0.6357773134587648,0.9964036056054957,0.0,0.0,0.0,0.0
0.02578801246695473,-0.2908534409060939,0.7355797672796645,-0.001245125070328199,-0.524356944565257,0.0011057144514884786,0.8514969299682171,0.11058531797610184,-0.8304168217240293,0.8887812298008473,-0.09712206915667519,-0.8721713524862453,0.9650807164480484,0.12293173811417546,0.6720472837561492,0.9604202683571342,-0.20844513032263878,0.6411126115946968,0.9973755971810082,0.0,0.0,0.0,0.0
0.02745356876256172,-0.2913963281256252,0.7355082683694089,-0.0012852911290733005,-0.5245867393362318,0.001102603654741053,0.8513553225325337,0.09082772729819885,-0.84839415272447,0.8880429097141148,-0.0959925892359691,-0.8801875600585818,0.9809664820626517,0.12835083812859022,0.676803208060501,0.9570302631178715,-0.20740919174611303,0.6462191972015742,0.9980317321733332,0.0,0.0,0.0,0.0
0.028781679752106475,-0.2919668429848557,0.735434666200173,-0.0012642468216331325,-0.5248962608183222,0.000932613513770478,0.8511647591923386,0.06539087267240125,-0.871894919024895,0.8832215056349106,-0.09426551546771943,-0.8866183362218452,0.9937057126461051,0.13250301360584427,0.6812398404739585,0.9543221709545934,-0.20721176033498456,0.6500408988859563,0.9991761294001171,0.0,0.0,0.0,0.0
0.02976550042513073,-0.2926445734598703,0.7353689940492771,-0.0011624930738403064,-0.5252739114883528,0.0006650561347599709,0.8509321501858519,0.04108960351004909,-0.8971597572830994,0.8774060428660323,-0.09193804572830204,-0.89166081584173,1.0037012229093263,0.13613763281110416,0.6851964283382583,0.95182938861913,-0.20708286197573586,0.6527391977073106,1.0011413662794793,0.0,0.0,0.0,0.0
0.030353927319522668,-0.29346683004269664,0.735331937535343,-0.0010166969109118033,-0.5256465237764972,0.00036759408377427176,0.8507023940507428,0.01968264068757156,-0.9223712612998457,0.871055240994155,-0.089082069966241,-0.8953682825296744,1.0109285603018356,0.13998184943056063,0.6882150124838154,0.9490753626326137,-0.2059088175182223,0.6543853701684549,1.0039774918872841,0.0,0.0,0.0,0.0
0.030518640740381683,-0.2944516748986122,0.7353413410507857,-0.0008391379385937338,-0.5259869361300177,6.016810171528923e-05,0.8504922311508061,0.0007482366579401427,-0.9465857264268093,0.8641114955294583,-0.08569962173793141,-0.8977124269524791,1.0153221050426435,0.1442625659094966,0.6901640914935157,0.9458011272206357,-0.20323036625611043,0.6550236989158484,1.0076458109933104,0.0,0.0,0.0,0.0
0.030251304450307145,-0.29561749616663485,0.7354074785245641,-0.0006248267434605005,-0.5262940028261468,-0.00026440041251947315,0.850302394606292,-0.016727152862674392,-0.9689232462725608,0.8566961518225605,-0.0817294416654795,-0.8986970373755272,1.0168995202400186,0.14897030361880112,0.6911052447576322,0.941856267335345,-0.198957178718713,0.6546663214072482,1.012127324841968,0.0,0.0,0.0,0.0
0.029539764621525123,-0.29699415080249836,0.7355402543048782,-0.00037158395852980645,-0.5265587346986788,-0.0006144476008996668,0.8501384494845731,-0.03360484989148388,-0.9880251607528755,0.8494539028898783,-0.07707936113960209,-0.8983605966015348,1.0156943381510772,0.15415635008985926,0.6910823291507109,0.937016263551185,-0.19291211565436092,0.6533045110836062,1.017426096553575,0.0,0.0,0.0,0.0
0.028350981111004946,-0.2986256146440475,0.7357595171014149,-9.278658358067512e-05,-0.5267466212659132,-0.0009849189315302707,0.8500217751977256,-0.05030057133098102,-1.0018545392988059,0.8438102158793529,-0.07165164412481259,-0.8967238163719408,1.0116565071063344,0.1600681398288825,0.6900322643358229,0.9308392744437473,-0.18457524780009654,0.6509389263322543,1.0235101640555229,0.0,0.0,0.0,0.0
0.026640235305895033,-0.3005618886302598,0.7361011848896468,0.00018727400698143452,-0.5268144587742613,-0.0013599646707530555,0.8499792005990044,-0.06674745973645985,-1.0080501470096783,0.8420689187197622,-0.06535903864125135,-0.893709408226886,1.0046152250938098,0.16704932112468743,0.6879208358839097,0.9226428051532639,-0.17324554907303852,0.6476424207873256,1.0302218138104358,0.0,0.0,0.0,0.0
0.024397098670556977,-0.30283409530235283,0.7366114137639915,0.00045762674129322503,-0.5267656288525534,-0.0017313796704314104,0.8500086853449066,-0.08271737426147399,-1.0051858979607415,0.8467426943986462,-0.05815482934261024,-0.8890655415760086,0.994359827599751,0.17521649560718947,0.6850860050213913,0.9116990154124517,-0.15868641258201718,0.6436566484196489,1.0371999491362858,0.0,0.0,0.0,0.0
0.02167528403184173,-0.30542445902300236,0.7372905640124219,0.0006668784566281774,-0.5265280605359409,-0.0020714552686364137,0.8501549657647449,-0.09878739165582717,-0.9952958110529933,0.8559320887616775,-0.05018145082772482,-0.8831415698596382,0.981341058358649,0.18464043077411038,0.6816220542510999,0.8975695380485528,-0.14064665871178514,0.6390934411908893,1.0440833530793183,0.0,0.0,0.0,0.0
0.018593606336741703,-0.30827856389330005,0.738110687453775,0.0007855249644618895,-0.526102868180007,-0.002375013632796021,0.8504172589697039,-0.11591690788847997,-0.9816406514181624,0.8682982827269273,-0.041620299114666935,-0.8762654162996755,0.9661814356058798,0.19505675996281813,0.6779563339645619,0.8802643947075521,-0.11971729170467595,0.6341155897561902,1.050577442956356,0.0,0.0,0.0,0.0
0.015306021507410015,-0.311275968518515,0.7388960389412045,0.000834811146801329,-0.5256064982869247,-0.0026830759651409815,0.8507231706920128,-0.13516164185531424,-0.9676511909712396,0.8840815324394021,-0.032713301324565694,-0.8687487832115898,0.949304947119154,0.20564256735544056,0.674158798971858,0.861834915614414,-0.09780957940610562,0.6283013167382888,1.0575072987218876,0.0,0.0,0.0,0.0
0.012063896227499607,-0.31393786992833483,0.7391880214662846,0.001012468647022537,-0.5255955506789605,-0.0031247265517416706,0.8507282339840943,-0.1582129183335371,-0.9566987757384631,0.9066240224018599,-0.024464693795760776,-0.8592452163527973,0.92904668065898,0.21339422930936988,0.6697992585501528,0.8501885397483886,-0.08141293400431626,0.6205626461745137,1.067407436799252,0.0,0.0,0.0,0.0
0.009415915904444724,-0.3159884570793018,0.7391322654354148,0.001534913611020847,-0.526435243369345,-0.0038362375640017135,0.8502051880929788,-0.18437989448026626,-0.9508841627555509,0.9413121676140002,-0.01735329187783358,-0.8477126558303132,0.9077956002755446,0.21664562336613666,0.667610082434374,0.8463692520258428,-0.07472631672868976,0.6133599294044536,1.0781046252788902,0.0,0.0,0.0,0.0
0.007801097915099702,-0.31718756582482577,0.7389252435998319,0.0026250065713117896,-0.5284136130497238,-0.004845826180349341,0.848969187222285,-0.21104146889640454,-0.9533527547082803,0.9958386162908763,-0.01205432091373247,-0.8339718585902194,0.887603055079301,0.21404869901026416,0.6700890068904257,0.8504680901760353,-0.08090297826851585,0.6090862845184368,1.0874107411265377,0.0,0.0,0.0,0.0
0.007506873895170995,-0.3174860208953115,0.7387292353226361,0.004193518454031035,-0.5310665986221189,-0.005740233420431115,0.8473002607996695,-0.23344461439691222,-0.9686500469004362,1.0717130800696795,-0.009796556217245492,-0.821176061803054,0.8734443080409704,0.20703757294174485,0.6771356983301585,0.8591427381144426,-0.09710241362906626,0.6091624979657001,1.0932981895082396,0.0,0.0,0.0,0.0
0.007523397860611002,-0.31753893796517135,0.7387047348322384,0.004203694684904994,-0.5310697552494362,-0.005737788934904126,0.847298248427576,-0.23347986897136752,-0.9686848517525705,1.071715807159774,-0.009740590264593101,-0.8211784096190996,0.8733659765132717,0.2070905527653849,0.6772722333845587,0.8589375969084565,-0.09716297266840158,0.609036246405047,1.0934934588531218,0.0,0.0,0.0,0.0
0.007523397860611002,-0.31753893796517135,0.7387047348322384,0.004203694684904994,-0.5310697552494362,-0.005737788934904126,0.847298248427576,-0.23347986897136752,-0.9686848517525705,1.071715807159774,-0.009740590264593101,-0.8211784096190996,0.8733659765132717,0.2070905527653849,0.6772722333845587,0.8589375969084565,-0.09716297266840158,0.609036246405047,1.0934934588531218,0.0,0.0,0.0,0.0
0.0070832721408202355,-0.3192912997725103,0.7423224673482,0.002245431692554985,-0.5285493272760573,-0.0037946358952172217,0.8488911399060329,-0.23368360322690085,-0.9718360709731013,1.0768953181392005,-0.009542005879594917,-0.8213675138530323,0.8810782854710059,0.14125476434203565,0.6470860024074259,0.9283334471238256,-0.05552842052307994,0.6281847836582728,1.0684781200260751,0.0,0.0,0.0,0.0
0.00749660109032328,-0.3218519297289165,0.7466818978167187,0.0014138010971315187,-0.5275826892123874,-0.0029180066645621517,0.8494974940792872,-0.22862902720707245,-0.9651784004654987,1.0789333386191144,-0.004972930540155698,-0.8195970382054286,0.8931487228964898,0.08631361066452983,0.6313140086867162,0.9827886006112754,-0.025393062008521365,0.6524595731177121,1.0383862672211888,0.0,0.0,0.0,0.0
0.00806936568045934,-0.32501620098339656,0.75089148285552,0.0012864699889290363,-0.5272575591899757,-0.0027212942161932187,0.8497001858477998,-0.22015445765892924,-0.954018831462286,1.0772442075144761,0.002587135533293825,-0.8182973716446442,0.9065043979951622,0.049787947873362076,0.6206988339497517,1.0253483903881826,-0.00035061619460623195,0.6760410799341764,1.0102099568696363,0.0,0.0,0.0,0.0
0.008589939660520664,-0.3286102217598092,0.7547241307898339,0.001485551838215431,-0.5270502171217046,-0.0028771210434440195,0.8498279731464488,-0.20979441465406712,-0.94173411276404,1.0732069031898284,0.01197230658934368,-0.8185937269423658,0.9206267918898249,0.025221493214963423,0.6124482066952764,1.0603260040858908,0.02347357853105815,0.6972851187038809,0.9855162622873344,0.0,0.0,0.0,0.0
0.009009455553305599,-0.3324586728802618,0.7581370254633164,0.0018425312389039443,-0.5268172609106612,-0.003216205848023149,0.8499704904907965,-0.1984913702095217,-0.9294835597526553,1.0675688120938587,0.02237439682957368,-0.8203132022001155,0.9348768775513681,0.006726192088037427,0.6059235070759017,1.0905843446364887,0.04700696281706895,0.7159000920841784,0.9644504064352137,0.0,0.0,0.0,0.0
0.00920745992649542,-0.33638681769603057,0.7611385194299514,0.002243885550981718,-0.5265250590224229,-0.003600997935713175,0.8501490222384163,-0.1869764282352382,-0.9172607809583537,1.0598548202052138,0.03305699067262292,-0.8223335467871172,0.9474561886436765,-0.008848582843960555,0.600338956802934,1.1172687224672628,0.07055975863338662,0.7317328491588576,0.9468576843284984,0.0,0.0,0.0,0.0
0.009091196879291238,-0.34026106788014876,0.7637342695783089,0.002634577530429332,-0.5261901917666401,-0.003955722836100288,0.8503536284080092,-0.17571958342747002,-0.9048218960066122,1.0495118937678718,0.0435079501673265,-0.8237470462570964,0.9569784747288377,-0.023321757259784012,0.5954658124269984,1.1400604354523203,0.0938893742521077,0.7446187474073488,0.9326864205092662,0.0,0.0,0.0,0.0
0.008576647612818478,-0.344057750991113,0.7658963145505354,0.002975713659112582,-0.5257888260536958,-0.004245375742283617,0.8505993371206576,-0.16483389529399828,-0.8921594466024144,1.0361134784068122,0.05359046904160133,-0.8243802114727551,0.962885017000095,-0.03813283012463975,0.5916252754932931,1.15702230887969,0.11713285977857513,0.7540877657128064,0.9224086189173015,0.0,0.0,0.0,0.0
0.007572701949214078,-0.3478310158363836,0.7675750512204063,0.0032200097443699054,-0.5252550882513871,-0.004436659874721306,0.8509271648340001,-0.15423798687130044,-0.8794340078575368,1.0192344116832777,0.06338191985759573,-0.8244659270517692,0.9650074031826773,-0.05472411365312731,0.5899180162553601,1.1640484983145736,0.14096787523632295,0.7594653482527047,0.9168336235244217,0.0,0.0,0.0,0.0
0.0060640415695288104,-0.3516364926272948,0.7688480850754994,0.0033185579019000813,-0.5245295140059583,-0.004489382921887542,0.8513739610483196,-0.14387009161254175,-0.8666619619656329,0.9988429161306455,0.07294482006296994,-0.8240828757037175,0.9635566794923646,-0.07456306128871151,0.5930885026783193,1.1548067522323975,0.16603038459213335,0.7609895203748912,0.9153252155722781,0.0,0.0,0.0,0.0
0.004025428161078059,-0.35546127578198483,0.7697271641733868,0.0032682456342681817,-0.5236412423706264,-0.004390181291510369,0.8519212957587389,-0.13378131710012667,-0.8534620245349309,0.9744204128261102,0.08219572952625805,-0.822870809399257,0.9580586777175222,-0.09712292686667391,0.5980055405442136,1.1360728637861948,0.191941264248702,0.7586388466599936,0.9177133289384158,0.0,0.0,0.0,0.0
0.0015156301070153705,-0.3592349721755616,0.7703350873344605,0.003036636306153924,-0.5226079946957154,-0.004095802178669543,0.8525578497231613,-0.12425864151940613,-0.8396582687039328,0.9462104845653445,0.09084010613497415,-0.8203591219917596,0.9484291407904021,-0.12264378613059082,0.6033160201283946,1.112687691842336,0.21830130682744037,0.7533021721196533,0.9223871274917178,0.0,0.0,0.0,0.0
-0.0013637451939715263,-0.36283140445217577,0.7707353313853551,0.0025426458981318584,-0.5214020131755677,-0.0035140078246056134,0.8533001390819707,-0.11586208923258103,-0.825963147426302,0.9154379983015078,0.0983692926922043,-0.8165514072922856,0.9351017848515231,-0.15294133422563588,0.608989158995251,1.087938600239497,0.24499846889942434,0.7457232877474502,0.928070235083016,0.0,0.0,0.0,0.0
-0.0043976078069681394,-0.36605776659816963,0.770885217160829,0.0016186651651683346,-0.5198624425816526,-0.0024215585624604305,0.8542450215074417,-0.10967730063442235,-0.815293555955005,0.885931306977522,0.10389696256104615,-0.8128895388507055,0.9202920841457993,-0.19182912247835598,0.6163012517128017,1.0640569697585085,0.2728754339542292,0.7364016869103864,0.9341001522568878,0.0,0.0,0.0,0.0
-0.007133173672175634,-0.36887109744334745,0.7706235417812873,0.00026990126575147125,-0.5179144137879615,-0.0008609046122595059,0.855431964557806,-0.10582697552528318,-0.8112847569672578,0.863510163629196,0.10758522254093426,-0.8127873104148138,0.9092977164901423,-0.24544588250623828,0.6272188415394118,1.0434007845656426,0.30144961271457604,0.7255195842941664,0.9412992964990139,0.0,0.0,0.0,0.0
-0.009516458257465343,-0.371126943530086,0.7693679827658129,-0.001204247267514841,-0.5158102161300862,0.0008528686748792326,0.8567016069433837,-0.10402559398031073,-0.8145079331101336,0.8487433009773852,0.10975021130608685,-0.8175785323261142,0.9027213137305905,-0.3103556545304305,0.6401860996982713,1.0275818748188845,0.3268837587103121,0.7101115699828989,0.9555826276527968,0.0,0.0,0.0,0.0
-0.011146124192914306,-0.37252470826310147,0.7676253954149861,-0.002366976107062453,-0.5139784634671715,0.002258379905800957,0.8577968502135195,-0.10399266717262186,-0.8225297647517144,0.8428277421099944,0.11049820608032267,-0.8255148049636477,0.9012616240099645,-0.37515276670232883,0.6514599976721797,1.0197011642972396,0.3437422110211896,0.6942341040709934,0.9719444788889608,0.0,0.0,0.0,0.0
-0.011111488861155752,-0.3725656458599387,0.7675673206179189,-0.002448082788389676,-0.5139991523101507,0.0023005085091045412,0.8577841138513275,-0.10402120118485653,-0.8225456282863238,0.8426638331006829,0.1105211813576955,-0.8255494243977919,0.9013322101415171,-0.3751803299621776,0.6514363977528825,1.0196911760708876,0.3437744875202061,0.694144563953869,0.9718325328323093,0.0,0.0,0.0,0.0
-0.011111488861155752,-0.3725656458599387,0.7675673206179189,-0.002448082788389676,-0.5139991523101507,0.0023005085091045412,0.8577841138513275,-0.10402120118485653,-0.8225456282863238,0.8426638331006829,0.1105211813576955,-0.8255494243977919,0.9013322101415171,-0.3751803299621776,0.6514363977528825,1.0196911760708876,0.3437744875202061,0.694144563953869,0.9718325328323093,0.0,0.0,0.0,0.0
-0.011210010459463135,-0.3729437146567015,0.7678884971323713,-0.0017039854156827726,-0.5152653010010135,0.0016197042925024739,0.8570275039787479,-0.10128286038616056,-0.8104297035577213,0.8305903145607246,0.11244521107394113,-0.8183051651473517,0.8944625330495979,-0.3855632575143332,0.6588381551309468,1.0193173018574848,0.34078816207182877,0.6977262854571092,0.9722825504888613,0.0,0.0,0.0,0.0
-0.010996583658565238,-0.3736384417610303,0.7680336381538128,-0.001334379996115749,-0.5159510678928321,0.0012705839353866321,0.8566160753725879,-0.09869651470392897,-0.8045966446040776,0.8254874469076541,0.11474781928417994,-0.8166129033393547,0.8946871762605982,-0.38859692543935553,0.66343149784717,1.0183288504668857,0.34346767712435966,0.7006851804784366,0.9737943775750688,0.0,0.0,0.0,0.0
-0.010386751693392437,-0.37449691372974414,0.7680694878261008,-0.001116195989611319,-0.5163161455395728,0.001065927029153989,0.8563966696346034,-0.09617788628864826,-0.8035572848842196,0.8268397588792054,0.1173728930497213,-0.819344949411852,0.9012855649421355,-0.3884973240364419,0.6672230456481012,1.0170777419446082,0.3492646462062155,0.703915429658012,0.9758565498000611,0.0,0.0,0.0,0.0
-0.009329414738273457,-0.3754568741615439,0.768047266958444,-0.0008949802865681805,-0.5165480503168437,0.0008321981404149768,0.8562573317469516,-0.09344940654847715,-0.8059551767336833,0.8338051906696122,0.120503525115672,-0.8256365078051704,0.9135795002642048,-0.3884855889172007,0.671780028951177,1.0156719287449119,0.3563760812277779,0.7079844004840418,0.9781441436338993,0.0,0.0,0.0,0.0
-0.007773860742635002,-0.37647684415620664,0.7680731703933095,-0.0003438083125964216,-0.5170167987316957,-3.018962937641503e-05,0.8559751811318245,-0.08908571688612699,-0.8083148588755428,0.8436519621791575,0.1253507345499592,-0.8338755844612498,0.9300345320091953,-0.3963714750855515,0.680614002603847,1.0142302696316714,0.3597386725402541,0.7133601029269285,0.980146809787682,0.0,0.0,0.0,0.0
-0.0057884278148968085,-0.3770495042044278,0.7678667611532032,-0.00018588436660525867,-0.5167565365624615,-4.971201179831862e-05,0.8561323758015973,-0.08816157238140603,-0.8205495062234189,0.8651003915255682,0.10160937464438351,-0.8329989548735844,0.9007319050920687,-0.39791404038761125,0.6855301901508924,1.0135264636051091,0.36686873841307516,0.7185216779256579,0.9815569754008696,0.0,0.0,0.0,0.0
-0.003779387248914658,-0.3778318339505312,0.7676803407941274,8.99281824945497e-05,-0.5166377112887025,-0.00042682777409525487,0.8562039973075017,-0.08575667423467045,-0.8306798303346263,0.8842604859931452,0.07363761423375792,-0.8420994131057653,0.878023958311386,-0.4018081838044925,0.6919057604261787,1.0125803226145667,0.37305871208291946,0.7237487380985935,0.9833428086940823,0.0,0.0,0.0,0.0
-0.0020355334479085076,-0.37890516178118144,0.7675316622758267,0.00036158998120670735,-0.5165547059492662,-0.0008900715781589884,0.856253649794813,-0.08228066907029012,-0.838116777650796,0.8990172585735063,0.047483169021465495,-0.8564777286521261,0.8603456873073869,-0.4037249902559205,0.6977687063205712,1.010828085565635,0.3804530385190988,0.7284617169805815,0.9855325210857653,0.0,0.0,0.0,0.0
-0.0005927637354790202,-0.38023575216428496,0.7674364534618312,0.0006189761552487662,-0.5164688864188262,-0.001363360691285554,0.8563046464182256,-0.07802001321861898,-0.8431501414516418,0.909632419520675,0.024717544868841104,-0.8730780848966634,0.8455664283627702,-0.402869678740156,0.7027094926562909,1.0081103146225525,0.38916299190608705,0.7325917415502717,0.9878906977567152,0.0,0.0,0.0,0.0
0.0005929354767868591,-0.38176547336783606,0.7673574240768865,0.0008726869475164283,-0.5163605767873855,-0.0018299785605026108,0.8563688716527232,-0.0731962121833903,-0.8464430277592935,0.9170345557225712,0.004979798021578698,-0.8901236638681336,0.8321907819704901,-0.39958213174400625,0.7066036808698946,1.0048350239231985,0.39886744168171584,0.7360163610965872,0.990597050575664,0.0,0.0,0.0,0.0
0.0016176270282154187,-0.38347716018719014,0.76728514559874,0.0011577354538254952,-0.5162297562582561,-0.002324860751432763,0.8564461999592542,-0.06780223054536241,-0.8485024793531927,0.922237607057173,-0.012447492519701758,-0.9062893988851929,0.8195538337344864,-0.39471365069615116,0.7098572766788384,1.0010823098138395,0.4091753696726154,0.7388979281973048,0.9936251637116944,0.0,0.0,0.0,0.0
0.0025441843995978094,-0.38540532073601885,0.7672012973535869,0.0014912608592472754,-0.5160514725007336,-0.002867207035276149,0.8565514771423205,-0.06172575945863085,-0.8497436812685967,0.9258912664043001,-0.02817579002912166,-0.9199981178948784,0.8077243485204991,-0.3883539991146901,0.7125627735166835,0.9968485070667601,0.42014850933159625,0.7412438341068328,0.997100550720927,0.0,0.0,0.0,0.0
0.0033624944913434986,-0.3876163484045201,0.7670544797956341,0.0018632873701499419,-0.5157674660887802,-0.0034432596685784224,0.8567196700481376,-0.05483616957747278,-0.8504988827520827,0.9280804961274225,-0.042688860658019814,-0.9289848156503512,0.7974817966049008,-0.3796406396461966,0.7141643905581702,0.9923189594941075,0.4322168061192087,0.7426440004276992,1.0015063538242408,0.0,0.0,0.0,0.0
0.00421885170021261,-0.3900301742869546,0.7668695490679334,0.002322590980808968,-0.5154204164926105,-0.004128410108307394,0.8569243584259333,-0.04717075940116458,-0.8511378462456083,0.930040475763143,-0.05636916808678115,-0.9305444038492012,0.7907054115402474,-0.3706482649341231,0.7157490382129617,0.9874367914478848,0.44440275750423647,0.7436520223873587,1.006365491364927,0.0,0.0,0.0,0.0
0.005075901618297625,-0.39265168760986513,0.7667180229830214,0.002837458527872608,-0.5150146822799522,-0.004889726842302989,0.857162712929459,-0.038771495672160136,-0.8512289832557604,0.9312501896516286,-0.06919105683546709,-0.9232186126374639,0.789615850283406,-0.36073931130477854,0.7174350866594552,0.9815065437013243,0.45699744952000354,0.7445756938188902,1.0110313511532645,0.0,0.0,0.0,0.0
0.005986783410728313,-0.3955490949306968,0.7665689480345249,0.003394559819998495,-0.5144487008731068,-0.0056861991522181975,0.8574955849873528,-0.02958045206418606,-0.8516259465201987,0.9326079096355626,-0.08132742195615061,-0.9086350916086033,0.791518797119226,-0.34880301278119274,0.7187821604151172,0.9743260110167763,0.470590860029462,0.745211243446209,1.0156387801034368,0.0,0.0,0.0,0.0
0.0070412792659614,-0.39873996734858497,0.7663565186316061,0.0040137308301184706,-0.5136714738039436,-0.00653384424759903,0.8579526885815184,-0.01951524985823938,-0.8531332210244881,0.9351716101853658,-0.09336832722404337,-0.8890232273087579,0.7937171720244492,-0.33514727170737624,0.7197257300255236,0.9662375131944421,0.48512349748071565,0.7453611188985815,1.020600028002515,0.0,0.0,0.0,0.0
0.00834443947075008,-0.4020557015754057,0.7659947294738615,0.004754071665216363,-0.5127626879075162,-0.0075517399609768944,0.8584840102855864,-0.008690543170470164,-0.8560963369387545,0.9398920512232238,-0.10639111434568027,-0.8660616174474689,0.7942872656846245,-0.32300244696067526,0.7209888965093252,0.958594703008143,0.49882286184266733,0.7449741228895271,1.0264307949575042,0.0,0.0,0.0,0.0
0.009955343776718495,-0.40501545155149044,0.7652852055124769,0.00567019508791912,-0.5119134354029522,-0.008838082957421636,0.8589728586115222,0.0019297609649875352,-0.8610764232923926,0.9479261484093003,-0.12141914666255654,-0.8407193719859957,0.7913934878109715,-0.31786589591436754,0.7229787441351605,0.9550520445698146,0.5085123816641085,0.7437043871422885,1.0345153238453701,0.0,0.0,0.0,0.0
0.011645400332267498,-0.4074567846450249,0.7642624971608792,0.006619989262844069,-0.5109058736094656,-0.01017987983245827,0.8595508909309008,0.011467678827498199,-0.8689889431139654,0.9591615189246482,-0.1388222091581667,-0.8131857047140378,0.7815785685982856,-0.31695647380102243,0.7236314945446981,0.9553746975979904,0.5132567712892924,0.7402843183260951,1.044031819156693,0.0,0.0,0.0,0.0
0.01311005532939562,-0.4091929813248843,0.762991296852859,0.007505414671854223,-0.5095974595457065,-0.011414224670660009,0.8603044888005253,0.019076498100011982,-0.8798702984004446,0.972400243108257,-0.1581577776191579,-0.7845804903862439,0.7601004070411188,-0.3186262050925768,0.7212689978324821,0.9593074746688128,0.5109799902834544,0.7332325925946546,1.0540910512904353,0.0,0.0,0.0,0.0
0.013906113622454865,-0.4100142699893086,0.7617162085540721,0.008135796758907639,-0.5078191680396054,-0.012275143373621573,0.861337809594945,0.0235672895003037,-0.8931604183619908,0.9855184918414004,-0.17641994438060526,-0.7573488861908885,0.7216740607686276,-0.31941921965321296,0.7141185915664414,0.9648934622451433,0.4998914494874468,0.7213311511118826,1.062238560346224,0.0,0.0,0.0,0.0
0.01397931607569454,-0.4101179626669855,0.7616833436736808,0.008271339438685283,-0.5077571350042815,-0.012278797437561632,0.8613730364537894,0.023854047563781507,-0.8932338496440084,0.98555309145534,-0.17644904710587286,-0.7573036444631658,0.7216907766635233,-0.31950363569974494,0.7141376260211394,0.9646752543135155,0.4999860135710458,0.7212493413569313,1.062459833095963,0.0,0.0,0.0,0.0
0.01397931607569454,-0.4101179626669855,0.7616833436736808,0.008271339438685283,-0.5077571350042815,-0.012278797437561632,0.8613730364537894,0.023854047563781507,-0.8932338496440084,0.98555309145534,-0.17644904710587286,-0.7573036444631658,0.7216907766635233,-0.31950363569974494,0.7141376260211394,0.9646752543135155,0.4999860135710458,0.7212493413569313,1.062459833095963,0.0,0.0,0.0,0.0
0.016109027680936992,-0.41184538686437777,0.7643764482868827,0.005891017410500273,-0.5111940188287062,-0.009213452144974524,0.8593957664121914,0.020875472765008164,-0.8797434146159075,0.9841690141339856,-0.17809647415651528,-0.7354806254569055,0.7203464514401038,-0.28444494935025655,0.7364813932130273,0.939441305970661,0.4046076704983256,0.707936756390327,1.0633851561597178,0.0,0.0,0.0,0.0
0.01878067801308852,-0.41399750250242123,0.7657651987448466,0.0037909946376645477,-0.5141973946943342,-0.006206487006961551,0.8576410363131236,0.019372360190078132,-0.8734944674800308,0.9891510491651947,-0.179074721849134,-0.72528197857614,0.7321577666860146,-0.2449774072498926,0.7523714291452278,0.9221915972035024,0.30951112820135535,0.6900941280264085,1.0765278800686326,0.0,0.0,0.0,0.0
0.021801584576459573,-0.4165374058283641,0.7658478483348158,0.0021875536741504885,-0.516721871978351,-0.0038456889990777653,0.8561418879509597,0.02055682029860452,-0.8729525887400117,0.9986232268595404,-0.17816123998222633,-0.72771596756155,0.7571426606197819,-0.20706933064591054,0.7623352748319752,0.914249028540179,0.22688796470923805,0.6743253020115331,1.0973686022167968,0.0,0.0,0.0,0.0
0.02511327744299822,-0.4192248184286272,0.7652141541772822,0.0013807374673111613,-0.5189231634495677,-0.002657783731918264,0.8548156410508491,0.024921940646851375,-0.8744345709845187,1.010364941869918,-0.17469881433626383,-0.7402056682555168,0.7922270132850043,-0.17952570055020775,0.7717104538998202,0.9117288719257157,0.1659841649824499,0.665785479186854,1.1226440245359977,0.0,0.0,0.0,0.0
0.02825448122508685,-0.4219634506418657,0.764117071893487,0.0011616021137526176,-0.5208843498393163,-0.002432050815298999,0.8536230022098947,0.031733622864763895,-0.8753025746423589,1.0201368682840042,-0.1690818663179318,-0.7571759153409404,0.8291171916280722,-0.16088783555883943,0.7803998673095852,0.9133226010726823,0.12041196208984375,0.6621528079153777,1.1495617869759815,0.0,0.0,0.0,0.0
0.030783817585624085,-0.42468727748364515,0.7629314869892169,0.001078327918870035,-0.5224300351313179,-0.002365100680016395,0.8526781936348335,0.038880925549925525,-0.8754057274524142,1.026075557803713,-0.1630551416619088,-0.7733194802908381,0.8610716753550736,-0.14196464511329368,0.785757106173188,0.9152952900875299,0.08530567677233791,0.6580380229734841,1.176447144013808,0.0,0.0,0.0,0.0
0.03253579465653168,-0.42751492641804656,0.7618738785567962,0.0009198747941585895,-0.5234238043004978,-0.002096871269064086,0.8520694091755896,0.04580171369667589,-0.8747643329891793,1.027513378209528,-0.15707464454111636,-0.7875865862940687,0.8873876118199067,-0.11697549469613831,0.7862137758221818,0.9150626408658464,0.0573521525570427,0.651570106978184,1.2006692825866587,0.0,0.0,0.0,0.0
0.03347417358078948,-0.4304774740148247,0.7609142250975911,0.0006619365036375177,-0.523919655273816,-0.0015895894530688212,0.8517659478185317,0.05246406591333408,-0.8730935369219213,1.0239643591899075,-0.15113332137530955,-0.7999020913130419,0.9081356447602804,-0.08599035980012662,0.7814647058083364,0.9131596463499833,0.034731967150741457,0.6434460562862774,1.2188844903148803,0.0,0.0,0.0,0.0
0.03364001781943495,-0.43345939891534474,0.759883495855028,0.0004428831770120644,-0.5241900670965659,-0.0011393485786662838,0.851600422320589,0.059242340506107355,-0.8691731135651074,1.0145640115427172,-0.14479726360910705,-0.8101817711183485,0.9229666344063276,-0.05550485087826058,0.773275212756255,0.9124350318083853,0.01528167549404115,0.6363976420936144,1.2262693059260168,0.0,0.0,0.0,0.0
0.03311826222351375,-0.43640870574289115,0.7587294828354894,0.00030742088638529506,-0.5243229032251835,-0.0008438688158547718,0.8515190464877078,0.0662099289839964,-0.8628685034379063,0.9995807031811133,-0.13799587887640916,-0.8187128789992701,0.9324356346195483,-0.02794773964909559,0.7626247233219339,0.9137473066316063,-0.0014645482663626606,0.6341035640696202,1.216092138437384,0.0,0.0,0.0,0.0
