zhuoxili-jackie/tripod-support-walk/examples/trajectory_walking_sideways_sc_left_v0.05.csv
root_pos_x,root_pos_y,root_pos_z,root_rot_x,root_rot_y,root_rot_z,root_rot_w,FL_hip_joint,FL_thigh_joint,FL_calf_joint,FR_hip_joint,FR_thigh_joint,FR_calf_joint,RL_hip_joint,RL_thigh_joint,RL_calf_joint,RR_hip_joint,RR_thigh_joint,RR_calf_joint,FL_foot_joint,FR_foot_joint,RL_foot_joint,RR_foot_joint
0.0,0.0,0.72963,0.0,-0.5231245161092812,0.0,0.852256264656019,0.0,-0.81,0.872,0.0,-0.81,0.872,0.0,0.65,1.0,0.0,0.65,1.0,0.0,0.0,0.0,0.0
-0.0001151720132575574,7.327828316599271e-05,0.7296101121040528,6.37554276396051e-05,-0.5231545842286132,-6.948472743677149e-05,0.8522378025573056,-3.731631667665294e-05,-0.8092381175842348,0.8707776877419862,-3.731631667665294e-05,-0.8092867938804651,0.8705542120634231,-0.0013371573623731608,0.649942199041003,1.0006812040946087,-0.0013371573623731617,0.6493433571619576,1.000008189084049,0.0,0.0,0.0,0.0
-0.00030096185373347864,0.00016884324115059614,0.7295859181176937,0.00016487593113697786,-0.5231818949855719,-0.0001607957188927089,0.8522210110763346,-9.591166697755353e-05,-0.8080890910119745,0.8688510803218152,-9.584512827967329e-05,-0.8082599280509631,0.8683966020961613,-0.0031987082020687304,0.6497673485579099,1.0015633886348105,-0.0031921319715544506,0.6483325573898095,1.000003702318005,0.0,0.0,0.0,0.0
-0.0004972876679865421,0.00025641038116631525,0.7295585442847622,0.00030243250870781805,-0.5232467326935571,-0.0002700112306808229,0.8521811382294436,-0.00010917172714576315,-0.806558896348017,0.8664851704764855,-0.0001089088729623157,-0.8070566101955677,0.8660123522975381,-0.005349064207656858,0.6497391601540753,1.00255678291845,-0.005325474533798929,0.6472821639695491,1.0001141872284793,0.0,0.0,0.0,0.0
-0.00040602618983892364,0.00028712037734271987,0.7294994681292324,0.0004236124215337675,-0.5233353633496537,-0.0003714917886607514,0.8521266220545237,1.0989950030368704e-05,-0.8064309490662396,0.8668084492807877,1.1606496690301664e-05,-0.807455827511884,0.8666835958955127,-0.006974558898515426,0.6504035415249285,1.0034282907741925,-0.0069286689370790175,0.6470551956230147,1.0005182687113037,0.0,0.0,0.0,0.0
0.00012670516076134766,0.0002766635232149208,0.7294098325543577,0.0004983270925801807,-0.5234616677113507,-0.000430281297984738,0.8520489709899102,0.00014886704693371173,-0.8085864574321425,0.8714776670587485,0.00014986348761433717,-0.8100686463529782,0.8717852668718402,-0.0077868226431916,0.6521405375126544,1.0040752835321674,-0.007724987407001959,0.6482635428990161,1.0010877708231884,0.0,0.0,0.0,0.0
0.0011335100500012552,0.00020023515762122136,0.7292974657176806,0.0005309972332746787,-0.5236534648497563,-0.00044762752114682516,0.8519310807937374,0.0003683443207548757,-0.8129062682695025,0.8804916536458343,0.00036965215588536277,-0.8149098573297782,0.8815147051964008,-0.007652633474211894,0.6551664554182915,1.00435481383486,-0.007589388524133479,0.651126001089105,1.0018456082274725,0.0,0.0,0.0,0.0
0.002648246189205985,3.4509771151599206e-05,0.7291710232028809,0.0005208502208137075,-0.5239250010350752,-0.00042521027745414487,0.8517641347237296,0.0007350847350940671,-0.8193276272002057,0.8938783811049199,0.0007366820856159076,-0.8220221435845081,0.8960602654279984,-0.006393193440956501,0.6596664019612294,1.0040667787289117,-0.006346132024860052,0.6558640740094599,1.0027484641038098,0.0,0.0,0.0,0.0
0.004704305811695049,-0.00023875921501211996,0.729049844871987,0.00045384693854075617,-0.5243020690315611,-0.00035411532705132933,0.8515321538465331,0.0012831627587880264,-0.8276914607072025,0.9115585118989925,0.0012851318739851274,-0.831247091596405,0.9153878133269427,-0.0036760574750945314,0.6658628141081099,1.00291187311366,-0.003658987570944573,0.6628548702412067,1.0036464637639648,0.0,0.0,0.0,0.0
0.007325318389923134,-0.0006250858927392497,0.7289684257665733,0.00029968877583736,-0.5248304283949569,-0.00021173754075674983,0.8512067238835801,0.001989042565090474,-0.8376646541099024,0.9332498058768686,0.0019915531696255663,-0.8420959165680018,0.9390809066923524,0.000996073176384454,0.6740166842894744,1.0004901760922564,0.000990121458701265,0.6726698315926432,1.0042385832802496,0.0,0.0,0.0,0.0
0.010499223289781024,-0.0011009985610301322,0.7289572069574072,2.8452873054347334e-05,-0.5255335185347363,2.1020273113488512e-05,0.8507728954574669,0.0027654123873265424,-0.8489246130087205,0.9585302349067992,0.0027687052315890992,-0.8539682353331267,0.9663887121609472,0.007980531383666386,0.6842140233014744,0.9964840803119044,0.008020042910968512,0.685730349891479,1.0041049476201254,0.0,0.0,0.0,0.0
0.013416286681838172,-0.0013943802090937503,0.7287117860671309,0.000209236670180975,-0.5252645469112492,-8.708796457086693e-05,0.8509389545636175,0.0037324114636409,-0.8641166767329782,0.9858438061242518,0.0022864003061224603,-0.8499074164878067,0.9400324510946084,0.008550094494601484,0.6917172545154469,0.9937053609561743,0.008673554372597144,0.6927838311304131,1.003066445789395,0.0,0.0,0.0,0.0
0.016114072193178786,-0.0018071546936745692,0.7283020210830132,0.0003330421966605514,-0.525163154210311,-0.00015837659101161218,0.851001483817524,0.004961262925578548,-0.8772477455642707,1.009335848607027,0.00404963876228088,-0.8531200883300561,0.9221128538783794,0.010586042300313594,0.6980250723953824,0.992409333476542,0.010795426398034167,0.6991689072156104,1.004425382164826,0.0,0.0,0.0,0.0
0.01840770454999953,-0.002285541392101298,0.7279032765950972,0.0004275605732893269,-0.5252550452131038,-0.0002138884552840755,0.8509447155496442,0.006349372833794854,-0.8870267066318569,1.0275234963466606,0.006546816556996538,-0.8603434940124575,0.9112714512706397,0.0134746612681478,0.7035605696711917,0.9914971149863269,0.013795879897594246,0.7051240477548862,1.0066579005507545,0.0,0.0,0.0,0.0
0.020203791566391703,-0.0027536141043356514,0.7275628774768019,0.0005297466470503124,-0.5254270064537777,-0.00028856198617375274,0.8508384670367766,0.007764136260871571,-0.8937729389671848,1.0406479988772144,0.009070661382458059,-0.8694996522624425,0.9044189647613515,0.01614158254747881,0.7081269632684074,0.9908091260327331,0.016593387956670112,0.7100136791045324,1.0089953872702602,0.0,0.0,0.0,0.0
0.02150153806385532,-0.0031528716750483968,0.7272974576758835,0.0006418795274004335,-0.5256130220068288,-0.00038062523648421236,0.8507234534276992,0.009037694454477295,-0.8980466081916286,1.049432365908423,0.011403038301290745,-0.8795054959026148,0.899534480150213,0.018070800677010727,0.7116454007573846,0.9903551322352084,0.01864329681244745,0.7136000710384859,1.0110491294153976,0.0,0.0,0.0,0.0
0.022352972334868652,-0.003445452001343691,0.7271110106859205,0.0007524891559945593,-0.525782936206138,-0.0004737408151805695,0.8506183123611684,0.010025945149469322,-0.9004201126849156,1.0547381471552502,0.01352372695559365,-0.8898354450106739,0.8954530440883598,0.01911137058122426,0.7141722070461507,0.9901468249647233,0.019767421410236328,0.7159473868388286,1.0126104202604014,0.0,0.0,0.0,0.0
0.022833099888143523,-0.0036127097904156322,0.7269997909414684,0.0008471446068814451,-0.5259295032877296,-0.0005499793217660094,0.8505275641860661,0.010635760581047182,-0.9013913627466106,1.0573888744549953,0.01546524822216651,-0.9002335375818539,0.8915489017899119,0.01932750395335128,0.715842008655437,0.9901766799020292,0.020018606376554247,0.7172832334232191,1.0135879429218915,0.0,0.0,0.0,0.0
0.02302042386150165,-0.0036499520759314813,0.7269537650343,0.0009163996819029657,-0.5260522072202078,-0.0005972933268507781,0.8504515734191173,0.010827145700605776,-0.9013886999288439,1.0581157812457824,0.0172598983748866,-0.9105908398969468,0.8875104893031196,0.018840709234570718,0.7168056455713433,0.9904362777194056,0.019520636873697202,0.7178527947530526,1.0139706092537488,0.0,0.0,0.0,0.0
0.022986683966430305,-0.0035612345840401963,0.7269554258261538,0.0009564740561352103,-0.5261512079591315,-0.0006093314280389994,0.8503902752476286,0.010597771094844383,-0.9007846303104231,1.0575394849389903,0.018924167138241355,-0.9208796593163112,0.8831965861157838,0.01777215135744673,0.7171795650087339,0.9909592532553546,0.018404436156607164,0.7178453988015155,1.01383396348231,0.0,0.0,0.0,0.0
0.022792280431380756,-0.0033574208502842157,0.7269716315281815,0.0009666430261879326,-0.5262261891262322,-0.0005818132683281165,0.850343886302632,0.009968404123705725,-0.8999277854504272,1.0561716554442913,0.020450067354937394,-0.931127446763431,0.878526987795611,0.01626531011902974,0.7169751230402037,0.9919099845491658,0.01682778750946884,0.7173438721731523,1.0134227473732582,0.0,0.0,0.0,0.0
0.02251548866218989,-0.0030902318315518336,0.7270106800149492,0.0009532893758409376,-0.526290540939873,-0.0005296207047295161,0.8503041086919966,0.009116160321363758,-0.898908420519206,1.0543959263281653,0.02191880791918621,-0.9413726855763862,0.8735670628199647,0.014593924479089304,0.7165270990288369,0.992948966151289,0.0150842667956771,0.7166925617417014,1.012725032366601,0.0,0.0,0.0,0.0
0.02222092845685926,-0.0028039453336863055,0.7270668249133292,0.0009234876985759217,-0.5263503722498227,-0.00046415940859186587,0.8502671447015855,0.00818776400734327,-0.8978657532173663,1.0525653088594533,0.023386654457936595,-0.9516475251694467,0.8683516941221109,0.012988498484285389,0.7160377408556331,0.9938982732082521,0.01341713767071378,0.7161023360355303,1.0118425415077894,0.0,0.0,0.0,0.0
0.021954703869926734,-0.002531927544377444,0.7271278254231467,0.0008826702913928101,-0.5264096185901842,-0.0003925406066326594,0.8502305453585901,0.007289012648418558,-0.8969269046181633,1.050942261012617,0.024915362859040786,-0.9619045525729528,0.8629449441216689,0.01163084748406097,0.7156077262938968,0.9946996871382441,0.012013855731052478,0.7156861721065633,1.0109291309891533,0.0,0.0,0.0,0.0
0.021745528808166433,-0.00229711823831615,0.7271836827680832,0.0008358595491655735,-0.5264691589696882,-0.00032012350022816587,0.8501937564540849,0.006492516601165127,-0.896180917672931,1.0496940192708781,0.0265822470067806,-0.9719130732528498,0.8574860695534547,0.010630157692081626,0.7152880088902286,0.9953316047960435,0.01098367316864761,0.7154921453823442,1.0101073481890916,0.0,0.0,0.0,0.0
0.021603176193002394,-0.0021108847861860554,0.7272282573315859,0.0007881439640141678,-0.5265257393460526,-0.00025160986409598234,0.8501587859498135,0.005837800752816765,-0.8956711303344059,1.0488818666101396,0.02846366319536357,-0.9811353732317202,0.8522719601785825,0.010003683828668909,0.7150845898655664,0.9957980472221359,0.010340690190521834,0.7154999899867482,1.0094474212562667,0.0,0.0,0.0,0.0
0.02151700257762017,-0.0019708672196393114,0.727259563950516,0.0007448141347605377,-0.5265715344720449,-0.0001913260935082835,0.8501304768857464,0.005326664847374696,-0.8953927914256872,1.0484546925352767,0.030590159612871502,-0.9886314789455884,0.8478743415698601,0.00965753954411655,0.7149571136650191,0.9961337967146877,0.009986062630352614,0.7156151216978741,1.008956788930383,0.0,0.0,0.0,0.0
0.021459041207052762,-0.0018606694790346669,0.7272799036531502,0.0007095519894078858,-0.5265985357007068,-0.00014157923546813413,0.8501137916121381,0.004919168445477429,-0.8952869165879823,1.048257530754235,0.0328878003309394,-0.9931209192056802,0.8452370156074167,0.00941117116622749,0.7148338543462965,0.9964048877457395,0.009733507902510312,0.7157009979138391,1.0085823396101763,0.0,0.0,0.0,0.0
0.021398274729194762,-0.0017577721157351913,0.7272958823002365,0.0006800884092637925,-0.5266105759912616,-9.92471941609191e-05,0.8501063632769147,0.004547940589787251,-0.8952305382570672,1.0480772308481927,0.03518820679059558,-0.9934400323645723,0.8455473055005945,0.00912155314697399,0.7146653906057677,0.9966770087956878,0.009436119788897013,0.7156877092166458,1.0082419440133203,0.0,0.0,0.0,0.0
0.021322266841134953,-0.0016547671924595634,0.7273107618781057,0.0006551401424161055,-0.5266071753147032,-6.332612299802897e-05,0.8501084928926809,0.004191298378895783,-0.8951800617629982,1.0478320618789936,0.03745778086593362,-0.9895712788579407,0.8487770616288299,0.008745121567119379,0.7144276147710298,0.9969617196796839,0.00904950737733172,0.7155461612278221,1.0078988688114654,0.0,0.0,0.0,0.0
0.02123781691761213,-0.00155938869809024,0.7273245288381203,0.0006344179325202122,-0.5265841196991085,-3.436047539877068e-05,0.8501227918447779,0.003871546055691771,-0.8951720393448213,1.0475755325371443,0.039818231311405175,-0.9826521698550758,0.8537118929995978,0.0083426791458202,0.7141238538154017,0.9972154967220903,0.008636483734878665,0.7152937636645466,1.0075621254567018,0.0,0.0,0.0,0.0
0.021148260305216018,-0.0014728070397459427,0.727341336406056,0.0006118434226401969,-0.5265498341650621,-6.791439867415527e-06,0.8501440452901191,0.0035801427730498673,-0.8951757322746559,1.0472987709032193,0.0423187289677716,-0.9739371817340621,0.8593887062530398,0.008012800387731382,0.7137785898253648,0.9973992946766495,0.008298086478191084,0.7150152019199958,1.007214644512797,0.0,0.0,0.0,0.0
0.02103764194416297,-0.0013811380055686313,0.7273690341786443,0.0005809738124574059,-0.5265112782854159,2.6467454349901366e-05,0.8501679455302701,0.0032645816398833107,-0.895106464158749,1.0468812001570815,0.04491300220062078,-0.9643440709295709,0.8652072731284783,0.00774498581374606,0.7133772771940585,0.9975162607902077,0.008023159000646292,0.7147341596885415,1.0067809759563269,0.0,0.0,0.0,0.0
0.020868048551947117,-0.0012562044119468335,0.7274174999000348,0.0005359318181151498,-0.5264710765040889,7.281135935509895e-05,0.8501928681659344,0.0028332909268515495,-0.8948297955190243,1.0460782658034966,0.0475087832999245,-0.9543910046870048,0.8708450494839056,0.007409868045648308,0.7128465467997867,0.9976238371279096,0.007679048159535898,0.7143848227947457,1.0061417168781959,0.0,0.0,0.0,0.0
0.020581069927005546,-0.0010576828363129996,0.7274891707167183,0.00047197736090729304,-0.5264254465071895,0.00014011654460611877,0.850221151744904,0.0021607460950370076,-0.8942034335634057,1.0445467028187647,0.05000364494234813,-0.9443150947805898,0.8761424724716997,0.006775355502231527,0.7120071315511909,0.9979053678347231,0.007028764743037952,0.7137702018687823,1.0052193528375142,0.0,0.0,0.0,0.0
0.020114411074029306,-0.00074485306051682,0.7275856679449864,0.00038780430258495606,-0.5263646716250158,0.00023317972315503788,0.8502588004249817,0.0011274179398712426,-0.8930916303609756,1.041929105407286,0.052298904036252064,-0.9341942998647119,0.8810079000531359,0.005560414567090308,0.71066284179559,0.9985487812840015,0.005787488645777642,0.7126478335566919,1.0039304223940513,0.0,0.0,0.0,0.0
0.01942278173079194,-0.0003086075616228425,0.7277363519322319,0.00028829478032142914,-0.5262888729880156,0.0003427122762336773,0.8503057224336548,-0.00026641815212170524,-0.8911866741701484,1.0377956195770162,0.05438997567222033,-0.9240520161712866,0.8854952369266418,0.0035930264439574425,0.7088524847147163,0.9993832854338622,0.003786672097635777,0.7109737937536286,1.0020214694709138,0.0,0.0,0.0,0.0
0.018461657774318616,0.00025638576265954075,0.7279567943359292,0.00018080472508458207,-0.5261975942734313,0.0004588363420104167,0.8503621866944202,-0.0020085729096965196,-0.8882101586820562,1.0317112765325034,0.056297925402781196,-0.913934667602801,0.8897082709894136,0.0007216698417569895,0.7065529764524631,1.000340942917646,0.0008859513292425671,0.7086520244147156,0.9993631629249304,0.0,0.0,0.0,0.0
0.017196946855357265,0.0009493440604711127,0.7282568103231616,7.60580747752232e-05,-0.526092705167179,0.0005698733563798008,0.8504270309846733,-0.004065782687846499,-0.88390345134065,1.023279106060009,0.0581112751274525,-0.9039492454395647,0.8938768552377587,-0.003177275095476079,0.7037585466635444,1.0013664166784644,-0.003017497986776171,0.7056115890838575,0.9958736190731801,0.0,0.0,0.0,0.0
0.01561767683605888,0.0017611721897751505,0.7286377193160776,-1.3011758028520197e-05,-0.5259818068102244,0.0006650547620367202,0.8504955593285066,-0.006385018956316618,-0.878073602497272,1.0122293625159275,0.060023903810129314,-0.8943066466970709,0.8984641348542151,-0.008151551215200368,0.7005054270630999,1.002419802730079,-0.007941006065737399,0.7018566179414476,0.9915421764753082,0.0,0.0,0.0,0.0
0.01375554552567388,0.0026722182567974926,0.7290773878518986,-8.359062907897376e-05,-0.5258959280660928,0.0007485345803983124,0.8505485909412182,-0.008919640453181115,-0.8706647067376944,0.998544928298797,0.062342257257123716,-0.8853506577626328,0.9043684012700335,-0.013972738517437376,0.6968505195793313,1.0035991611754709,-0.013624178296103441,0.6975611862368741,0.9866026236228361,0.0,0.0,0.0,0.0
0.011706797051316465,0.003652405839544956,0.7294795630226205,-0.00016148629061649093,-0.5259024559393695,0.0008624860553069349,0.8505444355687255,-0.01168389551783863,-0.8620137683860601,0.9827187521666445,0.06539863044319319,-0.8776654659238562,0.9131328060814695,-0.01988070412783561,0.6926489157676889,1.005588469785097,-0.019302856140660664,0.6929888210053774,0.9820453893848626,0.0,0.0,0.0,0.0
0.009739909546191285,0.0045712243548975025,0.7297643825862985,-0.00030783461635782393,-0.5261341578122674,0.0010645267387172444,0.8504008584213962,-0.0144546663389368,-0.852711564976328,0.9662083292930073,0.06959294045822231,-0.872130625416206,0.9273682022348998,-0.024102737988829018,0.6883910589073311,1.0085150961299236,-0.02328610483565287,0.6892700123019401,0.9790648205231871,0.0,0.0,0.0,0.0
0.008335393672319901,0.005238877760470988,0.7297936133009283,-0.0006540192937408547,-0.5267784637510288,0.0014479587596608044,0.8500011328241274,-0.016923537001361805,-0.8443400300771046,0.9523023370279374,0.0747437170123612,-0.8705221961611421,0.9507135715280419,-0.02386871649655204,0.6848684205312835,1.012740444259828,-0.022998663820006652,0.688148930897921,0.9796271271473304,0.0,0.0,0.0,0.0
0.007789762245268874,0.005496512948036014,0.7296916225241601,-0.0012419661991998037,-0.5278669432180062,0.0019287854308142232,0.8493239826852884,-0.018441013658792867,-0.8374907401102863,0.943134263323105,0.08003160799325644,-0.8761063405860378,0.9857844188748506,-0.018455092785807183,0.6837101689924957,1.0165157933559308,-0.017778474157503346,0.6910224205600404,0.9829293881430544,0.0,0.0,0.0,0.0
0.0077882764445648565,0.005522328475462318,0.7296882621000075,-0.0012641446557944108,-0.5278649873422242,0.0019246781275141951,0.8493251748833236,-0.018464265298373434,-0.8374887962155656,0.9430754949267742,0.08002488769482069,-0.8761283759399056,0.985792363790577,-0.018472280492421493,0.6836722978348714,1.0165889451399048,-0.017754054907614166,0.6910567087065681,0.9828344441610019,0.0,0.0,0.0,0.0
0.0077882764445648565,0.005522328475462318,0.7296882621000075,-0.0012641446557944108,-0.5278649873422242,0.0019246781275141951,0.8493251748833236,-0.018464265298373434,-0.8374887962155656,0.9430754949267742,0.08002488769482069,-0.8761283759399056,0.985792363790577,-0.018472280492421493,0.6836722978348714,1.0165889451399048,-0.017754054907614166,0.6910567087065681,0.9828344441610019,0.0,0.0,0.0,0.0
0.008430924699782256,0.005728059279557278,0.7308496482254171,-0.0008746789823099087,-0.5269966442262392,0.0013586038619588766,0.8498658282967417,-0.01771809347876234,-0.8412162587988905,0.952089139091381,0.08100875377134173,-0.8815897016409813,0.9953581117411409,-0.02664630430773869,0.6910154217006713,1.005125502628045,-0.012047972496363617,0.6741155935236776,1.0051059410828878,0.0,0.0,0.0,0.0
0.009501101506716717,0.006095216814976883,0.7323668341737948,-0.0007912435676228602,-0.5266413555056654,0.0011809393267504383,0.850086385014534,-0.01824112994508091,-0.8441485843296745,0.9630492088845575,0.08063654448605315,-0.8837880360336247,1.0045339862701088,-0.031198324998933272,0.7014103532171975,0.9908107352968888,-0.007655063678801334,0.6627455627791047,1.0234049298957322,0.0,0.0,0.0,0.0
0.01061019102193445,0.006686808819670691,0.7338832051270235,-0.0008850860441268826,-0.5265465255371982,0.0012560475757273993,0.8501449261225328,-0.019914988254102924,-0.8466967265189468,0.9739669970997673,0.0790385703209481,-0.8836153115189423,1.0115404437644737,-0.034517587500103024,0.711980658618195,0.9771505416976058,-0.005570086615033059,0.6547329635862987,1.039257264053794,0.0,0.0,0.0,0.0
0.011644310106379185,0.007481956386351356,0.7352860606968905,-0.0010444763316905558,-0.526502602541195,0.0014537758737986504,0.8501716327437947,-0.022407886108958518,-0.8495157896793608,0.9847464987006397,0.07659522988365432,-0.8824618323460832,1.016891842503574,-0.038086643517317935,0.7217362696404435,0.9650521218930881,-0.004928421678028829,0.6487747865292878,1.0536624424548429,0.0,0.0,0.0,0.0
0.012496535954865814,0.008414388030647478,0.736570045691886,-0.0012156041391050945,-0.5264532329737313,0.0016772678044345633,0.8502015658482378,-0.02531808668969813,-0.8521078244752789,0.9943619912487237,0.07370825690744988,-0.8804833994492325,1.0202488572844484,-0.042440093572101344,0.730417930205842,0.9545462795571822,-0.005167205860986086,0.6437915187943138,1.067235574538889,0.0,0.0,0.0,0.0
0.013131019779853979,0.009414096753782204,0.7377561054911052,-0.0013803639355154703,-0.5263978476177918,0.0018879151378310513,0.8502351653485016,-0.028367506369906034,-0.8540503532381616,1.0022278191976084,0.07065040175945578,-0.8776679296181229,1.0215348558381097,-0.04743699773685729,0.7380621078041034,0.9453470465927436,-0.0058358204227132145,0.6391314320818623,1.0803617979930709,0.0,0.0,0.0,0.0
0.013557817632012645,0.010419834007604817,0.7388603099195794,-0.0015291607808462812,-0.5263375160473207,0.0020629425261234056,0.850271853665977,-0.031338527306305486,-0.855197973089254,1.0082335057470453,0.06764178902821748,-0.8741776166039325,1.0210357696548429,-0.05283045547444406,0.7447912149591341,0.9371486327788912,-0.006754522479553773,0.6344409264327692,1.0932627142574145,0.0,0.0,0.0,0.0
0.013814257898209864,0.011391559176681481,0.7398913499066454,-0.0016593087906177965,-0.526273914591873,0.0021992527268294886,0.8503106354750167,-0.03411925608423508,-0.8556253013294148,1.0126037449209349,0.06480129539834742,-0.8702462700606028,1.0192029387039254,-0.058345374802439516,0.7507384465171165,0.9297170035073669,-0.007789836799034869,0.6296121735009188,1.106095919089848,0.0,0.0,0.0,0.0
0.013943618519998735,0.012301325561949053,0.7408555640746046,-0.0017704119250063492,-0.5262113197138814,0.0022988422407254692,0.850348886029107,-0.03664307877279506,-0.855452160439718,1.0156365147766186,0.06220266844194648,-0.8660908583126281,1.0164849333048893,-0.06375186189917541,0.756049796219906,0.922864398437279,-0.008827844326137294,0.6246386757352828,1.1189865054256463,0.0,0.0,0.0,0.0
0.014002384118071825,0.013135087451814983,0.7417591358473179,-0.0018665827057497975,-0.52615577316203,0.0023718700377259394,0.8503828505266279,-0.03890082507129255,-0.8548873407433276,1.0177845830953733,0.05986432958541712,-0.8619361111371402,1.0133894831341352,-0.06884727747227098,0.760904595515168,0.9164243240281725,-0.009784333326237087,0.6196200661970946,1.1320383241180207,0.0,0.0,0.0,0.0
0.014071521460436668,0.013897278083899733,0.7426063037176132,-0.0019568016333826595,-0.5261045729418918,0.002440494113007054,0.8504141304361549,-0.040964829973671534,-0.8543614616183499,1.019833618166271,0.057730901284539504,-0.8581219058376273,1.0106305789597905,-0.07346098216482087,0.7655044421043954,0.910247241847469,-0.010644745047941075,0.6147744577292544,1.1453082546266318,0.0,0.0,0.0,0.0
0.014192802006015576,0.01458289751122801,0.7433983323052017,-0.002045632519799998,-0.5260628637327552,0.0025143559491782068,0.8504395080210275,-0.04284948557273876,-0.8540434489196949,1.0221303883563266,0.05579520865779247,-0.854805330628079,1.0085713244786223,-0.07747511599036758,0.7699701871054194,0.9042581865608531,-0.011360817368176913,0.6102308307548182,1.15880625689238,0.0,0.0,0.0,0.0
0.014381018586876414,0.015183408006215805,0.7441297059766147,-0.002133594079701134,-0.5260349191594255,0.002594770172148121,0.8504563356040058,-0.04453848397219803,-0.85398188958079,1.024771684755119,0.05407581763281497,-0.852065971014191,1.0073649349840086,-0.08082927460153555,0.7743255856387805,0.8984795703644893,-0.011894218621273187,0.6060723825549211,1.172428700417458,0.0,0.0,0.0,0.0
0.014629739401158396,0.015689641406328732,0.7447867908306279,-0.0022185887645504465,-0.5260235522773757,0.002677992352049098,0.8504628908249596,-0.04600049215301738,-0.8541532313564217,1.0276766083490334,0.052602786589177775,-0.8499296996269188,1.0069987042021784,-0.08350577039791246,0.7784953882979518,0.8930448999718454,-0.012204775274488638,0.602369106410054,1.1858969446101368,0.0,0.0,0.0,0.0
0.014908936408524334,0.016093618553335524,0.7453459342185543,-0.0022948932464410304,-0.5260286122939072,0.002754612478720133,0.8504593139140907,-0.047192802971661695,-0.8544691235799841,1.0305823644565533,0.05141402954991967,-0.8483720121259697,1.0072800383191511,-0.08555181151457396,0.7822856349846448,0.8882280894557111,-0.012206529522741622,0.599185400476876,1.198631282437665,0.0,0.0,0.0,0.0
0.015159337830805612,0.016389755380092918,0.7457722214775028,-0.0023519826274298883,-0.5260470172613122,0.0028081176683623856,0.8504475987874606,-0.04806082785110577,-0.8547556476481897,1.0329997942708495,0.05055468463311529,-0.8472981847159566,1.007787657090668,-0.08710583870772007,0.7853635645071964,0.8844729039406776,-0.011678922484456662,0.5966300443354193,1.2095467810066227,0.0,0.0,0.0,0.0
0.015311598381877976,0.016583970659914567,0.7460215400588097,-0.0023745018074501074,-0.5260653254981488,0.0028200743010292385,0.8504361717557819,-0.04857845290982652,-0.85490030113816,1.0344511204367492,0.050042683989713156,-0.8466467781400595,1.0080544799908078,-0.08843327817288534,0.7873017223445545,0.8823579703535932,-0.010209299642842375,0.5950860840426732,1.2167577567240384,0.0,0.0,0.0,0.0
0.015341612757394103,0.0167059264038276,0.7460568309916966,-0.00235057523933136,-0.5260541147024487,0.0027869895237419393,0.8504432819947852,-0.048825166095882534,-0.8551306901594802,1.0350164498334278,0.04980391167583189,-0.8465684225002361,1.0080144887193454,-0.08985237287299064,0.7877813514396278,0.8823606783735628,-0.007308839357452454,0.5956883645758846,1.2173265339071635,0.0,0.0,0.0,0.0
0.015249951921368422,0.016759289805535055,0.7458801315903637,-0.0022835371931150083,-0.5260148230871035,0.002712102921940968,0.8504680098911843,-0.04881650939936418,-0.8554519813207848,1.0347106472715355,0.049822374327170973,-0.8470363337464469,1.0076462419430652,-0.0913412048086533,0.7868050806766981,0.8844750695423332,-0.002995996717915183,0.5984408233382429,1.2112396155884286,0.0,0.0,0.0,0.0
0.015060698375713513,0.0167239741024932,0.7455329490822231,-0.0021890587826323806,-0.525975036108587,0.002604001613324098,0.8504932031402805,-0.04850826993919323,-0.8556660292324885,1.033499169456998,0.050136665640101837,-0.8478680972713134,1.0069843749216758,-0.09258173898974557,0.7846934809505106,0.888205148775624,0.0022068635135688887,0.6022079318486906,1.201404525785772,0.0,0.0,0.0,0.0
0.014849149165771547,0.016612834812421328,0.7450667786314896,-0.0020879815301981094,-0.5259431424396289,0.0024899165178047856,0.8505135222732159,-0.047995731130652856,-0.8559715673452126,1.031998148216142,0.050661220856818956,-0.849103522439667,1.0064968105078689,-0.09334306333353452,0.7818986462025544,0.8929315695880738,0.007837543169058409,0.6066478588048884,1.1896726599249483,0.0,0.0,0.0,0.0
0.014651754556800164,0.016447239916667467,0.7445267776898182,-0.001991805341724634,-0.5259195838211937,0.0023861320867257347,0.8505286182360284,-0.04737075307639719,-0.8564510419497192,1.0305397368036773,0.05130762467862945,-0.8506808078346731,1.0063478129241794,-0.0935900254122538,0.7787351384578304,0.898184729224729,0.01364723810519744,0.6116084813796749,1.1770937002292186,0.0,0.0,0.0,0.0
0.014461475889928379,0.0162555531198319,0.7439473465168834,-0.0019048758950513057,-0.525897580944911,0.002298826574951159,0.8505426627750623,-0.046718270657539675,-0.8570614960865081,1.0291333750913239,0.05198729662266846,-0.8524234221587821,1.0063591794773765,-0.09344490235058052,0.7753353512847436,0.9036917136149912,0.01950150021031588,0.6169535094647709,1.1641846078605853,0.0,0.0,0.0,0.0
0.014227538875659994,0.016068640664562785,0.7433529595286906,-0.001825026785040809,-0.5258652401099049,0.0022234481086780573,0.8505630339956551,-0.04610222128477022,-0.8576077527847369,1.027435355340183,0.05262490390366266,-0.8540303705249724,1.0060065505022653,-0.0931529633752961,0.771658811422008,0.9093528549616224,0.02531620674219401,0.622486864031357,1.15113700080633,0.0,0.0,0.0,0.0
0.013848634796090262,0.01591003753633809,0.7427627343819215,-0.001744329256359311,-0.5258161068401427,0.002142169023749491,0.8505937868423414,-0.04553041191477198,-0.8576113865833658,1.0245917067015151,0.053189021114289664,-0.8549861258005615,1.0043212590101127,-0.09302470139446058,0.7675261633625687,0.915189901218487,0.031078291112352722,0.6278924856434478,1.137997748252758,0.0,0.0,0.0,0.0
0.0132638535578412,0.015830163758120595,0.7421923713318873,-0.0016608135138373708,-0.5257296953896949,0.002053860462029412,0.8506475831630472,-0.0451279074639627,-0.8569450753434618,1.0202794564784188,0.05354383024808875,-0.8549724659281476,1.000678727885941,-0.09342086118478132,0.7627977012535947,0.9212470571057044,0.0367148805011335,0.633007836963083,1.1247330151281987,0.0,0.0,0.0,0.0
0.012399351835835301,0.015875696409219354,0.7416547520871195,-0.0015707846787303946,-0.5255917901036556,0.00195293854624961,0.8507332066177753,-0.04499691329833489,-0.8553742637156097,1.0140040262190537,0.05357238085068745,-0.8535885944111451,0.9943073794478652,-0.09471159073037679,0.7573087923283034,0.9276099940980294,0.04223568886582181,0.6376174991652318,1.1113137358363516,0.0,0.0,0.0,0.0
0.011180517024202212,0.016085507739470983,0.7411558895106393,-0.0014666125816525683,-0.5253909180445412,0.0018278696898491116,0.8508577385064124,-0.045204712953649626,-0.8526268269716704,1.0052042426598515,0.053193107906746105,-0.8504449756771786,0.9844225144970622,-0.09726415674537665,0.7508831934289585,0.9344024582782854,0.04775510064297358,0.6414682747006526,1.097734237992841,0.0,0.0,0.0,0.0
0.00955525731871557,0.01648233116270542,0.7406928589544561,-0.0013390339241879108,-0.5251240277203998,0.0016642384477184586,0.8510230271909474,-0.04576965250966053,-0.8484574976453672,0.993400673856658,0.05237841229751733,-0.8452447151216954,0.9704104684637415,-0.10134302415537833,0.7433971401357957,0.9417488488150294,0.053572943091276734,0.6443728396135191,1.0841063341362047,0.0,0.0,0.0,0.0
0.007532713357176866,0.017062256890592688,0.7402502110486712,-0.0011786597178100613,-0.5247985867789537,0.001449201508341135,0.8512243851600297,-0.046648585509197156,-0.8428123705726445,0.9785086415153517,0.051175904002742106,-0.8379763396789437,0.9521981617107603,-0.10700631926786507,0.734871791288181,0.9497266280031755,0.060326125949619516,0.6464220256094125,1.0708182301119753,0.0,0.0,0.0,0.0
0.005240526692783057,0.01778715453338021,0.7397869088205564,-0.000971994458956833,-0.524413411095141,0.00117785951855474,0.8514624138136015,-0.047747679504754725,-0.8362606810117725,0.96149562827156,0.04971553431921078,-0.8293858621481969,0.9309856530333753,-0.11407123076905651,0.7255213389327742,0.9583782455927596,0.06930853377669884,0.6483667795529732,1.0586921189209106,0.0,0.0,0.0,0.0
0.0030078416657065583,0.018550869605626134,0.7392365635801037,-0.0006779893682203611,-0.5238973970486609,0.0008177762816178614,0.8517807164628743,-0.048775179898414775,-0.8306833075312674,0.9454592102581505,0.04838743562206017,-0.8219977692870328,0.9107309499325873,-0.12232270897999067,0.7159400929521957,0.9674678371556376,0.08271842868663451,0.6519181536593328,1.048778097505455,0.0,0.0,0.0,0.0
0.0012367658482651182,0.019186787271076443,0.7386115821597155,-0.00025603805641202473,-0.5232075436784328,0.00036005846906412924,0.852205181303419,-0.049356806317979625,-0.8279548074518379,0.9340093765640289,0.04766043574081405,-0.8185971301724839,0.8964088003632424,-0.13103829427394675,0.7073047654313359,0.9758773359722062,0.10374565658808588,0.65823574624974,1.0425278595323733,0.0,0.0,0.0,0.0
0.00013832315907869952,0.019591967887570488,0.7381183013831346,0.00020728359435278568,-0.5224960618846595,-0.00011854763257120057,0.8526416646487506,-0.04938051162475312,-0.827715162252508,0.9281396193459989,0.047630313071216956,-0.8189248407370388,0.8895149220226605,-0.1386637405122944,0.7013361640959638,0.9814987045884619,0.12981286844171594,0.6648187495832355,1.0413669766904046,0.0,0.0,0.0,0.0
0.0001494421427572398,0.01959365108475249,0.7381015681698607,0.00022367853548271692,-0.5224952844810048,-0.0001230779305141271,0.8526421362534516,-0.049379668640869644,-0.8277185657359497,0.9281170464041377,0.04763863874868246,-0.8189391190911683,0.8894703220319248,-0.13863200901574352,0.7013153066800446,0.9814875195105722,0.1297880026540355,0.6648024388272621,1.0413497442295496,0.0,0.0,0.0,0.0
0.0001494421427572398,0.01959365108475249,0.7381015681698607,0.00022367853548271692,-0.5224952844810048,-0.0001230779305141271,0.8526421362534516,-0.049379668640869644,-0.8277185657359497,0.9281170464041377,0.04763863874868246,-0.8189391190911683,0.8894703220319248,-0.13863200901574352,0.7013153066800446,0.9814875195105722,0.1297880026540355,0.6648024388272621,1.0413497442295496,0.0,0.0,0.0,0.0
-0.0007019842169119473,0.019667506538944245,0.7381456014506939,0.00012744010519501994,-0.5225568838826437,-8.284301961729702e-05,0.8526044100301821,-0.04950590041337504,-0.8231558823177216,0.9196571942318151,0.04730632695264519,-0.813460117472415,0.8798001656254071,-0.13743557454484479,0.6987601745158752,0.982060684889977,0.12948983186880622,0.6626308487428322,1.0416099106545917,0.0,0.0,0.0,0.0
-0.001876104331613298,0.019811312701544275,0.7381233923281137,1.9446498531799382e-05,-0.522653532323602,-3.943112414715794e-05,0.852545179575066,-0.04977507780221459,-0.8170619935839601,0.9080656415163566,0.04676123566167144,-0.8060225902601011,0.8663375262975042,-0.13651646873439985,0.6949993179965339,0.9838397607423388,0.1285741066813304,0.6592196671715886,1.0425687597225404,0.0,0.0,0.0,0.0
-0.0027523969204279832,0.019986714708777283,0.7380707060299853,-6.543629849029645e-05,-0.5226989308878558,9.022178709261288e-06,0.8525173448589675,-0.05019332170138933,-0.8128713247329038,0.899703355374884,0.04614963134156512,-0.8004707114621556,0.8560472618928906,-0.13619086291293264,0.6919543529062558,0.9856172383779223,0.12752070110659747,0.6564458222985138,1.0433305443766816,0.0,0.0,0.0,0.0
-0.003180383249238314,0.020139265930091296,0.7380174485008671,-0.00012415014844049387,-0.522743308025366,4.55433416222167e-05,0.8524901268796267,-0.05058818491749367,-0.8109126491872691,0.8957057452085324,0.04566011019607537,-0.7974640419280973,0.8505519721825406,-0.13636746092844435,0.6903988662060248,0.9869644754996294,0.12677145674770487,0.6550595973949596,1.0437919351345153,0.0,0.0,0.0,0.0
-0.0031350020489385533,0.02026447218590626,0.737962991584835,-0.00016465970000333383,-0.522815709638721,7.030420078487044e-05,0.8524457177436362,-0.050944673193548104,-0.8112004210737196,0.8962538424988411,0.04530543163772047,-0.7970363735868422,0.8500859874753303,-0.13701575673349198,0.690472651790037,0.9879362470556619,0.12645846985538792,0.6552281663380741,1.044037011130856,0.0,0.0,0.0,0.0
-0.002595808542754309,0.020371974007221304,0.7379038840123353,-0.00019367761184139478,-0.5229274957551933,8.887321010649313e-05,0.8523771399877742,-0.051300392712193534,-0.8138250690255597,0.9015456340299043,0.04505013142851334,-0.7992179662601734,0.8547811580151712,-0.1381664823670266,0.6922455968034861,0.9885971165869336,0.1266225176373391,0.6570519951716621,1.0440826018156644,0.0,0.0,0.0,0.0
-0.0015417137284454274,0.020481478999516543,0.7378431014348767,-0.0002174769117520837,-0.5230810131670507,0.00011073828337062335,0.8522829307835263,-0.051730132297546375,-0.8188904853067976,0.9117744229920047,0.04482400351256219,-0.8039928984688632,0.8646752902515943,-0.13989990069212077,0.6958067107536822,0.9889356557396003,0.12725477770162386,0.660653409447926,1.0438195170080737,0.0,0.0,0.0,0.0
4.676986991790496e-05,0.02062184785653796,0.7377918776776765,-0.00024247307066063863,-0.5232720023592663,0.00014977793983561957,0.8521656707004236,-0.05234472141527299,-0.8264806214285138,0.9270860901931111,0.044522039175915976,-0.8112700493979959,0.8796808399802842,-0.14233571750929405,0.7012719633973772,0.9888501339171158,0.12831066850240272,0.6661876874241999,1.0430050864436728,0.0,0.0,0.0,0.0
0.002179790735731647,0.02083213048503464,0.7377684957705604,-0.00027620960561497275,-0.5234933051346009,0.00022664321628459123,0.8520297129914883,-0.053299662900251205,-0.836608054687968,0.9474901966581741,0.04399353183263355,-0.820822752651243,0.8994929235229672,-0.14562134521743006,0.7087597309977768,0.9881751081196025,0.1297216453715015,0.6738293083366741,1.0412855397264946,0.0,0.0,0.0,0.0
0.004841898794293182,0.021159773836049476,0.7377824343926639,-0.0003341508071615142,-0.5237433990228627,0.000410351800271092,0.8518759134607671,-0.05489909832340643,-0.8491960920932917,0.9727232066592423,0.0429339539184984,-0.8321612155827346,0.9234001697191129,-0.14956824574982797,0.7181700947213142,0.9868256063191699,0.13176792734582257,0.6837955554960895,1.0384077692927391,0.0,0.0,0.0,0.0
0.007441689671462467,0.021384000132761757,0.7375936132218928,-0.0004778452414313839,-0.5234777297932007,0.000494351126118132,0.8520390799085721,-0.04754824453194012,-0.8418128290511644,0.9423571505148698,0.042510233488318526,-0.84671527278658,0.9494336322078392,-0.15220721598432796,0.7249845768616471,0.9858854016577542,0.13381700321212936,0.6910772012392129,1.0363684039039505,0.0,0.0,0.0,0.0
0.009912499172840459,0.021782619947784684,0.7372658494284258,-0.0006308013421666276,-0.5232636298749068,0.0006597867435854223,0.8521703705370518,-0.04149963967035618,-0.8428903144696895,0.9214487961432832,0.04140212120463848,-0.8598751330107008,0.9727263053640856,-0.15564651676660163,0.7308984034987297,0.9868180735136282,0.1352602109841959,0.6976489584084786,1.03521783180159,0.0,0.0,0.0,0.0
0.012018170241799374,0.02227665838583736,0.7369363040749238,-0.0007917880176745337,-0.5231779538043452,0.0008566543772337682,0.8522226633152344,-0.036934979329366346,-0.8487027662262027,0.908143025779246,0.0399004135416591,-0.8699709774686484,0.9910214866964444,-0.1595239713117754,0.7360890716389539,0.988572979192103,0.13612571427374573,0.7034918605955103,1.0343384585406685,0.0,0.0,0.0,0.0
0.013675133854829019,0.02280798620771274,0.7366619914938293,-0.0009514340999153225,-0.5231892350816186,0.0010588299024039897,0.8522153471670774,-0.03346512278253749,-0.856723800945607,0.8993465936312722,0.03821557620472492,-0.8769556991268037,1.0042151471725735,-0.16345371000516312,0.7404344093572272,0.9905428980558311,0.1364094509991147,0.7083938449983246,1.033452023127131,0.0,0.0,0.0,0.0
0.014896568098182355,0.023321333815938552,0.7364502541484385,-0.0010977862296958263,-0.5232613301158843,0.0012451276464190413,0.8521706548150397,-0.03064327498012064,-0.8657105472831128,0.8930058648506357,0.03655391819755767,-0.8813584997229366,1.013048875647204,-0.16712949371900085,0.7438680962165696,0.9924791233941276,0.13622873678272496,0.7122440656373563,1.0326117520422597,0.0,0.0,0.0,0.0
0.015742414903032596,0.02377239717064463,0.736293418375525,-0.0012204622475042045,-0.5233663590636344,0.0014000861031696304,0.8521057472117419,-0.028110871539349783,-0.8750906782262005,0.8878740552908272,0.03508345617656339,-0.8838342080213538,1.0184991256775031,-0.17034271088058817,0.7464402699734426,0.9942482194597165,0.1357580139590694,0.7150787122727882,1.0319250088697702,0.0,0.0,0.0,0.0
0.016287153793825147,0.024131997323567855,0.7361775221091548,-0.0013128523957065738,-0.5234849648364759,0.0015144473298513777,0.8520325548111561,-0.0256263923849744,-0.8846160445465661,0.8832254887103704,0.03391643223489409,-0.884992690961243,1.0215035653304756,-0.1729803057960785,0.748257668380524,0.9957964812925356,0.13517173923495424,0.7170101617044415,1.0314963673171051,0.0,0.0,0.0,0.0
0.01660373598897066,0.024389629074379773,0.7360872684445727,-0.001373387250246212,-0.5236044777162494,0.001586199917549533,0.8519588890860732,-0.02305434168115404,-0.8941907062898811,0.8786549471682439,0.033095692757331936,-0.8853277694307666,1.0228462232874074,-0.1750213300690437,0.7494437086333037,0.9971331675121401,0.1346004119708001,0.7181821995805251,1.0313929410477034,0.0,0.0,0.0,0.0
0.01676136221114567,0.024562210054569926,0.7360271699897676,-0.001407479900387948,-0.5237187488103074,0.0016258226826699816,0.851888518437419,-0.020373597820112013,-0.9037703520561081,0.8739752883747819,0.03255831698471481,-0.8851243472738186,1.0231001690646468,-0.17653663525555513,0.7502126915294773,0.9981632592961522,0.1340944560994492,0.7188581532842763,1.0314403829973904,0.0,0.0,0.0,0.0
0.016814965194219135,0.024669692832468063,0.7359924538092133,-0.001421549232449746,-0.5238240893673485,0.0016430326711793948,0.8518236924621722,-0.017589424746429317,-0.9133541043240722,0.8690905933098176,0.03223390864686361,-0.8846071977190428,1.0226964943338446,-0.17762986105657372,0.7507066479844516,0.9989059064015591,0.1336705499488841,0.7192166352778075,1.0315551849616578,0.0,0.0,0.0,0.0
0.016806074400110033,0.02473217988757651,0.735973528784615,-0.0014217384964109608,-0.5239182134111576,0.0016461232965847559,0.8517657979713678,-0.014725386526599351,-0.9229502169987043,0.863948523382093,0.032054005493509174,-0.8839485609082971,1.0219476996592196,-0.17841725834625885,0.7510121984053816,0.9994442584866536,0.13331817533885645,0.7193680702001187,1.031712825255983,0.0,0.0,0.0,0.0
0.016774741007116307,0.024771399183530628,0.735965646472564,-0.001414681271580657,-0.5239997642403773,0.00164387251090001,0.8517156470536964,-0.011821449222957813,-0.9325654305189571,0.8585463791821704,0.03194454900933651,-0.8832896895381201,1.02113851831655,-0.17902203566918723,0.7512367859140345,0.9998241586425431,0.1330167391580745,0.7194420350157904,1.0318444508885478,0.0,0.0,0.0,0.0
0.016756219336261424,0.02480824559589459,0.7359661651776819,-0.0014067139871015778,-0.5240671904989468,0.0016444046266688164,0.8516741729861972,-0.008933103768247214,-0.942138221663086,0.8529277500518877,0.03183502511456487,-0.8827483020012217,1.0205149402746763,-0.17956075795401769,0.7514811040618024,1.0000759308069869,0.13273771996183845,0.7195577488726238,1.0318702435270615,0.0,0.0,0.0,0.0
0.016771937002849086,0.02485877570047554,0.7359693827790758,-0.0014026756802424326,-0.5241181821948766,0.001653189951718099,0.8516427834231073,-0.0061298073261159165,-0.9514277237014032,0.8472121854153166,0.03167319056258871,-0.8824083781595587,1.0202275289391853,-0.18012283211460242,0.7517844200762694,1.000262546409221,0.13244572819763362,0.719764479665927,1.0317660312127275,0.0,0.0,0.0,0.0
0.016829322301737688,0.024932589473256744,0.7359700175436491,-0.0014058232224603714,-0.5241504863678683,0.001673144572594115,0.8516228577772167,-0.003482573519483828,-0.9598983277322692,0.8416898631046154,0.03142871942375646,-0.882306056855541,1.0203248293350033,-0.1807541000467145,0.7521399574305104,1.0004442497203463,0.13211276372437394,0.7200611792307225,1.0315387087225205,0.0,0.0,0.0,0.0
0.016919640288263718,0.02503016403995458,0.7359643587241474,-0.0014172081963366259,-0.5241629731115334,0.0017041370783255896,0.8516150920789417,-0.0010296726933540076,-0.9666252183342636,0.8369243262212177,0.03110079773446481,-0.8824162770395108,1.0207356249977908,-0.18144025838997946,0.7524952674424537,1.0006652618874632,0.13173183363992938,0.7203982150068297,1.0312281551463585,0.0,0.0,0.0,0.0
0.017018820685719853,0.025141159032847426,0.7359516108825888,-0.0014352046331336135,-0.524158095112432,0.0017428929521093798,0.8516179858598134,0.001264108717162535,-0.9703496464418081,0.8338095731901832,0.030722405912325227,-0.8826426145189039,1.0212680746199378,-0.18210172106434655,0.7527689176383593,1.0009402726037866,0.13133224576238992,0.720695510658971,1.0309039556703554,0.0,0.0,0.0,0.0
0.017099405759897105,0.025249316710828796,0.7359352709909098,-0.001456603111356856,-0.5241447165647178,0.0017851742965088989,0.8516260960993378,0.003490397873764444,-0.9699210965180085,0.8333845097557124,0.030342974496242833,-0.8828383754442078,1.0216830696329608,-0.18263293550179377,0.7529074709669208,1.0012446418432839,0.1309809631188865,0.7209031280198205,1.030630752377921,0.0,0.0,0.0,0.0
0.017157806129113575,0.025352855362562272,0.735915636103368,-0.0014808834570455706,-0.5241230147892905,0.0018303081628673118,0.8516393146892649,0.0056444348807656005,-0.9653414329954053,0.8356279963588717,0.029968456792912164,-0.8829903800813853,1.0219542067204015,-0.1830216359497539,0.7529001414174274,1.0015760816701618,0.13068060784276236,0.7210095073788215,1.030415752996622,0.0,0.0,0.0,0.0
0.017215257665753693,0.025465548405038656,0.7358896708458975,-0.0015105361490373775,-0.524084818117065,0.0018809725802405447,0.8516626583582831,0.007621238809346384,-0.957771594905942,0.839488940595571,0.02955913290445522,-0.8832187080003818,1.0222699050726407,-0.18336186203686985,0.7527850984538448,1.0019581053504774,0.13036189042379268,0.7210441427447362,1.0302054124013902,0.0,0.0,0.0,0.0
0.01729010996638029,0.02559697074182736,0.735858213663218,-0.001546883220410245,-0.524029271316649,0.0019387334832761608,0.8516966427479475,0.00937247809770199,-0.9484751973656291,0.8440741676225685,0.02908768643171211,-0.8835869137472903,1.0227646207567673,-0.18374088008843611,0.7526347197350937,1.0023843165685966,0.1299817702414932,0.7210681054631544,1.0299399775806344,0.0,0.0,0.0,0.0
0.017384753968192626,0.02574743501502193,0.7358246117491597,-0.001588941851533514,-0.5239597638941166,0.002002367320209748,0.8517391805059392,0.0109253495887239,-0.938374414586434,0.8488178132524629,0.028555742385484528,-0.8840777564472507,1.0234383009330374,-0.18419036562769944,0.7524911814640642,1.0028287726661087,0.12952637259995453,0.7211103099385813,1.029590441637566,0.0,0.0,0.0,0.0
0.01748452682289779,0.02590983519363415,0.7357933754153794,-0.0016340259153705852,-0.5238809436446022,0.0020684943738502664,0.8517874195926906,0.012337487190898888,-0.9280001972721403,0.8534258816021357,0.027987952953017446,-0.8846045169079502,1.0241573663237344,-0.18468403055712926,0.7523444999807175,1.003259246604348,0.1289992458126214,0.7211483070810869,1.029161617013775,0.0,0.0,0.0,0.0
0.017560110890735232,0.026072969176086116,0.7357679300024694,-0.0016785346550560257,-0.5237967907349868,0.002132554355482802,0.8518389265284025,0.013659785163274242,-0.9175901502028588,0.8577713034879865,0.02742159262272312,-0.8850317047533582,1.0246778028682746,-0.1851528512655173,0.7521237976336149,1.0036603272201845,0.12840711227307264,0.7211007681410379,1.0286966620176914,0.0,0.0,0.0,0.0
0.01757411419454135,0.026225862988343937,0.735750908520105,-0.0017190123265718056,-0.5237097614633462,0.002190450825837264,0.8518922071892697,0.014924502058793478,-0.9072151009491413,0.861811460592834,0.026891948539633382,-0.8851972287741836,1.0246922956658149,-0.1855083784682701,0.7517177918684427,1.0040319246229472,0.12774983208135796,0.7208509197355019,1.028253021781623,0.0,0.0,0.0,0.0
0.017493301931815922,0.026363252424903977,0.735751894578092,-0.0017540638468720047,-0.5236225179868862,0.002241430980125361,0.8519456308381747,0.01614818958559365,-0.8968875252699842,0.8655741928165764,0.02641176719213252,-0.8849159401037778,1.023897589146756,-0.18566850222963244,0.7510545878265491,1.004318658619009,0.12702423763003848,0.7203354918507316,1.0278064901399393,0.0,0.0,0.0,0.0
0.017278159950947475,0.026483451732852763,0.7357770960992432,-0.0017833369715216365,-0.523536880012244,0.002286612937349572,0.8519980788579079,0.017347180537830444,-0.8865923929018836,0.8691202724336378,0.025979711130108663,-0.8839768890946695,1.0219270706023678,-0.18555069545327899,0.7500191826486506,1.004510781945276,0.12621492196701434,0.7194561282276827,1.0273590034858633,0.0,0.0,0.0,0.0
0.016886843938706084,0.026589403626979438,0.7358314353704186,-0.0018082966554417085,-0.5234553552402537,0.002330233922035746,0.8520479981452772,0.018553924362087058,-0.8763147686567018,0.8725813607566864,0.02557474523838169,-0.8821392651217329,1.018366493222175,-0.18507433180672386,0.7484801102932869,1.0046235515872493,0.12530794735101444,0.7181124490687122,1.0269146092171029,0.0,0.0,0.0,0.0
0.01628152309136809,0.026688574747661897,0.7359181219353285,-0.0018326383448645928,-0.5233817043169857,0.0023804542044886983,0.8520930503534956,0.019832797987270775,-0.866059088610928,0.8762071341781584,0.025154897769546453,-0.8791555614541459,1.012802003802751,-0.1841632065258567,0.7463111678939315,1.0046917019710613,0.1243094817878019,0.7162284671503243,1.0264760444114536,0.0,0.0,0.0,0.0
0.015439848755811605,0.02679079607525224,0.736036998008299,-0.0018623716454934005,-0.5233216183569581,0.002449416456422502,0.8521296941728597,0.021278879135056085,-0.8558892425069895,0.8804310713832524,0.024663743753327232,-0.8748273377272937,1.0049221427735255,-0.18274778193999433,0.7434269185771105,1.0047639775033013,0.12327758839210802,0.7137904961181837,1.0260523080177986,0.0,0.0,0.0,0.0
0.014373971367644985,0.026902745824954975,0.7361803205720591,-0.001905174728843054,-0.5232835238961788,0.0025516816908142444,0.8521526933881032,0.022973444703085422,-0.8460356157088837,0.8859451206519657,0.024050265492956562,-0.8691162812851673,0.9947080377929879,-0.18076947343560376,0.7398351514662317,1.0049057955043723,0.12236853163133513,0.7108952405099584,1.0256914168917575,0.0,0.0,0.0,0.0
0.013157750248642642,0.027017356265178004,0.7363177611961158,-0.001967977422655184,-0.5232769990257585,0.0026994642223831895,0.8521561020425613,0.02486308033843149,-0.8371364550079458,0.8937226050464327,0.023310018377278436,-0.8623679426526893,0.9827626416057428,-0.1781912072243754,0.7356646397866428,1.0052799269298751,0.12188899820574303,0.7077577927994847,1.0256138706252629,0.0,0.0,0.0,0.0
0.011982276352663013,0.02710258805620416,0.7363781713512395,-0.0020550958118983865,-0.523295365261844,0.002898099618624822,0.8521439657095964,0.02654941953277545,-0.8306890785971168,0.9047964364472337,0.022528664533094735,-0.8557917009940718,0.9710280845927628,-0.17498955270784347,0.7312111384876389,1.00619939442662,0.12235924196310405,0.7047446173996409,1.0263235225115734,0.0,0.0,0.0,0.0
0.011322623224152095,0.027090185102492344,0.7363200672701272,-0.002168232638803481,-0.5232640867333813,0.0031328666822802594,0.8521620617280821,0.027302145207535745,-0.8295531702363316,0.9192446253774841,0.021955584728191514,-0.8524393948705439,0.9646768216916991,-0.17119578301842536,0.7276607858644522,1.0071816135199325,0.12454599623081554,0.7030435911700652,1.0277337128309187,0.0,0.0,0.0,0.0
0.011322572986530126,0.02708480837715219,0.7363178296451838,-0.002161318069454484,-0.5232599836792812,0.0031374671604490075,0.8521645818056381,0.027309463235139362,-0.8295511653167361,0.9192583560050284,0.021954899098510713,-0.8524464056134569,0.9646511979436171,-0.1712123357112618,0.7276570275850323,1.0071541494079685,0.1245633915895858,0.7030333336661865,1.0277458088213418,0.0,0.0,0.0,0.0
0.011322572986530126,0.02708480837715219,0.7363178296451838,-0.002161318069454484,-0.5232599836792812,0.0031374671604490075,0.8521645818056381,0.027309463235139362,-0.8295511653167361,0.9192583560050284,0.021954899098510713,-0.8524464056134569,0.9646511979436171,-0.1712123357112618,0.7276570275850323,1.0071541494079685,0.1245633915895858,0.7030333336661865,1.0277458088213418,0.0,0.0,0.0,0.0
0.012297635400799093,0.027702339523495885,0.7371933178939664,-0.001257177988612067,-0.5238307600073157,0.0019718972763132798,0.851819150990863,0.02834549109992384,-0.8266044961901108,0.9241363459281131,0.022991507309748464,-0.852634128590434,0.9696747134402932,-0.1319114972102679,0.7075590864008672,1.0211182045290896,0.10498286694351998,0.706643200150622,1.0169511603576664,0.0,0.0,0.0,0.0
0.013827693725639573,0.02843445133123186,0.7382696998905344,-0.000612257379707328,-0.5243187487194659,0.0011487707204086617,0.8515210832433843,0.02833024939190207,-0.8274120165759867,0.9356128725619943,0.02297381947016619,-0.8542339664453467,0.9790001831818419,-0.10192426781363917,0.692030815317812,1.0340874766786148,0.08918145850699649,0.7140300065321553,1.0032436197948196,0.0,0.0,0.0,0.0
0.015458358159779792,0.02905279741696348,0.7392346946260352,-0.00022042528502350063,-0.524671264624929,0.0006496394952970833,0.8513046419808232,0.027891896967375877,-0.8303081416303855,0.9489643650350242,0.02252699410052492,-0.8567950736741092,0.9897390217118065,-0.08305124478076234,0.6816434457132432,1.0468689178469004,0.07838588497042677,0.7222985312282929,0.9905189305566087,0.0,0.0,0.0,0.0
0.01696570988320189,0.029484031370857505,0.740063616545264,2.5690795436568826e-05,-0.5249359862744253,0.00033849570313664826,0.8511416421928482,0.027512251547583445,-0.8334528807414324,0.9612647674748854,0.02213791449092954,-0.8595343732299672,1.0000825386066907,-0.07087625643178208,0.6744883292509276,1.059803691397747,0.07135454976251249,0.7302554423630369,0.9795908959937494,0.0,0.0,0.0,0.0
0.018236046534713213,0.029735120906840856,0.7408012589938306,0.00019930204594056754,-0.5251428898356025,0.0001165818750198978,0.8510140374532451,0.027389233152613542,-0.8358030307710963,0.9711506029765823,0.02200861393661521,-0.8618561263264087,1.0089810058867952,-0.06232903231039334,0.6689487943555446,1.0728647162893516,0.06678540793411375,0.7374055429141269,0.9702458098537584,0.0,0.0,0.0,0.0
0.019251811303347133,0.029847029653529002,0.7414944000362661,0.0003375369844510321,-0.525304632799831,-5.410337869937586e-05,0.8509141707015128,0.027496314088711105,-0.837103351086247,0.978497585291562,0.02211357996121225,-0.8635174581151103,1.016162863165511,-0.05547152601457762,0.6640769416526426,1.0859338990843344,0.06384172631070906,0.7437311563098783,0.9620004952059328,0.0,0.0,0.0,0.0
0.02003867486028138,0.02985976715605884,0.7421706230414025,0.0004597135172800246,-0.5254278455114675,-0.00019733772813715635,0.850838015654261,0.02778369296356728,-0.8374192144102073,0.9836329963959147,0.02240292990274444,-0.8645177347937018,1.0217524360465247,-0.049348784546253265,0.6594056603724527,1.0989694549267899,0.061915683617693375,0.7493233741052797,0.9544597120897156,0.0,0.0,0.0,0.0
0.02063749729210118,0.02980875687426624,0.7428422951987907,0.0005747103346725458,-0.5255187806200661,-0.0003254154359930403,0.8507817434738619,0.028189203491365174,-0.8369379524964601,0.987017842303725,0.022813823976832723,-0.8649426115583781,1.0260015579309074,-0.043523205078394744,0.6547255600956718,1.1119733551106268,0.06058782316774148,0.7543080702780965,0.9473512967529404,0.0,0.0,0.0,0.0
0.021088305649423496,0.029724841393254778,0.7435119560095615,0.0006856629899117236,-0.5255848459129402,-0.0004438980173845831,0.8507407963460347,0.028647790496203574,-0.8358628936943,0.9890890118501132,0.023280250754596575,-0.8648818721683054,1.029148291379852,-0.037827256669010524,0.649949498639962,1.1249682938009402,0.05956186658205186,0.7588007989576883,0.9405077832748746,0.0,0.0,0.0,0.0
0.02143719701053489,0.02962756200092226,0.7441767134015634,0.000794196988531997,-0.5256328067484954,-0.0005568971062673576,0.8507110035649329,0.029121255927740636,-0.8344175196013489,0.9903004581175873,0.023763095873473864,-0.864488261920573,1.0315200992639473,-0.03219815496241389,0.6450851879279473,1.1379892551571555,0.05865614628924508,0.7629280211931783,0.9338369909905474,0.0,0.0,0.0,0.0
0.02173465200206113,0.02952613335450341,0.7448301584386705,0.0009018669291409328,-0.5256677368869941,-0.0006684963899080791,0.8506892324137673,0.029598743880644353,-0.8328385711793287,0.9911167921502393,0.024250763845174786,-0.8639731254787394,1.0335246399368474,-0.026599987002922355,0.6402087449640312,1.1510638566665579,0.05777532717911927,0.7668189042306663,0.9273034931935851,0.0,0.0,0.0,0.0
0.022008789734629792,0.029435245245054156,0.7454625055994583,0.0010077299904969709,-0.5256959906871777,-0.0007787885804581699,0.8506715602064289,0.030045114362058374,-0.8312859538132218,0.9918268730021845,0.024707247531649084,-0.8634284075151036,1.035343866809577,-0.021050108021037576,0.6353768439863708,1.1641775387634277,0.05682178977545513,0.77052613070129,0.9209242010354968,0.0,0.0,0.0,0.0
0.022274114396695348,0.029371499648381608,0.7460595524292435,0.0011096056617314726,-0.5257223683801966,-0.0008859019288863921,0.8506550272218255,0.030415520454475844,-0.8298906283406543,0.9926243963522858,0.02508670963371233,-0.862900063422949,1.0370455932346625,-0.015583091688205944,0.6306509857467029,1.1772294921889632,0.05570197613310526,0.7740356955716471,0.9147733223835146,0.0,0.0,0.0,0.0
0.0225341237313209,0.029351460004353527,0.7466012561208467,0.0012044618307876958,-0.5257501717479184,-0.0009867671025309572,0.8506376034889463,0.03066242567567074,-0.8287650178739482,0.993625145403237,0.025340563593241026,-0.8624106174316282,1.0386167410520974,-0.010254338113372986,0.6261078264330971,1.1899680149031027,0.054335062602519385,0.777266724408536,0.9090005224371274,0.0,0.0,0.0,0.0
0.02277960895447899,0.0293896236862112,0.7470591103067545,0.001288301159534155,-0.5257809021330228,-0.001077132055705244,0.8506183768405439,0.03074089246696428,-0.8280013089217749,0.9948501893133114,0.025422878983038886,-0.8619663773333764,1.039960767151242,-0.0051674090958048185,0.6218575587314892,1.2018602881004699,0.05267015717605728,0.7800526803783279,0.9038679036758966,0.0,0.0,0.0,0.0
0.022984291001444862,0.02949568192251074,0.7473934103729812,0.0013556431855915867,-0.525813283951775,-0.0011509921850928568,0.8505981588672721,0.03061428136679224,-0.8276618806596923,0.9961877355534159,0.025296250251671665,-0.8615568940670609,1.040876485950594,-0.0005263580849637611,0.6181076744005215,1.2118690785203987,0.050715882779855774,0.7821139614373468,0.899794333992073,0.0,0.0,0.0,0.0
0.02310252315980787,0.02967179903764473,0.7475554068331748,0.0013987100172280279,-0.5258433388542433,-0.0011996343028208294,0.8505794421865888,0.03025894541121927,-0.8277581202834774,0.9973612323129649,0.024936665246836204,-0.8611399756776135,1.041040702482055,0.003291555546809901,0.6153399848992783,1.2181335554976338,0.04857606701092124,0.7830677261419525,0.897348955518476,0.0,0.0,0.0,0.0
0.023111967338593588,0.02989820593862497,0.7475052965878639,0.0014119226923617653,-0.5258605834766683,-0.001218072234150406,0.850568732978071,0.029717620360253064,-0.8283528220774872,0.9982335295224128,0.024387407044501142,-0.8608358592949349,1.040427575688604,0.005845813157877875,0.6147224201913571,1.2177156142597645,0.046491784545216304,0.7826386056561361,0.8970371409866986,0.0,0.0,0.0,0.0
0.0230111410032473,0.030172356454456626,0.7472423978376436,0.001395441365261752,-0.525865135736814,-0.0012064330088515892,0.8505659623329007,0.028996867030142943,-0.8294345800124919,0.9987816701021133,0.023655441255137483,-0.8606434859791785,1.0390308577627057,0.007145923215466585,0.6162608419983543,1.210629174353203,0.04448274378494847,0.7808178091201435,0.8988806112188127,0.0,0.0,0.0,0.0
0.022817463002374354,0.03051069199370462,0.7468051464083167,0.0013549416379350344,-0.5258669608288211,-0.001170147941403525,0.8505649501335052,0.028063087165223093,-0.8309162500123165,0.9990883924096582,0.022707418029807924,-0.860432024798526,1.0368439813352308,0.007643050389090977,0.6187985210983472,1.1998263397902496,0.04233220124997314,0.7778558173026185,0.9024063128650054,0.0,0.0,0.0,0.0
0.0225659734215618,0.030911715410671583,0.7462414771664395,0.0012976972387139705,-0.5258687094111477,-0.0011176314580669975,0.850564028950234,0.026936789950328235,-0.8327486320833195,0.999342144512545,0.02156482457866982,-0.8601997530831722,1.0340959529975258,0.007721168071829385,0.6218511304513662,1.1871727466511266,0.03993440884072977,0.7740951349440036,0.907058153710095,0.0,0.0,0.0,0.0
0.022261442145851813,0.031373272903869556,0.7455902251158948,0.0012277227340362323,-0.5258683921116909,-0.001053305735016292,0.8505644110952338,0.025630596008234457,-0.8348128500247283,0.9995078317406578,0.020241350037526237,-0.8598586498563747,1.0307840677664724,0.0075808191834155466,0.625185661415429,1.1736883528152628,0.03723607098379714,0.7697335212205069,0.9124197815340608,0.0,0.0,0.0,0.0
0.021868908629022847,0.03190131794657973,0.7448789320389327,0.0011454026172775273,-0.5258617589708695,-0.0009772392070198695,0.8505687176874305,0.02412562898385219,-0.8368924306469923,0.9992664211083527,0.018719166765184227,-0.8591648747338972,1.0265502322607336,0.007263883770318674,0.6286098731237206,1.1598716169371281,0.03417286469441391,0.7647833696411191,0.9182256076877836,0.0,0.0,0.0,0.0
0.02136138500354535,0.03248811404909186,0.7441266280594574,0.0010530132961944388,-0.5258400429997355,-0.0008917213338253423,0.8505823564911849,0.022444695292667138,-0.8388205655679625,0.9983506867922557,0.017022589565234968,-0.8579948570175998,1.02118600038032,0.006837128950781397,0.6320295273252722,1.145947146888053,0.030768933432139264,0.7592286524761451,0.9243233938963499,0.0,0.0,0.0,0.0
0.020697221431737238,0.033127285467594234,0.7433467447391537,0.0009522673835345347,-0.5257939644377412,-0.0007982365052165971,0.8506110526945646,0.020605511648529227,-0.8403884992956835,0.9963782433084223,0.01517084547174613,-0.8561716513829377,1.014352110632659,0.006335890188195191,0.6353482932879498,1.13198893327774,0.02705248489000438,0.7529794179115187,0.9306336823075815,0.0,0.0,0.0,0.0
0.019822334955302844,0.03381331462949838,0.7425481848534473,0.0008449367976366205,-0.525712376826591,-0.0006981262598617031,0.8506616810182939,0.01862380425476239,-0.841353540484802,0.9928687162275128,0.013181186082514134,-0.8534777194221718,1.0055993291142757,0.005791514571149018,0.6384589556363774,1.1179732369690527,0.023052550225771424,0.7458810291370324,0.9371297595779283,0.0,0.0,0.0,0.0
0.018673948314751422,0.03453861607953702,0.7417360896107003,0.000733465808169279,-0.5255828184750441,-0.0005931954300307181,0.850741918016809,0.01652247443616163,-0.8414371335838389,0.9872532532884118,0.011078058565889806,-0.8496682031111701,0.9943982741091906,0.00524077730211282,0.6412363621945673,1.1038121375103134,0.018816611725351172,0.7377348329643171,0.9438298651700421,0.0,0.0,0.0,0.0
0.017188183972752034,0.03528836358565814,0.7409118714224158,0.0006216031384741709,-0.525393154328227,-0.00048625137432781266,0.8508592189981695,0.014346406516857601,-0.8403299584909596,0.9789025193242457,0.008907773659255928,-0.8445014901078474,0.9802039951703004,0.004727367945807449,0.6435363734399729,1.0893757326291622,0.014444618641625516,0.7283324097127216,0.9508003063833478,0.0,0.0,0.0,0.0
0.015315871568565535,0.036033110255866585,0.7400717748390256,0.0005149373752322539,-0.5251352327654654,-0.0003814221013962278,0.8510185524799331,0.012182274418689992,-0.837722804170718,0.9672105921165705,0.006757890437912141,-0.837806279411984,0.9625946859156251,0.004306845068660319,0.6452277010615921,1.0745293015884947,0.010136549320443201,0.7175145954231227,0.9581737419412437,0.0,0.0,0.0,0.0
0.013053564250427203,0.0367192912424673,0.7392012154005402,0.00042146381505463854,-0.5248116683853455,-0.0002846286403498265,0.8512182176630031,0.010183581628311882,-0.8334026503960713,0.951804327800692,0.00478143722463548,-0.8296291696965509,0.9415614965957314,0.0040851507861527185,0.6463137261932871,1.0592196125330702,0.0062417421040093825,0.7052604124662131,0.9662057705302083,0.0,0.0,0.0,0.0
0.010500018612402361,0.037257601437810914,0.7382528429240476,0.0003551442993237173,-0.5244269031265196,-0.00021709139572343255,0.8514553717142083,0.008634000745263614,-0.8276022084028802,0.9331026065521374,0.0032587192560507355,-0.8207057207307645,0.9182213100408229,0.004309923465588524,0.6472235327146885,1.0435628398485899,0.0031905920271821722,0.6916793219961254,0.9754311668823953,0.0,0.0,0.0,0.0
0.007911431004308654,0.03760915679506491,0.7371602636514677,0.00031719892421949714,-0.5240076492834737,-0.00017108150042807694,0.8517134809361484,0.007613945644934918,-0.8214564607988702,0.9131864594090408,0.002264002889374723,-0.8123668419515454,0.8949929112683254,0.005489345854630479,0.6489724341092175,1.0278039214863188,0.0012731641389583082,0.6773731259893059,0.9862860184743332,0.0,0.0,0.0,0.0
0.005820060011329301,0.03784966991486499,0.7358788166007959,0.0002904982369015406,-0.523550504507397,-0.00015357271768483505,0.8519945781847703,0.006963594026626186,-0.8180026428158365,0.897622347961927,0.0016296676387015795,-0.807364541507089,0.8770329690929696,0.007329421312405575,0.6533919573987601,1.0122037239980934,-6.83324055523269e-05,0.663681991036138,0.9983082893901021,0.0,0.0,0.0,0.0
0.004520228143673279,0.037925637724761485,0.7347634763842266,0.0002880420720767383,-0.5231721276000971,-0.000180805610478188,0.8522269704975802,0.006848129468718326,-0.8169699305540326,0.8882803871235238,0.001520070819927992,-0.8058476361164545,0.866827048009219,0.009911481021314322,0.6591818701912454,0.9975357291836341,-0.0006959849131540504,0.6534236627478442,1.0084496617758882,0.0,0.0,0.0,0.0
0.004532534999410889,0.037924747785907764,0.7347398999726513,0.0002946016865331107,-0.5231584637406081,-0.0001799203898366914,0.8522353563746733,0.006846975567348336,-0.8170090301503806,0.8882333698083902,0.001518899792390349,-0.8058769155245259,0.8667478316079495,0.009917158864466579,0.6591967156519809,0.99753878198505,-0.0006877800504362846,0.6533973252678625,1.0084189805730173,0.0,0.0,0.0,0.0
0.004532534999410889,0.037924747785907764,0.7347398999726513,0.0002946016865331107,-0.5231584637406081,-0.0001799203898366914,0.8522353563746733,0.006846975567348336,-0.8170090301503806,0.8882333698083902,0.001518899792390349,-0.8058769155245259,0.8667478316079495,0.009917158864466579,0.6591967156519809,0.99753878198505,-0.0006877800504362846,0.6533973252678625,1.0084189805730173,0.0,0.0,0.0,0.0
0.004532534999410889,0.037924747785907764,0.7347398999726513,0.0002946016865331107,-0.5231584637406081,-0.0001799203898366914,0.8522353563746733,0.006846975567348336,-0.8170090301503806,0.8882333698083902,0.001518899792390349,-0.8058769155245259,0.8667478316079495,0.009917158864466579,0.6591967156519809,0.99753878198505,-0.0006877800504362846,0.6533973252678625,1.0084189805730173,0.0,0.0,0.0,0.0
0.004277996093602062,0.03807429914471237,0.7347367322114308,0.0002496224668762354,-0.5233506862792305,-0.00019365626657048604,0.852117338960388,0.006528222288894757,-0.8148558816480214,0.8850553725811402,0.0012070809848676014,-0.8028257498213094,0.8621741932665319,0.009083509836599104,0.6589695454807247,0.998729176266715,-0.001512611441873293,0.653128708192577,1.0084549311137656,0.0,0.0,0.0,0.0
0.0038170153136629415,0.03840047050981047,0.7347425699931406,0.0004417788171037393,-0.5232227160778102,-0.00036369625134663236,0.8521957884997277,0.00603450557754609,-0.8133702285988805,0.8818252975034564,0.0007203672585626525,-0.8007971569941749,0.8572660459571374,0.004453234325737171,0.6581805775680876,1.000226946747057,-0.006091547032493251,0.6505591410994801,1.0071989133515593,0.0,0.0,0.0,0.0
0.003309643145903079,0.038805125208961254,0.7347498324518635,0.0007756169898965793,-0.5229443161312345,-0.0006233521064048708,0.8523662663881484,0.0054958328613408675,-0.8123887065896646,0.8789991748729005,0.00018835447347467858,-0.7996054046644714,0.852798719628874,-0.002188266831047259,0.6573363280435807,1.0018301186599416,-0.012587649177542747,0.6470062114874181,1.0052838335602359,0.0,0.0,0.0,0.0
0.003248859830933255,0.039145500346079866,0.7347172101322353,0.0009922361601759095,-0.5227646523820411,-0.000791718338832653,0.8524761034007688,0.004953146880735955,-0.8134734591325199,0.8802382066488074,-0.00035169273214069065,-0.8002152146285053,0.8524492248352291,-0.006997755788320878,0.6574412029150081,1.0031955928915397,-0.017222780797578833,0.6453288506848243,1.003838777211763,0.0,0.0,0.0,0.0
0.0036809236913874274,0.03933989337425764,0.734646065726143,0.001097150412371635,-0.5227584034198954,-0.0008643743386237661,0.8524797362822516,0.004595013877507415,-0.8162130265927694,0.8852587058630856,-0.0007126494166442423,-0.8026320368048395,0.8565969437422493,-0.009502115973951758,0.6588216966854937,1.0041690255285671,-0.01963486068672603,0.6458363455530644,1.0032782162150333,0.0,0.0,0.0,0.0
0.004631882923386322,0.03935059021443496,0.7345257214475974,0.0011544800636949064,-0.5228527138573956,-0.0008972242652291715,0.8524217863102496,0.004629002939817531,-0.8209096291941389,0.8944029237225767,-0.0006893894354620196,-0.8077204734018555,0.8662108301544301,-0.010233345640850688,0.6615478755371413,1.004612856032169,-0.020384089722031443,0.6481322810664609,1.0035808856607709,0.0,0.0,0.0,0.0
0.006139924752784832,0.03914043972980067,0.7343599446684259,0.0011695008430443964,-0.5230535542599735,-0.0009001591212971078,0.8522985400417763,0.0051762649901954776,-0.827531987025883,0.9077260251130493,-0.00016181988193604958,-0.8156563092578604,0.8816290780712241,-0.008999930767510211,0.665793661180218,1.004311245500779,-0.019299662252779144,0.6523825296223063,1.00476396423284,0.0,0.0,0.0,0.0
0.008259697097263406,0.03866737821707703,0.7341832411304314,0.0010521679855910594,-0.5235141341518481,-0.0008041351835340296,0.8520159609141001,0.0062184912790988105,-0.8353749709066247,0.9247031196001466,0.0008531267985289777,-0.8253950169538509,0.9021179385871858,-0.00438001734389856,0.671966660517594,1.002892829201419,-0.015018453784979622,0.6597278062033082,1.0069281721647727,0.0,0.0,0.0,0.0
0.01105634372875885,0.03792877960262652,0.7340884127513503,0.0005838145850733974,-0.5245735266340646,-0.00043476913865483246,0.8513648367715374,0.007430228097649013,-0.8429472572131225,0.9442229867487031,0.0020346985968274123,-0.834184841151741,0.9254320119272217,0.006525677185867953,0.6807863952342716,0.99973229027241,-0.004685448017411473,0.6726972625284329,1.0099248714698117,0.0,0.0,0.0,0.0
0.014503593758646263,0.03711136735940602,0.734155975414599,-0.0003458545313918814,-0.5262944599656849,0.00029375426807665204,0.8503022612591955,0.008175800893008161,-0.8501431776662433,0.9663461742799841,0.002752692435870717,-0.8404087328369466,0.9497219570478856,0.024470219418954085,0.6922745086590848,0.9944470010555452,0.012811216604989437,0.6926092400263042,1.0123236957615869,0.0,0.0,0.0,0.0
0.01725777445789199,0.036882493329870154,0.7337812454541562,0.00022249153302358537,-0.5254332381472295,-5.4600058049251426e-05,0.8508348016897688,0.009437672020575695,-0.8674458467524784,0.994717146598114,0.0056078508972730225,-0.8424327404737557,0.928924736040771,0.020802239571271763,0.6983906032744123,0.9920333824696003,0.009305683816204953,0.695994990260585,1.0106291929452216,0.0,0.0,0.0,0.0
0.019805388521805037,0.03653696101253935,0.7333752082639012,0.0004511490999637889,-0.5251673719736492,-0.0001735720514709955,0.8509988235899761,0.010605370252865731,-0.8805633693801299,1.017473033226054,0.010709529882323312,-0.8486160702522639,0.914681261670258,0.02166169227754764,0.7041418923969608,0.9905976726732155,0.010221830504844393,0.7013655633549667,1.011316502847771,0.0,0.0,0.0,0.0
0.021994338323061812,0.036117156204654347,0.7329991039094538,0.00042428502140544675,-0.5254496487612722,-0.00010525633778607428,0.8508245856344183,0.011606451081872927,-0.8891050186717634,1.0340347201568023,0.016169419502764452,-0.8570924677898295,0.9068676437152784,0.02623320294568102,0.7094237456020456,0.9897891609843242,0.01481537375457466,0.708338448230996,1.0136181488540523,0.0,0.0,0.0,0.0
0.02368075863021129,0.03575365523932436,0.7326774959397209,0.0003980837118409208,-0.5258106906163035,-4.7556615055239185e-05,0.850601526510112,0.012476786513395585,-0.8948053466042519,1.0457957235374298,0.021298522770490113,-0.8670807256442041,0.9021646514494991,0.03034608476474818,0.7136820965215054,0.9894329646495232,0.018989651280004696,0.7142028208371959,1.0159378515841984,0.0,0.0,0.0,0.0
0.024826325585318148,0.035523231416910675,0.7324392946684475,0.00045812991437485485,-0.5260390928904599,-6.553621953502887e-05,0.8504602627830224,0.01313853096290963,-0.8986203839826418,1.0537008001066226,0.025992007086385167,-0.8778572738980287,0.898445243137539,0.032121542195189645,0.7167673590758865,0.9893961359519053,0.02079767995661136,0.7178148722850385,1.0174469708833567,0.0,0.0,0.0,0.0
0.025479315626336388,0.03544708848644208,0.7322991876210019,0.0005700605245077668,-0.5261456995191548,-0.00012749384419777387,0.8503942389585064,0.013466785341825006,-0.9008428512644296,1.058315122451257,0.030331707950549992,-0.8888309143298333,0.8948518870878243,0.03174958888270475,0.7188051674589366,0.9896091286781222,0.020374807157270903,0.7194443859948004,1.0180161899561977,0.0,0.0,0.0,0.0
0.025727764836190666,0.035520752424018864,0.7322525445126762,0.0006781122124206689,-0.5262029265673575,-0.00018483494371998954,0.8503587396339377,0.013372384700308305,-0.9016347378366789,1.0601725248149663,0.034420177129010784,-0.8996785190219803,0.8911336244867069,0.0300527572880073,0.7199927376884185,0.9900546929248185,0.01857061352546582,0.7198056941844596,1.0177871168694048,0.0,0.0,0.0,0.0
0.02566371274546038,0.03573327909255394,0.7322839704900225,0.0007499686713128777,-0.5262563900936158,-0.00020800209522008588,0.8503255883294095,0.012824494244909146,-0.90126410349521,1.0598838122736405,0.038332248121462846,-0.9102906648193511,0.8871983878768306,0.02764164464477878,0.7205064192381934,0.9907304695826769,0.016038728771061703,0.7194547011337479,1.0169091440620335,0.0,0.0,0.0,0.0
0.025363467067008177,0.036077792424461845,0.7323708468371711,0.0007937427734860687,-0.5262861880279527,-0.00019884246534590243,0.8503071084761612,0.011846671171326352,-0.9002080803902298,1.0581693811897896,0.04212425307963316,-0.9207446863726472,0.8828968239921637,0.02453512193968995,0.7204386933714684,0.9916606966779943,0.012815829288745991,0.7184929668031599,1.015446303986953,0.0,0.0,0.0,0.0
0.02488936345010199,0.036546422233891596,0.7324677970383394,0.0008308690518515324,-0.5262511831326145,-0.00016666007056528073,0.8503287447408578,0.010478525356312664,-0.899037038026812,1.0557313645360213,0.04581814151257503,-0.9312205935934991,0.8780786319002278,0.02059458253176521,0.7197203576873278,0.9930672613638337,0.008779183781421139,0.7167625546786255,1.0136416527161831,0.0,0.0,0.0,0.0
0.0243467368903337,0.037069554184507775,0.732581036958039,0.0008442213807631335,-0.5262095019575025,-0.00011006685849586667,0.850354535017709,0.008914544756536236,-0.8977350969266823,1.0529484155989086,0.04949310204635004,-0.9416822048142329,0.8729515071932142,0.016582622989162715,0.7187698597041159,0.9945654644620808,0.004724986766424222,0.7149530906675808,1.0116097959907333,0.0,0.0,0.0,0.0
0.023825455092442854,0.03758426081966446,0.7327010604976796,0.0008278992070560617,-0.5261940409238833,-3.161390658726625e-05,0.8503641248780774,0.00733458525273437,-0.8964067272072312,1.0502247591796687,0.05321669422040198,-0.9521653261679905,0.8676582672136316,0.013061516321016263,0.7178572869732409,0.9959384980331847,0.0012113956477859608,0.7134884858107822,1.0095696647280834,0.0,0.0,0.0,0.0
0.023387482300862,0.03804529705356724,0.7328101553399565,0.0007824556004126935,-0.5262186717329131,6.541020094902994e-05,0.8503489242683778,0.005868022917746669,-0.8952001801033842,1.0478908393533963,0.057061582974185815,-0.962648780655924,0.8623049992502758,0.010370376677542434,0.7171067728181723,0.9971291364641963,-0.0014472242604314039,0.712553918302316,1.0077708405606522,0.0,0.0,0.0,0.0
0.023068417722156804,0.03842361900022276,0.7328960014263222,0.0007090651753621273,-0.5262914288000409,0.0001787439561753109,0.8503039440392987,0.004596597969099503,-0.8942027640996761,1.0461341711640033,0.06110877157993643,-0.9729003271869182,0.8570551521920189,0.008710143648597849,0.7165810730133328,0.9981202229145254,-0.003076269656951548,0.7122346765190464,1.006393066830038,0.0,0.0,0.0,0.0
0.022874413908291633,0.0387092165150432,0.7329539412821803,0.0006130224470368446,-0.5264084730878562,0.00030355979422905786,0.8502315281829077,0.003555578305004729,-0.8934458752985249,1.044995446456318,0.06542716076850544,-0.9823607969682586,0.8522028990728961,0.008075654173182865,0.7162836560880468,0.9989168984188156,-0.0036971757151315326,0.7124900264545211,1.0054994795684027,0.0,0.0,0.0,0.0
0.02277985706858068,0.038915131813551704,0.7329863584302586,0.0005118726434338968,-0.526539853213767,0.00042633702028553795,0.8501501862616786,0.0027356755368142054,-0.8929618205133072,1.044413202257936,0.0700310136754093,-0.990087206997628,0.8482546200890787,0.008118085195411412,0.7161453877826657,0.9995500661069119,-0.0036577628025280017,0.7130702776134262,1.0049951895617073,0.0,0.0,0.0,0.0
0.022735424273310104,0.03907414091971075,0.7330007055515352,0.00043185321950375605,-0.5266369153090447,0.0005281485245039125,0.8500900505215356,0.0020851262043239203,-0.8927866686365444,1.044254531925511,0.07482112669897384,-0.9948321953839533,0.8460408577502265,0.008221480386954621,0.71604373926128,1.000079960952317,-0.0035608756527973286,0.7135725618726514,1.0046618797174962,0.0,0.0,0.0,0.0
0.022694571703086773,0.039219890702043965,0.7330085677512742,0.00037982131118895825,-0.5266842318780517,0.0006048526303575558,0.850060709467326,0.0015213896941979257,-0.8928202780950639,1.0442796099395502,0.07957797776078265,-0.9954205769038404,0.8466835071724602,0.008023180228920138,0.715898939311271,1.0005648852215117,-0.00376097067329272,0.7137973615087696,1.0043121069744978,0.0,0.0,0.0,0.0
0.022637734566700693,0.03936559467639726,0.7330156837884263,0.0003540421728042094,-0.5266798755442622,0.0006577389075972757,0.8500633804195719,0.0010068538711455717,-0.8930011194389609,1.0443689775252316,0.08423995373971134,-0.9918313463048953,0.8501413226188741,0.0074361094143591995,0.7156757338299209,1.0010217163802986,-0.004341827115594983,0.7136968002907735,1.0038741414125187,0.0,0.0,0.0,0.0
0.022573658362106095,0.039503392974931564,0.7330222227710391,0.00033933381257852653,-0.5266448413730241,0.0006977621635924446,0.8500850598826619,0.0005415928664738471,-0.8932712862261313,1.0444971237862077,0.08892878426568561,-0.9851870115493441,0.8552650438273831,0.006726727231585965,0.7153919770016925,1.0014296228560517,-0.005039094752556115,0.7134310631817378,1.003410995938318,0.0,0.0,0.0,0.0
0.02251126442270575,0.03962897743695257,0.7330325502144731,0.0002991007191691345,-0.5266380328149226,0.0007533958044252198,0.8500892455068174,8.141523107869843e-05,-0.8934122862689104,1.0445018433746696,0.09367871554145117,-0.9766706341208288,0.8612198475830027,0.006431744770693481,0.715103046144772,1.0017840406660725,-0.005325860342439332,0.7133773821117834,1.0030228642289873,0.0,0.0,0.0,0.0
0.02242639426356308,0.039766309683611945,0.7330546379073971,0.00021439906642372358,-0.5266829189729012,0.0008427762347489218,0.8500613781506855,-0.0004750434183699771,-0.8932648652732611,1.0441677620188037,0.09843284909523832,-0.9671794904565922,0.867442834760126,0.006637350203122056,0.7147688290430841,1.0021482354879103,-0.005118882625323241,0.7136270896726143,1.0026517644840125,0.0,0.0,0.0,0.0
0.022250717297720785,0.03997376758398789,0.7330872810809359,9.205987164283622e-05,-0.5267488621894867,0.0009687079644878549,0.8500204052326865,-0.0012938462762552509,-0.8928180558441495,1.0432430548347427,0.1030770467110078,-0.9572894364001368,0.8734958462292464,0.006830737853033013,0.7141416952480957,1.0027792679828291,-0.004919000492260704,0.713804402282604,1.0021504002064305,0.0,0.0,0.0,0.0
0.02190171440421567,0.04031464207646519,0.7331343093784439,-5.075963688192092e-05,-0.5267876836760234,0.0011246661627557825,0.8499961581541011,-0.00253431055757566,-0.8920587858332093,1.0414243004573314,0.1074823606481769,-0.9472985521170517,0.8790715865270097,0.006306789902761676,0.7129560915585474,1.0039057946790875,-0.0054149854658764604,0.7134100334448084,1.0012853867898401,0.0,0.0,0.0,0.0
0.021323685641742716,0.040811560422873344,0.7332375446654621,-0.0002142260948867604,-0.5268022303444281,0.0013044192260971803,0.8499868603112632,-0.004236638991002422,-0.8906188837300384,1.0382180652690853,0.11157549484082768,-0.9372317102787423,0.884168814557514,0.004833259726034371,0.7112795214505409,1.0053112557956527,-0.006829471384892726,0.7124332535772488,0.9996705729691675,0.0,0.0,0.0,0.0
0.020459805111727684,0.04148295889156561,0.7334221233399209,-0.0004036011257865095,-0.5268069352632117,0.0015078482289875975,0.8499835389338031,-0.006440997077771808,-0.8881104791580315,1.0330659306394843,0.11529087772588038,-0.9270454683924185,0.8889010022235913,0.0023119008156166974,0.7090976264010181,1.0069205669648973,-0.009245433799361397,0.7108619459836298,0.9971024467795242,0.0,0.0,0.0,0.0
0.01925229139983399,0.04234965952919577,0.7337141003736727,-0.0005932887402731776,-0.5267703002658166,0.0017111366129663559,0.8500057474969354,-0.009144735113023848,-0.8843092503304296,1.0255514760090023,0.11866210732598304,-0.916785607369026,0.8933453643208886,-0.0017706112892694197,0.7063966066887586,1.0086002664972833,-0.013139192144729571,0.7084460610361049,0.993236063720323,0.0,0.0,0.0,0.0
0.017656831527582923,0.043428849930242715,0.7341418602326135,-0.00072523278531795,-0.5266187349418746,0.0018666694876135863,0.8500992280849634,-0.012288379029212525,-0.8791797734576862,1.0154805128089728,0.12188354167909032,-0.9066351179630342,0.8975783168517689,-0.008272943311565462,0.7032146701303961,1.0101021941075108,-0.019292075628822736,0.7047912009271653,0.9875650568063292,0.0,0.0,0.0,0.0
0.015661712029200806,0.044727858554476946,0.734716088651489,-0.0006960518634061704,-0.5262212970166127,0.0018998330646809072,0.8503452550066258,-0.01574313672496083,-0.87308755032068,1.0031235335102544,0.1254213452753141,-0.8971567997303813,0.9017384745378805,-0.018407224491285165,0.6995732989829152,1.0111615558346019,-0.02875879804271782,0.6993026603687064,0.9795440513816649,0.0,0.0,0.0,0.0
0.013338389982722198,0.04620164870413183,0.7353685305749098,-0.0004672594014469543,-0.5255808398315052,0.0018049331387593398,0.8507416204036488,-0.01939617432363982,-0.8663598129367658,0.9888859431242679,0.12995348225162712,-0.8891641444811959,0.9067740530166845,-0.031826822580455744,0.6953585226344137,1.0120368130594626,-0.04102235927142718,0.6921134653002213,0.9696823813347805,0.0,0.0,0.0,0.0
0.010885099424496576,0.047684352702900425,0.7358592855704645,-0.0002205789617040027,-0.5250734054739696,0.0017621004901429392,0.8510550894100526,-0.0231877801637492,-0.8586426049877405,0.9726734002403243,0.13620622353139897,-0.8834345312402339,0.915371440019736,-0.0444367998319491,0.6901308047925189,1.0144317787199086,-0.052190922220179944,0.6847726992858566,0.9613326024750387,0.0,0.0,0.0,0.0
0.008860452037202642,0.048758204729469866,0.7359935543662781,-0.0004176613729569315,-0.5254647782764804,0.0020975039306797266,0.8508126661181576,-0.02661981068845364,-0.8489494352690633,0.9552714074317208,0.14469762372258047,-0.8799938760430654,0.9322175481425239,-0.048094430986506884,0.6850499706741193,1.0191684225912707,-0.05518489729774272,0.6814669429383482,0.9592859032930026,0.0,0.0,0.0,0.0
0.0076897437917263275,0.04929471295264933,0.7359804276783155,-0.0013627952275091766,-0.5271201339534153,0.002974118090112211,0.8497844796133238,-0.02960296468362092,-0.8369085151925503,0.9385425774416143,0.15441978576416668,-0.880214611998707,0.9631269525655615,-0.0395255345379563,0.6826189019436595,1.0242714090489793,-0.04742056681689257,0.685754831383771,0.9629950305161307,0.0,0.0,0.0,0.0
0.007493145778375436,0.04931624807786691,0.7359310218998336,-0.0027823436648352993,-0.529444757473566,0.0038871564730213965,0.8483309480161866,-0.031019309966960684,-0.8253408785949705,0.9261984182640076,0.1636281164214994,-0.8874301044973298,1.0088561628364165,-0.0239032118322315,0.6836657441743812,1.0281167744748896,-0.03318085363110623,0.6955223636330334,0.9694305245218683,0.0,0.0,0.0,0.0
0.007501374764059653,0.049345363628916866,0.7359149551081436,-0.0027683446293863623,-0.529438334367403,0.003866418589566358,0.8483350972213594,-0.0310139506168427,-0.8253397795163504,0.9261341802227674,0.1636211855950792,-0.8874635122812463,1.0088537881433044,-0.024011229999176997,0.6835900461665133,1.0282308528628912,-0.03305721735267476,0.695615258298926,0.9693026404533795,0.0,0.0,0.0,0.0
0.007501374764059653,0.049345363628916866,0.7359149551081436,-0.0027683446293863623,-0.529438334367403,0.003866418589566358,0.8483350972213594,-0.0310139506168427,-0.8253397795163504,0.9261341802227674,0.1636211855950792,-0.8874635122812463,1.0088537881433044,-0.024011229999176997,0.6835900461665133,1.0282308528628912,-0.03305721735267476,0.695615258298926,0.9693026404533795,0.0,0.0,0.0,0.0
0.007258806299870913,0.05011579465751674,0.7372144886213423,-0.0010636242904787264,-0.5266797710273539,0.00226602956124139,0.8500600876432032,-0.029855470058862146,-0.8334857690340821,0.9363157044066506,0.16573847424995353,-0.9007913880954604,1.0205755419612375,-0.05286083799214164,0.688949057527653,1.016251822555275,-0.02330938177026634,0.6663937438317761,0.9938674743071033,0.0,0.0,0.0,0.0
0.00790639673931771,0.050881584192846184,0.7389817286057283,-0.0007842887699535771,-0.5260979800624311,0.0018534183600379043,0.8504215808090348,-0.030861101858753553,-0.8351818433051645,0.9450982434901087,0.16490938416121573,-0.9014391684353292,1.0263319325274378,-0.06258154411414626,0.6994631956101449,1.001067498498102,-0.013094701164585788,0.6536069839417041,1.0141252523508462,0.0,0.0,0.0,0.0
0.008885366393488265,0.05170296157288644,0.7407758827980477,-0.0011513676581608775,-0.5263916418826923,0.0020863531132700288,0.8502388845725923,-0.03331831414760619,-0.8350438646365249,0.9536108807473348,0.16229656051272745,-0.8970511572462813,1.029419464129278,-0.06444070795962371,0.711205921104578,0.9862143293736699,-0.006473596135335404,0.6482426362286641,1.0320696134309433,0.0,0.0,0.0,0.0
0.009899425467646822,0.052696091948726126,0.7424228533289728,-0.0015771355303288615,-0.526688077827913,0.002478576714370166,0.8500535500631288,-0.036613197599479,-0.8360413576731273,0.9632190904520808,0.15888641843060397,-0.892772536390151,1.0324151917737943,-0.06628222302099829,0.7221825565470616,0.9728793989133317,-0.002281028925842363,0.6450312692624307,1.0481999167199731,0.0,0.0,0.0,0.0
0.010759244014474523,0.05387042688246289,0.7439090833239349,-0.0018729393754231593,-0.5267374541437582,0.0027995600888116247,0.8500213579455268,-0.040280231021570204,-0.8382094865542786,0.9731048416208563,0.1551967332354665,-0.8895950659599815,1.0351714334825002,-0.07089687675001427,0.7318533081191796,0.9612444440195579,0.0003104896937241282,0.6416741515202952,1.0628065842223127,0.0,0.0,0.0,0.0
0.011346814307996915,0.05517292699029279,0.7452671388112438,-0.002052334264682848,-0.5266133621226912,0.0030309871174794803,0.8500970343878368,-0.04411679794674172,-0.8403549046962935,0.9815769674443533,0.15133288721770324,-0.8865076035299653,1.036309804430039,-0.07788959097266933,0.74014189606211,0.9511872182429957,0.002355710641526006,0.6375602244140907,1.0764088281134834,0.0,0.0,0.0,0.0
0.011668947897728339,0.05652678275927285,0.7465272632885078,-0.00216543682649577,-0.5264149086681701,0.003186471040707904,0.8502190901276796,-0.047917971995337115,-0.8418134359096144,0.9880195245225303,0.1474482773835941,-0.882924079815205,1.0354584582635682,-0.08621600179882456,0.7472784880193747,0.9423718989308199,0.004070578181418585,0.6327901727127295,1.089419029291463,0.0,0.0,0.0,0.0
0.011781401647813314,0.057873099692139565,0.7477028347311172,-0.0022425999568509505,-0.5261969234247735,0.0032858108226808736,0.8503534394420793,-0.05155939301872242,-0.8424763597392617,0.992561216046552,0.1436636768048411,-0.8787919116972306,1.0329181182875238,-0.09505694235634593,0.7534865090006353,0.9345155872195294,0.005561547320920556,0.6276108443109074,1.1021781000604929,0.0,0.0,0.0,0.0
0.011749039853188101,0.059166114077247325,0.7487998413118453,-0.002294592626572329,-0.5259824979433975,0.0033388185831141467,0.8504857429683175,-0.05494189876881875,-0.8424595474484278,0.9955831775629728,0.1400958104176556,-0.8743168118649554,1.0292383352616898,-0.10391632770026553,0.7589758643495773,0.9273832464470295,0.006930901264676173,0.622207538183667,1.1149342986761595,0.0,0.0,0.0,0.0
0.011643483547322574,0.06037181520648486,0.749823165876067,-0.002332032465325588,-0.5257901546237022,0.003359960872862785,0.8506044824642631,-0.05801281220672971,-0.8419598439581374,0.9975801397763691,0.136819588420235,-0.8697440923112971,1.0250310209250748,-0.11238304963190188,0.763969685273446,0.9207676501352465,0.00830790902253188,0.6167868530813221,1.1278825901812914,0.0,0.0,0.0,0.0
0.011571612890948242,0.061480583823202296,0.7507756359969958,-0.002379847958608603,-0.5256318117171086,0.0033887007109136605,0.850702093298339,-0.06084750816629069,-0.8414742632928583,0.9995097417716851,0.1337998698171565,-0.865459970940503,1.021198992711927,-0.11998651825192393,0.7687165257184716,0.9144825396785168,0.009812762918493024,0.6117446566515397,1.1411379197622367,0.0,0.0,0.0,0.0
0.01158718724713395,0.06247675534306219,0.75165815593188,-0.0024472223068919426,-0.5255170453450227,0.0034399413865853403,0.8507725976770025,-0.06344642932833988,-0.8412009600401374,1.001795136674885,0.13105484330180744,-0.8616655113916445,1.0182176846188227,-0.1264992172449821,0.7733694266409048,0.9084286927086835,0.011537868112555177,0.6072571354293267,1.1547455927386627,0.0,0.0,0.0,0.0
0.011707475805362922,0.06334632742124197,0.7524661808751022,-0.002535028692836707,-0.5254508487200347,0.00351458920808884,0.8508129211945598,-0.06577917852705269,-0.8411861945056611,1.0045424632284186,0.12862065165762349,-0.8584532351706257,1.016272547476365,-0.13184970449680342,0.7779725069329861,0.9026147655057413,0.013526547682337438,0.6034036860934786,1.1686140703306593,0.0,0.0,0.0,0.0
0.011923240202210333,0.06408086283036277,0.7531877542242462,-0.002643246680697457,-0.5254367627664919,0.003611336035016758,0.8508208858699323,-0.06782134968847574,-0.8413926052109504,1.0076492161229633,0.12651784571237534,-0.8558172164520215,1.0153119662127945,-0.13600703494771896,0.7824477134682017,0.8971723624437458,0.01582101339001908,0.6002620434553498,1.1824524549000826,0.0,0.0,0.0,0.0
0.012191315945387159,0.06467913685642598,0.7538019127437258,-0.0027637098692885826,-0.5254704828234923,0.0037188546978751268,0.850799214685075,-0.06954246403056087,-0.8416931941268383,1.0107658954541276,0.12476368947365951,-0.8536741663597761,1.0150221263558898,-0.13908776333166428,0.7865725786234915,0.8923832471938841,0.018507897256907033,0.5978543576421453,1.1956380697811908,0.0,0.0,0.0,0.0
0.012424526816393335,0.06514784906705799,0.7542773845045743,-0.002866715530482575,-0.525527844339964,0.003802217941822704,0.8507630750709511,-0.07088123307590377,-0.841870075941681,1.0132514692205785,0.12339821044400252,-0.8519206858236857,1.0148232801936445,-0.14153908775427504,0.7899577639364321,0.8886982759791454,0.02178271327819631,0.596081320760652,1.2070092951153697,0.0,0.0,0.0,0.0
0.012544287743038517,0.06551689958862594,0.7545741248389967,-0.002911816374136572,-0.5255569387940188,0.003824223787899812,0.8507448505417375,-0.07184423314189574,-0.8419665111371074,1.0147633325527046,0.12241169430610595,-0.8506717483132381,1.0143431856289316,-0.1440533967385906,0.7921448542064394,0.8866697774785453,0.026004767204565963,0.5950972600379828,1.2145779916054178,0.0,0.0,0.0,0.0
0.012516212999109724,0.06582930275857606,0.7546591030248663,-0.0028658380832146434,-0.5254987670377927,0.003763916129861289,0.8507812090950339,-0.07251799137114114,-0.8422977413838905,1.015439490065098,0.12173575104617314,-0.8502264290176333,1.0135981220098353,-0.14726983204212982,0.7927918133435703,0.8867312461297058,0.03163036212615954,0.5958115780815648,1.2153457026689118,0.0,0.0,0.0,0.0
0.012345640644910153,0.06608761490180382,0.754536621733679,-0.0027409872370937277,-0.5253655948951764,0.0036318991413832784,0.8508644357346418,-0.07292733780563476,-0.8428388934239669,1.015289692033958,0.1213410906643216,-0.8504965117265723,1.0125421308129579,-0.15104606924121194,0.7919254131543414,0.888857122606575,0.038640793801608675,0.5982965576219557,1.2093046330949542,0.0,0.0,0.0,0.0
0.012071266735887107,0.06625886598522207,0.7542495507221048,-0.002589782871254126,-0.5252345055696017,0.003467051293831374,0.8509465240184377,-0.07304219477838847,-0.8432270064627431,1.0141760435206897,0.12123052660530174,-0.8510116030950163,1.0110360341587408,-0.1545522097909037,0.7899319015067154,0.892563313605369,0.04655587687937277,0.6017357720004426,1.1994550821572496,0.0,0.0,0.0,0.0
0.011809509992042128,0.06635590510938498,0.7538498066398007,-0.0024741148418194157,-0.5251502003371636,0.003337581449509474,0.8509994162111124,-0.07304030999939468,-0.8437386254453433,1.0129758191198672,0.12124599694287971,-0.8517225917954232,1.0096886412039132,-0.1570597933101994,0.7873546447324642,0.8972249962439391,0.05495718933208088,0.6061721906603491,1.187738944478784,0.0,0.0,0.0,0.0
0.01159902325116452,0.06640361455056132,0.7533845633966668,-0.002417487085479505,-0.5251240387245741,0.0032724911476987987,0.8510159754737108,-0.07304704544311819,-0.8444307394360268,1.0120120091480003,0.12126322809884187,-0.8524929047998195,1.008618606882735,-0.15841074016803902,0.7845164746187047,0.9023779093385551,0.06363049615401181,0.6115204906000294,1.1752475543027519,0.0,0.0,0.0,0.0
0.011408586001876145,0.06643905566802293,0.7528927922906833,-0.0024127656248604215,-0.5251362931849347,0.0032628131978433175,0.8510084642305632,-0.07313408924802578,-0.8451864642176521,1.0111284244363072,0.12119664880055807,-0.853120255973791,1.0075059820607943,-0.1589427624829946,0.7815126226665754,0.907740380514513,0.07236720835658969,0.6174949961845675,1.1624495691344494,0.0,0.0,0.0,0.0
0.011161627220068153,0.0665191361557472,0.7524059601112734,-0.002440288165103987,-0.5251501711274982,0.003286537622611706,0.8509997305692204,-0.07339432945787466,-0.8458066696871395,1.0098917920597188,0.12092897159583747,-0.8533078205382923,1.0056879788296387,-0.15926736169300823,0.7782544223567328,0.9132031399704142,0.08101247160565711,0.6237287892042391,1.1494610443657323,0.0,0.0,0.0,0.0
0.010738209096030581,0.06670982099536281,0.7519508233919838,-0.002471901571803139,-0.52512512769613,0.003312816415151637,0.8510149911794399,-0.07391976027299609,-0.8459203114854288,1.0075078042530874,0.1203275264906539,-0.852589575850984,1.0021140805842352,-0.16015054771160048,0.7745120383673533,0.9187862138006049,0.08948272895907625,0.6297562632960334,1.1362508839114773,0.0,0.0,0.0,0.0
0.010042024207082332,0.06708599191171048,0.7515550436653212,-0.0024910144031140857,-0.5250240503213459,0.003321856587310491,0.8510772624739927,-0.07484914478108241,-0.8452800817831824,1.0034139750811766,0.11922200207370538,-0.8505409387379528,0.9958765455137452,-0.16228216854114377,0.7701107225498505,0.9244902004149752,0.09768202100349895,0.6352515813915647,1.122732121896179,0.0,0.0,0.0,0.0
0.008981370027114893,0.0677174359098374,0.751242261430962,-0.002477584909434328,-0.5248111116513958,0.0032911848894519795,0.8512087445287825,-0.07630195611714075,-0.8436380300450258,0.9970489050319649,0.11746485883913524,-0.8467600895879486,0.9860915305561787,-0.16633627401131748,0.7648801540641462,0.9303227884169912,0.10561118364590405,0.6398737903815717,1.108840036672182,0.0,0.0,0.0,0.0
0.007477642046179673,0.06865499804987875,0.7510271746904006,-0.0024031845058454684,-0.5244530802428461,0.0031892612978384493,0.8514299853425388,-0.07832902378633533,-0.8407492489138838,0.9878680550803395,0.11498562340562928,-0.8409377455890026,0.9719947053018277,-0.17292375412961272,0.7586702089127341,0.9362870054764237,0.11343951767884346,0.6432623952848074,1.0945832893662335,0.0,0.0,0.0,0.0
0.005494627687755043,0.06991205758261408,0.7509104381768363,-0.002235620988569716,-0.5239295149495364,0.0029795719146906595,0.8517534781348087,-0.08087551230628037,-0.8364407030086523,0.9755121034373707,0.11183749111604722,-0.8329646292304307,0.9531852662745938,-0.18239524108384808,0.751417502433224,0.9423448999857318,0.12166255555939418,0.6451969944994453,1.080170410937873,0.0,0.0,0.0,0.0
0.0030812794913210075,0.07144075196126752,0.7508700971852778,-0.0019473909357206147,-0.5232439167919309,0.0026308227753551704,0.8521766776791694,-0.08374958643202647,-0.8307655772697644,0.9601178120813705,0.10824318420470552,-0.8231296460131703,0.9300434455090116,-0.19459111005245394,0.7432248791080511,0.9484047399944734,0.1314967745770143,0.6459409293966345,1.0662267180457612,0.0,0.0,0.0,0.0
0.0004286461602297084,0.07311157767714052,0.7508393202792016,-0.0015024107105132184,-0.522390734303005,0.002107505832511544,0.8527023055531104,-0.08657946015395217,-0.8245233077917988,0.9430601462834354,0.10467940925845269,-0.8127989397954885,0.9046927064519648,-0.2089563242611426,0.7343783343270054,0.9544088905832564,0.14562570236306108,0.6467293833391723,1.053970762088779,0.0,0.0,0.0,0.0
-0.0019917981737107037,0.07471235009345507,0.7506487390400046,-0.0007754666771838566,-0.5211575768737173,0.0013181374965293706,0.8534591034326648,-0.0888109441017217,-0.8212702816841555,0.929552492551588,0.10203459040268913,-0.8068758608839446,0.8841114152144414,-0.22538450185195374,0.7251247303427991,0.9604603935242724,0.16932187370516621,0.650355856527784,1.0445801792596845,0.0,0.0,0.0,0.0
-0.003955835943314778,0.07602947161461203,0.7502639382995105,0.00021202177499617122,-0.5196425151399018,0.00028415557890710093,0.8543837140076177,-0.08998407323094063,-0.8215015322462832,0.9210242106441304,0.10082102884412837,-0.8066439488590456,0.8711125182786205,-0.2423265948491278,0.7160677237751475,0.9663013728634611,0.20551275610664668,0.6565867011797634,1.040100297497952,0.0,0.0,0.0,0.0
-0.005277880873533845,0.07684929771643047,0.749467489055356,0.0010249626396074524,-0.5182690509367417,-0.0005792925512324052,0.8552168173702248,-0.09036187867040876,-0.8250739389782299,0.9176837868451314,0.100705981048131,-0.8108386493490766,0.8656914412455298,-0.25400033034862907,0.7065582191843636,0.9741411934967202,0.24512221676531942,0.6621522332839782,1.0422864121719322,0.0,0.0,0.0,0.0
-0.005258829793351792,0.07686532966317199,0.7494401869672518,0.001063793069840602,-0.5182804322906189,-0.0005963137305422867,0.8552098609457731,-0.09037233550198809,-0.825069649645879,0.9176989635309947,0.10071568336766439,-0.8108396399257681,0.8656205140679963,-0.25396894031923906,0.7065298380064242,0.9741173894387097,0.24510478675944636,0.6621177417236336,1.0422640576673183,0.0,0.0,0.0,0.0
-0.005258829793351792,0.07686532966317199,0.7494401869672518,0.001063793069840602,-0.5182804322906189,-0.0005963137305422867,0.8552098609457731,-0.09037233550198809,-0.825069649645879,0.9176989635309947,0.10071568336766439,-0.8108396399257681,0.8656205140679963,-0.25396894031923906,0.7065298380064242,0.9741173894387097,0.24510478675944636,0.6621177417236336,1.0422640576673183,0.0,0.0,0.0,0.0
-0.0059966558646203025,0.07698237571317253,0.7496407111310811,0.0007345990349571553,-0.5188569869704251,-0.00047090693860936736,0.8548606118443434,-0.09049465379980684,-0.8177820461598551,0.9073961145977053,0.09997635959019453,-0.8016015036110476,0.8529312584460673,-0.2517406714795714,0.7062954094007174,0.9741433893868757,0.24746410378239572,0.6631886097398385,1.0419605364267548,0.0,0.0,0.0,0.0
-0.006977368239370242,0.07719495578367373,0.7496938712629733,0.0004928266795126711,-0.519330046305699,-0.00034295943787866144,0.8545735442340866,-0.09091038687525803,-0.8103325917433658,0.895494557255878,0.09892576500709181,-0.791989591001761,0.8381665054888473,-0.2503293782223465,0.7043827757261174,0.9758364118749577,0.24802818335115534,0.6622715986085972,1.0426620814938876,0.0,0.0,0.0,0.0
-0.007733289239226017,0.07743723866585361,0.7496850101788851,0.0003261050174014829,-0.519666118821148,-0.00023070001120325482,0.8543693378056043,-0.09148670422016364,-0.8049702928771356,0.8866062299463798,0.09789028386408648,-0.7846665540704909,0.8265865293583858,-0.24985115391401272,0.7026273751672337,0.977758559373407,0.24781801617084478,0.6612050535140193,1.0433882293415226,0.0,0.0,0.0,0.0
