zhuoxili-jackie/tripod-support-walk/examples/trajectory_trot_sideways_left_v0.15.csv
root_pos_x,root_pos_y,root_pos_z,root_rot_x,root_rot_y,root_rot_z,root_rot_w,FL_hip_joint,FL_thigh_joint,FL_calf_joint,FR_hip_joint,FR_thigh_joint,FR_calf_joint,RL_hip_joint,RL_thigh_joint,RL_calf_joint,RR_hip_joint,RR_thigh_joint,RR_calf_joint,FL_foot_joint,FR_foot_joint,RL_foot_joint,RR_foot_joint
0.0,0.0,0.745913,0.00590261038931276,-0.5534150365010598,0.008528410562500121,0.8328410549308913,-2.4067e-06,0.349062,-0.872669,9.86e-07,0.349071,-0.872662,3.27e-06,0.610866,0.872669,-2.38753e-06,0.610854,0.872668,0.0,0.0,0.0,0.0
0.0009158968296584396,0.00020380447709875574,0.7459072849183511,0.005945513583442973,-0.5537253956148095,0.00834874722443924,0.8326362564404904,-6.492607754562392e-05,0.35485373722960256,-0.8803755017595115,-6.153194642043686e-05,0.35404892621308803,-0.8794479165869923,-0.0019300911946791525,0.6134684762194327,0.8754101859734172,-0.001935733404522698,0.6129529055129982,0.8735779774538986,0.0,0.0,0.0,0.0
0.0026088540499878948,0.0005833887806753568,0.7458337137743529,0.0059469035093320495,-0.5540196713949591,0.00827149464115199,0.8324412414233653,-0.0007222650165544811,0.3656386664696176,-0.8967876967519468,-0.0007186107800388279,0.3634332981783779,-0.8934186939191072,-0.004082731783759822,0.6169126129280479,0.8798814398075128,-0.004077122141736263,0.6164020669334981,0.8752786038713971,0.0,0.0,0.0,0.0
0.00501471528007329,0.0012185392172842677,0.7457312963307132,0.00589183954633416,-0.5543178588635657,0.008299915967261599,0.8322428185130881,-0.0021755641986991596,0.3809886378821589,-0.9209476617124192,-0.0021704949901110624,0.37652183100588615,-0.9130511684715551,-0.006815416471695572,0.621391481396638,0.8858524332742821,-0.0067841104695235905,0.6214679414664342,0.8769546533686001,0.0,0.0,0.0,0.0
0.008118713192014447,0.0022771040569568943,0.7458469381785937,0.005736394833976969,-0.5546934645092505,0.008484223723489137,0.8319917500509505,-0.004937044260285836,0.4010174339451861,-0.9517974590765192,-0.004925528065772473,0.3928734933335886,-0.9359754663172045,-0.010613806970194269,0.6284147144753289,0.8913914617791792,-0.010527545316688881,0.6300009753752052,0.8755470266452802,0.0,0.0,0.0,0.0
0.012094418062473796,0.004158327871635224,0.747173001795241,0.005319028677294749,-0.5555398808037753,0.009059943844600002,0.8314235179425645,-0.010433965270323626,0.4278289919103397,-0.9873972961039683,-0.010395353064715087,0.41326628936673393,-0.956659751213603,-0.015738053111282516,0.6443804415202014,0.8886154108924169,-0.015536751207491137,0.6498358629604185,0.8606774896429714,0.0,0.0,0.0,0.0
0.015454502758444174,0.005838176231981476,0.7480726608491809,0.005055728739904678,-0.5551915918213929,0.009142130838694291,0.8316568748116404,-0.006234170372609929,0.40210788792325386,-0.9559889112347787,-0.014432844872094622,0.4303459819420431,-0.9802088520766227,-0.023331177311272294,0.655521231473127,0.8855785335416323,-0.012905741015673742,0.6394246969148087,0.8830954041749135,0.0,0.0,0.0,0.0
0.01890777488060254,0.007655972659268323,0.7490701912903601,0.0047843558760926296,-0.5549397668986024,0.00929505250602104,0.8318248415695976,-0.00308178157730901,0.38226880307751576,-0.9413370641527137,-0.019028022529955307,0.44740249280338645,-1.0024266072208268,-0.03159832055088558,0.667683055589136,0.8819949317286054,-0.010763627637301217,0.6316234102176072,0.9017176511520033,0.0,0.0,0.0,0.0
0.022190283678086377,0.009557194493984775,0.7501409607196824,0.004481587528193431,-0.554844553310698,0.009522123038280475,0.831887472082326,-0.000666488128386219,0.367998267594502,-0.9376249452366585,-0.024036059683741964,0.46304071972503513,-1.0209443841129828,-0.04013142145256009,0.6803189260474999,0.8778881368092772,-0.010109974034329595,0.6257258703503884,0.9181714405612035,0.0,0.0,0.0,0.0
0.025120473946119024,0.011492839352948175,0.7512408785712081,0.004173292307825596,-0.554832605866587,0.009770736966903214,0.8318941614158195,0.0012187833985911902,0.357429928182017,-0.9398289262121005,-0.02922202204813477,0.47644778000804655,-1.0352274858767534,-0.04904444046097316,0.6927239727037989,0.873356164194636,-0.01074975584914738,0.6208533560173829,0.9332381346294181,0.0,0.0,0.0,0.0
0.027618816321807613,0.013423564931484359,0.7523361222144344,0.00387787291772276,-0.5548521278903048,0.010012280555725193,0.8318796983430407,0.0026919810860691834,0.34913953530552805,-0.9450926804589086,-0.034418936450271276,0.48734804843659185,-1.0454024195937384,-0.05831088991856965,0.7044199842691712,0.8685672421175832,-0.012198792947069527,0.6164695050393867,0.9473620279298537,0.0,0.0,0.0,0.0
0.029676151034093868,0.015314657272407588,0.7534084259314168,0.003604228860136864,-0.5548769230874194,0.010233831486174204,0.831861694305294,0.0038625285183800147,0.3421106796587022,-0.9518323381553614,-0.03949990180628244,0.4958161176539822,-1.0519053403168175,-0.0677745064069198,0.7151810683543773,0.8636292758607075,-0.014058975678846753,0.6122361808212203,0.9608439410578605,0.0,0.0,0.0,0.0
0.03132626600531297,0.017136600734659065,0.7544499390814087,0.0033553773875721086,-0.5548963899360123,0.010431428123981085,0.8318472955932851,0.004844552767069238,0.3356493844686737,-0.9591824604919885,-0.04436989699631852,0.5021266020856431,-1.0553201600768702,-0.07721888181604844,0.7249599053244078,0.8585831953007459,-0.016062560744159467,0.6079411147047931,0.973905012366423,0.0,0.0,0.0,0.0
0.032625041372085,0.01886651337656901,0.7554578052017386,0.00313131693670351,-0.5549079114207753,0.010605627373889029,0.8318382807763063,0.005747518782040067,0.3293051415362905,-0.9666810012520783,-0.048962919157813735,0.5066438390148283,-1.0562757502127482,-0.08642895092198055,0.7338124475813838,0.8534352293671988,-0.018038469372329054,0.603462360465036,0.9867135211674306,0.0,0.0,0.0,0.0
0.033635925187775625,0.020488695319870676,0.7564308124817235,0.0029306640581563937,-0.5549123479980724,0.010758955205146484,0.8318340832944621,0.0066654170908394044,0.32279890562985625,-0.974093197804833,-0.053239015483550395,0.5097487788332798,-1.0553787108924626,-0.09522786519847687,0.7418424682343988,0.8481855318661824,-0.019877858485764156,0.5987463157838449,0.9993970527217816,0.0,0.0,0.0,0.0
0.03442075688694995,0.021994055561389923,0.7573677024039062,0.002751494496795409,-0.5549116929521544,0.010894516251978896,0.8318333678199278,0.007671073169802271,0.31596352107722947,-0.9813127068905887,-0.057179639799395,0.5117957434240473,-1.053173907301878,-0.10349089799107274,0.7491656283940263,0.8428450087506542,-0.021512853014372016,0.5937931140165006,1.0120468501995419,0.0,0.0,0.0,0.0
0.03503466273013645,0.02337869218539253,0.7582661512012255,0.0025918098714030977,-0.5549079309670787,0.011015225713731217,0.8318348005907794,0.008815780742934924,0.30870476303202304,-0.9883020040144394,-0.06078163289495,0.5130907122156478,-1.050127724124367,-0.11114352198666243,0.7558865474849071,0.837444988428927,-0.022904270067840127,0.5886485456378638,1.0247154442754294,0.0,0.0,0.0,0.0
0.035523711988254075,0.024641995915797042,0.7591215919879573,0.002449889271104828,-0.5549024234857693,0.011123346217769834,0.8318374658676411,0.010132482289471173,0.3009926370134037,-0.9950470659847643,-0.06405068110195385,0.5138834033747869,-1.0466288647025452,-0.11815104408049704,0.7620818095852504,0.8320470714523772,-0.024031492646690765,0.5834022110354156,1.0374045085101167,0.0,0.0,0.0,0.0
0.03592408226077788,0.025784624601182228,0.7599253346912321,0.002324675890410242,-0.5548954375218327,0.01122015211949542,0.8318411852546578,0.011640730513552756,0.2928934563257308,-1.0015085796260002,-0.0669951002883572,0.5143662003439544,-1.0430004989518624,-0.12450578451295115,0.7677829417043965,0.826759657555262,-0.024877431975649185,0.5781911239830163,1.0500351969789177,0.0,0.0,0.0,0.0
0.036261582777139846,0.02680670625619984,0.760661749158509,0.002216295586725027,-0.5548856966081072,0.011305625983212195,0.831846821569173,0.013352305490023227,0.2846499496611378,-1.007558254582715,-0.06962075154065157,0.5146735251196475,-1.0395159261606937,-0.13021649039207206,0.7729552439157796,0.8217655174317342,-0.02539970473151924,0.5732093583863447,1.0623873190465598,0.0,0.0,0.0,0.0
0.03655065541305032,0.027706753312160545,0.7613047805930498,0.002126753783136136,-0.5548700841760205,0.011378184609621849,0.8318564801213195,0.015276634921484405,0.27680059164041504,-1.0129000978074838,-0.07192818733957357,0.5148764218758696,-1.0364081800594331,-0.1353040583122917,0.7774722207132447,0.817360032627671,-0.02547705549104877,0.5687311896003743,1.0739871491960118,0.0,0.0,0.0,0.0
0.03679282503616714,0.028482009908889796,0.7618152915830725,0.0020606332758903636,-0.5548439833880611,0.011434619529749772,0.8318732820356602,0.01742412583984422,0.27028608402979004,-1.0169976516016008,-0.0739137823144422,0.5149715170110442,-1.0338633230604555,-0.13980658531908782,0.7810955025397981,0.8139865170578044,-0.02482599306154416,0.5651723869567477,1.0839189368910354,0.0,0.0,0.0,0.0
0.03697673193718587,0.02913098456468545,0.7621439146919019,0.0020248293477335686,-0.5548034364542435,0.011471032488117048,0.831899911274386,0.019803030199132217,0.26640321922168436,-1.019058652389421,-0.07557710818615278,0.5148766075324507,-1.0319889942338647,-0.14378885509967784,0.7834955743199733,0.8122179878400073,-0.02292161551014731,0.5632418630624824,1.090541873783354,0.0,0.0,0.0,0.0
0.037085823549127164,0.029657358533371956,0.7622512305729574,0.002023709471126778,-0.5547525888534074,0.011487882109528152,0.8319335900930172,0.022403431376991197,0.2663437892589723,-1.0181799342032842,-0.0769352748169044,0.5144733089492279,-1.0307474258877352,-0.14731070988207626,0.7844006025566497,0.8125494770935032,-0.01908709207782104,0.5642004470330727,1.091239505618898,0.0,0.0,0.0,0.0
0.03710904169010194,0.030067647265534812,0.7621378476533589,0.0020565704247433527,-0.5546919944370563,0.011485084552047142,0.8319739507090117,0.02519194418386805,0.27008832569706015,-1.0143352192424793,-0.07800309572980912,0.5136934379717979,-1.0300252674581571,-0.15040282382598155,0.783785192976033,0.8150059538967782,-0.01336598370638789,0.5680104289037387,1.0859741589275589,0.0,0.0,0.0,0.0
0.03704246190202314,0.030372275001974976,0.7618456710862087,0.0021177283455281817,-0.5546179485963908,0.011461897954177416,0.8320234799671664,0.028109132872267725,0.27642608156551585,-1.0084117994057484,-0.07879572586383815,0.5125261708292237,-1.0296416610758428,-0.15307254689483774,0.7818824415376179,0.8191241724190444,-0.006504420543389714,0.5733532740675981,1.0772889354323414,0.0,0.0,0.0,0.0
0.03687899772842586,0.030588460110540054,0.7614289905193456,0.0021995042086533217,-0.5545337147410997,0.011421500088275255,0.832079966549133,0.031082600943332962,0.2840536417607286,-1.0012009784047182,-0.07934917690549821,0.51093250842669,-1.029277545628522,-0.15533595637321365,0.77900338247325,0.8243313342862857,0.000919610509715214,0.5794812293148469,1.066765836402336,0.0,0.0,0.0,0.0
0.036599975890099785,0.030736243590061697,0.760934121449244,0.002296861048172364,-0.5544425486039563,0.0113663050876162,0.832141209071832,0.0340478089988867,0.29202796034665685,-0.993234065184252,-0.07970622948884276,0.5087991448093085,-1.028534828498094,-0.15724549030110757,0.775382410695155,0.8301617404846331,0.008576352780527128,0.5859519261770251,1.055276540976752,0.0,0.0,0.0,0.0
0.036175162792663695,0.030836294319305752,0.7603959887569528,0.002407321868244067,-0.554345808746199,0.011297490508427361,0.8322062820209646,0.03694972863569025,0.2998126636713586,-0.9848030014545067,-0.07991068043560345,0.5059424105392933,-1.0269661267124226,-0.15887580708216067,0.7711510096873587,0.8362855026181992,0.01630119407794591,0.5924712855407375,1.0432632035880092,0.0,0.0,0.0,0.0
0.035565462777698134,0.030909959105169436,0.7598403460874967,0.0025300850894949896,-0.5542426426011441,0.0112153508706631,0.8322757401827763,0.039740167371175854,0.3071719674170389,-0.9760415024290693,-0.08000776047082045,0.5021234318966458,-1.0240874455691387,-0.1603160416937703,0.7663572915064737,0.8424783764948162,0.024014133710153058,0.5988273501951566,1.0309286496474153,0.0,0.0,0.0,0.0
0.034726257323913635,0.030980213158685113,0.759286958408643,0.002665346518484197,-0.5541302065140631,0.011119691017321827,0.8323514658053396,0.04238053936016646,0.3140510811565087,-0.967008488528964,-0.08004686357099024,0.4970638758380686,-1.019384564963837,-0.1616701321194883,0.7609955603225185,0.8485837344384263,0.03167527260473786,0.6048626191094281,1.0183556589421174,0.0,0.0,0.0,0.0
0.03361166288430659,0.031072238982684363,0.7587520389213407,0.0028139946569097607,-0.5540040331913544,0.011010060022683857,0.8324364187252263,0.04485285355810358,0.32049668318700636,-0.9577517942838099,-0.08008335766819617,0.4904655314466231,-1.012328136030904,-0.1630589112778485,0.7550348710863806,0.8544823928773196,0.03927292092594586,0.6104612728641026,1.0055826252750093,0.0,0.0,0.0,0.0
0.032181001393201104,0.03121256794547416,0.758249351961358,0.002977682488025446,-0.5538584225536131,0.010885703697194648,0.832534373241394,0.0471772971165603,0.3266274672811959,-0.9483499747657208,-0.0801767571966994,0.48204274395539615,-1.0024154217015546,-0.16461827313637858,0.7484459828868899,0.8600734158590074,0.046840475253391224,0.6155477294982158,0.9926609027803645,0.0,0.0,0.0,0.0
0.030409208454882725,0.031425707514061804,0.7577896845585801,0.0031593784141905733,-0.5536868352381118,0.010745003005699265,0.832649657252345,0.04943142379428819,0.33264720948008814,-0.9389381885861068,-0.08038243011150718,0.4715801972490549,-0.9892613458637071,-0.16648998989344765,0.7412295362424663,0.8652665931729714,0.05451177378698663,0.6201052642740266,0.9797169189876881,0.0,0.0,0.0,0.0
0.02830316830484109,0.03172705689176139,0.7573780794568258,0.0033647889765462636,-0.5534821841006717,0.010583886191623215,0.832786966415407,0.05176138018576234,0.3388852433850411,-0.929727711358594,-0.08073362893362931,0.4590327379514298,-0.9727718851372797,-0.16880602920186538,0.7334473244482369,0.8699920569934285,0.0626507413309359,0.6242343541488988,0.9670420467220056,0.0,0.0,0.0,0.0
0.025926119420429307,0.0321109525406796,0.7570069445335449,0.003605614265153696,-0.5532363529855377,0.010392146872327071,0.8329517036205739,0.0543699305546962,0.3458369748736996,-0.9210320322358756,-0.0812105691763577,0.4446895873778941,-0.9534531022096487,-0.17167590577492575,0.7252509657548674,0.8742478278796703,0.0721363694436535,0.6282851206686023,0.9552313540499565,0.0,0.0,0.0,0.0
0.023431462506133507,0.032532938814709284,0.7566393232588052,0.003906897516980981,-0.5529320996142431,0.010144796110346944,0.8331553951573837,0.05747290944442817,0.3541105276275783,-0.913281519802487,-0.08169237595319834,0.4294303342907881,-0.9329678238854185,-0.17519877774035575,0.716864843117218,0.8782340259135353,0.0849408116132115,0.6331050333215226,0.9453470580344764,0.0,0.0,0.0,0.0
0.021219744899319735,0.03282623479506793,0.7562029483398456,0.0043253774309214114,-0.5524512280612356,0.00978628494063223,0.8334765505704246,0.06164778107166874,0.36391591930828615,-0.9067477104427619,-0.08177120819493115,0.41596390106752806,-0.9166675641433872,-0.1791334090540955,0.7087110954781302,0.8819958361015511,0.10536280542763185,0.6405666628256547,0.9386734546189348,0.0,0.0,0.0,0.0
0.019470576354929374,0.03298890545617931,0.7558348587401023,0.0048642040828222825,-0.5518481547209292,0.00930183721960186,0.8338785459970092,0.06636928920693183,0.3750481133430038,-0.9035698464241869,-0.08141958412635611,0.4055452766626846,-0.9058346822405414,-0.18375247210930928,0.7021695049891248,0.8843533749841366,0.1359512163252121,0.6500084571294453,0.9370705848409498,0.0,0.0,0.0,0.0
0.018444094469164507,0.03300801677227043,0.7556950084285133,0.0054034748924189175,-0.5512085869223411,0.00876169772886352,0.8343039786642941,0.07023290394686504,0.3859978327341941,-0.9070479323855153,-0.08066933183398059,0.39986560571812824,-0.9019142608914695,-0.18815047495556206,0.6987045620407109,0.8839626109048283,0.17216913529400024,0.6581224784361812,0.9417791356746414,0.0,0.0,0.0,0.0
0.01841608315036518,0.032962399702476754,0.7556744578623861,0.005472113350537383,-0.5512098431241794,0.008760682655325903,0.8343027120044073,0.07026327930342044,0.3860172803891035,-0.9070507339645938,-0.0806123311022502,0.39975145638659276,-0.901884115872106,-0.18816089962599758,0.6986267454581674,0.8839061553972507,0.17217221629671547,0.6581489717038717,0.9417903335775023,0.0,0.0,0.0,0.0
0.01841608315036518,0.032962399702476754,0.7556744578623861,0.005472113350537383,-0.5512098431241794,0.008760682655325903,0.8343027120044073,0.07026327930342044,0.3860172803891035,-0.9070507339645938,-0.0806123311022502,0.39975145638659276,-0.901884115872106,-0.18816089962599758,0.6986267454581674,0.8839061553972507,0.17217221629671547,0.6581489717038717,0.9417903335775023,0.0,0.0,0.0,0.0
0.018564163122204793,0.03309897457613591,0.7556203619083123,0.005628462829188356,-0.5514354311433998,0.008642330093616778,0.8341538202372667,0.07007644752513882,0.3869534983497524,-0.9073912078232448,-0.08080294640977581,0.40009774012568133,-0.9018805009323111,-0.19115312506426918,0.699757948956288,0.8856159842857022,0.17031992005818877,0.6584714795350677,0.9425372185832239,0.0,0.0,0.0,0.0
0.01913393415902949,0.03326896148509166,0.7555428330077145,0.005710746789540351,-0.5516299130765256,0.00857521599433982,0.8340253545552083,0.06984664474629841,0.3904474052557877,-0.9122378468086292,-0.08118742197549833,0.4028744528208179,-0.9057632692571521,-0.19403966562228675,0.7015547579763988,0.8877165421313987,0.1693995157299285,0.6598074443995061,0.9435809251788574,0.0,0.0,0.0,0.0
0.020232552379805254,0.03341846275002324,0.7554651967480793,0.005694385021933635,-0.5518871079965951,0.00860952062487269,0.8338549455156972,0.06961683354520369,0.39690218002379163,-0.9217680828949019,-0.08172979352881947,0.4087461735470375,-0.9139610860946612,-0.19631637797720203,0.7045809148645956,0.8900371067516551,0.17045672379237284,0.6629676294864315,0.9451743979027847,0.0,0.0,0.0,0.0
0.0219361449480926,0.03351416893778594,0.7554970945713781,0.005523101895356372,-0.5523717848599281,0.008849579751556752,0.833532597787472,0.06926138210463847,0.40656021151025595,-0.9353624778305106,-0.08252030269464611,0.4181173686460822,-0.9256529018084081,-0.19714850431116063,0.7098882161641211,0.8916859072388151,0.17504352015482894,0.6695385616209967,0.9468398899791252,0.0,0.0,0.0,0.0
0.02437678574097051,0.03357641746986721,0.7561372793889131,0.005133776873899564,-0.5535306433688517,0.009548958236980213,0.83275824137817,0.0681374007893586,0.4201686704778069,-0.9506211829277826,-0.08405005762693356,0.4316894671838469,-0.9373083527032552,-0.19543090343380018,0.7213827430567341,0.8884997679687305,0.1859736173272867,0.6845548677587472,0.9449378834290407,0.0,0.0,0.0,0.0
0.02638023812134617,0.03418955510412235,0.756744939199344,0.006271959496174525,-0.5530792470953294,0.008202193810030187,0.8330646631404098,0.06920797906120386,0.4335534290447642,-0.967841419537725,-0.07668808817758903,0.4104524110130732,-0.9209768697259282,-0.1525153679162476,0.6962982761919058,0.9027603631740393,0.16829051558828922,0.6876001687389864,0.9355116928886241,0.0,0.0,0.0,0.0
0.028533800888792697,0.03480959898775466,0.7574905777838076,0.007107343713277254,-0.553013259568185,0.007354431954897238,0.8331096762958244,0.06932303023675289,0.447448112637116,-0.9846367023725073,-0.066592243556215,0.39332188208279223,-0.9165224117214925,-0.11409277747912643,0.6765118527235606,0.9144019908519286,0.15603679518288083,0.6942176249405388,0.9259021377411047,0.0,0.0,0.0,0.0
0.030654935405662158,0.03538114107106891,0.7582269676124107,0.007555396336108164,-0.5532427913198679,0.007026386560553812,0.832956157147966,0.06862948524801016,0.4607050162689972,-1.0003684727295197,-0.05738157053198481,0.38072145695322795,-0.9193682504186398,-0.08611629902722097,0.6630110346748441,0.925845449430218,0.14982126611336108,0.7030998111066963,0.9174697932818473,0.0,0.0,0.0,0.0
0.03255893971349233,0.03591040515747533,0.7589001990572624,0.007809440050946916,-0.5535549397140915,0.0069201950804995286,0.832747291958531,0.06763473960922098,0.472476272313312,-1.0141929984025835,-0.0497385712636546,0.37108608952704436,-0.9259818908962137,-0.06581074098189243,0.6533913888880323,0.937444381549561,0.1462024495166705,0.7120585076213064,0.9099538272571359,0.0,0.0,0.0,0.0
0.034147848994959956,0.03641576861025787,0.7595207726428029,0.007996596369954567,-0.5538497944498763,0.006863840567550758,0.8325499068085883,0.0665770379084685,0.48240016704172295,-1.0255592059554233,-0.043344441955962244,0.3632173448459686,-0.9343700396337533,-0.049961137474722646,0.6456672081793178,0.9490748414963502,0.14305459809462182,0.7200848150477346,0.9028440102562586,0.0,0.0,0.0,0.0
0.03539343860853898,0.0369154784905382,0.7601131979885334,0.00817163685702157,-0.5540974525487943,0.006793733883870164,0.832383975464406,0.06550874600920474,0.490450262310108,-1.0343342098540058,-0.03766906804651618,0.3562727483521861,-0.9434787234754961,-0.0364489437173745,0.6386211153195037,0.9605899116137185,0.13945431443994846,0.7269156059131807,0.8957649165996885,0.0,0.0,0.0,0.0
0.03631249953693503,0.03742376296798806,0.7606950531486381,0.008347567602296877,-0.5543012644654456,0.006703345877209202,0.8322472538141437,0.06440132626274672,0.49678952963238937,-1.0406915466698563,-0.03227965556861391,0.349687822020302,-0.9527773369176215,-0.02408841132060255,0.6316190142900705,0.9719075827889432,0.13520731086416932,0.7326483525379398,0.8885392021499255,0.0,0.0,0.0,0.0
0.036946199941976635,0.03795111589871852,0.7612734181758831,0.008519210387237462,-0.5544768639325124,0.0066084891708808515,0.8321292918103668,0.06320391670215422,0.5016704416648623,-1.0449761207467987,-0.026919785240039865,0.34311432175813206,-0.9620101571235802,-0.01223928357634998,0.6243762032581648,0.9830046212735596,0.1304630464283049,0.7375145188161605,0.881137873822522,0.0,0.0,0.0,0.0
0.037342536249313864,0.038509418888200156,0.761846637379266,0.00868726810738813,-0.5546254929737118,0.006509915045580868,0.8320292752797805,0.06189555813485698,0.5053760401757909,-1.0476381328147975,-0.021458222530103516,0.3362770137830522,-0.9710533792756558,-0.0006654604580299817,0.6167514274031728,0.9938908297603624,0.1252184368807552,0.7416423733126203,0.8735532131280282,0.0,0.0,0.0,0.0
0.03755171590559199,0.03910416787351026,0.7624087074791864,0.008841684082635446,-0.5547623862910483,0.006425239994755142,0.831937038284902,0.06044081242912002,0.508168053935954,-1.0490816435937231,-0.015882148691899054,0.3290729063602,-0.9798660649893585,0.010830340120600284,0.6087432108670415,1.004588177938287,0.1197186129371661,0.7452404938579708,0.8658855706538421,0.0,0.0,0.0,0.0
0.03761709115620839,0.03974164749988908,0.7629505765250523,0.008977988802851807,-0.5548942752212465,0.006361603311561141,0.8318481045521771,0.058821376173339754,0.5102744995730191,-1.0496819435377038,-0.010218118767373541,0.3214272776846337,-0.9884392956469241,0.02232462317476437,0.6003896701990683,1.0151084900382352,0.11407125465015422,0.7484236965795744,0.8582327134510244,0.0,0.0,0.0,0.0
0.03757291508862785,0.04043015298478572,0.763461091552561,0.009094909374768406,-0.5550226911447963,0.006320374730315436,0.8317614729002066,0.05702310163739372,0.5118810467737767,-1.0497675684357441,-0.004508798641470949,0.3133029987346707,-0.9967651916213851,0.0338373159995901,0.5917629841506619,1.0254313801954265,0.10828839710200863,0.7512338045496428,0.8506909314703677,0.0,0.0,0.0,0.0
0.03744382209887558,0.041180568110230346,0.7639253439524784,0.009190969726604848,-0.5551479004616265,0.006302802620378792,0.8316769861957591,0.055024045239304535,0.5131263165011178,-1.0496175499956522,0.0011962230427097955,0.30475108106334703,-1.004801311638692,0.04536153154612278,0.5829842275681844,1.0354733088684929,0.10235099995535549,0.7536576183110292,0.8433871672541488,0.0,0.0,0.0,0.0
0.037244145205625794,0.042008066900255096,0.7643214804407219,0.009264504996536351,-0.5552676032468684,0.006309302230652325,0.8315962063628055,0.05279210442209215,0.5141001762321076,-1.0494780005295765,0.006845804863580574,0.2959875442077689,-1.012410863146933,0.05683332287969829,0.5742364463984765,1.045030611026444,0.09619457275668314,0.7556013762393841,0.8365050882792493,0.0,0.0,0.0,0.0
0.036976894568218496,0.042933077642985776,0.7646168213352698,0.009313792932722942,-0.555375667046288,0.006338189409621088,0.8315232703112431,0.05028558862774065,0.5148376551739425,-1.0495728173349812,0.012385554561948346,0.287514132386588,-1.0192799045444763,0.06806473986461749,0.5657943806444309,1.053676363244971,0.08969673843088727,0.7568592967302923,0.8303207770416665,0.0,0.0,0.0,0.0
0.036632608803623366,0.04397945066734036,0.7647648703265664,0.00933453866185574,-0.5554654323570836,0.0063886304997876385,0.8314626902300942,0.04745285457208501,0.515303539143331,-1.0500843706110874,0.017747966655942016,0.28024848805005814,-1.0248341328796633,0.0786546023248326,0.5581035562565425,1.060584471454723,0.08273309215296895,0.7571127523183936,0.8252541882312713,0.0,0.0,0.0,0.0
0.036189535043102225,0.04516953017935198,0.7647085961310626,0.009315054863362928,-0.5555384507064275,0.006467858591690965,0.8314135110429903,0.04423130027213627,0.5153784087864408,-1.0510940403262952,0.022838218955878745,0.2755176134132176,-1.0282050046439162,0.08792273433380618,0.551950541050376,1.064255171161592,0.07529608295046081,0.7559966956236664,0.8218797510225719,0.0,0.0,0.0,0.0
0.03561950854358751,0.04652031786667484,0.7644026346484646,0.009236093344262434,-0.555613615252874,0.006593261406812224,0.831363178177497,0.04055107808091773,0.5148922444566838,-1.0525024142181918,0.027530899065446927,0.2745960905240723,-1.028352993174902,0.0950555553606938,0.5486955173645103,1.0622458014670206,0.06753367154465632,0.7532776264141895,0.8207140397478712,0.0,0.0,0.0,0.0
0.03489311543305593,0.048057039730676265,0.7638428334779088,0.009096000164757862,-0.5556901124631959,0.00676343828269698,0.8313122262990239,0.03634782949063168,0.5137229320856582,-1.0541558343957202,0.03175774935332534,0.27744016933349974,-1.025225591422321,0.09991765014054979,0.5483620302408704,1.0546248146412356,0.059275968438978324,0.7488561484656437,0.8216938138413693,0.0,0.0,0.0,0.0
0.03398163318725005,0.04981304723275196,0.7630660508459619,0.008910220472485726,-0.5557481433520954,0.006959957212297203,0.8312738225924315,0.03156036606809686,0.5118052012886026,-1.0558618128642447,0.03552533976765914,0.2827083068863166,-1.0197868785059674,0.10309854291115256,0.549621548047088,1.0439285504281908,0.050083488744363025,0.7427924331407773,0.8241685498689033,0.0,0.0,0.0,0.0
0.03285194438153589,0.05181525499759307,0.7621210201117999,0.00868917877690493,-0.5557822082736591,0.007171799587708396,0.8312515867228836,0.026130482127306832,0.5090332414877623,-1.0572652768877333,0.038841215736754295,0.28900554985463633,-1.012838678648797,0.10509624144402732,0.5516790749704356,1.0317012423060097,0.039684465122542735,0.7352879867208197,0.8274021630551781,0.0,0.0,0.0,0.0
0.031461016496597764,0.05408442368365403,0.7610466988101843,0.008439331787223005,-0.5557918201589043,0.007391779724573538,0.8312458071569088,0.020012617892489114,0.5052210251057895,-1.0579080594118662,0.0417076584314752,0.2953397166962364,-1.0048897746642387,0.10615629503599279,0.5540528076912292,1.018776000964422,0.027935878557107864,0.7265025255364517,0.8307962614461273,0.0,0.0,0.0,0.0
0.02975815825386407,0.05663485674577277,0.7598690943273908,0.008166511328897728,-0.555776399321358,0.00761216613601757,0.8312568537923877,0.013184119756505566,0.5001129613674192,-1.0572672345712495,0.044126265260397805,0.30114517844381034,-0.9962085835247424,0.10635139764978753,0.5564259186634858,1.0055585515471412,0.014778140725155304,0.7165161075043543,0.833906248044928,0.0,0.0,0.0,0.0
0.027689648757696715,0.05947120313199071,0.7586044189414445,0.007877901738574838,-0.555734290522366,0.00782329867767778,0.8312858311072069,0.005656613513615624,0.4934027249883774,-1.054766536172603,0.046107398969567025,0.3061613993210865,-0.9869253980905636,0.10568778650580055,0.558578846553288,0.9922087638885789,0.00023795767394611637,0.705357066927888,0.8364060065788086,0.0,0.0,0.0,0.0
0.025204006507062948,0.06258308887489633,0.7572634325875928,0.007582429229076962,-0.5556644771217876,0.008014770062456312,0.8313334223359496,-0.0025121306180806687,0.4847507325494134,-1.0497732250054768,0.04768065505877216,0.31030895196268965,-0.9771286875198766,0.10418851321441719,0.5603580610892737,0.9787460508110634,-0.015537007349843103,0.6930501310928322,0.8380596161670388,0.0,0.0,0.0,0.0
0.022258164858995844,0.06593951493546227,0.755855684384706,0.007291200390598137,-0.555567901249903,0.008176231320135887,0.8313989985193883,-0.011205578211323584,0.4738072793723142,-1.0416051706231704,0.048909916434975304,0.31360655523257414,-0.9669332436627933,0.10194395076201285,0.561656417798253,0.9651080546863955,-0.03225970653754012,0.6796573021408739,0.8387008736182294,0.0,0.0,0.0,0.0
0.018826160477357207,0.06948430466329497,0.7543930837007778,0.007017825830467053,-0.5554480809803007,0.008298057639821162,0.8314801992202345,-0.0202394665657317,0.4602522981332219,-1.0295711809143822,0.049914653130796065,0.31614295372985607,-0.9565164356983535,0.09915155406002835,0.5624023319187197,0.9511868702745323,-0.04950816600362655,0.6653093485045743,0.8382250883170311,0.0,0.0,0.0,0.0
0.014912606207913272,0.0731337239917867,0.7528914225570146,0.006777838239127457,-0.5553113081479798,0.008372832789283382,0.8315727915359342,-0.02936215662576605,0.4438652078728983,-1.0130749355515825,0.05089697054903943,0.31810700792246394,-0.9461240842414277,0.09616984359048758,0.5625685587877316,0.936861617674749,-0.06674824383896284,0.6502259969640531,0.8366098516829007,0.0,0.0,0.0,0.0
0.01057387782366956,0.07677698598671202,0.7513654888263988,0.006585707810404681,-0.5551668323967583,0.00839894017014008,0.8316705324004235,-0.0382694778474816,0.42464100710742225,-0.9918312825118459,0.05216555468110117,0.3198769281516041,-0.9360527085592892,0.0936161802930178,0.562222510309196,0.9220412720570147,-0.08336243466949014,0.6347059630351645,0.8340181924104197,0.0,0.0,0.0,0.0
0.005949712467636605,0.0802785545483314,0.7498034595100078,0.006450216913238325,-0.5550254670703578,0.008376995313185538,0.8317661639875875,-0.046611844371960254,0.40296683709030534,-0.9662748145301915,0.054163632158587736,0.32213028580201325,-0.9266413236910314,0.09249037518499488,0.5616428943731246,0.9067680432132346,-0.09872320321191999,0.6189763993130857,0.8311348392699954,0.0,0.0,0.0,0.0
0.0015094527497055846,0.08359557408605149,0.7481094546317559,0.006355442742348297,-0.5547754477308195,0.008341983349314437,0.8319340251825363,-0.054386193267944374,0.38130978406942934,-0.9412531492462515,0.05717832307268606,0.32530517546003174,-0.9174238375333724,0.09419926788503405,0.5621360462475575,0.8907917810383637,-0.11260572323616351,0.6031352033384998,0.8292324373330933,0.0,0.0,0.0,0.0
-0.0024382484250279318,0.08648494806290107,0.7463800863912425,0.006271404177372915,-0.5544979730759807,0.00833469176797402,0.832119703082078,-0.06111845768033688,0.36119657219398343,-0.9184674236045873,0.061380815067531624,0.3298227825726531,-0.9093033234334107,0.10121396144796829,0.5631769334572605,0.873974765593927,-0.12390246698648881,0.5882133108059991,0.8291316627024419,0.0,0.0,0.0,0.0
-0.005564322488007929,0.08865885251174581,0.744757758967664,0.006157749086759137,-0.5542438986922552,0.008402302503574082,0.8322891229622265,-0.06625547169616325,0.34441129298030726,-0.9000641935398929,0.06636264861408656,0.33510617120495284,-0.9034254702675016,0.11548101685935139,0.5641196045259308,0.8557858701071491,-0.1314178319400889,0.57528444673955,0.8315941168665333,0.0,0.0,0.0,0.0
-0.007419153312883963,0.08985153246891416,0.7435169406140866,0.005986804883355218,-0.5540702703012583,0.008554147081259057,0.8324044211219036,-0.0692323175192555,0.3337537629176249,-0.8892862612162953,0.07042140786603637,0.33930519783614416,-0.9008064083378008,0.13391985109693527,0.5653317258699037,0.8370073818895024,-0.13436370602537973,0.566297953396325,0.8361416197633231,0.0,0.0,0.0,0.0
-0.007444825492291076,0.09000737443676099,0.7434221083930315,0.005868470167958174,-0.5540923630429455,0.00852339470488971,0.8323908733390084,-0.06940493210848937,0.33354353626306144,-0.8892251874610599,0.07042389259080027,0.33931910878390903,-0.9008263595421658,0.13394492665077462,0.5653697289377801,0.8370160936819141,-0.13440407497123566,0.5661937829453891,0.8360470514056247,0.0,0.0,0.0,0.0
-0.007444825492291076,0.09000737443676099,0.7434221083930315,0.005868470167958174,-0.5540923630429455,0.00852339470488971,0.8323908733390084,-0.06940493210848937,0.33354353626306144,-0.8892251874610599,0.07042389259080027,0.33931910878390903,-0.9008263595421658,0.13394492665077462,0.5653697289377801,0.8370160936819141,-0.13440407497123566,0.5661937829453891,0.8360470514056247,0.0,0.0,0.0,0.0
-0.007444825492291076,0.09000737443676099,0.7434221083930315,0.005868470167958174,-0.5540923630429455,0.00852339470488971,0.8323908733390084,-0.06940493210848937,0.33354353626306144,-0.8892251874610599,0.07042389259080027,0.33931910878390903,-0.9008263595421658,0.13394492665077462,0.5653697289377801,0.8370160936819141,-0.13440407497123566,0.5661937829453891,0.8360470514056247,0.0,0.0,0.0,0.0
-0.006547958699864491,0.09045602978326658,0.743303239276288,0.005882625819840494,-0.5543668426549776,0.008332249256431033,0.8322099327096161,-0.07009430677821289,0.3393861573664672,-0.897785298128491,0.0699358669395403,0.34378289674553897,-0.9072959485013208,0.13206232728131317,0.5663652917947327,0.8424280078142227,-0.13775492189569088,0.5674998148638414,0.8366765882248044,0.0,0.0,0.0,0.0
-0.004843480260149704,0.0912172235909407,0.7431111312177893,0.005859349424483538,-0.5546320210659114,0.008240777874636469,0.8320343014639991,-0.07186473360850708,0.3506003760957371,-0.91580766525277,0.06864757813106453,0.35265518632073317,-0.9210127954695339,0.12978885448810784,0.5678098805775447,0.8505362090292728,-0.1424919445494891,0.5699958885298574,0.8377627780767141,0.0,0.0,0.0,0.0
-0.0023822091966515845,0.09238981908879706,0.7429098093028765,0.005776556930431083,-0.5549191413197796,0.008255029159552722,0.8318432739888704,-0.07495857205634893,0.36678332394764995,-0.942189077692287,0.0662861375686747,0.365349151554964,-0.9404644855593816,0.1267439839794655,0.5700928731479318,0.8609643352923889,-0.14897142158333812,0.5742488068415965,0.8380472519047442,0.0,0.0,0.0,0.0
0.0008458555712640291,0.0942207985068614,0.7430639081079586,0.005574449833566732,-0.55534467428327,0.00844385630621329,0.8315587288610119,-0.08010050075957283,0.3883144931854493,-0.9756069616364688,0.06206306721668117,0.3816714828982376,-0.9629158002266808,0.1222899566069325,0.5754669733158966,0.8710759511201158,-0.15789961708186023,0.5831757891576103,0.8328645207055924,0.0,0.0,0.0,0.0
0.005125316644154785,0.09737490594252816,0.7451429295232543,0.005090708423648983,-0.5564264475816851,0.00914081315891051,0.8308309928343823,-0.0895172866779583,0.418806511469766,-1.01356906274861,0.05352694619037586,0.40362126842066604,-0.9815761395122572,0.115547315916444,0.5937614182794736,0.8688368138103308,-0.17073479499983263,0.6091910534467659,0.8047305356293397,0.0,0.0,0.0,0.0
0.008531874189656242,0.10033458259881499,0.7468296660889677,0.005072592916961034,-0.5559391921830398,0.008886035533582295,0.8311599856636891,-0.08231129399463845,0.3912262621144838,-0.9745194878420129,0.04733177980205613,0.4204919046946619,-1.002770518467629,0.1011252426099792,0.6083663762177299,0.8650096756382499,-0.14665769452764743,0.5993794899950423,0.8403991186527227,0.0,0.0,0.0,0.0
0.01236848808207694,0.10339910185240005,0.7484209866291663,0.005033583914902712,-0.5555794466185223,0.008814545506390898,0.8314014946555869,-0.07448293040366455,0.37121014361050336,-0.9551192952738011,0.04041312698236087,0.4391740755892111,-1.0260563758952435,0.08678950757055583,0.6233787901690175,0.8624130757109696,-0.12485739409929643,0.5946391399537604,0.8687508264495821,0.0,0.0,0.0,0.0
0.016089740098699103,0.10655924422969358,0.7499831887054709,0.004868781445599821,-0.5554537563861678,0.00891860244173434,0.8314853444374212,-0.06788016433476111,0.3575029518161976,-0.948767496863736,0.032786253927722074,0.4565277094678697,-1.0454861424256918,0.07284517851598833,0.6383852939299683,0.8601927936369759,-0.11129882435539078,0.5912645241866631,0.891336873712159,0.0,0.0,0.0,0.0
0.019476348961889878,0.10973324749068376,0.7515273610891208,0.0046183682058592735,-0.5554449662842226,0.009109524062864652,0.8314905752177725,-0.06282542522192366,0.3477013436687598,-0.9494754582874475,0.024840793374434518,0.47162523343986384,-1.0603974526839786,0.05897391851241193,0.6530356900981593,0.8576337960946964,-0.1044062295388841,0.5880961985524592,0.9100258413694965,0.0,0.0,0.0,0.0
0.022424712200478706,0.1128629055279412,0.7530325836136429,0.004329303601486462,-0.5554800864575863,0.00933170659928575,0.8314662049243754,-0.05910726426739167,0.3401953929603455,-0.9538687061752128,0.016845736918451253,0.4840996460894932,-1.0709070452182978,0.044977800896113806,0.6669459433739566,0.8546818082644569,-0.1014627457183072,0.5849096441518139,0.9262306236564861,0.0,0.0,0.0,0.0
0.024912074599156363,0.11590061651395236,0.7544787648617252,0.004034009176748139,-0.5555215395654537,0.009554630054059533,0.8314374630080846,-0.05629330505775529,0.3339096293746247,-0.9600823213576332,0.00900100966922937,0.49397406599723104,-1.0775067090874157,0.03087012118589368,0.6798744532410606,0.8514363060748533,-0.10043852990932546,0.5816628954398251,0.9409142040202703,0.0,0.0,0.0,0.0
0.02696543981899629,0.11880867558186778,0.7558554260968167,0.003750403040692753,-0.5555535116953625,0.009764682205559096,0.8314149872966011,-0.053947467795360825,0.3281360274022916,-0.9670926905252916,0.0014507047056325096,0.5015046495065677,-1.080841045819292,0.016812059099128265,0.6917359621094887,0.8479725330867588,-0.10013889206279261,0.578311978884099,0.9547127392856581,0.0,0.0,0.0,0.0
0.028638056924901453,0.12156045999499711,0.757160342290359,0.0034868631119895515,-0.5555718317728656,0.009957537614223789,0.8314016051048027,-0.05172849117978818,0.32242369904364915,-0.9743458757631545,-0.005709367459810026,0.5070583985602272,-1.0815835631073158,0.0030184644470808465,0.7025596151429573,0.8443196926746632,-0.09993806760816945,0.5748042709657417,0.9680415325811916,0.0,0.0,0.0,0.0
0.029993266151083876,0.12414033861975139,0.758395847696781,0.0032464657182518044,-0.5555775796119494,0.010133207499489252,0.8313966150993403,-0.04940975691546964,0.3164953700957646,-0.981552666693829,-0.012424200727635237,0.5110301132851324,-1.0803693166662074,-0.010310864333198486,0.7124390464248345,0.8404838502488124,-0.0995275935965018,0.5711020817861238,0.9811693667688843,0.0,0.0,0.0,0.0
0.03109440091313545,0.12654207694030253,0.759565671574238,0.0030295864654275844,-0.5555735940483808,0.010293360771912712,0.8313981296142257,-0.04686114581839309,0.3101852224312382,-0.9885743956057753,-0.018670876365861084,0.5137929653741141,-1.0777615889948229,-0.023024684323803134,0.7214923488108452,0.8364723512162787,-0.0987618384188476,0.5671997812592777,0.9942651779550294,0.0,0.0,0.0,0.0
0.031999140486121215,0.12876634798845507,0.7606726503548318,0.0028353404246923013,-0.5555627553636445,0.010440010216236898,0.8314042289308591,-0.044019862888682516,0.3034006792823571,-0.9953547426942774,-0.024449117622364465,0.515673517332778,-1.0742409570708238,-0.03502722976221589,0.7298336290944267,0.8323110419111542,-0.09757817730338789,0.5631326808690168,1.007422573278679,0.0,0.0,0.0,0.0
0.03275681143229287,0.13081798817301865,0.7617167886912422,0.002662433431796999,-0.5555471445291706,0.010574861706872756,0.8314135276464935,-0.040863459767280064,0.2961149224199343,-1.0018694182040107,-0.029772135380099204,0.5169421606990543,-1.070209633575205,-0.046270510155310494,0.737551786400628,0.828058663054625,-0.09595640789497777,0.5589828206157326,1.0206642715966017,0.0,0.0,0.0,0.0
0.03340731123172687,0.1327034639666594,0.7626930504675399,0.0025097992910130674,-0.5555275275236702,0.01069893615841478,0.8314255227234938,-0.03738916778143139,0.28839945607211837,-1.00807452269403,-0.034658724651823104,0.5178111281948831,-1.0660049135481513,-0.05674158822010163,0.7446909458349258,0.8238254173652536,-0.09389040203580794,0.554885856897892,1.0339228922415022,0.0,0.0,0.0,0.0
0.03398046585548739,0.13442892342036747,0.763588499395957,0.002377253773316449,-0.555502942533413,0.010812276463724468,0.8314408723288078,-0.03359923089964187,0.2805036971496834,-1.0138414788583974,-0.03912746486366918,0.5184331580215912,-1.0619143756683938,-0.06645178195131873,0.7512281619625011,0.8198011462403195,-0.0913517713873511,0.5510427600178582,1.0469873830984795,0.0,0.0,0.0,0.0
0.034494877751269304,0.1359992715907947,0.7643789700195704,0.002266285834363252,-0.5554704864002735,0.010913681906361949,0.8314615410432445,-0.02949124002162532,0.27297309374033324,-1.0188778567350214,-0.04319402582829992,0.5188951887755782,-1.0581833958179423,-0.07543305436245243,0.7570479441328166,0.8162932930864362,-0.08822833987430277,0.5477451091097597,1.059396611820329,0.0,0.0,0.0,0.0
0.0349561170480476,0.13741886432724965,0.765026768800949,0.0021808584256547774,-0.5554257739288685,0.011000601496909523,0.8314904931980588,-0.025054848442455733,0.26675455934182607,-1.0226543273632798,-0.046872972254349166,0.5192059707322553,-1.0550045942786426,-0.08374466733611725,0.7619234774964457,0.8137605615610548,-0.0842299387583979,0.5454378505069254,1.0702554363199026,0.0,0.0,0.0,0.0
0.03535624638197058,0.13869425655152617,0.7654841312050733,0.0021272673963641364,-0.5553652219129064,0.011069870361694588,0.8315301575969616,-0.020280168989373522,0.2631509433691266,-1.0243879514662046,-0.050185340456960534,0.5192900297122865,-1.0524814923491825,-0.09148358925759248,0.7655396640491746,0.8127902632275202,-0.07880052139392081,0.544867443390864,1.0779524522187096,0.0,0.0,0.0,0.0
0.035680748553848715,0.13983750038684972,0.7657139456816914,0.0021093473497513634,-0.5552932470524001,0.01112228497174017,0.8315775701693544,-0.015184211919850848,0.2633622997473124,-1.0231833542608544,-0.05317076860229652,0.5190301729860264,-1.0505618136604664,-0.09874834384995149,0.7676418196686727,0.8138838317816044,-0.0712263464175692,0.5473215391505278,1.0798948549976704,0.0,0.0,0.0,0.0
0.03591911340653908,0.14086051579134562,0.7657182533466351,0.0021256271452574182,-0.5552096847788481,0.011157715855907564,0.831632847483726,-0.009825841954769335,0.2673685039844122,-1.0190097501924902,-0.05585856688442687,0.5183587423690403,-1.0491269233016258,-0.10559724096840914,0.7682134670014259,0.8170714160317595,-0.061595303201566365,0.5527327882690422,1.075997472989174,0.0,0.0,0.0,0.0
0.03606673997513821,0.1417767595320578,0.7655399567324986,0.00216947880317602,-0.5551094285593138,0.011175118229477319,0.8316994243227729,-0.004303983506559874,0.2739521589409698,-1.0127407430327864,-0.058271943103344874,0.5172652202212257,-1.0479969247183019,-0.11205357322094185,0.7674893758274012,0.8218938132527178,-0.05076308186203029,0.5597096204253008,1.0687046249853536,0.0,0.0,0.0,0.0
0.03611518608263045,0.14260738242303378,0.7652355869281633,0.0022324389959471934,-0.5549946310874121,0.011177246111217374,0.8317758381016161,0.001269712147651681,0.28180753506254447,-1.0051564402466855,-0.06045730222073617,0.5157074025774522,-1.0468418304603242,-0.11815229002758314,0.7657859430641248,0.8277745845988218,-0.039387175560507894,0.567442778102878,1.0595215346497022,0.0,0.0,0.0,0.0
0.03604459709322154,0.14337725713340835,0.7648542577852872,0.0023088440312625637,-0.5548678296271174,0.011166321033560361,0.8318603693882207,0.00680032685684602,0.2899897728370148,-0.9967811922678171,-0.062470266929337374,0.5135669061394087,-1.0452448682018207,-0.12396920864890221,0.7633462555670216,0.8342419693921505,-0.027836594695400653,0.5754516809672439,1.0492735660180685,0.0,0.0,0.0,0.0
0.035824047105189445,0.14411207809383306,0.7644336664595196,0.0023957327503878563,-0.5547298829087943,0.011143511992497494,0.8319524262919468,0.012213275670554575,0.29795998395567813,-0.9879029368865639,-0.06436784043317591,0.5106553685632741,-1.0427393952250967,-0.12960290489128062,0.7603111432169409,0.8409602044345104,-0.016291423217630337,0.5834224320163138,1.0383796990503287,0.0,0.0,0.0,0.0
0.0354141871499222,0.14483765473773394,0.7640020546341161,0.0024920205764757033,-0.5545795835342395,0.011109110163456034,0.8320528006273472,0.01745064773614432,0.3054793915974626,-0.9786521364049227,-0.06620644791615737,0.5067308101901653,-1.0388257540777077,-0.13516195758040922,0.7567368758077264,0.8476995121335718,-0.004835443407629893,0.5911343380639906,1.027034948843332,0.0,0.0,0.0,0.0
0.03477040193912713,0.14558014049921766,0.763581274339858,0.0025979432037984106,-0.5544138713233556,0.011062731109953395,0.8321635211638085,0.022473487506280008,0.3124896071892718,-0.9690830807038471,-0.06804238132368155,0.5015138488485207,-1.032979896219469,-0.14076033959064593,0.7526233993674869,0.8542972275297721,0.0064952919273368135,0.5984264787571656,1.0153244069791794,0.0,0.0,0.0,0.0
0.03384690340258246,0.14636581729800788,0.7631891080093546,0.002714898447892075,-0.5542282100803207,0.01100338493406089,0.8322875981279394,0.02727418873393716,0.31903198067957367,-0.9592354559184963,-0.06993120010635946,0.49470772996865736,-1.0246706067156586,-0.1465142033679307,0.7479416428649579,0.8606264393778356,0.01770166993212014,0.6051813212782347,1.0032962479403513,0.0,0.0,0.0,0.0
0.032603132829599965,0.14721922878100752,0.7628401916721759,0.0028456618191965,-0.5540169648502971,0.010929296575916334,0.8324287689305501,0.031897115085336276,0.32521580634027814,-0.9491732544731165,-0.0719230792054,0.4860318720988944,-1.0134048003328047,-0.15253382358257309,0.7426592032389037,0.8665752942457757,0.028842252147501884,0.6113219299256805,0.991018639187166,0.0,0.0,0.0,0.0
0.031014231934821467,0.14815846536442037,0.7625452388100427,0.0029950593924359726,-0.5537737080450627,0.010837219286455091,0.8325912950394058,0.03646085921654367,0.3312273830895764,-0.9390057585482854,-0.07405108286135116,0.4752821232884092,-0.9988250227044536,-0.15890733711601268,0.736767491855654,0.8720373680231722,0.04009476109608043,0.6168319006392895,0.9786435427325346,0.0,0.0,0.0,0.0
0.029087579936061543,0.14918631249959816,0.7623080095027636,0.0031714882447665947,-0.553491253477285,0.01072066736202495,0.8327799476919278,0.04116950558735086,0.33736374278537035,-0.9288980747413085,-0.07630906839284027,0.4624353336583645,-0.9808941197011951,-0.16567810449372714,0.7303128215118208,0.8769178896373053,0.051895930368990255,0.6218183521819736,0.9665007248919315,0.0,0.0,0.0,0.0
0.02688751843882148,0.1502760129103796,0.7621182966072542,0.003390309044105273,-0.5531604920450545,0.010565835377100126,0.8330008037017987,0.046293102139352234,0.3440613484799036,-0.9190800354309405,-0.0786157646743846,0.447822018442583,-0.9602238165506589,-0.17282729105471833,0.7234267750037081,0.8811745996166913,0.0652458403412069,0.6266528585442761,0.9552429416860184,0.0,0.0,0.0,0.0
0.02456948103053395,0.1513504493862366,0.761935674615446,0.003681778687625596,-0.5527591068776779,0.010341782016243667,0.8332687812550136,0.052105815835495665,0.3518169170840511,-0.9098269815911167,-0.08075975260766217,0.43239770597715893,-0.9386739322447274,-0.1802847572151825,0.7163107916304141,0.8849314552978417,0.08232399377104499,0.6322293028810945,0.9460041143003733,0.0,0.0,0.0,0.0
0.022516573937765693,0.15220659833259112,0.7616887235504305,0.004108296441909861,-0.5521646940779651,0.009983465399487194,0.8336651623600148,0.05913602447483121,0.36065921031194004,-0.9011924748294993,-0.08222841113249611,0.4188496944941609,-0.9216286046368994,-0.18764975990293917,0.7093574301285694,0.8881062827837608,0.10763959325103237,0.6403898133979679,0.9401580422628604,0.0,0.0,0.0,0.0
0.020890188649648547,0.15279055175763553,0.7615081758690053,0.004675410268390617,-0.5514237325095552,0.009466574968369303,0.8341584931668687,0.06665898415824044,0.370101130899648,-0.8949305864961126,-0.08285857423299414,0.40846101618839137,-0.9105341959399511,-0.19493990318166365,0.7038632913153304,0.8894186396250447,0.1438340219808769,0.6503681109666476,0.9396542690905881,0.0,0.0,0.0,0.0
0.01992025128432493,0.15303257862398467,0.7615194778239518,0.005246216309645327,-0.5506330949404499,0.008867219802214825,0.8346837990423159,0.07275443372374152,0.3783855276405901,-0.8939589888310946,-0.08254815958109586,0.4028431398176428,-0.9068024276048012,-0.20081267170504175,0.7010419173946814,0.8877316946858206,0.18536688092866754,0.6584718998841689,0.9458179580107078,0.0,0.0,0.0,0.0
0.019904008534372908,0.15301452390173548,0.7615034601972916,0.005294943714553095,-0.5506266918026358,0.008860752212417746,0.8346877840940138,0.07278893478686334,0.37840466134850126,-0.8939598914742416,-0.0825248664330083,0.40273705871525,-0.9067701567716955,-0.20083040707825323,0.7009661646188129,0.8876739947029533,0.1853719978410605,0.6584977679861431,0.9458296967000163,0.0,0.0,0.0,0.0
0.019904008534372908,0.15301452390173548,0.7615034601972916,0.005294943714553095,-0.5506266918026358,0.008860752212417746,0.8346877840940138,0.07278893478686334,0.37840466134850126,-0.8939598914742416,-0.0825248664330083,0.40273705871525,-0.9067701567716955,-0.20083040707825323,0.7009661646188129,0.8876739947029533,0.1853719978410605,0.6584977679861431,0.9458296967000163,0.0,0.0,0.0,0.0
0.020103227494121693,0.15324063200174456,0.7615075226470803,0.005442476602713187,-0.5509478944344063,0.008777243175217012,0.8344757378551915,0.07230698351297471,0.3798228168449758,-0.894525941715071,-0.0829906072657632,0.40315023304932934,-0.9060641181661117,-0.20436948693624318,0.7027827149727064,0.8892628787917551,0.18346463804151536,0.6596222105994476,0.9460724421318486,0.0,0.0,0.0,0.0
0.020713980663502236,0.1535264872499148,0.7614560275925568,0.00551377474385815,-0.551202713985546,0.008737323026742506,0.8343073927332592,0.07174562074881041,0.3838417115286614,-0.8999754973871319,-0.08370439938453779,0.4058646688835733,-0.9093147747056828,-0.2080068542569479,0.7050035051101023,0.8915487317336914,0.18225823255877355,0.6614566653938617,0.94673825812133,0.0,0.0,0.0,0.0
0.021840348255855933,0.15380136579689352,0.7613614231489078,0.005489305219611988,-0.5514938092221777,0.008789146265303185,0.8341146185181898,0.07118627137158577,0.39078258495543083,-0.9103344180347047,-0.08458853185861709,0.41155654210480297,-0.9169934731483627,-0.2112032101102756,0.7081658214794756,0.8944449873282978,0.18290709170018452,0.66477310738307,0.9482494825799344,0.0,0.0,0.0,0.0
0.02355435863371824,0.15403294386759397,0.761317018838399,0.005320509699642964,-0.5519847349440041,0.009025499698880104,0.8337883933711951,0.07052021900976883,0.40083952038363724,-0.9249468864562286,-0.08571665210930525,0.42059639315694497,-0.928326823765891,-0.21327238129777307,0.7132627193122119,0.897235477897599,0.1868729651764676,0.6710340715778323,0.9502677692201787,0.0,0.0,0.0,0.0
0.025972248645602772,0.15425086200958468,0.7617561361870452,0.004971465054510138,-0.5531040410971667,0.00966178248307757,0.8330413280362776,0.06914901366135258,0.4146231834270086,-0.9414494562164554,-0.0875425159664038,0.4335391233705228,-0.9399967274275882,-0.213634648555281,0.7238810862494695,0.8964512190525022,0.1965348449478273,0.6847306886091098,0.9496909712143581,0.0,0.0,0.0,0.0
0.027997415486072732,0.15498722544123592,0.762255384337226,0.006118550288906722,-0.5527435299725676,0.008315134314026381,0.8332874725790416,0.06991020458350507,0.4283259084723341,-0.9592907079543826,-0.08047200727092256,0.41206285774423895,-0.9229930219245965,-0.16728252402085977,0.6993133707415782,0.9088018282983399,0.17816522574354113,0.6875041791849532,0.9413050995833911,0.0,0.0,0.0,0.0
0.030169641156903057,0.15572867181842837,0.7628670899697408,0.006984232502662737,-0.5527422069237082,0.007434314219328109,0.8332898680252542,0.06978321655842687,0.44250540612620276,-0.9767962430323635,-0.07056286861300964,0.3947320347909492,-0.9182073877642742,-0.12597363218360122,0.6796846535956905,0.9193547489755728,0.16489576974637243,0.6935223584300532,0.9328806976943723,0.0,0.0,0.0,0.0
0.032308990556156734,0.1564210413058724,0.7634921945282775,0.007460107268621527,-0.5530057073629849,0.007067843523690928,0.8331140858318444,0.06886550927235496,0.4560717247796858,-0.9933174885578855,-0.061519573590100116,0.3819470088033109,-0.9208833249457562,-0.09645805237349435,0.6662929645889333,0.9303003935881514,0.157627878217515,0.7018216826080895,0.9253092298910784,0.0,0.0,0.0,0.0
0.03423001499352359,0.1570597241811711,0.7640829555841283,0.007731084892215486,-0.5533397735270787,0.006934812024346385,0.8328908894576633,0.06765475561253378,0.46813633383890396,-1.0078648834451767,-0.054046149585660244,0.37217567303653554,-0.9274126379330203,-0.07546932249904974,0.6568032041851292,0.941753782464739,0.15313226501288343,0.7103458805151041,0.9183714527773482,0.0,0.0,0.0,0.0
0.035834902464682024,0.15765799701597724,0.7646450731060495,0.007925270661914827,-0.5536521628685943,0.0068641324507871795,0.8326820259388099,0.06639853939089128,0.47831956745850834,-1.019840119047048,-0.047822012275801545,0.3642201309633183,-0.9357725544549421,-0.05939097737771897,0.6492294207989836,0.9534335467797584,0.1493145668904898,0.7180822423615991,0.9116476085764111,0.0,0.0,0.0,0.0
0.03709680298090463,0.15823304376347375,0.7651972328454159,0.008098918127687515,-0.5539176050594047,0.0067915147465857206,0.8325043961793002,0.06515334315924497,0.4865958026761673,-1.0291111689770838,-0.04231452258879247,0.3572405038521518,-0.9448921067448822,-0.04585162694846838,0.6423523567903768,0.9651009289382596,0.1452596152040063,0.7247506959751256,0.9048390773572436,0.0,0.0,0.0,0.0
0.03803320219366149,0.15880151886679475,0.7657520877487882,0.008269053744464027,-0.5541382167794757,0.006704759459116792,0.8323565976522498,0.06389572862330908,0.4931372027667867,-1.035879152268581,-0.037084058684708404,0.35065551239275317,-0.9542263940836039,-0.03355069526717542,0.6355269176513803,0.9766233106600576,0.14070285568355945,0.730403811560973,0.8978045024716187,0.0,0.0,0.0,0.0
0.03868519679731714,0.1593775820339216,0.7663129796507213,0.008434883471659348,-0.5543261072746778,0.006612784851494497,0.8322305513564314,0.062578940832402,0.49820555259605714,-1.040520352015162,-0.03186586585944665,0.3440920746543438,-0.9635082490770742,-0.021812591119910806,0.6284559818993465,0.9879510745529522,0.135697093464795,0.7352221339590277,0.8905267179952195,0.0,0.0,0.0,0.0
0.03910142209170801,0.15997454020475801,0.766875630506924,0.008595538440992045,-0.5544870362724164,0.006519864570744938,0.8321224277056355,0.061171650166093744,0.5020868392788892,-1.043489579467915,-0.02653302615572486,0.33728919141239105,-0.9726115114307706,-0.010351095298229957,0.6210107142023533,0.9990820156246585,0.1302745469016902,0.7393459676573914,0.8830343655463965,0.0,0.0,0.0,0.0
0.03933112685421015,0.16060121965369978,0.7674320771177365,0.008743900849233726,-0.5546330024019015,0.006438694744048661,0.8320242304492004,0.05963919533821891,0.5050467002289356,-1.045210236471888,-0.021068624405989174,0.33012212543256036,-0.9814884580099207,0.0010184533226078787,0.6131797679653067,1.010031898636197,0.1246046399585233,0.7429477294782131,0.8754234042033924,0.0,0.0,0.0,0.0
0.03941709128563797,0.16126571091619862,0.7679719193912546,0.0088754719225089,-0.5547714983462266,0.0063766951165520735,0.8319309757306947,0.057957908645457426,0.507313253640655,-1.0460621770647478,-0.01550230857642941,0.32251465393654694,-0.9901272261389432,0.012380978627002659,0.6050018420373825,1.0208101034309285,0.11878896381784425,0.7461381471370236,0.8678000453334518,0.0,0.0,0.0,0.0
0.03939301134813049,0.16197715527816153,0.7684828038899347,0.008988182970940322,-0.554905662170829,0.0063367567207099846,0.8318405881969797,0.05610840820996107,0.5090695665869308,-1.0463722705287322,-0.009880562414105926,0.31443200028604756,-0.9985194070138771,0.023765039913089897,0.596551894644981,1.0313953602031158,0.1128529788651492,0.7489617100616144,0.8602741319689517,0.0,0.0,0.0,0.0
0.039282595707762026,0.16274724037073812,0.7689488572733013,0.009081219109057495,-0.5550351711167385,0.006319117716760801,0.8317533041919267,0.05406834731609642,0.510451049734392,-1.046419597696113,-0.0042522572927258095,0.305917320613947,-1.006621063168114,0.035155735675844485,0.5879474522051983,1.0417024607364997,0.10676065118775521,0.7513937619514195,0.8529760813896741,0.0,0.0,0.0,0.0
0.039099378667904666,0.16359112874770065,0.7693476132260507,0.009152884344078514,-0.5551580698453681,0.006324380755945048,0.8316704542075564,0.051805035022860685,0.5115427824283525,-1.0464445271870446,0.0013320754541544383,0.29718444021673,-1.0142940663961908,0.04649108638291628,0.5793677540361649,1.0515235560412053,0.10044941626132071,0.7533379297938141,0.8460950946827255,0.0,0.0,0.0,0.0
0.038845717274066334,0.16452844091023874,0.7696461428825797,0.009200654025778812,-0.5552697206260543,0.006352433362712497,0.8315951730930945,0.04927562655726759,0.5123734724650932,-1.046658842420323,0.006818707581807914,0.28874005223296,-1.0212231352199397,0.05759838593735771,0.5710823151853582,1.0604226751084624,0.0938184938177275,0.7545957111985551,0.8399153486652199,0.0,0.0,0.0,0.0
0.03851129118472577,0.16558235691631057,0.7697982015882723,0.009220680709521036,-0.5553633819659285,0.006402050866786783,0.8315320238952426,0.04643052980092359,0.512902147792047,-1.0472338254276432,0.012145688857801151,0.28150149223545995,-1.0268303361380393,0.06808656679208874,0.5635233295551589,1.0675570396436078,0.08674013556854776,0.7548479293300071,0.834852066465989,0.0,0.0,0.0,0.0
0.03807370783457696,0.1667745450422322,0.7697475900909712,0.009201891571990433,-0.5554402493232893,0.006479910782483394,0.8314802856228346,0.04320953753088679,0.5130053903776952,-1.0482406660395285,0.017224689618363723,0.27679781947234494,-1.0302424559418704,0.07729463971294596,0.557460259854801,1.0714005200601169,0.07920263639927067,0.753733037695666,0.831466040565892,0.0,0.0,0.0,0.0
0.03750466939714752,0.1681215468649263,0.7694500740209823,0.009126057565780955,-0.555517936861528,0.006602122165710575,0.8314282584091826,0.03954624070080232,0.5125132141149635,-1.0495771321261793,0.021936704711489955,0.27590349279603804,-1.0304162910681007,0.08442409990802331,0.554239263625407,1.069477897270661,0.07134303818601093,0.7510199938035903,0.8302533668342091,0.0,0.0,0.0,0.0
0.03677546134332503,0.16964774830781668,0.7689020585832511,0.008992075637715079,-0.5555948709075856,0.006766369605337911,0.8313769892409055,0.0353805160227682,0.5113066782455332,-1.0510927248296473,0.026216940101907373,0.27877283586635493,-1.0272993119344163,0.08933531512677088,0.5538839178286428,1.0618524253080772,0.0629865266450976,0.7466084437164929,0.8311465444446012,0.0,0.0,0.0,0.0
0.03585927348565427,0.17138443279617332,0.768140198013691,0.008813007025699928,-0.55565424742642,0.00695771206164453,0.8313376440815194,0.030650993934207726,0.509324808979845,-1.0525960472898992,0.030065511829583207,0.2840765161491505,-1.021861447939905,0.09262575347860023,0.5550833559567279,1.0510846432428118,0.05374318914734618,0.740574210728628,0.8335255680098368,0.0,0.0,0.0,0.0
0.034724897778412485,0.17335731962455164,0.7672131771253301,0.008598719637477083,-0.5556908389298029,0.007165521355034458,0.8313136645417292,0.025302816365476644,0.5064699778566844,-1.0537437017505615,0.0334878517243077,0.2904193794161733,-1.014909834834289,0.09477973756688472,0.5570601190654383,1.0387395454428663,0.043350710318401944,0.7331181070794043,0.8366714091984045,0.0,0.0,0.0,0.0
0.03333113133213288,0.1755864773209933,0.7661603382887878,0.008355410109173112,-0.5557039374083393,0.007382539623479852,0.8313054908873655,0.019293202036100538,0.5025657046697156,-1.0540909464052686,0.036484823172108834,0.29680971577975646,-1.0069572253941648,0.09603423396822817,0.5593455529261315,1.0256634825209123,0.03166679459311948,0.7243996161788682,0.8399933361649042,0.0,0.0,0.0,0.0
0.03162887980664258,0.17808596755835512,0.7650084560725153,0.00808865399176588,-0.5556926557141119,0.007600920788482662,0.8313137025606917,0.012600999457650024,0.4973660687188196,-1.0531276462934605,0.03905699311483365,0.3026844684762749,-0.9982749032701884,0.09645806517944988,0.5616313722347587,1.012269635096882,0.018628474974266618,0.7145004632411404,0.8430474538037671,0.0,0.0,0.0,0.0
0.029565760760150488,0.18086064057522422,0.7637747564014763,0.007805105372763293,-0.5556552482423898,0.007811253114534493,0.8313394672187703,0.0052372801761114635,0.490574037214039,-1.0502891224493027,0.0412127334891645,0.3077884451228353,-0.9889960014805549,0.09605724737016645,0.563704031643878,0.9987219559487093,0.004259376290125367,0.703453333747538,0.8455048186142775,0.0,0.0,0.0,0.0
0.02709128372965474,0.1839010830034085,0.7624713008742067,0.007513237945463772,-0.5555902440355929,0.008003088248734276,0.8313837757417016,-0.0027424532089577952,0.48185939563138497,-1.044955029058103,0.042978253119152376,0.3120472646072706,-0.9792124507866099,0.09485149578676151,0.5654143328929618,0.9850427718482226,-0.01130306940071667,0.6912868108608747,0.847119581591563,0.0,0.0,0.0,0.0
0.024163032261431128,0.1871780955953349,0.7611092658742524,0.007223554465552433,-0.5554979979793553,0.008166099589847271,0.8314463959386077,-0.011226542561731532,0.4708816972659494,-1.0364559517740861,0.04441054565041859,0.31548532953860453,-0.9690448483548343,0.09292662575418609,0.5666587239196818,0.9711731994543794,-0.027784330795489337,0.678068761716796,0.8477084699927137,0.0,0.0,0.0,0.0
0.020755271971910245,0.19063821307376216,0.7597026806860935,0.006948877495828163,-0.5553813938363185,0.008290852638541448,0.8315253948283853,-0.0200386080220051,0.457329492804175,-1.0241122048469273,0.0456176952479587,0.3181976180891158,-0.958680716827558,0.09047412038696437,0.5673678935284115,0.9570110753426598,-0.04477526570285418,0.663940071619287,0.8471399522306418,0.0,0.0,0.0,0.0
0.01687221987554517,0.19420147994022371,0.7582704111594503,0.006704220319736548,-0.5552457730803682,0.008369760526356067,0.8316171787637747,-0.02893726847466936,0.44098970587206127,-1.0073353459000156,0.04678737776430258,0.320377660258505,-0.9483818748498752,0.08783765789948114,0.5675135089300274,0.9424462302079114,-0.0617590917131782,0.6491366307588307,0.8453461641136065,0.0,0.0,0.0,0.0
0.012569207289388897,0.19776190578271144,0.7568320037780859,0.006503567556063709,-0.5550999833289539,0.008401402215362657,0.8317157739023917,-0.037631928165341784,0.42186358254069045,-0.9858386011290506,0.048212375810456724,0.32241081059893206,-0.9384671413094994,0.08560860779990517,0.5671571149249098,0.9274093188446191,-0.07813242725069448,0.6339902112241256,0.8424182217263094,0.0,0.0,0.0,0.0
0.007984349915812552,0.2011906539272251,0.7553837447236188,0.0063564597218149325,-0.5549537910978994,0.008385325068623625,0.831814625676519,-0.04578856325205246,0.40034840730807125,-0.9600492547683771,0.05032592710037538,0.3249846059657202,-0.9293023877617638,0.08471283838351079,0.5665695200174767,0.911983643609284,-0.09329543852005469,0.6187859101001483,0.8389099546980524,0.0,0.0,0.0,0.0
0.003558910792555596,0.20444458805946908,0.7538455839267155,0.006249617822400909,-0.5547094206964313,0.008360288324256074,0.8319786694662543,-0.0534100522839568,0.3787641246787217,-0.9344547095747687,0.053495148344929265,0.32857340044175926,-0.9204473105756091,0.08647112436065861,0.5670132620749491,0.8959834832513255,-0.1069969023560012,0.6037215755704252,0.8359251538595397,0.0,0.0,0.0,0.0
-0.00037005489898646847,0.20729905578451438,0.7523133040130973,0.006155069918727088,-0.5544368399747386,0.008362726137273891,0.832161024324424,-0.060057846503524505,0.35883251701336444,-0.9111238143548236,0.057795235061408844,0.33367514991061403,-0.9128012958215249,0.0931429477572837,0.5680310820989926,0.8794358022905578,-0.11822036003430467,0.589885754168531,0.8341675609958561,0.0,0.0,0.0,0.0
-0.0034727680123401855,0.20947372010258922,0.7509276916597025,0.00603379020146324,-0.5541882310038244,0.008442286565440514,0.8323266941473182,-0.06520249809281196,0.34235921221340937,-0.8922484515186013,0.06281788155700571,0.33984874151129446,-0.9076333546192541,0.10657699583439874,0.5689422849745829,0.8620137843868221,-0.12576912065672047,0.5783767769672693,0.8343672484910598,0.0,0.0,0.0,0.0
-0.005300458532118708,0.21069727643763303,0.7499161004715337,0.005859556112539086,-0.5540165433327073,0.008608793709649891,0.8324405227922935,-0.0682701487462735,0.3321025057189562,-0.8812151139406497,0.06688184631702176,0.34533019340586235,-0.906240044460717,0.1239082674486879,0.5699859104330921,0.84461599324346,-0.12881720234972857,0.5708478294593707,0.8365399943504138,0.0,0.0,0.0,0.0
-0.0053273542507804705,0.2108530906360381,0.7498238636982627,0.0057416437931133175,-0.554037241529236,0.008578229217738677,0.8324278842690914,-0.06844106212356096,0.33189156597553704,-0.8811532441346008,0.06688316434432919,0.3453437478632168,-0.9062608491151318,0.1239327048141598,0.5700240919909797,0.8446252459983579,-0.12885628033140778,0.570747435722976,0.836446095472021,0.0,0.0,0.0,0.0
-0.0053273542507804705,0.2108530906360381,0.7498238636982627,0.0057416437931133175,-0.554037241529236,0.008578229217738677,0.8324278842690914,-0.06844106212356096,0.33189156597553704,-0.8811532441346008,0.06688316434432919,0.3453437478632168,-0.9062608491151318,0.1239327048141598,0.5700240919909797,0.8446252459983579,-0.12885628033140778,0.570747435722976,0.836446095472021,0.0,0.0,0.0,0.0
-0.0053273542507804705,0.2108530906360381,0.7498238636982627,0.0057416437931133175,-0.554037241529236,0.008578229217738677,0.8324278842690914,-0.06844106212356096,0.33189156597553704,-0.8811532441346008,0.06688316434432919,0.3453437478632168,-0.9062608491151318,0.1239327048141598,0.5700240919909797,0.8446252459983579,-0.12885628033140778,0.570747435722976,0.836446095472021,0.0,0.0,0.0,0.0
-0.004442096920982205,0.2112883972602511,0.7497094703587669,0.005767288306463341,-0.5543127301188937,0.008379294665868219,0.8322463115175885,-0.06908389288896093,0.33768275537165043,-0.8895804282390012,0.06642692217691366,0.3497315029796783,-0.9125957026155821,0.121919673858283,0.5711719074921163,0.8498126017236788,-0.13222395744673923,0.5720432612889262,0.8370663764916327,0.0,0.0,0.0,0.0
-0.002759307360151065,0.21201920239253455,0.7495188920998984,0.005751222592543078,-0.554582234663674,0.008283091391807206,0.832067821052546,-0.07076423818792038,0.3487975315914405,-0.9073862510652725,0.06519887513623365,0.3584595777456546,-0.9260416285055312,0.11958022627698806,0.5728027312824836,0.8575735579920282,-0.13685808285709586,0.5745096812549738,0.8382364687081859,0.0,0.0,0.0,0.0
-0.0003292545116917872,0.21314438719310322,0.7493153598084824,0.005672334393802615,-0.5548753074413728,0.008295733505255731,0.831872825989632,-0.07372352382332426,0.36483546180593524,-0.9334844291855139,0.06292714155710746,0.37095348064240585,-0.9451225129809082,0.11652430974746299,0.5752953348012142,0.8675427655213944,-0.14311928547810457,0.5787018457311259,0.8387119496431998,0.0,0.0,0.0,0.0
0.0028579719915904356,0.2149086524699557,0.7494578508247068,0.005470109083034432,-0.5553055072770211,0.008487821775992315,0.8315851299632102,-0.07868091183251766,0.38615977779112387,-0.9665700347125906,0.058829204055925566,0.38702331596203715,-0.9671469938340191,0.11212474710669329,0.5808546055819303,0.8771254765472103,-0.1516916682750554,0.5874929437142016,0.8339007018531135,0.0,0.0,0.0,0.0
0.007082725779070943,0.21796163285916448,0.7514808365628269,0.004973050193836982,-0.5563852505901252,0.009204260414868458,0.8308585940385695,-0.08783963637381767,0.416260094697095,-1.0041557421459366,0.05048191144523709,0.40861654020066346,-0.9853918709917094,0.10564471843704712,0.5990552615755533,0.8745304152444946,-0.1638651352507149,0.6130657490924871,0.8067709882111199,0.0,0.0,0.0,0.0
0.010477574211427657,0.22081923943082638,0.7531471130407428,0.004965724810215939,-0.5558896819613302,0.008955529307726003,0.8311929989845072,-0.0807133007893224,0.38994711305657886,-0.967436753187344,0.044491206569908494,0.42545974038904727,-1.006649764485239,0.09134365279220863,0.6137835543017853,0.8701302200997001,-0.14014338737172896,0.6030806916826204,0.842357756846668,0.0,0.0,0.0,0.0
0.014238880460550964,0.2237886280297982,0.7547303385367389,0.004927469914028109,-0.5555373892663958,0.008888983842472591,0.8314294408628862,-0.07298360111204022,0.37062336850846755,-0.9494328055978304,0.03775954154235193,0.44374572974265253,-1.0292646294290069,0.07711157339182345,0.6289074647161466,0.8668573443079117,-0.11867072951835933,0.5980480259176143,0.8705781089012063,0.0,0.0,0.0,0.0
0.017880807088298534,0.22685582447660455,0.756277705380403,0.00476086915823712,-0.5554122577822735,0.009001836262781789,0.8315127930308429,-0.06636613375716535,0.35725036994891285,-0.9438388650749413,0.030316791008308128,0.4607042215449665,-1.0480960817295848,0.0633048555661101,0.6439385846744267,0.8640387684157315,-0.10522234743814415,0.5944465820053478,0.8930719533315857,0.0,0.0,0.0,0.0
0.02119120086636625,0.22994174455786717,0.7578014519580192,0.004509528043849855,-0.5554006883390498,0.009201038013470051,0.8315197414666751,-0.061230065418300866,0.3475948499794516,-0.944925584050323,0.02255298344494457,0.47543536985909834,-1.0625115076576968,0.04957309398651677,0.6585468503506964,0.8609985862729425,-0.09825887358687616,0.5911340648448592,0.911719652098955,0.0,0.0,0.0,0.0
0.02406968860562083,0.23298955541331032,0.7592837895748261,0.004221226750663039,-0.5554307148956548,0.009429981008066012,0.8314986335848116,-0.057399440587957616,0.340134775364357,-0.9494801722628383,0.01473359296694535,0.4875842395151785,-1.0726275725553043,0.035705791182780805,0.6723746620578068,0.8576635459115817,-0.09513390111235229,0.5878617926090856,0.9279249527201904,0.0,0.0,0.0,0.0
0.026494695914040915,0.2359526207903707,0.7607072798114194,0.003928051650981502,-0.555465745490074,0.00965811598080123,0.8314740505831103,-0.05446486834429955,0.3338415067948378,-0.9557331269971431,0.007054450373932693,0.4971764940753925,-1.0789198546428982,0.021712378557336084,0.685202584537643,0.8541077905105248,-0.09388110133599652,0.584561984573728,0.9426364017208045,0.0,0.0,0.0,0.0
0.028493352694765307,0.2387938351990509,0.7620631378778085,0.003647351515220712,-0.5554908200183452,0.009872102867850927,0.8314560645561722,-0.0520034304353045,0.3280335990191693,-0.9627170932140416,-0.0003437495345357004,0.5044659935251099,-1.0820134311097271,0.007753284620108684,0.6969606930797746,0.8503860791390502,-0.09334544505361207,0.581173684429066,0.9564773769574532,0.0,0.0,0.0,0.0
0.03011850764337479,0.24148677515897374,0.7633499599075263,0.003387013996217835,-0.5555023613750285,0.010067942862555976,0.8314471066577074,-0.04968022711525995,0.3222759444143647,-0.9699109734546727,-0.007367358551333257,0.5098152347502581,-1.082564532141518,-0.005956500082288749,0.707687272640935,0.8465133414959904,-0.09292055526534071,0.5776356210229308,0.9698540396691275,0.0,0.0,0.0,0.0
0.0314328575483265,0.2440156385621674,0.7645702755764819,0.0031497641274267456,-0.5555017781109551,0.010245946201240636,0.8314462544794763,-0.04727085435128557,0.3163007656670019,-0.9770443961028158,-0.013962266774975305,0.5136138106331708,-1.0811947783036113,-0.019216733949493227,0.7174804451802801,0.8424863611372373,-0.09230530872747413,0.573906707631102,0.983029370986774,0.0,0.0,0.0,0.0
0.03249900310903152,0.24637373621812303,0.7657276360369121,0.0029357497387853234,-0.5554920311812932,0.010408029733737155,0.8314515365218913,-0.04464521254748655,0.3099477675667925,-0.9839892457793145,-0.02010542178759392,0.5162298157484244,-1.0784577086689822,-0.03187550134026604,0.7264597276582275,0.8383065724134376,-0.0913556056868935,0.5699804921185071,0.9961688938856949,0.0,0.0,0.0,0.0
0.03337388643063771,0.24856111433303166,0.766824521980792,0.002743951382448527,-0.555475992094027,0.010556397040336242,0.8314610366213765,-0.04173958316441048,0.30312720726085396,-0.990694959293268,-0.02579571155427917,0.517985265348348,-1.0748270815886312,-0.04383618190699501,0.7347388924389362,0.8339959957260776,-0.09000798462364495,0.5658923563189341,1.0093642684304271,0.0,0.0,0.0,0.0
0.03410613787606042,0.25058191883764247,0.7678605332333422,0.002573005741924087,-0.5554556682947291,0.010692887975790944,0.8314734165007592,-0.03853038634431364,0.29581317536692087,-0.9971403476567842,-0.031045132671856483,0.5191466622612748,-1.0707003600850273,-0.05504989219964486,0.742405680011917,0.8296108100718683,-0.08824060697342913,0.5617243815763658,1.0226369933173205,0.0,0.0,0.0,0.0
0.034735018109180636,0.2524419501983352,0.7688302512755925,0.002421822071366055,-0.5554317292073334,0.010818603971874546,0.8314882361018139,-0.03501395673910839,0.28807660844512967,-1.0032832592721126,-0.03587115390300783,0.5199229739771453,-1.066411441733843,-0.06550297322863155,0.7495028038818845,0.825259475104489,-0.08604560202286556,0.5576116891239119,1.0359185671437368,0.0,0.0,0.0,0.0
0.035289774077399715,0.25414677336675084,0.769720410349744,0.0022902208626090492,-0.5554031088544236,0.010933615908860099,0.8315062222295149,-0.031192180677281047,0.28016511295336616,-1.008996236434694,-0.04029109289337013,0.5204641770594781,-1.062245360194769,-0.07520639810316024,0.7560059261385961,0.821130709439536,-0.08339330617829707,0.5537536605908746,1.0489962741838195,0.0,0.0,0.0,0.0
0.035788475374387306,0.2557008157727056,0.7705065702481129,0.002179712964940219,-0.5553667770769758,0.011036700066176219,0.8315294240266982,-0.027063037341200736,0.2726211277157807,-1.0139875886133396,-0.04431950146675063,0.5208548356961182,-1.0584456157144753,-0.08419225298937397,0.7617981973110761,0.8175313710454681,-0.08017176532196228,0.5504386439664898,1.0614060187639218,0.0,0.0,0.0,0.0
0.03623620564452279,0.2571080462231621,0.7711507960439205,0.002094282876257499,-0.5553181564015378,0.011125243859740383,0.8315609346879473,-0.02261729981107976,0.26638720974210345,-1.0177281195104846,-0.047969966877751256,0.5211017184475157,-1.055203865319703,-0.09252023198271993,0.7666512851536676,0.8149200703800856,-0.07609433731955328,0.5481060966889375,1.0722475777879263,0.0,0.0,0.0,0.0
0.03662463685823312,0.25837468595689234,0.7716050797787009,0.002040203780574505,-0.5552533608044262,0.011196044896481348,0.8316033859133808,-0.01784651010264726,0.2627602130370628,-1.0194337065104955,-0.05126270624032004,0.5211280177352214,-1.0526241758597568,-0.10028736556244232,0.7702481280489413,0.8138844135682833,-0.0706134833372624,0.5474948425225192,1.0799019530294147,0.0,0.0,0.0,0.0
0.03693910046737619,0.2595125293190479,0.7718320674350064,0.002021151441690452,-0.555176511363535,0.011250028544444943,0.8316540104122709,-0.01276864605275532,0.2629329664522787,-1.0182054088044523,-0.05423694352236867,0.5208162778589889,-1.050656007928438,-0.10759072152497805,0.7723320004015787,0.8149263644717095,-0.06302598486958684,0.5498859435287132,1.0817681711636116,0.0,0.0,0.0,0.0
0.03716935012440412,0.2605337210132876,0.7718338834873693,0.002035569251933584,-0.5550874356496985,0.011287201156636143,0.8317129278373109,-0.007442710975914196,0.26688569025368836,-1.014013881553152,-0.056922800048495294,0.520099698071873,-1.0491812188160248,-0.1144894331481793,0.7728872814900554,0.8180755133263731,-0.0534191367224369,0.5552132473500095,1.0777637408301721,0.0,0.0,0.0,0.0
0.03731142761237065,0.26145244779426424,0.7716538094546453,0.0020768433420136415,-0.5549812593702683,0.011306622774152139,0.8317834145683398,-0.00196698126173301,0.2734085617096638,-1.0077386776200385,-0.0593455141653138,0.5189694045682658,-1.0480190733070054,-0.12101080950949027,0.7721524824448636,0.8228709608591723,-0.04263651867043891,0.5620940484463217,1.0703452121192685,0.0,0.0,0.0,0.0
0.03735769165541461,0.2622907141198639,0.7713487087372658,0.002136421397019811,-0.5548602889305874,0.01131126635180547,0.8318639015638303,0.0035478311114174182,0.28120188891937953,-1.0001628142152346,-0.061553962679184074,0.5173852302505327,-1.0468395696539126,-0.12719368853296367,0.7704475208937135,0.8287347759063199,-0.03132597463161883,0.5697281208609926,1.061027802451563,0.0,0.0,0.0,0.0
0.037289081874924475,0.2630743550136507,0.7709679989904861,0.0022085220685028966,-0.5547270435184607,0.011303557488502307,0.8319526784665369,0.009007249321173801,0.28932512304945013,-0.9918115619857447,-0.06360646563387133,0.5152306832232996,-1.0452266151354748,-0.13311835321108423,0.7680183580861702,0.8351940242927295,-0.019852803941381156,0.577641001643635,1.0506431937424012,0.0,0.0,0.0,0.0
0.03707538318522095,0.2638301674289275,0.7705496936597087,0.002290071882001257,-0.5545822434307562,0.011284802620855698,0.8320492437782111,0.014336290560811916,0.2972422423078666,-0.9829723998310822,-0.06556292010866453,0.5123187398630619,-1.0427140252103222,-0.13888869492138728,0.7650081805632027,0.8419121262506095,-0.008397216849693573,0.5855223619339043,1.039613937593685,0.0,0.0,0.0,0.0
0.03667783179315866,0.2645851955205003,0.770122365449968,0.0023798992848795167,-0.5544244467490015,0.01125534982528027,0.8321545445569398,0.019475960170385775,0.304715911030458,-0.973773990139868,-0.06748277077950798,0.5084079769455321,-1.0388019658326146,-0.1446193470610856,0.7614749989762714,0.8486588741617634,0.002955493102150578,0.5931535174645005,1.028137058610576,0.0,0.0,0.0,0.0
0.03605222451222857,0.26536688831153993,0.7697081742637067,0.002478195613425329,-0.5542502476866484,0.011214781988262626,0.8322708394211263,0.024385997150725383,0.31168751635345504,-0.9642669293991588,-0.0694252298524765,0.5032186270547943,-1.0329656510070013,-0.15043055368060715,0.7574194468821747,0.8552716290445315,0.014168124653659806,0.6003748362746845,1.0162990374068426,0.0,0.0,0.0,0.0
0.03515293576167242,0.26620274255838355,0.769325108887787,0.0025863789478523923,-0.5540546075161553,0.011161972184083806,0.8324014733955117,0.02905795221044766,0.3181959429285216,-0.9544841713700186,-0.07144827196244105,0.49645242349638746,-1.0246729638092351,-0.15644399126118963,0.7528112862037624,0.8616241204074756,0.025242303314429716,0.6070699992020197,1.0041494740108605,0.0,0.0,0.0,0.0
0.033939198830886225,0.2671182173088023,0.7689877872343235,0.002707336919769705,-0.5538311520416732,0.01109488124175098,0.8325506765147856,0.033536758891860606,0.3243445588359922,-0.944478114815024,-0.07360339109239519,0.48782588324302584,-1.0134304084621515,-0.16277328363496174,0.7476139009221869,0.8676059959482684,0.03624145218115611,0.6131637254018458,0.9917583862917477,0.0,0.0,0.0,0.0
0.03238539766844536,0.2681317116283273,0.7687065158877897,0.002846133185888815,-0.5535723432514594,0.011009843068290996,0.8327234496929866,0.03794429028521465,0.33030780080993566,-0.9343387993711526,-0.07592311243284552,0.47713022143694933,-0.9988815785959101,-0.16950587684973037,0.7418098784024941,0.8731133550615361,0.04735648519823847,0.6186420321661236,0.979280054386375,0.0,0.0,0.0,0.0
0.030497350931571767,0.26924529388767904,0.7684840879165188,0.0030115677518460925,-0.5532692850885454,0.010899760545015142,0.8329257012827418,0.042492292986739684,0.3363601913156866,-0.9242000266495691,-0.07839796156948288,0.4643355857654517,-0.9809932588829773,-0.1766782088035474,0.7354303667868647,0.8780544690539378,0.05905363621911279,0.6236150448725852,0.9670465312932719,0.0,0.0,0.0,0.0
0.02833670623937927,0.2704298758891137,0.768308711386412,0.003219598914652029,-0.5529102354939189,0.010749986882259347,0.8331652557871811,0.047464702749635476,0.3428970792988463,-0.9142411437971605,-0.08093938301670933,0.4497636894968618,-0.9603858795208698,-0.1842557069572883,0.7285843910682475,0.8823879822217242,0.07239294927167222,0.6284564980896431,0.9557120899357048,0.0,0.0,0.0,0.0
0.026054808344544007,0.27160356598414775,0.7681381604999363,0.003501164351533381,-0.5524701984364834,0.010528560110582858,0.8334587998873935,0.05315592346836077,0.3503492666936942,-0.9046584991568459,-0.08332321339076175,0.43435987285140876,-0.9389281037822247,-0.19214104810836885,0.7214487584782066,0.8862314952527435,0.08966624910796443,0.634060344979456,0.9464178977005341,0.0,0.0,0.0,0.0
0.0240285143580516,0.27255323301556544,0.7678941922408914,0.003921313120042217,-0.551817859308172,0.01016665522619779,0.8338934659616135,0.06012598276492925,0.35862559486755785,-0.895357764795888,-0.08501046197098171,0.4208037088187858,-0.9220733313786621,-0.19989102378697973,0.7143487550561793,0.8895165615588496,0.11561807127765435,0.6423036990635401,0.9405146788888453,0.0,0.0,0.0,0.0
0.022410452427624798,0.27321260214601306,0.7676977516031311,0.004483151356021091,-0.550994055026259,0.009640442775871689,0.8344414386538602,0.06768170680520558,0.36706167056699684,-0.8878694579292103,-0.08580882294166414,0.410352514293289,-0.9112971567103221,-0.20741901776194976,0.7084864741958383,0.8910031227891433,0.1529731874540594,0.6523800804921823,0.9399168959261383,0.0,0.0,0.0,0.0
0.02141735729600486,0.27349809469536285,0.7676469940877052,0.005031290739530799,-0.5501023849419234,0.009039411677655144,0.8350331378042575,0.0739074495037946,0.37369929360552195,-0.8848538702387361,-0.08559655992637505,0.4045398335364023,-0.9079267950471746,-0.21312423772361672,0.7048716266399974,0.8898003194619087,0.1956632291233611,0.6603899870065316,0.9459240498382858,0.0,0.0,0.0,0.0
0.021404337772470996,0.2734877150732097,0.7676316863117,0.005073650397174085,-0.5500935979506358,0.009031340183050369,0.8350387574597178,0.07394202780487348,0.37371827861551193,-0.8848536096988248,-0.08558239049032731,0.4044358929480579,-0.9078959888310074,-0.213143679726317,0.7047964239195875,0.8897424984662834,0.1956693832549973,0.6604154799952807,0.9459357114283354,0.0,0.0,0.0,0.0
0.021404337772470996,0.2734877150732097,0.7676316863117,0.005073650397174085,-0.5500935979506358,0.009031340183050369,0.8350387574597178,0.07394202780487348,0.37371827861551193,-0.8848536096988248,-0.08558239049032731,0.4044358929480579,-0.9078959888310074,-0.213143679726317,0.7047964239195875,0.8897424984662834,0.1956693832549973,0.6604154799952807,0.9459357114283354,0.0,0.0,0.0,0.0
0.021621642130586465,0.27372301160492263,0.7676519972517637,0.0052289454410819934,-0.5504893564644542,0.008955781384687384,0.8347777671504644,0.07340598578762789,0.3752101981632603,-0.8851363076120011,-0.08608551043775707,0.40488672171570095,-0.9068313000657376,-0.21698945190466895,0.7069990008412134,0.8913650502872822,0.19390889532961475,0.6619132493390673,0.9462239125981938,0.0,0.0,0.0,0.0
0.02224601667705844,0.274021860437062,0.7676153812468355,0.005303949665414556,-0.5507956587654169,0.008923452121721033,0.8345755702183886,0.07278978304713353,0.3793320712641978,-0.8904739236870587,-0.08684754287938184,0.4076140216234151,-0.9097818702988488,-0.22092834584810486,0.7095391969636897,0.8936301223561479,0.19281663258828216,0.6640452204525119,0.9468671071156303,0.0,0.0,0.0,0.0
0.02337925326916458,0.27432203819787726,0.7675327680892065,0.005285758644830052,-0.5511137468322242,0.008975162009852768,0.8343651150875093,0.07216518430126176,0.3864124343023494,-0.9009011719135099,-0.08780014873700877,0.4132655465156799,-0.9172017568357613,-0.22456476438904324,0.7129653808142056,0.8964906084555525,0.1934333440077953,0.6675496168805836,0.9482648308464473,0.0,0.0,0.0,0.0
0.025090945246574816,0.27460075438164583,0.7674890251126657,0.0051343039938499795,-0.5516019416561025,0.009189527648799493,0.8340410598197838,0.07142662406375858,0.39664441105362735,-0.9157889081356536,-0.0890153307184444,0.42217448557160264,-0.9283454460324214,-0.22742543237406598,0.7182510896298256,0.8993398490863012,0.19704204813793583,0.6737883221177459,0.950106633252359,0.0,0.0,0.0,0.0
0.027492152387422905,0.27489339634732335,0.7678814816645458,0.004830727941617015,-0.5526942219237315,0.009755880268210207,0.8333130167709295,0.07000798226391976,0.41056531816453745,-0.93271253780541,-0.09091484608676716,0.4348153031138068,-0.9399528385771002,-0.2293446767407835,0.7288900497938422,0.8991296535449633,0.20577161344942174,0.6869944568974231,0.9496194820496392,0.0,0.0,0.0,0.0
0.029528372123999728,0.275679174812558,0.768394129830084,0.005994001500807977,-0.5524246316272021,0.008410784591900956,0.8334988644384028,0.07061761250877721,0.42444948067800253,-0.9504021155911225,-0.08387750857893532,0.4134460465294567,-0.9226814678618181,-0.1798707663945021,0.70400408922497,0.9110015923989494,0.1871528411324615,0.69014753298797,0.9412452749798831,0.0,0.0,0.0,0.0
0.03171098569996605,0.27647427785864515,0.7689926065591434,0.006889920443468794,-0.552491804735809,0.007503046773148265,0.8334560810175731,0.07038719426587424,0.4388149872576572,-0.9679127956537442,-0.07398198513015525,0.39612531853923166,-0.9178022099892866,-0.1361706896542041,0.6840162974034331,0.9212788055549376,0.17332963550091682,0.6962575085870949,0.9329738290475367,0.0,0.0,0.0,0.0
0.033861403833600257,0.2772274785005558,0.7695989435931163,0.007395356111280376,-0.5527883981848993,0.007099127893924692,0.8332586020697933,0.06938075931446719,0.4526050258761714,-0.9846690171248013,-0.06498529415124507,0.3832618431641293,-0.9204337026948993,-0.10542525656872498,0.6703929326226845,0.9321156106403098,0.16536711652492894,0.7044900236106907,0.925464434156737,0.0,0.0,0.0,0.0
0.03579413377028312,0.2779252548528592,0.7701713508145801,0.007687159425207934,-0.5531397055284796,0.006935684917483381,0.8330241713315188,0.06807956981893348,0.4648914822677723,-0.999536357075728,-0.057591158838146056,0.37341541624887786,-0.9269418803110692,-0.08390061274665478,0.6608152721521728,0.9435800963147575,0.16025655813529066,0.7129235930563449,0.9185440012090255,0.0,0.0,0.0,0.0
0.03741189001312743,0.27857494055933846,0.7707167687306266,0.007891184983479361,-0.5534662599438562,0.006848606950776225,0.832806054784756,0.06672911421505255,0.4752736206641496,-1.0118310192927085,-0.05146887239276566,0.36543153832051684,-0.9353041929348497,-0.06762008748738361,0.6532685537777354,0.9553482223863009,0.1560084843425986,0.7206088915407091,0.9118458925237285,0.0,0.0,0.0,0.0
0.038687843435691975,0.2791924383605938,0.7712536212596556,0.00806734032285148,-0.5537446159439039,0.0067694473328032655,0.8326199570728905,0.06539525449206857,0.48372314208537337,-1.0213978682767795,-0.046070354966367334,0.3584596718393745,-0.9444485372868888,-0.054037023462817343,0.6464875828089635,0.9671506979553995,0.15167079925167837,0.7272577512772855,0.9050832729048436,0.0,0.0,0.0,0.0
0.03963962905699103,0.27979496831326234,0.7717944176233674,0.008235893697087493,-0.5539769151938003,0.006681731467314674,0.8324644748888507,0.0640605744417683,0.49041687657100663,-1.0284356231546565,-0.040945975883890685,0.35190414967224126,-0.9538265937158057,-0.0417619423657151,0.6397941485187778,0.9788358918513261,0.14693097546431672,0.7329098243944896,0.898112855398255,0.0,0.0,0.0,0.0
0.040308364435033536,0.28039797046666604,0.7723424636270299,0.008398347803115113,-0.5541750098005338,0.006591208285327331,0.83233171406603,0.06268083234012704,0.49562250782497697,-1.0333242464997971,-0.0358252959420603,0.3453806256011328,-0.9631673785271054,-0.03008020010188201,0.6328715883183378,0.9903436149970494,0.14180104106867658,0.7377352529315898,0.8909113531944691,0.0,0.0,0.0,0.0
0.040742712340794004,0.2810158307259046,0.7728935651694404,0.0085541848942455,-0.5543460278122038,0.0065020179248626644,0.8322169375424482,0.061222050335969974,0.499630246320115,-1.036519172714654,-0.03058172750105887,0.33862831788178627,-0.9723413750481498,-0.01867769603879127,0.6255840233151936,1.0016661396550908,0.1363073244199585,0.7418785710852451,0.8835069076356215,0.0,0.0,0.0,0.0
0.04099140019172165,0.2816589756498804,0.7734397672735442,0.008697646460614862,-0.5545012281601148,0.006424814000868789,0.8321126490325842,0.0596492113439139,0.5027090349805783,-1.038448478648074,-0.025197296079505747,0.3315149254824994,-0.9812969239630862,-0.007370070073942721,0.6179134346864197,1.0128163194915876,0.13058698056249765,0.7455026452719887,0.8759866786247876,0.0,0.0,0.0,0.0
0.041096494458752936,0.2823369873269845,0.7739706887032908,0.008825540491757737,-0.5546469648581327,0.006364974852792889,0.8320146280587938,0.05793848551234637,0.5050888720193133,-1.0394961995718626,-0.019701000401476126,0.323956245574655,-0.9900181317716775,0.003920647376964835,0.6098934025498688,1.0238018632860655,0.12470908028245313,0.7487071428204631,0.8684469530627555,0.0,0.0,0.0,0.0
0.041091109697857904,0.2830597653069082,0.7744739473035448,0.008936106857063962,-0.5547863617188671,0.006324995378267602,0.8319208094995859,0.056069098660698896,0.5069526600872056,-1.039988897376596,-0.01414008564227939,0.31591521566102215,-0.9984940373366183,0.015221432135327177,0.6015980834490005,1.034600385991402,0.11869090009665274,0.7515343296757296,0.860994503033531,0.0,0.0,0.0,0.0
0.04099862597306447,0.2838388735853498,0.7749336549264523,0.009027594584135715,-0.5549206422130656,0.0063067886243787065,0.8318303960538534,0.05401575756699146,0.5084338024896261,-1.0401998237449448,-0.008565963656469349,0.30744032640410024,-1.006679763026509,0.026526984582115547,0.593147722598586,1.0451250449449032,0.11251795376819054,0.7539690387342655,0.8537653330998461,0.0,0.0,0.0,0.0
0.040832089970340595,0.2846893025471704,0.7753274667230317,0.009098171162164543,-0.5550482618468054,0.006311296699607215,0.8317444426242435,0.051745446847808775,0.5096151689360434,-1.0403643645680238,-0.003028578830839729,0.298745494512995,-1.0144354578843295,0.03777700701631739,0.5847199577262762,1.0551643832734532,0.1061323498916607,0.7559168580250222,0.8469492555292195,0.0,0.0,0.0,0.0
0.040593296595288944,0.285630441178912,0.7756228699349433,0.00914564631063659,-0.5551643901312001,0.006338019474706511,0.8316662110444019,0.04921646084043105,0.5105233741154591,-1.040689102426164,0.002421493303949633,0.290335565859817,-1.02144281284116,0.04879880034220488,0.5765782414086404,1.0642752829637543,0.09942875489179324,0.7571785097654687,0.8408260706324839,0.0,0.0,0.0,0.0
0.04027162489427085,0.2866848268061956,0.7757743871402539,0.009165569005709097,-0.5552633638975691,0.006386988495192121,0.8315995403052598,0.04637839215229414,0.5111153410031066,-1.0413364860792005,0.0077240841533249,0.2831343304881166,-1.0271202765909972,0.059218954821110004,0.569146601222433,1.0716023681047007,0.09229565395301165,0.7574452724963942,0.8358091561873714,0.0,0.0,0.0,0.0
0.03984430193264906,0.2878740480047227,0.7757268018095714,0.0091475925375713,-0.55534559459551,0.006463998186260622,0.8315442314402608,0.04317278701519942,0.5112676715572005,-1.0423746615260323,0.012796336152069265,0.27847007541638313,-1.0305885780602657,0.06838784032122115,0.5631790185963839,1.0755999441298512,0.08470956551540305,0.7563554996338994,0.8324462700768365,0.0,0.0,0.0,0.0
0.03928286321765905,0.2892149191540813,0.7754365426410997,0.009075089333746079,-0.5554265443193313,0.00658280186224918,0.8314900260007408,0.0395369775663007,0.5108124906163121,-1.0437057621755683,0.01752638304607675,0.27760934864907566,-1.0307981856267112,0.07550873760372598,0.5600065441967167,1.073769193943701,0.07678011634109878,0.7536693830739336,0.8312173000720372,0.0,0.0,0.0,0.0
0.03855946108641464,0.29073079070924857,0.7748998893089377,0.008945601733883847,-0.5555063332912685,0.00674330354849482,0.8314368392969858,0.035409838197724496,0.5096321468511643,-1.0451787401798518,0.02184658352557584,0.28051549774364815,-1.0276985988699068,0.08045950279270925,0.5596552609419931,1.066170237124301,0.06836378536602342,0.7492987495001745,0.8320677348448563,0.0,0.0,0.0,0.0
0.037648419442869445,0.292451963970387,0.774152760676465,0.008771479960466325,-0.5555689877862987,0.006931392318378612,0.8313952830933906,0.03073156615912269,0.5076682942220992,-1.0466070878896272,0.0257543947933193,0.2858613396924335,-1.0222666226070714,0.08382934822943933,0.5608265350377462,1.0553825922021418,0.05908300725785246,0.743319926463298,0.8343954466145423,0.0,0.0,0.0,0.0
0.036519842775178384,0.2944035776771479,0.7732428646760464,0.008562211663535732,-0.5556094221123666,0.007136649818731583,0.831368706904918,0.02544903938652123,0.5048275784330073,-1.0476577445770545,0.02925261396133789,0.2922500925377263,-1.0153161540199354,0.08609114559394843,0.5627561046990827,1.04298821282521,0.04867891613065774,0.7359294304691115,0.8374983886127244,0.0,0.0,0.0,0.0
0.03513397934243119,0.2966052985893742,0.7722086449672154,0.00832285558247064,-0.5556278640696275,0.007353233305573943,0.8313569249752664,0.01951848356506677,0.5009383265135843,-1.0478961338017379,0.03233776974740599,0.29869399999472673,-1.007366414354317,0.08748478053506376,0.5649863254856818,1.0298450749380057,0.03702386289891496,0.7272888640463334,0.8408047317032098,0.0,0.0,0.0,0.0
0.03344283145458482,0.29907171761843526,0.7710763433141408,0.008058914301245888,-0.555622850312113,0.007572926861738013,0.8313609041144977,0.012918392647288423,0.4957607253282831,-1.0468261860623291,0.03500950509887014,0.304628365744045,-0.9986926929795402,0.08807263055244487,0.5672138461925914,1.0163738231134383,0.024043223068105704,0.7174736645298361,0.8438766248462886,0.0,0.0,0.0,0.0
0.03139492796361851,0.30180875730011253,0.7698628838480113,0.007776831799863252,-0.5555920738619576,0.0077860795783395165,0.8313821896779635,0.005657608097551434,0.48900403694341216,-1.043897530686016,0.03727476049314185,0.30979819103169726,-0.9894313746357385,0.08785708092091575,0.5692274060372355,1.002743562379902,0.009747689109082596,0.7065116051044198,0.8463870435824176,0.0,0.0,0.0,0.0
0.028940494647734454,0.3048085542255581,0.7685800834309812,0.007484638255793109,-0.5555335767656994,0.007982252498696569,0.8314221003323977,-0.0022125545385298182,0.4803440157763797,-1.0385042958188417,0.03915696250523372,0.3141311558535022,-0.9796780397112317,0.08685585796260185,0.5708793475943623,0.9889809548562395,-0.0057369121208715335,0.6944274192428986,0.8480902459200019,0.0,0.0,0.0,0.0
0.02603755360546014,0.30804398846880165,0.7672388851135847,0.007192439645426282,-0.5554469050564357,0.008150910129146122,0.8314809481516942,-0.010585881233235976,0.4694456040035327,-1.0299923608354034,0.04070856527819723,0.3176539828078224,-0.9695580278064163,0.08515052786688512,0.5720674434141282,0.9750317628564265,-0.022149899843648596,0.6812839163240193,0.848799509683482,0.0,0.0,0.0,0.0
0.02266044214200292,0.31146405160682394,0.7658530623773644,0.006912763611303708,-0.5553338012621657,0.008282148979694733,0.8315575679910837,-0.01929220949621046,0.4560013535978768,-1.017697002138189,0.04203018167895898,0.320464527719611,-0.959265849852463,0.08292474626735749,0.5727238614329723,0.9607997475300062,-0.03909592135170331,0.667216078765321,0.8483761652724849,0.0,0.0,0.0,0.0
0.018813016987218864,0.31499116258669446,0.7644411851407237,0.006659959718016201,-0.5551988760251458,0.008368505152801811,0.8316488568611614,-0.028097416119952742,0.4397993560127551,-1.0010402652216754,0.04329664766779906,0.32276350768133105,-0.9490741880162245,0.0805147994776312,0.5728220126423483,0.9461834704223698,-0.05606104390517704,0.6524576739891228,0.84674530994549,0.0,0.0,0.0,0.0
0.01454952409002838,0.318521548337416,0.7630229441084571,0.006447747117620371,-0.5550501815179619,0.008408310114677369,0.8317493750373366,-0.0367170394747202,0.4208390653261117,-0.9797388419126178,0.044783564721924914,0.32494520857532044,-0.9393159154540397,0.07848930606788646,0.5724245793060565,0.9311282844087649,-0.07244291394372479,0.6373413192927456,0.8439824145952916,0.0,0.0,0.0,0.0
0.010006069252462307,0.3219285311809175,0.7615961593898706,0.006286605553606978,-0.5548956168727811,0.008399074916322542,0.8318538264061416,-0.04481918080945639,0.39951551875710295,-0.9542183054252882,0.04690640031166273,0.32770630922713895,-0.9303774176903131,0.0777034042891072,0.5718055310001311,0.9157414235438615,-0.08765092653405974,0.622157901652456,0.8405992823790334,0.0,0.0,0.0,0.0
0.005592166861428235,0.3251612800582454,0.7600890653847678,0.006165426846265474,-0.5546508914795237,0.008383493990305288,0.8320180846119196,-0.05239445340187729,0.3779644516953434,-0.9285718916487514,0.0501225308460977,0.3315502614365905,-0.9218660528766064,0.07942138062176733,0.5721831712225882,0.8998628651471072,-0.10136779148093134,0.607137667883905,0.8376479488373276,0.0,0.0,0.0,0.0
0.0016714010370702595,0.3280049177923974,0.7585900949185095,0.006058600887541746,-0.5543770044374164,0.008393600470422128,0.832201284412266,-0.05901951131688331,0.35806877601362386,-0.905188534840775,0.05443180646214864,0.3370208885988166,-0.9146624721340195,0.08571337784831756,0.5731880586255486,0.8836256341251281,-0.11263885053020042,0.5933748643682266,0.8358262926894467,0.0,0.0,0.0,0.0
-0.001426096617265412,0.33017812546004216,0.757240843463442,0.0059303165296298145,-0.5541301329196286,0.008480110968792417,0.8323657338299614,-0.0641665758487986,0.34163383540805087,-0.8862349336902909,0.05945936900637036,0.3437549677178681,-0.9101294269378623,0.0983663280292481,0.5741185332619987,0.8668291824744018,-0.12025337517252424,0.5819973803689608,0.8358459011140605,0.0,0.0,0.0,0.0
-0.0032485246402119495,0.33140633023864474,0.7562630696674459,0.005759428608754296,-0.5539634351002347,0.008652312633760576,0.8324761131949291,-0.06725660398170714,0.3314295323475558,-0.8751306284281601,0.0635635587197315,0.3500321900131125,-0.9097345323320533,0.1147393618486837,0.5750889899278203,0.8504609440517318,-0.12338239765813228,0.5746370973930054,0.8377712453440619,0.0,0.0,0.0,0.0
-0.0032762550248329313,0.3315632953928778,0.756171358149886,0.0056405107177492,-0.5539840933549639,0.008621941137819366,0.832463495343512,-0.06742901734968101,0.3312186056802938,-0.8750693635532492,0.06356449417721148,0.35004608840573076,-0.9097557070358073,0.11476297144731025,0.5751275864605055,0.8504705271972599,-0.12342098990766144,0.5745365037405216,0.8376776200589354,0.0,0.0,0.0,0.0
-0.0032762550248329313,0.3315632953928778,0.756171358149886,0.0056405107177492,-0.5539840933549639,0.008621941137819366,0.832463495343512,-0.06742901734968101,0.3312186056802938,-0.8750693635532492,0.06356449417721148,0.35004608840573076,-0.9097557070358073,0.11476297144731025,0.5751275864605055,0.8504705271972599,-0.12342098990766144,0.5745365037405216,0.8376776200589354,0.0,0.0,0.0,0.0
-0.0032762550248329313,0.3315632953928778,0.756171358149886,0.0056405107177492,-0.5539840933549639,0.008621941137819366,0.832463495343512,-0.06742901734968101,0.3312186056802938,-0.8750693635532492,0.06356449417721148,0.35004608840573076,-0.9097557070358073,0.11476297144731025,0.5751275864605055,0.8504705271972599,-0.12342098990766144,0.5745365037405216,0.8376776200589354,0.0,0.0,0.0,0.0
-0.0024012457930511367,0.3319881115196771,0.7560572214138983,0.005676346305287988,-0.5542599316686714,0.008416378970116522,0.8322817262227338,-0.06803571880606644,0.33695750832462945,-0.8833828214968361,0.06313281377920199,0.35436694825139636,-0.9159907777450952,0.11262322196822136,0.5763842054764267,0.8555051588678602,-0.1268094007289205,0.5758036479397769,0.8383117647346786,0.0,0.0,0.0,0.0
-0.0007369793362954793,0.3326937552236595,0.7558660195584915,0.0056660199375698035,-0.5545330575793285,0.008316826312173072,0.8321008440506964,-0.06964296837154324,0.34797822048599286,-0.9009940445182145,0.06195279449569204,0.3629778950811592,-0.929224142143239,0.11021891052984598,0.5781630693032053,0.8629914911365498,-0.13135212774193583,0.5782394454925858,0.8395646026184072,0.0,0.0,0.0,0.0
0.0016667811266820706,0.3337785240492824,0.7556602731211025,0.005589433396177813,-0.5548314922654835,0.008329349246060587,0.8319022751296594,-0.07249012423639306,0.3638826043547944,-0.9268313252698256,0.05975507307254031,0.37531438149964064,-0.9480105624114115,0.10715296175727752,0.5808346519935031,0.8725706429888641,-0.13741249680899922,0.5823874506039712,0.8402053439431035,0.0,0.0,0.0,0.0
