zhuoxili-jackie/tripod-support-walk/examples/trajectory_tripod_com_tilt_v0.20.csv
root_pos_x,root_pos_y,root_pos_z,root_rot_x,root_rot_y,root_rot_z,root_rot_w,FL_hip_joint,FL_thigh_joint,FL_calf_joint,FR_hip_joint,FR_thigh_joint,FR_calf_joint,RL_hip_joint,RL_thigh_joint,RL_calf_joint,RR_hip_joint,RR_thigh_joint,RR_calf_joint,FL_foot_joint,FR_foot_joint,RL_foot_joint,RR_foot_joint
0.0,0.0,0.72963,0.0,-0.5231245161092812,0.0,0.852256264656019,0.0,-0.81,0.872,0.0,-0.81,0.872,0.0,0.65,1.0,0.0,0.65,1.0,0.0,0.0,0.0,0.0
-9.264389879195327e-05,0.0002658352976564213,0.7296090258221596,-0.00010147312670474852,-0.5230868226370678,0.00011102874646920087,0.8522793869144547,-0.0009117541079109963,-0.8107557560541269,0.8725720094737784,-0.0009117541079109955,-0.8088414630895272,0.8700261868987433,-0.0004637870913311307,0.6492259384812642,1.0009780326827376,-0.0004637870913311375,0.6498270363134668,0.9994108042243289,0.0,0.0,0.0,0.0
-0.00019481729886827525,0.000582027340569972,0.7295897329584617,-0.00021617326801906498,-0.5230609086906791,0.00023260530891298223,0.8522952451841848,-0.0019719175871417355,-0.811536282691137,0.8731903505272819,-0.0019705222855998907,-0.807391313837213,0.8676495078623269,-0.0011191632296589178,0.6484419471858065,1.0021306565593824,-0.0011176515618361836,0.649689312338898,0.9986764513721071,0.0,0.0,0.0,0.0
-0.00027922281502344915,0.0008627613898698329,0.7295735281440763,-0.0003169032377109349,-0.5230479767338253,0.00033365036561474427,0.8523031164347712,-0.0028953462402507247,-0.8121833315455685,0.8737299289906308,-0.0028913347799212367,-0.8060782141383757,0.8655399786782986,-0.0017516989975642637,0.6478154678353096,1.0031650873209033,-0.0017468888036299974,0.6495999177837986,0.9980219640154804,0.0,0.0,0.0,0.0
-0.0003233812281795679,0.0010717912722832193,0.7295580386670204,-0.0003880441184288649,-0.5230516845194771,0.00039892348361725104,0.8523007835284171,-0.0035583206681180377,-0.8126722755641124,0.8742314679516011,-0.00355154228713957,-0.8051468904233526,0.8640962196035135,-0.002310541124203696,0.647453996299217,1.0039865902771197,-0.0023015928717401426,0.6495777238649646,0.997564900136706,0.0,0.0,0.0,0.0
-0.00033580750453565217,0.0012003589042743977,0.7295423270428685,-0.000432990123054544,-0.523067737682604,0.000430894429813896,0.8522908943812237,-0.003942959494394968,-0.8129769601178293,0.8746122523870471,-0.003934116292220891,-0.804597086840171,0.8632897997071872,-0.002699729747400755,0.6473007753397753,1.004570607651692,-0.0026870754273228244,0.6495954792919038,0.9973473007365723,0.0,0.0,0.0,0.0
-0.00033856915083024054,0.0012454503495310468,0.7295269885299106,-0.00046435229102098494,-0.5230835876688397,0.00043981810418209386,0.8522811456605621,-0.00406132987077549,-0.8130820875913285,0.874738787805609,-0.004051446515317487,-0.8043586675127723,0.8629504684688685,-0.0027541143384729443,0.6472146335708724,1.0048826834504951,-0.0027398836667823466,0.6496027422207376,0.9973813502086517,0.0,0.0,0.0,0.0
-0.00034745841382800553,0.001198125101038217,0.7295129834817029,-0.0004941778812311611,-0.5230834875550541,0.00043439262104338265,0.8522811931155785,-0.003906705109865497,-0.813006260562031,0.8745346490978855,-0.0038968653176391496,-0.8044296819324938,0.8630139349044622,-0.002281062061841153,0.6470680323179343,1.0048539328073975,-0.0022690100586382853,0.6495595727270381,0.9976822220302392,0.0,0.0,0.0,0.0
-0.00037734300718207116,0.0010472832211118038,0.7295014865654007,-0.0005373347500442402,-0.5230490099179742,0.00042372290252238817,0.8523023318952584,-0.003466231571608265,-0.8127878185840819,0.8739441227893959,-0.0034573778479836947,-0.8048281542426655,0.8634428821419644,-0.0010543531786683074,0.6467246067482463,1.004398114570336,-0.0010482920566956158,0.6494291470036055,0.9982646616834887,0.0,0.0,0.0,0.0
-0.00044056492656186733,0.0007884744335323254,0.7294980587615221,-0.0006011435896952357,-0.5229821136790684,0.0004008834965095012,0.8523433502354439,-0.0027046428415599486,-0.8123213723457422,0.8728088137458607,-0.002697526780156171,-0.805465943784628,0.8640987528608748,0.000952883511014179,0.6461863186428951,1.0034679208598034,0.0009540968341642544,0.6492028363105761,0.9991012595253282,0.0,0.0,0.0,0.0
-0.0005312222508692497,0.0004705335694396858,0.7296080963844362,-0.000494970874391533,-0.5232865760213258,3.2803049678311125e-05,0.8521566248546512,-0.0009520698035055532,-0.8081940832769703,0.8682445262409665,-0.0009498306186218413,-0.8042430942101624,0.862917024559141,0.00011203382320946662,0.648164569754809,1.0024742686124941,0.00011431020519525647,0.6493456582248546,0.9995154484451891,0.0,0.0,0.0,0.0
-0.00039192528023056315,2.3474947590518746e-05,0.7295961177135154,-0.000598169465726044,-0.5232166975586494,-1.9913740560191557e-05,0.8521994656138632,0.0003903305849470816,-0.8084208441914031,0.8685339647454187,-0.013476713471528338,-0.8187394210682529,0.8569694781636151,0.0034473206551152618,0.6481059656367456,1.0008091684235436,0.0034475423857901954,0.6497377428939172,1.0008740781634105,0.0,0.0,0.0,0.0
-5.392478434202509e-05,-0.0005737369280607354,0.7296032668410715,-0.0005628631554478291,-0.5233340886462483,-0.00031509189857110016,0.85212734703386,0.0026894165389219817,-0.8075895030665201,0.8687287477661241,-0.030617012239822067,-0.839507058043391,0.8470967677772456,0.005399292656219823,0.6499527075261241,0.9989297985457917,0.005416862762947896,0.6505770401627978,1.0025087111131243,0.0,0.0,0.0,0.0
0.00042824890318879415,-0.0013389936355732647,0.7296182587685587,-0.00042314710575300734,-0.5235411739819459,-0.0007626222094837275,0.8519999286968858,0.0057629379261775835,-0.8061569667346326,0.8688998328499672,-0.04811762475960993,-0.8626782385421955,0.8355289159421015,0.006893098248581738,0.6529531119010953,0.996615453508887,0.006928479326201174,0.6516837716372721,1.0045193468333866,0.0,0.0,0.0,0.0
0.0010305551484297445,-0.002286500602960935,0.7296209400447619,-0.00020553873263654614,-0.5237484047746094,-0.001296524346672697,0.8518719887838194,0.009481873184759518,-0.8046837043866011,0.8693761116729353,-0.06423644165892288,-0.886197361250579,0.8231533188064304,0.008602448599188479,0.6565055475796807,0.9937482435227206,0.0086626504236137,0.652872745775716,1.0070316808432127,0.0,0.0,0.0,0.0
0.0017630926108452105,-0.003438596457225875,0.7295887463078689,0.00010035275167726313,-0.5239215414441164,-0.001906168388789512,0.8517643892897964,0.013868673597639759,-0.8034231191109926,0.8703699059774941,-0.07846645081898519,-0.9089986164959618,0.8104102427728461,0.010683150230456025,0.660427401718418,0.9903510860587618,0.010784808181245628,0.6540117747437636,1.0102394759935105,0.0,0.0,0.0,0.0
0.0027778070309670234,-0.0047566670095965605,0.7294860114658704,0.0005595434632690095,-0.5240718034560089,-0.002622774906987258,0.8516698613813138,0.018874697017206562,-0.8031417906546511,0.8733938841864075,-0.09105483445257292,-0.9296601578599368,0.7972889617381694,0.012272926546398479,0.6652267388383571,0.9867936525221739,0.012431234210686305,0.6552371270624288,1.0141519307768534,0.0,0.0,0.0,0.0
0.0040126779783554445,-0.006312629583400477,0.7292898056181739,0.0011646067507805186,-0.5241489122250088,-0.0034470984735504445,0.8516188578328746,0.024699880620072882,-0.8036613358455679,0.8777957546610552,-0.10206528337133543,-0.9469733844272876,0.784586606738664,0.013896160140632628,0.6704542692396503,0.9829539302494584,0.01413807796490087,0.6561945791451687,1.0191376484316668,0.0,0.0,0.0,0.0
0.005366762788378933,-0.008147680546302367,0.728985003917321,0.0018786101327446954,-0.5240770421330593,-0.0043607216792036375,0.8516576241891276,0.0314374312097748,-0.8048656912497405,0.8828353212589235,-0.11176433879015506,-0.9588206767968942,0.7737078651215996,0.016184763740046536,0.6754329424459445,0.9787086553990244,0.016561370425883327,0.6564664156916279,1.0253989927887057,0.0,0.0,0.0,0.0
0.006754316800896351,-0.010198168283326,0.7286474585763411,0.0026524544673441806,-0.523853307696699,-0.0053235790954744375,0.8517877294291931,0.03885851868006205,-0.8063185904667336,0.8878427243704452,-0.12037200688038575,-0.9625884989931711,0.767443232521766,0.019272447263263152,0.6801302192441989,0.973594896682548,0.019857344380209238,0.6563103985667693,1.0321410859426334,0.0,0.0,0.0,0.0
0.008128708505936407,-0.012402404085678264,0.7283445761092159,0.0034704386675131786,-0.5235380905948389,-0.006331559576535151,0.8519716750603239,0.046802429301538884,-0.8073543505881554,0.8921354243367389,-0.12800778982348424,-0.9565977142836906,0.7688176887163484,0.02285020573012861,0.6848988478598385,0.9673578354889613,0.02373024395782447,0.6560664174729924,1.038723359594624,0.0,0.0,0.0,0.0
0.009553000093351976,-0.01481280202641853,0.7280428188786036,0.004354358181600132,-0.5230677768459637,-0.007403554946386169,0.8522478088938705,0.055453789338016736,-0.8085446296023241,0.8964479933135696,-0.13493230509992163,-0.9422805907646803,0.7742963821954428,0.02699991215249183,0.6896811907393823,0.9599159791563147,0.028288755107453045,0.6555537440219749,1.0453970420169458,0.0,0.0,0.0,0.0
0.011131776862871326,-0.0174674675035841,0.7276756432354847,0.005365127431000094,-0.5224496943158782,-0.008601656478959774,0.8526098426729031,0.06506458180531002,-0.8102045401303928,0.9014388398166808,-0.14161766325089817,-0.9219245981537167,0.7805882145526394,0.03118222131124561,0.6947589176839988,0.9516776526605043,0.0330027340052497,0.6545980911379257,1.052678697776398,0.0,0.0,0.0,0.0
0.012985844772852207,-0.020201209868256912,0.7272383688721827,0.006533849906479754,-0.5217800522617355,-0.009943328175760723,0.8529970785951904,0.07526318661021371,-0.8126448137706977,0.9082308983327182,-0.1491884002793872,-0.8970529886499004,0.7853660980248799,0.03395453243821966,0.7009079256309422,0.9433479977025098,0.036349626868477126,0.6536154416204827,1.0600856494438013,0.0,0.0,0.0,0.0
0.014957931857423931,-0.022708981564856418,0.7265695278975214,0.007781205215250507,-0.5211483822575133,-0.011331978508426745,0.8533553789476337,0.08507368501142283,-0.8161308230725886,0.9164626701403918,-0.15909373997610737,-0.8688993173539873,0.7866373835450335,0.03439328821153641,0.7067948902089348,0.9378653361218798,0.03727255393552894,0.6517622915928367,1.0685252801790126,0.0,0.0,0.0,0.0
0.016899534440570685,-0.02478791648180704,0.7257380716993694,0.009008311503536594,-0.5205529649144724,-0.012649118679357594,0.8536881519848115,0.09370507212911201,-0.8207348134424745,0.9258838491259506,-0.1721203759522685,-0.8379044934051473,0.7813344981201548,0.03245275079945145,0.7118738104933345,0.9354865178034862,0.035643718883497,0.6491293303944136,1.077079408824781,0.0,0.0,0.0,0.0
0.01857444559942827,-0.026204269159149265,0.7248385012876558,0.010032145672786472,-0.5198360973945179,-0.013634742491083762,0.8540982857353357,0.09996244377693231,-0.8275297409510641,0.9368350042237439,-0.18797020374554885,-0.8044151760875438,0.7636899130666902,0.029283835114218344,0.7145643051203414,0.9359915745598526,0.03262840110722119,0.6456229610017725,1.0845440357782399,0.0,0.0,0.0,0.0
0.019554881270000973,-0.02682239719083025,0.7241000334232168,0.010654742178956872,-0.5189555203816854,-0.014084196481524116,0.8546187920610826,0.1029498597502005,-0.8353449632442592,0.9467050829517891,-0.20410457150975048,-0.7709499216015562,0.7274191648026648,0.026532018185779948,0.7137033812899073,0.9380591051828888,0.029909814837951562,0.641416274379153,1.089317492994331,0.0,0.0,0.0,0.0
0.019609043889879246,-0.026873685305030266,0.7240772074521398,0.010721821039509324,-0.518929013930962,-0.01407705634034858,0.854634165909032,0.1030798719273538,-0.8353821920358708,0.946759114915008,-0.20410372145621009,-0.7708779440859095,0.7274305626883649,0.026495607930251422,0.7137720773386454,0.9379338956759643,0.029920138525973375,0.6414104227952829,1.0894984332753315,0.0,0.0,0.0,0.0
0.019609043889879246,-0.026873685305030266,0.7240772074521398,0.010721821039509324,-0.518929013930962,-0.01407705634034858,0.854634165909032,0.1030798719273538,-0.8353821920358708,0.946759114915008,-0.20410372145621009,-0.7708779440859095,0.7274305626883649,0.026495607930251422,0.7137720773386454,0.9379338956759643,0.029920138525973375,0.6414104227952829,1.0894984332753315,0.0,0.0,0.0,0.0
0.019966444486394903,-0.02709754265186139,0.7240249582366867,0.010412096209194836,-0.5189415166042556,-0.013761691234594411,0.8546355401288722,0.10310813643475752,-0.837571748213684,0.9499024723105208,-0.20439490769076724,-0.7725113169817909,0.7315522670787337,0.03239610464435837,0.7132554547895815,0.9366247208785569,0.03617661085843051,0.6440810954034772,1.0905044028240496,0.0,0.0,0.0,0.0
0.020416375656741086,-0.02742148047607345,0.7239286817481787,0.010288938312336824,-0.5191308444500681,-0.013624641873529615,0.8545242379375685,0.1037148704216931,-0.8384088098625041,0.9520554038254233,-0.20404591580427667,-0.7749776397665669,0.7370779235738099,0.03662595143827666,0.7139886265460019,0.9357869193155771,0.04081583876975111,0.6467118560766935,1.0921787248032733,0.0,0.0,0.0,0.0
0.020921005059985804,-0.027895156604114915,0.7237974906542017,0.010305266108831236,-0.5194242346310097,-0.01364152272030797,0.8543454657375359,0.10501106697944701,-0.8380627541374477,0.9531154625796968,-0.20298205776073616,-0.778490973386454,0.7441685326279827,0.04004309726487303,0.7155558329484375,0.9349950364590044,0.0446740991587404,0.6492238643230545,1.0945230615582213,0.0,0.0,0.0,0.0
0.021474569194380465,-0.028587166081563843,0.7236463096570585,0.010438816468171578,-0.5197721686392668,-0.013801028614041212,0.8541296479036258,0.10716790240502526,-0.836584017677834,0.9530019189214571,-0.20106536942839445,-0.7834424925134933,0.7533751793674776,0.04334894785224426,0.7178084951549576,0.9337114574315654,0.04849643195643507,0.6516766803427023,1.0975281436072264,0.0,0.0,0.0,0.0
0.022103065834606046,-0.029572339814457553,0.7234865365308965,0.010698737298719454,-0.520158434620967,-0.014123303424517286,0.853885983146027,0.11043049855308124,-0.8338553587325658,0.9516195485180812,-0.1980738584595261,-0.7903550323018844,0.765518038409829,0.04687960280042077,0.7208970078982446,0.9314648234986059,0.052672680692447425,0.6541913887723448,1.1012149514671488,0.0,0.0,0.0,0.0
0.0228697392137036,-0.030934253985500367,0.7233284791339456,0.01112018982366832,-0.5205886675480618,-0.014657023230908877,0.8536093674912593,0.11512337642978496,-0.8296701738504514,0.948952245378239,-0.1937036312012189,-0.7999387156782655,0.7817618442650387,0.05068558577573257,0.7252593706970224,0.9277714741326472,0.05730381599813435,0.6569708560072895,1.105590295946497,0.0,0.0,0.0,0.0
0.023813241136239824,-0.03270431717629193,0.7232046933643707,0.011715903845257062,-0.521057648613463,-0.015419955038764255,0.8533017575307694,0.12135762670455118,-0.8239266735564095,0.9450642166020606,-0.18782895294578586,-0.8123590970608783,0.8024617245575407,0.05479040562992778,0.7312505434308341,0.9220979187515537,0.06246071782136773,0.6602751830851917,1.110353676816197,0.0,0.0,0.0,0.0
0.024924874954800558,-0.03480388777824441,0.7231469659390026,0.01245163184067333,-0.5215386844847115,-0.016387080890699717,0.8529793790182401,0.12887361106964704,-0.8169005398740417,0.9403112658114116,-0.18066338983382552,-0.8269834837931562,0.8266549868428325,0.05900352143584046,0.7388763498122453,0.9143155413788517,0.06794914921080901,0.6641968708623137,1.1149700954227908,0.0,0.0,0.0,0.0
0.02590435370067578,-0.03661157960043104,0.7230152743225582,0.01308297157027488,-0.5219397386117397,-0.01719186916084585,0.8527087338285897,0.135268747962483,-0.8111594884713751,0.9363656067636178,-0.17452468942329494,-0.8394346840042095,0.8469121969189983,0.06295031066020064,0.7450385945057874,0.9081265870609274,0.07320084862548575,0.6675333733100985,1.1194905824198185,0.0,0.0,0.0,0.0
0.026743873098332867,-0.03802615136388724,0.7228406311046743,0.013590303760840864,-0.5222983668895591,-0.01782512801654568,0.8524681720741141,0.14027697813953094,-0.806833983385099,0.9336035935571194,-0.1696962768702472,-0.8492527461070645,0.8628198265215609,0.0660663195714482,0.7498967472187911,0.9038372341949664,0.07748401470593119,0.6703469055029524,1.1235152786110134,0.0,0.0,0.0,0.0
0.02748558229471365,-0.03906812055945743,0.7226513804257997,0.013996398120440002,-0.5226507991507238,-0.018321227992855283,0.85223504715049,0.14403048918189826,-0.8037342529370034,0.9321146483792356,-0.166077658066549,-0.856764677977773,0.8751515258216473,0.06809735255603538,0.7539231770515622,0.9012089319148657,0.08043989313215297,0.6728267578548378,1.126874681889151,0.0,0.0,0.0,0.0
0.02815885558749843,-0.039803203277043744,0.7224668175326904,0.0143316052801662,-0.5230163527331937,-0.018721308838323188,0.8519964861776961,0.14678426399490313,-0.8015243157006503,0.9316713288628015,-0.16342727244688354,-0.8624301002903201,0.8847390846725597,0.06901511870797593,0.7574991822033534,0.899852235271396,0.0820005912677349,0.6750841190237424,1.1295600634103995,0.0,0.0,0.0,0.0
0.028771310693242222,-0.04030971230952664,0.7223037911959729,0.014622458798210475,-0.523396837807067,-0.019057849639987804,0.8517503931548003,0.1488004609837594,-0.7998303898844824,0.9318604578027263,-0.16148040815605003,-0.8666582757159713,0.8922363963677058,0.06895593009562924,0.760858042701969,0.8993130541002786,0.08231934619533338,0.6771620658981011,1.1316127561374756,0.0,0.0,0.0,0.0
0.029319324713589726,-0.04066393057953931,0.7221834730717903,0.014891276826590121,-0.5237826620303521,-0.019354696482987266,0.8515018312105519,0.1503136451423494,-0.7982953818937871,0.9322312070017331,-0.1599923546991102,-0.8697902303252367,0.8981607361330142,0.06812137075917732,0.7641631503358518,0.8990804682331246,0.08164630841727477,0.6790893033350445,1.1330320070126945,0.0,0.0,0.0,0.0
0.029765994392797774,-0.04096625664009268,0.7221453881291356,0.015152615290860063,-0.5241358530122752,-0.019623244858009706,0.8512737127964098,0.15158652880059392,-0.7964683634412483,0.9320647591282128,-0.15867875509045076,-0.8721341235262671,0.9029207049844571,0.06701326227905463,0.7674325403301457,0.8983475214987052,0.08060087300876004,0.6808667933958327,1.1337423327960272,0.0,0.0,0.0,0.0
0.03003809561713774,-0.04137861671613989,0.7222799622628552,0.015412432660498502,-0.5243670424613877,-0.01986057730228785,0.8511211542248275,0.15299826417413145,-0.7937073192795422,0.9302532949166686,-0.15713010581033798,-0.8741098163126392,0.9070866870530578,0.06673112700806567,0.7706061529924927,0.8955015035237122,0.08052157134481441,0.6825886559920956,1.1334006717025742,0.0,0.0,0.0,0.0
0.030070852904029274,-0.04221320846621418,0.7228620613885488,0.01567118060634326,-0.5242912631961957,-0.020055918537656616,0.8511585313947994,0.1552714069230242,-0.7889102689433585,0.9253092173760858,-0.15459221275304016,-0.8766342272445785,0.9123964403926424,0.06950166695617559,0.7742737876963198,0.8862725123211503,0.08410991453077578,0.6851079722673996,1.1303868492264917,0.0,0.0,0.0,0.0
0.030125945028853945,-0.04418962502951919,0.725095396879543,0.016032626837883528,-0.5236479089883992,-0.020426993550223847,0.8515389364105751,0.16051219775628503,-0.7780067036614993,0.9152850667556836,-0.14877429204219933,-0.881879703551175,0.9257426356812539,0.07756047327628988,0.7856897541243756,0.8548618948151799,0.09421344364912095,0.6934821821345334,1.1155961811349553,0.0,0.0,0.0,0.0
0.029322136361905587,-0.0464390245777312,0.728825383210435,0.015077719181537231,-0.5215565548707776,-0.01935718982376345,0.8528638353557589,0.16349937940788295,-0.7710612090608173,0.9061642257678324,-0.14553875141119665,-0.8818455429130392,0.9338127857452034,0.03950093889527951,0.7414985189798362,0.9365029066881189,0.12729479596568277,0.7078722210331065,1.0890246034865194,0.0,0.0,0.0,0.0
0.028746633406996177,-0.04880729841130696,0.7326832632348966,0.014330177190897932,-0.5197789252878199,-0.01851458678915839,0.8539799323897155,0.16712859116159448,-0.7615836533956778,0.8955119865911944,-0.14141820325776672,-0.881773490298108,0.9430822175781477,0.00785343875591895,0.7089805823263723,0.9978705127637587,0.15523890126950537,0.7230097990630265,1.059929859142424,0.0,0.0,0.0,0.0
0.02841265339742765,-0.05111333938919595,0.7361510560688223,0.013874552445883608,-0.5183290156496861,-0.017901324526554487,0.8548813197808505,0.17102291348489235,-0.7515538570394871,0.884771326054373,-0.1369793118696248,-0.8827197167444074,0.9532959562359846,-0.01290000992996261,0.685473758706648,1.0450851377671446,0.17751850581435552,0.7370163262173205,1.0326346845494936,0.0,0.0,0.0,0.0
0.02819328759746179,-0.053218776462002536,0.73914755726406,0.01359676828962854,-0.5171114389273036,-0.017428103706967277,0.8556326015433207,0.17471035083433847,-0.7420834374604798,0.8745890222402906,-0.13276057060649352,-0.88409025755576,0.9629805054062318,-0.026918253453962745,0.6680390139621075,1.0843912251712489,0.19544214662096854,0.7492894838736093,1.0082072612545232,0.0,0.0,0.0,0.0
0.02799249091912026,-0.05508135141798793,0.7417043740334247,0.013395999906306038,-0.5160353029055297,-0.01701638522942408,0.8562934987347692,0.17796323249109677,-0.7337103464858297,0.8652251869675014,-0.12902578318507762,-0.8854686397231889,0.9713751078180725,-0.03751396110412098,0.6543531433224414,1.1191287958333183,0.21033085437298565,0.7596898172101195,0.9867541897461836,0.0,0.0,0.0,0.0
0.027738825994616335,-0.05671394654998326,0.7438636473541221,0.013201796512206094,-0.5150261745601017,-0.016606796268760993,0.8569118778523996,0.18071898995019642,-0.7266719070642716,0.8566668264280609,-0.12586043644391937,-0.8866904454537772,0.978176833805127,-0.046651452426754045,0.6428530393174618,1.1505219239922702,0.22328860900497674,0.7681491002276608,0.9682308365453731,0.0,0.0,0.0,0.0
0.027355911333646083,-0.05814755084182872,0.7456476119469049,0.012957252857462754,-0.5140191121258394,-0.01614541627507597,0.8575288843537902,0.18296341644282962,-0.7210789795479255,0.8486661644819565,-0.12329066492825018,-0.8876529555003125,0.9831011250434655,-0.05560610883622989,0.6326765883956924,1.1779989108911635,0.23526169784161163,0.7744742946302462,0.9527306953555706,0.0,0.0,0.0,0.0
0.026754635658352635,-0.059426634829470734,0.7470489612334352,0.012607122040942699,-0.5129454456411273,-0.015574755840610743,0.8581873089543887,0.1847090972204737,-0.7170417022280778,0.8408197763450053,-0.12131598533099089,-0.8883307720819321,0.9858415412931978,-0.06555095123624677,0.6237258419134596,1.198991606144966,0.24719649530166984,0.7782760113595486,0.9406074008699132,0.0,0.0,0.0,0.0
0.025843443104689733,-0.06061015510333267,0.7480357717724593,0.012094171629523776,-0.5117285174703733,-0.014831994418607707,0.8589340296913004,0.1859983236832591,-0.7147312839412409,0.8326871292448607,-0.1199151910340239,-0.8888219494040853,0.9861712163393106,-0.077893981115414,0.617127355926282,1.2083521210802008,0.2600895297929048,0.7790170541882088,0.9324267119415109,0.0,0.0,0.0,0.0
0.02458075193433808,-0.061757819545676655,0.7485949884024646,0.011380514994496339,-0.5103101938701278,-0.013875438711402134,0.8598031531177696,0.18691104518658574,-0.7142765779053125,0.8240439873152675,-0.11903286503765503,-0.8893419343677956,0.9842109168423834,-0.09399403774015365,0.61608296101186,1.1983522500286823,0.27458277919401664,0.7763825833511825,0.9284515661355606,0.0,0.0,0.0,0.0
0.02297609189916559,-0.06284895563870932,0.7487903481241148,0.010477467696278739,-0.5087178956111303,-0.012706046831511166,0.8607757441573106,0.18735156071545347,-0.7153804572185242,0.8147584750449292,-0.1187332135208014,-0.8895379702205807,0.9797373784587414,-0.11291286604334479,0.6174038653947095,1.176978079326992,0.2900999513253864,0.77065195159898,0.9279775509358629,0.0,0.0,0.0,0.0
0.021081611114895114,-0.06386620573205927,0.7487160991190823,0.009396862456286756,-0.5069694089495052,-0.011329214986250518,0.8618383643428519,0.18724998431855971,-0.7178664123697933,0.8050591361647931,-0.11907495105110161,-0.8891956698030692,0.972893040139777,-0.13415924809710683,0.6198241053582756,1.1497884635703652,0.3061211148498732,0.7624190543438448,0.9298682946643252,0.0,0.0,0.0,0.0
0.01895685350732245,-0.06479907515466207,0.7484540590849322,0.008131733126954161,-0.5050583403240017,-0.009732218227513988,0.8629920229723383,0.18653728685921148,-0.7218335684361281,0.7954551610414211,-0.12014408454619725,-0.8882424346065523,0.9639798240990828,-0.15837006397709813,0.6231174234093092,1.1201818867145006,0.3224660823043558,0.7522693573594831,0.933063905542408,0.0,0.0,0.0,0.0
0.01669304515541003,-0.06562444339557784,0.7480624038194496,0.006663941383097947,-0.5029739326473993,-0.007896700282435068,0.8642398145694871,0.18512611359786801,-0.727745107567918,0.7869886246629791,-0.12207783885159797,-0.8867747886707039,0.9535469191494705,-0.18778883645971112,0.6277938514768742,1.0904306861686945,0.3390783727123191,0.7408008698960007,0.9366796159310334,0.0,0.0,0.0,0.0
0.014513110809538547,-0.06631161718150516,0.7475476883390512,0.004989110217624163,-0.5006974164774104,-0.005836697257741624,0.8655883195129221,0.18304559782520202,-0.7369154631164428,0.7822161580733324,-0.12499539694063444,-0.885764833263432,0.9434806351233462,-0.22661045236128652,0.6355095167790609,1.0624243061283045,0.3558773272628742,0.7287266008391302,0.9401948992859496,0.0,0.0,0.0,0.0
0.012777487445316024,-0.06673766354887892,0.7469058791984411,0.0031952832113575297,-0.4983003111942936,-0.0036828106397307227,0.8669907882640169,0.18034274120891547,-0.7508285376259045,0.7848187028877017,-0.1290089157245617,-0.886512959307383,0.9364413189951114,-0.27816138268027996,0.6478790921471475,1.0380773412735058,0.3715353084892557,0.7171459574369997,0.9431521490496918,0.0,0.0,0.0,0.0
0.011640131147764122,-0.0668814564232787,0.7460938652906117,0.0017495195774957317,-0.49614529164276644,-0.001947646687709812,0.8682355644837074,0.17784072728033262,-0.7662887381483118,0.7924481630808262,-0.13300789690040962,-0.8897045850518026,0.9335498256273135,-0.32933593259194965,0.6607340454455465,1.019855432237003,0.381782858987799,0.706282885065787,0.9468083224953524,0.0,0.0,0.0,0.0
0.011656244535091452,-0.06691222810975316,0.7460615104993417,0.0016919450193647895,-0.4961519854776434,-0.001914391422654135,0.8682319273869884,0.17781847161862263,-0.7663787101464953,0.7923588191826065,-0.13302884026001086,-0.8896615233901018,0.9335842674107624,-0.3293681879971397,0.660734322639693,1.0198592359021525,0.38179509568672215,0.7062094044345439,0.9467473698245144,0.0,0.0,0.0,0.0
0.011656244535091452,-0.06691222810975316,0.7460615104993417,0.0016919450193647895,-0.4961519854776434,-0.001914391422654135,0.8682319273869884,0.17781847161862263,-0.7663787101464953,0.7923588191826065,-0.13302884026001086,-0.8896615233901018,0.9335842674107624,-0.3293681879971397,0.660734322639693,1.0198592359021525,0.38179509568672215,0.7062094044345439,0.9467473698245144,0.0,0.0,0.0,0.0
0.011899280739300291,-0.06692561090266458,0.7459738003991653,0.001403310776864094,-0.49690314693243826,-0.0016530570550941858,0.8678032960814771,0.1771523184651014,-0.7646973871515315,0.7915652239854528,-0.13339679214790243,-0.8859077933197986,0.9312883841144036,-0.32900323276554805,0.6629978450758601,1.0222156599787613,0.38856214630846886,0.7099530412299686,0.949241399696009,0.0,0.0,0.0,0.0
0.012121012421528271,-0.06671589542268487,0.7458759903228477,0.0011454607076225754,-0.49750439163930815,-0.00139385197640944,0.8674595814192365,0.1759950897686452,-0.7645782349448447,0.7927440057492139,-0.13439009471415528,-0.8822836650033491,0.9285580171325152,-0.3298162472702285,0.664775770816682,1.0247828671106876,0.393421875507211,0.7130510818906578,0.9510863708562572,0.0,0.0,0.0,0.0
0.012272020863761725,-0.06621246819659324,0.7458053797299515,0.0008927557699273321,-0.4979681276518732,-0.0011122357972751012,0.8671941592063188,0.17408534988863877,-0.7659184855603207,0.7957215493316984,-0.1362196400874282,-0.8780438235033943,0.9243955821516183,-0.33191702513058075,0.6660580360920063,1.027457792942395,0.39581958109658477,0.7155150605764061,0.9518079858409408,0.0,0.0,0.0,0.0
0.01235806983086454,-0.0653454900936762,0.7457574125775764,0.000610588010067838,-0.49831587369662816,-0.0007746372975820925,0.866994992569914,0.17117623727740117,-0.7690128360446439,0.8009356631458645,-0.13912884296807954,-0.8727365905365044,0.9182673276870679,-0.3354720578172616,0.6668514542517996,1.0304836380986386,0.3956542898976278,0.7174421383347525,0.951344757799934,0.0,0.0,0.0,0.0
0.01241075576168452,-0.06402734165853163,0.7457189751386484,0.000266223891291102,-0.4985538444612791,-0.00034721363338922293,0.8668586232716448,0.16699038996639468,-0.7744438801557075,0.8092560255246459,-0.1434177364525416,-0.8660679307460594,0.9098469335330064,-0.34078443209344017,0.6671811428464252,1.0341431273176924,0.39279509301567955,0.7189523906626125,0.9496139348298639,0.0,0.0,0.0,0.0
0.012430310253207816,-0.06220846729093359,0.7456911834373776,-0.0001487184446741213,-0.49867983668197896,0.00017638397298312612,0.8667862292736042,0.16138002791726966,-0.7823422452774256,0.820854205112921,-0.14921257956005402,-0.8577900024853379,0.8987610052641392,-0.3481116338141231,0.6670636200347536,1.0384958766880097,0.3869612051550722,0.7200537444324777,0.946453498637467,0.0,0.0,0.0,0.0
0.012427710384061656,-0.059873714870405347,0.745676876119002,-0.0006299193428938993,-0.4986863879703264,0.0007877111095942034,0.8667819040369603,0.15430990124455748,-0.7926993985561014,0.8357210180435892,-0.15651866177818263,-0.847858730743091,0.8849172246303585,-0.3576388692066724,0.6665703265841236,1.0434731445785583,0.3779820847045834,0.7207781313722428,0.941708295765286,0.0,0.0,0.0,0.0
0.012451180567841719,-0.057120103985469114,0.7456578246105905,-0.0011637781784543258,-0.49858162526763683,0.0014949034057042932,0.8668406853797535,0.14597505917423256,-0.8052798860355622,0.8535113643564916,-0.1651180825898223,-0.8367130028261652,0.8690449983629613,-0.36884534932526064,0.665786513874643,1.0489390795974938,0.36675311161739416,0.7213337546472174,0.935670595791634,0.0,0.0,0.0,0.0
0.012499496160966567,-0.05474537973695525,0.7456320838633171,-0.001652901835015619,-0.4984867907327889,0.002099055731132217,0.8668931775861927,0.13876700518117105,-0.8160034632618227,0.8685757671212637,-0.1724511213570843,-0.8269180913635896,0.8550567331569048,-0.37847150206852154,0.6651995368813386,1.0535630388060049,0.3573542618292109,0.7219654764907624,0.9303387392521268,0.0,0.0,0.0,0.0
0.012550004915330338,-0.05285229939811702,0.7456133431770423,-0.002071329442539829,-0.49843477404824776,0.0026057878386648455,0.8669208126948807,0.13292545273303036,-0.8243588149647209,0.8802773246912152,-0.1783011022262687,-0.818704270604874,0.8434261609760767,-0.38594388628994514,0.6648318508429755,1.0571800849173394,0.3503721874179606,0.7227379899387413,0.9260162353469582,0.0,0.0,0.0,0.0
0.01260662884525929,-0.05141420553534941,0.7456041917432293,-0.0024177467630471334,-0.4984268838318655,0.003018965451097152,0.8669231118281776,0.1284032867722007,-0.8305950956396343,0.8890585789232857,-0.18277072762596974,-0.812116508551989,0.8342677364298239,-0.3914376096826965,0.6646996390014756,1.0598852988862153,0.34560279827283014,0.7236360367647382,0.9226950145500283,0.0,0.0,0.0,0.0
0.012676785630993953,-0.05035835844799795,0.7456087870227597,-0.0027021010839321418,-0.49845861291942134,0.0033542508128198483,0.8669027966604234,0.12500214301641888,-0.8351272089649338,0.8955659414537349,-0.18609659397553352,-0.8069790979363742,0.8273729388229086,-0.39529400308359536,0.664818529888483,1.0618031096720546,0.3426852786723017,0.724683637336229,0.9201941565615003,0.0,0.0,0.0,0.0
0.012758596144956155,-0.04959442966252525,0.7456349538989646,-0.0029375155639880923,-0.49852241402424646,0.0036301226798026004,0.8668642315421018,0.12246111828668706,-0.8383473710830397,0.9003750434907678,-0.1885533151586159,-0.8029524814996879,0.8222625130068177,-0.39790106378960405,0.6651821267093625,1.063037325281378,0.3411613700104749,0.7258990768580412,0.9182281049137528,0.0,0.0,0.0,0.0
0.01285774364695893,-0.04905031340501145,0.7456877482657127,-0.003140106142762579,-0.4986187861925331,0.00386749932644006,0.8668070651755541,0.12055559488530579,-0.8405736334916892,0.9039656394849133,-0.19036926770565224,-0.7997218509241507,0.81853140707322,-0.3995386406661624,0.6658166277021361,1.0636806020783824,0.34079024221231907,0.7273629032478232,0.916582199328423,0.0,0.0,0.0,0.0
0.013033337141878697,-0.048722249830600195,0.7457560245481598,-0.0033345084465383713,-0.49877435814823756,0.00409526379007116,0.8667157835886706,0.11922656130256135,-0.8420926480882787,0.9068823257359857,-0.1916298312415865,-0.7973479335550906,0.8165278502764735,-0.4001648180119451,0.6669169220810431,1.0638501264146092,0.34213126209311384,0.729397225604648,0.915388953349835,0.0,0.0,0.0,0.0
0.013368278340400547,-0.048650755747760545,0.7458206178470679,-0.0035523271941413576,-0.4990455751392688,0.004353815632920901,0.8665575221500629,0.11849988217269349,-0.8430588939672438,0.9095555502963238,-0.19233452853347205,-0.795989943497585,0.8169042725345819,-0.39949804744478884,0.6687929417764658,1.063693555421208,0.34635432970734054,0.7325158832780644,0.9150291545906188,0.0,0.0,0.0,0.0
0.0140333416434931,-0.04886132404228539,0.7458712943383109,-0.0038576744137133576,-0.4995215700048225,0.004722182244083283,0.8662799896355038,0.11829522830235635,-0.8440081834768978,0.9132308246825026,-0.1926176781906046,-0.7958206275984491,0.8207597948179808,-0.3972319148453376,0.6721430816429151,1.0632885897402018,0.35537681204907773,0.7378304776583501,0.915758815534719,0.0,0.0,0.0,0.0
0.015345912241555003,-0.04947394858696159,0.7462134988516949,-0.004477896063413864,-0.5006185068276703,0.005480239445546851,0.8656390853260374,0.11825946983832246,-0.8437169374434008,0.918399908276771,-0.19262054557992525,-0.7944744371491906,0.828192029816143,-0.3911587458414638,0.6801135605123846,1.0602290473740235,0.3757061231572565,0.7503339382566283,0.9155657342309294,0.0,0.0,0.0,0.0
0.016913447889918987,-0.05048397696016895,0.7481625918329138,-0.006109442131456252,-0.5022358838522633,0.0072652827527737605,0.8646785572422278,0.11693648084881453,-0.8391023556481536,0.9219159761051242,-0.1930417303565504,-0.7835053352975321,0.8312153353144972,-0.3678028106294237,0.6938264990295148,1.042407499738207,0.3023307132526519,0.7141317354379624,0.962814368924342,0.0,0.0,0.0,0.0
0.019013411289828988,-0.05185953310511121,0.7499631061014235,-0.00791845763324895,-0.5043035557964798,0.009255686831696943,0.8634405329268546,0.11625924254932214,-0.8344276008329542,0.9268718219670032,-0.19291483581371247,-0.773398525158917,0.8381580645752235,-0.34097023383560915,0.7094010813409525,1.0248835344713323,0.236375414571925,0.6888576177465806,1.002162849927512,0.0,0.0,0.0,0.0
0.0212315183001359,-0.05329678018701793,0.7513910634520771,-0.009472854006324229,-0.5063467340363481,0.010968073454748643,0.8622081832900856,0.11647114971463907,-0.830349920467245,0.9323099298764834,-0.192165138482215,-0.7662935158844547,0.8478882974581926,-0.31608479313185023,0.7241323879243339,1.0096616652273345,0.18848819496136465,0.672789985351636,1.036976521157809,0.0,0.0,0.0,0.0
0.02336263062368225,-0.05464411491439197,0.7525195585909196,-0.01074477001229897,-0.5082132300936023,0.0123675112613944,0.8610754364981091,0.11719229432736736,-0.8269158749301099,0.937714981617275,-0.19111569108394189,-0.7614490651692809,0.858507080928021,-0.29410045485577396,0.7373594250702173,0.9965511745297541,0.15356022663616112,0.6622568268202388,1.0693490633677567,0.0,0.0,0.0,0.0
0.025310687311077742,-0.05589227246161834,0.7534244269518033,-0.01178791344474698,-0.5098796719987931,0.01351541335322923,0.8600587763524733,0.11821494151328028,-0.8238464427690104,0.9424903589083065,-0.18989243067577855,-0.7580792777198133,0.8689418093266887,-0.27449378750957165,0.7489184015556762,0.9851877127885725,0.1260085723048684,0.6546942948677236,1.100061018977652,0.0,0.0,0.0,0.0
0.02703977407662688,-0.0570936408129805,0.7541167105029859,-0.012656375802613685,-0.5113719407208164,0.014476294892248307,0.8591443366985325,0.11950207123224547,-0.8208997415652782,0.9461482339084759,-0.18848177970008428,-0.7558263133768256,0.8788541392054746,-0.2564240575225331,0.7586421856367167,0.975632222470603,0.10233959665714752,0.6486904801529817,1.128944764730897,0.0,0.0,0.0,0.0
0.028524337965528692,-0.05831120127824,0.754532797301618,-0.013385071514138333,-0.5127278267542441,0.01529392245743497,0.8583106147941415,0.12109585343979865,-0.8179596694319348,0.9482465936251692,-0.18681872010785738,-0.7546658973228639,0.8881738157186756,-0.23921507713737838,0.7661183732297718,0.9685858219455807,0.08096742536314214,0.6436618871226767,1.1547637716406294,0.0,0.0,0.0,0.0
0.029721368659473252,-0.059590075553748664,0.7545416332273496,-0.013989275446764678,-0.5139774912251293,0.01598854669544803,0.8575405559278023,0.12304293507327657,-0.8150718109339694,0.9483584700859554,-0.18485137209081715,-0.7547762940384873,0.8967910643643933,-0.2225738659767859,0.7706068452979157,0.9654268934609077,0.06170338845663742,0.6398044877516845,1.1747419704532847,0.0,0.0,0.0,0.0
0.030570434685524738,-0.060941458735156384,0.7539720872693543,-0.014469603732854438,-0.515130567033026,0.016560998592876647,0.8568295412750742,0.12534528682542484,-0.8124768033792251,0.9461707623547607,-0.1825866328102921,-0.7564508524221263,0.9044831806459452,-0.2066724487231676,0.7711535108157351,0.96796709565395,0.045415539905771504,0.6385571412221097,1.1838022004206028,0.0,0.0,0.0,0.0
0.03107489485000976,-0.06238489715875214,0.7527993519659859,-0.01482684925063805,-0.5161867594049075,0.017012205146067064,0.8561787072991403,0.12804217627997058,-0.8102046971232836,0.9416461465906577,-0.17999075075964255,-0.7598671572267215,0.9114428071608769,-0.19147186797384297,0.7676793700322097,0.9763816219689044,0.032983641197450654,0.6432587336563803,1.1744374988005681,0.0,0.0,0.0,0.0
0.031231717091021183,-0.06395270314033866,0.7509573002961577,-0.015095043700332024,-0.5171918060220837,0.01737230541279239,0.8555600378956143,0.13114513978180148,-0.8081824094613816,0.934502046271124,-0.17703242956683915,-0.7649322836894704,0.9175125705154887,-0.1764354355727104,0.7599598596462802,0.9911505133887866,0.02300353178707515,0.6507837745994688,1.1538930901916695,0.0,0.0,0.0,0.0
0.031113179681771554,-0.06567571705424712,0.7485254285242476,-0.015319747988778568,-0.5181814178426621,0.017684681954548493,0.8549506275500913,0.13465702775400967,-0.8062449680041034,0.9249022590711754,-0.17369203450108975,-0.7713869656512256,0.9229312522427744,-0.16063508428646875,0.7486171577759438,1.0110745832150894,0.013747665709294105,0.6599458799751531,1.126851160946483,0.0,0.0,0.0,0.0
0.030795156485332827,-0.06751437471321302,0.7455717172665414,-0.01555685314317155,-0.5191667857915213,0.01799546587047717,0.8543418496476026,0.1384116080428427,-0.8046365589767669,0.9135332194158702,-0.17013786291587957,-0.778879032293549,0.9276987975802122,-0.14356898732504472,0.7341919147738075,1.0351619396017258,0.003767649056211752,0.6708940232089688,1.0954716161392364,0.0,0.0,0.0,0.0
0.030376459087177808,-0.06931886364632102,0.7421578317703008,-0.015888268719519538,-0.5201256220045513,0.018371026418366007,0.8537443444262519,0.14194703216497428,-0.8043575913034836,0.902138075793255,-0.16687289923792775,-0.7869062491317985,0.9315693081928886,-0.12530768358291,0.7171862198104156,1.062687179567863,-0.008485573078847664,0.6846376643052663,1.059961556232538,0.0,0.0,0.0,0.0
0.029958139853902097,-0.07090268560413647,0.7384288246417015,-0.016413779402504644,-0.521013690304129,0.01892700259163793,0.85318057346279,0.1445918048070156,-0.8065918005265604,0.8928729704120048,-0.16460435937402768,-0.7946014959280895,0.9340688342537803,-0.10557858236648612,0.6982147154419982,1.0922769976573277,-0.024680142360945442,0.7024847999783668,1.018779315858487,0.0,0.0,0.0,0.0
0.02956635544006047,-0.07215356047688581,0.7347305816788435,-0.017212648060260734,-0.5217383042090202,0.0197445053374983,0.8527033605989992,0.14590686965264574,-0.8115623556409545,0.8868351065781352,-0.1637318996687859,-0.8008182632512968,0.9346126109342379,-0.08368265922273205,0.678214453099767,1.12087637868417,-0.04744374115134395,0.7256717026573413,0.9679532041675664,0.0,0.0,0.0,0.0
0.029292567640227085,-0.07292210689059454,0.731907232052952,-0.018301776235494407,-0.5221753634705629,0.020853802480714802,0.8523866808515409,0.145455192478939,-0.8183784015983101,0.8853070326767406,-0.16454266046262822,-0.8035446718107772,0.9329178886450351,-0.06011240302153224,0.6604499972829768,1.1416413990635608,-0.07412864519083294,0.7552067861660505,0.9040109922156515,0.0,0.0,0.0,0.0
0.02932543802329312,-0.0729163292087187,0.7318270053136021,-0.018307569183135305,-0.5222162195110848,0.020846276835913516,0.852361710620694,0.1454486246727245,-0.8183993343485154,0.885245843248112,-0.1645585123924954,-0.8036108631761367,0.932911223651196,-0.0600676735781471,0.6604714071280955,1.1416633887033598,-0.07413598555725422,0.7551798080598757,0.9039826861223704,0.0,0.0,0.0,0.0
0.02932543802329312,-0.0729163292087187,0.7318270053136021,-0.018307569183135305,-0.5222162195110848,0.020846276835913516,0.852361710620694,0.1454486246727245,-0.8183993343485154,0.885245843248112,-0.1645585123924954,-0.8036108631761367,0.932911223651196,-0.0600676735781471,0.6604714071280955,1.1416633887033598,-0.07413598555725422,0.7551798080598757,0.9039826861223704,0.0,0.0,0.0,0.0
0.029237770609494725,-0.07267757453528174,0.7315729288885555,-0.017905769693401307,-0.52206942874502,0.02034303307628555,0.8524723197774766,0.14595845834131047,-0.8185046411419491,0.8851667302645022,-0.16424056561943182,-0.805829160815553,0.9335035415707541,-0.06977535417540243,0.6617019736113694,1.1444143843355485,-0.08251438956298517,0.7509397591065414,0.9045318721702412,0.0,0.0,0.0,0.0
0.028999284945734744,-0.07255460113137323,0.7313658453071432,-0.017594596852308325,-0.5218863727345305,0.01990941028137925,0.852601113943588,0.146589839200376,-0.8179211550525756,0.8835349791851758,-0.16369501436940057,-0.8074911224742651,0.9331893679794144,-0.07711244800196074,0.6618328336135775,1.1467100676288888,-0.08857457550133795,0.7468243548938839,0.9054221945160974,0.0,0.0,0.0,0.0
0.02855403638839856,-0.07264531197098707,0.7312668681324025,-0.01730318028050456,-0.521627189300474,0.01950986220225585,0.8527749061807088,0.14762192144821776,-0.8158633862529732,0.8792057664126068,-0.16261774061061438,-0.8089011933760222,0.932267668243327,-0.08174949719195251,0.6608103599638343,1.1477821038615144,-0.09231220459476257,0.7426703584647791,0.906477871939102,0.0,0.0,0.0,0.0
0.02784111866476425,-0.07298899525825851,0.7312992392515365,-0.016980507251309104,-0.5212460853844569,0.01909469170672798,0.8530237825485832,0.14923961680234288,-0.8118641541525666,0.871382261229994,-0.16080980591674385,-0.8102869431125452,0.9307567351617154,-0.08397456494484001,0.6585377040861841,1.1473580837032196,-0.09410632807069752,0.7380745664900095,0.9075929102466659,0.0,0.0,0.0,0.0
0.02680009448639719,-0.07362485471469948,0.731463267286867,-0.016591348970608617,-0.5207069212193149,0.018630788824568974,0.8533709176210611,0.1515886194149205,-0.8055111248965829,0.8592517373345051,-0.15810739679321334,-0.8118187897850686,0.9285843419356443,-0.08393263533068746,0.6548219617147749,1.1453466063049604,-0.094122362658451,0.7326250037163878,0.9088937455242734,0.0,0.0,0.0,0.0
0.02538109466162154,-0.07460467333881728,0.7317280240456967,-0.01611300155204209,-0.519991820462136,0.018101329139796344,0.8538273945692012,0.15480574906181802,-0.796402047555115,0.8419297735369147,-0.15435438017260072,-0.813676215366677,0.9257045051474214,-0.08156882323171213,0.6494071215309871,1.1418561469566026,-0.0923034715594674,0.7258991102540199,0.9108656276042184,0.0,0.0,0.0,0.0
0.023571857487619127,-0.0759641625652617,0.7320152988955346,-0.015541110334319904,-0.5191142584909013,0.017502769516227715,0.854384289169856,0.15896612697681647,-0.7843256914895642,0.8187845667973042,-0.14946926943665378,-0.8160453359603009,0.9221377585544803,-0.07692941577473625,0.642107483511396,1.1373820980563156,-0.08861853426604088,0.7174820603984324,0.914352397115474,0.0,0.0,0.0,0.0
0.021474189153623178,-0.07761240356859953,0.7322232903579604,-0.01491052812356143,-0.5181367173186938,0.01683951753700342,0.8550020169370395,0.1638640861969793,-0.7698788917038463,0.7907168574043166,-0.14370089633048516,-0.8189240817214997,0.9179839918608311,-0.07099492208788148,0.6333337994209679,1.1328548522964652,-0.08375245052161627,0.70736384170461,0.9197719057940998,0.0,0.0,0.0,0.0
0.019664248270966835,-0.07894612643664725,0.7325134907703486,-0.014403894237100201,-0.5171909124283213,0.016269285688181586,0.8555941784956015,0.1678720719277326,-0.757428107998065,0.7663912312896403,-0.13893032146479675,-0.8211349927058217,0.9140756139594794,-0.066628556117684,0.6262666742748473,1.1278367288053386,-0.07998485308856182,0.6990824024448866,0.9225302912702052,0.0,0.0,0.0,0.0
0.018290583455771347,-0.07996823021057728,0.7327846466273124,-0.014037755038096454,-0.5164086260204628,0.01580422942756259,0.8560813622181885,0.17103140211463894,-0.7477250617966903,0.7474212795117583,-0.13519297116986148,-0.8230000392570961,0.9113224228699923,-0.06351719206792747,0.6211675878192189,1.1233148756915592,-0.07720980973301003,0.6929027101255938,0.9238360521556163,0.0,0.0,0.0,0.0
0.01731957058627997,-0.0807078110304174,0.7329728596184861,-0.01379480259923522,-0.5158201892181438,0.015428461880890898,0.8564468450407161,0.17344647626995566,-0.7407364560003166,0.7336813735786513,-0.13238071282936853,-0.8246097010756708,0.9096281958856325,-0.0615126647310626,0.6176340515294766,1.1199794891837707,-0.07537574478692015,0.6883667475716497,0.9246454382882447,0.0,0.0,0.0,0.0
0.016674598104981595,-0.08119749366553455,0.7330767056083276,-0.01364756696794738,-0.5154033656104071,0.015112493725719121,0.8567057412943551,0.17524424079859433,-0.7361064714525845,0.7244909130887408,-0.13033838178062307,-0.8259776870840788,0.9087028883347888,-0.06061459008790232,0.6153277653603536,1.1179092146897265,-0.07451058182148558,0.6850524050819017,0.9252054345429835,0.0,0.0,0.0,0.0
0.016264999170020767,-0.08147117384631722,0.7331361701890647,-0.013565757280790099,-0.5151036328196832,0.014822049617956445,0.8568923646120826,0.1765599485197694,-0.7333332328041803,0.7189271940037394,-0.1288944015742394,-0.8271036114037624,0.9082321177966615,-0.06087967028946151,0.6140102107349436,1.1167443881682735,-0.0746662181853578,0.6826337757171718,0.925270760300877,0.0,0.0,0.0,0.0
0.01592498743310288,-0.08168920261521459,0.7332330809086726,-0.013490222431996842,-0.5148523433108959,0.014520569166031694,0.8570497252535054,0.17778594085007746,-0.7307992365746963,0.7142148278918489,-0.12754686109271895,-0.8280258400690832,0.9078667971293795,-0.061597335719012485,0.6132771939076064,1.1154584439224402,-0.07522686165300367,0.6807086299481493,0.924763166803085,0.0,0.0,0.0,0.0
0.015529086949796876,-0.08202722099558447,0.7333767874997954,-0.013373032397639536,-0.5146049378209959,0.014186095300909468,0.8572057364920361,0.1793326867681627,-0.7271456274666072,0.707848839459537,-0.12580689980233062,-0.829044785120911,0.9076073006157066,-0.06185349923426742,0.6125773580233711,1.1135602950714323,-0.07540614459161796,0.6787310944783631,0.92435825060372,0.0,0.0,0.0,0.0
0.014817065168379908,-0.08290266804921316,0.7334062959580906,-0.013115040839376934,-0.5143161332160407,0.013754771630300502,0.8573900612176931,0.1822329116320132,-0.7195547185227643,0.6941829632644578,-0.1225017842499198,-0.8312558712517005,0.9076799338609617,-0.05960741869804279,0.6101550962392331,1.1115057491372777,-0.07347442503826203,0.6746900685776878,0.9274737508777962,0.0,0.0,0.0,0.0
0.013446932129529087,-0.0846654439819744,0.7335287573290777,-0.012591122683531483,-0.5138751722980013,0.0131834148681895,0.8576712473306313,0.18720927140843613,-0.7039284296290168,0.6663530629719322,-0.11661218850345414,-0.8343711169570941,0.9070891825080255,-0.05319874517558347,0.6054531224332441,1.106741932760652,-0.06796337249807623,0.6681206676536305,0.9336534222536745,0.0,0.0,0.0,0.0
0.010968742474964502,-0.0878618725632837,0.7345062320694539,-0.011553390947154315,-0.5138013117454874,0.012355782060891534,0.8577424239571589,0.19515087377358578,-0.6675581124547175,0.6073921203465154,-0.10615585492371135,-0.8332273800870934,0.9008808674250295,-0.041291888798268075,0.6022366675496517,1.092683113399345,-0.05759726883103397,0.6622114735125965,0.9391627200860507,0.0,0.0,0.0,0.0
0.008644009917632797,-0.09047490833645429,0.7355557475875338,-0.00993828877696341,-0.5151546161662552,0.011344678360969357,0.8569645559366327,0.17632237072793747,-0.7263701643908883,0.6976630871037567,-0.09676420799233783,-0.823572591555562,0.8861440120400329,-0.039842186287291366,0.6064612854342655,1.0819984810802363,-0.05651973599682095,0.6592836658549754,0.943614509929252,0.0,0.0,0.0,0.0
0.006054947553759825,-0.09362035227441673,0.7366989822144119,-0.008251166806329775,-0.5163562890840877,0.010115239325166597,0.8562743619325751,0.15782691228128518,-0.7757863532616857,0.747611162697357,-0.08562193697255296,-0.814640815039778,0.8714659170034613,-0.036328930441309595,0.610174701808929,1.0689194396484218,-0.05355674385049217,0.6552299874271955,0.9488844621723801,0.0,0.0,0.0,0.0
0.0034199284396017092,-0.0971097443984106,0.73757328466089,-0.006599492267582184,-0.5173651465706216,0.008874813041982992,0.8556932800421183,0.14365236100851403,-0.816907238102997,0.7714338056732984,-0.0738159689992572,-0.807582571945273,0.8581617215071357,-0.030385565986856326,0.6119989416702459,1.0564585882671167,-0.04824961575379108,0.6494272921990262,0.9574098476216594,0.0,0.0,0.0,0.0
0.001113860332991185,-0.10057299581842405,0.7382069443042566,-0.0051000050015761935,-0.5182525560654067,0.007728537892403114,0.8551774948995688,0.13365358249828618,-0.8513192034382872,0.7803663691854406,-0.06247648592074946,-0.8024277494564571,0.8476583859050068,-0.023366381576820958,0.6132812302076309,1.04517077576496,-0.04175019996577443,0.6436905900122225,0.9672796565903512,0.0,0.0,0.0,0.0
-0.0008276956780033347,-0.10373092999359927,0.73872439161578,-0.00379042040253139,-0.5190216453558372,0.00666898616563086,0.8547266750188707,0.12603824399279595,-0.8807973629436919,0.7813101573969038,-0.05218572753370131,-0.7983629000647028,0.8391989823318897,-0.01692322723129631,0.6147575909363096,1.0348977737097913,-0.035586145654053894,0.6387438985358647,0.9762738189763397,0.0,0.0,0.0,0.0
-0.0024192692995774192,-0.10650628694556172,0.7391774291430081,-0.0026771849991562534,-0.5196499238012352,0.00569961132646594,0.8543560755355918,0.11941819591691767,-0.905943933180733,0.7779161727882631,-0.0430939484591705,-0.7952952350721249,0.8326797854080892,-0.011401388337719871,0.6164837357291424,1.025498757536678,-0.03015964648881162,0.6346934208055283,0.9837217121107076,0.0,0.0,0.0,0.0
-0.0037177899385577922,-0.10889081583051517,0.7395563501667489,-0.0017550995759173314,-0.5201256078300227,0.004822989411870123,0.8540743588693323,0.11273976519877436,-0.9263262970079075,0.7726602119059247,-0.03519419657472096,-0.7931953258035145,0.8278274299982478,-0.006798188110463185,0.6181397277589314,1.0171971907691295,-0.025536835628838475,0.6312342498438169,0.9898240758199338,0.0,0.0,0.0,0.0
-0.0047994499687181585,-0.11092687596805427,0.7398619418163777,-0.0010037774671676773,-0.5204557477397863,0.004032200182295935,0.8538785326011576,0.10523015336016715,-0.9405962685388792,0.7681107831047097,-0.028342161242212588,-0.7918992265094446,0.8242042831263081,-0.002958087349085833,0.6194922335757495,1.0100034833116336,-0.021612596001402896,0.6280895921425064,0.9948724449832488,0.0,0.0,0.0,0.0
-0.005753335754707466,-0.11268331930470595,0.7401079407416951,-0.0003921881370712577,-0.5206755745461846,0.003314791744556172,0.85374809189547,0.09639386121362696,-0.946895550879305,0.7675130190965435,-0.022326823489841115,-0.7909936672108081,0.8210949120747796,0.00032505504308244894,0.6204475295723497,1.0037739028905,-0.01821115722446158,0.6250755174361304,0.9991622742094523,0.0,0.0,0.0,0.0
-0.006649533289709815,-0.11423280375703046,0.7403583172743913,0.00011579181943515428,-0.5208038525083639,0.0026638495070633,0.8536722074136563,0.08626351018694266,-0.943647025008819,0.7737723872432427,-0.016957661579473163,-0.7900767295252311,0.8179684569771146,0.0032700537288097007,0.6211824680665318,0.9978161857529368,-0.015122631462301174,0.6222881869713168,1.0024748498804106,0.0,0.0,0.0,0.0
-0.007452358997921768,-0.11552066395648172,0.7405669358070195,0.0004993713281736857,-0.5208196469039108,0.002081129022296469,0.8536640527333658,0.07477186711412288,-0.9323487231839535,0.7844042991932134,-0.012364996994716434,-0.7894709249874068,0.8151712364828129,0.0056645754633681995,0.621497975476266,0.9926731194330012,-0.01257122699052936,0.6195564632919002,1.004989077845181,0.0,0.0,0.0,0.0
-0.008093258048569711,-0.1164788072279273,0.7407003204280966,0.0007329495830930496,-0.520715606304828,0.0015794400752471602,0.8537284260844034,0.06193177606931298,-0.9151732235061005,0.796865505538309,-0.008734171005017062,-0.789521359984292,0.8132606191454416,0.007322475340597349,0.6213378094158609,0.9888328647460303,-0.010767007462536012,0.616929167963684,1.006743876068304,0.0,0.0,0.0,0.0
-0.008493331689160156,-0.11707698213538639,0.7407542820762606,0.0008035149609183593,-0.5205338257744374,0.001162667831051626,0.8538398788952468,0.047627544702692905,-0.8942102212627323,0.8096323355715215,-0.006136141066464266,-0.7903705897437194,0.8127558426598358,0.008182206868577263,0.620958837690683,0.9865080664139759,-0.009800369768464262,0.6147260935269766,1.0077374258416643,0.0,0.0,0.0,0.0
-0.00859525596600736,-0.11734180814288599,0.7407200669983615,0.0007129350300017728,-0.5203192934099589,0.0008309957624970602,0.853971096744525,0.03194867616296609,-0.8709858420919663,0.8214045336257544,-0.004502080504034416,-0.7921941993548958,0.8141690973069713,0.008423085049526963,0.6205600072694143,0.9857779965831276,-0.009506341361188815,0.6131798603649602,1.008220357309045,0.0,0.0,0.0,0.0
-0.008511947627766737,-0.11733407523869072,0.7407028490168577,0.0005111597744293299,-0.5200441610115815,0.0005718318598679904,0.8541390298550754,0.015709037567275208,-0.8472306316068523,0.8311258424070063,-0.003677098366963428,-0.7944479317820554,0.8166334151156289,0.00805047542935648,0.6203532097165245,0.9855028223616488,-0.009852645481377058,0.6123301204047346,1.00745288231956,0.0,0.0,0.0,0.0
-0.008335258556663333,-0.11718231895914848,0.7407589793629659,0.0002568803434508726,-0.5197217891009468,0.0003907601425539271,0.8543354395392428,0.0009888084443916024,-0.8253670499325553,0.837016988767761,-0.0033944368432226825,-0.7967479754274115,0.8195774263407607,0.007540890137631088,0.620437789254976,0.984801786059014,-0.010336531234182319,0.6121958236308117,1.0054510000884518,0.0,0.0,0.0,0.0
-0.00820301119939344,-0.11711478271739094,0.7407485877910263,3.6963433235378004e-05,-0.5194316835965983,0.00028865066343223796,0.8545119316841061,-0.00831902064006664,-0.8095378756249216,0.8365969623738762,-0.0031403521358880178,-0.7989538202219345,0.8222516199397268,0.007803945667002109,0.6199980955473303,0.9844475243499667,-0.010038667232984442,0.6118503825523793,1.00451661580117,0.0,0.0,0.0,0.0
-0.00819473694227362,-0.1171003200137766,0.7407461909696983,1.7428525477436798e-05,-0.5194263135043778,0.00028540794881701725,0.8545151976868527,-0.008334652206423715,-0.8094983775122637,0.8365983637687276,-0.0031551529931808132,-0.7989715496354636,0.8222770332431505,0.007809094116234146,0.6199817418051237,0.9845003096492396,-0.010032481136460537,0.6118663624541683,1.0044681420917692,0.0,0.0,0.0,0.0
-0.00819473694227362,-0.1171003200137766,0.7407461909696983,1.7428525477436798e-05,-0.5194263135043778,0.00028540794881701725,0.8545151976868527,-0.008334652206423715,-0.8094983775122637,0.8365983637687276,-0.0031551529931808132,-0.7989715496354636,0.8222770332431505,0.007809094116234146,0.6199817418051237,0.9845003096492396,-0.010032481136460537,0.6118663624541683,1.0044681420917692,0.0,0.0,0.0,0.0
-0.008406223109778274,-0.1166491103619602,0.7405532937420216,-0.0001312996080636671,-0.5194113275388419,0.000287651695639648,0.8545242962264167,-0.009385663396969474,-0.8103362741188375,0.8366662849551233,-0.004200601311065703,-0.7970805644717738,0.8182775163207765,0.005898638383841933,0.6182758244016765,0.9879343798330832,-0.011958578653205137,0.6103862572220446,1.0047841108670912,0.0,0.0,0.0,0.0
-0.008666277958014517,-0.11608187293764893,0.740410063499265,-0.0002833426081372595,-0.519325230543148,0.0002889241714174544,0.8545765858956678,-0.010726358126126625,-0.8114639905132187,0.8370140049387091,-0.00553242176525656,-0.7948829367106548,0.813613865900307,0.003276884022650978,0.6165360346443785,0.9911666190963326,-0.014567311227903494,0.6088162897012807,1.0041128058925861,0.0,0.0,0.0,0.0
-0.008921330867162172,-0.11553409609482072,0.7403279302822233,-0.00042642180118222507,-0.5192150557492226,0.000301550397523444,0.8546434654960727,-0.012055706188579178,-0.8125244715538913,0.8373840873707867,-0.006850545237654933,-0.7926976489311041,0.8091118086308959,0.0007889100617827914,0.6150423709212771,0.9936821123677452,-0.01701257582486689,0.6075306151907923,1.0028976447067195,0.0,0.0,0.0,0.0
-0.009147601931884635,-0.11505565774759717,0.7402721733519422,-0.0005592892054962137,-0.5191150587944259,0.0003337370484388713,0.8547041192997884,-0.013270805298923855,-0.813438992698828,0.8376899343330272,-0.008053343645664372,-0.7906796354620579,0.8050759492095687,-0.0012137846494461864,0.6137429250311826,0.9956902376810104,-0.018961136675694427,0.6065365035351076,1.00169905713122,0.0,0.0,0.0,0.0
-0.009348357475936856,-0.11466109902047282,0.7402174148468356,-0.0006843199376974856,-0.5190445240458781,0.00039271804085184525,0.8547468394423878,-0.014352884822064363,-0.8141299660008304,0.8377732551423968,-0.009123172863870202,-0.7887988861011811,0.8014472311789561,-0.0025889834422783177,0.6125277324688221,0.997418608391713,-0.02028705505696552,0.6057629747844896,1.0008570114133288,0.0,0.0,0.0,0.0
-0.009512063935543697,-0.11438982606985214,0.7401591527054469,-0.0008021161725289411,-0.5190253479376365,0.00048064891918139644,0.854758336481416,-0.015207003728296082,-0.8144525071435784,0.8374890106192383,-0.009966808584899772,-0.7871025915827926,0.7983914327592584,-0.0030817225609708204,0.6114474515010258,0.9988182289795854,-0.020751175784838774,0.6052794914269568,1.000600986008886,0.0,0.0,0.0,0.0
-0.009514099663847872,-0.11437947806964945,0.7401546888258665,-0.00080419687477645,-0.5190250951617689,0.00048234281623505304,0.8547584870623461,-0.015236853925170369,-0.81448300329703,0.8375127588200985,-0.009995141735888629,-0.7870633074372523,0.7983109196793593,-0.0031227032250184974,0.6114164047661398,0.9988879726419518,-0.020787406955161104,0.605259368419439,1.0006045746266383,0.0,0.0,0.0,0.0
-0.009514099663847872,-0.11437947806964945,0.7401546888258665,-0.00080419687477645,-0.5190250951617689,0.00048234281623505304,0.8547584870623461,-0.015236853925170369,-0.81448300329703,0.8375127588200985,-0.009995141735888629,-0.7870633074372523,0.7983109196793593,-0.0031227032250184974,0.6114164047661398,0.9988879726419518,-0.020787406955161104,0.605259368419439,1.0006045746266383,0.0,0.0,0.0,0.0
-0.008763603369943133,-0.11465541964771045,0.7406172222544596,-0.0008486832685424417,-0.5194779006590163,0.0004561663367893428,0.8544833423630235,-0.01443271164766661,-0.8138501464592505,0.8412187106000748,-0.009197082319935924,-0.7878366140122864,0.8042477985925955,-0.0013282896243509087,0.6168632003499799,0.9943089765583971,-0.019130625463343768,0.6107679958297281,0.9979086591490937,0.0,0.0,0.0,0.0
-0.007574338796624344,-0.11490338554843532,0.740912512559686,-0.0006643308020812028,-0.5201296537045657,0.00025846709394630393,0.8540870185153943,-0.013381561360020193,-0.8144136056441348,0.8481787454907459,-0.008154723632116119,-0.7909388402223189,0.8144061146699572,-0.0019895983939773715,0.6239157710985024,0.9916964711624332,-0.019988818300119185,0.6165023831256361,0.9965137147488884,0.0,0.0,0.0,0.0
-0.006351155897114966,-0.11506824735409438,0.741029325091478,-0.00044220098908049097,-0.5208129841175133,4.421678940459377e-05,0.8536706847946528,-0.01252525536558815,-0.8155752385334669,0.8556764645359005,-0.007303201268202051,-0.7943643987984604,0.8245556483535723,-0.0035291014417482194,0.6304290533157826,0.9909934700416754,-0.021741000976330416,0.6214551330375132,0.9963856609155812,0.0,0.0,0.0,0.0
-0.005300675028985024,-0.11521577983188222,0.7410527998665186,-0.00027044153354396417,-0.5214240073455492,-0.00012110149021372682,0.8532976718352833,-0.011815978980059925,-0.8166507760623021,0.8620085530892351,-0.006596079890415098,-0.7972739709914716,0.8330662353399544,-0.004651983859375911,0.6357001243219917,0.9910288843694416,-0.023058267792513958,0.6254834697917285,0.9969960772594045,0.0,0.0,0.0,0.0
-0.004478209446266107,-0.11538648637960244,0.7410302235671292,-0.00017103731087396006,-0.5219098036928325,-0.0002221326546422257,0.853000632011859,-0.01117702998701377,-0.8175086652536468,0.8668015453949021,-0.0059581776935448295,-0.7996293294307829,0.839795199639838,-0.004825992618157602,0.6395548385489335,0.9911719063921206,-0.023401007534592184,0.6286050625247916,0.9980447373112796,0.0,0.0,0.0,0.0
-0.003882152028971294,-0.11560644521422335,0.7409905000088954,-0.00013584806359823008,-0.5222648121860186,-0.0002700040566143671,0.8527833104578301,-0.010515461304751653,-0.8180375533965153,0.869989507285185,-0.005297881350845322,-0.8015108708789901,0.8449385505018024,-0.003948296888305267,0.6421150442398926,0.9911034888546945,-0.022666414475100868,0.6309200060675568,0.9993706031456516,0.0,0.0,0.0,0.0
-0.0034866331575451924,-0.11589139504326332,0.7409492344874942,-0.0001520680225312411,-0.5224991135043905,-0.0002801325344998367,0.8526397684768202,-0.009756884213006935,-0.8182030039361747,0.8716917882651352,-0.004541397346709224,-0.8030506334619648,0.8488167871283093,-0.002066873959751791,0.6435843726132393,0.9906679258155616,-0.020899076766953358,0.6325505977543335,1.000890829617767,0.0,0.0,0.0,0.0
-0.0032609770398646463,-0.11625122704200269,0.7409138346288539,-0.00021413234326254007,-0.5226222610383088,-0.0002628317743925046,0.8525642834027259,-0.008851840656971696,-0.8180481570884656,0.8721136023015058,-0.0036392491002024954,-0.8043914787355182,0.8517563869921536,0.000781916189568457,0.6441352336335177,0.989779481739569,-0.01812700466146709,0.6336115387110467,1.0025649798182554,0.0,0.0,0.0,0.0
-0.0031767149802357053,-0.11668536725374151,0.7408934091947642,-0.00031593364555021426,-0.5226599282933105,-0.00023795828173534493,0.8525411678729767,-0.007751249369276676,-0.8175054496529066,0.8713601811807207,-0.002542376982766089,-0.8055426693352917,0.8539189537761296,0.004415301654512391,0.6440216688721605,0.9884098317595147,-0.014521569028332949,0.6342326471467148,1.0043173041450077,0.0,0.0,0.0,0.0
-0.003195355910790185,-0.11713601244554886,0.7410031803036706,-0.00025970906604417876,-0.5230390022692868,-0.0005450662568248756,0.8523085342521953,-0.005785311412353554,-0.81316978307979,0.8667586704516083,-0.0005899342566905385,-0.8043995707236089,0.8533984212291199,0.005167522807963249,0.6461290503965625,0.9869676183943189,-0.01380723291136116,0.6350428981062555,1.0053645051232325,0.0,0.0,0.0,0.0
-0.003002959712931597,-0.11768721280424387,0.7409775796745056,-0.0003957357779485211,-0.5230682429965936,-0.0005565499844435238,0.8522905295811783,-0.004271402573380009,-0.8129971020322225,0.8667511575345861,-0.012910939194674011,-0.8197008033324935,0.8498536968770666,0.009559503497005083,0.6462762210668944,0.9851564147137956,-0.00942461962512017,0.6359477201247267,1.007433055190322,0.0,0.0,0.0,0.0
-0.0026322489886962024,-0.11836336306438093,0.7409723344661676,-0.00038981624536887406,-0.5232681116568403,-0.0008137380003763683,0.8521676297518266,-0.0018542281548913075,-0.8118180408683885,0.8666426298036533,-0.029991983166434047,-0.8408806512065722,0.8414798239124428,0.012420983568676339,0.6482185208819853,0.9832098734450866,-0.006586824393216079,0.6371753940750742,1.0096628275887358,0.0,0.0,0.0,0.0
-0.0021281792224558463,-0.11918876556074989,0.7409772069497833,-0.0002767927903648218,-0.523542173170962,-0.0012220656960640263,0.8519988397014471,0.0012863223057526592,-0.8101207238501211,0.8665712864413635,-0.047428185498538306,-0.8642584124699066,0.8307911788187773,0.014722243957226766,0.651247972705325,0.9808517720994095,-0.004332295501887106,0.6385990260156418,1.0121630475127652,0.0,0.0,0.0,0.0
-0.0015045420768137392,-0.120181829242842,0.7409694936166813,-7.869496595023258e-05,-0.5238101071873728,-0.0017215784091457944,0.851833317957942,0.005043973739355039,-0.8084466021219081,0.8668910081197374,-0.06345652740740378,-0.8878604082815842,0.8189381187331137,0.01707617701506376,0.6548375117316863,0.9779834040041275,-0.0020269841247490374,0.6400574124961063,1.0150988658336153,0.0,0.0,0.0,0.0
-0.0007365376648498727,-0.12136191633884999,0.7409229528584512,0.0002173998436627781,-0.5240411458644093,-0.0023027908156548543,0.8516898069913037,0.009434749398098956,-0.807121470089134,0.8679580877351326,-0.07760661617307495,-0.9106146183844364,0.806469042707227,0.019589116963179932,0.6588486160436685,0.9746682087089211,0.00044715908957316825,0.641444812107196,1.0186786842158364,0.0,0.0,0.0,0.0
0.0003105801118254745,-0.12270407058986947,0.7408057539886969,0.0006689349940321459,-0.5242440008069013,-0.0029939027087472468,0.851562573561402,0.014440680212496032,-0.8068111045304204,0.8710856411615535,-0.09010801750610438,-0.9312229669506329,0.7935373457539098,0.02158365842782836,0.6637070104500667,0.9712137689023416,0.002386968911683973,0.6428806515859345,1.0229403583191343,0.0,0.0,0.0,0.0
0.0015749016301729352,-0.12428118949449134,0.7405937051701289,0.0012659247503648927,-0.5243662299442801,-0.003793494035389674,0.851483448888792,0.020260492231158132,-0.8073583598553886,0.875637877767267,-0.1010421318109475,-0.9484853784078721,0.7809597141015073,0.023598708414662405,0.668956622857228,0.9674884630770101,0.004363900322289915,0.6440126999435624,1.0282604056252427,0.0,0.0,0.0,0.0
0.002955554878006828,-0.12613588870796222,0.7402691371049329,0.0019714902025755763,-0.5243336696136616,-0.004683916388620134,0.8514977258120642,0.026993530127905334,-0.8086372498337694,0.8808578733137707,-0.11067405457542623,-0.9603012353589745,0.7701694929680133,0.026241719464866278,0.6739318101683793,0.9633790393306553,0.007042837739460775,0.6444207177442437,1.0348658622743723,0.0,0.0,0.0,0.0
0.004368086040372504,-0.12820293554875356,0.739907708509406,0.00273845968209838,-0.5241480733799208,-0.0056278297004149005,0.8516041483832437,0.03441361216154182,-0.8101831206973825,0.8860568979565883,-0.11924072199287475,-0.9640527453729001,0.7639779582957743,0.029595345263181114,0.6786363572591176,0.9584313978671015,0.010544766109970457,0.6443694108837537,1.0419658000453909,0.0,0.0,0.0,0.0
0.005767000544377511,-0.1304200980232943,0.7395775721037238,0.0035518606368128126,-0.5238725148772226,-0.006622041151507481,0.851763535855591,0.04236166915989219,-0.8113134844343041,0.8905445281332729,-0.1268681132818109,-0.9580707788766938,0.7654379504145471,0.033346031673881366,0.683439256311759,0.9523897782637838,0.01456212438614119,0.6442077841479156,1.0489181103885725,0.0,0.0,0.0,0.0
0.007215222417753399,-0.1328405403147281,0.7392444199139205,0.004432693541083475,-0.5234434993322301,-0.007685592073578151,0.8520141934905069,0.051024469245143624,-0.8126046005818937,0.8950578669469453,-0.1338042819853407,-0.9437911186324122,0.7710106483531127,0.03757966702530416,0.6882787192190212,0.9451788679746572,0.019213072499503915,0.6437526470395802,1.055984488260811,0.0,0.0,0.0,0.0
0.00881699049834515,-0.1355049305925804,0.7388419940469859,0.005440062227825384,-0.5228655349630326,-0.008879914652509875,0.8523515619663892,0.060660570124453084,-0.8143869625082546,0.9002650219382006,-0.14050187805371986,-0.9235210717185833,0.7774062824122232,0.041813875549492556,0.6934069530926796,0.9372024387913467,0.024002355843622637,0.6428276064987993,1.0636813322729002,0.0,0.0,0.0,0.0
0.01069779937504169,-0.13824372909396582,0.7383757974381773,0.0066066456101243716,-0.5222411544960235,-0.010223272389478073,0.8527109788703868,0.07088677683966661,-0.8169324036143533,0.9072956334359858,-0.14805410503044775,-0.8987942902613951,0.7823507047240998,0.04462041487963974,0.6996514204109925,0.9291220010724568,0.027359918295264303,0.6419136414043871,1.0714323576198608,0.0,0.0,0.0,0.0
0.012717314399865832,-0.14074332284214605,0.737683499005088,0.007859651149968054,-0.5216614963802602,-0.011622055760967363,0.853037183772195,0.0807092556174815,-0.8205702119003967,0.9159336499257787,-0.15793434891282201,-0.870778141101956,0.7838108318134666,0.04499021317034212,0.7057138221743556,0.9239443626151007,0.028099817477966686,0.6401973983209299,1.0800872439465563,0.0,0.0,0.0,0.0
0.014711229499769302,-0.1428088373960968,0.7368393228914285,0.009096519189190317,-0.5211204692223074,-0.01295625622972149,0.8533363025915823,0.08935214736500054,-0.8252762753941616,0.9257480487344089,-0.17090732487510016,-0.8399556756542632,0.7787627779017182,0.042939712286022336,0.7110172316555672,0.9218446810793257,0.026179556901117625,0.6377456036716479,1.0887187635702689,0.0,0.0,0.0,0.0
0.016436089473092462,-0.14421296646722,0.7359457050710372,0.010135881248194428,-0.5204627152510931,-0.01397040581300086,0.8537099353446709,0.09563945936179406,-0.8320075294132226,0.936932488401239,-0.18666821924942162,-0.8067002324061113,0.7615037138834023,0.039544575514317955,0.7140582224722848,0.9224969800695905,0.02277163771204342,0.6344760111231755,1.0960882101436642,0.0,0.0,0.0,0.0
0.017454228614398666,-0.1448188003447743,0.7352269112901315,0.010777954510343149,-0.5196362347486471,-0.014452627781595756,0.854197366410731,0.09865401765919729,-0.8396248909187516,0.946853382028894,-0.2026341344033858,-0.773472095467108,0.7257093903820263,0.03641522392256962,0.7136260970891598,0.9245756717341721,0.019634924752463284,0.6305079815605587,1.1006465329465882,0.0,0.0,0.0,0.0
0.017507799695813318,-0.14486866387837674,0.735203840963954,0.010842700656997935,-0.5196109631953936,-0.014445291928702371,0.8542120441147576,0.09878092840239276,-0.8396624367649637,0.9469069861349884,-0.2026319850022225,-0.7734005765540726,0.7257216639126861,0.03637749666291059,0.7136953858048428,0.9244571952164813,0.01964488079907888,0.6305049957808049,1.1008263402272518,0.0,0.0,0.0,0.0
0.017507799695813318,-0.14486866387837674,0.735203840963954,0.010842700656997935,-0.5196109631953936,-0.014445291928702371,0.8542120441147576,0.09878092840239276,-0.8396624367649637,0.9469069861349884,-0.2026319850022225,-0.7734005765540726,0.7257216639126861,0.03637749666291059,0.7136953858048428,0.9244571952164813,0.01964488079907888,0.6305049957808049,1.1008263402272518,0.0,0.0,0.0,0.0
0.017818594252142397,-0.14515118838955207,0.7351489014075157,0.010517064982880844,-0.519560664653472,-0.014094651619679977,0.8542525668001871,0.09887393966543863,-0.8419229652998427,0.9497763119530928,-0.2028770736822932,-0.7752801006822173,0.730016851076785,0.042889635112076274,0.7127661779124697,0.9228149074062258,0.02660716600908219,0.6330135386543192,1.1020183993673314,0.0,0.0,0.0,0.0
0.018222339904548197,-0.14553293419804356,0.7350522132210063,0.01038159300485648,-0.5196948624183341,-0.013925046331775968,0.8541753716815582,0.0995498683922557,-0.8427814154224227,0.9516220357785518,-0.2024720712639417,-0.7779509215187005,0.735673777449701,0.04772495302979804,0.7131077703972026,0.9216591026024462,0.03189682117860537,0.6354913615883561,1.1038600658954343,0.0,0.0,0.0,0.0
0.018693762822138256,-0.1460534089143969,0.7349188899189952,0.010393698117311773,-0.5199526668983012,-0.013917618082694877,0.8540184395735813,0.10090532714266351,-0.8424218555414132,0.9524280654851901,-0.20135610521516162,-0.7816220533313959,0.7428769998187251,0.051604322368732886,0.714384383975839,0.9206505967740445,0.03621498231226691,0.6378898647677624,1.10636119573488,0.0,0.0,0.0,0.0
0.01922852665418703,-0.14677614052558582,0.7347615120149332,0.010528485759224562,-0.52028534327836,-0.014058303376346141,0.8538118508568007,0.10309308691315475,-0.8409294351579597,0.9521570952350908,-0.19941011526606722,-0.7866624740050951,0.7521459473145105,0.055216718094653776,0.7164437122550066,0.9192796273117031,0.0403057904793938,0.640275226737449,1.1095221904850059,0.0,0.0,0.0,0.0
0.019847278310937643,-0.14777295870200388,0.7345905917269584,0.0107898695661299,-0.5206735907555405,-0.01436120992155007,0.85356683760211,0.10633803356997563,-0.838214206188776,0.9507166720573591,-0.19643130993342584,-0.7935495713954662,0.764221261625506,0.058942118762190625,0.7193921730786339,0.9170800622179156,0.044610564655951784,0.6427612877824618,1.1133710679161366,0.0,0.0,0.0,0.0
0.020603577070413222,-0.14912349708363518,0.7344162291509293,0.011207570057192182,-0.5211212568078626,-0.014868131783240373,0.8532795349319489,0.11093910310108825,-0.8340756084293548,0.9480567191220605,-0.19213688877686502,-0.8029132432943611,0.7801339627079998,0.06288631483980427,0.7236080680454482,0.913582937135459,0.04928234532390334,0.6455362108621964,1.1179229951050458,0.0,0.0,0.0,0.0
0.021537679881996386,-0.15086751468211812,0.7342691486736748,0.011795674588675498,-0.521622028354386,-0.015599747291536506,0.8529525013040845,0.11703730134181038,-0.8284053529594968,0.9442303428789738,-0.1863760701979465,-0.8149955113128614,0.8003502278595941,0.06710602627602046,0.7294494000404761,0.9082333354104478,0.05442751787407216,0.6488533389324345,1.1229139944513433,0.0,0.0,0.0,0.0
0.022631267133585868,-0.15292667992736161,0.7341878401320728,0.012515134022788543,-0.5221415037128366,-0.01652551927844914,0.8526069016454576,0.12436045399875954,-0.8214789972468077,0.9395564593638768,-0.17937478894267544,-0.8291281581292905,0.8238506346976879,0.07147592990309501,0.7368839066098809,0.9008303631443274,0.05993071407329807,0.6528039078445848,1.1277618952333608,0.0,0.0,0.0,0.0
0.02360221526163053,-0.15470408048009054,0.734036204912808,0.013134391057787,-0.522576102278376,-0.01729901045752957,0.852315932818501,0.13061262589086844,-0.8158351529765531,0.9357195733701251,-0.17336283598798888,-0.8412428140586375,0.8436601325703121,0.07555131259420955,0.7429101584791279,0.8949541782174962,0.06518567870141698,0.6561863463939462,1.1324724823251007,0.0,0.0,0.0,0.0
0.024447930211251342,-0.15610004267428926,0.7338463244451306,0.013635533402041012,-0.5229632989411289,-0.017912962044318036,0.8520578536579849,0.13553586066098117,-0.8116043503559865,0.9331163753770341,-0.16861479491484282,-0.8508952278332002,0.8593923193673295,0.07877251588394713,0.7477102191018997,0.8908910888405212,0.06944656477535742,0.6590751071497906,1.1366336464898514,0.0,0.0,0.0,0.0
0.025208979972611446,-0.15713344166774498,0.7336454135453868,0.01404154934523032,-0.5233427687941777,-0.0184018011551646,0.8518078157407779,0.1392571749956265,-0.8085760723771391,0.931809682571799,-0.16502957268832877,-0.8583715630312333,0.8717572785517966,0.0808869389985288,0.7517530481251038,0.8884264444513097,0.07233524993501769,0.6616539660594403,1.140090660306877,0.0,0.0,0.0,0.0
0.025912061060494485,-0.15786651089572948,0.7334515660084784,0.014380615512818232,-0.5237346329553508,-0.018803504552018204,0.8515525000592498,0.14201596447731843,-0.8064236347947127,0.9315724034743236,-0.16237903359104933,-0.8640906851770941,0.8815228831072036,0.08188152337414165,0.7553984410693965,0.8871932067624797,0.07379148851591381,0.6640289659150057,1.1428446825359693,0.0,0.0,0.0,0.0
0.02655793317272614,-0.15837773442083794,0.7332813907352755,0.014677091410877438,-0.5241394087546903,-0.01914726595959153,0.8512906938198449,0.14406726558786717,-0.8047621298838471,0.9319483764162692,-0.1604028164011148,-0.8684254209273429,0.8892769050589037,0.08192240416861919,0.7588480975171356,0.8867346523835645,0.07400886261629502,0.6662286366010585,1.144950840218036,0.0,0.0,0.0,0.0
0.027140850405866307,-0.15874090674924402,0.7331558242042299,0.014952736208176673,-0.5245487277639748,-0.019455229950031495,0.8510267574575288,0.14563516072833593,-0.8032340270823074,0.9324821931905797,-0.15886542263352793,-0.8716890427982842,0.8954965532024373,0.08119927533481433,0.7622641429586419,0.8865479425761632,0.07323450769102167,0.66827952865603,1.1464118632400995,0.0,0.0,0.0,0.0
0.027620237084687856,-0.15905544748950795,0.7331149043830861,0.015221812794001198,-0.5249246703238607,-0.01973696746578868,0.850783661700144,0.14697506926166046,-0.801380578360786,0.9324356441434976,-0.15748836414994122,-0.8741643085401648,0.900550553370096,0.08019289611440235,0.7656694773011821,0.8858133268889526,0.07209980141112048,0.6701785501629584,1.1471552962824638,0.0,0.0,0.0,0.0
0.027915891183359964,-0.15948435528656327,0.7332518414606662,0.0154884306278027,-0.5251740279738221,-0.019985839571949868,0.8506191363207409,0.1484602810547989,-0.798554057045911,0.9306698982352916,-0.15586714324071596,-0.8762456219549638,0.9049641143268944,0.07998415716729325,0.7690122618043813,0.8828543840397531,0.07200660900289133,0.6720165669992852,1.146833564077723,0.0,0.0,0.0,0.0
0.02795416585353888,-0.1603452968123379,0.7338545827365439,0.015751214891054646,-0.5251060799941335,-0.02018658231804076,0.8506515184709702,0.15081433938708239,-0.7936146912621067,0.9256432194907923,-0.15324275881292249,-0.8788155655646108,0.9104450248255546,0.08275563285410033,0.7729761203943137,0.8731742688311147,0.07577306606251852,0.6746825608832857,1.1437690113827594,0.0,0.0,0.0,0.0
0.02800439105207523,-0.16239302519076398,0.7362090025518222,0.016116455927412482,-0.5244438692008873,-0.020561566547990743,0.8510441292242341,0.1562341562864908,-0.7823030737024315,0.915385645672974,-0.14722427571020885,-0.8841061650318579,0.9242267932444268,0.09075288695232325,0.7854572686899995,0.8397271182016568,0.08649303343166778,0.6835451326250175,1.1283514131284298,0.0,0.0,0.0,0.0
0.02714614283586496,-0.16473088976226322,0.7401473387342341,0.015108460215307932,-0.5222492545410182,-0.01944035892127724,0.8524374012244448,0.15930915476651,-0.7750759236977448,0.906008821168623,-0.14389102436686013,-0.8839426433999766,0.9325669059440588,0.04940182897736034,0.7399293457593351,0.9250702397475052,0.12120128100341535,0.6986695734401689,1.100582979077394,0.0,0.0,0.0,0.0
0.026534821863975436,-0.1671807544801034,0.7442051735282449,0.01432524877721294,-0.5204075015492322,-0.018560072738020985,0.8535961242172532,0.16303135713681402,-0.7651673973816989,0.8950366537841518,-0.1396502902036308,-0.8836545679190295,0.9420579059489601,0.015372465517092565,0.70668102919619,0.988600064428336,0.15023969842202456,0.7145256940681078,1.0702323490053967,0.0,0.0,0.0,0.0
0.026181299861193243,-0.16955368242089297,0.7478385501876972,0.013848751141801088,-0.51892264680576,-0.017920588434738195,0.8545211239250143,0.16700708336026265,-0.7547018662275063,0.8839959785424042,-0.13509907773730176,-0.8843743791377521,0.9524377693264428,-0.006633665087127136,0.6827250788478153,1.0369294215102358,0.1732176738407943,0.729169797069007,1.0418253384751852,0.0,0.0,0.0,0.0
0.025955582597683165,-0.17170962594540676,0.7509635050863301,0.013560406998791318,-0.5176892227680614,-0.017432519264776628,0.855283632056589,0.17076399807408615,-0.7448534868354529,0.8735820529068279,-0.13078338291290229,-0.8855514156734401,0.9622595638502777,-0.02125334537153559,0.6650272934350495,1.0767519971202368,0.19155985133219666,0.7419802692907821,1.0164901489977698,0.0,0.0,0.0,0.0
0.025757448148516028,-0.17360507973321956,0.7536150854689023,0.013355325264327578,-0.5166124265468381,-0.017015974744361388,0.8559460804443063,0.1740689839427604,-0.7361711119759183,0.8640618981095713,-0.12697301518364593,-0.8867574876606883,0.9707450067951778,-0.03216233459720135,0.6512034153230879,1.1116916652174726,0.20665762407462018,0.7528189340294041,0.9943433016572255,0.0,0.0,0.0,0.0
0.02551515891418639,-0.17525333374662233,0.7558397053504626,0.013160640873712943,-0.5156148566420474,-0.016609395535199474,0.8565583722792915,0.1768564013169166,-0.7289071010866738,0.8554491221128698,-0.12375853247965636,-0.8878309068158262,0.977607363247395,-0.04148613631449255,0.6396564525241151,1.143137841981151,0.21967015273446133,0.7616337355449373,0.9753282536472689,0.0,0.0,0.0,0.0
0.02515256563935602,-0.17668664153954153,0.7576632880375206,0.012918831921569738,-0.5146305601170724,-0.016158622892136276,0.8571624054294497,0.17911452480093717,-0.723168153644373,0.8475020730590118,-0.12116376148887713,-0.8886713268018048,0.9825776379717421,-0.05058356450720364,0.6295132438359845,1.1706236745953,0.2315691497787487,0.7682461265391799,0.9595230632200613,0.0,0.0,0.0,0.0
0.024581402935703166,-0.17795040687266006,0.7590808179471271,0.012575030030012922,-0.5135907118359716,-0.015606401293715606,0.857801194668219,0.18085814232255337,-0.7190589312452078,0.8398214421802292,-0.11918594003362389,-0.8892572279962757,0.9853641822690279,-0.06065993625884989,0.6206888893461047,1.1916497515438673,0.24331444339464714,0.7722796827489938,0.9472705072279468,0.0,0.0,0.0,0.0
0.023711099942810912,-0.1791039011073436,0.7600617817275682,0.01207293831112386,-0.5124193329423761,-0.014890843454268799,0.8585213650041835,0.18213130710149475,-0.7167426481166554,0.8319678347387771,-0.11780127911426905,-0.8896883046958428,0.9857495364400098,-0.07314057181644823,0.6143399779190912,1.201122976797598,0.255908096804028,0.7732098153465714,0.9391292060569403,0.0,0.0,0.0,0.0
0.022500136378953088,-0.18020680350485235,0.7605949833554217,0.01137528140950022,-0.5110588703666384,-0.013971296157645377,0.8593568739913038,0.18301511360122136,-0.7163381416438914,0.8237131828313513,-0.11695152112193569,-0.890174874834978,0.9838533284358096,-0.08939512590481322,0.613688636121001,1.1913510073515712,0.27000277930278466,0.770735160293897,0.9353524077377312,0.0,0.0,0.0,0.0
0.02095695382567098,-0.18123917900572983,0.7607458182376502,0.010494295095755515,-0.5095342935769799,-0.012849179038487472,0.860290399828737,0.18341697704997967,-0.7175486901500395,0.8149245055895625,-0.11669834104296792,-0.8903727393797762,0.9794608215676558,-0.10844698542665156,0.6155160719459876,1.1702587723611684,0.28503781321240074,0.7651340097029105,0.9352299497045354,0.0,0.0,0.0,0.0
0.019131481444328892,-0.18218492277069517,0.7606106253178371,0.009442656870809123,-0.507861476180202,-0.011530897960500771,0.8613098139667925,0.1832718732064386,-0.7201868125231894,0.8058122362027001,-0.11709440783577982,-0.890069620594607,0.9727132799109025,-0.12976656167979814,0.6185331074845484,1.1433245642062526,0.3005042284519813,0.7569963879061593,0.9376203036873195,0.0,0.0,0.0,0.0
0.017079621782619642,-0.18303677665737358,0.7602732879490578,0.00821421339184918,-0.5060323116268574,-0.010005209617196156,0.8624173711541577,0.18252063959369455,-0.7243232374490102,0.7968374524391604,-0.11821280547024658,-0.8891943829662695,0.96390723019776,-0.15394111860337806,0.6225143194466828,1.1138446745425785,0.3162382449617533,0.7468990078977059,0.9414640257200645,0.0,0.0,0.0,0.0
0.014885655198072098,-0.18377990478572254,0.7597952833161297,0.006790872876250638,-0.5040328828190492,-0.008254688824695345,0.8636183168478448,0.1810958617578253,-0.7303618697445106,0.7889340765538843,-0.12016515650344188,-0.8878469377334373,0.953583481992465,-0.18309488349252204,0.6279728900549608,1.0839221482296417,0.3322269773317381,0.7354236607951008,0.9458749834345777,0.0,0.0,0.0,0.0
0.012735929227245356,-0.18438560232837084,0.7591962755719612,0.0051642149115549854,-0.5018520768472606,-0.006289633979563192,0.8649151775479729,0.17900359868901128,-0.7393499591038761,0.7842075470781318,-0.12305897485913128,-0.886744076353167,0.943243693186122,-0.22112043909249807,0.636416094405834,1.055219476643301,0.3483911744163212,0.723250473043187,0.9502725130162607,0.0,0.0,0.0,0.0
0.011025111622155838,-0.18475218400759735,0.7584826277539962,0.003411099393454266,-0.49955033649275177,-0.004238778410894623,0.8662677752684154,0.17636082921348348,-0.7529196395033085,0.7866257553002514,-0.12695826155370307,-0.8874118022517102,0.9359681900591026,-0.2715321548146999,0.6498201580891965,1.0293858530321,0.3636178323984525,0.7116282107564889,0.9540714627901752,0.0,0.0,0.0,0.0
0.00992470020434751,-0.18486573361486533,0.7576967612779483,0.0019696269381525916,-0.4974805875790052,-0.0025755756175956067,0.8674690495700755,0.17392553253914556,-0.7678828040938712,0.7940450142143534,-0.1308160067763387,-0.8902999384708977,0.9329112614321383,-0.32208065007507863,0.6642900035387926,1.008632323306817,0.3739042358708278,0.7012818600879844,0.9576229599217496,0.0,0.0,0.0,0.0
0.009940103960630957,-0.18489455120650128,0.75766686730003,0.0019152898729830935,-0.4974860443625322,-0.002544437259349953,0.8674661337298744,0.17390374422628335,-0.7679684402554401,0.7939620025637484,-0.1308359342230398,-0.8902587402262602,0.9329417116064626,-0.32211372822933193,0.6642893681851405,1.0086364730218946,0.37391778314304863,0.7012109752710882,0.9575647115217516,0.0,0.0,0.0,0.0
0.009940103960630957,-0.18489455120650128,0.75766686730003,0.0019152898729830935,-0.4974860443625322,-0.002544437259349953,0.8674661337298744,0.17390374422628335,-0.7679684402554401,0.7939620025637484,-0.1308359342230398,-0.8902587402262602,0.9329417116064626,-0.32211372822933193,0.6642893681851405,1.0086364730218946,0.37391778314304863,0.7012109752710882,0.9575647115217516,0.0,0.0,0.0,0.0
0.01016559323305892,-0.18485678108915793,0.7575358939990936,0.0016406697756511373,-0.4982169640268607,-0.0022691207235722224,0.8670478741394196,0.17307568594559725,-0.7666298769373381,0.7934628383689397,-0.1313995979930597,-0.8865012375945585,0.9303962192199822,-0.3219593038315793,0.6661858790538945,1.0115025236704698,0.38028783565145496,0.7046469520757872,0.9603460914076276,0.0,0.0,0.0,0.0
0.010376108815567652,-0.18459714071722136,0.7574030584238299,0.0013885346020825222,-0.4988062796706252,-0.0019944627955560167,0.8667100953900133,0.1717568709430713,-0.7668209521335942,0.794937862512641,-0.1325807885616059,-0.8828204040083939,0.9274136860830006,-0.32295509705212905,0.6676749185873274,1.0145203864476855,0.38482126551359047,0.7075254334170933,0.9624057190301775,0.0,0.0,0.0,0.0
0.010526414148568234,-0.18404948654271008,0.757309983989218,0.0011356104033833608,-0.4992631818631318,-0.0016967638131632223,0.8664479826380089,0.1696993722884502,-0.7684377191282248,0.798228416087755,-0.13458025273772603,-0.8785136456926879,0.9230711407671669,-0.3251901693030565,0.6687723696594982,1.0175219362225998,0.38698210644043635,0.7098788070606843,0.9632303517736721,0.0,0.0,0.0,0.0
0.01062909046637429,-0.18314156195583342,0.7572485220834758,0.0008469544172086625,-0.4996073844374393,-0.0013427724638430465,0.8662505070970558,0.16665480518635095,-0.7718358229731714,0.8038647833192794,-0.1376500769413753,-0.8731739938173906,0.9168981022495072,-0.32885370005801456,0.6694838099555968,1.0207829189006425,0.386673801268137,0.7118056078942981,0.9627788241266411,0.0,0.0,0.0,0.0
0.01071587567996853,-0.181789401477683,0.7572032929080597,0.0004903293222564541,-0.4998455813066833,-0.0009008610009162318,0.8661139318096648,0.16235910357964983,-0.7775766594334376,0.8126793908923092,-0.14207555141558253,-0.8665300383910328,0.9085924625076595,-0.33424193096610827,0.6698257037525028,1.0246053319185968,0.3837782805832698,0.7134148736954379,0.9609974857980598,0.0,0.0,0.0,0.0
0.010789495965920277,-0.1799453380199259,0.7571728848788344,5.6532230233366247e-05,-0.4999758233798052,-0.0003660352077466971,0.8660392825143785,0.1566737545654894,-0.7857965922539273,0.824850150965943,-0.14797529746821675,-0.8583606039686829,0.8978185093936892,-0.34161399566815465,0.6698142993677396,1.0290687829845588,0.3780317817569219,0.7147102315314817,0.9577507742721522,0.0,0.0,0.0,0.0
0.010861521420445545,-0.17759368881146603,0.7571580186474028,-0.00045153221409853885,-0.4999911787927773,0.00025318657848760637,0.8660303419307115,0.14956297320133416,-0.7964945763135767,0.8403722907783141,-0.15535591534662543,-0.8486273926857447,0.884491683302466,-0.3511622862799097,0.669516740433033,1.0341273962453639,0.36926797093403074,0.7157159190709923,0.9529049661257131,0.0,0.0,0.0,0.0
0.010974149375752687,-0.17482569975543408,0.757139420311561,-0.0010200043314145377,-0.4998984127521572,0.0009674832806034774,0.8660829062480909,0.14119803219285673,-0.8094404744664573,0.8588832623392316,-0.16402109291836928,-0.8377322934600371,0.8692702253681639,-0.3623850386376783,0.6689886691825832,1.0396681294355834,0.3583326150427342,0.716612354426458,0.9467546794928499,0.0,0.0,0.0,0.0
0.011099798630649605,-0.172435441915779,0.7571152863934051,-0.001538679943000219,-0.49981457828499015,0.0015821671647641268,0.8661296187897589,0.1339394487689046,-0.8204786712806313,0.8745630448562022,-0.1714325282355096,-0.828134934801451,0.8558345573503701,-0.3720407592514198,0.668632118112081,1.0443513525832095,0.34917927188649284,0.7175507761425837,0.9413104952114262,0.0,0.0,0.0,0.0
0.011214720522797473,-0.17053074361061066,0.757098721826528,-0.001979559696131574,-0.49977096951542277,0.002099432426647456,0.8661527877669792,0.12805088950052723,-0.8290874441643715,0.8867621151935811,-0.1773517565308588,-0.8200952947663794,0.8446845251118543,-0.3795394128684819,0.6684618405684495,1.0480008784881494,0.34240094859356357,0.7185834954337934,0.9368892251209365,0.0,0.0,0.0,0.0
0.011318728654894888,-0.16908036240299845,0.7570941874070926,-0.0023424810071680916,-0.4997694969763292,0.0025250692488474856,0.8661515956805982,0.12346895937442223,-0.8355121191114515,0.8959144309255863,-0.18189478602964573,-0.8136045941149398,0.8358531879075364,-0.3850467251966443,0.6684818335210996,1.0507096591805538,0.3377792755963628,0.7196963330702232,0.9334587038707961,0.0,0.0,0.0,0.0
0.011424778927747703,-0.16801385543577288,0.7571055155098402,-0.0026395658127712504,-0.4998066173123178,0.0028736815986943453,0.8661282352730499,0.12000726035893387,-0.8401839114112815,0.9027049857797546,-0.18528932870804884,-0.8085143602104837,0.8291862218555943,-0.38889184099147467,0.6687247189036306,1.0526015803452,0.3349919133231593,0.7209346476287708,0.9308428689957287,0.0,0.0,0.0,0.0
0.011533377499237362,-0.16724014380650268,0.7571412378967521,-0.002886151705375612,-0.4998755333362072,0.0031645557294774857,0.8660866624577537,0.11740242469279659,-0.8435049895061869,0.9077305739089991,-0.1878130014342737,-0.8044815780592948,0.8242117393452107,-0.3914532670646664,0.6691928270936162,1.0537779955177593,0.33359869355234345,0.7223319580857499,0.9287473431878356,0.0,0.0,0.0,0.0
0.011657340797113516,-0.1666915679638874,0.7572058581193225,-0.0031003895590169025,-0.49997830811751276,0.0034185254205779175,0.8660256304985902,0.11544393614498265,-0.8458070470879591,0.911507249068541,-0.1896838707813894,-0.8012331524205503,0.8206096922092185,-0.3929901484249373,0.6699357300044634,1.0543284268580684,0.33341949769454404,0.7239979753812777,0.9269711841067516,0.0,0.0,0.0,0.0
0.011851606608073316,-0.16635792704357655,0.7572894745943741,-0.003306932023731469,-0.50014140201661,0.0036633634315058183,0.8659296864975925,0.11405739903593728,-0.8473695559883397,0.9145649432852664,-0.1909986757509114,-0.79878493324396,0.8186499821689336,-0.3934965032116476,0.6711400120886141,1.0543767378172322,0.3349524770367317,0.7262449851654328,0.9256201064885532,0.0,0.0,0.0,0.0
0.01220174301080577,-0.16627851908545088,0.7573701293306034,-0.0035372787019610752,-0.5004221916052255,0.0039382833787582295,0.8657653306366779,0.11326891858892689,-0.8483637417606384,0.9173608494417829,-0.19175846573540062,-0.7973104737426331,0.8190029831049006,-0.3927158438315368,0.6731157357858918,1.0541001304421123,0.33936845588022535,0.7295910079139085,0.9250968309655851,0.0,0.0,0.0,0.0
0.012852513458684742,-0.16648449761566123,0.7574286470967531,-0.0038481085957113668,-0.5009128944818078,0.004313219044365883,0.8654783996978597,0.11302385438903254,-0.8491629684550049,0.9208358979121709,-0.19205560379671952,-0.7969178249920773,0.8225647825706831,-0.3903572973173961,0.6764539495720815,1.053679956048636,0.34849256251076527,0.7350110193020727,0.9257893316041795,0.0,0.0,0.0,0.0
0.014113899728826016,-0.1670855268365894,0.7576851448939248,-0.0044548266376535865,-0.50201054710508,0.005046489041250255,0.864835301119955,0.11300570000741121,-0.8488567929861057,0.9256524229565618,-0.19203968075293307,-0.7956154328243042,0.8295995305909962,-0.3845257436656363,0.6839095972232038,1.051458398275626,0.3685804995603972,0.7469596592402401,0.9265023645913554,0.0,0.0,0.0,0.0
0.015601558558867789,-0.1680698804670174,0.7594960023413013,-0.006050114169777034,-0.5035648689335719,0.006811783265372402,0.8639093809556607,0.11164459802845998,-0.8446339251803597,0.929053566700642,-0.19255601724284835,-0.7850810274382762,0.8323950445360239,-0.3614139790443821,0.6966358052379457,1.034747975004103,0.29538712310961446,0.7117342082468829,0.9710584318997634,0.0,0.0,0.0,0.0
0.017599929009512724,-0.16940757690149075,0.7611189531087861,-0.007810740692815444,-0.5055548273558909,0.008758986557692295,0.8627146625747514,0.11094400024816524,-0.8404470196465457,0.9338691277405838,-0.19251745242367205,-0.7755604611688766,0.8390642445942441,-0.3351613941201366,0.7109710539976384,1.0187934375319874,0.22943199673739856,0.6867543447752396,1.008890197847711,0.0,0.0,0.0,0.0
0.01970705962923756,-0.17080759335743173,0.7624041678428515,-0.00932592990403379,-0.5075343429624025,0.010434145616462708,0.8615178734944515,0.11110796333356834,-0.8366731705736558,0.939002547793925,-0.19184648067065913,-0.7688050623904165,0.8483121433666608,-0.3108354377830944,0.7245975291311566,1.0049675776201437,0.18145472985383598,0.6705700611645531,1.0429027797820836,0.0,0.0,0.0,0.0
0.021735559962724055,-0.1721262428996181,0.7634301981073413,-0.010572668518430991,-0.5093496949214169,0.011808016258121145,0.8604136666254824,0.11177539233681952,-0.8334167839862701,0.9440628074747559,-0.19085957456712593,-0.7641486409290162,0.8584220684674777,-0.28925204093552626,0.7369198529857443,0.9929470830030297,0.14645114206554777,0.6597584637937912,1.0748689927690198,0.0,0.0,0.0,0.0
0.02359468718492873,-0.17335585283621188,0.7642628138847366,-0.011602225716985217,-0.5109743986092037,0.012940875933324523,0.859420203424642,0.11275046680224854,-0.8304544525090469,0.9485117730830541,-0.1896819660849773,-0.7608815103947235,0.8684045735783006,-0.26987273899144354,0.747743194026585,0.9824039874757136,0.11886031390786837,0.651861070139405,1.1053967667831732,0.0,0.0,0.0,0.0
0.02524750237215617,-0.174546806109625,0.7649028300921608,-0.01246481230905469,-0.5124304985231821,0.013894272991713823,0.8585258073089095,0.1139993014924737,-0.827582803075156,0.9518823049197686,-0.18830386826228435,-0.7586925442362689,0.8779370215899491,-0.25189321415976784,0.7568502584489726,0.9734683333434478,0.09518877297162562,0.6455034236039157,1.134207771265049,0.0,0.0,0.0,0.0
0.02666643136948531,-0.17575934318265493,0.7652830405529741,-0.013192024635228918,-0.5137525446419146,0.01470944483682741,0.8577108636321294,0.11556283836101255,-0.8246990098515669,0.9537348237734569,-0.18666431612576292,-0.7575724317855953,0.8869380737826273,-0.23467999850951102,0.763805864744277,0.9668642790025491,0.07383859972178769,0.6401178737544514,1.1599880204709825,0.0,0.0,0.0,0.0
0.027808725266279494,-0.17703713907665694,0.7652774310146332,-0.013796893755466319,-0.5149688139437603,0.015405065531445614,0.8569594216437725,0.11748769081000428,-0.8218345744546106,0.953637443248712,-0.18471140322711552,-0.757690021797919,0.8952895699989099,-0.2179626678763561,0.7678943384396437,0.9639121420075162,0.054599770128853475,0.6359221369105393,1.1799028619414598,0.0,0.0,0.0,0.0
0.02861734817482206,-0.17839232268220562,0.7647276981736185,-0.014278904000139765,-0.5160895668005868,0.01598071462223589,0.8562664822940929,0.11978172522976718,-0.8191845308549942,0.9512613911068101,-0.18244352405619105,-0.7593091964820535,0.9027718169179167,-0.20190894606129217,0.7682353705964717,0.9662877023605726,0.038309079812659096,0.6343964406783199,1.1888259126544536,0.0,0.0,0.0,0.0
0.0290828783546366,-0.17983443058502438,0.7635776647590334,-0.01464023382512476,-0.5171140855424337,0.016438250685214442,0.8556333735903294,0.12245505884634326,-0.8168619229867576,0.9465612635247739,-0.1798579048903823,-0.7626106897382772,0.909450783732445,-0.1865666455536215,0.7645662972978203,0.9745131505420586,0.025891705164623517,0.638939683864949,1.1791850085166173,0.0,0.0,0.0,0.0
0.029213631562315896,-0.18140476182629733,0.7617997567523044,-0.014912350607347084,-0.5180862120746411,0.016807013663355637,0.8550332291491561,0.12554438813565696,-0.8146922604673,0.9392502931268193,-0.1768947762424505,-0.7674773432008026,0.9152776678353327,-0.17131553842019606,0.7568584686346252,0.988663860178956,0.015868660906698917,0.6463624689418643,1.1582690189811804,0.0,0.0,0.0,0.0
0.029076785063856688,-0.18313282950345128,0.7594672901577683,-0.015140926689297627,-0.5190386979171879,0.01713160099269539,0.8544449020567954,0.12904427882368885,-0.8125374996892238,0.9294921646067628,-0.1735435280532398,-0.7736613682979423,0.9204722346776801,-0.15523887041510961,0.7456654563230914,1.0076323528375375,0.006512784641130965,0.6554273672086577,1.1307810956804623,0.0,0.0,0.0,0.0
0.028746117545287105,-0.18498117001512157,0.7566454044563306,-0.015383126318624762,-0.5199830027047558,0.01745844668671474,0.8538596131461531,0.1327911519706297,-0.810642656556134,0.9179585039970745,-0.16996865818760656,-0.7808205896849986,0.9250402082300082,-0.1378253960347745,0.7314913198509033,1.0304843376524346,-0.0036629493919261066,0.6662415227931774,1.0989074703741784,0.0,0.0,0.0,0.0
0.02832096994064106,-0.1868053676294866,0.7533921695921738,-0.0157241556654105,-0.5209006028712004,0.017852175934262488,0.8532857743285317,0.13633927418800618,-0.8099898465202161,0.9063595162132076,-0.16665412621441267,-0.7884701741751472,0.9287644193689061,-0.11911198225641864,0.7148151079979737,1.0565531660142067,-0.016333084530674093,0.6797657895743147,1.0628970395097428,0.0,0.0,0.0,0.0
0.0279055231769478,-0.18842065190729293,0.7498404206142687,-0.01627020682894095,-0.5217521389977161,0.018428996261703474,0.8527428439558069,0.1390205729402329,-0.8117975087890023,0.8968749833783031,-0.16430384084414157,-0.7957708052531592,0.9312017738140793,-0.09879538256739487,0.6962060689741307,1.084594005560114,-0.033369557792595525,0.6972267526025684,1.0212987094207981,0.0,0.0,0.0,0.0
0.027525196413487142,-0.18971290542515293,0.7463068598082864,-0.017107332803674484,-0.5224539225476843,0.01926881641357097,0.8522780946926318,0.14039706416651065,-0.8163497506137636,0.8906220870134381,-0.16331940806459755,-0.8016077334098864,0.9317479935336342,-0.07622289228901077,0.6765297356858089,1.1118092722665114,-0.05770449882550823,0.7197412165136733,0.9702889043016834,0.0,0.0,0.0,0.0
0.027272244764757102,-0.19052028320608444,0.7435826012701898,-0.018253432386248044,-0.522892668026061,0.020398646136168364,0.8519588987542295,0.14001044165957874,-0.8229094287037674,0.8889876542015818,-0.16402313457817908,-0.8040521763923916,0.9300966177750765,-0.05209263452771095,0.6589764870424649,1.1317735521229075,-0.08648697448984768,0.7483045495163335,0.9067346077291722,0.0,0.0,0.0,0.0
0.02730418793190893,-0.19051513217571706,0.7435072865873856,-0.018260712091963015,-0.5229325287451376,0.020391422750526758,0.8519344497391331,0.14000490295033138,-0.8229252505020833,0.8889295719596204,-0.16403508634150876,-0.8041112687608819,0.9300944706567517,-0.052054685508072907,0.658985646271813,1.131790940426576,-0.08649209440080255,0.7482820519959922,0.9067099697075676,0.0,0.0,0.0,0.0
0.02730418793190893,-0.19051513217571706,0.7435072865873856,-0.018260712091963015,-0.5229325287451376,0.020391422750526758,0.8519344497391331,0.14000490295033138,-0.8229252505020833,0.8889295719596204,-0.16403508634150876,-0.8041112687608819,0.9300944706567517,-0.052054685508072907,0.658985646271813,1.131790940426576,-0.08649209440080255,0.7482820519959922,0.9067099697075676,0.0,0.0,0.0,0.0
