zhuoxili-jackie/tripod-support-walk/examples/trajectory_tripod_lowstep_left_v0.05.csv
root_pos_x,root_pos_y,root_pos_z,root_rot_x,root_rot_y,root_rot_z,root_rot_w,FL_hip_joint,FL_thigh_joint,FL_calf_joint,FR_hip_joint,FR_thigh_joint,FR_calf_joint,RL_hip_joint,RL_thigh_joint,RL_calf_joint,RR_hip_joint,RR_thigh_joint,RR_calf_joint,FL_foot_joint,FR_foot_joint,RL_foot_joint,RR_foot_joint
0.0,0.0,0.72963,0.0,-0.5231245161092812,0.0,0.852256264656019,0.0,-0.81,0.872,0.0,-0.81,0.872,0.0,0.65,1.0,0.0,0.65,1.0,0.0,0.0,0.0,0.0
4.172194294922134e-06,-3.352177676120058e-05,0.7296327523229629,-1.2889637541180235e-06,-0.5231192461865112,-6.434178340664824e-05,0.8522594969419406,0.0002624636779909278,-0.8098762817190598,0.8718902402086439,0.0002624636779909282,-0.8102151770275007,0.8722500369415868,-0.00017350796762173043,0.6501536340842806,0.9999087780389059,-0.00017350796762173173,0.6498699516001014,1.0000119550806952,0.0,0.0,0.0,0.0
1.1885218903366556e-05,-7.56050749601821e-05,0.7296336431601834,1.029630249523156e-05,-0.5231177199204122,-0.00012512981448331632,0.852260426948116,0.0005283464156601299,-0.8097183616716569,0.8717461804761206,0.0005284019839270572,-0.810468285011267,0.8725677062911145,-0.0003469079792672709,0.6503247316819942,0.9998088497136041,-0.000346661997376618,0.649745122133082,1.0000756760104303,0.0,0.0,0.0,0.0
2.3404982973551637e-05,-0.00011948727483216434,0.7296321598300703,2.3869317642852245e-05,-0.5231184749237207,-0.0001859691778564686,0.8522599521502822,0.0007975951115302606,-0.8095666927570673,0.8716207120304422,0.0007977706417858743,-0.8107427287632992,0.8729242514651612,-0.0005209902172560745,0.6505038663175639,0.9997261447317766,-0.0005203251296579059,0.6496238701867342,1.0001680556415,0.0,0.0,0.0,0.0
3.9158779973942834e-05,-0.0001636452742341055,0.7296284034310724,3.671732540223634e-05,-0.5231207379376549,-0.0002480004858214451,0.8522585468548616,0.001071281192724535,-0.8094343383761589,0.8715320272177218,0.0010716362784507034,-0.8110388059004582,0.8733191260227222,-0.0006964204474214184,0.6506903246160821,0.9996635611244802,-0.0006951707763903324,0.6495063598867463,1.000280398443979,0.0,0.0,0.0,0.0
5.9315626956564326e-05,-0.00020780489731730143,0.7296223800852657,4.8065098385979344e-05,-0.5231239139159286,-0.0003117851695664086,0.8522565759024886,0.0013507734071415453,-0.8093269099574844,0.8714872435565246,0.0013513635748335629,-0.8113599047436605,0.8737556758491006,-0.0008738190710354111,0.6508834723651205,0.9996209948927383,-0.0008718099749875473,0.6493911772100529,1.00040992511215,0.0,0.0,0.0,0.0
8.310108113157672e-05,-0.0002517009494215553,0.7296141239269011,5.713094593135009e-05,-0.5231270565027037,-0.00037791155426106893,0.8522546196259244,0.0016375424531657953,-0.8092469479862302,0.8714857442053703,0.00163842030397929,-0.8117064475409401,0.8742296135235644,-0.0010538664566681,0.6510791527835037,0.9995981860493544,-0.0010509033823924371,0.6492732889371826,1.0005537126071913,0.0,0.0,0.0,0.0
0.00010756743424602837,-0.00029446120999146235,0.7296040548094884,6.216046633729726e-05,-0.5231282110592901,-0.0004473108236784031,0.8522538769891341,0.0019331054802924675,-0.8091927781120772,0.8715135950677878,0.0019343177989492764,-0.812069619377475,0.874716110825438,-0.001237422770077055,0.6512656908660178,0.9995934263558388,-0.0012332753036811295,0.6491407699417114,1.0007029476175908,0.0,0.0,0.0,0.0
0.00012550077664112176,-0.00033385101636076607,0.7295937176222693,5.923911940839907e-05,-0.5231233586653239,-0.0005216583276629576,0.8522568133972452,0.002238996375322678,-0.8091545411539173,0.8715317433509259,0.0022405730859349662,-0.8124211613749355,0.8751490733066009,-0.0014257174655003335,0.6514180724218495,0.9995992607085241,-0.0014200855917249496,0.6489698316568682,1.0008331418862222,0.0,0.0,0.0,0.0
0.00012213017599784542,-0.0003647941288693552,0.7295878389476078,3.9964393538575675e-05,-0.5231054625055535,-0.0006041453292897916,0.8522677446132285,0.0025566642829725427,-0.809102077014155,0.8714537932387112,0.0025585905017010604,-0.8126889869678265,0.8753814104405901,-0.0016206211421999903,0.6514947612878809,0.9995900870978864,-0.0016130590987228609,0.6487233822366607,1.0008810248053202,0.0,0.0,0.0,0.0
7.213980077946147e-05,-0.0003761307536979064,0.7296094335025478,-1.295831463394795e-05,-0.5231049947737197,-0.0006996066478126416,0.8522679595206,0.0028821807892621017,-0.808689678059935,0.8708744517953915,0.002884329130570138,-0.8124328452929163,0.8748754019098347,-0.0018205545829144982,0.6516037792133791,0.9994811311056981,-0.00181032785860121,0.6485259557802358,1.0006830027502338,0.0,0.0,0.0,0.0
0.00010177066257354018,-0.0002523636821094999,0.7296179647893352,5.692172481545841e-05,-0.5231160809513467,-0.0005307497762210678,0.8522612750293752,0.00448804115170499,-0.8094345197803983,0.8702323422194803,0.0020601886382600578,-0.8120768326312192,0.8746110293841604,-0.002023498610370235,0.6515027337731996,0.9996742475851466,-0.00201453754221313,0.6489407701420863,1.0003289098520787,0.0,0.0,0.0,0.0
0.0001660153165655471,-7.403521566115196e-05,0.7296220257672963,4.567432625978406e-05,-0.5231283872531234,-0.0003839562432810508,0.8522538007785037,0.00612093332180243,-0.8110014033690502,0.8698421606703783,0.0012119437905050816,-0.8116827768796845,0.8743765592493223,-0.002231157131232074,0.6514471512212936,1.0000721623915017,-0.002222445923912324,0.6494787559956936,0.999794956604402,0.0,0.0,0.0,0.0
0.00024764789452603667,0.00011628092060077475,0.7296220105169817,1.038297890545303e-05,-0.5231374166976882,-0.0002486695119136161,0.8522483096530828,0.007754433724495276,-0.8126755811932745,0.869213804043874,0.00038092147485319127,-0.8113617238520652,0.8742672540318069,-0.00244365370958961,0.6514142289888427,1.0005318596740533,-0.0024346570586023285,0.6500415853442084,0.9992275323141596,0.0,0.0,0.0,0.0
0.00033842332807127546,0.00030637515066253085,0.7296178674673025,-2.99713955483894e-05,-0.5231447099250949,-0.00011917393095545124,0.8522438602751433,0.009387604015493602,-0.8143052733379061,0.8684765260603913,-0.0004302520703415192,-0.8111118529159485,0.8742626505029688,-0.0026602547571626667,0.6513914645027341,1.0010205048426932,-0.002650615100704935,0.6506006769702902,0.998681112112048,0.0,0.0,0.0,0.0
0.0004330720161321429,0.0004933761633898844,0.7296104090979149,-7.014751029281104e-05,-0.5231509896114558,6.675155143333058e-06,0.8522400114423891,0.011021065394396515,-0.8158578874853755,0.8677069248732597,-0.0012237186685310581,-0.8109104108113169,0.8743213291800052,-0.0028804969030493312,0.6513701184361232,1.0015259590926813,-0.0028699346475184696,0.6511452033781887,0.9981654069688627,0.0,0.0,0.0,0.0
0.0005285484340301865,0.0006772126633524448,0.729600657628552,-0.00010912490679435516,-0.5231564350511932,0.00012985371569400236,0.8522366547469628,0.012655586006645264,-0.8173424275045893,0.8669296321075124,-0.002002681483639886,-0.8107373678624304,0.874410891894449,-0.0031040041277673736,0.6513455931634047,1.002041017437876,-0.003092275888417347,0.6516724952624704,0.9976752524393157,0.0,0.0,0.0,0.0
0.000623392892067218,0.0008585402786190019,0.7295894794939849,-0.00014699526272436795,-0.523161161009618,0.0002510252403451347,0.8522337208710942,0.014291939797192243,-0.8187804574961948,0.8661480747082141,-0.0027705706403440126,-0.8105789388511169,0.8745114021069349,-0.0033303982183514554,0.6513165410260194,1.0025609368743909,-0.0033172780954669216,0.6521841751167348,0.997202771895538,0.0,0.0,0.0,0.0
0.0007171877513754088,0.0010381336251351026,0.7295774756261217,-0.00018404518734588122,-0.5231653288917775,0.00037079507013282364,0.8522311114269082,0.015930891235530664,-0.8201933653419992,0.8653596520999141,-0.0035308198932792545,-0.8104269072284205,0.8746129299615585,-0.003559280805983331,0.6512834630897585,1.003082982118212,-0.0035445522110238146,0.6526838797717716,0.996741228051115,0.0,0.0,0.0,0.0
0.0008102011022828535,0.0012167532982594108,0.7295649884009032,-0.00022055282730846642,-0.5231691311657148,0.000489766968804246,0.8522287085519226,0.017573198385674282,-0.8215983457961219,0.8645609341398188,-0.004286827529745963,-0.8102773587293114,0.8747127789134209,-0.0037902366540909643,0.6512477499755344,1.0036061666939682,-0.0037736881880885116,0.6531761043486239,0.9962857137081823,0.0,0.0,0.0,0.0
0.0009031897165091784,0.0013951534523991684,0.7295521410538242,-0.0002567946852031741,-0.5231727586090147,0.0006085432645161209,0.8522263950271773,0.01921961997217978,-0.8230081930672803,0.863748496207058,-0.005041976620067297,-0.8101296736168985,0.8748135620107126,-0.004022839193230818,0.6512112001807074,1.0041310195239808,-0.004004261275046709,0.6536657320723611,0.9958328756724272,0.0,0.0,0.0,0.0
0.0009972933149927303,0.0015741250406827582,0.7295388694847079,-0.00029310577726234297,-0.5231763618020356,0.0007277110967244572,0.8522240779144582,0.020870923153416154,-0.8244311997171109,0.8629185537238512,-0.005799670873359315,-0.8099859119894876,0.8749220430050921,-0.004256655013586666,0.6511757291369903,1.0046594536612448,-0.004235835523409728,0.6541578097890148,0.9953804886935101,0.0,0.0,0.0,0.0
0.0010939482199004823,0.0017545444721272184,0.7295249312481991,-0.0003299490798090739,-0.5231799916227825,0.0008478252662529839,0.8522217250759968,0.022527890827987083,-0.8258682874725292,0.8620672734999669,-0.006563368559402816,-0.8098504761013695,0.8750482950658842,-0.004491248748569778,0.6511429675159592,1.005194802005408,-0.004467966638393683,0.654657218790969,0.9949271559772265,0.0,0.0,0.0,0.0
0.0011947524879863832,0.0019374113334129281,0.7295098916869754,-0.000367970575793064,-0.5231835060557004,0.000969392848095585,0.8522194223710384,0.024191328810008777,-0.8273051366579616,0.8611932573016072,-0.0073366033365967155,-0.8097298346405013,0.8752046538865025,-0.004726190334058543,0.6511135274527637,1.0057419990020813,-0.004700206783736505,0.6551679920448317,0.9944722295220763,0.0,0.0,0.0,0.0
0.0013012303746538466,0.002123846108677727,0.7294931030268679,-0.0004079956205940755,-0.5231864577462022,0.0010928717834640875,0.8522174426763511,0.02586207535904591,-0.8286981890542966,0.8603036098660533,-0.008122980563475813,-0.8096320190965227,0.875404001142016,-0.004961064066085586,0.65108591506508,1.006307740919297,-0.0049321121969749275,0.6556922153995222,0.9940159890846957,0.0,0.0,0.0,0.0
0.001414494753733089,0.0023149974485703146,0.7294737156367116,-0.00045088722222804637,-0.5231880284860367,0.0012187084710991237,0.8522162861030463,0.02754101891403356,-0.82995627127553,0.8594244000230649,-0.008926140326164865,-0.8095655788225851,0.8756572312067853,-0.005195472662939551,0.6510554754585924,1.0069002300296723,-0.0051632497906878025,0.6562288381217077,0.9935600465559552,0.0,0.0,0.0,0.0
0.001534928233608102,0.0025118084001338565,0.729450794680715,-0.0004971822863719576,-0.5231871650902752,0.001347445701312693,0.8522165965789784,0.029229133768227597,-0.8309258884789104,0.8586138118311645,-0.009749696219526335,-0.8095376926988359,0.8759704453709438,-0.00542902088952195,0.6510145068100082,1.0075278661449156,-0.005393191401051472,0.6567734840787715,0.9931077071536878,0.0,0.0,0.0,0.0
0.0016622142709912095,0.0027146870399583495,0.7294236366092525,-0.0005465631116072327,-0.523183139045899,0.0014798984444322721,0.8522188182547008,0.030927543544935446,-0.8313995754862246,0.8579693486766288,-0.010597214608296601,-0.8095513668159622,0.8763435660209968,-0.005661258185228899,0.6509555161547906,1.0081963316629594,-0.005621475877498963,0.6573213416495457,0.9926634264377913,0.0,0.0,0.0,0.0
0.0017962356309694943,0.002923498329829543,0.7293922311313616,-0.0005977942159466911,-0.5231765930205803,0.0016172281250129187,0.8522225529347631,0.03263759286553487,-0.831182416605209,0.8576028849938403,-0.011472409811706785,-0.8096024685818289,0.8767728400569339,-0.0058915859844812495,0.6508787823932494,1.0089056556451688,-0.005847525672727599,0.6578748924132453,0.992230005232049,0.0,0.0,0.0,0.0
0.001938661077266397,0.0031392446723713923,0.7293561983034603,-0.0006512610691107894,-0.523167666845777,0.0017602222533070115,0.8522277100891433,0.034360968896424426,-0.8302767741335977,0.8575158767828378,-0.0123798271779078,-0.8096956626062606,0.8772693724082923,-0.006119444683319408,0.6507859523232331,1.0096604068612058,-0.006070752070831703,0.6584397708543733,0.9918069207130396,0.0,0.0,0.0,0.0
0.002093099027964806,0.0033641143249559732,0.7293147733462689,-0.0007090424615320576,-0.5231560048264979,0.00190927993888129,0.8522345020725692,0.03609972338141031,-0.8288820433085465,0.8575997962608038,-0.013324907654724922,-0.8098449145800243,0.8778602335409202,-0.006344312133425365,0.6506804504308666,1.0104698031847705,-0.006290534851840933,0.6590252362547316,0.991390116701591,0.0,0.0,0.0,0.0
0.002263741152187426,0.0035998524251786776,0.7292678399534228,-0.000772431737910245,-0.5231426587612792,0.002065133647197904,0.8522422760907894,0.0378561857144297,-0.8272090355101538,0.8577601606068219,-0.014313396881119402,-0.8100584250971925,0.8785717678844717,-0.006565497971713036,0.6505744746858965,1.011337755822632,-0.006506094421836409,0.6596490244373293,0.9909735575263916,0.0,0.0,0.0,0.0
0.002454637000341648,0.003847807454097975,0.7292154610365035,-0.0008420367478780863,-0.5231290666977884,0.0022287810627210493,0.8522501411469467,0.039632920322896996,-0.8254126567561463,0.8579405532182979,-0.01535122303762404,-0.8103422520702654,0.8794285355032476,-0.006782210163785016,0.6504819170435027,1.0122658990298141,-0.006716560783331521,0.660330223197047,0.9905518673810452,0.0,0.0,0.0,0.0
0.0026697944035610193,0.004109322992786123,0.7291575872306392,-0.0009183905922878621,-0.5231165041150662,0.002401296423177428,0.8522573047247175,0.04143269137800638,-0.8235823321830118,0.8581143836450684,-0.01644459291720252,-0.8107033769623718,0.8804555370530548,-0.0069935947148441965,0.6504155910979831,1.0132563790830547,-0.0069209929990035265,0.661086990905243,0.9901203340157451,0.0,0.0,0.0,0.0
0.002913537953376102,0.004386066862001087,0.7290940125688035,-0.0010024542413451685,-0.5231059375621148,0.0025836892361007255,0.8522631622466655,0.04325845633912452,-0.8217545348153974,0.8582699735894863,-0.017600129010783158,-0.8111511500348467,0.881680692930088,-0.007198745776415911,0.6503875097976011,1.0143127293668106,-0.00711836648076398,0.6619372861053988,0.9896734600640507,0.0,0.0,0.0,0.0
0.0031907077548775915,0.004680261603092716,0.7290245183755222,-0.0010959658501443462,-0.5230980422801249,0.002776809280456871,0.8522672857453675,0.04511337918493807,-0.819927813881564,0.8583970224959298,-0.018824976314936445,-0.8116966950295744,0.8831350203827583,-0.007396708796872185,0.6504100946521988,1.015439158115382,-0.007307554184402598,0.6629004076023796,0.9892026110170828,0.0,0.0,0.0,0.0
0.0035064563299967684,0.00499488479401634,0.7289491912209157,-0.0012017471444040733,-0.5230932158165835,0.002981257606878415,0.8522694148410744,0.04700085385419966,-0.8180723006954994,0.8584752163980247,-0.020126861242225798,-0.8123497808676501,0.884848662621255,-0.0075864974258259875,0.6504970383386717,1.0166385210924362,-0.0074873192862331475,0.6639981451086258,0.9886925223285137,0.0,0.0,0.0,0.0
0.0038654738695366618,0.005333911108650852,0.728868955274073,-0.0013240789689818878,-0.5230914936660858,0.0031972670544679143,0.8522695075810524,0.04892453255688226,-0.8161324388989525,0.8584624777400612,-0.021514098028964587,-0.8131124366600805,0.8868411735009458,-0.007767139319476532,0.6506631944603856,1.0179088663797942,-0.007656329433105594,0.6652550137851334,0.9881160200338233,0.0,0.0,0.0,0.0
0.004270456477198877,0.0057026218933643414,0.72878638676167,-0.0014691861157701367,-0.5230923268759109,0.0034245382349947645,0.852267875490787,0.05088835602328974,-0.8140251540418152,0.8582786258336649,-0.022995520927995845,-0.8139683295529542,0.8891043044902278,-0.00793776091994831,0.6509231014873649,1.0192381829584929,-0.007813198835488281,0.6666972288496663,0.9874263748396825,0.0,0.0,0.0,0.0
0.004719560134995715,0.006107865757103005,0.7287068170419086,-0.0016456541614480937,-0.5230942361350702,0.003662079017999258,0.852265393596334,0.05289658105062663,-0.8116373033999058,0.8577789844846316,-0.02458026011312765,-0.8148670887023648,0.8915755578607707,-0.00809770847505329,0.6512874431791839,1.0205972700589476,-0.007956560722343645,0.6683495881975734,0.9865479998549568,0.0,0.0,0.0,0.0
0.005202471895327197,0.006557705752531926,0.7286393665763217,-0.001863918715093876,-0.5230945165953098,0.003908288627039825,0.8522636785613654,0.054953789244488294,-0.8088264999233751,0.8567121170306907,-0.026277108691390216,-0.8157043895412855,0.8941020854556185,-0.008246656150693055,0.6517553490208753,1.0219328705034305,-0.008085163245086922,0.6702274174774743,0.9853716455644468,0.0,0.0,0.0,0.0
0.005694529941211042,0.007058511359253609,0.7285960790045484,-0.00213188158335825,-0.5230897050367248,0.004162113935810487,0.8522648017917271,0.057064810489022476,-0.8054273533259216,0.854658225101671,-0.02809273188723539,-0.8163050539496555,0.8963998974809155,-0.008384496068354414,0.6522951277422732,1.0231730522744449,-0.00819795966790902,0.6723134097454195,0.9837801421450532,0.0,0.0,0.0,0.0
0.0061475080949474625,0.007603414200981877,0.7285814218557723,-0.002437563278962648,-0.5230789283507568,0.004427773041868659,0.8522692578208922,0.05923418571103047,-0.8012559847125301,0.8509431917660994,-0.030026321446147974,-0.8164403992680772,0.8980302834579029,-0.008510350049386944,0.6527821581311315,1.0242993307545096,-0.008294164187562835,0.6744786099261055,0.9818040611002031,0.0,0.0,0.0,0.0
0.00646988104617643,0.008133103034325174,0.7285380487907102,-0.002691520445903054,-0.5230689177440486,0.004729725934580213,0.8522730153538494,0.06146289304877052,-0.7960827496668583,0.8444210724223505,-0.03205089184143043,-0.8160401806955883,0.8984908221636844,-0.008619449245341549,0.6527214112129853,1.0257325136383142,-0.008374136880492452,0.6761404212630288,0.9802971387398969,0.0,0.0,0.0,0.0
0.006573218531236962,0.008504675969400811,0.7284225647195441,-0.002687388899645965,-0.5230735484731797,0.005116753153138275,0.8522679506268835,0.06371845178188935,-0.7891202724329542,0.8329697075369782,-0.034071038152080485,-0.8153370227925205,0.8977643986472267,-0.008702662277779086,0.651769047314181,1.027512307273993,-0.008442997900856404,0.6767321571896504,0.9803054385215476,0.0,0.0,0.0,0.0
0.0065849284529353415,0.0085287776836117,0.7284184013897642,-0.0026962470306501687,-0.5230656978118546,0.005133381622211672,0.8522726408947244,0.06385226784341384,-0.7890794137686672,0.8329791066557917,-0.034174131430042304,-0.8153427260704413,0.897787008216512,-0.008706156875958593,0.6517261515482091,1.0275797750847584,-0.008443498881881251,0.676773976438585,0.9802441953947545,0.0,0.0,0.0,0.0
0.0065849284529353415,0.0085287776836117,0.7284184013897642,-0.0026962470306501687,-0.5230656978118546,0.005133381622211672,0.8522726408947244,0.06385226784341384,-0.7890794137686672,0.8329791066557917,-0.034174131430042304,-0.8153427260704413,0.897787008216512,-0.008706156875958593,0.6517261515482091,1.0275797750847584,-0.008443498881881251,0.676773976438585,0.9802441953947545,0.0,0.0,0.0,0.0
0.006634469865830953,0.008624160159701778,0.7288201466250543,-0.0024666918488514414,-0.5229244884067169,0.004994390309268831,0.8523608102918241,0.06384474963728586,-0.7885771159110924,0.8336284648449511,-0.03418160995951226,-0.8155286438229193,0.8986854964826144,-0.011765702712758078,0.6541485689935636,1.0241694514473225,-0.005452893826243213,0.6709952172940917,0.9910237767562233,0.0,0.0,0.0,0.0
0.00674488158296831,0.008789817245585863,0.7293386096439319,-0.0023396476970850523,-0.52282338536935,0.004836884532842923,0.8524240953349462,0.06377901842511813,-0.7881499895356654,0.8350027395257854,-0.034241564937353024,-0.8151008881375443,0.899356573819434,-0.014775717663816855,0.6573512239809953,1.019936783129501,-0.0024682709110612094,0.6670499490414542,0.9990290550596478,0.0,0.0,0.0,0.0
0.006875754672318605,0.00899964499477867,0.7298536008134925,-0.002277074298926586,-0.5227500822249496,0.00467180700713911,0.8524701406417317,0.06366592020176,-0.7878986811867207,0.8367340829396951,-0.03434943463068507,-0.8144123868973755,0.89978986062822,-0.017740450122425665,0.6606345346418988,1.0158799966723504,0.00051039149388568,0.6645115931090828,1.005176279420382,0.0,0.0,0.0,0.0
0.0070065157855725545,0.009232838452430241,0.7303298386847146,-0.002247198903012692,-0.5226958363461787,0.0045076357677202705,0.8525043659613977,0.06351267778161371,-0.7877721248508269,0.8385629483648928,-0.03449836742551593,-0.8136131325950655,0.9000097126143154,-0.02066627302412085,0.6637583338158828,1.0122565441277656,0.0034869130099681738,0.6628660120946207,1.0102688806862987,0.0,0.0,0.0,0.0
0.007128130648753748,0.009477965901743055,0.730762566977936,-0.002232374684574021,-0.5226533697988305,0.00434845319838925,0.8525312677526707,0.06332472178287427,-0.7877242798949553,0.8403663850591767,-0.03468251998512047,-0.8127680194804131,0.900048329642021,-0.0235590991710912,0.6666592268476522,1.0090740125053497,0.0064650596502561705,0.6617451854054075,1.014773691339567,0.0,0.0,0.0,0.0
0.007228296143049206,0.009725136584654603,0.7311557424512143,-0.0022171410201153384,-0.5226180474353338,0.004197434104912981,0.8525537181477253,0.06310621529094904,-0.7876556186298961,0.8419702656830303,-0.03489513707787164,-0.8118760441191396,0.8998694306996738,-0.026424720912476392,0.6693122256086926,1.0062734083510763,0.009448665096275672,0.6608817581678774,1.0189363672888314,0.0,0.0,0.0,0.0
0.007307004042210394,0.009972005267998635,0.7315169346690493,-0.002197658166806585,-0.5225864429360849,0.004054608962294283,0.8525738326409947,0.06286053191456133,-0.7875513658929713,0.8433690533310824,-0.035132659861478,-0.810946660786554,0.8994989513503852,-0.0292682731280145,0.6717461837995862,1.0037760350538898,0.012441498547507516,0.6601340538617329,1.0229062149587806,0.0,0.0,0.0,0.0
0.00736950638073526,0.010219344725937957,0.7318542623916272,-0.002174962067776838,-0.5225567903950267,0.003918815901030575,0.8525927006689571,0.06259036246466773,-0.7874281119798032,0.8446220434078034,-0.03539307657508165,-0.8099900314701598,0.8989842869123501,-0.032094488363243974,0.6740116097691813,1.0015047110068265,0.015447342919751063,0.6594353968511277,1.026780538601644,0.0,0.0,0.0,0.0
0.007420809222013489,0.01046811014383278,0.7321742459255556,-0.002150427116114272,-0.5225282736222713,0.003788904403104154,0.8526108274775609,0.06229801617205196,-0.7873008775836763,0.8457830306871714,-0.035674670518793646,-0.8090131528328022,0.8983654846315895,-0.03490796692242712,0.6761534309235322,0.999398306650362,0.018470002257256805,0.6587566376995484,1.0306170282271407,0.0,0.0,0.0,0.0
0.0074646553859943066,0.01071894228287936,0.7324810591679308,-0.002124982293296936,-0.522500445797356,0.003663918021473632,0.8526284913703913,0.061985600892298126,-0.7871813337664422,0.8468912834065995,-0.03597581079477665,-0.8080229146409441,0.897672970256955,-0.03771325044964658,0.6782028963090013,0.9974173838721484,0.021513300780723006,0.6580885114393492,1.0344456085719425,0.0,0.0,0.0,0.0
0.007502998809531002,0.01097172574475629,0.7327764874068148,-0.00209841047320986,-0.522473170260052,0.0035432618620320176,0.8526457812757146,0.061655132106490436,-0.7870735268066468,0.8479637939741898,-0.03629473197069667,-0.8070260488902717,0.8969257452535827,-0.04051484604450414,0.6801757469509274,0.9955439752007068,0.02458108531751528,0.6574312902472849,1.0382754937131708,0.0,0.0,0.0,0.0
0.007537020983280741,0.011226218664437179,0.7330602072876444,-0.0020703195250837314,-0.5224464879527906,0.0034264471253503733,0.8526626768323776,0.061308490755673725,-0.7869824637277825,0.8490108029356527,-0.03662982706898102,-0.8060314564023324,0.8961379537643657,-0.043317205858579136,0.6820757929392623,0.9937800965448451,0.027677244930292978,0.6567906949406859,1.0421007323356457,0.0,0.0,0.0,0.0
0.007567830948796514,0.011482186589237178,0.7333298457183313,-0.0020403757224024045,-0.522420679201258,0.0033130437014933928,0.8526790102677793,0.06094747652130532,-0.7869180633600334,0.8500436587435042,-0.03697973314408046,-0.8050526026648755,0.8953245437576184,-0.04612471167020689,0.6838973419569223,0.9921472428043724,0.03080571144953465,0.6561792550177995,1.0458968117525804,0.0,0.0,0.0,0.0
0.007596183449275797,0.011739307050268176,0.7335805218601948,-0.0020081657986365867,-0.5223961323462132,0.0032027146698419516,0.8526945471847386,0.060573858990886575,-0.7868954819270912,0.8510727864419816,-0.03734329564064048,-0.80410877084565,0.8945005599697115,-0.048941719295078075,0.6856218101495092,0.9906904904968763,0.03397046401997962,0.6556184828692849,1.0496046997086144,0.0,0.0,0.0,0.0
0.00761984452661481,0.011996382781827596,0.7338040630362648,-0.0019719003424377383,-0.5223732666585446,0.003095514857441923,0.8527090357661796,0.06018930911918682,-0.7869201753157714,0.8520767468591057,-0.037719139300572184,-0.8032183415394957,0.8936618655148337,-0.05177269931198702,0.6872061831705242,0.9894859169827083,0.03717556102102397,0.6551378460512713,1.0530982863943157,0.0,0.0,0.0,0.0
0.00763431018133948,0.012252355073547631,0.7339888945930313,-0.0019299426634458092,-0.5223519568266574,0.00299145018966747,0.852722557310665,0.05979532595512498,-0.7870004723643528,0.8530203328595961,-0.038106078861302475,-0.8024017800967964,0.8927894274161103,-0.054622339973267604,0.6885824972593239,0.9886432516635205,0.040425147286717776,0.6547964807300244,1.0561361707157662,0.0,0.0,0.0,0.0
0.0076319903004821756,0.01250644810189606,0.7341210629978768,-0.0018809034015364432,-0.5223311172484615,0.0028903817173983825,0.8527357807960774,0.05939309949982551,-0.787142942187392,0.8538478880754596,-0.038503056720091924,-0.8016762471771571,0.8918413601578291,-0.05749571516038993,0.6896591626384115,0.9882968561873204,0.043723475970381016,0.6547207869808441,1.0582829972350942,0.0,0.0,0.0,0.0
0.007604825784510122,0.012758717617111033,0.7341894687091811,-0.0018243772442591822,-0.5223087520711878,0.002791816735888436,0.8527499310564747,0.05898332142347597,-0.7873516673751472,0.8545054139790227,-0.03890932001984136,-0.8010494493648347,0.890767202622798,-0.06039823457587745,0.6903541261571213,0.9885559110744199,0.047074918208264344,0.655172632849479,1.0588389534500355,0.0,0.0,0.0,0.0
0.007550885026588851,0.01300939272466718,0.7341952433651157,-0.0017601328352431947,-0.5222841799539196,0.002695314411759947,0.8527654264699559,0.05856631214884607,-0.7876169971027843,0.8549764003378535,-0.03932416947048298,-0.8005123074953776,0.8895498513646516,-0.06333464599936178,0.6906666512616012,0.9894118585632262,0.050483261698831564,0.6561428618472167,1.0577960158874478,0.0,0.0,0.0,0.0
0.007473921143168925,0.013258951915400125,0.7341519996944745,-0.0016882412714388478,-0.5222578117676622,0.002600431268406441,0.8527820153159194,0.058141985332155595,-0.7879138077847742,0.8552783204778179,-0.039746920877957614,-0.8000368931836335,0.8882015576340808,-0.06630914173269324,0.6906765293151518,0.9907361612648075,0.05395173657325368,0.6573528143206542,1.0558374627291796,0.0,0.0,0.0,0.0
0.0073758845453313895,0.013508970593084877,0.7340770530683909,-0.001610049177192713,-0.5222283731506102,0.00250616619437794,0.8528004767523997,0.057709657659384676,-0.7882098161678384,0.8554207226051588,-0.04017707436628651,-0.7995800067192596,0.8867143980264037,-0.06932652089487362,0.6904706909952503,0.9923678253250102,0.05748373208328543,0.658661613950185,1.053380653564572,0.0,0.0,0.0,0.0
0.007253302082420581,0.013761785852692832,0.7339868463167061,-0.0015275084053879464,-0.5221922215752727,0.002410986811618644,0.852823040018823,0.05726818715884792,-0.788463277846741,0.8553767137244236,-0.040614032979328696,-0.7990853310593984,0.8850376205783693,-0.07239239473825301,0.6901080908889472,0.9941579787911243,0.061082796898444716,0.6599985833142189,1.0506456514735047,0.0,0.0,0.0,0.0
0.007096755247399038,0.014020429743318071,0.7338966373665883,-0.001442929069267841,-0.522143103143977,0.002312791633397747,0.8528535330229569,0.056816074499155114,-0.7886220537254256,0.8550787909021228,-0.04105697274444799,-0.7984836452675589,0.8830747176773595,-0.07551319514391439,0.6896157987997542,0.9959728416763158,0.06475263532894718,0.6613260492505618,1.047732895164838,0.0,0.0,0.0,0.0
0.0068905923129782,0.014288725291017422,0.733821374008736,-0.0013589025768628632,-0.5220714711280963,0.0022087735464967713,0.852897797943782,0.05635157266492051,-0.7886231709456138,0.8544184897433931,-0.04150472597861551,-0.7976923177758454,0.8806823898802434,-0.07869621768300826,0.6889903998013864,0.9976847359514042,0.0684971075271076,0.6626233411039745,1.044672612523623,0.0,0.0,0.0,0.0
0.00661190596422475,0.01457140217752956,0.7337764357276256,-0.0012781178899174865,-0.521963235737521,0.002095207469654101,0.8529644524004125,0.05587286689000696,-0.7883918964900389,0.8532415166768645,-0.041955577853589436,-0.7966148557827941,0.8776653994549268,-0.08194987880946264,0.6881951667482155,0.9991637132406838,0.07232023698596948,0.6638770630610309,1.041448505646321,0.0,0.0,0.0,0.0
0.006227222052381212,0.014873200915803625,0.7337778415283465,-0.0012012998508776536,-0.5217977170643471,0.001967585088684953,0.8530661333999976,0.055378385870010274,-0.7878293741912933,0.8513167628460149,-0.0424066575643803,-0.7951399249039416,0.8737602093837982,-0.08528399919881016,0.6871463670108117,1.0002710133177304,0.07622623098365588,0.6650602033895413,1.0379962479073117,0.0,0.0,0.0,0.0
0.005686589449681242,0.015195242731308766,0.7338435116947604,-0.0011206409178743802,-0.5215473685426293,0.001821915683682373,0.853219647660222,0.05486709219958317,-0.7867583011072773,0.848246073347036,-0.042852253254799653,-0.7931250356346828,0.8685970715137569,-0.08870992979962833,0.6857036632347838,1.0008388698175028,0.08021953116459264,0.6660828150089277,1.034203189688221,0.0,0.0,0.0,0.0
0.004961345341556641,0.015550183227896763,0.7340000630810702,-0.0010449697692984468,-0.5211744935397342,0.001648842024909449,0.8534479109129975,0.054339032776015365,-0.785195331170382,0.8439642261842196,-0.04329175839437374,-0.790514910321843,0.8619830009194019,-0.09223959103479065,0.6838021034335412,1.0006079643500299,0.08430479608963422,0.6668383859978649,1.0299631743928002,0.0,0.0,0.0,0.0
0.004019208889631676,0.01594868158310229,0.7342766529323551,-0.0009767106970086882,-0.5206291073936857,0.001438719373823283,0.8537811831243599,0.05379672584190233,-0.7831826198690373,0.8384085203649576,-0.043723741098367026,-0.78731098777889,0.8537637711036347,-0.09588599668110898,0.6813521878185197,0.9992561864808522,0.08848701090039267,0.6670660941155971,1.0251105010828485,0.0,0.0,0.0,0.0
0.0028362269368955237,0.016399024943980902,0.7346983674316757,-0.0009113191632131508,-0.5198442880217766,0.0011817882963836897,0.8542597316302211,0.05324768352804731,-0.7808990217792604,0.8316771435201319,-0.044147828119319436,-0.783684590679431,0.8439847808388271,-0.09966240631044165,0.6782381354818259,0.9964273678180086,0.09277151223426114,0.6663081656407156,1.0194087187209557,0.0,0.0,0.0,0.0
0.0014191930416371965,0.01690178474638366,0.7352710531604264,-0.0008307721969947887,-0.5187355876229723,0.000871379628950956,0.8549338808636306,0.05270793544954986,-0.778816188624264,0.8242653881526156,-0.044567818989909004,-0.7801743041161221,0.8331915557931081,-0.10357860362190079,0.6743217570853484,0.9918186235395015,0.09716416593803054,0.663924797806476,1.0126418731757538,0.0,0.0,0.0,0.0
-8.118636389267491e-05,0.017462356541449724,0.7359455300952674,-0.0007332154710088287,-0.5171899445059785,0.0005014107568977711,0.8558701842477214,0.05221447258449999,-0.7785955665494438,0.818522048713288,-0.04501017297200359,-0.7784198818544454,0.8236745573173444,-0.10763361542127316,0.6695753811582046,0.9854201245322952,0.10167049595894052,0.659628782191792,1.0046949756602828,0.0,0.0,0.0,0.0
-0.0014406539275871873,0.017990640099582667,0.7365057460068843,-0.0004719072789429416,-0.5150217104151376,0.00010926294055945725,0.8571769964051742,0.05184720794547667,-0.7828756784380747,0.8177196503929911,-0.045509124228730595,-0.7819517164845075,0.8199801230298523,-0.11180960349724992,0.6632505882763193,0.9782338040932925,0.10630039544052232,0.6536146358385225,0.9950271556339408,0.0,0.0,0.0,0.0
-0.002420699307443184,0.01837769032420084,0.7367238188097696,9.867252075949615e-05,-0.5121940792062052,-0.0002475607651106678,0.8588696957068102,0.051665593228616455,-0.7934845248306457,0.8243357841411466,-0.04609386892874637,-0.793565558468189,0.8260511725734163,-0.11603246484908214,0.654954581249478,0.9716613051534514,0.1110436677598464,0.6449831252409092,0.9852044899307538,0.0,0.0,0.0,0.0
-0.0024273265160394564,0.018399535646601947,0.7366977323310192,0.00013085126094243758,-0.5121868177546285,-0.0002642573696101369,0.8588740168175871,0.05164309703108535,-0.7935285023845075,0.8243151041994777,-0.04612330014806558,-0.7936407355694047,0.8259681914048922,-0.11623156268161342,0.6549908171766777,0.9716421010764695,0.11133114631039703,0.6449547286171914,0.9851855253229561,0.0,0.0,0.0,0.0
-0.0024273265160394564,0.018399535646601947,0.7366977323310192,0.00013085126094243758,-0.5121868177546285,-0.0002642573696101369,0.8588740168175871,0.05164309703108535,-0.7935285023845075,0.8243151041994777,-0.04612330014806558,-0.7936407355694047,0.8259681914048922,-0.11623156268161342,0.6549908171766777,0.9716421010764695,0.11133114631039703,0.6449547286171914,0.9851855253229561,0.0,0.0,0.0,0.0
-0.0023964944950336893,0.018463288096694255,0.7368812279502825,0.00011334212689511897,-0.5134087293450494,-0.00016391878068462102,0.8581441818928199,0.051063792550181925,-0.7860690123989323,0.8174203583326387,-0.04640895480258478,-0.7854071721263948,0.818183365079268,-0.1171708534043693,0.6592581294778829,0.972758644059649,0.11291474364417721,0.649581004511529,0.9862324323342664,0.0,0.0,0.0,0.0
-0.002368911863690511,0.018542981411397933,0.7369841348617355,7.160430492576079e-05,-0.5142307770820977,-7.185391289371099e-05,0.8576518510511014,0.050542331179620724,-0.7813097590852466,0.8130507831755521,-0.04673947799730476,-0.779732630223647,0.8127079988890317,-0.11776747529648018,0.6619923503709367,0.9737836886239432,0.11413316712833081,0.6527368113999266,0.9869989362930234,0.0,0.0,0.0,0.0
-0.002381463813682859,0.01862187065499987,0.7370517515226979,3.140645516084598e-05,-0.5147543398949708,1.9298032422178082e-05,0.8573377212047265,0.05005943915769102,-0.7782470782665449,0.8101003266845297,-0.04709476703318158,-0.7757696054825922,0.8086645324504289,-0.11804108839617666,0.6635810821269645,0.9744938487000682,0.11501162557495108,0.654761577133297,0.9874170252519486,0.0,0.0,0.0,0.0
-0.002466502561598244,0.018698519285746926,0.7371171523202239,-5.018569389022492e-06,-0.5150488668108499,0.0001104637756029069,0.8571608090489365,0.04959899867860072,-0.7761763297019573,0.807759180665962,-0.04746355476410383,-0.7728253845043354,0.8052638273836817,-0.11801161931945023,0.6642763421776545,0.9747536327741285,0.1155738825460367,0.6558938888637639,0.9873824911883358,0.0,0.0,0.0,0.0
-0.0026527002648881887,0.018773842718542016,0.7372034685654074,-3.8969408147200416e-05,-0.5151553050377334,0.00020174459827228096,0.85709682619409,0.049149316514311606,-0.7746190792660812,0.8054389410267715,-0.047839320855716384,-0.7704099828470301,0.8019026033014974,-0.11768764441787592,0.6642170353138459,0.9744587588701293,0.11583135433835076,0.6562686070680231,0.986796556904726,0.0,0.0,0.0,0.0
-0.0029541554254941525,0.018850571278126727,0.7373276616715132,-7.45329730221382e-05,-0.515090316691357,0.0002925497981980398,0.8571358553404758,0.04870334583228403,-0.7733517922677997,0.8028724617767574,-0.04822042167942654,-0.7682703290238292,0.7982721414720528,-0.11707070505234526,0.6634915024542437,0.9734994267260622,0.11578784157222041,0.6559753225893183,0.9855381994211481,0.0,0.0,0.0,0.0
-0.0033512353715522197,0.018934714465578827,0.7375005419587248,-0.00012094684857257396,-0.5148423799316562,0.0003808340822720844,0.8572847625868372,0.048260877322406893,-0.7725485971168734,0.80036475945752,-0.04861260387030379,-0.7665200607064374,0.7945915931250124,-0.11616146392039822,0.662184623655232,0.9717402839632436,0.11544590980947259,0.6551058633318368,0.9834368757565092,0.0,0.0,0.0,0.0
-0.0037494983672655036,0.019039632548897435,0.7377032144206972,-0.00019912164098171117,-0.5143472841453187,0.00046102587295568354,0.8575818439647911,0.047836684596526645,-0.7732655483168468,0.7994716432867031,-0.049037563922376654,-0.7660878315772806,0.792237070236979,-0.1149672305857479,0.6603167928093319,0.9691700888602142,0.11481435303569666,0.6536990338621698,0.9803937657116552,0.0,0.0,0.0,0.0
-0.00377275499125282,0.01918436872398687,0.7378308776115614,-0.0003398897073904093,-0.5133854844118299,0.0005238337628009197,0.8581578843478667,0.047499385216282906,-0.779422237022387,0.8059923581571293,-0.04956744716880358,-0.7707315358032438,0.7967937326611214,-0.11354265404715369,0.6579103722147466,0.9660446197114064,0.11395062811445951,0.6518061778186273,0.9765329962176562,0.0,0.0,0.0,0.0
-0.003401037539312499,0.01939478522630238,0.7375757244030369,-0.000586768510202492,-0.511900989129578,0.0005547363317723824,0.8590440764585233,0.047275605853721925,-0.7925223077357465,0.8210330942690374,-0.050229315524034576,-0.7817344796396406,0.809075202509384,-0.11196494016172152,0.6533560270621954,0.965236806084606,0.11293001836029712,0.6478681426748801,0.9745123825721722,0.0,0.0,0.0,0.0
-0.0019337872826394333,0.019814925516325292,0.7372899893642867,3.144820081313738e-05,-0.5149923399512176,0.00017703013781649246,0.8571947605199826,0.04665797767183524,-0.7821089412509236,0.818574384026294,-0.05050214583061919,-0.7723681391270055,0.8059922287319022,-0.10697033147902181,0.66134236479235,0.9817466132156029,0.10872865774697867,0.6578195243889544,0.9820880947060585,0.0,0.0,0.0,0.0
-0.00016581922634636265,0.02029290142637931,0.7365722572851785,0.00041417786149843374,-0.5172881659571742,-0.000192477589936402,0.8558111618632578,0.046172271937342524,-0.7801628102995527,0.825508347956696,-0.050940507242610844,-0.7703584208169217,0.8110168458204704,-0.1021025414694277,0.6664336904338205,0.9955367716959748,0.10462326359327566,0.6649205894281579,0.9908111737392665,0.0,0.0,0.0,0.0
0.0016151019243137359,0.020771171615818318,0.7358181700025571,0.0006462284233514204,-0.5188733050904393,-0.0005214247119330054,0.854850749411626,0.045757104506180604,-0.7830234941511678,0.8372128418753542,-0.05147256264416244,-0.7725474051444107,0.8202480947211856,-0.09736758919883326,0.6695867446412765,1.005772239298141,0.10061851915150331,0.6703113441876428,0.997830981998203,0.0,0.0,0.0,0.0
0.003167215516287451,0.021232182604591667,0.7352031113493745,0.0007807340478147946,-0.5199830657291246,-0.0008078066716942386,0.8541758304106178,0.04535416440508074,-0.787164143172682,0.8491096678444721,-0.052032116382676186,-0.7756670724356445,0.8294242715755455,-0.09275645294307108,0.6708671304458995,1.013669257534399,0.09670523252976963,0.6745583479020183,1.0025757191342788,0.0,0.0,0.0,0.0
0.004435259589528573,0.021660908216370525,0.7347592526607887,0.0008680816491595601,-0.5207563818274411,-0.0010524467353555953,0.8537042401066729,0.04494637366768383,-0.7912344010502946,0.8596143896806271,-0.05259026385558906,-0.7786108834041383,0.8372549627416879,-0.08826230760893791,0.6709043260362332,1.0199525847131612,0.0928802120080717,0.6778940000743192,1.0053353536953875,0.0,0.0,0.0,0.0
0.005427477895518459,0.022053154173049202,0.7344689876657187,0.0009383759030458928,-0.5212907203405538,-0.0012603424487037827,0.8533777099704463,0.04452922604260117,-0.7947221982381907,0.8682684570811066,-0.05313368669660659,-0.7809942331140661,0.8434122990617664,-0.08387891902777454,0.6702617288724773,1.0251397412536831,0.08914088317950812,0.6804627441902913,1.0065782311473377,0.0,0.0,0.0,0.0
0.006177774425491754,0.022411630404180448,0.7343029342021078,0.0010060486812154103,-0.5216560148744526,-0.001438271450709353,0.8531541017814952,0.04410289589287402,-0.7974906409202932,0.8751028852484539,-0.05365724049885273,-0.7827266077270361,0.8479517994298871,-0.07960051943930369,0.6692901816939945,1.0295767964030438,0.08548426409946815,0.6823994136264168,1.0067143222368784,0.0,0.0,0.0,0.0
0.006726307022135647,0.02274248975981391,0.7342312765471211,0.0010754407434187675,-0.521901966380671,-0.001593246446261893,0.8530033074267401,0.04366914509177836,-0.7995697099666434,0.8803367260157083,-0.054160079446256185,-0.7838370311915928,0.8510603500561258,-0.07542174173020874,0.6681567793627806,1.0334795005864166,0.0819067453133828,0.6838213380207221,1.0060672100680603,0.0,0.0,0.0,0.0
0.0071089935261702914,0.023054523935245874,0.7342275531036838,0.0011429083466812607,-0.522064394758536,-0.0017323618351154856,0.8529035469549806,0.043229449901635915,-0.801048064489627,0.884224547908802,-0.054643400077856244,-0.7843752069482599,0.8529152069359497,-0.07133755854143867,0.6669077680584311,1.0369798137397945,0.07840403280871056,0.6848192464740728,1.004883871419576,0.0,0.0,0.0,0.0
0.007368386854335514,0.02335231153674231,0.7342721519123777,0.0012093159960545388,-0.5221701524542052,-0.0018602929345807773,0.8528384423505846,0.04278714814799801,-0.8020576525726363,0.8870913760141813,-0.055109344305696854,-0.7844681376318731,0.8538181925173038,-0.06734319885297749,0.6655693081739944,1.04018814166886,0.07497225860684083,0.6855112853112697,1.0033331958330347,0.0,0.0,0.0,0.0
0.007552524897826242,0.023635082468954485,0.734351417887291,0.0012822970992611292,-0.522239355877531,-0.0019789180306280228,0.8527956934519537,0.04234744314752629,-0.8027536320648653,0.8893062730624097,-0.05556040833511055,-0.7843116619040038,0.8541844033500501,-0.06343408712913272,0.6641869096336883,1.043207265381054,0.07160810030083699,0.6860386758318027,1.0015270665270688,0.0,0.0,0.0,0.0
0.007689480202393637,0.023906554637997107,0.7344522079148817,0.0013599970493063012,-0.5222863269186712,-0.002091307550434458,0.8527665387165224,0.041912569873700456,-0.8032447182558525,0.8911011598827291,-0.055998789435118074,-0.784000931558205,0.8542191188497474,-0.05960586374660791,0.6627705495950093,1.046091010024413,0.06830718406943122,0.6864688432490399,0.9995678988347201,0.0,0.0,0.0,0.0
0.007797189525895016,0.02417032503685873,0.7345614999243751,0.0014394176483864879,-0.5223203753572174,-0.0022000038965962563,0.852745280577022,0.041483919814553245,-0.8036189208111011,0.8926366917826984,-0.05642637508151554,-0.7836047938595526,0.8540511486906989,-0.05585433854236842,0.6613337306393999,1.0488516618359465,0.06506481533993012,0.6868232652470669,0.9975597370978854,0.0,0.0,0.0,0.0
0.007886699815289755,0.024429301337491313,0.7346661468323806,0.0015178494494563076,-0.5223476374819795,-0.0023069534328405542,0.8527281628490418,0.04106247702954607,-0.8039468842688898,0.8940207068461364,-0.05684465993902158,-0.7831768618887338,0.8537611046968815,-0.05217547948511868,0.6599014470052986,1.0514578782676438,0.061876215801945744,0.6870912981473759,0.9956126081832958,0.0,0.0,0.0,0.0
0.007963339614850483,0.024685768229302494,0.7347519416568975,0.0015930281998238682,-0.5223720052428653,-0.0024136404571930324,0.8527128031989702,0.040649008743684996,-0.804285270060663,0.895316168049693,-0.05725471729794296,-0.7827594135106012,0.8533894661412001,-0.04856540960964299,0.6585143107222375,1.053808450634913,0.05873661470374825,0.6872321876195215,0.9938512766550972,0.0,0.0,0.0,0.0
0.00802694879699631,0.02494146484627183,0.7348026487030971,0.0016631505859088253,-0.5223955314472244,-0.0025211833366334943,0.8526979455168657,0.040244185887182295,-0.8046787499624274,0.8965429097002517,-0.05765715181158985,-0.7823851761956626,0.8529376844623481,-0.0450204102344135,0.6572412314094264,1.0556817041533944,0.055641296176064205,0.6871725299673522,0.992424233721456,0.0,0.0,0.0,0.0
0.008072348603829032,0.025197511875127157,0.73480046289661,0.0017270600452476519,-0.5224185154584631,-0.0026303441185237296,0.8526834074025328,0.03984869462911538,-0.8051599599307493,0.8976805437185105,-0.05805202878342305,-0.7820782440512479,0.852372245767388,-0.041536925824564086,0.6562153510685347,1.0566562065082663,0.052585633423692546,0.6868103429335173,0.9914990484399447,0.0,0.0,0.0,0.0
0.008093194473521291,0.025454093705200635,0.7347312170306347,0.0017848238608950886,-0.5224400677928108,-0.0027414666187716374,0.8526697334426776,0.03946344464223674,-0.8057473373679482,0.8986931910062645,-0.058438820733548426,-0.7818559165781448,0.8516548323498944,-0.03811155939452993,0.6557042005401386,1.0560391467573969,0.04956512930329466,0.686053553728951,0.9912117227330687,0.0,0.0,0.0,0.0
0.008089922663076341,0.025711374511102468,0.7345941876298104,0.001836552585209348,-0.5224605135313648,-0.0028549823026677358,0.8526567233952922,0.03908926162104607,-0.8064431681060639,0.8995844499405361,-0.05881679755790682,-0.7817208144182961,0.8507883323245523,-0.034740378750453965,0.6557138511080742,1.0538362775572716,0.04657493158506394,0.6848989148616296,0.9915683717610543,0.0,0.0,0.0,0.0
0.008070020960411529,0.025969536711051535,0.7344018869563897,0.0018822803066927138,-0.5224814523119461,-0.00297143354335171,0.8526433953262901,0.038726915473017196,-0.8072353124058237,0.9004000641179517,-0.05918506494613639,-0.7816624519316356,0.8498193713216552,-0.031418890815146094,0.6559884745573541,1.0507510506701145,0.043609803206464494,0.6834323127658202,0.9924464576041445,0.0,0.0,0.0,0.0
0.008040607688104863,0.026227987714631914,0.7341698365802957,0.0019229952629025342,-0.5225036407787099,-0.003091056172663729,0.8526292821818573,0.038377475192369684,-0.808101849376728,0.901177756588147,-0.05954222989199922,-0.7816672338831057,0.8487961556693641,-0.02814271774658936,0.6564056251938054,1.0472163804788803,0.04066459140726477,0.6817505415289561,0.9936964358331855,0.0,0.0,0.0,0.0
0.008005205946603028,0.026485876273881496,0.7339108285273989,0.0019599402694194085,-0.5225268091802325,-0.0032139832397247077,0.8526145451690347,0.03804216159426428,-0.809016567088966,0.9019285077084694,-0.05988650795088887,-0.7817187409878971,0.8477422290462837,-0.024907590465790264,0.6569059954870493,1.0434681548996414,0.03773418684397358,0.6799233181037228,0.995196907555529,0.0,0.0,0.0,0.0
0.007964101479640452,0.02674238682347554,0.7336338309696792,0.001994269979198493,-0.5225500424779855,-0.0033403930929409836,0.852599740656476,0.03772232421206306,-0.8099531855586226,0.9026412901437063,-0.06021585208818197,-0.78179957526894,0.8466576649255605,-0.021709329557568255,0.6574566965489821,1.0396255820047506,0.03481349470218706,0.6779901893146911,0.9968642919336773,0.0,0.0,0.0,0.0
0.00791491345173251,0.02699711007805683,0.7333443492549654,0.0020265325992737666,-0.5225720799681342,-0.00347068252273751,0.852585637203811,0.03741934249904978,-0.8108868341378191,0.903288621103154,-0.06052805169871878,-0.7818895977930924,0.8455199095123919,-0.018543826074727692,0.6580360368513367,1.0357418110657421,0.03189738698073972,0.6759650635818326,0.9986480597624134,0.0,0.0,0.0,0.0
0.007853675250378424,0.027249768096375283,0.7330450028919707,0.0020571267510261916,-0.522591307892984,-0.0036053614162961565,0.8525732194441064,0.03713478118342461,-0.8117963613896663,0.9038344870770905,-0.06082076220070551,-0.7819710989905039,0.8442957880135312,-0.01540702704910335,0.6586300005495519,1.031833270102384,0.02898071292952279,0.6738421789227724,1.0005249086674775,0.0,0.0,0.0,0.0
0.007774204867647421,0.027500760082211185,0.7327358374465557,0.002085451744210048,-0.522605733895322,-0.003745290771475798,0.852563704709385,0.03687018236378044,-0.8126626579599254,0.904231127068965,-0.061091517206175644,-0.7820218158084915,0.8429306609104117,-0.012294923414800076,0.6592288738237102,1.0278902905475502,0.026058210992145125,0.6715960189485162,1.0024943693403026,0.0,0.0,0.0,0.0
0.00766815216901656,0.027751154518362357,0.7324144811486233,0.00210993043535121,-0.5226128066353459,-0.0038916970063237956,0.8525586532483824,0.03662712786144438,-0.8134692699572429,0.9044200257453149,-0.061337695938272756,-0.7820156323966132,0.8413494922214988,-0.009203542807596134,0.6598282335756607,1.0238781566868715,0.023124492613284482,0.6691818149563895,1.0045766631202464,0.0,0.0,0.0,0.0
0.007525155835649367,0.02800281344365008,0.7320764416014957,0.0021278264294932172,-0.5226094534886035,-0.004046250778510827,0.852559944715717,0.03640726308899018,-0.8142023729676454,0.90433329820939,-0.061556483348079644,-0.7819214244333971,0.8394565354879026,-0.006128946067828671,0.6604326053346549,1.0197301502608231,0.020174082400579003,0.6665377433051426,1.0068091251295297,0.0,0.0,0.0,0.0
0.007335220971906567,0.028257771337901,0.7317162312739836,0.0021362209563800046,-0.5225927862654332,-0.0042108453922227234,0.8525693432703522,0.03621264457697369,-0.8148520329174962,0.903907180461831,-0.0617447923340781,-0.7817107445991552,0.8371579410718014,-0.003067233605362391,0.6610694287587641,1.015340845055505,0.01720156881824449,0.6635992048894471,1.0092366015090732,0.0,0.0,0.0,0.0
0.007099837934318945,0.02851299275742316,0.7313296283980668,0.0021401073475015076,-0.5225615715738767,-0.004385340138489742,0.8525875864957517,0.03604786879962231,-0.815429429064971,0.9031470237197757,-0.06189928655808079,-0.7814269726680816,0.8345017212257249,-1.4535489797357602e-05,0.6618384452937084,1.0105718372883339,0.014202571186215665,0.6603445143159662,1.0118999420633483,0.0,0.0,0.0,0.0
0.006845953052111126,0.028753617964235322,0.7309154958646117,0.002162665216138782,-0.5225152546214954,-0.004564452863853245,0.8526149760220321,0.035922648602317774,-0.8160089772651106,0.9022269570486743,-0.06201729917088204,-0.7812948061113301,0.8318761515438058,0.003033209779192254,0.6629878606854346,1.005212326340589,0.011174689787658985,0.6568393571064228,1.0148269507974141,0.0,0.0,0.0,0.0
0.006591053707921598,0.028967829563670312,0.7304774270544631,0.002222065776777595,-0.5224563690276847,-0.004743973318095514,0.8526499279324713,0.03584406623753422,-0.8165991468632575,0.9012248564872123,-0.06209536336939549,-0.7814415773834861,0.829528079403856,0.006079855187682526,0.6647973059740069,0.9988389035270786,0.008115048396160724,0.6531529561429874,1.0180091013421775,0.0,0.0,0.0,0.0
0.006372358694310075,0.02913339533105884,0.7300408487550362,0.0023523718225852788,-0.5223910231991087,-0.004914659701532888,0.8526886485393216,0.035820724618885684,-0.8171750483543939,0.9003002680090607,-0.06213014448450296,-0.7820633942230801,0.8279338192776649,0.009129363145934826,0.6676989160487989,0.9907332275038663,0.005021888886894281,0.6495210645363101,1.021265634287406,0.0,0.0,0.0,0.0
0.0062558592100213925,0.029220148915944762,0.7296949772174629,0.0025981984106042593,-0.5223378625750439,-0.005063774035069586,0.8527196285286714,0.03586117386085817,-0.8175540898250757,0.8996950066565197,-0.06211497744016841,-0.7832758737142074,0.8277618987123014,0.012181378660860461,0.6720767096876913,0.9801849607372153,0.001895195300672333,0.6465945652638929,1.0238722502321007,0.0,0.0,0.0,0.0
0.006259398292604762,0.029230275839240514,0.7296903462996706,0.002607008326157568,-0.5223437493141208,-0.005073303363765673,0.852715939016642,0.03585591308725387,-0.8175453285002413,0.8997142656622706,-0.062119661733742705,-0.7832714250751023,0.8277423878377879,0.012368505493481148,0.6720801637528354,0.9801845845534686,0.001718879647862901,0.6465608029935261,1.0238641104838,0.0,0.0,0.0,0.0
0.006259398292604762,0.029230275839240514,0.7296903462996706,0.002607008326157568,-0.5223437493141208,-0.005073303363765673,0.852715939016642,0.03585591308725387,-0.8175453285002413,0.8997142656622706,-0.062119661733742705,-0.7832714250751023,0.8277423878377879,0.012368505493481148,0.6720801637528354,0.9801845845534686,0.001718879647862901,0.6465608029935261,1.0238641104838,0.0,0.0,0.0,0.0
0.006227744066992693,0.02960564334126704,0.7297829183016218,0.002654456900087772,-0.5226076247372277,-0.004640488893997194,0.8525565613423565,0.03365032098487304,-0.8171125062272134,0.8996463127840599,-0.05962335095600677,-0.7909937353426729,0.8421300272225698,0.012323219048515053,0.6722444919406202,0.9808254062585752,0.001617850992312856,0.648404709702633,1.022737416566915,0.0,0.0,0.0,0.0
0.005972329864591796,0.030171021990499782,0.7297995213976699,0.0023925706664190754,-0.5228012214562584,-0.004312212157193082,0.8524403576061856,0.031457716605828245,-0.8170019243252339,0.8990280769030989,-0.057170158225258096,-0.7968546881200169,0.8504912750017839,0.012237226655398888,0.6710711547032218,0.982974499265321,0.0014924956835298028,0.6491137242079112,1.0217171025062082,0.0,0.0,0.0,0.0
0.005557943171452381,0.03076416135886119,0.7297881236464173,0.0020567673409119624,-0.5229270688477563,-0.0040294856468252455,0.8523654225857717,0.029369495950097427,-0.816665158516079,0.8974236954972187,-0.05478923114818646,-0.8014870045445643,0.8551815680802809,0.012116337751331089,0.6691319215174834,0.985527421495645,0.0013535755160511238,0.6490114834670276,1.0208503837158946,0.0,0.0,0.0,0.0
0.005084131378058037,0.03131038204920838,0.7298178462928627,0.00175891882954709,-0.5230055102766094,-0.0037614104612876905,0.8523191856436156,0.027415747874778313,-0.8159490871226025,0.8951498440120387,-0.052479040634787026,-0.8051536222917699,0.8577713409657801,0.011968748572613493,0.6671720029648283,0.9875093969238555,0.0012058861745715928,0.6487361440659191,1.0197073676781092,0.0,0.0,0.0,0.0
0.004605938017866617,0.0317993589717718,0.7298794867995433,0.001516211362142124,-0.5230523698759321,-0.0035021553708886877,0.8522920006535522,0.025597801364035007,-0.815029446658737,0.8926135043860977,-0.05023442909045956,-0.808105857582776,0.8591516181321113,0.011801466905445276,0.6653570182433233,0.9889451049999052,0.0010491872865472322,0.6484493745329455,1.0183811571009422,0.0,0.0,0.0,0.0
0.004153761280249173,0.032237137098637764,0.7299566525829343,0.0013212845085337286,-0.52308027529941,-0.0032524610347417666,0.8522761883903353,0.023908360435267936,-0.8140701031015899,0.890108567875361,-0.048049739255871575,-0.8105631971679724,0.8598467371675265,0.011619520883655783,0.6637234749491355,0.9900033134835664,0.0008827161247500085,0.6482043772108941,1.0169950568206234,0.0,0.0,0.0,0.0
0.003742070605383894,0.03263230043260738,0.7300379176900659,0.0011629781636655968,-0.523097888290987,-0.003014004490465429,0.8522664856277246,0.022337670854174735,-0.8131722610126828,0.8878031468910793,-0.04591951575468682,-0.8127036446969819,0.8601599324943633,0.01142629273501834,0.6622720765043285,0.990824025941446,0.0007062873263459155,0.648019868240185,1.015628767090703,0.0,0.0,0.0,0.0
0.0033752699229586997,0.032992458430027724,0.7301169880421107,0.0010316566093793984,-0.5231106573112775,-0.002787971471389051,0.8522595866912136,0.020875578010262616,-0.8123832983863297,0.8857699459236273,-0.04383865329399765,-0.8146601214728371,0.8602638678446617,0.011224047052283444,0.6609905939031103,0.9914998377480354,0.0005202738242160384,0.6478992275476392,1.0143231654950813,0.0,0.0,0.0,0.0
0.00305193725472225,0.033323691020087164,0.7301910093154365,0.0009200285675951677,-0.5231217765790557,-0.00257487089486547,0.8522535599550652,0.01951225012906537,-0.8117153994203312,0.8840209795701234,-0.04180241259679744,-0.8165247535254728,0.8602557131702898,0.011014344129601866,0.6598614322144033,0.9920870277629015,0.0003253931006706678,0.6478379058988122,1.0130943537345802,0.0,0.0,0.0,0.0
0.002767786109576725,0.03363072100067581,0.7302590899467407,0.0008228498448317751,-0.5231329685237319,-0.0023746543969984,0.8522473708836982,0.018238444792120452,-0.8111615973046589,0.8825355821580432,-0.03980640078511328,-0.8183573813446798,0.8601886485293921,0.01079831628987996,0.6588653748164417,0.9926183378870458,0.00012252482256596366,0.6478276268984725,1.0119447329931233,0.0,0.0,0.0,0.0
0.002517600139121962,0.03391718423882592,0.7303213032911579,0.0007364791006231093,-0.5231450332456985,-0.002186868984507101,0.8522405466726727,0.017045606151398753,-0.8107070417536478,0.8812799030900879,-0.037846543309900685,-0.8201938103919397,0.8600895189373106,0.010576841782444555,0.6579838040430093,0.9931123818111681,-8.740832979640983e-05,0.6478590308803397,1.0108702735429558,0.0,0.0,0.0,0.0
0.0022963606570033162,0.0341858520899075,0.7303780696212251,0.0006585147894912033,-0.5231581837276192,-0.002010777986202876,0.8522329716274657,0.015925887179135522,-0.8103360157968772,0.8802188820322986,-0.03591905472719151,-0.8220499894750783,0.8599695172841342,0.010350647917518324,0.6571997655723999,0.9935798130826856,-0.0003035075355882458,0.6479230394114442,1.0098650028225749,0.0,0.0,0.0,0.0
0.002099742369652695,0.03443880288262079,0.7304297906828576,0.0005875197915265031,-0.5231722017509783,-0.001845448571298116,0.8522247922086629,0.014872125603625577,-0.810035693160539,0.8793222256380095,-0.03402041030463263,-0.8239192854176608,0.8598326389126277,0.010120364415049442,0.6564979174745229,0.9940272427270904,-0.0005249280390518761,0.648011023625485,1.0089236617622304,0.0,0.0,0.0,0.0
0.001924113770632655,0.03467758739974033,0.7304766556292962,0.0005227643185458432,-0.5231864673126333,-0.0016898268643909936,0.8522163995274689,0.013877777741796233,-0.8097974401411667,0.8785657571290888,-0.03214732095680083,-0.8257614399930594,0.8596854077869459,0.009886540469392349,0.6558635079117996,0.9944597537805029,-0.000750886591094998,0.6481139981866554,1.0080430305097108,0.0,0.0,0.0,0.0
0.0017661825486322096,0.03490345526653162,0.7305185982154557,0.00046388180836298264,-0.523199957695278,-0.001542833745924157,0.8522084303416386,0.012936807289012182,-0.8096161590480806,0.8779294093077864,-0.03029671773628324,-0.8274849182558595,0.8595502036869396,0.009649637358933275,0.655280917671042,0.9948824908299204,-0.0009806598655696238,0.6482214703254817,1.0072219128874584,0.0,0.0,0.0,0.0
0.0016225189447076343,0.03511769829989523,0.7305554448509516,0.000410345783534221,-0.523211392081745,-0.0014035133115857077,0.8522016785729799,0.012043538389412353,-0.8094879572135669,0.8773934879003041,-0.028465757613985745,-0.8289312733844415,0.859481779124112,0.00941001496045942,0.6547330775488671,0.9953013114499122,-0.0012135900207708896,0.6483213228814414,1.0064593576841852,0.0,0.0,0.0,0.0
0.001489396077705222,0.03532205123624801,0.7305873133064333,0.00036084870112886583,-0.5232197877052914,-0.0012712188018687049,0.8521967540096609,0.011192532145611892,-0.8094064214209442,0.8769356925754785,-0.02665186349175273,-0.8298829554969496,0.8595792154970736,0.00916794772821921,0.6542040927950414,0.9957218927209136,-0.0014491141019957793,0.6484029682455197,1.0057509212205826,0.0,0.0,0.0,0.0
0.0013635699650730235,0.03551869614653617,0.730615105316824,0.0003132748655250245,-0.5232255572069026,-0.0011456373222084328,0.8521934085989582,0.010378645309110658,-0.8093585838427937,0.8765319862452111,-0.02485276970907419,-0.8301341581070215,0.8599655451789971,0.008923725263109646,0.6536868071862962,0.9961468027094988,-0.0016868107537164811,0.6484648946863235,1.005085701132204,0.0,0.0,0.0,0.0
0.0012436801314213177,0.035708537889182615,0.7306391283485644,0.0002673160488056082,-0.5232286191720971,-0.0010260381677852464,0.852191696666348,0.009597711802629867,-0.8093407678141211,0.8761734936364669,-0.023066590768694894,-0.8296827475157094,0.8606390926937442,0.008677726320119443,0.653176542164641,0.9965767542195969,-0.0019262168290027097,0.648506076130192,1.0044597846396013,0.0,0.0,0.0,0.0
0.0011301446627986539,0.03589124560970474,0.7306591238771903,0.00022441336957493158,-0.5232283839235043,-0.0009112814942628779,0.8521919839223294,0.008846470118890011,-0.8093583106471385,0.8758658673580255,-0.02129178695960317,-0.8287305802891244,0.8614739354915742,0.008430427057505418,0.6526708241532545,0.9970106002843986,-0.00216682801432318,0.6485257484099018,1.0038759900977723,0.0,0.0,0.0,0.0
0.001023500217603894,0.036067033316941964,0.7306756902532692,0.00018507464053842533,-0.5232256323870857,-0.000800572803447082,0.8521937939481242,0.008121796736039934,-0.8094085359217765,0.8756101203002378,-0.019527064390121602,-0.8274917428318234,0.8623682399308492,0.008182325808022809,0.6521749779441481,0.9974441330835523,-0.002408264674764383,0.6485314535001149,1.003330077244765,0.0,0.0,0.0,0.0
0.0009233613264987965,0.0362367022386015,0.7306898208141418,0.00014885154183166978,-0.523221412914984,-0.0006934386942783695,0.8521964855907607,0.007420581756608804,-0.8094834848524793,0.8753992806349011,-0.017771306434523113,-0.8261220125424523,0.8632647478532198,0.007933834612992593,0.6516938707966001,0.9978731069883217,-0.0026501987733074813,0.6485309375433926,1.0028134661370138,0.0,0.0,0.0,0.0
0.0008283715329044452,0.036401303665528024,0.7307025251329642,0.00011487790884355198,-0.5232164890769692,-0.0005895554365936001,0.8521995921058769,0.006739778227334457,-0.8095727216203177,0.8752195696222645,-0.01602350470723985,-0.8247116098817571,0.8641397224645968,0.007685264849052577,0.651228718447921,0.9982943516349324,-0.0028923065547629924,0.6485285551594548,1.0023167656348317,0.0,0.0,0.0,0.0
0.0007365548010814266,0.03656188223764106,0.7307146771810973,8.226696059856471e-05,-0.5232112269013881,-0.0004886309699101804,0.8522028904646279,0.006076473670082463,-0.8096652626111726,0.8750533054481555,-0.014282722340062946,-0.8233018541537442,0.8649880613951283,0.007436852862016724,0.6507772742717551,0.9987056604513943,-0.0031342543364341734,0.6485251238306547,1.0018315060680023,0.0,0.0,0.0,0.0
0.0006456873325399753,0.03671936384168876,0.7307270038548939,5.028028130195038e-05,-0.5232056742155899,-0.0003903575015084696,0.8522063526878477,0.005427932494305993,-0.8097506401102773,0.8748815882142382,-0.012548078318943098,-0.821904676257205,0.8658126120520334,0.00718879121068822,0.6503351588027017,0.999105312023149,-0.0033757006286926692,0.6485190984140152,1.0013504703636908,0.0,0.0,0.0,0.0
0.0005535629408890872,0.03687454111671239,0.7307401314113426,1.8346839501489148e-05,-0.5231996821295207,-0.0002944077053604348,0.8522100712893886,0.004791607311152052,-0.8098193809081647,0.8746861612296364,-0.010818741471965314,-0.8205168223074654,0.8666187597537696,0.006941252822071602,0.6498971944855665,0.9994916059240629,-0.0036163025093183744,0.6485078819996571,1.0008673398401944,0.0,0.0,0.0,0.0
0.00045817366731952254,0.03702810241050643,0.7307546440666867,-1.3982928318331786e-05,-0.5231930103873721,-0.00020044856838782253,0.8522141946169686,0.004165131457728124,-0.8098632759519696,0.8744507410138808,-0.009093927798939206,-0.8191275536576001,0.8674130731604377,0.006694407612673997,0.6494584745527987,0.9998624897622717,-0.003855721715065984,0.6484889334287405,1.0003761190058653,0.0,0.0,0.0,0.0
0.0003578955660395075,0.037180665253512254,0.7307711399560843,-4.708862260516436e-05,-0.5231854139755627,-0.00010815593553840065,0.8522188736986375,0.0035463066107396736,-0.8098758165439461,0.8741625376729273,-0.00737289899648983,-0.8177218164258327,0.868204340284748,0.0064484366540469434,0.6490153810775301,1.0002151843598832,-0.004093630850579227,0.648460832904319,0.9998705251192875,0.0,0.0,0.0,0.0
0.0002517998438273922,0.0373327755453679,0.7307902906097553,-8.127905901443375e-05,-0.5231767370145918,-1.7213886502507754e-05,0.852224204622329,0.0029331020336692925,-0.809853099679786,0.8738148078950054,-0.0056549627825084586,-0.816282292366244,0.8690052100938974,0.006203551795564518,0.6485670314045033,1.0005455604858924,-0.004329722190575711,0.648424728508521,0.9993433727047893,0.0,0.0,0.0,0.0
0.0001402227735608026,0.037484786378092085,0.7308129196253701,-0.00011661007384386571,-0.5231670430310971,7.273710433347834e-05,0.8522301486086388,0.0023236988208811425,-0.809795332708033,0.8734111124294899,-0.003939478234960666,-0.8147948617293083,0.8698319985417905,0.005960031566409551,0.6481177562135154,1.0008467655862148,-0.004563720263985955,0.6483866429249416,0.9987860635255171,0.0,0.0,0.0,0.0
2.5707611588916043e-05,0.037636365895361124,0.7308400957455887,-0.0001521435688733595,-0.5231567869211472,0.00016230978655115623,0.852236426589599,0.0017166709979434727,-0.8097084818133247,0.8729709397282905,-0.002225877483840854,-0.8132633920100485,0.870698648826572,0.00571829022596975,0.6476811046695801,1.0011061763275895,-0.004795392840823925,0.6483607777630659,0.9981890396911135,0.0,0.0,0.0,0.0
-8.56900816432499e-05,0.037784900303674325,0.7308730872882083,-0.00018355194587428965,-0.5231470353269607,0.0002530397430392878,0.8522423843650252,0.001111606356317406,-0.8096033906741245,0.8725324432093129,-0.0005137745571253559,-0.8117421514481911,0.8716007057530801,0.005479015868798051,0.6472851484709222,1.0012995123233883,-0.005024542266027974,0.6483725146802227,0.9975472437784922,0.0,0.0,0.0,0.0
-0.0001829029839231194,0.037920582112090574,0.7309123225594799,-0.0001959358683605087,-0.5231404701666684,0.0003492545541927217,0.8522463775834949,0.0005116606896459595,-0.8094804496265651,0.8721344382957077,0.0011961012733818074,-0.8104103237599445,0.8725183223662942,0.005243496524221054,0.6469781202258468,1.0013838941507738,-0.005250993534105073,0.6484565477149057,0.9968878272398265,0.0,0.0,0.0,0.0
-0.0002458920731894912,0.03801118556661221,0.7309506305024314,-0.00014618753138465415,-0.5231466507395671,0.00045916357031399607,0.8522425415443627,-5.253125066962403e-05,-0.8092770769557656,0.871749339917426,0.002884629067815533,-0.8099067820075798,0.8738658971652981,0.005013881208063017,0.6468372722437232,1.001317090070654,-0.005475568997480047,0.6486326711929585,0.9963896807187507,0.0,0.0,0.0,0.0
-0.0002450338073388291,0.038009954457650735,0.7309502925675343,-0.0001446229132694228,-0.5231461340990428,0.0004588803353826791,0.8522428591019564,-4.951424182310946e-05,-0.8092790936979424,0.871752811980994,0.002991015594948081,-0.8099005943645238,0.8738653116999934,0.0050108473515630865,0.6468393684063997,1.0013143738157317,-0.005478546884611187,0.6486301370669464,0.9963941707414762,0.0,0.0,0.0,0.0
-0.0002450338073388291,0.038009954457650735,0.7309502925675343,-0.0001446229132694228,-0.5231461340990428,0.0004588803353826791,0.8522428591019564,-4.951424182310946e-05,-0.8092790936979424,0.871752811980994,0.002991015594948081,-0.8099005943645238,0.8738653116999934,0.0050108473515630865,0.6468393684063997,1.0013143738157317,-0.005478546884611187,0.6486301370669464,0.9963941707414762,0.0,0.0,0.0,0.0
-0.0002450338073388291,0.038009954457650735,0.7309502925675343,-0.0001446229132694228,-0.5231461340990428,0.0004588803353826791,0.8522428591019564,-4.951424182310946e-05,-0.8092790936979424,0.871752811980994,0.002991015594948081,-0.8099005943645238,0.8738653116999934,0.0050108473515630865,0.6468393684063997,1.0013143738157317,-0.005478546884611187,0.6486301370669464,0.9963941707414762,0.0,0.0,0.0,0.0
-0.0002401053342560106,0.03793755955269001,0.7309537209449809,-0.00014582061135032462,-0.5231420236630897,0.00031836703204468305,0.852245446134193,0.0005203633442571545,-0.8089483564905844,0.8714289812706488,0.0035607861147325575,-0.8103085078915983,0.8743233308452844,0.004618792418547803,0.6471716613974609,1.0011623470936446,-0.005868667476861167,0.6483384631440647,0.9964589440861918,0.0,0.0,0.0,0.0
-0.00023135361144510647,0.037847406554842,0.7309531933165324,-0.00011910157711143596,-0.523143290189935,0.00018673681898269894,0.852244711848319,0.001092254402269799,-0.8085426476084603,0.8710110257939128,0.004132892087901091,-0.8107896436162232,0.8748987495419439,0.004229502273278923,0.6475210887088028,1.0009894027238047,-0.0062561425553242156,0.6480416714879532,0.9966327249385666,0.0,0.0,0.0,0.0
-0.00021854764322582209,0.03775409033473953,0.7309488552697836,-8.793811894568713e-05,-0.5231463595326181,5.618804054135187e-05,0.8522428501416482,0.0016661132913136675,-0.8081458228281279,0.8706100596453433,0.004707310189347276,-0.8113055428635474,0.8755274913752401,0.003840834069930285,0.6478713217258224,1.000839848451919,-0.006642842067235286,0.6477406003344519,0.9968527809838444,0.0,0.0,0.0,0.0
-0.00020149626724367918,0.037660729112228356,0.7309409771470423,-5.7898362708001e-05,-0.5231499571344016,-7.564410327889607e-05,0.8522406428210421,0.002244254942209609,-0.8077788340071257,0.8702543700176527,0.005286324005250117,-0.8118512611722403,0.8761997317428412,0.003451186565763607,0.6482200597179021,1.0007204538234182,-0.00703020974394657,0.6474347864745859,0.9971016510828515,0.0,0.0,0.0,0.0
-0.00018011622924563023,0.03756757785573111,0.730929054558992,-3.009412145433822e-05,-0.5231533479724023,-0.00020977452010750782,0.8522385403126645,0.0028295965250873883,-0.807449139946102,0.8699518745402671,0.005872832597267015,-0.8124323725102945,0.8769194056749885,0.0030591729511500886,0.6485642312872414,1.0006359282196235,-0.007419529245737629,0.6471191466660426,0.9973805713440875,0.0,0.0,0.0,0.0
-0.00015486933571897684,0.03747471921134198,0.7309121465878777,-5.390827759171601e-06,-0.5231553187099292,-0.00034718053840097993,0.8522372861721818,0.003425228258216333,-0.8071647936097972,0.8697072721709409,0.006469921456079289,-0.8130565280162333,0.877689244325871,0.002663297084699412,0.6488959893658387,1.000593830946627,-0.007812092860552818,0.6467834616413455,0.9976948553228697,0.0,0.0,0.0,0.0
-0.00012759329652793928,0.03738363810708472,0.7308894091181509,1.3135647853105335e-05,-0.523153154969828,-0.0004895877668262709,0.8522385444090101,0.004034220737509363,-0.8069411421219806,0.8695282458425005,0.0070806462578025045,-0.8137270671841936,0.8784982712335929,0.002261602483072878,0.6491992167939441,1.0006040492873678,-0.008209321069171086,0.6464108709676177,0.9980418946912676,0.0,0.0,0.0,0.0
-0.0001027054161362154,0.03730020581751119,0.7308612573737368,1.553871500141579e-05,-0.5231408040815767,-0.0006409651755922681,0.8522460255272964,0.004659281592177935,-0.80681446163701,0.8694402904689059,0.007707629068342673,-0.8144318439188455,0.8793011815290678,0.001851039174602663,0.6494449815857495,1.0006763125099738,-0.008612926830287535,0.6459770916024608,0.9983869916494583,0.0,0.0,0.0,0.0
-8.846202144014548e-05,0.03724348168233882,0.7308323332334583,-2.8764516228419083e-05,-0.5231054926903506,-0.0008118706806527733,0.8522675539733905,0.005301568336617955,-0.8068836712896893,0.8695427567662442,0.008351687159121018,-0.8151114506339359,0.8799695784220803,0.0014261645052225163,0.6495878163857289,1.000819151398514,-0.009025156200309864,0.6454580173835596,0.9985986427948593,0.0,0.0,0.0,0.0
-9.592137547648122e-05,0.037273532647341116,0.7308238883219236,-0.00021237578120156,-0.5230523198143658,-0.0010293490399310979,0.8522999272990066,0.005944548580105255,-0.8072471080732296,0.870024375151206,0.008994872029203592,-0.8153596574472817,0.8799780740553076,0.0009863200887810677,0.6496695010690019,1.0010740834148002,-0.009442271895127046,0.6449804359442155,0.998288749589204,0.0,0.0,0.0,0.0
-1.8968310756791284e-05,0.037498310413865206,0.7308405977859306,-5.396489011926788e-05,-0.5231133505331371,-0.0006997568590001073,0.8522628291331988,0.009099083058607078,-0.8073932088332577,0.8686057951186009,0.007413739305221306,-0.8146171534486236,0.8795467327628316,0.0005656872536081803,0.6496557857589921,1.0014626049061595,-0.009878352610586177,0.64592210593315,0.9977133243164635,0.0,0.0,0.0,0.0
0.00010681182935272589,0.03783780669918375,0.7308513699793601,-6.0928448218459185e-05,-0.5231488481520106,-0.0004118106358648512,0.8522412272220518,0.012318061357789371,-0.808885376753745,0.8681922311985741,0.005766132010341802,-0.813830787492235,0.8791018633548888,0.00013486994027950023,0.649605705593181,1.0022097354357034,-0.0103195806427588,0.6470030742715552,0.9966909605508526,0.0,0.0,0.0,0.0
0.0002582911381901046,0.03820779671167035,0.7308534203293608,-0.00012444388373160332,-0.5231645574946363,-0.00014846517445183253,0.8522316634890147,0.015539052033948082,-0.8104259839336794,0.8673814870489274,0.004146968977540171,-0.8131945642846853,0.8788518079764875,-0.00030664344836962734,0.6495321658367731,1.0030873022923328,-0.010768492653613229,0.648077023652479,0.9955628202842092,0.0,0.0,0.0,0.0
0.00042771975088765296,0.038582253008521916,0.7308446996495439,-0.00020421692854622693,-0.5231706748986511,0.00010261799896514163,0.8522278995028749,0.01876001779993827,-0.8118501676768974,0.8663429514231291,0.002561240126217134,-0.812719722308481,0.8788140235185269,-0.000755762352410559,0.6494459565621332,1.0040480055938799,-0.01122377079171515,0.6491203310625828,0.9944692818991087,0.0,0.0,0.0,0.0
0.0006094268013645493,0.03895387301551762,0.7308264582336639,-0.00028745005492018,-0.5231723909874949,0.00034648538166426123,0.8522267577521689,0.02198244311884064,-0.8131545448543324,0.8652125643880909,0.001004733925137094,-0.8123715460715207,0.8789433094196452,-0.0012109057655120983,0.6493529739644842,1.0050686095984829,-0.01168443765483262,0.6501325473885414,0.9934425348912369,0.0,0.0,0.0,0.0
0.0007993779742425377,0.03932148769216506,0.7308009302208143,-0.0003706262858039984,-0.5231717933975434,0.0005854909965838949,0.8522269618063297,0.025208112381054186,-0.8143701934160689,0.8640444018053333,-0.0005286141377831371,-0.8121142538151251,0.8791917854350292,-0.001671205588976109,0.6492563793634328,1.0061310038642794,-0.012149713973307929,0.6511191124134963,0.9924759238869528,0.0,0.0,0.0,0.0
0.000995030421519209,0.03968581999183396,0.7307701736244697,-0.000453131104203704,-0.5231697863652927,0.0008211233417605014,0.8522279595643141,0.02843881683727559,-0.815531248664809,0.8628553862554282,-0.0020452537757766134,-0.8119197203720674,0.8795226003449166,-0.002135976962938173,0.6491585210985654,1.007221709992377,-0.012618869682762705,0.6520872883734306,0.9915537296885234,0.0,0.0,0.0,0.0
0.0011950238649367617,0.04004809028392656,0.7307357136701117,-0.0005351379321206302,-0.5231668536627017,0.0010546258452414823,0.8522294553818176,0.031676332449794106,-0.8166649907702302,0.8616493120038733,-0.0035516379216886267,-0.8117681264321437,0.8799110550502289,-0.00260453274239675,0.6490612514444186,1.008331968483606,-0.013091174262268255,0.6530445153772932,0.9906612962223961,0.0,0.0,0.0,0.0
0.0013989108212676968,0.040409612427864255,0.7306985307814633,-0.0006169889662774067,-0.5231633118294966,0.0012871830558772604,0.8522312547894433,0.034922433140211755,-0.8177906700614481,0.8604259027697975,-0.0050541547143607,-0.811646717588328,0.8803427932244363,-0.0030761357541306484,0.648966019637937,1.009457136986217,-0.013565884449500815,0.6539979306540825,0.9897873751581413,0.0,0.0,0.0,0.0
0.0016069749303711939,0.04077171836807217,0.7306591506537704,-0.0006990701840281674,-0.5231593890926525,0.001519965015509073,0.8522332160925389,0.03817891078762867,-0.8189213344391852,0.8591832915983822,-0.00655916350967373,-0.8115483903690567,0.8808118116334499,-0.003549993141436169,0.6488740348415024,1.0105958933151904,-0.014042240556788172,0.6549544319413416,0.9889239116957822,0.0,0.0,0.0,0.0
0.0018201104034259482,0.04113578396456962,0.7306177342451005,-0.0007818381850264729,-0.5231552361225272,0.001754128489018262,0.852235243744284,0.04144759626736914,-0.8200649482892314,0.857918412532858,-0.008073061426336771,-0.8114705841200212,0.8813188794049772,-0.0040252629236041506,0.6487863592415944,1.011749605555219,-0.014519463411383058,0.6559208219005664,0.9880652638255243,0.0,0.0,0.0,0.0
0.0020397133894294785,0.04150328279880623,0.7305741327917316,-0.0008658901570390357,-0.5231508882687073,0.001990804424499098,0.8522373114547626,0.04473037980362687,-0.8212221622124668,0.8566276909008954,-0.009602351485089006,-0.8114145159352002,0.8818702349471974,-0.0045010682337516235,0.6487037227960102,1.0129220110882184,-0.01499675115591388,0.6569037128278525,0.9872075233886838,0.0,0.0,0.0,0.0
0.0022675310182309486,0.04187583715324883,0.7305279037890692,-0.000952031783314883,-0.5231461795796891,0.002231082653610962,0.8522395148647193,0.04802923093811906,-0.8223787671857778,0.8553097140498042,-0.011153696981326011,-0.8113846140821765,0.8824761981334028,-0.004976521348592555,0.6486259038232668,1.0141191840359578,-0.015473276952971498,0.6579089855602139,0.98634813956476,0.0,0.0,0.0,0.0
0.0025054241271212996,0.042255230506394126,0.7304783041600391,-0.0010412888230459632,-0.5231406296914111,0.0024760089570379884,0.8522421408633262,0.05134622073691641,-0.8234919255146066,0.8539713944252263,-0.012733949466821926,-0.8113878939596522,0.8831493238791772,-0.00545075538598434,0.6485506996910899,1.0153496058641474,-0.015948188331768032,0.6589407767201979,0.9854859156634392,0.0,0.0,0.0,0.0
0.0027550456787792167,0.042643324003606625,0.7304243018395711,-0.0011347717021825397,-0.5231333797175336,0.002726623920427877,0.8522457068477912,0.05468355209250835,-0.8244720385659774,0.852638541804832,-0.014350141999905672,-0.811432949714488,0.8839019742748425,-0.005922947383776163,0.6484729175854648,1.0166239230741028,-0.016420606987279082,0.6600003571155313,0.9846213784345245,0.0,0.0,0.0,0.0
0.0030175518848050732,0.043041816733099814,0.730364684693993,-0.0012332932498179596,-0.5231233396542522,0.002984082885599128,0.8522508701937909,0.05804360756970707,-0.8251682860895144,0.8513692721668029,-0.016009460570340445,-0.8115282164518813,0.8847438231711361,-0.006392293142091764,0.6483845535130724,1.0179536929213573,-0.016889623610169095,0.6610860211874137,0.9837572598065889,0.0,0.0,0.0,0.0
0.0032936638980457784,0.04345189190035949,0.7302983790685927,-0.0013367900550878594,-0.5231097784289931,0.0032498621173255504,0.8522580660225731,0.061429023259464956,-0.8253769634758595,0.8502616218425526,-0.017719267643832512,-0.8116792564355342,0.8856807796107746,-0.006857876039813692,0.6482781936184858,1.0193484099741446,-0.017354275250241767,0.6621961391236842,0.9828980964302529,0.0,0.0,0.0,0.0
0.0035845675360241277,0.04387419773934017,0.7302249594705921,-0.0014442280201542742,-0.5230933904706323,0.0035258699759489693,0.8522668521609162,0.06484276484828538,-0.8249072595678494,0.8494286867974516,-0.01948736499344183,-0.8118855434129505,0.8867173586797242,-0.00731842399453499,0.6481548176969454,1.020812101628059,-0.01781348603290796,0.6633371928332635,0.9820470448051702,0.0,0.0,0.0,0.0
0.0038934279240449305,0.0443106696328947,0.730143701361381,-0.0015563603894320787,-0.5230743993918601,0.003813653487983808,0.8522770714329094,0.06828832375206643,-0.8237643194670915,0.8488731226088935,-0.021322744773358795,-0.8121549421664005,0.8878732416818382,-0.007772636266607678,0.6480177580265847,1.0223527942366673,-0.01826609530165519,0.6645201437183971,0.9812024489372898,0.0,0.0,0.0,0.0
0.004225589494175734,0.044764624973283505,0.7300535907734964,-0.0016758696206985817,-0.5230525840172621,0.0041143707918836325,0.8522888347073815,0.0717697646323295,-0.8221484026420228,0.848487246842615,-0.023235720956061846,-0.8125038989631154,0.8891841952041918,-0.008219177895476572,0.6478734455781133,1.0239824495272027,-0.018710817154724366,0.6657613010088707,0.9803571382650517,0.0,0.0,0.0,0.0
0.0045873739139068465,0.04523905748096912,0.7299542952141874,-0.0018047535032824971,-0.5230292331515211,0.004429577533743532,0.8523013217029507,0.07529159374745598,-0.8202699460433304,0.8481771425161215,-0.025237358504157655,-0.812943498625555,0.890687343349569,-0.008656307053187005,0.64773862949387,1.0257073452432632,-0.019146176150437202,0.6670873812767908,0.9795008766985811,0.0,0.0,0.0,0.0
0.004985419736701054,0.045736765581405436,0.7298457388329075,-0.001944546462618032,-0.5230061402233273,0.004761109633969663,0.8523133976788146,0.07885873614410438,-0.8182818035336471,0.8478856659836711,-0.027339359477894,-0.8134828207410724,0.8924200710030659,-0.009082061659262205,0.6476337512139598,1.0275309412180822,-0.01957054441314115,0.6685289313355096,0.9786222208093879,0.0,0.0,0.0,0.0
0.0054267884566933456,0.04626089125353049,0.7297279615866662,-0.0020971559816874053,-0.5229850506306677,0.0051108221775017035,0.8523239514705054,0.08247651675602015,-0.8162677645971944,0.847582220571807,-0.029554202548815293,-0.8141308218602018,0.8944210348177414,-0.00949436774904521,0.6475808863893835,1.0294557145647936,-0.019982123048235236,0.6701189621452734,0.9777064638561558,0.0,0.0,0.0,0.0
0.00591927050123347,0.04681546161262944,0.7296013288506737,-0.002265691166608662,-0.5229675032141161,0.0054803514277582815,0.8523319910538143,0.08615066991664065,-0.8142516956657684,0.847244871453396,-0.03189534321458197,-0.814895670788935,0.8967302662371749,-0.009891090942497653,0.6476049941418209,1.0314823853778288,-0.020378892261233836,0.671894973491264,0.9767309114322423,0.0,0.0,0.0,0.0
0.006471438089184917,0.04740594244502136,0.7294670725783718,-0.0024553063232053336,-0.5229547955943131,0.005870872339150766,0.8523366624132431,0.08988736923587848,-0.8122076567117956,0.8468420087708612,-0.034377386565034466,-0.8157808499936414,0.8993853845431934,-0.010270110357202706,0.6477363182832224,1.0336066641719222,-0.020758547902540253,0.6739022045377885,0.9756574703186576,0.0,0.0,0.0,0.0
0.007092126780697514,0.04803993554036042,0.7293282228508193,-0.002674266696052319,-0.5229478540379231,0.006282777154080146,0.8523373258082751,0.09369326884810035,-0.8100630371008035,0.8463126228001049,-0.03701619666073708,-0.8167769872310624,0.9024112145019351,-0.010629492325814387,0.6480125841704736,1.0358133742281805,-0.02111842783034603,0.6761969436215227,0.9744213696902396,0.0,0.0,0.0,0.0
0.0077890456493378045,0.04872813769528652,0.7291910412526722,-0.002935419896731338,-0.5229468526175669,0.006715212351348762,0.8523337835440332,0.09757555054568397,-0.8076939215094556,0.8455399539227046,-0.03982889919240551,-0.8178480314815287,0.9058000299989606,-0.010967833706822408,0.648480070905963,1.0380674399033696,-0.021455419858857013,0.6788491839297952,0.9729145428516475,0.0,0.0,0.0,0.0
0.008566119088732702,0.04948550951523962,0.7290669869955654,-0.00325799703833336,-0.5229504960660389,0.00716548754232958,0.8523267096060423,0.10154197270525549,-0.8049159861158173,0.8443105875958654,-0.04283365363112286,-0.8189105494521579,0.9094795912805965,-0.011284823853649463,0.6491921875415089,1.0403016894985069,-0.0217658365141747,0.6819432637638879,0.9709638401288203,0.0,0.0,0.0,0.0
0.009418957508072326,0.0503320110055476,0.7289747274540506,-0.0036687655911912926,-0.522955101767196,0.007628629905235793,0.8523181951011415,0.10560091242763986,-0.8014762648464169,0.842250323849162,-0.046048842669459494,-0.8198069210110931,0.9132674056732439,-0.011581969619419187,0.6502019654476862,1.042404809818147,-0.022045252580770135,0.6855721082324858,0.9683119449078813,0.0,0.0,0.0,0.0
0.010327445266560197,0.0512904324747624,0.7289396340464085,-0.004198783036756307,-0.5229544485011531,0.00809815569376943,0.852311817874318,0.10976136091825281,-0.7970507944201594,0.8387328981870733,-0.04949071424289142,-0.8202810261955585,0.9168152314745092,-0.011863011581392807,0.6515371460936831,1.044227231632464,-0.02228838959758033,0.6898101391898748,0.96463717065808,0.0,0.0,0.0,0.0
0.01124302255522488,0.052373437342471206,0.7289799365900006,-0.004864003243322465,-0.522943923851585,0.008571368264929519,0.8523101111832615,0.11403256222646367,-0.7912468899647314,0.832766070567863,-0.05316663686699167,-0.8199932508609649,0.9195645758714774,-0.01213218329739812,0.6531138507578338,1.0456846454660025,-0.022489560412335633,0.6946071755965695,0.9597534442745449,0.0,0.0,0.0,0.0
0.012059709290847289,0.053535313423187535,0.7290311943759292,-0.0055951498324038175,-0.522933335581211,0.009067916213347602,0.8523069832705873,0.11842121061591496,-0.7835974449461306,0.8227818126234284,-0.05705304724284649,-0.8187570055000025,0.9208007867212875,-0.012385460836837689,0.654358390934667,1.0473284627188533,-0.022646446724555,0.699318455480873,0.9545633022876518,0.0,0.0,0.0,0.0
0.012617734037776857,0.05459900114042957,0.7288828106764724,-0.006133434155634959,-0.5229540140705038,0.00965518407467524,0.8522841413363796,0.12292272256378121,-0.7732247520338248,0.8060464867848653,-0.06105941952720101,-0.8170545991893321,0.92020238429706,-0.012596067472984874,0.653983502425597,1.050692899480585,-0.022769578024811644,0.7023362558037666,0.9519790384922716,0.0,0.0,0.0,0.0
0.012859649042057143,0.05521452982677063,0.7284856929736583,-0.005990887033814365,-0.5229568016898296,0.010429105925659897,0.8522743259001081,0.1274379144061334,-0.7570587735022898,0.7765703446941146,-0.06490288423812997,-0.8166593063935152,0.9197681434704971,-0.012734067916600244,0.6516512754233147,1.0551269530732585,-0.022904834788531357,0.7027273419701301,0.9538090850923654,0.0,0.0,0.0,0.0
0.012889642863156416,0.05526778536130198,0.7284729008845905,-0.006014559781146415,-0.5229387133137328,0.010462271609186785,0.8522848514793585,0.12772129472848284,-0.7569885955649561,0.7765781964939739,-0.06512229690114027,-0.8166699467914806,0.9198164263652506,-0.012743054900142358,0.6515679096220347,1.0552848827994095,-0.022900135890693438,0.7028232233284638,0.9536766336075861,0.0,0.0,0.0,0.0
0.012889642863156416,0.05526778536130198,0.7284729008845905,-0.006014559781146415,-0.5229387133137328,0.010462271609186785,0.8522848514793585,0.12772129472848284,-0.7569885955649561,0.7765781964939739,-0.06512229690114027,-0.8166699467914806,0.9198164263652506,-0.012743054900142358,0.6515679096220347,1.0552848827994095,-0.022900135890693438,0.7028232233284638,0.9536766336075861,0.0,0.0,0.0,0.0
0.01305588486278957,0.0553771374703789,0.7291322982126747,-0.00550330328140987,-0.522612503717654,0.010232758210947244,0.8524911584704876,0.12779010766350668,-0.7567417506811539,0.7786176898048988,-0.06512417205984694,-0.8182773431322834,0.9230156577056299,-0.018470383903415506,0.6557031912769462,1.0494097500724442,-0.01722594659463573,0.69216678447997,0.9736093836717098,0.0,0.0,0.0,0.0
0.013328127210322688,0.05561481735101418,0.729952594933115,-0.005181299957582675,-0.5223884235490567,0.009972563079943396,0.8526335889808104,0.12774838214058387,-0.7567160528175656,0.7820032204332695,-0.06521422803527503,-0.8186899511101753,0.9256039240175175,-0.02407227001653822,0.6610795637910006,1.0425181893332525,-0.011573089341202374,0.6852786378136715,0.9873468784716167,0.0,0.0,0.0,0.0
0.013620427669428031,0.05594078807916309,0.7307380546461214,-0.004995689097369878,-0.5222317445607526,0.009696661677292875,0.8527338522750175,0.12761765684348436,-0.7570207172529861,0.7859608079216729,-0.06538940202440693,-0.8184669168683413,0.9274533708613028,-0.029565061253444873,0.6664734121161408,1.036226752220835,-0.005942348908008186,0.6811851303122171,0.996952219725544,0.0,0.0,0.0,0.0
0.013896920471431172,0.056320243958877,0.7314388951051586,-0.0048938623973526114,-0.522117002960455,0.009418466469498746,0.8528078199804402,0.12741105764043026,-0.7575674397892637,0.7900454257103826,-0.06563964130336117,-0.8178991226152619,0.9286561533943171,-0.034965472268087085,0.6714890481909819,1.0308814173374448,-0.0003277199524128211,0.678876248347972,1.0041971478513096,0.0,0.0,0.0,0.0
0.014105195361490378,0.056711655294143015,0.7320466286717533,-0.004810568400205462,-0.5220244725791856,0.00915251088495264,0.8528678326708018,0.1271351310535233,-0.7579757242579839,0.7934899937602403,-0.06594155766395587,-0.8170732416579343,0.9291097052868788,-0.040290763045485886,0.6758881574763896,1.0264743975092165,0.005277172582468391,0.6775269262389622,1.0100139775517327,0.0,0.0,0.0,0.0
0.014247615442588329,0.05710741754351468,0.7325760559448289,-0.0047318804817828635,-0.521942358844703,0.008900450743033191,0.8529211952620853,0.12679724071896828,-0.7582444609216089,0.7963191175748766,-0.06628971499176074,-0.8160676418460198,0.9289409519896724,-0.045551798639952415,0.6797157941769992,1.022842466326474,0.010878406246655349,0.676689686161846,1.0150064237556964,0.0,0.0,0.0,0.0
0.014337731832703295,0.057507457878126694,0.7330476873265425,-0.0046558014833810776,-0.5218654035168967,0.008661256453241888,0.8529711640854837,0.12640299935673724,-0.7584157608000017,0.7986833923893495,-0.06668199643535473,-0.814921029727732,0.9282864447186779,-0.050757234090698475,0.6830946844334921,1.019786216117228,0.016482155745021803,0.6761062356637444,1.0195529986004441,0.0,0.0,0.0,0.0
0.014388154958411135,0.05791252332429141,0.7334789687441089,-0.0045820777008459095,-0.5217908326287525,0.008433670766040947,0.85301946328671,0.1259570208821325,-0.7585230227481806,0.8007142110962187,-0.06711657663867401,-0.8136564608053282,0.9272557386908371,-0.0559150867568908,0.6861385661253006,1.0171365552331668,0.022094619800263747,0.6756310352197726,1.0238679810588218,0.0,0.0,0.0,0.0
0.014408710109144593,0.058323162498775415,0.7338822872975602,-0.004510547596853794,-0.5217170552035437,0.008216568884055574,0.853067088373413,0.1254633102875922,-0.7585909154870474,0.8025097154123384,-0.06759162830217229,-0.8122920695316929,0.9259319954849389,-0.06103305891599678,0.6889332378209803,1.0147718231914409,0.02772200949086246,0.6751882832730496,1.0280661204993704,0.0,0.0,0.0,0.0
0.01440663771150454,0.058739600718937836,0.7342654433640513,-0.00444084533338777,-0.5216431976557444,0.008009002750395218,0.8531145931861435,0.12492543240290774,-0.7586380703266037,0.8041397450036087,-0.06810532295655285,-0.8108445220344126,0.9243775782846033,-0.06611862522877734,0.6915375838982282,1.0126137288848847,0.03337055148457013,0.6747438292839133,1.032205998580424,0.0,0.0,0.0,0.0
0.014387118584018676,0.059161765982977454,0.7346325728481643,-0.0043723581997666605,-0.5215688757514908,0.007810195044627139,0.8531622302847588,0.12434660004444463,-0.75867901598544,0.8056524338797599,-0.06865586787592953,-0.8093302074117136,0.9226393332770404,-0.07117907574427057,0.6939885631849129,1.010618970547434,0.03904649629505991,0.6742872636845083,1.0363136203371308,0.0,0.0,0.0,0.0
0.014353713458053268,0.05958931470481862,0.7349848538910306,-0.004304212204801124,-0.5214940809327124,0.007619536445964595,0.8532100210228372,0.12372972560454042,-0.7587253879487197,0.8070790882888766,-0.0692415420064663,-0.8077658429354178,0.9207524681389976,-0.0762215466103305,0.6963053959502004,1.0087726772684285,0.04475612974343724,0.6738212218910172,1.0403919091540401,0.0,0.0,0.0,0.0
0.01430858431517655,0.060021635130175374,0.7353208565685202,-0.004235243748577004,-0.5214191149473001,0.007436590811764577,0.8532577959767275,0.1230774459202849,-0.7587865655777355,0.8084366465272091,-0.06986072164573776,-0.8061688877680229,0.9187426237055618,-0.08125305614010771,0.6984916223412045,1.0070851602833715,0.050505786998314255,0.6733558007077118,1.0444190841486292,0.0,0.0,0.0,0.0
0.01425239881506838,0.060457853757345664,0.735636574084615,-0.004163976831495904,-0.5213444918354015,0.007261090455516513,0.8533052552839636,0.12239211424108892,-0.7588697498829244,0.8097274193089218,-0.0705118886118703,-0.8045575939485862,0.9166255210639728,-0.08628057206691081,0.7005346275775035,1.0055917998672224,0.05630186902644919,0.6729072591037526,1.0483353692140907,0.0,0.0,0.0,0.0
0.014183817597616733,0.06089689542615787,0.7359252640053245,-0.004088650806983456,-0.5212706993401978,0.007092888556590721,0.8533521148247559,0.12167574711280066,-0.7589794194526046,0.8109359086310299,-0.0711936123499124,-0.8029502641857413,0.9144033774250723,-0.09131114441723129,0.7024025866931168,1.0043550194473536,0.06215086133873354,0.6725023772469851,1.0520140264251179,0.0,0.0,0.0,0.0
0.014098578948277485,0.06133765802623109,0.7361774173203722,-0.00400734544497966,-0.5211977058844091,0.006931830386746082,0.853398407715179,0.12092991913679248,-0.7591161410094479,0.8120234352682142,-0.07190450163765431,-0.801363222003071,0.9120580387088428,-0.09635213238176567,0.7040400250686202,1.0034653722856446,0.06805935390018643,0.6721937996345976,1.0552097258058053,0.0,0.0,0.0,0.0
0.013988785449444338,0.06177935754903777,0.7363818059317678,-0.00391824832937372,-0.5211242305380364,0.006777527510494861,0.8534449301489894,0.12015561791450412,-0.7592750418740923,0.8129256043985804,-0.07264315642949472,-0.7998070444587931,0.9095447016823979,-0.10141148852430969,0.7053683830281829,1.0030323893845028,0.07403405708045553,0.6720982612225994,1.0574783165297463,0.0,0.0,0.0,0.0
0.013844944751391627,0.062222131254495126,0.7365303402733746,-0.003820297877003164,-0.5210476198525696,0.0066291171146798476,0.8534933145469757,0.11935301774493372,-0.7594446237721555,0.8135707441922985,-0.07340828887216692,-0.798279067914964,0.9068009279945998,-0.10649775427908145,0.7063146687788046,1.0031387069496986,0.08008180324562117,0.6724648376877653,1.0581075494007386,0.0,0.0,0.0,0.0
0.01366188075471454,0.06266695387450784,0.7366269020973989,-0.003713236422968836,-0.5209662098170894,0.006485496531837877,0.853544584915644,0.1185212659724708,-0.7595960137745341,0.8139128705614925,-0.07419847414921867,-0.7967497799413518,0.9037763605169787,-0.11161894593670331,0.7068780579547262,1.0037552807550654,0.08620887358511843,0.6732744882718663,1.057077966558868,0.0,0.0,0.0,0.0
0.013437768186930932,0.06311593852961958,0.7366880023850175,-0.0035979207088053834,-0.5208786227236957,0.006345097704334118,0.8535995870964099,0.11765837732506687,-0.7596806414997954,0.8139260969459592,-0.07501201259268069,-0.7951590533916728,0.9004245579240104,-0.11678285884515001,0.7071278304229286,1.0047358316213326,0.09242103373299165,0.6742431463920835,1.0550621605461994,0.0,0.0,0.0,0.0
0.013166370186064006,0.0635731112308732,0.736735302722119,-0.003476732467428872,-0.5207799166803951,0.006205104298115502,0.8536613423333401,0.11676127455133557,-0.7596373368490452,0.8135623307430873,-0.07584692262685,-0.7934228307107923,0.8966576559953509,-0.12199869932806266,0.7071326214959607,1.005890463440141,0.09872422519254026,0.6752265512475533,1.0524623701105398,0.0,0.0,0.0,0.0
0.012832849716463746,0.06404457594970125,0.7367919170698114,-0.0033532115186369975,-0.5206599328203168,0.006061024941284488,0.8537360565799688,0.11582593313584333,-0.7593906064763828,0.8127227213598407,-0.07670052688070632,-0.7914343417812891,0.8923201430294441,-0.1272776908795813,0.7069249720095789,1.0070222640826785,0.10512458274512827,0.6761571069553188,1.0494744758751686,0.0,0.0,0.0,0.0
0.0124104968577077,0.06453834264390058,0.7368817958840802,-0.0032307950474573938,-0.5205011845366146,0.005906343830515796,0.8538344066397758,0.11484759879966516,-0.7588436508064259,0.8112323162299235,-0.07756886291716192,-0.7890642505180485,0.8871711051075905,-0.13263355822894324,0.7064824007946122,1.0079316179778641,0.11162845490877812,0.6770070257995598,1.0461501028302433,0.0,0.0,0.0,0.0
0.011848301833767262,0.06505836519203753,0.7370302418399374,-0.0031014263608302906,-0.5202775699558131,0.005734069481520505,0.8539723366729062,0.11382000939228995,-0.7577785612627822,0.8086622534899569,-0.07844226405281655,-0.7861363146967159,0.8808103222073314,-0.13808334626744034,0.7056909235107881,1.0084033420744403,0.11824241181557756,0.677736541862297,1.042428109231069,0.0,0.0,0.0,0.0
0.011105177078651987,0.06562146156881937,0.7372737592356597,-0.002973423439719398,-0.519952918267852,0.0055310114068198545,0.8541718383619366,0.11273838788640837,-0.7561115850823741,0.8048136930664123,-0.07931656200852201,-0.7824851764072841,0.8728805808940442,-0.14364583617401852,0.7044873679109244,1.0081208042883725,0.12497329196416773,0.6783527032481173,1.0382408414153768,0.0,0.0,0.0,0.0
0.010130454780556745,0.06624821218644676,0.7376581230723214,-0.002854286029698041,-0.5194768872395372,0.005280051905354173,0.8544634209415043,0.11159907280139589,-0.7537595078290311,0.7994578238776207,-0.08018661581884033,-0.7779377326965713,0.8629653992214871,-0.149343269011315,0.7027861302617746,1.0066642443619231,0.13182825438384957,0.678824325865354,1.0334790362814006,0.0,0.0,0.0,0.0
0.008862362365099729,0.06696267629456397,0.738237090487379,-0.00274783536472141,-0.5187791426059999,0.004959358286217758,0.854889498919703,0.11040162445669367,-0.7506593866161559,0.792341614087289,-0.0810463413175161,-0.7723450476958298,0.8506049403054863,-0.15520207758361124,0.7004599323056523,1.0034987625626424,0.13881486177464866,0.6790088337681764,1.0279611758742082,0.0,0.0,0.0,0.0
0.007234788293130399,0.06779209376787536,0.7390702579148111,-0.0026520543466321787,-0.5177650290461332,0.004542012359333928,0.8555066986460872,0.10915223409017784,-0.7468287304434984,0.7832742081009075,-0.08189045833254144,-0.7656471992594726,0.8353831784642822,-0.16125246077626362,0.6973532727581813,0.9979530695670907,0.14594117118795943,0.6785399432264295,1.021417118086615,0.0,0.0,0.0,0.0
0.005191692558789071,0.06876223656196917,0.7402136403035657,-0.002551961343048981,-0.5163139928163171,0.003998117563835719,0.856386223249371,0.10786925303260635,-0.7424584147654514,0.7722654934111387,-0.08271744866720604,-0.7580049581312941,0.8171207031543873,-0.1675258656762889,0.6933043669904009,0.989235624631874,0.15321577852958787,0.6766946530597953,1.0134904463753884,0.0,0.0,0.0,0.0
0.00271878655768966,0.06988596810681659,0.741689580283045,-0.0024082350458952515,-0.5142865655732942,0.003301839812522756,0.8576086675918346,0.10659259510216686,-0.7381058314717602,0.7598157332390023,-0.08353640684781231,-0.7500729066656879,0.7962948154517598,-0.17404771403278668,0.6881564982279165,0.9766121458389587,0.16064775463688258,0.6723661984518841,1.0038210066724735,0.0,0.0,0.0,0.0
-8.95727553230025e-05,0.07114835183605941,0.7433905898297546,-0.00215533837041476,-0.5115396577261736,0.002444932039396307,0.8592534872767296,0.10540336195900518,-0.7352994190682315,0.7477261498198869,-0.08438929266204902,-0.7436584094854326,0.7749835715691907,-0.1808215625885947,0.6815638578947439,0.9602082494022969,0.16824687280660938,0.6644961069852627,0.9921577812850734,0.0,0.0,0.0,0.0
-0.0028842799474609695,0.0724874116081733,0.7447931040409713,-0.0017099006380721113,-0.5078752262989397,0.0014576403837603241,0.8614277137613581,0.10449636566356295,-0.7387227340108921,0.7417250464933639,-0.08542494460239224,-0.743954212265536,0.7596619356574734,-0.18781289615809085,0.6718018091325402,0.9435907149143519,0.17603327451411913,0.6537669957517601,0.9771261863286916,0.0,0.0,0.0,0.0
-0.005449391310880692,0.07383173859502923,0.7452367942545451,-0.0010029333036241511,-0.5031791913287761,0.00038535970140388896,0.8641814317817803,0.10403302031981432,-0.7523783750749813,0.7460290516441729,-0.08677803210871796,-0.755613571949718,0.7556490283698974,-0.19494031101152876,0.656033356790307,0.9323288623069617,0.18402222369200394,0.6395169210407066,0.957220373432837,0.0,0.0,0.0,0.0
-0.0074771045835533324,0.0748279413902963,0.7447692194824466,0.00038326989900064063,-0.4976931397774528,-0.0005793743852515261,0.8673529016772625,0.10409064698579232,-0.7746936645298974,0.7597799780441459,-0.08841960125682485,-0.7804007172509032,0.7673437820830332,-0.20192290103892718,0.6361018216157687,0.9253255681392112,0.19210659069034036,0.6219401491733519,0.9380845360938,0.0,0.0,0.0,0.0
-0.007485675557167407,0.07488275592200708,0.7446579217700007,0.00046997805146174585,-0.497675657467183,-0.0006256136264331446,0.8673628581469399,0.10408358406255258,-0.7748777458500772,0.7596973216731603,-0.08849312774527361,-0.7806608273024223,0.7670492747306236,-0.20227310679060453,0.6361867836421712,0.9252024563421335,0.19263489208244486,0.6219365688291303,0.938085502273894,0.0,0.0,0.0,0.0
-0.007485675557167407,0.07488275592200708,0.7446579217700007,0.00046997805146174585,-0.497675657467183,-0.0006256136264331446,0.8673628581469399,0.10408358406255258,-0.7748777458500772,0.7596973216731603,-0.08849312774527361,-0.7806608273024223,0.7670492747306236,-0.20227310679060453,0.6361867836421712,0.9252024563421335,0.19263489208244486,0.6219365688291303,0.938085502273894,0.0,0.0,0.0,0.0
-0.007716197017437218,0.07501005833886279,0.7453653376248542,0.0004428118971647009,-0.4995771987507025,-0.0003985853012821039,0.8662691657537986,0.10256616482482842,-0.7605104594242847,0.7449527803386933,-0.08890115795135187,-0.7643964518615193,0.7501538111570865,-0.20394527923619676,0.6440734799390525,0.9231366458447319,0.19572352123062928,0.6302700499854564,0.9363752310119527,0.0,0.0,0.0,0.0
-0.00800449355333972,0.07516007405658702,0.7458879696769904,0.0003824214277479969,-0.5009246535636172,-0.00018242717136219758,0.8654907925139058,0.10121211081844741,-0.749706443637276,0.7331166632969423,-0.08943001140568173,-0.7514616401798727,0.7357549025381095,-0.2049419678371911,0.6492664169631887,0.9217196479512052,0.19807691118216716,0.6361332944297677,0.9348026921865943,0.0,0.0,0.0,0.0
