zhuoxili-jackie/tripod-support-walk/examples/trajectory_walking_sideways_sc_v0.05.csv
root_pos_x,root_pos_y,root_pos_z,root_rot_x,root_rot_y,root_rot_z,root_rot_w,FL_hip_joint,FL_thigh_joint,FL_calf_joint,FR_hip_joint,FR_thigh_joint,FR_calf_joint,RL_hip_joint,RL_thigh_joint,RL_calf_joint,RR_hip_joint,RR_thigh_joint,RR_calf_joint,FL_foot_joint,FR_foot_joint,RL_foot_joint,RR_foot_joint
0.0,0.0,0.72963,0.0,-0.5231245161092812,0.0,0.852256264656019,0.0,-0.81,0.872,0.0,-0.81,0.872,0.0,0.65,1.0,0.0,0.65,1.0,0.0,0.0,0.0,0.0
-0.00012984474353140916,-8.575277211773082e-05,0.7296128230630948,-6.501425843162088e-05,-0.5231529721532572,7.150293374013754e-05,0.8522387918815301,6.424541359976282e-05,-0.8091843225911505,0.8703655040693343,6.424541359976237e-05,-0.8091857803981644,0.8706759249208135,0.0014424811849727058,0.6492962633426606,0.9999477697943936,0.0014424811849727051,0.6499203402093809,1.0007114630871532,0.0,0.0,0.0,0.0
-0.00034170350565080536,-0.00020292565694236733,0.7295916554355328,-0.00017570014591595276,-0.5231672952563965,0.00016930260380703744,0.8522299699260719,0.00016604132440205222,-0.8080591386473869,0.8679505795166229,0.00016611356359033243,-0.8079935080537445,0.8686132820671,0.0035433326643467657,0.6481495244834931,0.9998283715536429,0.003551273276410356,0.6496889715884228,1.0016450381134911,0.0,0.0,0.0,0.0
-0.0005677711696943443,-0.00031577555799819384,0.729567046361745,-0.00032751800578922593,-0.5232140281669546,0.00028647683721952117,0.852201203585331,0.00023066131461497205,-0.8067695063608374,0.8652951202472161,0.00023095033205236575,-0.8064310204564951,0.8661078788377371,0.005981882044916531,0.6469269707435716,0.9998029306679416,0.006011335098296056,0.6495905026493579,1.0026991063820991,0.0,0.0,0.0,0.0
-0.00047614530601119005,-0.00036563699178548443,0.7295070621706014,-0.0004548244775910131,-0.5232802033141337,0.0003916648941648258,0.8521604711278411,0.00015245322380053202,-0.8072791662053435,0.8660446807925997,0.00015311093128303867,-0.8064757973761484,0.8666286503508093,0.007770422234557874,0.6466125141562966,1.0000966323911848,0.007828036836286856,0.6502190075114347,1.0036022741383306,0.0,0.0,0.0,0.0
6.063517282856333e-05,-0.0003605347409412927,0.7294165464513177,-0.0005323210763139914,-0.5233947652351741,0.0004515679568775401,0.8520900377572014,2.664600949915937e-05,-0.8099828986805981,0.8712471925699921,2.7679429138529607e-05,-0.8087349289870808,0.8714264086105844,0.008627287634251487,0.64778706803417,1.000627232052657,0.008704487441412759,0.6519423663683854,1.0042504821864642,0.0,0.0,0.0,0.0
0.0010754318249207098,-0.0002713981049068344,0.7293015922452255,-0.0005669762505372389,-0.5235802696070538,0.0004710145902583472,0.8519760313303373,-0.00022950318611452376,-0.8149525557291531,0.8811574977226583,-0.00022815671844296522,-0.813107672714352,0.8805106245232159,0.00843856892520608,0.6506370122450219,1.0014331175290554,0.008516946034902788,0.6549660391003496,1.004495300253591,0.0,0.0,0.0,0.0
0.0026033933555200143,-7.163148612159893e-05,0.7291708592431289,-0.0005572528549716934,-0.5238526620453503,0.00045170813359461095,0.8518085899408492,-0.0006909689259980032,-0.822231417122119,0.8959732027175477,-0.0006892844717169242,-0.8195209340667725,0.8939010594220541,0.006998914865921687,0.6553965576117408,1.0024838645681347,0.007056453381231144,0.6594799601744635,1.0041268833572625,0.0,0.0,0.0,0.0
0.004679558802632527,0.00025860586350370644,0.7290449844961737,-0.0004859038721683542,-0.5242437122828812,0.00038232948193402165,0.8515680523912683,-0.001392314901526,-0.8316209794091024,0.915631278446967,-0.0013900930450328778,-0.82778942141864,0.911501128336451,0.003916095371878004,0.6624865142875394,1.0036346322724394,0.003935862380429404,0.6657198494307991,1.002833847456695,0.0,0.0,0.0,0.0
0.007329556630035497,0.0007225494798472607,0.7289618678239904,-0.000315264380559239,-0.5248112526009102,0.00023380265509879145,0.8512185354467748,-0.0022924240887680575,-0.8425302011618421,0.9396290323773506,-0.0022893205843277377,-0.837535486635714,0.9330043594221736,-0.0014252268983849844,0.672570936277976,1.0045707734255171,-0.0014329830667841768,0.6739703181219655,1.0002017542025148,0.0,0.0,0.0,0.0
0.010541501826158942,0.0012846153833845789,0.7289554263497819,-7.356275747695051e-06,-0.525588502728375,-1.669836156810428e-05,0.8507389290885864,-0.003268995678212511,-0.8542447283798592,0.9670991426821486,-0.0032646277367954163,-0.8484186958002858,0.9579984568792377,-0.009488895521129956,0.686153759424119,1.0048133962543766,-0.009432704337488714,0.6843370813095587,0.9959247484075018,0.0,0.0,0.0,0.0
0.013463887858760223,0.001630327610322117,0.7286975356126123,-0.00021540940340036114,-0.525295513479376,0.00010643644673753788,0.850919835112868,-0.0028308908632423014,-0.8499777064846329,0.9406541693204207,-0.0043956397360681125,-0.8636354689907144,0.9852784155557454,-0.010330254531658208,0.6930951141129564,1.0039730229743131,-0.010161348248804382,0.6917677024654514,0.9930225562293091,0.0,0.0,0.0,0.0
0.016179462954547072,0.0020864363649907586,0.7282772959214727,-0.0003493362336266403,-0.5251839907525675,0.00018704818359909506,0.8509886126349635,-0.004586253736118016,-0.8531392558982778,0.9225252261875069,-0.005763101273004867,-0.8768144079222389,1.008829238728234,-0.012718443631554251,0.6994849835264124,1.0055091332164128,-0.012436095025123583,0.6980506716319113,0.9916270093047582,0.0,0.0,0.0,0.0
0.018498716966159158,0.0026009276514588064,0.7278698823991621,-0.00044259932429613867,-0.5252824364543625,0.0002442263512920796,0.8509277915380928,-0.007100626681564301,-0.8604231419534438,0.9115307278869623,-0.007257613986283794,-0.8866159162919738,1.0270948279126257,-0.01607127643152148,0.7055627137807774,1.0079079795781989,-0.01564372672258954,0.7036042352836533,0.9906354927996596,0.0,0.0,0.0,0.0
0.02031973167643646,0.0030954432202678337,0.7275220864024668,-0.0005432509581517972,-0.5254611589117737,0.00031993573777407353,0.8508173558376768,-0.009665951937961303,-0.8696854579704193,0.9045712513772036,-0.008751206413001249,-0.8933960994165837,1.0403162395246766,-0.019157964017283726,0.7105772993585222,1.010365970835458,-0.018564766145898342,0.7081990817519124,0.9898884965920568,0.0,0.0,0.0,0.0
0.02163648700944379,0.0035112484207705363,0.7272508915335908,-0.0006569858797174434,-0.5256479339383133,0.0004147167138916833,0.8507018548974626,-0.012044005127192305,-0.8797916683807314,0.8996089474188825,-0.010079099956459503,-0.8977192699854276,1.0491990329533953,-0.021373489533870825,0.7142374287535679,1.0124867534081365,-0.020631182652884734,0.7117393070480217,0.9893952388352434,0.0,0.0,0.0,0.0
0.022499141181429018,0.003812239769500086,0.7270608978711341,-0.0007709226965659739,-0.5258148473951769,0.0005111494499414443,0.8505985484723227,-0.014199715226244546,-0.8901862064520499,0.895472681633495,-0.011099486810235561,-0.9001366051198969,1.0545767924932024,-0.02256035624716355,0.7166113252379724,1.0140736134641555,-0.021717423629375968,0.7142782098212949,0.989164028286713,0.0,0.0,0.0,0.0
0.022982432635580655,0.003981487287481118,0.7269483001890293,-0.0008703181992204767,-0.5259550531827534,0.0005912583651904917,0.8505117136120494,-0.016161631793999154,-0.9006186019589082,0.8915280442777255,-0.01172386303789084,-0.901140798810766,1.0572658001647708,-0.0227848516973963,0.7179268564207999,1.015044274102631,-0.021902211881399247,0.7159480605239829,0.989184059863606,0.0,0.0,0.0,0.0
0.023165981831693928,0.004016145895179996,0.7269029190768721,-0.0009449725213033089,-0.526069544175737,0.0006426381005749823,0.8504407849662067,-0.01796419447602861,-0.9109906709844093,0.8874556368395853,-0.011916774411622274,-0.9011551857762828,1.0579954827478846,-0.022197441190264403,0.7184418596026289,1.0153967522149705,-0.021331533974622525,0.7169019890841383,0.9894421522565845,0.0,0.0,0.0,0.0
0.023123484072001207,0.003922031472274097,0.7269073071408416,-0.0009900675167766105,-0.5261606772335088,0.0006583465063196783,0.8503843413888601,-0.01962847613202524,-0.9212829294083363,0.8831102649493283,-0.01167980163679856,-0.9005468850180228,1.0573880884139009,-0.020962125748368636,0.7183668755395499,1.015212883453953,-0.020155900470751303,0.7172629516688608,0.9899645305170449,0.0,0.0,0.0,0.0
0.0229160732268468,0.0037094606409697355,0.7269254711612929,-0.0010051466088894481,-0.5262266535986896,0.0006338308563217792,0.8503435170453556,-0.021147636952336974,-0.9315383068639956,0.8784002507524178,-0.011031735093153102,-0.8996858543917379,1.0559733701263583,-0.019237136699077572,0.7177719715872347,1.0147565653707993,-0.018516965932664695,0.7170265970664258,0.9909388486711858,0.0,0.0,0.0,0.0
0.022624210717400235,0.0034317532347830342,0.7269657069709536,-0.000995823579838639,-0.5262824549287827,0.0005835454401307693,0.8503090293794668,-0.02260750635409704,-0.9417947788303027,0.8733957168386414,-0.010153436885893756,-0.8986605914056461,1.054140680630502,-0.01734481314678997,0.7170205277889401,1.0140202636939994,-0.01671302957580997,0.7165345894072229,0.9920174770848684,0.0,0.0,0.0,0.0
0.022315619160472557,0.003135677046111834,0.7270233009670313,-0.0009689356001201732,-0.5263355567895062,0.0005192074443199396,0.8502762334950408,-0.024070889662071826,-0.9520790044834261,0.8681407400692317,-0.009199434903912933,-0.8976068707569894,1.0522523556617172,-0.015552192513592992,0.7163461903408934,1.0131016867849594,-0.014995719549335536,0.7160057704624565,0.9930015646933521,0.0,0.0,0.0,0.0
0.022038354837004618,0.0028560803435046054,0.7270856383139538,-0.0009297497119987675,-0.526390555758372,0.00044805034911118237,0.8502422699588335,-0.02560127741057207,-0.9623346265076776,0.8627117360466101,-0.008280034861017216,-0.8966544257631204,1.0505795132315277,-0.01406069900190879,0.7158707706543608,1.012160944275501,-0.013559754246330723,0.7155457432984242,0.993829241056888,0.0,0.0,0.0,0.0
0.021822161626443876,0.002616595531546386,0.7271423584411221,-0.0008831332590238016,-0.5264487312150931,0.00037539523095588933,0.8502063352834335,-0.027273435697861604,-0.9723182166751502,0.8572656355816549,-0.007469733741743779,-0.8958944497509567,1.0492945626946244,-0.012986718176040218,0.7156463657368616,1.0113254326454315,-0.012521366579793683,0.7152071425797989,0.9944789666621736,0.0,0.0,0.0,0.0
0.021677039952400234,0.002428593030481583,0.7271871939318794,-0.0008342340957634607,-0.52650670872678,0.00030594008196898335,0.8501705100271553,-0.029157777745088966,-0.9814844172286504,0.8521159707248651,-0.006808027262002907,-0.8953723060822316,1.0484615174621474,-0.012343142617312852,0.7156520754994545,1.0106661317460386,-0.011897137873835987,0.7149959227154514,0.9949555805386784,0.0,0.0,0.0,0.0
0.021592097272373423,0.002289320879437837,0.7272181702881465,-0.0007887903737215082,-0.5265559370634393,0.00024423984066873476,0.8501400845154226,-0.03127991498906036,-0.9889041772221737,0.8478337411361455,-0.006296011425001046,-0.8950860965113445,1.0480313692515137,-0.012021546210104523,0.715788003788378,1.0101880318848475,-0.011584594247260114,0.7148709094335318,0.995294793554945,0.0,0.0,0.0,0.0
0.02153898699999513,0.002182085948039926,0.7272374802565563,-0.0007515399326133868,-0.5265868147231829,0.00019328872823455275,0.8501210057320602,-0.03357074042725091,-0.993336268375491,0.8453171100582962,-0.005894161282650215,-0.8949825868956435,1.04785304557611,-0.01181836519108689,0.7159062542389759,1.0098351322967465,-0.011387296159807575,0.7147585539716521,0.9955636366700332,0.0,0.0,0.0,0.0
0.02148618567781518,0.0020844476423705644,0.7272513562340993,-0.0007214543292021482,-0.5266012664289823,0.00015093120640536636,0.8501120884441143,-0.035878174925720596,-0.9936601433334243,0.8456410303394968,-0.005537142091950085,-0.8949451491758409,1.0477163634272475,-0.011569185715984255,0.7159222998409248,1.0095254172999044,-0.011145915941294346,0.7146058354258473,0.9958298332623764,0.0,0.0,0.0,0.0
0.021420547194418358,0.0019885389664687394,0.72726332710966,-0.00069719467774406,-0.5265988549716528,0.00011608572654878878,0.8501136079290988,-0.038168606418005055,-0.9898567777829274,0.8487754019801222,-0.0052018248987378765,-0.8949272382871306,1.0475347230722283,-0.011226356250651241,0.7158057104181338,1.0092194766212952,-0.010813969969783201,0.7143878861285927,0.9961052114897245,0.0,0.0,0.0,0.0
0.021347937194519922,0.0019010716741412192,0.7272742490289508,-0.0006770736079617907,-0.5265773487339418,8.814580396763631e-05,0.8501269491093547,-0.0405459556841378,-0.9830188536855957,0.8536152925507838,-0.004905481733837339,-0.8949533958418127,1.047348998969585,-0.010864173844364083,0.7155857774342096,1.0089211229707282,-0.010463132451773856,0.7141096772454533,0.9963451235996924,0.0,0.0,0.0,0.0
0.02127057189661506,0.0018224305957638717,0.7272887676304889,-0.0006538677502622554,-0.5265465759974111,6.06760871676066e-05,0.8501460298565066,-0.0430521345439729,-0.974361988226273,0.8592424308834459,-0.004635748228716279,-0.8949832344692977,1.0471380837830253,-0.010593291490173243,0.7153540550528201,1.008611263486168,-0.010200855179693968,0.7137943250083392,0.9965116053625481,0.0,0.0,0.0,0.0
0.02117128346018819,0.0017379002111635085,0.727315030287345,-0.0006202185195619476,-0.5265146498429858,2.5803875399215637e-05,0.8501658298025544,-0.04564240095362782,-0.9647900990680823,0.8650582464837271,-0.00433624079223089,-0.894923760158264,1.0467697457826903,-0.010408547208740576,0.715138032803252,1.008213780538467,-0.010022581983728854,0.7134247704213755,0.9966108266605371,0.0,0.0,0.0,0.0
0.02101007629686165,0.0016173376711400955,0.7273625857171226,-0.0005707070326932857,-0.5264828201915952,-2.379350524775766e-05,0.8501855760776328,-0.048226884123811355,-0.9548312505770118,0.8707206020417345,-0.003910001535341777,-0.8946437931932202,1.0459949831593494,-0.010155298132959076,0.7148556392447394,1.007606385242908,-0.009778374216601843,0.7129186202050649,0.9967111989593175,0.0,0.0,0.0,0.0
0.02072510426822819,0.0014172731336442492,0.7274305394906677,-0.0005009051655789021,-0.5264452265369202,-9.651602847479461e-05,0.8502088938814755,-0.05069748524011375,-0.9447391333758898,0.8760421666929376,-0.0032214439907091684,-0.8940154255179157,1.0444663270857117,-0.009569563577485755,0.7142738286058361,1.006733072385499,-0.00921138309363653,0.7120663378060907,0.997038656283986,0.0,0.0,0.0,0.0
0.020255592854795335,0.0010995175262948132,0.7275261469284251,-0.00041089615682239947,-0.526392031544813,-0.0001949976995805152,0.8502418610409452,-0.05296370309331182,-0.9345996862339161,0.8809271144020902,-0.0021627413764595455,-0.8928818698646416,1.0418211424630295,-0.008356742354844647,0.7131727238222206,1.0054642243618177,-0.008032847419327777,0.7107095633394631,0.9977219489701142,0.0,0.0,0.0,0.0
0.01955456280964702,0.0006537438635854781,0.727678472689497,-0.0003056883577934567,-0.5263228943770861,-0.0003101016716125985,0.8502846707109964,-0.05501886056942163,-0.9244345213661015,0.8854223611093353,-0.0007303985065318487,-0.8909337643830308,1.0376211687018182,-0.006336881941138795,0.7114985261307335,1.0035468102705942,-0.0060604446992260814,0.7088803776679549,0.9985986044534622,0.0,0.0,0.0,0.0
0.018575952345052306,7.298471215358535e-05,0.7279038269787234,-0.00019455184195605764,-0.526234101765314,-0.0004305450313171111,0.8503396068158944,-0.0568900978663117,-0.9142875135616213,0.8896281189158393,0.0010649491323264856,-0.8878997170999074,1.0314338789088102,-0.0033312455343932745,0.7091352496957832,1.0008335119823204,-0.00310483164254862,0.706554535774671,0.9995975445458829,0.0,0.0,0.0,0.0
0.017284915427622477,-0.000643405163516253,0.7282129011790879,-9.099698074487048e-05,-0.5261231087153603,-0.000542509408954267,0.8504082383648314,-0.05868014461995936,-0.9042605805237742,0.8937736811196025,0.003189464125432439,-0.883534584439996,1.0228739350716411,0.0008062857776043311,0.7059911312363126,0.9972184700477632,0.0010027999033674923,0.7037278432847108,1.0006550570700228,0.0,0.0,0.0,0.0
0.015671532948004115,-0.0014867494528453913,0.7286072414335372,-9.987278511414965e-06,-0.525994982315491,-0.0006336823643243817,0.8504874349017989,-0.060603627737188095,-0.8945550565138098,0.8983293587598811,0.005588001357415424,-0.8776582961316829,1.011688207333107,0.006109450256141145,0.70206603070268,0.992675844393887,0.00633257002451911,0.7004407756123273,1.0017237241859243,0.0,0.0,0.0,0.0
0.013770525687477556,-0.0024367793573844285,0.7290625252927788,4.299294519113128e-05,-0.5258774883489347,-0.00070637852275249,0.8505600310553073,-0.06299237619077175,-0.885527760306404,0.904206687587518,0.008208734070094788,-0.8702456265163794,0.9978965113088769,0.01232453765088333,0.6975255243936165,0.9874434366773894,0.01267245701345375,0.6967468226990203,1.002907655895433,0.0,0.0,0.0,0.0
0.011684303220803854,-0.0034595518999913444,0.729474502235594,9.643869511044146e-05,-0.5258435137282501,-0.0008053011554769007,0.8505809433907832,-0.06619406061183968,-0.877797461526128,0.9129849876765018,0.011060968521420338,-0.8616559055242847,0.9820223830320207,0.018598678970884484,0.6926559235913475,0.9825972948420603,0.019182695516324684,0.6924794627422977,1.004944789951744,0.0,0.0,0.0,0.0
0.009693584642440939,-0.0044119802198613845,0.7297554429936999,0.00022554072059156747,-0.526049629290348,-0.0009983188105658692,0.850453255631621,-0.07060283377902829,-0.8722751632376561,0.9273379927415438,0.013907840586552457,-0.8524346734400317,0.9655092273003087,0.022982723708404547,0.6887122968817188,0.9794917508881946,0.023825749503363483,0.6881347434273274,1.0080065787322616,0.0,0.0,0.0,0.0
0.008284680445561653,-0.005079716461710395,0.7297609369596146,0.0005925015307343912,-0.5267365848257453,-0.0013968528082463241,0.850027216005628,-0.07603279500617578,-0.8707941611887902,0.9510552413384628,0.01640573809864383,-0.8439184479768689,0.9514002579603342,0.022444830264649926,0.6876608823442537,0.9803709479603767,0.023339534398412243,0.684530020419873,1.0125064151816405,0.0,0.0,0.0,0.0
0.007761626466046431,-0.005330606793692038,0.7296549531746713,0.0012404628508646506,-0.5279047544319563,-0.0019029923805981728,0.8493005416930163,-0.08147463034730483,-0.8765692608943322,0.9865142012836686,0.01793512411749809,-0.8368305262859144,0.942093112881556,0.01661039191012522,0.6909698258952561,0.9838985394900297,0.017298797417275663,0.6834739374422115,1.0163802159058477,0.0,0.0,0.0,0.0
0.00776072545806745,-0.005356347769635309,0.7296510060750232,0.0012605317278409625,-0.5279024928419229,-0.0018986195614948509,0.8493019276763756,-0.08146992044646126,-0.8765928201585187,0.9865202321798991,0.017958035936823203,-0.8368289388124828,0.9420345420657603,0.016581996774101306,0.6910067305895712,0.9838035912660297,0.01732021241869923,0.6834349394568386,1.0164537848163075,0.0,0.0,0.0,0.0
0.00776072545806745,-0.005356347769635309,0.7296510060750232,0.0012605317278409625,-0.5279024928419229,-0.0018986195614948509,0.8493019276763756,-0.08146992044646126,-0.8765928201585187,0.9865202321798991,0.017958035936823203,-0.8368289388124828,0.9420345420657603,0.016581996774101306,0.6910067305895712,0.9838035912660297,0.01732021241869923,0.6834349394568386,1.0164537848163075,0.0,0.0,0.0,0.0
0.008383990963330411,-0.005559575501339412,0.7308125435712411,0.000813442774324258,-0.5269399407531539,-0.0012827739694949434,0.8499011658074478,-0.08258028508822188,-0.8826482262293545,0.9965163433690927,0.017109323959156122,-0.8408601174777109,0.9512561296604489,0.011178083730792343,0.6735570195571463,1.0060133726697638,0.026214741779630957,0.6906866685378779,1.00488829189917,0.0,0.0,0.0,0.0
0.009497160140570966,-0.005892090427501329,0.7323429287571893,0.0007373881820330318,-0.526591529646438,-0.0011127199568815027,0.850117391315806,-0.0822903040949977,-0.8850178998163332,1.0061176837041417,0.017559239580509155,-0.8438727389411356,0.9624757548590299,0.006782260615395323,0.662471011343261,1.0243430330402679,0.03038640113067013,0.7012318384092203,0.9902900968574307,0.0,0.0,0.0,0.0
0.010658532114406793,-0.006437966033338964,0.733878552747458,0.0008599190702792132,-0.5265433420735808,-0.0012140351414301547,0.8501469846890313,-0.08075720655078922,-0.8847772963965091,1.0134066168598175,0.019166738832011438,-0.846323353832596,0.973517445169284,0.004623423054222622,0.6549191714412479,1.040339329172472,0.03297645072131114,0.7120360225781048,0.9762901872568204,0.0,0.0,0.0,0.0
0.011733955206771892,-0.007192074138159901,0.7352953198103939,0.0010391705037957797,-0.5265311293734016,-0.0014281100591793465,0.8501540157095613,-0.07838983928992081,-0.883620517365759,1.0190283598797294,0.021583703074971747,-0.8490774420135356,0.9843986391477383,0.003911344664938938,0.6493073992918071,1.0548776199860332,0.035976215054325106,0.7219734244501557,0.9639041528275681,0.0,0.0,0.0,0.0
0.012597695756590343,-0.008095261368712454,0.7365865723091531,0.001218073772718164,-0.526497959211732,-0.0016570673469105044,0.8501739053687624,-0.07556801711488804,-0.8816167213531704,1.0224660525389118,0.0244260591050535,-0.8515658582844142,0.9939456920909298,0.004037975682288525,0.6444756873049267,1.0685446484543462,0.040003882909424957,0.7307278512792788,0.9532289701168785,0.0,0.0,0.0,0.0
0.01322488139968195,-0.009083316358321212,0.7377761427706019,0.001382931704342625,-0.5264439515946667,-0.0018682534693157443,0.8502066589707867,-0.07253681915887551,-0.8787734970172386,1.0237157622252524,0.027444859411711545,-0.8534355145902175,1.0017019453780827,0.004613636471519652,0.6398310023825936,1.0817041655271806,0.04489357086938989,0.7383643741653456,0.9439591794785778,0.0,0.0,0.0,0.0
0.013629786328365992,-0.01009323823551985,0.7388833033341485,0.0015281314477867817,-0.5263771525572482,-0.002042286063252679,0.8502473682097685,-0.0695133492715947,-0.875215228142165,1.0230569084083196,0.030424589676126778,-0.8545162370495178,1.0075550526305865,0.005469461065551034,0.6350699819175029,1.0945954380552292,0.05033497823984735,0.7450355939617938,0.93575811105918,0.0,0.0,0.0,0.0
0.013855140735386469,-0.01108148741586026,0.7399182355439728,0.001652827452695098,-0.5263025915037363,-0.002176936934848238,0.8502929561530218,-0.0666251172431772,-0.8711778753849138,1.0209734697457775,0.033245408981544225,-0.8548791135621393,1.0117488842786437,0.006480687079635705,0.630121015456379,1.107390271197749,0.056007405273672456,0.7509000721519938,0.9283628202157854,0.0,0.0,0.0,0.0
0.01394943956935659,-0.012015739821416441,0.7408874803799418,0.0017578604364882919,-0.5262269195383648,-0.002274748196830537,0.8503393232119106,-0.06395752594985783,-0.8668923043126111,1.0179554401591824,0.03583001317348552,-0.8546462646401727,1.0146020855519402,0.007530019030013059,0.6250063346506853,1.1202226303111997,0.061634849069040445,0.7561212645428464,0.921564103785571,0.0,0.0,0.0,0.0
0.013969373898899639,-0.012875132846138863,0.7417970069244451,0.0018478509345743537,-0.5261591685584469,-0.0023452995063504697,0.850380864294954,-0.06154864264283961,-0.8625788846506095,1.0145136854656212,0.038149224654659704,-0.853996628274653,1.0165318078777104,0.008505800678552345,0.6198323954583573,1.133209842127766,0.06696256319644817,0.7608823183002842,0.9151791956475622,0.0,0.0,0.0,0.0
0.014005913229541433,-0.013661745006676688,0.7426506214720044,0.0019336739264537225,-0.5260972302720758,-0.0024126300758432985,0.8504188053078987,-0.0593471577831253,-0.8586218540945976,1.0114530599864835,0.04027360574573066,-0.8534056721375256,1.0184084894080718,0.00939143507950303,0.6148634933050523,1.1464142597065652,0.0717774808714743,0.7654069814310964,0.9090404650333468,0.0,0.0,0.0,0.0
0.014106703349865293,-0.014368047882710545,0.7434494434468387,0.002021186356563903,-0.5260481032520505,-0.002487861360606193,0.8504487747163155,-0.05734988442228023,-0.8551970694960118,1.0091860623149023,0.042214506152069155,-0.8530579135422502,1.0206175405584594,0.010131438360331098,0.6102588458963562,1.1598570555919536,0.0759267010972352,0.7698326254628671,0.9030604345793352,0.0,0.0,0.0,0.0
0.014286997866406739,-0.014982905783186532,0.7441879770859298,0.0021107738779291723,-0.5260173755740056,-0.002571821376762897,0.8504673132829255,-0.055583109811993256,-0.8523845047707584,1.007872190397045,0.04394769514663605,-0.8529904007054685,1.0232445325751305,0.010680245183786088,0.6061054807619103,1.1734462845280231,0.07933755187337198,0.7741890784573388,0.8972553801988623,0.0,0.0,0.0,0.0
0.014538800964544116,-0.015495944788983597,0.744852240752081,0.0021997052981172025,-0.5260079667274055,-0.0026598122427562475,0.8504726366172726,-0.05408180388580788,-0.8502076291628571,1.0074900676927896,0.04543654226346456,-0.8531683509105925,1.0261891900129658,0.01099581810556145,0.6024700456010574,1.186910499819595,0.08199577564236547,0.7783979920923539,0.8917616298918307,0.0,0.0,0.0,0.0
0.0148273636788597,-0.015898389735312598,0.7454175837770568,0.002281258195448445,-0.5260193171730031,-0.002741200151024725,0.8504651431091255,-0.05288789066348393,-0.8486297710457043,1.0078123921761801,0.046633382378288915,-0.8534829022190464,1.029145337660794,0.010983766697051749,0.5994009608823507,1.199673673298433,0.08395703288039659,0.7822482085773516,0.8868673509851365,0.0,0.0,0.0,0.0
0.015086318171286863,-0.01618436844303825,0.7458473038451311,0.002342537863078362,-0.5260467925351933,-0.002797084353075547,0.8504478002199294,-0.05205126936226729,-0.8475446440823381,1.00836995111525,0.047477703475625826,-0.8537359866838051,1.0315657343410902,0.010414058566645307,0.5969648319098478,1.2106501376739256,0.0853883761583406,0.7853796629236112,0.883043037341933,0.0,0.0,0.0,0.0
0.015249785540498334,-0.016364488987223123,0.7460952462915136,0.002367261635413717,-0.526072744458791,-0.0028099844407246553,0.8504316360515922,-0.051575387748934366,-0.8469296860135458,1.0087401616170382,0.04795981285495038,-0.8538708430234729,1.0330423102343012,0.008892279449920767,0.5955212402574541,1.2179335349957905,0.08659002721182836,0.7873548083337404,0.8808913777753035,0.0,0.0,0.0,0.0
0.015291364125394174,-0.01646956618538172,0.7461230100798188,0.002341537288898486,-0.5260642764468989,-0.0027739986311140176,0.850437063621477,-0.051388442018768535,-0.8469533712865062,1.0088582541193913,0.04815736530639181,-0.8541257280143285,1.0336545242768949,0.005955710143617272,0.5961428043895406,1.2185370556338542,0.0879188051640333,0.7878400353705501,0.8809073276622869,0.0,0.0,0.0,0.0
0.015211947842864212,-0.016503368636532678,0.7459327541965477,0.0022687332220515436,-0.5260226450138714,-0.0026922773972872243,0.85046327458897,-0.05147453101572822,-0.8475910699679324,1.008706300031428,0.04808593020811462,-0.8545080393056939,1.0334211539873315,0.0016277927772786333,0.5988335037907008,1.2124443619357073,0.08935422941720307,0.7868393809442422,0.8830833940861712,0.0,0.0,0.0,0.0
0.015037473535455986,-0.016444315133051814,0.7455681872503587,0.0021685334962750808,-0.5259821256345693,-0.002576887431914128,0.8504889538533579,-0.0518689390507783,-0.8486155803411984,1.0082926235314749,0.047703226297008974,-0.8547889742507008,1.0322884947858677,-0.0035970156107666823,0.6025322890137267,1.2026140501479434,0.09051683557720502,0.7846944288211641,0.8869019382076618,0.0,0.0,0.0,0.0
0.014844572471489062,-0.016303881716712713,0.7450834307174351,0.0020639696415658713,-0.5259538237825983,-0.0024562991417509637,0.8505070733817024,-0.05248782742050695,-0.8500465386419105,1.008078642593096,0.04710224977399828,-0.8551509843301328,1.0308661443088334,-0.009259412932010495,0.606944569131106,1.1909136010492885,0.09114125272048071,0.7818760626265767,0.8917127663269189,0.0,0.0,0.0,0.0
0.014675262251695926,-0.01610672330216244,0.7445263664659392,0.0019695981755626576,-0.5259393089601229,-0.0023502587530937298,0.8505165725941903,-0.05322751284875097,-0.8518179229518328,1.0082527643606674,0.04639083397538213,-0.8557009685019944,1.0295418627000728,-0.015096044231833047,0.6119626247870205,1.1783868887468396,0.0911723159000536,0.7787228431838464,0.8970200525914007,0.0,0.0,0.0,0.0
0.01452052453354356,-0.01588534188116052,0.743933413556381,0.0018899504098392407,-0.5259307174882669,-0.0022651892136846875,0.8505222968315124,-0.05398777106212496,-0.8537356235341695,1.0086094088622912,0.045665025847448616,-0.856395334287873,1.0283231988935266,-0.020959980306957702,0.6174424998799067,1.165533585797485,0.09075903656831338,0.7753696006000909,0.9025447556629894,0.0,0.0,0.0,0.0
0.01431737879705591,-0.015673054549869978,0.7433311728638421,0.0018204272613906,-0.525915316542658,-0.002192314275498212,0.8505321626067642,-0.05469474099973272,-0.8554439477847141,1.0085144951405551,0.04498427488696418,-0.856977661553464,1.0267605389132526,-0.026757672364543312,0.6231280073267483,1.1525276083236415,0.09020923182443437,0.7717610893746691,0.908193558515074,0.0,0.0,0.0,0.0
0.013963914910390377,-0.015505983780282957,0.7427398667253625,0.0017518849027892821,-0.5258804944375814,-0.002116546712068553,0.8505540292652712,-0.055276009993241046,-0.8564322480231426,1.0069906199152499,0.04439827889400146,-0.8570244313061315,1.0240632205783045,-0.03246560649947246,0.6286855470312787,1.1393971349040286,0.08991661637954851,0.7677071897427119,0.9140067440670689,0.0,0.0,0.0,0.0
0.013392999769165043,-0.015442634963176678,0.7421781842287953,0.0016818839294311684,-0.5258041168282122,-0.0020364737881167576,0.8506015840377104,-0.05557397126832004,-0.8563400702938218,1.0033408996068884,0.04405223766654484,-0.8563949605221953,1.0198817992060714,-0.03801181030186495,0.6339212932249539,1.1261020187767865,0.09030886275292556,0.7630658543117943,0.920032665503185,0.0,0.0,0.0,0.0
0.01252539990628374,-0.015537552607657285,0.7416611906063152,0.001605353677491846,-0.5256694950910077,-0.0019463944554625814,0.850685145232335,-0.055449823300909966,-0.8547362442975703,0.9967346966433903,0.04406906574511641,-0.8548506801057513,1.0137057583721407,-0.043419650087004984,0.6385817438587662,1.1126100898680316,0.09182459623023183,0.757666844286271,0.9263650564609827,0.0,0.0,0.0,0.0
0.01128304390798368,-0.01583523442926454,0.7411960144513782,0.0015127531159371658,-0.525463319174028,-0.0018342953696294747,0.850812933106403,-0.054807476049691356,-0.8512126940464957,0.9863467561584884,0.04453005246806774,-0.8521176657504903,1.0049640945233915,-0.048840569912150855,0.6423710635752796,1.0989225946604202,0.09488522480115529,0.7513304213585604,0.9331357193864752,0.0,0.0,0.0,0.0
0.009614295234431086,-0.01635972089465979,0.7407789660095995,0.0013921252809124937,-0.525181280040535,-0.0016845674136699135,0.8509875717745918,-0.05361900114196312,-0.8454814847027322,0.9715648125314262,0.045454661851176796,-0.8479580183867313,0.9931853497374935,-0.05464534556331349,0.6450657032885782,1.0851761564495814,0.09978064403105222,0.7439325844013871,0.9404742855688422,0.0,0.0,0.0,0.0
0.007535067020948402,-0.017101202329830607,0.7403909622943998,0.0012323370423841476,-0.5248320058949888,-0.0014838502038737815,0.8512036449183173,-0.05195081951236533,-0.8375732001888613,0.9523785845154326,0.04678323708190507,-0.842337353294553,0.9783198038046939,-0.061614565976116614,0.6467756348613515,1.0718141836751687,0.10652343679585738,0.7354970064448995,0.9484601564255708,0.0,0.0,0.0,0.0
0.00518389006569704,-0.01800020625433676,0.7399852636673038,0.0010172007584846965,-0.5244169776482343,-0.0012187363522468393,0.8514601068391942,-0.050013240349928975,-0.8283345248047423,0.9301371277260244,0.04834493479186639,-0.835821945291588,0.9613511256793216,-0.07128963711092834,0.6483563006121452,1.0597576719014126,0.11483648724138079,0.7262590959025791,0.9571128368295884,0.0,0.0,0.0,0.0
0.0029146305092478506,-0.018925319767686518,0.7394841659881414,0.0006948292743934199,-0.5238422672474025,-0.0008422900752141975,0.8518145847570407,-0.04830029144560417,-0.8206690562439513,0.9092847261643312,0.049757053472268734,-0.8305051984237637,0.9456541641171848,-0.08645655622109226,0.6517797356879174,1.0501626531374433,0.12447133030274339,0.7167992136823094,0.9661605111056181,0.0,0.0,0.0,0.0
0.0011115986098432294,-0.01969570693457518,0.7389156983203699,0.00023029936118871628,-0.5230856436152816,-0.0003384082155889524,0.8522800255113752,-0.04733230407590399,-0.8171455132487248,0.8945628885163359,0.05058322879681234,-0.8279831353477137,0.9345094748798455,-0.11078953381358876,0.658166640134755,1.044770119975904,0.13461159250338228,0.7083702996186846,0.97436002751659,0.0,0.0,0.0,0.0
-8.446982220912738e-06,-0.02017783581479597,0.7384757006763649,-0.0002736787628569772,-0.5223192835882982,0.00020766401067000653,0.8527499328451457,-0.04726703722773329,-0.8174888998392419,0.8875173758903637,0.050646300576876184,-0.8278103082930491,0.9288008089501157,-0.14158029126575541,0.6650441998356174,1.0452382341316584,0.1433560854554294,0.7026602858253262,0.9796459195878506,0.0,0.0,0.0,0.0
3.987936225145907e-06,-0.02018057106898178,0.7384581964755815,-0.0002927934949165092,-0.522320120759717,0.0002129877709963376,0.8527494124053874,-0.047274771263063765,-0.8174994837972519,0.8874682182108504,0.05064663657676893,-0.8278124536145763,0.9287846934882258,-0.14155088899040447,0.6650265031507401,1.0452215492511767,0.14331945208022207,0.702639075997723,0.9796341818102072,0.0,0.0,0.0,0.0
3.987936225145907e-06,-0.02018057106898178,0.7384581964755815,-0.0002927934949165092,-0.522320120759717,0.0002129877709963376,0.8527494124053874,-0.047274771263063765,-0.8174994837972519,0.8874682182108504,0.05064663657676893,-0.8278124536145763,0.9287846934882258,-0.14155088899040447,0.6650265031507401,1.0452215492511767,0.14331945208022207,0.702639075997723,0.9796341818102072,0.0,0.0,0.0,0.0
-0.0009013929511830573,-0.020462965168297605,0.7386210400825495,-0.00013865633001421175,-0.5224923343336179,0.00013465238485224594,0.8526439603995118,-0.046323451384762904,-0.8100951573638002,0.8755914944604594,0.05134169938100458,-0.8224707975786018,0.919750162133486,-0.14034040498153832,0.6635699359350511,1.0441152118637864,0.14304600051112137,0.7007658274576983,0.9799590121236973,0.0,0.0,0.0,0.0
-0.002259274768319016,-0.021040607030086856,0.7386269075033395,-0.00016735810579439591,-0.5224402839002117,0.00025851766218994984,0.8526758205309618,-0.04504877908158547,-0.8019414196108909,0.8598627807446573,0.05234033620032079,-0.8167088480640822,0.908194238198014,-0.133529569709508,0.6582208908208681,1.0432528303023507,0.14698481131066818,0.6969452186329539,0.9827600445686914,0.0,0.0,0.0,0.0
-0.0032938276415471293,-0.021682269617393415,0.7385532993583346,-0.00021546101814092836,-0.5222891322971104,0.0003723751021147826,0.8527683608094665,-0.043630437723606114,-0.7961465537606619,0.8477508536071527,0.053589045664559354,-0.8135035952071935,0.900580402342205,-0.12662432532487838,0.6533074558447975,1.0423854846389011,0.15157394128606447,0.693520786344238,0.9859493541927313,0.0,0.0,0.0,0.0
-0.0038459459003609927,-0.022221376925524273,0.7384843161692375,-0.00022231085542436283,-0.5222164916462024,0.000419501697197789,0.852812822633983,-0.04236070142705399,-0.7925411430883463,0.8404077943018734,0.05477509151538969,-0.8122381843665305,0.8971055756833999,-0.12190307671984253,0.6505719896976517,1.0415934796741764,0.15521674520955767,0.6916313951710499,0.9884748186646828,0.0,0.0,0.0,0.0
-0.003876421164577602,-0.022592302346177522,0.7384137180421692,-0.00021006152062263102,-0.5222249902879964,0.0004333955561653839,0.8528076146242782,-0.0414784585795266,-0.7916663847309156,0.8387163822001995,0.05566628574572304,-0.8129709677857968,0.8979885353837085,-0.11930343848808886,0.6499599274831254,1.0411272052747018,0.1579397760509423,0.6914632116920102,0.9902547805182078,0.0,0.0,0.0,0.0
-0.0033557706507954853,-0.022772663810724354,0.7383319878592004,-0.00019161711616496146,-0.5223063729583507,0.0004319645851592834,0.8527577788895099,-0.04107967498482485,-0.7938973647274363,0.8432372986379297,0.05617495618144311,-0.8158612672743966,0.9034995894317285,-0.11871431888413687,0.6514152732853269,1.0410993316465182,0.15985353771701064,0.6930990616677705,0.9913026747792312,0.0,0.0,0.0,0.0
-0.0022559622335721497,-0.02277076682827965,0.7382427629723908,-0.00016129218203317545,-0.5224625039422292,0.0004061041483620103,0.8526621494112828,-0.04112406773178645,-0.799283099552038,0.8541226235240659,0.05634697715022814,-0.8210263438253316,0.9138667586444728,-0.12020884901061125,0.6550910866089957,1.0414242257606594,0.16096155766626524,0.69664495398764,0.9915641008224733,0.0,0.0,0.0,0.0
-0.0005518466342693431,-0.022623738559528574,0.7381673659840849,-9.258792854345542e-05,-0.5227107042163984,0.00031655189506848204,0.8525100649962849,-0.04143166585055478,-0.8074871649709591,0.871061542518652,0.056363464730909245,-0.8284866943725125,0.929216999662798,-0.12409385252223329,0.6613933545054126,1.0417985221966277,0.16111552640373988,0.7022527056312698,0.990879089154611,0.0,0.0,0.0,0.0
0.001773573522731318,-0.022403163700252863,0.7381490521184709,7.443910982456459e-05,-0.5231028270120345,7.68197072264162e-05,0.8522695705758647,-0.04162501153809002,-0.8176002739391603,0.893104519887279,0.0565922412256485,-0.8380635420305309,0.9494622465291195,-0.13113209005181578,0.6711130130635258,1.041702379939582,0.15985683731637776,0.7101220494442977,0.9889872459823454,0.0,0.0,0.0,0.0
0.004712945370798148,-0.022225596191893085,0.7382344307600376,0.0004610989918752149,-0.5237563276983898,-0.0005217565247488262,0.8518678444182205,-0.040907867217847324,-0.8278212728001809,0.918325983400755,0.05779969283321274,-0.8493369886307358,0.9741456863740034,-0.14338225725119655,0.6856655635082815,1.0406629500261966,0.15572890523129818,0.7202166984453711,0.9857434824296525,0.0,0.0,0.0,0.0
0.00757577626576794,-0.022055667205689803,0.7380033978528503,0.0005565976559491098,-0.5235199226935079,-0.000582122717482793,0.8520130526436638,-0.04154397989210432,-0.8446132763033946,0.9482821775775273,0.046629887450736644,-0.8416131075565787,0.9429927090409684,-0.14909435113340735,0.694210424021633,1.0399024367748633,0.15596670479271152,0.7275998551771905,0.9837738056425135,0.0,0.0,0.0,0.0
0.010293866911044282,-0.02215183591940192,0.7376298181327399,0.0007189385212144481,-0.5233454640873526,-0.0007884015530698896,0.8521199368455049,-0.04113816540539676,-0.8594057743094057,0.9746131455490457,0.0366557590555637,-0.8420297618692422,0.9215452104944242,-0.15439672087888984,0.7022158589895758,1.0398756291231532,0.1568358731192738,0.7338696988716432,0.9839548549769447,0.0,0.0,0.0,0.0
0.012595271770913909,-0.022486357818173767,0.7372886563609049,0.0009223262056700106,-0.5233064402935748,-0.0010716797008528808,0.8521433977707369,-0.03986536709869566,-0.8702827127294432,0.9947327891548868,0.02874863053870962,-0.8470737706297454,0.9078886697771252,-0.15855000897523958,0.7095658758690212,1.0394869399706548,0.15859315720125444,0.7393623544436557,0.9850871778258615,0.0,0.0,0.0,0.0
0.014354455036068565,-0.02299857388071529,0.7369951907432876,0.0011040243397044574,-0.5233116470804552,-0.0013304958576888383,0.8521396193940117,-0.03810677801444386,-0.8777101931452446,1.008781406675472,0.022456354111840916,-0.8544483246690108,0.8986474191365705,-0.16030566801554505,0.7151586586715647,1.0387187110647689,0.16173244947775128,0.7437195759884432,0.986952953560194,0.0,0.0,0.0,0.0
0.015584440081476521,-0.023624096920710665,0.7367647990800716,0.0012452002287884588,-0.5233184612172881,-0.0015315747988792847,0.8521349024093517,-0.036117586782933024,-0.882297682739745,1.0176167213556004,0.017252138511377246,-0.8629221971140852,0.8917064847146404,-0.15952138262392987,0.7187881190754019,1.037576684463531,0.1660893151216325,0.7469453047328023,0.989215922663807,0.0,0.0,0.0,0.0
0.01637074597704067,-0.024286264648988615,0.736595678555505,0.0013474004576233324,-0.5233210508917356,-0.0016738722244276298,0.8521328889072128,-0.03411848434745262,-0.8847087620280143,1.0224066308593787,0.012647513324505175,-0.8718732020259804,0.8858629962061049,-0.15688784022270238,0.7207621917249292,1.0362389028393624,0.1710850523056425,0.7491965734233149,0.9915940656299516,0.0,0.0,0.0,0.0
0.01682432789912638,-0.024912570279461324,0.736471940464395,0.0014187114273203486,-0.5233293311331719,-0.0017687550629134304,0.852127496293319,-0.03229059640881318,-0.8855961974546314,1.0243582834460525,0.008258445359568125,-0.8810014044708309,0.8804664105539612,-0.15340388468264676,0.7215750866408338,1.0349768160727617,0.17605061313127207,0.7506693134135464,0.9939108186071746,0.0,0.0,0.0,0.0
0.017055874086550956,-0.025462420208160086,0.7363892722807296,0.0014687869588338052,-0.5233526095864369,-0.0018343897950363246,0.8521129759122413,-0.03071044198037244,-0.8854799253534537,1.0245175789638201,0.0038608149454544645,-0.8901624804545691,0.8751979474505467,-0.14987514951557734,0.7217727689433333,1.033853682024545,0.18050932540902334,0.7516303680227129,0.9959562085168603,0.0,0.0,0.0,0.0
0.0171552035028847,-0.025917878691037753,0.7363384611993512,0.0015043517212993984,-0.5233929388117117,-0.0018838700260238313,0.8520880351006364,-0.029403006532802794,-0.8847985106949908,1.0237142736102767,-0.0006673105448129083,-0.8993053961789412,0.8698916222488217,-0.14677876891437516,0.7217284916833372,1.0329116081519965,0.18422880382445525,0.7522817989314226,0.9976452032511961,0.0,0.0,0.0,0.0
0.017187316362117632,-0.026279954604052733,0.736309137931253,0.0015290993798259297,-0.5234459161167908,-0.0019242843993266135,0.8520553572892379,-0.028354485722464986,-0.8838901893354315,1.0225425922570361,-0.005371376516721521,-0.9084248695716624,0.8644570794579559,-0.14428130815449505,0.7216451758584006,1.0321588004759294,0.1871940900570734,0.7527627345860796,0.9989819120370568,0.0,0.0,0.0,0.0
0.01719438342609571,-0.026562235805017764,0.7362877784464507,0.0015426892376636926,-0.523499842873224,-0.001955618036906298,0.8520221300997525,-0.0275327719031509,-0.8830307197500635,1.0214104611508936,-0.010262789400812253,-0.917539939154544,0.8588247449660673,-0.14229400963148933,0.7215567755842556,1.031602102523365,0.18956429012017148,0.7531385667234533,1.0000563129039974,0.0,0.0,0.0,0.0
0.017219548293953082,-0.02678488753581804,0.7362738493301058,0.0015548365296683211,-0.5235560569095271,-0.0019913752492980176,0.8519874835825527,-0.02685620566087142,-0.8823395841567692,1.0206091016984087,-0.015287604738140413,-0.9266596207981052,0.8529932449013331,-0.1408819242021277,0.7216537527224396,1.03114648843317,0.19139000562360983,0.7535345467117889,1.000869003633835,0.0,0.0,0.0,0.0
0.01729079389839684,-0.026970553883643406,0.7362642251835604,0.0015730486399659963,-0.5236125823524376,-0.0020412255122198913,0.8519525940559113,-0.026245087893030112,-0.8818969426875478,1.0203138986278675,-0.020376261840085626,-0.9357239374995882,0.8469800877525179,-0.1400139283555178,0.7220307645950466,1.0307214615785179,0.1927708969705045,0.7540173275134501,1.0014673767943911,0.0,0.0,0.0,0.0
0.017419263766359095,-0.02714212244004831,0.7362543452472171,0.0016021329298957566,-0.5236645571447999,-0.002110055226644517,0.851920426112296,-0.025629734164048214,-0.8817355107643982,1.0205724370003735,-0.025434965347221644,-0.9445034043985633,0.8408733040310933,-0.1395725121284967,0.7226873153537057,1.030279389004867,0.19384229765939578,0.7545955013475311,1.001931787510282,0.0,0.0,0.0,0.0
0.017599570264535135,-0.027320120907205363,0.7362400379106385,0.0016433904867822762,-0.5237042820613015,-0.0021970960562763936,0.8518957078112814,-0.02495911406576529,-0.8818431862896848,1.0213137852611813,-0.03035710792580951,-0.9524766439224832,0.8349219942117067,-0.13936261383239762,0.7235358848431606,1.0297861531284054,0.19476360380261407,0.7552293011980926,1.0023516957255854,0.0,0.0,0.0,0.0
0.017809127077945363,-0.027517978738501394,0.7362176087726358,0.0016922152200399454,-0.5237208773741503,-0.002293135418312814,0.8518851568961937,-0.024219326320472082,-0.8821789639302592,1.0223650071933954,-0.03507120222237978,-0.9587274112152787,0.8296553524990078,-0.1391069511773176,0.7243904000801425,1.0292330458426329,0.19571742873371092,0.7558340406243076,1.0028142188061295,0.0,0.0,0.0,0.0
0.018013226538370286,-0.027735178390319054,0.7361856713830558,0.001740302919101929,-0.5237086936519061,-0.0023850644308736958,0.8518922977740933,-0.023440329853017645,-0.882648344512841,1.0234675094553995,-0.03958591668807808,-0.9619830432390646,0.8259817958229319,-0.13858194263776383,0.7250469461155701,1.028654999362252,0.1968169204442974,0.7563108405860187,1.0033741892601207,0.0,0.0,0.0,0.0
0.018182514053455313,-0.027956544140569986,0.7361494985824185,0.0017872432005146615,-0.5236857855090673,-0.002473684624896191,0.851906030441075,-0.022656539340549602,-0.8830263112430725,1.0243066602559034,-0.043930850529981816,-0.9610491524550634,0.8250455843300029,-0.13792354951743274,0.7255073788418636,1.028121512395178,0.1979162368414906,0.7566206680315826,1.004010702170176,0.0,0.0,0.0,0.0
0.018315927983665936,-0.028180864535597393,0.7361087275736722,0.0018330194717612858,-0.5236532784960041,-0.002558796062616411,0.8519256637305349,-0.021871745200873878,-0.8833062936571543,1.0248729583036233,-0.048086432225391114,-0.9559390032519899,0.8268276455315058,-0.13714230050618445,0.7257709886785939,1.0276433724669791,0.1990063185123313,0.7567605281427084,1.0047276431961774,0.0,0.0,0.0,0.0
0.018441139281344943,-0.028423452978574286,0.7360567970712061,0.0018774497479825305,-0.5235932134481099,-0.0026371991750443807,0.8519622451693719,-0.02105705333271436,-0.8837126389295568,1.025468962030171,-0.051995809180674764,-0.9478799526622708,0.8301732589693848,-0.1360742027966977,0.7258156176861372,1.027162846467989,0.20025973376616318,0.7567665823213248,1.005562226995735,0.0,0.0,0.0,0.0
0.01859184418060754,-0.028688440082896366,0.7359929637100034,0.0019296468397456078,-0.5235125552624702,-0.0027215556976980773,0.852011428374184,-0.020173890055200205,-0.8843236017335793,1.0263239003119893,-0.05562921375009052,-0.938166175531095,0.8341760618331934,-0.1349162503560435,0.7258335176698502,1.0266550509683396,0.20160005528296654,0.756735744754828,1.006492134878462,0.0,0.0,0.0,0.0
0.018789909962481442,-0.02896980940560083,0.7359184128637406,0.001997858838847262,-0.5234270768848261,-0.002825770548349218,0.8520634476168276,-0.019205077577818624,-0.8851263513422492,1.0275451288546027,-0.05903004452446232,-0.9277182740031227,0.8383089245823563,-0.13395969517025977,0.7260282578947879,1.0261404556131526,0.20285686987510987,0.7567477869642472,1.0074792024037302,0.0,0.0,0.0,0.0
0.019039028815687992,-0.029261228016937233,0.7358347947216335,0.0020862143343538973,-0.5233496960176462,-0.0029584273340812726,0.8521103162711371,-0.018145408425588906,-0.8860525742855657,1.0291022973505073,-0.06226122567663509,-0.9170528172717567,0.842321281863872,-0.1333925401648604,0.726506869243074,1.0256492779369282,0.20390108947432964,0.7568306174574297,1.008502489957453,0.0,0.0,0.0,0.0
0.01932466383004946,-0.029564672094040807,0.7357446524851414,0.0021963715370721614,-0.5232875402077272,-0.003123883019770412,0.8521476207619758,-0.016977323935686503,-0.8869721753182174,1.0308115998588117,-0.0653422318209662,-0.9063909568343008,0.8461147959276581,-0.13324358959497562,0.7272686753180309,1.025186797036836,0.20469130320889317,0.7569550808315717,1.0095723115557944,0.0,0.0,0.0,0.0
0.019615256569905388,-0.02989618117157226,0.7356514890599618,0.002328303574511209,-0.523239977292039,-0.0033225073908183366,0.8521757249009909,-0.01565588213016778,-0.8876968771954267,1.0323380023478406,-0.06822381695255879,-0.8957828395125953,0.8496500975324366,-0.13333853185822703,0.7281985950040398,1.0247102879640728,0.20531498223171268,0.7570374613732372,1.0107404390472212,0.0,0.0,0.0,0.0
0.01986356616219941,-0.030288153228909168,0.7355574542158196,0.0024764556564390084,-0.5231914015646194,-0.0035439457886757204,0.8522042389852785,-0.014119184380894101,-0.8880452005642637,1.033250910582505,-0.0708233194866618,-0.8852085172086542,0.8528840712689222,-0.13317610156770923,0.7290040981278828,1.024122494534891,0.20608987054813976,0.7569392014607005,1.0121180352970205,0.0,0.0,0.0,0.0
0.020015953348368778,-0.030783901455951595,0.7354608450275779,0.0026248148625173328,-0.5231048384104113,-0.003759514395423545,0.8522560087380233,-0.012321038169123753,-0.8879580404820884,1.0331713997157355,-0.0731260484659712,-0.874647665731403,0.8557460975982325,-0.1318656874278839,0.7291864715601388,1.0232810286330347,0.20762709977694147,0.7564934201968154,1.0138649273608393,0.0,0.0,0.0,0.0
0.02003970471382724,-0.0314160558602552,0.7353608382634791,0.0027574794249249847,-0.5229461516400097,-0.003943278059892322,0.8523521392888431,-0.010236805864919075,-0.8874702585258816,1.03191943573593,-0.07526922312170267,-0.8640853932762722,0.8581967830879952,-0.12867277868978272,0.7283597161770173,1.0220478175612895,0.21045309022293598,0.7556022282044323,1.0160766117584994,0.0,0.0,0.0,0.0
0.01993453375102009,-0.032172158883137146,0.7352465186784692,0.002871513214712453,-0.5227196567909551,-0.0041025537180281665,0.8524899318286372,-0.007877728806485088,-0.8866065843227903,1.029515790231149,-0.07761321438978655,-0.8534530277988983,0.8602786827254781,-0.12380805160109944,0.7265402486150473,1.0205665579573038,0.21441479855880138,0.7541963122919672,1.0188136079144154,0.0,0.0,0.0,0.0
0.019746329387351203,-0.03296968570048386,0.7351002133345512,0.0030063507686261294,-0.5225234234154204,-0.004334867367401274,0.8526086105372103,-0.005218424688821785,-0.8850507961979831,1.0260146539872737,-0.08062945667227625,-0.8425507363653426,0.8621762897010822,-0.1194385255456345,0.7246469285242805,1.0194480036473728,0.21786055691835915,0.7522455804378089,1.022047432599118,0.0,0.0,0.0,0.0
0.019550503763850428,-0.033671591656107905,0.7349099060732321,0.0032565842877396397,-0.5225602461195544,-0.004845685201084929,0.8525823732456469,-0.002116472597296306,-0.8818903466851393,1.0212025018928481,-0.08460319960066998,-0.831058222382145,0.8641522818273821,-0.11961661421920505,0.7245299890961302,1.0196877196062324,0.2175634228083826,0.7497524858374813,1.0256375021659,0.0,0.0,0.0,0.0
0.01939450180098393,-0.03417268461209025,0.7346783452929858,0.0036889936558319285,-0.5229803240429853,-0.005772398935311635,0.8523172246295583,0.0014782302048768924,-0.8764007452027753,1.0148476319314597,-0.08951853694075497,-0.8188978862793391,0.8662205917997146,-0.1271530678668477,0.7275094906250362,1.0219426601580477,0.2112733228521838,0.7467897820097465,1.0293988582515745,0.0,0.0,0.0,0.0
0.01926887002647169,-0.03444311210266612,0.7344062270718656,0.004274247255055027,-0.5237712271845792,-0.007025769124396329,0.8518192712965428,0.005244094926515888,-0.8688290478990852,1.007109245385284,-0.0945808444984646,-0.8067107905848723,0.8676794476345512,-0.1416702532032025,0.7333416817841806,1.0261926458094868,0.19966607809248516,0.7435276621396962,1.0332820321066587,0.0,0.0,0.0,0.0
0.01916957307360386,-0.03445771243526143,0.7341103032883884,0.00487703881432595,-0.524708162620068,-0.008229811025705558,0.8512284233874929,0.008160773907927384,-0.8611923564715268,0.9996733906155892,-0.09760100823270455,-0.7960936095372986,0.8661651157933294,-0.15937490185148123,0.7401531405428543,1.0315939255473074,0.18629344041211215,0.7404879550059341,1.0368925744928954,0.0,0.0,0.0,0.0
0.019154315134486597,-0.034466438943286964,0.734108713857952,0.004852152880522728,-0.5246867315425632,-0.008219674663075466,0.8512418735612337,0.008153802676768645,-0.8612531318587389,0.9996071645141551,-0.0976010503540001,-0.7960752055479234,0.8661848302199511,-0.15955273185254717,0.7401338786316888,1.0315107277592412,0.18646868931047936,0.7403737011294872,1.0368789802056828,0.0,0.0,0.0,0.0
0.019154315134486597,-0.034466438943286964,0.734108713857952,0.004852152880522728,-0.5246867315425632,-0.008219674663075466,0.8512418735612337,0.008153802676768645,-0.8612531318587389,0.9996071645141551,-0.0976010503540001,-0.7960752055479234,0.8661848302199511,-0.15955273185254717,0.7401338786316888,1.0315107277592412,0.18646868931047936,0.7403737011294872,1.0368789802056828,0.0,0.0,0.0,0.0
0.019439093632178973,-0.03694099097886782,0.7356154596054165,0.001405747280817735,-0.5205652359386238,-0.0013028765564100098,0.8538197476747806,-0.0019562533779303812,-0.8911442826352498,1.0242242807654092,-0.10860241732500944,-0.8052643888983791,0.8868248330949757,-0.03379810833997249,0.6994736969763463,0.9971549287611262,0.17637383297272638,0.7097115697479209,1.0356746334186577,0.0,0.0,0.0,0.0
0.02062543295155989,-0.038089356384124945,0.7372396095075,0.0008373139549722737,-0.521800601710405,-0.0007116620442398982,0.853066776106733,-0.00043369527322093676,-0.8834771127892834,1.0235141300826636,-0.10674723134985611,-0.7999330402154393,0.8924793793647973,-0.031468121228359014,0.7149924843519906,0.975917627353526,0.1331116889837303,0.6960351965733045,1.045630373005159,0.0,0.0,0.0,0.0
0.022198095234196344,-0.03896688258407276,0.738272705506363,0.0009437645964124474,-0.5231353730087173,-0.0012766644213138261,0.8522481217012873,0.0032459573570164076,-0.8767968279194831,1.0254733524621225,-0.10304423727666255,-0.8003884226421585,0.9035570135621256,-0.03758382591057654,0.7321187643614389,0.9626952163055313,0.09806558253311826,0.6877964421330014,1.0574869000596947,0.0,0.0,0.0,0.0
0.023674152802293152,-0.0396517424695755,0.7386881844285745,0.0010033749867266735,-0.5239781306368387,-0.0016299063918294662,0.8517295669742326,0.0059030000270957825,-0.8751811958825911,1.0307426027414857,-0.10053081224298788,-0.8039912924317391,0.9158721788960192,-0.03988780061385495,0.7431983729309576,0.9553444244973907,0.07600622006728885,0.6823794269037297,1.0696674840690832,0.0,0.0,0.0,0.0
0.02492958084011835,-0.040081762406643046,0.7387937621222594,0.000996472128567041,-0.5245327884421926,-0.0017599756075554812,0.8513878454489562,0.00736027088871586,-0.8761557295572197,1.037093739360526,-0.09925045255596511,-0.8078267396872456,0.9264164593329177,-0.04002856905421182,0.7501623568775474,0.951656510978507,0.061584224621335434,0.6780053278638792,1.0822460305532127,0.0,0.0,0.0,0.0
0.025952417975074638,-0.04040472927792953,0.7389206621979605,0.0008657299728669739,-0.5248446861343794,-0.0016176286013468984,0.8511960345454077,0.00789482628572785,-0.8781969965902218,1.0433783463228739,-0.0988763853296095,-0.8108155796690277,0.9349557864046086,-0.03671615691521801,0.7545015983903542,0.9479281568220296,0.05133580915570238,0.6733572408386032,1.0952565347693566,0.0,0.0,0.0,0.0
0.026774631587104854,-0.04066587302840548,0.7391635878229149,0.0007001937504806455,-0.5250504502070716,-0.0014068498257067605,0.8510696535769743,0.008111231598001064,-0.8798483630560786,1.048603002228584,-0.09877990018827183,-0.812718360607182,0.941586559486251,-0.03237344316702776,0.7580214794608828,0.9434351795017434,0.04255068257259788,0.6684330269135353,1.108448375332824,0.0,0.0,0.0,0.0
0.027429102920192575,-0.04088360417329935,0.7395165008428238,0.0005543586800696102,-0.5252263911124391,-0.0012370683791117544,0.8509614564874735,0.00831445280385095,-0.8805694187468145,1.05245316118651,-0.09865181704129662,-0.8136393105389531,0.9465586908127295,-0.028498182292541814,0.7615366472486841,0.9383200470118485,0.03411522155396371,0.6634223053218393,1.1216862402441692,0.0,0.0,0.0,0.0
0.027941249455701277,-0.04109114257886706,0.7399520971717747,0.0004187857514226708,-0.5253708945438796,-0.0010889125195048142,0.8508725298504959,0.008543557652360213,-0.8805433247583815,1.0551194612971844,-0.09846286193778997,-0.8138406207389224,0.950275030598014,-0.024757631817288676,0.7649455014242857,0.9326320080589097,0.025860982512385115,0.6583118256651315,1.1349032025804604,0.0,0.0,0.0,0.0
0.02832911564616889,-0.04133038000817171,0.7404443049490285,0.0002478822227062716,-0.5254420213828186,-0.0008743405147144332,0.8508289230204892,0.008699294904378308,-0.8802761850824479,1.0570041295434343,-0.09832632991380925,-0.8136015621286836,0.9531596338442094,-0.01981354853430881,0.7676996647277252,0.9262531456126645,0.01809197382170656,0.6529467776622581,1.1480693284146342,0.0,0.0,0.0,0.0
0.028617352182169663,-0.0416104587311839,0.7409601843762693,1.0275151537479509e-05,-0.5254145609979595,-0.0005331522779359947,0.8508461992242731,0.008664033482239276,-0.8802404822399718,1.0585560626328419,-0.09837135960067336,-0.8131413442053521,0.9555261870664647,-0.01293459145886082,0.7694265209071762,0.9193000883248781,0.011194552198444235,0.6473047342005183,1.161194740273581,0.0,0.0,0.0,0.0
0.028910586873207463,-0.04182549772176959,0.7414710724626506,-0.00017644484509180122,-0.5254234305721062,-0.0002858514685712156,0.8508408228111729,0.008681046972271081,-0.8799664947463594,1.0600407153673501,-0.09835783340344166,-0.812592341163468,0.9576658243725887,-0.007810443617941581,0.7717294557359982,0.9127422948380696,0.003794064423707266,0.6418990452882347,1.1743002199786892,0.0,0.0,0.0,0.0
0.029223356193862102,-0.04195341816781608,0.7419450438865195,-0.0002632945055258881,-0.5255295217169454,-0.0002209653605750429,0.850775295629975,0.008899043229937835,-0.8791258905471412,1.0612510174721161,-0.09813593981193493,-0.8119711721542828,0.9595363463428876,-0.005645683631614181,0.7750161512262864,0.9071770804461832,-0.004304282623621117,0.6369060521492977,1.1873254404643034,0.0,0.0,0.0,0.0
0.029566204369012215,-0.04202004246688279,0.7423666927170716,-0.0002477106376544571,-0.5257248323821182,-0.00033922737279740937,0.8506545857050459,0.009384786590927363,-0.8777971674915442,1.0622454629303468,-0.09764851293589691,-0.8114991155028106,0.9614194069722497,-0.006213120193714283,0.7791822318087269,0.9026531475552323,-0.013288735857188767,0.632364506845515,1.1999427098142297,0.0,0.0,0.0,0.0
0.029824649468951955,-0.04220243720907043,0.7427253703220061,-0.000266833106946498,-0.5258600450151781,-0.0003804522490959261,0.8505709829948432,0.009988130093596063,-0.8765496750538002,1.0626247434727505,-0.09704973863217944,-0.8112981126924504,0.9633010499267984,-0.00493716378420205,0.7821959546641213,0.8982509516065487,-0.02153723148125678,0.6277413759794784,1.211538361159502,0.0,0.0,0.0,0.0
0.02996271763006199,-0.04258955323282409,0.7429999978613308,-0.0004161198201833634,-0.5258201531690659,-0.00015702452372166482,0.850595655237466,0.010501439085412166,-0.876165347761184,1.0626863930777466,-0.09656177207423225,-0.8116513821453705,0.9654847929236103,0.0011806059422987125,0.7826878081912979,0.8934911579684617,-0.027986316607329826,0.6229388890174178,1.2210490385713186,0.0,0.0,0.0,0.0
0.029977143472707024,-0.04311050417352707,0.7431379499594111,-0.0005998393360311438,-0.5257044790296367,0.00015274439474176563,0.8506670427318194,0.011156899003158471,-0.8760028854470312,1.061938621921731,-0.09594123750930272,-0.8124616562316855,0.9675800009011373,0.009268966563778961,0.7814632655950229,0.8895421022205257,-0.03319986170808357,0.6187939547582547,1.2266414238457874,0.0,0.0,0.0,0.0
0.02987723977419703,-0.04363835298081746,0.7430718186134342,-0.0006995092843928047,-0.5256437666558011,0.0003240448139261338,0.8507044353108906,0.012147142117852823,-0.8753655071973588,1.0599743192759004,-0.09498058513693988,-0.8135326679992346,0.9690218951796562,0.015541288270224274,0.7795668667548701,0.8880459863734959,-0.03773239783604385,0.6169308244930282,1.2254904436788865,0.0,0.0,0.0,0.0
0.029734485791363518,-0.04408521909803601,0.7427847228302858,-0.0006822215546760798,-0.5256739368240784,0.0002947090912485986,0.850685817363953,0.013387846227598473,-0.8744640238506228,1.0574383301247694,-0.09377232549330021,-0.8149688622406169,0.9700374982633903,0.01868832549308822,0.7775037925214545,0.889552686569879,-0.04215813023767206,0.61759605825841,1.2176928144718333,0.0,0.0,0.0,0.0
0.02954482183617252,-0.044515208639898676,0.7423163153224759,-0.0006324946998315122,-0.5257157535908372,0.00022113927535831918,0.8506600363684036,0.014681958359139718,-0.87380296037249,1.0546645398312342,-0.0925192227337745,-0.8168028817771732,0.9708763456388606,0.021143187882446297,0.7745712183470532,0.8930959736666639,-0.04602142242161202,0.6193546086269779,1.206187248809106,0.0,0.0,0.0,0.0
0.02930438631816705,-0.04497432011848621,0.7417161567878242,-0.000579877771697175,-0.5257412413188101,0.00015752478331986032,0.850644335844464,0.016023967491373903,-0.8733764430124296,1.0516131432242461,-0.09122590292872439,-0.8189847010462844,0.9716498747100845,0.02389895515503913,0.770706375514847,0.897868836052609,-0.04935444247565165,0.6215298330307891,1.1928075943897865,0.0,0.0,0.0,0.0
0.029008795515547754,-0.04546392485834345,0.741015628085489,-0.00048409990669935767,-0.5257901281907913,2.6987200496732363e-05,0.8506141934014989,0.017597816447008918,-0.8726554087318881,1.0478624753150931,-0.08969914039073866,-0.821381201680983,0.9722274127923369,0.02607176068310833,0.7664744717315631,0.9036999549013952,-0.05278186579434082,0.6239509634180973,1.1785712090868392,0.0,0.0,0.0,0.0
0.02861134043853135,-0.04603089818771477,0.7402347790278739,-0.00036609102511863333,-0.5258338898948524,-0.00012967880350893806,0.8505871909444778,0.019428527851385234,-0.8715070776591789,1.043015702077872,-0.08790597317218667,-0.8238871041266349,0.972417522674584,0.02848811828666406,0.761570059369113,0.9101683580546085,-0.05598560690311579,0.6264513539719211,1.1639993402809283,0.0,0.0,0.0,0.0
0.028076650188718286,-0.046707028516671516,0.7393915882339601,-0.00022567581393444366,-0.5258629704870253,-0.0003107159312942555,0.8505692145831513,0.021592014879386768,-0.8696857406008859,1.0366578322987297,-0.08576208373431284,-0.8264129033359796,0.9720500160750477,0.031391443081120615,0.7559268957220385,0.9169967516957557,-0.05899332755488083,0.6289511533313717,1.1493377096193105,0.0,0.0,0.0,0.0
0.027353015053979076,-0.04753714224354393,0.7385038600007346,-6.998970963340171e-05,-0.5258595142881471,-0.0005012975620054113,0.8505712874502812,0.024165633288109133,-0.8669126117326847,1.028236121996577,-0.08317869050090214,-0.8288368678333566,0.9708738487581907,0.0352636285699348,0.7493427409143829,0.9238582185928276,-0.06171989460014407,0.6313441252726193,1.1346547129089704,0.0,0.0,0.0,0.0
0.026378341825071847,-0.04857852191657404,0.7375935855980734,7.149204825831034e-05,-0.5257837461863578,-0.0006466575260986176,0.8506180276535236,0.02716295270655458,-0.863023362031468,1.0172115090635343,-0.08013049658992513,-0.8310163119327434,0.9686104520883067,0.04110194805019013,0.7413875873636632,0.9302654998293919,-0.0638979313748341,0.6334684687596702,1.119903599450548,0.0,0.0,0.0,0.0
0.025092158525863918,-0.049871973842682375,0.73668313402467,0.00016308778335340004,-0.5255961970987783,-0.0006860041858383792,0.850733883418272,0.03053828934072102,-0.8578942996469225,1.0030935067154825,-0.07665026560619848,-0.832740293103245,0.9648926595926615,0.04976111225560256,0.7316548401131131,0.9357678876329633,-0.06531472188429086,0.6351582603588772,1.1049630298684336,0.0,0.0,0.0,0.0
0.023449629362571042,-0.05140475047857522,0.7357837095589517,0.0001808554555176711,-0.5252827628308189,-0.0005902612772210154,0.8509275162760637,0.03418078361289932,-0.8513983202442531,0.9855151625508624,-0.07283439662753825,-0.8336866198821776,0.9591903563600461,0.061220774310812895,0.7200081361468305,0.9402535853657251,-0.06605103916151442,0.6363151996037869,1.0896694574762338,0.0,0.0,0.0,0.0
0.02143607767013809,-0.05308289330975864,0.7348833587496484,0.00012392356724544534,-0.5248704145096288,-0.00038504753254696016,0.8511820512404132,0.03790073718565847,-0.8434340071130844,0.9643623770643179,-0.06885921789657809,-0.8334201188540343,0.950801164420753,0.07423806252273833,0.7066910623703385,0.9442002740931537,-0.06670095426721545,0.6369480200079446,1.0738535622928904,0.0,0.0,0.0,0.0
0.01908642656874087,-0.054729932392112386,0.7339383682588987,-3.4846597509849416e-07,-0.5244063454959484,-0.00011223020083628605,0.8514681275349327,0.04134113463038465,-0.8342639774953324,0.9401645455121318,-0.06508257431343613,-0.8315280103121198,0.9390719122145069,0.08698693156591163,0.6920632928593905,0.9486827547529328,-0.06836384831130292,0.6371839591104133,1.0573886743357097,0.0,0.0,0.0,0.0
0.0165325777332957,-0.056125977198956685,0.7328674272272281,-0.00017250960390189905,-0.5239325344184663,0.00016823126915261827,0.8517597321525122,0.044097711381726974,-0.8248470106670672,0.9146090586811318,-0.061946132300645065,-0.8281285799779731,0.9241659239791487,0.09753110083562389,0.6765469393560138,0.9552142416893304,-0.07321514668312033,0.6372740269199617,1.0400634428305682,0.0,0.0,0.0,0.0
0.013918440099409221,-0.05716672526863181,0.7315961279504353,-0.00033706300895966886,-0.523532785878497,0.00033358963537752145,0.8520053974105932,0.04622444474262995,-0.8155686437103472,0.8888376729103079,-0.059429816830151756,-0.823621759345581,0.906759230525284,0.10451446261383004,0.6607590801439963,0.9649972991909939,-0.08399619492809379,0.6371767806490425,1.021551466119,0.0,0.0,0.0,0.0
0.011825050285089657,-0.0578733728651842,0.730017764447251,-0.00043870102510653176,-0.5231565074001068,0.00038404917454514605,0.8522364277667108,0.047826088319782974,-0.8098948524280506,0.8688674910265753,-0.057600091175290996,-0.8216238433311909,0.892979198330918,0.10848859979348181,0.6456698427606453,0.9781571334585194,-0.10299470671986156,0.6378796987079559,1.0017936347179672,0.0,0.0,0.0,0.0
0.01054636174130472,-0.05815293973703483,0.7285361017169506,-0.0004788501563968664,-0.5229022309345079,0.0003659578987334987,0.852392452841447,0.04856167337733151,-0.808160080024605,0.857551605941208,-0.05679539247909239,-0.8216412819485903,0.8844788932385604,0.10957164979991867,0.6341651771583737,0.9912114579165408,-0.12798058639214305,0.6386460545966489,0.9820876447875371,0.0,0.0,0.0,0.0
0.010563696441826913,-0.058151395353316634,0.7285052099835856,-0.000497026646545155,-0.522891131474045,0.0003684713792850705,0.8523992502455339,0.04855945514199598,-0.8081928466373719,0.8574517292401442,-0.0568067382458706,-0.8216833188510912,0.8844486293090105,0.10956769270690542,0.6341440921892028,0.9911849612220107,-0.12799280616729483,0.6386548367513417,0.982086735529301,0.0,0.0,0.0,0.0
0.010563696441826913,-0.058151395353316634,0.7285052099835856,-0.0004970266465451552,-0.5228911314740452,0.0003684713792850708,0.8523992502455339,0.04855945514199598,-0.8081928466373719,0.8574517292401442,-0.0568067382458706,-0.8216833188510912,0.8844486293090105,0.10956769270690542,0.6341440921892028,0.9911849612220107,-0.12799280616729483,0.6386548367513417,0.982086735529301,0.0,0.0,0.0,0.0
0.010563696441826913,-0.058151395353316634,0.7285052099835856,-0.000497026646545155,-0.522891131474045,0.0003684713792850705,0.8523992502455339,0.04855945514199598,-0.8081928466373719,0.8574517292401442,-0.0568067382458706,-0.8216833188510912,0.8844486293090105,0.10956769270690542,0.6341440921892028,0.9911849612220107,-0.12799280616729483,0.6386548367513417,0.982086735529301,0.0,0.0,0.0,0.0
0.010369358609946921,-0.058227959319162734,0.7284688904608656,-0.0005093842677107318,-0.5229453365251476,0.00038080439573399147,0.852365983907312,0.04869856317596883,-0.8066379048539037,0.8546702744075707,-0.056610956171224136,-0.8205524113452871,0.8824139181012459,0.11009586212255336,0.6335319814854137,0.9913747846786044,-0.12729891341125485,0.6381189355196224,0.9830584971216307,0.0,0.0,0.0,0.0
0.010052591343013959,-0.05837314082727744,0.7284540502993611,-0.000625651738984109,-0.5229163283131696,0.0004937559535750155,0.8523836450498292,0.04879911266647952,-0.8050767591730291,0.8511839279355445,-0.05644224881722488,-0.8190903883552579,0.8796626272101213,0.11213119563153309,0.632030321899425,0.9909905671135801,-0.12475907174323679,0.6375948856550191,0.9842393275238607,0.0,0.0,0.0,0.0
0.009708959513244103,-0.058546371947632965,0.7284543734875308,-0.0008148527435218306,-0.5228670936031395,0.0006723905289302298,0.8524135653149759,0.04883696355673633,-0.8036263274604358,0.8476373299382078,-0.05633288590317993,-0.8174176154066322,0.8766785975735808,0.11511522453361193,0.630193098405977,0.9902769603702941,-0.12117447818532251,0.6373086737887769,0.9854817085425291,0.0,0.0,0.0,0.0
0.009635533518656168,-0.05867111917566663,0.7284216167260451,-0.0009801002728364674,-0.5228504224623082,0.0008308236307288721,0.8524234774257075,0.04881996995258407,-0.8036098957756025,0.8469049267578549,-0.05633891378288681,-0.8170097431730808,0.8761218438406165,0.11772855544662722,0.6291268432232762,0.9898708481187323,-0.11840176523788423,0.6375872959615718,0.9865557077720711,0.0,0.0,0.0,0.0
0.010021123724428718,-0.05873818072622339,0.7283443894511268,-0.0010712465367294973,-0.5229002733516089,0.0009156707977524707,0.8523927018145218,0.04885667551720776,-0.8057370453898207,0.8506648592120407,-0.05638971815728048,-0.8188407159319794,0.8798263703833544,0.11950323113830255,0.6295752869578185,0.9898622647630053,-0.11726847907023732,0.6387755191093721,0.9873140934181526,0.0,0.0,0.0,0.0
0.010895872486303543,-0.05871767897408688,0.7282297481841116,-0.0011031524929026504,-0.5230346927929508,0.0009419421723228549,0.8523101582959721,0.048841487793673366,-0.8101454259055311,0.859236241934613,-0.05659385527439774,-0.8227820059840582,0.8877659865120289,0.12049254373295738,0.6316461463481207,0.9902712905445401,-0.11782765335895173,0.6410920572353431,0.9875936125036384,0.0,0.0,0.0,0.0
0.01229087338007441,-0.0585868529904669,0.7280872466463134,-0.0010763318181292905,-0.523265917094177,0.0009130704384952451,0.8521682860912987,0.04870888942734502,-0.8168901574965076,0.872814511961798,-0.05702163559365607,-0.8287617596845033,0.8999505926646323,0.12060912074432192,0.6355221836490094,0.9910470347456416,-0.12027168023124414,0.6447069939000911,0.9871761460541735,0.0,0.0,0.0,0.0
0.014239301204423776,-0.058334241973285225,0.7279399020748396,-0.0009602542183853234,-0.5236381218318018,0.0007984558475180504,0.8519398791842994,0.04848986271143709,-0.8256143067244276,0.891179641692184,-0.057638416540214205,-0.8365954213353949,0.9162881365518623,0.11945436455168328,0.6416868567357032,0.992052931937882,-0.12519445613796712,0.6497986808597015,0.9857400515121065,0.0,0.0,0.0,0.0
0.016767083977087333,-0.05798070615620093,0.7278311124841791,-0.0006874422868994829,-0.5242345273982828,0.0005259050829943586,0.8515734913267586,0.04838088726642574,-0.8353777606547041,0.9134885506233734,-0.058230331105258826,-0.8459647039960527,0.9365695310740156,0.11633069071669014,0.6509887291673075,0.9929463024037561,-0.13357964116939958,0.6565428700052552,0.9828788958693351,0.0,0.0,0.0,0.0
0.019855647913209144,-0.057623179573060984,0.7277972014979797,-0.00018848912179561127,-0.525087150887273,-1.2942241756492837e-06,0.8510484407148997,0.048840928879816184,-0.8450939288828159,0.9384347926160256,-0.05832257001445159,-0.8568808308546448,0.9607671731262487,0.1106401843610651,0.664113913547648,0.9930815141158945,-0.14612296205027078,0.6647661306268113,0.9784114522827736,0.0,0.0,0.0,0.0
0.02243759880944372,-0.057460054384546835,0.7275733788277727,-0.0004287222530192294,-0.5248133224691189,0.0001890298969143431,0.8512172208219546,0.04424745091784145,-0.8461111286263944,0.9208432279283183,-0.059522212605859916,-0.8700341722214819,0.9845404797086503,0.11358872830999782,0.669348129064897,0.9912947499673057,-0.14683363149851017,0.6713133562131797,0.9758097364642079,0.0,0.0,0.0,0.0
0.024769697129949527,-0.057189489908275555,0.7272335319479887,-0.0005543035233584033,-0.5247575972417506,0.00025510166254407514,0.8512514856420577,0.03748964790136722,-0.8525693563848821,0.9082236950162503,-0.06069443047819697,-0.8809460398696745,1.0043479547543284,0.11457808660881749,0.6743350079794407,0.9918044175449826,-0.14980728261925072,0.676547967144419,0.9743133691156396,0.0,0.0,0.0,0.0
0.026725648292013904,-0.05686749158198857,0.7268952932174708,-0.0005970651108720256,-0.5249149248633082,0.00023278240674909554,0.8511544577697705,0.030986229405194413,-0.8618612628548827,0.9005021421019047,-0.06173934068915528,-0.8889316260176201,1.0194487320449759,0.11413948940541416,0.679156449392509,0.9934384476379846,-0.1542469900606807,0.6807847056056928,0.9732988503469415,0.0,0.0,0.0,0.0
0.028224698099994217,-0.05657515720801502,0.7266089429941861,-0.0006388450758294341,-0.5251253216726522,0.00021833663106581063,0.851024641678652,0.02538009601876222,-0.8724224016078764,0.895488560908236,-0.0626588179063625,-0.8944133682595075,1.030241303946113,0.11366182673584857,0.6830025533600822,0.9951610763008433,-0.15815254891949765,0.6840962818669342,0.972654280202645,0.0,0.0,0.0,0.0
0.029262513494989616,-0.05636551797967337,0.7263988450457672,-0.0007003014790612349,-0.525315221405161,0.00023533322299788427,0.8509073817732217,0.020592260263619353,-0.8834174265604029,0.8916946385544834,-0.06336798677755254,-0.8978424337573562,1.0373247039548534,0.11373060646302635,0.6856237373241864,0.9964613235970653,-0.1606693577524547,0.6865557443848664,0.9723495461282681,0.0,0.0,0.0,0.0
0.029883724193586845,-0.056267290219955204,0.7262716022949983,-0.0007712723207154503,-0.5254678393327054,0.0002701038320668293,0.8508130711325169,0.016354777236147682,-0.8944523261838224,0.8882859156676315,-0.06376367862691537,-0.8996379056889702,1.0413680278751614,0.11442899928099472,0.6871409589178358,0.9971451287986217,-0.16169805644673724,0.6882542255688124,0.9723684468674926,0.0,0.0,0.0,0.0
0.030155897425785817,-0.05629353045848121,0.7262222715179749,-0.0008359349909338046,-0.5255868418357961,0.0003021756235455407,0.8507394910262819,0.012433835612792462,-0.9053702121328416,0.8848250613085902,-0.06377204048726767,-0.9001981832637006,1.0430535128892455,0.11566729829296007,0.6878024774396754,0.9971630340271961,-0.16142922134491836,0.6892977753263082,0.9726973032950009,0.0,0.0,0.0,0.0
0.03015164110990805,-0.056446910698083205,0.7262388578797303,-0.0008832089328751223,-0.525678487750993,0.0003166501818088299,0.8506828123281159,0.008681169437907848,-0.916132725207901,0.881099644042525,-0.06336226245750502,-0.8998930523337232,1.0430206747971755,0.11734385715821484,0.6878466552375249,0.9965355300346435,-0.16010062040118275,0.6897939616642773,0.9733294736241463,0.0,0.0,0.0,0.0
0.029938690654157808,-0.05672389685451671,0.7263020098758224,-0.000908260877804542,-0.5257455453424631,0.00030522655301644657,0.850641348308137,0.005026383462971471,-0.9267630530963548,0.877017120218338,-0.06253625201352604,-0.8990688417549368,1.0418407224850357,0.11938872551227916,0.6874373375103013,0.9953533231992545,-0.15791574222744256,0.6898176114219529,0.9743023925981772,0.0,0.0,0.0,0.0
0.0295742275134608,-0.05711675183728038,0.7263720832109536,-0.0009090644439754213,-0.525786296489156,0.00026036438769738967,0.8506161744502861,0.0014695878193034299,-0.9373398872104997,0.8725235997993176,-0.061308613137554535,-0.8980945354666013,1.0400160477947509,0.1217190911285464,0.6865972378834772,0.9939074695909242,-0.15508043711092362,0.6893071993713179,0.9758283942604536,0.0,0.0,0.0,0.0
0.02914154040676402,-0.057569688413568694,0.7264595003439854,-0.0008887984657471071,-0.525818747589979,0.00019290196929885073,0.8505961541818912,-0.0020686318004617616,-0.9479011932991469,0.8677051910387786,-0.05986515635083857,-0.8970317439732731,1.037911691413379,0.12409464257671216,0.6856857303265901,0.9921953869714905,-0.15201777649868103,0.6886004200549779,0.97748984808411,0.0,0.0,0.0,0.0
0.028708487551041405,-0.05803047116699441,0.726557293289561,-0.0008503147288355844,-0.5258569707698321,0.00011020560257117817,0.8505725783919694,-0.005652427530157371,-0.9584854974509393,0.8626421339869703,-0.05837143317571103,-0.8959699285550553,1.0358255007869408,0.12627749564335267,0.6849230102892009,0.9903835131224888,-0.14913152679202968,0.6878863907152426,0.9790623164911216,0.0,0.0,0.0,0.0
0.028323371094172704,-0.058461817667985895,0.7266517754377724,-0.0007968011720928185,-0.5259078757187475,1.699875265307969e-05,0.850541163657544,-0.009340553401063939,-0.9690442394148997,0.8574251374889288,-0.05694354341412153,-0.8950192444226098,1.0339987145924818,0.12811215451575753,0.6844089557405761,0.9886691686172702,-0.14669992558965067,0.6872505778321729,0.9804648839940443,0.0,0.0,0.0,0.0
0.028015342514302436,-0.05884015991894205,0.7267326181164298,-0.0007321321520057971,-0.5259729874621624,-8.244683780832858e-05,0.8505009545233674,-0.0132029155675236,-0.979336211896449,0.852217118644379,-0.055656730329398676,-0.8942620139435157,1.0325886636672874,0.1295248073667296,0.684175388219512,0.987191793477702,-0.14486921938493916,0.6867355129026369,0.9816652835520437,0.0,0.0,0.0,0.0
0.02779238029626404,-0.05915639147045067,0.7267946241613152,-0.0006616024388007488,-0.5260475149324081,-0.00018301380227210088,0.8504549022855938,-0.017306774124425304,-0.9888151307851709,0.8473322706444474,-0.05454686346932495,-0.893739566127885,1.031650527181952,0.13053180245122892,0.6841856874003913,0.9860102086679038,-0.14363406982966326,0.6863465907809739,0.9826668660729336,0.0,0.0,0.0,0.0
0.02764000712616111,-0.05941737263183454,0.7268379656893517,-0.0005926745219586795,-0.5261192595745164,-0.0002778959252063782,0.850410545686922,-0.021677248938136766,-0.9965542652357298,0.8433365839524085,-0.053608799133064176,-0.8934510827549746,1.0311321065019337,0.13125445180748013,0.6843280308803084,0.9850908011544233,-0.14281514108168422,0.68605171064055,0.9835115745756441,0.0,0.0,0.0,0.0
0.02752541754813718,-0.05964476975863819,0.7268679478427484,-0.0005328377715944837,-0.5261736310487115,-0.0003606577536872235,0.8503769140792266,-0.026245762692572283,-1.0013233379507624,0.8411239203898141,-0.05279526287707909,-0.8933479694571944,1.0308842951609882,0.13189268044956162,0.6844493849483231,0.9843183942267023,-0.14210741928553774,0.6857933764002138,0.9842753221685533,0.0,0.0,0.0,0.0
0.027413154291480914,-0.05986524119998287,0.7268941506139489,-0.00048206326888552655,-0.5262107245794259,-0.00043149499244530593,0.8503539585164944,-0.030854171036633224,-1.002014981319057,0.8417839684224181,-0.052030087995867835,-0.893309845127047,1.0306930839775637,0.13260166413635063,0.6844741227801827,0.9835571842075751,-0.1412841307880301,0.6855313102737952,0.985031068790397,0.0,0.0,0.0,0.0
0.02728546869845488,-0.06009004855521478,0.7269217572612693,-0.0004381147378526656,-0.526230798349465,-0.0004919186343148817,0.8503415272348037,-0.035446854748704196,-0.9985999000050854,0.8452867034230982,-0.05127827463963575,-0.8932742847651419,1.0304458974636312,0.13341857578064553,0.6843770413301709,0.982745864423064,-0.1402714530891921,0.685238297239775,0.9858009557693167,0.0,0.0,0.0,0.0
0.027142483354507252,-0.06031622731573195,0.7269518814991247,-0.0003969355225600195,-0.526234073616131,-0.0005448714333135729,0.8503394882767027,-0.04009947079548399,-0.9921382682061847,0.8505097281666446,-0.05054205313700308,-0.8932410365249123,1.0301389190333263,0.1342734906857488,0.6841830748761737,0.981890283422488,-0.13913837712696087,0.6849026027361175,0.9865580255648416,0.0,0.0,0.0,0.0
0.02697992846721988,-0.06054937044293388,0.7269901638260908,-0.0003483584032688112,-0.5262336947575982,-0.0005994836947073763,0.8503397072743867,-0.04483333741214463,-0.9838176073685835,0.8565294750505674,-0.04978537526065954,-0.8931462126576487,1.0297097556065877,0.13508929716409468,0.6839781622906924,0.9809598916605247,-0.13798932898207977,0.6845278698368578,0.9872864869509492,0.0,0.0,0.0,0.0
0.026771437200269543,-0.06081499711200411,0.7270453255215206,-0.00028404272224132336,-0.5262364945578843,-0.0006650292062017742,0.8503379497889745,-0.04958717173028732,-0.9745257837901725,0.8627356557343521,-0.04891620882191187,-0.8928987492256523,1.029005249758741,0.13591364239451528,0.6837676695015684,0.9798404746014393,-0.1367426041884679,0.684070251800802,0.9880444890339325,0.0,0.0,0.0,0.0
0.026462539507788926,-0.06116117749322269,0.7271163449375403,-0.0001989736428667191,-0.5262348624717332,-0.0007513458153590828,0.850338912086417,-0.05423448751197192,-0.9647974210115564,0.8687431185075921,-0.04777873064914566,-0.8924416979164755,1.027790316711056,0.13693017380607106,0.683376396195002,0.9784331975227477,-0.1350934324950815,0.6833430979593681,0.9890836569819371,0.0,0.0,0.0,0.0
0.025988657385582335,-0.06163408321269314,0.7272037120092973,-9.149318029479796e-05,-0.5262170534944544,-0.0008644332127106847,0.8503498438853466,-0.058654648970432134,-0.9548965609542326,0.8743406988042569,-0.04623059494054789,-0.8916709576221572,1.0257395174352393,0.13833615283790182,0.6825863272249689,0.9766312119274377,-0.13268968670598696,0.6821438394148511,0.9906447410306084,0.0,0.0,0.0,0.0
0.02530290854890257,-0.062247663316224,0.7273419048399213,3.475238577615633e-05,-0.5261821994144292,-0.0009971371045831494,0.8503712704044394,-0.06281511362867913,-0.9449055273586445,0.8795039610627862,-0.044247907290068285,-0.8902807538970061,1.0224361110869373,0.14023061536255485,0.6814048260798222,0.9741136907521234,-0.12931140896136914,0.6805365777218737,0.9925401185911269,0.0,0.0,0.0,0.0
0.024355352751016787,-0.06301502349309282,0.7275512797092081,0.00017326621804698812,-0.5261242071595009,-0.001142136278685194,0.850406952079018,-0.06670337974708342,-0.9348763796505062,0.8842682824438808,-0.041810900142266884,-0.8880094357826611,1.017457379138908,0.1427103956908182,0.6797559516515291,0.9706739203286754,-0.1247324069848336,0.6784988496790137,0.9946948326408683,0.0,0.0,0.0,0.0
0.023102154829856437,-0.06394621656377845,0.7278490688344746,0.0003128055822051873,-0.5260335839919043,-0.0012893596243609036,0.8504627612171264,-0.07036937714750882,-0.9248903429537111,0.888757819067337,-0.03891638954393392,-0.8846208522501238,1.010412796580532,0.1458844801401317,0.6775613765965736,0.9661094923117133,-0.11871877515273782,0.6760145266849181,0.9970281218377068,0.0,0.0,0.0,0.0
0.021517081425945626,-0.06504502835638258,0.7282499176277313,0.00043783320750350054,-0.5259012666047055,-0.0014270865843476047,0.850544313665978,-0.07396511003298824,-0.9151135931655218,0.8932501884938473,-0.03558427123472714,-0.8799260267229092,1.0010093207933473,0.14985130050709866,0.6747960106929644,0.9602165108341816,-0.11108411672698974,0.6731113599923105,0.9994209952736386,0.0,0.0,0.0,0.0
0.01960732994949052,-0.06630604103945482,0.7287577940042826,0.0005328693424386695,-0.5257267036992456,-0.0015476277156187635,0.850651958156944,-0.07777689303002255,-0.9058538216723987,0.8983071254391639,-0.03185249892865349,-0.8738452012681318,0.9891609294483973,0.15464365776563715,0.6715361687956509,0.9528744250880248,-0.10180464474410955,0.6698609335079387,1.0017608724617697,0.0,0.0,0.0,0.0
0.01743362710097046,-0.06770828411281604,0.7293373509530409,0.000597677971390088,-0.5255408053614732,-0.0016634262952533575,0.8507665588714785,-0.08222312976759702,-0.8976306666128255,0.9050225394701087,-0.027757504396974372,-0.8665007995762363,0.9751114761201746,0.16007416727077578,0.6679768950790148,0.9443876111885027,-0.09130444543375033,0.6662826237464969,1.00417170871244,0.0,0.0,0.0,0.0
0.015127299195231456,-0.06919570261658975,0.7298204650786905,0.0006843282564143337,-0.5254534049710893,-0.0018434330058898468,0.850820105929496,-0.08774034981743416,-0.891303503245874,0.9153400637377823,-0.023305382374859074,-0.8583972748495148,0.9595025564354207,0.1653593907033774,0.6641998901068537,0.9366131196644989,-0.08109652776790384,0.661900368026777,1.0078144921517926,0.0,0.0,0.0,0.0
0.01302743134550011,-0.07048397244283836,0.7300257389099648,0.0009093614016203857,-0.5257522951131115,-0.002164441683214819,0.850634476398257,-0.0950349470708716,-0.8880029130315624,0.9327066928135698,-0.019111578889569616,-0.849633023129934,0.9432701072877767,0.16847971156820304,0.6611699401621088,0.9327461443432248,-0.07488293253644851,0.6569916268725055,1.0132299385802745,0.0,0.0,0.0,0.0
0.011639979111928734,-0.07136995597728452,0.7299525792919146,0.001490245950099497,-0.5267865825393991,-0.002754923001246538,0.8499918152680801,-0.10336337558525853,-0.8895859505996591,0.9625099201469622,-0.015489990685393844,-0.8407168386067337,0.9290244339543058,0.16741975616183236,0.6614259495182135,0.9341899055038974,-0.07661698131396612,0.6531358738754304,1.0196268992359059,0.0,0.0,0.0,0.0
0.011251776040300698,-0.07171852462743762,0.729782014771465,0.002440837373784464,-0.5284591821024549,-0.003420794563826982,0.8489483101632698,-0.11115391966244909,-0.898933948574093,1.0071783580124565,-0.013337418865310927,-0.8326039740459409,0.9193605752257306,0.16242934885109006,0.6659648412524598,0.9391920948664372,-0.08601865134465655,0.6521824998325144,1.0247326551245666,0.0,0.0,0.0,0.0
0.011252530753438473,-0.07175025390479468,0.7297745068002686,0.002459349696453896,-0.5284600389116454,-0.003417642411570771,0.8489477360785641,-0.11115660778747047,-0.8989626419772486,1.0071851588623506,-0.01330672211425127,-0.8325957751297095,0.9192983307154904,0.16242840719421173,0.666025733085736,0.9390682047694069,-0.08603003542722075,0.652120937037316,1.0248349323696881,0.0,0.0,0.0,0.0
0.011252530753438473,-0.07175025390479468,0.7297745068002686,0.002459349696453896,-0.5284600389116454,-0.003417642411570771,0.8489477360785641,-0.11115660778747047,-0.8989626419772486,1.0071851588623506,-0.01330672211425127,-0.8325957751297095,0.9192983307154904,0.16242840719421173,0.666025733085736,0.9390682047694069,-0.08603003542722075,0.652120937037316,1.0248349323696881,0.0,0.0,0.0,0.0
0.011639090526132236,-0.07245035899960428,0.7314577333775408,0.0013779343467459789,-0.526969484156437,-0.002193587822216252,0.8498802575876798,-0.1124132051618246,-0.9059141946430378,1.0169370147456969,-0.014250105579355667,-0.8362491390854127,0.9289858392218809,0.12547360530385926,0.6506853110955199,0.9740166816012745,-0.06439460011400444,0.6632560364557374,1.011119097189116,0.0,0.0,0.0,0.0
0.01246960626792911,-0.07349199682716002,0.7335176029103482,0.0009228103465575988,-0.5264876370849088,-0.0016531166289713976,0.850180677046488,-0.11103189362893402,-0.9058061036004249,1.023007934141746,-0.012807104737197438,-0.8377225387686993,0.9396095457202087,0.0969571956189787,0.6421792935080717,1.0012964672219502,-0.05011214656294865,0.6772432743872188,0.995135021900967,0.0,0.0,0.0,0.0
0.013394761658608631,-0.07481500175422359,0.7355096016853537,0.0008612397898047512,-0.5264332341762592,-0.0015588975012664165,0.8502146070606695,-0.10779606553151772,-0.9023605927782166,1.026277913629859,-0.00964468459098209,-0.8391543955901956,0.9506897950396616,0.08049308222107385,0.6361793390242392,1.0225678127150728,-0.039539266181430666,0.6907612249469955,0.9804442703063597,0.0,0.0,0.0,0.0
0.014328184235213271,-0.0763511349407956,0.7373190520091448,0.000986928191207215,-0.5264690877515472,-0.0017200717288802768,0.8501919588940174,-0.10340375201411156,-0.8980543096578842,1.0283370947443748,-0.00535130583765485,-0.8416575234401096,0.9626247776775153,0.07153765887821505,0.6316612601438122,1.040175612530914,-0.030319897685199347,0.7029500057761383,0.9677241551714468,0.0,0.0,0.0,0.0
0.015187991123995903,-0.07799921853605699,0.7389534305393048,0.0011789585027397393,-0.5264763675226037,-0.001960595448830139,0.8501866857123436,-0.09855793751520897,-0.8936550505811072,1.0295176387475684,-0.000591258634255333,-0.8448114060558173,0.9745565843281745,0.066959019472217,0.627911373215919,1.0555937177627017,-0.021141182681991035,0.7138542383087834,0.9567473189419966,0.0,0.0,0.0,0.0
0.01587532853273198,-0.07965725673049404,0.740432333105542,0.0013771023846745598,-0.5264506082816097,-0.002203471841933005,0.8502017439059902,-0.09367841652511028,-0.8889919447613172,1.0293057996789488,0.004205693331432011,-0.8476949038771306,0.9850772005723225,0.06436516168439527,0.6243131629096962,1.0698243455276137,-0.011814084692453148,0.7234543562311077,0.9472499979667194,0.0,0.0,0.0,0.0
0.01637436915191032,-0.08124352811753179,0.7417773334906864,0.0015558524138026206,-0.5264034542103219,-0.002405286879181919,0.8502300849262727,-0.08907595060551222,-0.8840970896007563,1.0277682225780949,0.008724050208103112,-0.8498702563610601,0.9936728551021553,0.06264791957636057,0.6205459314449121,1.0834302979740713,-0.0024983796952868283,0.7319071073750086,0.9388856360113607,0.0,0.0,0.0,0.0
0.01671125290209038,-0.08271556484578099,0.743001702216255,0.0017078377686313225,-0.5263436990758615,-0.0025586587268992995,0.8502663388602505,-0.08488021871216304,-0.8791200171377207,1.0252404420869936,0.012834141773932667,-0.851307701864564,1.0004370215285037,0.06126276284894001,0.6165463077905353,1.0967824824577466,0.006551249679029807,0.7393573982824235,0.9314086081746075,0.0,0.0,0.0,0.0
0.016926670864566406,-0.08405387199352723,0.7441182074480813,0.0018326443791339673,-0.5262792012232276,-0.0026673017116423062,0.8503056681429333,-0.08113634794554309,-0.8742192169874476,1.0221145466880726,0.016492825802330035,-0.8521139601334293,1.0056761314853924,0.05992852845823131,0.6123651108821668,1.1101255670001104,0.015129694734478484,0.7459736971814691,0.9246153853102749,0.0,0.0,0.0,0.0
0.017058847109470747,-0.08525048411564745,0.7451399665812665,0.0019312401316225827,-0.5262180655774509,-0.002736375820289864,0.8503430660732465,-0.07785439821993477,-0.8695089543919038,1.0187189085978638,0.019691576635660527,-0.8523962474767077,1.0096926115885039,0.058470981692329865,0.6080733566875055,1.1236197446866292,0.023110742345304525,0.7519297818385744,0.9183340024615533,0.0,0.0,0.0,0.0
0.01716225035902919,-0.08631185202440357,0.7460794045751209,0.002011335026260718,-0.5261666335978965,-0.0027816993479478076,0.8503745588670951,-0.07498500078990207,-0.8651421477369459,1.015482643482999,0.022485625177442112,-0.8523932923968952,1.0129957448075633,0.05679973526941061,0.6038351837183511,1.1373643362723849,0.03036472677387751,0.7574194315082751,0.9124059896216427,0.0,0.0,0.0,0.0
0.017302766058984773,-0.08725481064002233,0.7469448693064413,0.0020855167847939034,-0.526128394642372,-0.0028249246499158047,0.8503978967351125,-0.07244158743169438,-0.8613197616904316,1.0129186462696247,0.024971844595648045,-0.8524525141765584,1.0162498854842685,0.054907228047369,0.5998936894144519,1.151382013217991,0.036777611459227706,0.7626343224314509,0.906716153817445,0.0,0.0,0.0,0.0
0.01750829486901634,-0.08808533436049701,0.7477374562989602,0.002159622042727592,-0.5261089469759664,-0.0028750519084310396,0.8504095754523205,-0.07018902902459892,-0.8581139150973272,1.0112350954094624,0.027188713588496914,-0.852702279827476,1.019714150210643,0.05276047287180455,0.5963962981624475,1.165590326646243,0.042299954510010694,0.767656506296236,0.9012499184016038,0.0,0.0,0.0,0.0
0.017776946740809423,-0.08880355512719786,0.7484481755339599,0.002233949933487716,-0.5261116064804,-0.0029320121391359245,0.8504075436513503,-0.06822468069725286,-0.8555292564618374,1.010420790861673,0.029137700542186482,-0.853147787666613,1.023373091281902,0.05032527279930285,0.5934346652172924,1.179720066699138,0.0469411853278877,0.7724442981646839,0.8961189114898156,0.0,0.0,0.0,0.0
0.018078125166214053,-0.08940758341749018,0.7490559402743893,0.0023031574196686923,-0.5261357979875008,-0.0029872973318240056,0.8503921998681592,-0.06656737638595493,-0.8535184552350051,1.0102572709364,0.030794810989292588,-0.8537044798189389,1.026975956122699,0.047527973283006814,0.5910720992824054,1.1931892483107052,0.05079012135749461,0.7768181290496322,0.8915932432453105,0.0,0.0,0.0,0.0
0.018348345466349312,-0.08989649298213381,0.7495262429580561,0.002353353063441528,-0.5261740995733336,-0.003021675598129134,0.85036824267145,-0.06525375089982517,-0.8519875519479224,1.0102981369826276,0.03211406109672308,-0.8542025979224217,1.030025433132115,0.04416093773949413,0.5893824614468512,1.2048973129145129,0.054073171058317264,0.7804422724017175,0.8881324110026214,0.0,0.0,0.0,0.0
0.01852052683967609,-0.09028369677872752,0.7498147683968189,0.0023660443262070925,-0.5262050584054161,-0.0030157869020973485,0.850349071483094,-0.06428302011032215,-0.8509230696897738,1.010122706588646,0.033090456020963464,-0.854595975741863,1.0321263152835596,0.039834618394748535,0.5887172785739001,1.2129232720353962,0.05715443996932368,0.7828914791879182,0.8863299728958789,0.0,0.0,0.0,0.0
0.01856566759056867,-0.09060200474181698,0.7498856803718915,0.0023264538882664374,-0.5261939528196944,-0.002962217489434878,0.8503562411694503,-0.06358208764197525,-0.8504849445495419,1.0096482074823476,0.033802238415264176,-0.8551166615107879,1.033349832939394,0.03407736905879171,0.5901362152754246,1.214274447799795,0.060433144611233655,0.7838447868613803,0.8866659613646183,0.0,0.0,0.0,0.0
0.018484130335515832,-0.09085612302867718,0.7497417565574357,0.00223845948123006,-0.5261426359706791,-0.0028640361541239557,0.8503885660154917,-0.06313272287021554,-0.850639460060296,1.0088465800903912,0.034266727069568466,-0.8557696299114692,1.0337133343605747,0.026929736689214955,0.5936244432244457,1.2089160720241914,0.06388945544275314,0.7833087465765853,0.8891305471173471,0.0,0.0,0.0,0.0
0.018303095779828443,-0.09102484885263219,0.7494254318088461,0.0021234825681843003,-0.5260882916809372,-0.002734439174321903,0.8504229083346813,-0.06296610611478928,-0.8511487169236618,1.0077210210114744,0.03444521575281382,-0.8563270420450568,1.033168159953057,0.01892290475547561,0.5981036478469107,1.199780507557737,0.06711157762105356,0.7816180873941342,0.893220614578634,0.0,0.0,0.0,0.0
0.018097123231088,-0.09111939588724269,0.7489908355312647,0.002008528129151662,-0.5260485769371611,-0.002603071793620745,0.8504481668710794,-0.06299808569831143,-0.8519839117285506,1.0066814960759496,0.0344284675072204,-0.856935957443585,1.0322823565176928,0.010528646065684849,0.6032648347850724,1.1887288632877662,0.06978261660995237,0.7792398123628945,0.8982993973324266,0.0,0.0,0.0,0.0
0.017907453721072587,-0.09116555519688281,0.748486206075923,0.0019101580220228676,-0.5260266312822184,-0.002491128683624108,0.8504623029600392,-0.06311907418116068,-0.8530633922325666,1.0059009307816,0.034329378972560075,-0.857700484087616,1.0314404269969923,0.002003730860586717,0.6089923146101998,1.1767970225779463,0.07182794943048697,0.7765073966770478,0.9038781430125624,0.0,0.0,0.0,0.0
0.01771878917494523,-0.09119292181542528,0.7479494899644817,0.00183146788363033,-0.5260147925744133,-0.002401875886310853,0.8504700551521581,-0.0632420262890608,-0.8541707861296054,1.0051295620774532,0.034229306211128636,-0.8585339330209474,1.0305829300955467,-0.006514762730738602,0.6151096581181558,1.1644759173529589,0.07341372710485733,0.7735530395226762,0.9096724426314011,0.0,0.0,0.0,0.0
0.01747001119971287,-0.09123574434283294,0.7474096825483463,0.001766385007183032,-0.5259969338203706,-0.002326367333899523,0.850481448069623,-0.06328930288684148,-0.8549704401317024,1.0037636462919746,0.03419294820128326,-0.8592020332591371,1.0292969912879266,-0.014939927302475809,0.6213605367450752,1.1519328781212879,0.0748796371485391,0.7703352605677625,0.9155691440453476,0.0,0.0,0.0,0.0
0.01706880085881926,-0.09133552165461782,0.7468896400665719,0.0017042909114491638,-0.5259532232240278,-0.0022526569688583265,0.8505088053096956,-0.06316582740201222,-0.8550145563523838,1.0009266430631125,0.034297094171737826,-0.8593732274933246,1.026934207574771,-0.02325676342861336,0.627441974350768,1.1391900166273805,0.07666160961095111,0.7666862786835248,0.9215810820592166,0.0,0.0,0.0,0.0
0.016443973695269277,-0.09154548150772393,0.7464128555502164,0.0016403882932284342,-0.5258620725617161,-0.002174688655290704,0.8505654945367795,-0.06273799371986527,-0.8539198413392654,0.9958885471100913,0.034662349617843445,-0.8588541516877026,1.0230836453963943,-0.031395854658604325,0.6331425472974487,1.1262107654919387,0.07920332348729683,0.7624881686015784,0.927710283940517,0.0,0.0,0.0,0.0
0.015518513191271968,-0.09191904528194504,0.745998775064699,0.0015662198998782147,-0.5257026033568123,-0.002083955023138282,0.8506644326116831,-0.06187669681117312,-0.8512789351414977,0.9878507595453114,0.035404277469296155,-0.8574187033962193,1.017265566216453,-0.039394913133561686,0.6382127522981507,1.1129655403821153,0.08297841386699673,0.7575966668030889,0.9340013049025708,0.0,0.0,0.0,0.0
0.014219892664187538,-0.09250189088487576,0.7456585997134518,0.0014670630385916737,-0.5254538797795005,-0.0019662302692289263,0.8508185481577369,-0.06048850862598827,-0.8467392958484268,0.9760594583131574,0.03660555759438142,-0.854843647261351,1.008991847433198,-0.04745154636328163,0.6423714103452314,1.0994659777392246,0.08845872270194374,0.7518571837658139,0.9405331167466408,0.0,0.0,0.0,0.0
0.012498672922695176,-0.093312462551524,0.745392907618849,0.0013219679524315838,-0.5251037984606776,-0.0017976999695535002,0.8510352645558938,-0.05857956989892885,-0.8400776403917045,0.9599706924603796,0.03825455926353723,-0.8509009281607085,0.9978142652657969,-0.055999202538594764,0.6453844791418926,1.085863699248439,0.09598584947681531,0.7451729987430823,0.94736321600541,0.0,0.0,0.0,0.0
0.010370498262665862,-0.0943295360139284,0.7451852512818581,0.001108246847419865,-0.5246543577866156,-0.0015525868946477553,0.851313200953899,-0.05627481245952973,-0.8314000791137788,0.9396469588770452,0.04023439684391615,-0.8455334761162977,0.9836553533808454,-0.06593567850215822,0.647337094189262,1.0726352051987393,0.10560616144138668,0.7375877606775016,0.9544981987275546,0.0,0.0,0.0,0.0
0.007976167131404636,-0.09548148968571145,0.7449862677466452,0.000800322500865825,-0.524105312470248,-0.0012083306491224497,0.8516522299984898,-0.05383695278401891,-0.8216379171070762,0.9165389690617304,0.042321122916546924,-0.8392891434119096,0.9674736585680705,-0.07907994779912063,0.6491041129725439,1.060790011288594,0.11702168830289021,0.7293391714515742,0.961929258557229,0.0,0.0,0.0,0.0
0.005680432396510383,-0.0966255079787415,0.7446964612613298,0.0003378281255963487,-0.5233519582706795,-0.0007086580349764971,0.8521162546567176,-0.05181453949084853,-0.8139708915270477,0.895420710547455,0.04407946457322766,-0.8343900798044145,0.9527615437931523,-0.09868347821970262,0.6527969887400961,1.0515741213971617,0.1299752615232703,0.7209231409373313,0.9695104326943079,0.0,0.0,0.0,0.0
0.003843053437944305,-0.09756867335447685,0.7443035335678502,-0.0003101283814104542,-0.5223913672602923,-3.4218514332272244e-05,0.8527057886876356,-0.05076566566054928,-0.8109330547534719,0.8808840838729624,0.04502495829792734,-0.8322896729375352,0.9424595412166962,-0.1283690670513531,0.6593709236219195,1.0468654503792256,0.1435393464548328,0.7133630917291647,0.9763945242544749,0.0,0.0,0.0,0.0
0.002665027629746799,-0.09816551021443878,0.7438517689565625,-0.0009730998083644837,-0.5214536439032932,0.0006553157557780491,0.8532788060757168,-0.05071887826003145,-0.8121561743987388,0.8741280884244708,0.04510858680332425,-0.832757754737054,0.9372882730506488,-0.1629569011713939,0.6658203095901492,1.0485038529446602,0.1548571950034079,0.7074656614089326,0.9819707525581426,0.0,0.0,0.0,0.0
0.002679810666258997,-0.09817186084558242,0.7438327393863224,-0.0009994962128243865,-0.5214584874867059,0.0006645694854469435,0.8532758083895245,-0.050727191638960965,-0.8121629880487115,0.8740755306979057,0.045109651276612046,-0.8327524181082375,0.9372847137733922,-0.16292697095166286,0.6657983053976484,1.0484855950876701,0.15481874655162478,0.7074426833594685,0.9819564758858008,0.0,0.0,0.0,0.0
0.002679810666258997,-0.09817186084558242,0.7438327393863224,-0.0009994962128243865,-0.5214584874867059,0.0006645694854469435,0.8532758083895245,-0.050727191638960965,-0.8121629880487115,0.8740755306979057,0.045109651276612046,-0.8327524181082375,0.9372847137733922,-0.16292697095166286,0.6657983053976484,1.0484855950876701,0.15481874655162478,0.7074426833594685,0.9819564758858008,0.0,0.0,0.0,0.0
0.001869727784784801,-0.09841083598178556,0.743984182157102,-0.0007486135781274935,-0.5217543002981566,0.0005520569487879394,0.8530952965121874,-0.049846441469705946,-0.8043732814821578,0.8622751246902055,0.045736527720930134,-0.8273608424702924,0.9286509195698207,-0.16317953186808595,0.6652447357725696,1.047820179903833,0.15352734301047533,0.7059149877100712,0.9824191850495816,0.0,0.0,0.0,0.0
0.000705453870807174,-0.09886951015867587,0.7440201716303172,-0.0006618498014869586,-0.5218606789715334,0.0005592806886658509,0.8530302930748249,-0.048625876772018746,-0.7960301443302312,0.8475045782620529,0.04669283158977392,-0.8217003510350352,0.9180825562150695,-0.15910267621619345,0.6616717050334684,1.0473354398927903,0.1553405799497053,0.7027835891740757,0.9846877170918032,0.0,0.0,0.0,0.0
