zhuoxili-jackie/tripod-support-walk/examples/trajectory_tripod_com_left_tilt_v0.15.csv
root_pos_x,root_pos_y,root_pos_z,root_rot_x,root_rot_y,root_rot_z,root_rot_w,FL_hip_joint,FL_thigh_joint,FL_calf_joint,FR_hip_joint,FR_thigh_joint,FR_calf_joint,RL_hip_joint,RL_thigh_joint,RL_calf_joint,RR_hip_joint,RR_thigh_joint,RR_calf_joint,FL_foot_joint,FR_foot_joint,RL_foot_joint,RR_foot_joint
0.0,0.0,0.72963,0.0,-0.5231245161092812,0.0,0.852256264656019,0.0,-0.81,0.872,0.0,-0.81,0.872,0.0,0.65,1.0,0.0,0.65,1.0,0.0,0.0,0.0,0.0
-9.807342189206797e-05,-0.0002563112896986522,0.7296155017524487,9.183752388983683e-05,-0.5230763629772337,-0.00010381947544648233,0.8522858084480199,0.000874189685844943,-0.8089039999274512,0.8700813434186588,0.000874189685844943,-0.8107213929977319,0.8725103310229981,0.0005051978411899004,0.6497872218336863,0.9993585742439591,0.0005051978411898992,0.6492412562201102,1.000878783482266,0.0,0.0,0.0,0.0
-0.00021222646544446073,-0.0005634835230486747,0.7296042902029326,0.00020154105589070216,-0.5230334150035338,-0.0002243429725819644,0.8523121234859766,0.0019105833322325143,-0.8074992128750421,0.8677146231858813,0.001911859202131836,-0.8114850281492496,0.8730515581906703,0.0011353880981026339,0.6496029276954114,0.9985548412926643,0.0011368979562691667,0.64842170075266,1.001904408118817,0.0,0.0,0.0,0.0
-0.0003127572721708332,-0.0008427649059881458,0.7295969871164809,0.0003015717097349603,-0.522999228967261,-0.00032951850502811617,0.8523330375925301,0.0028396246108072405,-0.8061997873816955,0.8655556067480684,0.0028433984831595562,-0.8121484140440877,0.8735354752159359,0.0017321330057649242,0.6494636585565923,0.9977981399339565,0.0017367693420889366,0.6477244523831097,1.0028192821849107,0.0,0.0,0.0,0.0
-0.00037689174691489345,-0.0010661276633082137,0.7295909727022694,0.0003767165111776762,-0.522980479005713,-0.0004042284592601441,0.852344480396851,0.0035594286952181707,-0.8052130795940838,0.8639551529826661,0.003566046730644589,-0.8126909137638683,0.8740195349590487,0.002297690410807853,0.6493931756007895,0.9971859042693353,0.0023063919909296965,0.6472676626460849,1.0035647002153194,0.0,0.0,0.0,0.0
-0.00040363991096693255,-0.001231439900854967,0.7295842411094029,0.00042561875485888124,-0.5229797663328513,-0.00044780398311685315,0.8523448728811035,0.004064202145410697,-0.8045470525801208,0.862928381739576,0.004073271862882502,-0.8131022099795602,0.8744934230994964,0.002831576082611566,0.6493874552544446,0.9967486778200794,0.002844752107659683,0.647053628442635,1.0041584890599913,0.0,0.0,0.0,0.0
-0.0004036367567980925,-0.0013431738318287832,0.7295760185820946,0.0004543384279884623,-0.5229931793775439,-0.00046656267679931815,0.8523366179042349,0.004378840007716194,-0.804143028303266,0.8623599970602649,0.004389648984898979,-0.8133817979517542,0.8749058134318737,0.003287124703245683,0.6494228114007651,0.9964876345041032,0.0033046178728985097,0.6470144039387451,1.0046173172591166,0.0,0.0,0.0,0.0
-0.0003928691743917101,-0.0014046651330475715,0.729566737660239,0.0004717904966832835,-0.5230130548657169,-0.0004687710975663028,0.8523244113055873,0.00452858653538027,-0.8039263735789619,0.8620951403977273,0.004540387779875454,-0.8135233736412425,0.8751719818970737,0.003579362142682155,0.6494658641708221,0.9963959312571838,0.00360012316319854,0.6470526605070468,1.0049368850561362,0.0,0.0,0.0,0.0
-0.00038225966217546916,-0.001412509323486776,0.729557402309453,0.00048490785952693945,-0.5230302003496854,-0.00045994200646713414,0.8523138875085202,0.004515353269154365,-0.8038802596952074,0.8620704374368318,0.004527412752226133,-0.8135319787700721,0.8752361552744441,0.0036070786368233654,0.6494905504048507,0.996473972638816,0.003628870365463598,0.6470910508505612,1.0050801534618743,0.0,0.0,0.0,0.0
-0.0003878119194816385,-0.0013607488423210167,0.7295497036169126,0.0005057264478875617,-0.5230295889965728,-0.0004489860454702165,0.8523142564138928,0.004340489464772222,-0.8039866578884008,0.862201297556971,0.004352190427842112,-0.8134253052882449,0.8750251599951178,0.003197993077548952,0.6494611404057121,0.9967215622835166,0.003217089913096773,0.6470079259568041,1.0049829325747195,0.0,0.0,0.0,0.0
-0.0004298565354700637,-0.0012450554457070818,0.7295453028315292,0.0005539728574801497,-0.5229892736094018,-0.00045028781155338293,0.8523389642885453,0.004019370861279147,-0.8042220590572264,0.862374984589473,0.004030368829447151,-0.8132634445614008,0.8744850987822349,0.002108182017734624,0.649334969407176,0.9971294816150899,0.0021200872107746843,0.646626872784726,1.0045689296403952,0.0,0.0,0.0,0.0
-0.0005298240200503386,-0.0010768803911841538,0.7295492928269877,0.0006457359746586606,-0.5229070572015431,-0.00046842733050251375,0.8523893318957654,0.0035825771918673796,-0.8044071592001101,0.8622986712742626,0.0035928520954704155,-0.8129872906395003,0.873473944168486,0.00028666470804001296,0.6490972283148957,0.9976326402597824,0.0002908074951389135,0.6458759639830106,1.0038358552375797,0.0,0.0,0.0,0.0
-0.0006986681220630508,-0.0009388844159878964,0.729662917249773,0.0006050972179323591,-0.5231830573712958,-0.00023630955349039482,0.8522200810206101,0.0026187536091282237,-0.8021869244454176,0.8595470671631222,0.002625866735871358,-0.8093276707542828,0.8691725650791279,0.0010746453211030397,0.6493016948608122,0.9975517249060569,0.0010826045638846645,0.6472187278423008,1.0032869454641755,0.0,0.0,0.0,0.0
-0.0006553888396629275,-0.0006723910487868795,0.729666896741456,0.0007380681670255782,-0.5231592636159539,-0.00022096679536248606,0.8522345870251155,0.012304582324716484,-0.8159545644886269,0.8562885788654911,0.0018221296859103019,-0.8092432666898683,0.8689479751990732,-0.0014518579712650243,0.6496583015368294,0.9983672730180594,-0.0014503766019792997,0.647022726570228,1.0022360371758243,0.0,0.0,0.0,0.0
-0.00046278784574846474,-0.000320843205827521,0.7296948295531679,0.0007637436202596526,-0.5233079681158119,-2.1788562378112715e-05,0.8521432900207813,0.02583144757143852,-0.8349713291186492,0.8488041969560526,0.00036758117791972026,-0.8082056590365869,0.868558176753784,-0.0027320353797853645,0.6504542741676467,0.9992760791833697,-0.0027250733076926003,0.6484066802242215,1.001106384967836,0.0,0.0,0.0,0.0
-0.00017306597277566896,0.0001193394286267787,0.7297358446252514,0.0007179185266735701,-0.5235445731428449,0.00028289808797689775,0.8519979369073244,0.03987449804510063,-0.8558977739993204,0.8393058167990457,-0.0015530417492965818,-0.8066344740118963,0.8680809463385625,-0.003507460508615908,0.651513493655411,1.0003431152801,-0.0034967735352006537,0.6506949493098836,0.9997643885937605,0.0,0.0,0.0,0.0
0.00018846299183338807,0.0006593973376808089,0.7297745816825483,0.0006250614887152066,-0.5237951469979318,0.000641457557486668,0.8518437895598888,0.05307839648504794,-0.8770261199118872,0.8288334622708953,-0.003840720295676118,-0.8049697984131425,0.867745638106831,-0.004329761405885544,0.6526642772919705,1.0016671011383895,-0.0043154049731385325,0.653381861749197,0.9981160462285121,0.0,0.0,0.0,0.0
0.0006210838875655013,0.0013176947246441965,0.7297995597135041,0.0004876994089064671,-0.5240177876403432,0.0010351078492625092,0.8517065509537584,0.06509311846412252,-0.8976468246557806,0.8177796944150468,-0.006492066886597205,-0.8034782044973251,0.8677498133919223,-0.005461890961210887,0.6538025092058277,1.0033436146289132,-0.005440624631198475,0.6562437566390174,0.9960912449567615,0.0,0.0,0.0,0.0
0.0011379430083647453,0.002119116820122606,0.7298010607913223,0.0002962902276769795,-0.5241877636490763,0.0014650193484341118,0.8516014058061376,0.07594972791167497,-0.9174108274212356,0.8063126752712909,-0.00956843536025298,-0.8023242286307913,0.8682642454660873,-0.007014042804760253,0.6548573633317241,1.00547391488727,-0.006978275820680332,0.65921470650577,0.9936261422585753,0.0,0.0,0.0,0.0
0.0017539820700046061,0.003091133302315764,0.7297672290482957,3.1315084585404233e-05,-0.5243005961529845,0.0019476192584019312,0.8515310274277824,0.08567077161432995,-0.9357777604903988,0.7948230503063736,-0.013173956616769499,-0.8015148626799518,0.8693127732977707,-0.00895611514010617,0.6557582990901935,1.0082064804089061,-0.008892050742633942,0.662330388340894,0.9907216332524827,0.0,0.0,0.0,0.0
0.002582090039880968,0.004195869326980751,0.7296704570668693,-0.00035371325694067275,-0.5243683806642705,0.0025110498131555004,0.8514877397093269,0.0944558992490787,-0.9511308813424002,0.7837537055434037,-0.017264409474907205,-0.801620408171108,0.872035859435793,-0.010558241315993104,0.6565935982087379,1.0115311569240064,-0.010451553431856712,0.6659884732515553,0.9877080885228808,0.0,0.0,0.0,0.0
0.0035483537166789815,0.005471640407540532,0.7294971534865866,-0.0008387621589675118,-0.5243546032740991,0.003146999692215424,0.8514937714958578,0.10227241596210557,-0.9616531737682833,0.7745988317267082,-0.021934879882438967,-0.8024231798026432,0.8757516883378981,-0.012265452605614931,0.6570675036125816,1.0156862500402757,-0.012095710691745785,0.6697490345637344,0.9845395545529798,0.0,0.0,0.0,0.0
0.004544402588186414,0.006929300179828497,0.7292606756707048,-0.00137844230880344,-0.5242195340014607,0.003829360714342538,0.8515734355090065,0.1092417844031025,-0.9651090999310914,0.7696085732968744,-0.027178718561173855,-0.8035933449441939,0.8795754482435446,-0.01462127403565202,0.6569698383320515,1.0206262461931177,-0.014353248318442213,0.6731172375692064,0.981028661135433,0.0,0.0,0.0,0.0
0.005529452041174401,0.008530740108043965,0.7290311305099184,-0.0019640557563866037,-0.5240159478381039,0.004556579409739159,0.8516939981474579,0.11536160872500557,-0.9600363444921522,0.7713362919245924,-0.03289997323897672,-0.8044619168560186,0.8828175039850856,-0.01743521664924543,0.6566564408023239,1.0257296685720245,-0.017024046744455307,0.6764569959919291,0.9768019644234416,0.0,0.0,0.0,0.0
0.006555866041535939,0.010333960747854025,0.7287754158439022,-0.0026077729865378574,-0.523674050715335,0.005339536090986471,0.8518979853725306,0.1206885864651886,-0.947798918715784,0.776986635661182,-0.039278364553782856,-0.8056172063164969,0.8861694843241114,-0.020972765750336693,0.6559387278998113,1.0312732641330888,-0.02035173358862453,0.6796134036640661,0.9717591127984628,0.0,0.0,0.0,0.0
0.0077253177226460044,0.012382415832863173,0.7284556413279816,-0.0033624775003076044,-0.5231965945514336,0.006228248145020736,0.8521826248638766,0.12529548603501345,-0.9305497692017057,0.7839536878358996,-0.04654380370559817,-0.8073565015666291,0.8903028845914469,-0.024881667480734414,0.6547938902093742,1.0375573305134362,-0.023968192230773417,0.6829255525980255,0.9660263426033511,0.0,0.0,0.0,0.0
0.0091562073519247,0.014604748777325883,0.7280995144296898,-0.004270083737451806,-0.5226527438834211,0.007255342571149458,0.8525040971750114,0.1297041780030912,-0.9098340289522026,0.7905114386396753,-0.054592645560585185,-0.8097692151569011,0.8960353498991133,-0.028170460083505912,0.6537274661294642,1.0440441361851382,-0.02690506246928877,0.6872679722180981,0.9596276707158067,0.0,0.0,0.0,0.0
0.010829031065396306,0.016885001254874323,0.7277092878125587,-0.005308788378826397,-0.5220817859776996,0.00840040263867296,0.8528375336204385,0.1348424276744585,-0.8864935483205476,0.7952664436542828,-0.0631002166550502,-0.8128005422362554,0.9033615826545494,-0.030274306468512143,0.6528152041516112,1.0504385260688354,-0.028641904104014154,0.6926724494362356,0.9530108592257657,0.0,0.0,0.0,0.0
0.012559697354238182,0.0190129275767316,0.7271698560194257,-0.006395295734273183,-0.5215222223181455,0.009573203050723766,0.8531600234447015,0.14197996538662366,-0.8610614801329498,0.7967155972044516,-0.07134363562926302,-0.8164626599095294,0.9114691017112242,-0.03081065592283853,0.6512679784860803,1.0574568476293187,-0.0288555476238376,0.6978272969452356,0.9482118867701901,0.0,0.0,0.0,0.0
0.014222652483878108,0.0207914422559369,0.7264902782383312,-0.007452750095103493,-0.5209878761241066,0.010676949310178359,0.8534647574452857,0.15209491949406,-0.8335559375972277,0.7922241685527459,-0.07859540985977356,-0.8209053219815907,0.9201866133141663,-0.029455516191849277,0.648959683424323,1.0646875133598561,-0.027281543000918507,0.7021078624222121,0.9460112637942188,0.0,0.0,0.0,0.0
0.015606497673203212,0.02205662045447022,0.725755187772085,-0.008339231945906515,-0.5203739795907093,0.011528895660043018,0.8538199243050845,0.165039476950023,-0.8042418198215497,0.7770017566170584,-0.08401149784530733,-0.8265675491262455,0.929258518341622,-0.027119511044071,0.6458241799273419,1.0711683414057758,-0.02482144661905959,0.7043548399156891,0.94613363611497,0.0,0.0,0.0,0.0
0.01637990057091408,0.022619989618645465,0.7251286028243138,-0.008859305326353742,-0.5195927663166827,0.011883262506919384,0.8542854663241691,0.1783898296996782,-0.7747569517990409,0.745103997766962,-0.08650089667967113,-0.833314776661309,0.9374646379242637,-0.02537199318394056,0.6420347149914335,1.0754701568778884,-0.023020235501172208,0.7032023101291971,0.9477744387067809,0.0,0.0,0.0,0.0
0.016421852043109923,0.022662232128893397,0.7251116401075317,-0.00891396789867399,-0.5195722705472178,0.01187788158448149,0.8542974381231488,0.1783870731699419,-0.7746873314214975,0.7451187264486225,-0.0866027243244299,-0.8333465975007062,0.9375134327869916,-0.025375763417520264,0.6420248336311434,1.0756189675462628,-0.022994404378477273,0.7032579630307526,0.9476696906159606,0.0,0.0,0.0,0.0
0.016421852043109923,0.022662232128893397,0.7251116401075317,-0.00891396789867399,-0.5195722705472178,0.01187788158448149,0.8542974381231488,0.1783870731699419,-0.7746873314214975,0.7451187264486225,-0.0866027243244299,-0.8333465975007062,0.9375134327869916,-0.025375763417520264,0.6420248336311434,1.0756189675462628,-0.022994404378477273,0.7032579630307526,0.9476696906159606,0.0,0.0,0.0,0.0
0.01670942837839488,0.022747322822114103,0.7250622093405561,-0.008626136838250729,-0.5195724976160203,0.011522280398532678,0.8543051249633914,0.17909776955536594,-0.7754021006208175,0.7475990884443285,-0.08611974788598044,-0.8357341183974859,0.940758238533225,-0.030563638236849353,0.644292398681682,1.0763298160778079,-0.027951755005470504,0.70248278406785,0.9469655327876224,0.0,0.0,0.0,0.0
0.017086018586811424,0.022910704361949835,0.7249761554456621,-0.008504028826027408,-0.5197428516203807,0.011330758894090447,0.8542052818767424,0.1792494025534042,-0.7767304960596649,0.7512020248296886,-0.08614261152227962,-0.8369046608497183,0.943165260394608,-0.03419142921226378,0.6465509519496252,1.0776136347012635,-0.03132172170862933,0.7028939889509321,0.9467372190878162,0.0,0.0,0.0,0.0
0.01751198179490214,0.0232044914675623,0.724859259203932,-0.00850217366815614,-0.5200113164453002,0.011277201858213312,0.8540426034630776,0.17876533492932237,-0.7788994663661134,0.756091343692147,-0.08678030456151076,-0.8370293996017989,0.9446190518091363,-0.037108259309067165,0.6487020969394673,1.0795141493598974,-0.03396667148514803,0.7040537676670097,0.9465870903571281,0.0,0.0,0.0,0.0
0.017970085609534406,0.023690918182499573,0.724723963504736,-0.008594807219829626,-0.5203247359394817,0.011343523904277996,0.85384988313157,0.17753542042780074,-0.7822207527467898,0.7626608255210222,-0.08816975972855812,-0.8361836711962464,0.9450167010915708,-0.0400687008544933,0.6507561143919208,1.0820438428770804,-0.03660332452582831,0.7057312021373503,0.9460358961707555,0.0,0.0,0.0,0.0
0.018471340128459746,0.02443872889176661,0.7245791993002504,-0.008781101898221351,-0.5206563757599895,0.01153894112628512,0.8536431827570637,0.1753743779368917,-0.7871402897101043,0.7715692745509432,-0.09051851675071768,-0.8343222998996059,0.9442689736158418,-0.043546449787001715,0.652772074446947,1.085248849976613,-0.039656793436689756,0.707939831809439,0.944661642766577,0.0,0.0,0.0,0.0
0.01907227084796347,0.02553161442725322,0.7244296402157628,-0.009099726178228663,-0.5210166115450978,0.011914700995695622,0.8534148612355711,0.17197081852787904,-0.7943513426189429,0.7839403467156293,-0.09415682035506204,-0.8312186275821053,0.9423130510132137,-0.04759139407754646,0.6548902936884551,1.0892158887286902,-0.04313842408321946,0.711078926526165,0.9420823143538022,0.0,0.0,0.0,0.0
0.019826833708711713,0.027037913990061776,0.724290535153614,-0.009581177670466809,-0.5214068411863436,0.012511286890420926,0.8531626894671798,0.1670676532263396,-0.804389800326582,0.8006637943947706,-0.09934784841200331,-0.8267062934690093,0.9391574239266184,-0.05227627635159728,0.6573041113921405,1.0938798205547329,-0.04707524910532632,0.7155431146477522,0.937828936867622,0.0,0.0,0.0,0.0
0.02076381534674492,0.02898383043735456,0.7241962813342627,-0.010238275522666098,-0.5218230896490316,0.013350806532871882,0.8528877984754984,0.16052883911363566,-0.8173175529713252,0.8219138370311435,-0.10619757226975521,-0.8206268013827595,0.9347774868598373,-0.0575972252567232,0.6602364575376872,1.0989169169585107,-0.051422032162019904,0.7216834319634159,0.9313915903416974,0.0,0.0,0.0,0.0
0.0218913769029422,0.031288292115216124,0.7241686640610984,-0.011040453006052582,-0.5222376115949053,0.014408132074665365,0.8526068209691903,0.15258146338054968,-0.832636899953428,0.8469282712870655,-0.11444140545144972,-0.8133498388857296,0.9296785841346882,-0.06333360358859631,0.6637935055436829,1.1038341044311246,-0.05595547330045858,0.7295199859332756,0.9227050401222323,0.0,0.0,0.0,0.0
0.022867607063854028,0.033284647015304286,0.724059659887158,-0.011723931748816906,-0.5225734927659741,0.015281592846951365,0.8523766579410651,0.14574004389458556,-0.8456343851003782,0.867758069618359,-0.12146677614101489,-0.8073211556445622,0.9252420318898308,-0.06898999653119738,0.6667708962907262,1.1086883254994622,-0.0603433377620654,0.7357534258703385,0.9156911177146643,0.0,0.0,0.0,0.0
0.023677388611315128,0.03485337788211153,0.7238997685701308,-0.012259882097934527,-0.5228618556921506,0.015946303769568605,0.8521800810563422,0.1403845402002393,-0.855790673016021,0.8839017604388382,-0.1269301739356913,-0.8027879405933035,0.9219497592096044,-0.073895744052476,0.669233539833733,1.1130449082704947,-0.06406557081576493,0.7404411142218522,0.9107236187273096,0.0,0.0,0.0,0.0
0.024352220382716224,0.03602569440195193,0.7237218462758068,-0.012670295796576952,-0.5231325538875354,0.016439006459022364,0.851998564396779,0.13638381162473492,-0.863448189859367,0.8961364097005979,-0.1309992708363792,-0.7995206106815397,0.9198019322777273,-0.07777464655011693,0.6713421353779343,1.116736469348093,-0.06693537064185577,0.744017652681028,0.9075021799541179,0.0,0.0,0.0,0.0
0.024933190093613576,0.03686831281473861,0.7235443449208935,-0.012986172901322238,-0.5234042937197424,0.016804851880535203,0.8518197588588725,0.13348883241462675,-0.8691289623765972,0.905402611833287,-0.13394678107473942,-0.7972501229046289,0.9186958548193424,-0.08054403051483297,0.6732272720878254,1.1197545597625742,-0.06891266723567065,0.7468946934874672,0.9056439652536127,0.0,0.0,0.0,0.0
0.025458651946907444,0.03744616484864172,0.7233759244248104,-0.01323688145812681,-0.5236899254243331,0.017084174546506833,0.8516347679365753,0.13145650944991163,-0.873312232605414,0.9125080639642218,-0.1360277111811936,-0.7957428441084672,0.9185167250627151,-0.08218237464250581,0.6749865716570769,1.1221501075042357,-0.06999224124756201,0.7494083293447574,0.9048254553572157,0.0,0.0,0.0,0.0
0.02595537419899296,0.03781666995512172,0.723221606693847,-0.013448678969966486,-0.5239987978436643,0.01731009170070184,0.8514368758855061,0.13007185989827338,-0.8763721119541966,0.9180581547062704,-0.1374579145288092,-0.7947679767485306,0.9190920972849331,-0.08269688714352787,0.6766811721274054,1.1239898973071436,-0.07018106007747174,0.7518154492643657,0.9047771088875461,0.0,0.0,0.0,0.0
0.0264278230180332,0.03803803147628609,0.7230884380921724,-0.013643491806506898,-0.5243324213936323,0.01750758106573593,0.8512243250824325,0.1291294298256224,-0.8785755279808429,0.9224483299378317,-0.13843187689275752,-0.7940418749471909,0.9200865018233132,-0.0821967640530846,0.6783205510115519,1.1253448731099525,-0.06956320227335692,0.7542673705205144,0.9052093750537373,0.0,0.0,0.0,0.0
0.02686801137778502,0.038168527677288254,0.7229905034797521,-0.013838984193476506,-0.5246823397230357,0.01769388429529357,0.8510016752967049,0.12843961440821752,-0.8801361433643384,0.9259772780970129,-0.13912471671294066,-0.7932776896298535,0.921109309507125,-0.08088237683791391,0.6799038196018913,1.1262338991784184,-0.0682932651392179,0.7568584016682626,0.9057548607924987,0.0,0.0,0.0,0.0
0.027236482267992985,0.03829506321974345,0.7229611932969381,-0.014046125720704433,-0.5250128067098807,0.01787640745730482,0.8507906282977452,0.12775782490420612,-0.8812662496175544,0.9288897059535279,-0.13975812284226477,-0.7920773209594434,0.921490242112143,-0.07931966441807561,0.6814072246318376,1.1266030839717205,-0.06682852152479836,0.7595587808088985,0.9057281002141165,0.0,0.0,0.0,0.0
0.027460924219943814,0.03857124390742177,0.7230846762372006,-0.014267745309305331,-0.5252367572376313,0.018052074277993206,0.8506449922879392,0.12669176285501113,-0.8823257079508806,0.9316438479299367,-0.14069479066798624,-0.7898472712898775,0.9201755200037285,-0.07878917672877947,0.6829022772461784,1.1261371815526482,-0.06622535765035267,0.7622808940034427,0.903621967483643,0.0,0.0,0.0,0.0
0.027483315100683046,0.039298831578643466,0.7236262607891367,-0.014502506384454057,-0.5251766052022834,0.01821727482557074,0.8506746390687239,0.12448571089945736,-0.884157027568255,0.9358372765056687,-0.14265624532814394,-0.7855458441086692,0.9157758941141872,-0.08183116967559122,0.6852090239149242,1.123257784976041,-0.06858987477932782,0.7656150160549722,0.8953475399920722,0.0,0.0,0.0,0.0
0.027554160675247012,0.0411450967658499,0.7257375747191823,-0.01484553044515641,-0.5245895390914949,0.01859007861859589,0.8510228167790388,0.11895164055933842,-0.8885181964953719,0.9475745274910544,-0.1476491651292922,-0.7753716347006299,0.90657557412441,-0.09094565390975401,0.6931521747824181,1.1091909125931447,-0.0759061549671735,0.7764572662819618,0.8660656595146851,0.0,0.0,0.0,0.0
0.0268793017015045,0.043221793140920596,0.729167719027825,-0.013982329255406722,-0.522708630661704,0.017649043225175555,0.8522139949411742,0.11583005713649754,-0.8884066132342123,0.9548479872216518,-0.15055272151123203,-0.7689690800514191,0.8984937599520681,-0.1208344907576861,0.706639298588766,1.0846216970448064,-0.04209493645803569,0.7352086714173982,0.9400650684370738,0.0,0.0,0.0,0.0
0.026442900401339873,0.04538112596606575,0.7327135782109979,-0.01334221348710769,-0.5211572784088147,0.016950617677210362,0.8531879939738619,0.11189961519594357,-0.8881491015661271,0.9631900739897744,-0.15404651044930645,-0.7601316165075135,0.8891183293274657,-0.1456665432218237,0.720939368614121,1.0578239162119178,-0.01434343965632788,0.7052844843859754,0.9954891020808098,0.0,0.0,0.0,0.0
0.026259348230570558,0.047458579864557336,0.7359009107962935,-0.013001197224438028,-0.5199476009896972,0.01649741771963472,0.8539398669135748,0.10766418902071913,-0.8887760071759097,0.972468590454642,-0.1577807424036244,-0.7506825416279894,0.8797932173877363,-0.16491691516643175,0.7342957163678053,1.0327608535081296,0.003191991561534553,0.6839989408899962,1.0379958127717523,0.0,0.0,0.0,0.0
0.026253999544770052,0.049360622347177294,0.7386610035228631,-0.012864247119093654,-0.5189837710392825,0.01622019492696718,0.8545333591033387,0.10351809678577441,-0.8901402162682948,0.981976168547258,-0.16143961076654503,-0.7416893951618856,0.8713018860008751,-0.17985864101555288,0.7462842506051981,1.0103231773641241,0.014418710688124899,0.6685765870579387,1.0734940242913016,0.0,0.0,0.0,0.0
0.02629590612911306,0.051020669372006985,0.7410287673011128,-0.012813765069502167,-0.5181799782442369,0.016018192144367976,0.8550255756946524,0.09982926875682818,-0.8914868470984172,0.9904353049258204,-0.16467467511302153,-0.7336241291428302,0.8636974274862632,-0.19181686504316176,0.7567360046651628,0.990525205432797,0.022511728616667163,0.656630400038319,1.105193177406579,0.0,0.0,0.0,0.0
0.02633495713532713,0.05245208513345861,0.743051291354171,-0.012787568669367515,-0.5174703776069461,0.015840277619702567,0.8554589247835231,0.09666855607256823,-0.8927153071080501,0.997695094299845,-0.16744012454406773,-0.7267128790029997,0.857057046636379,-0.20177485584053073,0.7656891243032669,0.9732020654731333,0.02921039015146024,0.6466930957983518,1.1346269349424576,0.0,0.0,0.0,0.0
0.026320712875392588,0.053676558585389,0.7447606606151425,-0.012742637635592649,-0.5168078761822299,0.01564776581086196,0.8558635356920105,0.09405625472280367,-0.8937316860781005,1.0035809280935584,-0.169724990040441,-0.7210192050264971,0.8512430093901934,-0.2104527949158585,0.7731029082703398,0.9582807138865815,0.035469932752894784,0.6378957248519328,1.1620709343166338,0.0,0.0,0.0,0.0
0.02619223065923839,0.054719971565573275,0.7461639384865701,-0.012641787490427157,-0.5161474058596504,0.015403538502223034,0.8562679321538387,0.0919973084336962,-0.8944761383820198,1.0078573149669978,-0.17152987340874873,-0.7165862887784256,0.8459848755069966,-0.21849355674783788,0.7787762779321539,0.9459039590050148,0.041964628470113716,0.6298565606535613,1.1865426903004317,0.0,0.0,0.0,0.0
0.025871621059985868,0.0556167589230376,0.7472412035936267,-0.012444130181560547,-0.5154348073481202,0.015064213169238486,0.8567060011927209,0.09048668272026225,-0.8949466831935979,1.0102307692389159,-0.17286750866459172,-0.713498644552295,0.8408994289587444,-0.2266215368175336,0.7823135005075047,0.9364820481623854,0.04948932864047727,0.6227389685687973,1.205481705970045,0.0,0.0,0.0,0.0
0.02527504993067309,0.05641492713849499,0.7479527313092631,-0.012103489582152589,-0.5146035730183622,0.014579950265988965,0.8572188129217132,0.08949984653035455,-0.8952526614327841,1.0104698283523572,-0.17377774614396777,-0.7119148154597604,0.8355796802400403,-0.2356840561641738,0.7831860303843524,0.9306180867785059,0.059190871133795744,0.6177193044018879,1.214166050231435,0.0,0.0,0.0,0.0
0.024361987773365425,0.05716480467689436,0.7482804059063833,-0.011589434338681379,-0.5136005421866511,0.013919297864815975,0.8578382255555169,0.08897571844175242,-0.8956026650038639,1.0086545537724394,-0.17433858280380227,-0.71195736034049,0.8298162606611158,-0.24625895159675518,0.7810824873334704,0.9286132162207129,0.07228906533315371,0.6177933884176632,1.205681676247476,0.0,0.0,0.0,0.0
0.023138206813079588,0.057842445218557824,0.7482756059989036,-0.0109207359170247,-0.5124568437756806,0.013089954693942788,0.858543751873257,0.08897144697459058,-0.8956620695144756,1.0045387466663582,-0.17446328923915802,-0.7133180547067767,0.8234409314479175,-0.25777036648500984,0.7762335134005138,0.9299034445748822,0.08766366755319918,0.6200054927182407,1.18699835964387,0.0,0.0,0.0,0.0
0.0216440433300289,0.05843249091374513,0.7480195242722164,-0.010117111966931294,-0.5111938825693717,0.012104502897803097,0.8593206267038498,0.08951928090762448,-0.8952191487341269,0.9981979876639604,-0.1741022556033925,-0.7157550288795588,0.8165417828690507,-0.2697002405728428,0.7691373037868893,0.933535714767179,0.10450206097828615,0.6231263549510146,1.1629558858031983,0.0,0.0,0.0,0.0
0.01991255631794704,0.058938053301419144,0.747584822038166,-0.009179743873400804,-0.5098048627480337,0.01095658351110319,0.8601713128782205,0.09064581176424893,-0.8941843751097259,0.9898058497026914,-0.17322791651102232,-0.7191930903529244,0.8092818951610459,-0.281920805287239,0.7602400044598215,0.9386407770085902,0.12271332554886169,0.6268063039216958,1.1364177781460914,0.0,0.0,0.0,0.0
0.017974027150088622,0.059371170963633486,0.7470300187911278,-0.008093178973377092,-0.5082658907736685,0.009623246850025838,0.8611084007546423,0.09239150854405599,-0.8925560569182577,0.9796002995636224,-0.17181355724851252,-0.7237314080833336,0.8019446906130622,-0.2945748881094825,0.7499186515198345,0.9444899746701048,0.14310800800663262,0.6311268789277813,1.1090453692638522,0.0,0.0,0.0,0.0
0.015888558683018944,0.059741270296277,0.7464017539947451,-0.0068355701793442105,-0.506554052464234,0.008079665744686477,0.862143251387981,0.09481185295864093,-0.8904773055034791,0.9680702082563568,-0.16983615674345184,-0.7296880631609942,0.7951781030865575,-0.30787862610608596,0.7386006307740826,0.9504381365090141,0.16769798049208356,0.6365862661797758,1.0820043408290863,0.0,0.0,0.0,0.0
0.013849510212279221,0.06008632676086269,0.7457242554827765,-0.005410072263962607,-0.5046522853809422,0.00634468697425503,0.8632824259331875,0.09781309319268264,-0.8889511204754584,0.9571344559326893,-0.16748051115981247,-0.7378731109027723,0.7907419783066142,-0.322055842858079,0.7269829015994903,0.9559927147603996,0.19983394240682034,0.6444608369197019,1.056515409450053,0.0,0.0,0.0,0.0
0.012204262988790215,0.060292586846966645,0.7449960990398087,-0.003854788088346774,-0.5025889035683891,0.004500706524056383,0.8645052216496455,0.10157275172212962,-0.8893234102008332,0.9494731793056983,-0.1647422937870174,-0.750107413454537,0.7925420639952327,-0.3360909375520883,0.7160698187511569,0.9605603666133654,0.2435592245222197,0.6567335958764673,1.0337351069029035,0.0,0.0,0.0,0.0
0.011174977462530938,0.06033628970129609,0.7443515574929238,-0.002539081668762321,-0.5006871579986499,0.00293873567540268,0.8656195970009831,0.10527648964293812,-0.8917730232954977,0.9463969356543425,-0.16220720488267418,-0.7637319402647409,0.7993739520583292,-0.34636002646057984,0.7071934381898198,0.9633389479452148,0.2894727683054668,0.6700845997881635,1.0157260424923418,0.0,0.0,0.0,0.0
0.011189691516156779,0.06035949183727894,0.744326952085838,-0.0024951047012210315,-0.5006925411571687,0.0029141057905332376,0.8656166944263196,0.10529104223532508,-0.891734426901403,0.9464185000859671,-0.16218744727945647,-0.7637993759809787,0.7993128268995144,-0.346364042317835,0.7071394239828049,0.9633008372927497,0.2894951899030351,0.6700807572593888,1.0157256713973157,0.0,0.0,0.0,0.0
0.011189691516156779,0.06035949183727894,0.744326952085838,-0.0024951047012210315,-0.5006925411571687,0.0029141057905332376,0.8656166944263196,0.10529104223532508,-0.891734426901403,0.9464185000859671,-0.16218744727945647,-0.7637993759809787,0.7993128268995144,-0.346364042317835,0.7071394239828049,0.9633008372927497,0.2894951899030351,0.6700807572593888,1.0157256713973157,0.0,0.0,0.0,0.0
0.011483857679991874,0.060501719238745755,0.7442295369756295,-0.0022521499614370213,-0.5013560809969712,0.0027391054224118728,0.8652337864238744,0.1051819942102278,-0.8893649106878646,0.9458314113796819,-0.16210602782465494,-0.7621295034312778,0.7985590057738263,-0.3529847345975642,0.7106882054709509,0.9658549523787169,0.2885039166922369,0.6722531296037552,1.0175368803569687,0.0,0.0,0.0,0.0
0.011752871603796313,0.06045695683913428,0.7441205877247025,-0.0020377189631946946,-0.5018974324942476,0.0025590505063696244,0.864920959520357,0.10561207096348138,-0.887098754646786,0.9448629679142259,-0.1615836236014754,-0.7617186920085536,0.7993449657443923,-0.3580224533788468,0.7136619391675562,0.9678854920949239,0.288540402841473,0.67399040777839,1.0196104973692994,0.0,0.0,0.0,0.0
0.011944840152554018,0.06015466183002672,0.7440381894258556,-0.001824946370530204,-0.5023269895130325,0.0023464058475413333,0.8646726314375384,0.10680638069757517,-0.884200504336016,0.9425272787011093,-0.16035702760882256,-0.7624625831809289,0.8014843933298591,-0.36097683502957,0.7160670380995066,0.9689240777792552,0.28968904635517617,0.6752637094227294,1.0218442992623733,0.0,0.0,0.0,0.0
0.012060415009208063,0.05953447009803608,0.7439803797765814,-0.0015797988870838316,-0.5026668364111877,0.0020679051624550894,0.8644763036521497,0.1089856963320289,-0.8802417543483254,0.9383246272466141,-0.1582031741539375,-0.7645801221401229,0.8053000809905744,-0.36180568113221906,0.71800265558908,0.9689128785404324,0.2920364102922002,0.6760662472306148,1.0244510375048668,0.0,0.0,0.0,0.0
0.012133288659320013,0.05851046315668686,0.7439334068726938,-0.0012649018080380773,-0.5029254762752571,0.0016860055956264483,0.8643272081346585,0.1124554322384941,-0.8749566517050442,0.9319895236067721,-0.15484496633797348,-0.7686704524493246,0.8116914750605315,-0.36044979069547056,0.7196122351977259,0.9677843222350754,0.2958254748585048,0.6764148745249553,1.0277360191138947,0.0,0.0,0.0,0.0
0.01217786452952697,0.05700778057220869,0.7438908368279301,-0.0008575631120083412,-0.5031019443485379,0.0011738524620044,0.864225850254797,0.11746339249808924,-0.8680720406930443,0.923166567627774,-0.15003920642126528,-0.775136505885989,0.8212281014264277,-0.3567135536529822,0.720958110251755,0.9654013511102311,0.30131430883315613,0.6763014297914023,1.0318904657836279,0.0,0.0,0.0,0.0
0.012194386115011866,0.054973646913612215,0.7438553272369756,-0.0003526413591723766,-0.5031850883153818,0.0005289099737295059,0.8641784322669439,0.12413534228013554,-0.8593838440354837,0.9115154087990531,-0.1436370884308179,-0.7841266625826916,0.8340952021265459,-0.3502206308645097,0.7220166724556123,0.9615473406445717,0.3088151419770135,0.67574090291542,1.0369489595326724,0.0,0.0,0.0,0.0
0.012194656554385168,0.05239305516325109,0.743829181376133,0.00024287886196036086,-0.5031615554912469,-0.0002403516697743398,0.8641923005422821,0.13247537636044524,-0.8488731249690872,0.8969617549069201,-0.13559854944103367,-0.7956431851413232,0.850282685461057,-0.3407729087972401,0.7228032445539688,0.9560490702841073,0.31852848041233667,0.6748004397397385,1.0428271108177207,0.0,0.0,0.0,0.0
0.012231202892419244,0.04937773312089606,0.7437916357187875,0.0009092331373000257,-0.5030355872914423,-0.0011357145164138176,0.8642644742010358,0.14220954835262742,-0.8370593869509965,0.8803307790023684,-0.12616390233200336,-0.8094185622010253,0.8693985520464665,-0.32931950807756344,0.7235297403971578,0.9492427040800399,0.3298825500665692,0.6735701121358579,1.0493373319955126,0.0,0.0,0.0,0.0
0.012302536394281097,0.046766513748704795,0.7437426532916074,0.0015151117874069014,-0.502916571573019,-0.0018995736921681055,0.8643315440809158,0.1505348339037934,-0.8267031048197816,0.865693092663359,-0.11797585383652755,-0.8212509213503739,0.8857051228723005,-0.3196876962025358,0.7243175586162602,0.9432429770111997,0.33974599423776386,0.6726213126581292,1.0549034143834646,0.0,0.0,0.0,0.0
0.012366157093524429,0.04467663415374161,0.74369901301552,0.002025157758067024,-0.5028418222359149,-0.002530267061275514,0.8643723724732981,0.157183934676707,-0.8179969449100996,0.8534267895544841,-0.11132870962690945,-0.830470731009621,0.8983290457680264,-0.3124348094268233,0.7251670101179939,0.93840997978973,0.3474806958942757,0.671930901476374,1.0593225113167493,0.0,0.0,0.0,0.0
0.012424789837786922,0.043086280627775565,0.7436615744014051,0.0024377474805467856,-0.5028120672532719,-0.0030313832677104553,0.8643870042563091,0.1622512099855541,-0.8110374039540831,0.8437112799070828,-0.10619621627424453,-0.8373417693176108,0.9077287739109047,-0.30736605456107513,0.7260353443560544,0.9347708986293544,0.35322008031351704,0.6714891220398971,1.0627088751311702,0.0,0.0,0.0,0.0
0.012486139823548053,0.04191895949620564,0.7436314200566515,0.002765405793936972,-0.5028219297647799,-0.003422705118988272,0.8643788200598659,0.16599663618735686,-0.805670211604687,0.8363654474818079,-0.10236506756575799,-0.8423244504904824,0.9145998888331117,-0.30411934184638895,0.7269282119175828,0.9321641450381184,0.35729563944101966,0.6712835070089163,1.0652369945454208,0.0,0.0,0.0,0.0
0.01255567313525598,0.04108406509203908,0.7436109046083291,0.003024713455452041,-0.5028627829203235,-0.003727311693226787,0.8643529254937947,0.1687125327316015,-0.8016250763558138,0.8310211520962326,-0.0995668416528788,-0.8458775479529658,0.9196024652619659,-0.30228653757934204,0.7278636317526309,0.9303450566719922,0.36008087162852676,0.6712953816597238,1.0670685306581127,0.0,0.0,0.0,0.0
0.012620112447834491,0.040479952467762245,0.7436066358649863,0.003231310489524127,-0.5029236793636384,-0.003969139523015815,0.8643156699373832,0.1707087607998009,-0.798460431594473,0.827006482413253,-0.09748985689011584,-0.8483678802799978,0.9232169850909616,-0.3013458241690895,0.7288154233094956,0.9289917649452446,0.3619737936983628,0.6714589071527524,1.068345214351142,0.0,0.0,0.0,0.0
0.012686114127387285,0.04004062382770426,0.7436207072218733,0.0034014325799502656,-0.5030010110779756,-0.004167289540295931,0.8642690824094228,0.1721940715247328,-0.7959215621737108,0.8239813890406544,-0.09592733524208794,-0.8501012512294421,0.9258822977483525,-0.3010694392205769,0.7298394870999653,0.9279071160205046,0.36322236863104906,0.6717792123989864,1.069168361793394,0.0,0.0,0.0,0.0
0.012767687588991597,0.03972463267544905,0.7436524567740792,0.003551374241138164,-0.5031004783732635,-0.004340476268700548,0.8642097295606858,0.1733133327703538,-0.7938280391177974,0.8217579708338066,-0.09473503205267937,-0.8512969440463216,0.9279387402546456,-0.3014487311749602,0.7310450902147151,0.9269987117465953,0.36395483106825266,0.6722985217525156,1.0696247932842966,0.0,0.0,0.0,0.0
0.012896029723313936,0.03952076768633346,0.7436955372870774,0.0037003735426563685,-0.5032442366096171,-0.004511349521895956,0.8641245241748089,0.1741452589274053,-0.7921028929759549,0.8203916708349553,-0.09383806656550424,-0.8521050231087522,0.9296795648941893,-0.3028311433986469,0.7326531871416838,0.9263362482705574,0.36414331881149103,0.6731307212890816,1.0698090256384154,0.0,0.0,0.0,0.0
0.01318334071220409,0.039494847840387336,0.7437333275135668,0.0038792057641749717,-0.5034875458292588,-0.004715302501611724,0.8639809077055971,0.17462203534682136,-0.7911528540947966,0.8209760469846454,-0.0933446173684302,-0.8527275584086456,0.9316822371619167,-0.3065673131511897,0.7353029203591143,0.9263045967882989,0.3633582887098604,0.6746792282711807,1.0697464275961608,0.0,0.0,0.0,0.0
0.013752362930998206,0.03967319987588974,0.7438061162179546,0.00413107981802026,-0.5038992170086022,-0.00500887546001579,0.8637380531412755,0.17480611414628897,-0.7909686458686995,0.8242627549070753,-0.09320682458003066,-0.8533283227737506,0.9346849356656793,-0.31404074391598535,0.7400623487461838,0.9266350181173648,0.3612111000650163,0.6776364092432214,1.0690386937570455,0.0,0.0,0.0,0.0
0.014977591824656633,0.04008785212424103,0.7443171855968388,0.0046305094452049785,-0.5047642610652626,-0.005603352928367528,0.8632266223706712,0.17497648756255582,-0.7898717300689427,0.8312671118397145,-0.09304175464349977,-0.8533571098649431,0.9404455114450598,-0.32974909123241974,0.7519452075648229,0.9237442414241595,0.35617956470306356,0.6854327363009601,1.0642039794817217,0.0,0.0,0.0,0.0
0.016375240862159534,0.04088977065818314,0.7461131074835152,0.006101674521561555,-0.5062056167190612,-0.0071885966023760035,0.8623612742053044,0.17560951280529571,-0.7795579082340985,0.8332627216693104,-0.09167922789590989,-0.849166761123246,0.9438960314786046,-0.26446575103627334,0.7173180437675553,0.9678107412157018,0.33447813764845874,0.6973994135429828,1.0476527447071682,0.0,0.0,0.0,0.0
0.018242581265880384,0.04196588777474783,0.7478640252582206,0.00765367085132991,-0.5079558559730006,-0.008870408620019565,0.861303422468615,0.17572473025360896,-0.7704106223265161,0.8391237258277476,-0.09093987870206548,-0.8449957580473819,0.9489618118310471,-0.20790101836354222,0.692891307780875,1.0040230472359706,0.3105450346349839,0.7113031908033587,1.0304632603059865,0.0,0.0,0.0,0.0
0.02018658469458044,0.043026398246695075,0.7493357005216514,0.008963372642181708,-0.5096274170233523,-0.010285357891576783,0.8602870248829897,0.17541343330796516,-0.7637758419550292,0.8471160166641031,-0.09083450450058544,-0.8415495373813442,0.954713871331036,-0.16766862281692924,0.676967419185721,1.0356387911614093,0.28923806910702493,0.7246585198780792,1.014997822068254,0.0,0.0,0.0,0.0
0.022027338048566002,0.04396952397813296,0.750564803319722,0.010029463686697049,-0.5111150216303395,-0.011430019303939686,0.8593777977005727,0.17493011884789186,-0.7589459330487974,0.8555527944782421,-0.09105428566848084,-0.838785721387622,0.9605065716908913,-0.13875736017932605,0.6662077080727236,1.0648417164676665,0.27105886172803156,0.7367848330293091,1.0013611253515173,0.0,0.0,0.0,0.0
0.02369756922126525,0.04480153189566054,0.751618961709075,0.010907560906241794,-0.5124155405699657,-0.012367332207517075,0.8585792846275382,0.17436642284662365,-0.7552293149443463,0.8636073613040711,-0.09144339663329025,-0.8364194109838613,0.9658367150551304,-0.11610488904548633,0.6582651450584437,1.092696669616477,0.255329826990209,0.747591956849951,0.989185593036759,0.0,0.0,0.0,0.0
0.025184578255815923,0.04557488726403996,0.7525304448070613,0.011646032358549423,-0.513558949691408,-0.013154083765775558,0.8578744344031033,0.1736918269057701,-0.7523028725542108,0.871107772331363,-0.09199443345577449,-0.8341893378266256,0.9703470032365512,-0.096588670404847,0.651809273836977,1.1195368217588078,0.24117955340536384,0.7570869751008066,0.9782499376889209,0.0,0.0,0.0,0.0
0.026488850130609254,0.0463519095037735,0.75328189453147,0.01227505013615678,-0.5145823689085515,-0.013828231108869904,0.8572415580086036,0.1728258256752526,-0.7501219060591303,0.8781464542895593,-0.09277207390645748,-0.8319249753722076,0.973741074109451,-0.07869599801599983,0.6461854731961902,1.145026360638972,0.22788366743374905,0.7651521082875888,0.9687231501089479,0.0,0.0,0.0,0.0
0.027599550333960186,0.047186973258918616,0.7538055122868728,0.012808205373596327,-0.5155186170242935,-0.01440962445439487,0.8566614664495835,0.17168313649674338,-0.7488116658946905,0.8848225451521068,-0.09385873578030574,-0.8295595280946226,0.9757128903007043,-0.06198350176427035,0.6412008867919647,1.1679570053846906,0.2149829381664402,0.7714364799396455,0.9612659318179249,0.0,0.0,0.0,0.0
0.028482800742432406,0.04811480466759751,0.753987637410774,0.013246095609340173,-0.5163890604317242,-0.014902254862635045,0.8561219551077746,0.17020516110351822,-0.74859398106669,0.8911018001267704,-0.09531676247464754,-0.8271444649443331,0.975934094426095,-0.046753289373084844,0.6371813280782991,1.1857774857214638,0.20235122962206747,0.7753212247378531,0.9570479774308079,0.0,0.0,0.0,0.0
0.029088250042610488,0.04914251425431808,0.7536908243172916,0.013580583424456259,-0.517197887454997,-0.015296902292710015,0.8556213635400807,0.1683817787407684,-0.7497398457506647,0.896820942077484,-0.09716508251083786,-0.8248629478992441,0.9741415221143743,-0.03389729293752312,0.6354386104917333,1.1938613948024128,0.19022257156479133,0.7760372121046442,0.9575344414546674,0.0,0.0,0.0,0.0
0.029394423153692832,0.050259636173408694,0.7528265275408395,0.013806243870037666,-0.5179385344866752,-0.015585604114225503,0.8551644000239901,0.166245536704583,-0.7524776307907095,0.9019443242268721,-0.09938470445954163,-0.8229524459136157,0.9703504653688373,-0.02451300049892667,0.6390344508295449,1.185250381916662,0.17891151865130944,0.773144380591643,0.9636466661706532,0.0,0.0,0.0,0.0
0.02942133470127475,0.051523229964088826,0.7514148937084729,0.013944374983547086,-0.5186523080524005,-0.015790187981731842,0.8547256915067767,0.16367774193141224,-0.7566933583186924,0.9065872310813433,-0.1020725498968074,-0.8210874136180836,0.9642427089364193,-0.017293130437267105,0.6450312105745364,1.1668368727998126,0.16769734006340162,0.7668426493230868,0.9749763897045189,0.0,0.0,0.0,0.0
0.029222491779466942,0.05297085490573417,0.7495216477238812,0.014024756645782932,-0.5193681640097466,-0.015941951427788495,0.8542867613388642,0.16062509343642153,-0.7622165765368082,0.910985906684171,-0.10526761556433067,-0.8190577389736384,0.955843532679091,-0.011016672068962913,0.6522498897994259,1.143076791640755,0.1557836399248631,0.7576108691443325,0.9905482768899744,0.0,0.0,0.0,0.0
0.02884343070764196,0.054599919348161025,0.7471985960657549,0.014081556269134037,-0.5200955395108585,-0.01607201281251236,0.853840752106681,0.15713727202840858,-0.7688399825857138,0.915194327345489,-0.10891182400284252,-0.8168747884965664,0.9453952437586529,-0.0047264786898104354,0.6605469522911296,1.1161851806378225,0.14262659760163582,0.7458007838096038,1.0095762222946665,0.0,0.0,0.0,0.0
0.0283264547697583,0.05635289724296865,0.744477133417137,0.01416150612186797,-0.5208347102148042,-0.01621714212093668,0.8533859974719825,0.15341442609239106,-0.7762416400632731,0.9190036316562157,-0.11280248502934352,-0.8148398932651534,0.9334717153041221,0.0025359684114547396,0.6704031951874228,1.0868271339874898,0.12802314129881887,0.7316507978380253,1.0316041605451942,0.0,0.0,0.0,0.0
0.0277866447782507,0.05804746928923055,0.7413800087287519,0.01435168337534516,-0.5215659681155475,-0.016443552682305015,0.8529317555720209,0.15005041134832203,-0.7840353357754719,0.9222571868969512,-0.1163958034959232,-0.814234111813621,0.9221558451580744,0.012201576197955246,0.6829873121840018,1.0544719092543127,0.11237407639811683,0.7155629424288135,1.056436267505314,0.0,0.0,0.0,0.0
0.027267877660511204,0.059541683549291076,0.7380134500262998,0.014733996017575452,-0.5222544516643279,-0.016855878278763472,0.8524957926263318,0.14761770905679145,-0.7914221318338933,0.9243148689725208,-0.11912429038452074,-0.8158504733340477,0.9128031125337676,0.025698653639799708,0.6993853706473653,1.0171846850195836,0.09524374237790367,0.6977965252879197,1.0831074887787182,0.0,0.0,0.0,0.0
0.026795836674250048,0.06072209496042664,0.7346669397770481,0.015388414286733878,-0.5228296558442959,-0.017527951501661174,0.8521180191684896,0.1465116605202411,-0.7973449506413787,0.9245800040802739,-0.1205618066665919,-0.8199270006742172,0.9064262460137792,0.04574997891651878,0.7206348182277253,0.970997389329993,0.07611439714272426,0.6791845346334336,1.109097431964989,0.0,0.0,0.0,0.0
0.026485526414223148,0.06144146321007903,0.7320965081262618,0.016338917679672525,-0.5232047677342435,-0.01849876024490209,0.8518495211354027,0.14706809971625417,-0.7999500498636127,0.9228805812912402,-0.12026099576976883,-0.82573266265286,0.9044026657872151,0.07011187497131734,0.7475342876342418,0.9125381202538427,0.055419365016098024,0.6628782605623288,1.1282167508831569,0.0,0.0,0.0,0.0
0.02651264668359291,0.06143913708465161,0.7320297890738446,0.01634543552573379,-0.523237027804485,-0.018494688914282742,0.8518296695664964,0.1470776365317141,-0.8000074842801912,0.9228780606709951,-0.12025780458869137,-0.8257500987992457,0.9043438164118837,0.07011915312629045,0.747516518244255,0.9125168379948906,0.055381819331824414,0.6628934417829506,1.1282359756701752,0.0,0.0,0.0,0.0
0.02651264668359291,0.06143913708465161,0.7320297890738446,0.01634543552573379,-0.523237027804485,-0.018494688914282742,0.8518296695664964,0.1470776365317141,-0.8000074842801912,0.9228780606709951,-0.12025780458869137,-0.8257500987992457,0.9043438164118837,0.07011915312629045,0.747516518244255,0.9125168379948906,0.055381819331824414,0.6628934417829506,1.1282359756701752,0.0,0.0,0.0,0.0
0.026551351105040918,0.06111093969704302,0.7317814735689558,0.01600040590136107,-0.5231242452683459,-0.018063221291140533,0.8519147440090484,0.14713477096263353,-0.8020407053140836,0.9237853915727432,-0.1204106565766886,-0.8268191728714306,0.905934421282252,0.07824975413664638,0.7440864341087502,0.9125901867376296,0.06475386384641375,0.6644085737152928,1.1310851104877078,0.0,0.0,0.0,0.0
0.02649760587186984,0.06086930261025526,0.7315499569591016,0.015751944556603475,-0.5230098914668342,-0.017706364281829038,0.8519970741349145,0.147066955263392,-0.8035566723061519,0.9239823593199974,-0.12061991081515633,-0.8274948887957211,0.906556033012157,0.0843374904941943,0.7408960335789764,0.9131210277153348,0.07206631097550828,0.6650907760212991,1.1337263883716635,0.0,0.0,0.0,0.0
0.026285172166196125,0.06082651110414624,0.731399031467235,0.015527519419640656,-0.5228510316776267,-0.017388686545493155,0.8521052331693174,0.14653303737261394,-0.8048565127455626,0.9237438423427616,-0.12120347278977993,-0.8269445227165104,0.904972269691137,0.08826774991358143,0.7377611883927905,0.9139745096123599,0.07691188172428415,0.6648517715513961,1.1353442757771457,0.0,0.0,0.0,0.0
0.0258554725654371,0.06102045563310099,0.7313572554573701,0.015277682205242272,-0.5226036332565983,-0.017062236122671038,0.8522681004425384,0.14533862102075995,-0.8061358807316862,0.9230761055656153,-0.12234460352815181,-0.8247343025479186,0.9004674406867343,0.09039129100751127,0.7343271925795214,0.9149937314387504,0.07955392011248863,0.6636160262746562,1.1356347233343105,0.0,0.0,0.0,0.0
0.025151941222148255,0.06148129734512389,0.7314362898672254,0.014968735103624429,-0.5222301525488908,-0.016693817137079653,0.8525097777782689,0.14333882490395822,-0.8075239303142225,0.9218907730011788,-0.12417464733732538,-0.8205211628662701,0.8923890660194462,0.09090244975332157,0.7302496857851589,0.9161609070541852,0.08016661504388155,0.6612333175379387,1.1344456275207395,0.0,0.0,0.0,0.0
0.024119659825150134,0.06225463730995607,0.7316320281544518,0.014576049845423779,-0.5217014794250467,-0.016263918433628847,0.8528485153260252,0.1403816312117342,-0.8091513483722943,0.9201097153120205,-0.1268277389193098,-0.8139363995098102,0.8799757794464941,0.08975736619961096,0.7251914390868461,0.9176831630286318,0.07869252169727417,0.6574784790467546,1.131696660156543,0.0,0.0,0.0,0.0
0.022713904142132316,0.06339862387062029,0.7319134246604562,0.014084026053530834,-0.52100283990668,-0.01576479664857131,0.8532931220898988,0.13631332975470023,-0.8111804099846629,0.9177058110973116,-0.1304386578012002,-0.804611846959835,0.8623939340728249,0.08675208354380835,0.7187939308587751,0.9200723794917792,0.07493035057175541,0.6520858483202713,1.1274675769547804,0.0,0.0,0.0,0.0
0.02092726757774427,0.06494608983421658,0.7322068618481051,0.013493651313832315,-0.5201464099968593,-0.015197182814388574,0.8538352763713302,0.13106565712000173,-0.8137772963157125,0.9147054304871173,-0.1350673421446875,-0.7923901140260843,0.8391077128394349,0.08181288285807578,0.7106988928992614,0.9241022544486117,0.06890249397677688,0.644889011704391,1.1222121144577981,0.0,0.0,0.0,0.0
0.018864131206886556,0.06678869342889726,0.7324191333653495,0.01284319139303599,-0.5191898957417558,-0.014565244618979846,0.8544382705869956,0.12492454822318536,-0.8169055229456507,0.9111774937501064,-0.14046057101445883,-0.777926229615792,0.8111288396012895,0.07571006768478786,0.700934750404971,0.9300306545952729,0.061691580488860885,0.6363255096132184,1.1168428834029756,0.0,0.0,0.0,0.0
0.017074706493666436,0.06831501383027597,0.7327068468270393,0.012310457689170913,-0.5182649609933899,-0.014029131984149146,0.8550164128797613,0.1197931753375924,-0.8193741324511562,0.9078396140640377,-0.14491620443279077,-0.7653194506795075,0.7866190818559627,0.0707726248939961,0.6928849415200444,0.9334241030138666,0.05613006526300849,0.6294015021263919,1.1110755385692457,0.0,0.0,0.0,0.0
0.015702490857421925,0.06950575289903957,0.7329794721244566,0.011910962571394831,-0.5174911749466552,-0.013594556518590898,0.8554976334602077,0.11574418193442437,-0.8214743177507515,0.9055329938284604,-0.14843768905194615,-0.755359800156225,0.7672494656892053,0.06704733279267128,0.6868138084740751,0.9352772187383197,0.05206129399417751,0.6243792156238999,1.1058781948928922,0.0,0.0,0.0,0.0
0.014715679469378374,0.07038743647292195,0.7331753834845353,0.011629147880501836,-0.5168982122408484,-0.013248256967666096,0.8558653426731958,0.11268190359789446,-0.8232810155589869,0.9041557036916136,-0.15112398276261046,-0.7480398133054603,0.7529364284901213,0.06444532970759495,0.682305263507067,0.9365051641197489,0.04927604908673016,0.6208415706561534,1.1019290016377925,0.0,0.0,0.0,0.0
0.014044834628730697,0.07100261317703006,0.7332832252235936,0.011441091418186649,-0.5164737741431699,-0.012969469140859596,0.8561283402152243,0.11044926153951179,-0.8248140291226599,0.903459985462635,-0.15311154408763716,-0.7430215328505392,0.7430201446980018,0.06285726070696392,0.6789684997858518,0.9375047414505682,0.047607123787389745,0.6184175796144954,1.0993637956554527,0.0,0.0,0.0,0.0
0.01362335433966897,0.07138561448052637,0.7333169964644705,0.011325518525249026,-0.5161877704971536,-0.012736656256873652,0.8563058424457387,0.10890717198680912,-0.8260792457774199,0.9032124999649355,-0.15451706749213004,-0.7399417530190875,0.7368091317369883,0.06223850647066119,0.6765184107444406,0.9383118964271098,0.04699395631260121,0.6168672345955932,1.0980442644060155,0.0,0.0,0.0,0.0
0.013372938101954222,0.07160361892576475,0.7333130065921273,0.01125539996160488,-0.5160002143000718,-0.012528051528270679,0.8564228761183865,0.10783257898093072,-0.8271132040723366,0.9032401556236817,-0.15552620375597861,-0.7381633364996578,0.7331785325070008,0.06237351016584961,0.6747248695689572,0.9388526298128744,0.047198339185165646,0.6159935903733175,1.0975139787637522,0.0,0.0,0.0,0.0
0.013193839783109174,0.07174612111626812,0.7333208777977331,0.011198161101866439,-0.5158639478636865,-0.01232078637582964,0.8565087195735427,0.1069412098226555,-0.8279212620475263,0.9032924720063059,-0.15636844667317387,-0.7367899196957285,0.730561489296323,0.0629414475677149,0.6733384902627797,0.9390126686426675,0.04787311511461704,0.6155785749413053,1.097133459507079,0.0,0.0,0.0,0.0
0.013026520656510287,0.07186996932147828,0.7333741469526027,0.011131812879935457,-0.5157420720300183,-0.012095227791461008,0.8565861914278459,0.1060417885047187,-0.8285685339238695,0.9032875094163874,-0.1572046968275789,-0.7352817696749823,0.7280078042884044,0.06377780888791183,0.6721935475435797,0.9386695821909522,0.04884482099347832,0.6155060450954379,1.0964611284007004,0.0,0.0,0.0,0.0
0.012770941947690325,0.07211972710718881,0.7334859334001819,0.01101824642876258,-0.5156028061800404,-0.011835249658725247,0.8566751259202162,0.10473513468975772,-0.8292409896531687,0.9031814835211005,-0.15837357534094076,-0.7325393228668156,0.7235293105490759,0.06422334174214635,0.670905088443473,0.9383119584615842,0.04937207564981724,0.6153875127314511,1.0950301183255402,0.0,0.0,0.0,0.0
0.012206374302602062,0.07283133190639994,0.7335269364903678,0.01078108797791203,-0.5154116471665705,-0.011508260291818492,0.8567976202418579,0.10212151005544849,-0.8306496067694714,0.9029247408975316,-0.16066544033852243,-0.7263623145034579,0.712653406842549,0.0627410551751892,0.6679127410312202,0.9406591875384684,0.0477017779402039,0.6137575991733483,1.093173512860665,0.0,0.0,0.0,0.0
0.011084791840858026,0.07435780982497973,0.7336382867951609,0.010315544225514724,-0.5150849844982727,-0.011052351452095334,0.8570057723371092,0.09714877089451553,-0.8329613208843343,0.902273747722399,-0.16493466396503653,-0.7134596520143597,0.6899117241550452,0.057920658536722444,0.6627430771272935,0.9457947649750124,0.04227433600287135,0.6102318398230435,1.0888029330808724,0.0,0.0,0.0,0.0
0.009026436557965667,0.07712497848195216,0.7343944010271614,0.009428495196389412,-0.5150358338763267,-0.01036483844901949,0.8570541193096117,0.08828951315866045,-0.8319041899998635,0.8969048786640242,-0.1719465464709732,-0.6840503087728855,0.6423047560805287,0.04883799787905518,0.6577023609858844,0.9510101379774997,0.03216116362294365,0.6076910188228432,1.0769168828298172,0.0,0.0,0.0,0.0
0.00708634435777022,0.07933194775182546,0.7352064988045846,0.008074951839193384,-0.516224217093941,-0.009513337567429092,0.8563625688029987,0.08049606617143466,-0.8232281719084426,0.8837810484964067,-0.15584734393668656,-0.7350662972065458,0.7195554809358435,0.04787672502927602,0.6551976694654438,0.9553106217477422,0.030948909587698793,0.611287330251528,1.0683564852526026,0.0,0.0,0.0,0.0
0.004898399147852467,0.08199734456526787,0.7361145194473853,0.006652343541190952,-0.5172777154350096,-0.00848522585535447,0.8557496785754178,0.07120363042053623,-0.815063885152878,0.8705405639855254,-0.14081721096732752,-0.7784640168352963,0.7619806552020036,0.04526916231659108,0.6517521919259452,0.9601694930087105,0.027976722013259542,0.6144454546164353,1.0575894229595835,0.0,0.0,0.0,0.0
0.002635055838935867,0.08499689138829583,0.7368387715866397,0.005238950864929822,-0.5181480303335685,-0.007447375297098944,0.855242485296692,0.061214664150505284,-0.8085162901096428,0.8584768147527216,-0.13004295588824671,-0.8146463060274993,0.7819259937227625,0.040482991751922145,0.6468750893050478,0.9675198996906009,0.02276753370624075,0.6160103315931327,1.0468610730203014,0.0,0.0,0.0,0.0
0.0004987381352465382,0.08798781324332852,0.7374973337727444,0.0039074953795854555,-0.5188681767475258,-0.00644424456496801,0.8548210446348075,0.05144375925488857,-0.8029366165100473,0.8476560666184846,-0.12279856892074957,-0.8452336958056194,0.789585415565107,0.035052990295905896,0.6420128929382125,0.9747891665070606,0.017052855865644517,0.6172984314268379,1.0359857527034084,0.0,0.0,0.0,0.0
-0.0013063722402640527,0.09077102163292965,0.7380700667247014,0.002727226791642764,-0.5194783555350996,-0.005528188683654357,0.8544613739043173,0.04247453696529811,-0.7986075736517938,0.8391132153438684,-0.11784376900112509,-0.8714602291152747,0.7901087585246683,0.02959036195090059,0.6379102728557917,0.9814208455519395,0.011454249321859133,0.6188057480875075,1.0256492340598673,0.0,0.0,0.0,0.0
-0.0027832353583661586,0.09321994087523612,0.7385396244271668,0.0017184992925270935,-0.5200096988953007,-0.004697063487987609,0.8541457120477689,0.034563222995020695,-0.7951997402139641,0.8323635324203476,-0.11369988162959663,-0.8947351266299741,0.7866777613223374,0.024787655997301206,0.6345068995937471,0.9872642930257101,0.006641667272429348,0.6204812044468695,1.0165701237307372,0.0,0.0,0.0,0.0
-0.0039485387796867255,0.09530996827222384,0.7389192749277083,0.0008823123473306905,-0.520459264881908,-0.003948369884136028,0.8538769147241092,0.02773167311906193,-0.7926991359384697,0.8273579879571942,-0.10942608615079158,-0.9154294863952748,0.7810230568857227,0.020788900170003212,0.6317664063428083,0.9922006862006345,0.002702411480043813,0.6222519069876071,1.008821509207345,0.0,0.0,0.0,0.0
-0.004850486713361988,0.09705279026515079,0.7392052561348674,0.00021032875254201167,-0.5208231439324861,-0.0032766065465501867,0.8536582878152335,0.021915844858378906,-0.791051600843119,0.8238528691623161,-0.1043793556380228,-0.9329387709385366,0.7746326507738447,0.017588630540243635,0.6294701541582439,0.9963966227880993,-0.00041082449961992937,0.623900560645835,1.0025119113074559,0.0,0.0,0.0,0.0
-0.005575370422909867,0.09848697853139522,0.7393896823084124,-0.0003154527697838891,-0.5210890626694182,-0.002680292141891335,0.8534980405893684,0.017008403760263482,-0.7900905805822299,0.8213128462055549,-0.0982776641290262,-0.9456053230868255,0.7693592786360582,0.015046459742195414,0.6272614984344803,1.0001404706559422,-0.0028581442483512627,0.6250781393878033,0.997680378850479,0.0,0.0,0.0,0.0
-0.006214456025896571,0.09969634726146513,0.7395260576430575,-0.0007308297610604993,-0.5212538979497364,-0.002150424083402037,0.8533986263384349,0.012784333109537135,-0.7894924115475381,0.8191742562257321,-0.09115855361613297,-0.951174865468268,0.7679555702097537,0.012885846441895344,0.6250718324692033,1.003310083118968,-0.0049171962995207315,0.6257954071833722,0.993660724663808,0.0,0.0,0.0,0.0
-0.00682827226406176,0.10074896541362363,0.7396698441729275,-0.0010683534106982597,-0.5213448921838754,-0.0016798131804348735,0.8533437409640103,0.009068160617765563,-0.7888311230502464,0.8168984188243151,-0.0831866506350451,-0.9481541197414138,0.7733496991624229,0.010910772812765241,0.623015627933299,1.0057413564622426,-0.006781870435718376,0.6262564133074838,0.9898371742882179,0.0,0.0,0.0,0.0
-0.007382903811756213,0.10159876530282799,0.7397607912265024,-0.0013069329598411061,-0.5213390714004765,-0.001274237285700901,0.8533476670600717,0.0059794082789480126,-0.7884815196498902,0.814863917851501,-0.07431043414467477,-0.9379255908039403,0.7827976175387962,0.009263287298972758,0.6208601273704262,1.0077643264903842,-0.008317021649106214,0.62617334092287,0.986841304837683,0.0,0.0,0.0,0.0
-0.007789704096462017,0.1022059751350451,0.7397762803410888,-0.0014277296364121888,-0.5212586453553517,-0.0009301330983480506,0.8533970477349968,0.0035926464205758004,-0.788777195643788,0.8137707758783529,-0.06429330855171148,-0.9227830374556169,0.7940070551444893,0.008112223024043455,0.6188050643928313,1.0094392870786268,-0.00937622974791116,0.6257212589229759,0.9850224315162611,0.0,0.0,0.0,0.0
-0.007970531863064088,0.10256877875622473,0.739720653487981,-0.0014234889570674013,-0.5211367007952769,-0.0006466514008497998,0.8534717889920962,0.0019018426820240097,-0.7899520039026899,0.8142731140817091,-0.05304495725504159,-0.904508740617391,0.8055369429619854,0.0074298310534713675,0.6171815115563873,1.0107499674030493,-0.010004084768700123,0.6252008602241678,0.9843839060053583,0.0,0.0,0.0,0.0
-0.007907816283501694,0.10270875583943696,0.7396151474217332,-0.0013020742141044766,-0.520980056300017,-0.0004209003717968739,0.8535677526612924,0.0008488385118099223,-0.7920791168656501,0.8166061242732894,-0.04068796816737784,-0.8841681909189238,0.8164522364483532,0.007138311579651562,0.6161459145182716,1.0115865285410643,-0.010278786617435443,0.6247875520699079,0.984671604159416,0.0,0.0,0.0,0.0
-0.007732489292887691,0.10262028126890194,0.7395315287037655,-0.0010983086702216374,-0.5207702613673015,-0.0002380882994799056,0.8536961238681238,0.0004318285947535511,-0.794356078650703,0.8193873537343045,-0.027418526194653785,-0.8630232483106327,0.8266329779040891,0.007560287344224326,0.6155416544312885,1.0113124304800905,-0.009862427570913754,0.6245071419751985,0.9853117259689774,0.0,0.0,0.0,0.0
-0.007482807973526074,0.10238057029075111,0.7395125908278474,-0.0008424548344458853,-0.5205031759636812,-9.973905451694405e-05,0.8538593116747595,0.00048370941977606474,-0.7966882609908966,0.8225109276453565,-0.014020287854895062,-0.8419041320438484,0.835108466242442,0.00837017619837728,0.6154451411204029,1.009816688830254,-0.00906043972388804,0.6244785940293129,0.985653715067493,0.0,0.0,0.0,0.0
-0.007222966333361096,0.10211221299910268,0.7395581477305525,-0.0005786892298598611,-0.5201977286850811,-1.3342542064337338e-05,0.8540456592077701,0.0007475002710545142,-0.7989503930623194,0.8257051045704711,-0.002091012243221309,-0.8225838511146486,0.8403202078972207,0.009002986944710828,0.6157198040584925,1.0076002263423183,-0.008418804473026974,0.6245844416594107,0.9853510615343886,0.0,0.0,0.0,0.0
-0.007055580617156523,0.10199655532295228,0.7395549701752463,-0.0003735250878902957,-0.5199204782278793,2.027992397522834e-05,0.8542145845084984,0.0008120339660297597,-0.8010554924502856,0.8284348804654729,0.005350191396237174,-0.8086152652267645,0.8400316415898984,0.008703622925650785,0.6156570587708396,1.0065132970601027,-0.008689150338238794,0.6241849094407842,0.9850418500139291,0.0,0.0,0.0,0.0
-0.007047741817076584,0.1019828696920921,0.7395528924888293,-0.0003556341613586528,-0.5199155864306287,2.285286702221765e-05,0.8542175694684494,0.0008282928083520121,-0.8010713320039173,0.8284585577500752,0.0053615132799423705,-0.8085807887045193,0.8400321426375279,0.008698168104087623,0.6156732710333692,1.0064677276757341,-0.008693571845416007,0.6241696104669872,0.9850913846899385,0.0,0.0,0.0,0.0
-0.007047741817076584,0.1019828696920921,0.7395528924888293,-0.0003556341613586528,-0.5199155864306287,2.285286702221765e-05,0.8542175694684494,0.0008282928083520121,-0.8010713320039173,0.8284585577500752,0.0053615132799423705,-0.8085807887045193,0.8400321426375279,0.008698168104087623,0.6156732710333692,1.0064677276757341,-0.008693571845416007,0.6241696104669872,0.9850913846899385,0.0,0.0,0.0,0.0
-0.0072453428429426845,0.10159426132511495,0.7393809447624116,-0.00021275764763719753,-0.5198957806674444,-5.852780736297785e-06,0.8542296716598627,0.0017942410542516034,-0.7993740506789817,0.8248804145866444,0.006330680071161979,-0.8093498739456026,0.8400406220531613,0.010135392767155992,0.6143769222426229,1.0068293048192554,-0.007268158992974779,0.6225366349387484,0.9880748026100559,0.0,0.0,0.0,0.0
-0.007481701320123097,0.10111867050657941,0.7392617964630892,-7.210888693365454e-05,-0.5198179333766739,-3.104209748482159e-05,0.8542770686239333,0.002970320826445457,-0.7974281673331112,0.820800585588901,0.007512353852905196,-0.8102931297997895,0.8402323383194349,0.012136605627042848,0.6130512546054905,1.0063022890367053,-0.0052595878317022015,0.6209498830063211,0.9907621607159764,0.0,0.0,0.0,0.0
-0.007708814008786664,0.1006698636359862,0.7391986088264453,5.5595694246818656e-05,-0.5197203811564981,-5.9415317457621185e-05,0.8543364201469367,0.004094713947297736,-0.795548965654092,0.816960565183726,0.008643994341262388,-0.8111477210348538,0.8404332473702171,0.014007218925632831,0.6119810716947094,1.0053052363653965,-0.0033615905633229137,0.6196254256612582,0.9927771351405908,0.0,0.0,0.0,0.0
-0.007897928904742271,0.10029034758370033,0.7391617923016097,0.00016896739347235733,-0.5196314617226909,-9.490358463095146e-05,0.8543904882612335,0.005072558941715959,-0.7939263601975591,0.8137195327262327,0.00962969622636851,-0.8118943982605582,0.8406616125896815,0.015477003239197262,0.6111908969275863,1.0043019208477726,-0.0018575046662574423,0.618548360712285,0.9942909707058923,0.0,0.0,0.0,0.0
-0.008052378939210146,0.09998034373430725,0.7391324883800753,0.000269927444979363,-0.5195599531344037,-0.00013893317178215948,0.8544339429913376,0.005906592672536021,-0.792547894037603,0.8110218241652527,0.010471428741827464,-0.8125259351263943,0.8408620054640545,0.016535925999984002,0.6106021250568576,1.0034911871807692,-0.0007663685737228931,0.6176312637481497,0.9955013264892326,0.0,0.0,0.0,0.0
-0.008187990381661608,0.09973098630097983,0.7391012357182727,0.0003618266017738158,-0.5195073860729545,-0.00019460566939889028,0.8544658606555265,0.006625770758728978,-0.7913142375389131,0.8086604019647757,0.011197741713796814,-0.8130060747007392,0.8409132848549459,0.01720756459911394,0.6101333943051424,1.002948606288856,-6.810192324704705e-05,0.6167772698048027,0.9965383423837737,0.0,0.0,0.0,0.0
-0.008307673245430627,0.09955553363629216,0.7390678900319961,0.0004472413142735849,-0.5194859259701115,-0.00026417054609425335,0.8544788487189752,0.007201211739649393,-0.7901613110248635,0.8065782282312332,0.011779073687693006,-0.8132198030568578,0.8406681731868663,0.017387394272085972,0.6098148841915286,1.0027556146039642,0.00012826014624940305,0.6159963374987989,0.9973853944104267,0.0,0.0,0.0,0.0
-0.008308616726788808,0.09954932154233162,0.7390639298714825,0.0004486580361832684,-0.5194859658404293,-0.00026538374643015266,0.8544788233609245,0.007218784117179019,-0.790143045341303,0.8065356692536333,0.011797430763512582,-0.8132435266295159,0.8406872360284833,0.017408497047449092,0.6097978154735137,1.0027704445634242,0.00015099285010716066,0.6159717658414904,0.9974399680227725,0.0,0.0,0.0,0.0
-0.008308616726788808,0.09954932154233162,0.7390639298714825,0.0004486580361832684,-0.5194859658404293,-0.00026538374643015266,0.8544788233609245,0.007218784117179019,-0.790143045341303,0.8065356692536333,0.011797430763512582,-0.8132435266295159,0.8406872360284833,0.017408497047449092,0.6097978154735137,1.0027704445634242,0.00015099285010716066,0.6159717658414904,0.9974399680227725,0.0,0.0,0.0,0.0
-0.007614119436583258,0.09970316394574423,0.7394727667346764,0.0005106565129980712,-0.5198734834647033,-0.0002659520340557984,0.8542430741245236,0.006791778941157215,-0.7907468307261897,0.8117184651916727,0.011368939815398852,-0.8132008105256302,0.8447358326178906,0.016199841008227987,0.6148151039441031,1.000020753452203,-0.0011712026147520241,0.6207863470909573,0.9935879225423583,0.0,0.0,0.0,0.0
-0.006488958745594349,0.09978674086235861,0.7397311803733663,0.00034440427379765797,-0.5204747460257011,-8.750596641022171e-05,0.8538769890785698,0.006203054700908007,-0.7933804129937072,0.8207333578823265,0.010777071537474151,-0.814244508683121,0.8519762987769576,0.01783788974590504,0.6201287822282592,0.9982927681565492,0.0002836262470721125,0.6273426640483519,0.9917391545238431,0.0,0.0,0.0,0.0
-0.005399423402296677,0.09981660483513732,0.7398413661715839,0.0001639926527087756,-0.521089160321298,9.390646610416195e-05,0.8535022268767845,0.005752438560446046,-0.7960018957321243,0.8291584767848557,0.010325369799902881,-0.8155104786636265,0.8590343824742958,0.019980869696471854,0.6246256222157465,0.9976944659618965,0.0022404083094205787,0.633202069347614,0.9914180167858897,0.0,0.0,0.0,0.0
-0.004479011011043825,0.09984226133735678,0.739869322206193,3.6760687829472775e-05,-0.5216199074089168,0.00022180693494806454,0.8531779542657255,0.005424931053152391,-0.7982172556393232,0.8361366758715253,0.00999838665591385,-0.8167415634278237,0.8650032783605759,0.021556372001839876,0.6282395154857805,0.9977797713519801,0.003654566106547828,0.6378258690503589,0.9916765822416511,0.0,0.0,0.0,0.0
-0.003768616892992455,0.09989717445585208,0.7398569402128865,-2.4342281451723766e-05,-0.522030034290428,0.000287631451927896,0.8529270543102356,0.005150039171857382,-0.7999801899453874,0.8415596011716046,0.009724444277025951,-0.8177911615863791,0.8695688269071886,0.022164681295239234,0.6310145496984675,0.998284489017944,0.004128266254056524,0.6411240428561343,0.991988220151296,0.0,0.0,0.0,0.0
-0.0032562315830792794,0.0999932924746629,0.7398292879901488,-3.3296330778002625e-05,-0.5223264251626062,0.0003058127702476905,0.8527455722234835,0.004866460792559431,-0.8013327941191051,0.8456027882441551,0.00944136941574062,-0.8185543216426493,0.8727358805033121,0.021859528331016776,0.6330743456289869,0.9990388194955655,0.0037113412066480576,0.6432880244332438,0.9921344286459626,0.0,0.0,0.0,0.0
-0.0029075997658000834,0.10013011267709868,0.7397992116392944,-1.0066936572795136e-05,-0.5225330014560348,0.0002957298441058359,0.8526190091898395,0.004535205394885919,-0.8023480095802357,0.8485371929735367,0.009109771230015757,-0.8189838900767991,0.8746717138445133,0.02087002622925388,0.634562705392165,0.9999379433603686,0.002631833355510395,0.6445992798164897,0.9920634003438139,0.0,0.0,0.0,0.0
-0.0026873896480026915,0.1003044906314554,0.7397722484991088,3.13890392308745e-05,-0.5226716383789372,0.000271827588748278,0.8525340365984033,0.004133879849141167,-0.8031092137841052,0.8506292662288764,0.008707185762544405,-0.8190891248487641,0.875588283199984,0.01939338078807414,0.6356044291251413,1.0009249079272657,0.0010875539585264461,0.6452954356801135,0.9917770968739996,0.0,0.0,0.0,0.0
-0.0025711932755108995,0.10051569024361202,0.7397505582912425,8.919693340307786e-05,-0.5227516909567907,0.00023869495946987545,0.8524849586182969,0.003653238331103638,-0.8036954686393055,0.8520835218351567,0.008224538202302366,-0.8189304140316702,0.875675628365176,0.017481185601774144,0.6362872863765588,1.0019725516149098,-0.0008684329952340353,0.645497728354303,0.9912642443076246,0.0,0.0,0.0,0.0
-0.0025495581725059084,0.10076297697540347,0.7397352103268163,0.00017620095825816623,-0.5227674763965883,0.00018907971905491894,0.8524752775441788,0.0031068713565502964,-0.8041570823702524,0.8530006885702031,0.007675854053964054,-0.8186205960274113,0.8750907607441173,0.015020111731982701,0.6366628349599158,1.0030583387780612,-0.0033449432642809387,0.6451923734109669,0.9904863865696364,0.0,0.0,0.0,0.0
-0.002625013993770846,0.10103077054591121,0.7397322922815464,0.00030776938999844505,-0.5227255786857392,0.00012010289935504767,0.8525009444223245,0.0025319995420692064,-0.8043531553130377,0.8532161205440347,0.007098673561965136,-0.8181500708999078,0.8738430893085821,0.012007429589153016,0.6367904213103159,1.0040928151309694,-0.006337586734560331,0.6444011310324884,0.9894490124154057,0.0,0.0,0.0,0.0
-0.002797166928666427,0.10122924761999715,0.7398516208130609,0.0003050152179907957,-0.5230424801441664,0.000302299032572466,0.852306505633772,0.0015266533215251199,-0.8018417721668972,0.8502734578238771,0.006083101448055386,-0.8141933805260944,0.8691494707625415,0.01184727133327568,0.6373178019932292,1.0043150139696464,-0.006514875833745112,0.6456672311084758,0.9886554486147807,0.0,0.0,0.0,0.0
-0.002749685189203633,0.10152872212692915,0.7398487360899404,0.0004605855814287102,-0.5231011964233664,0.0002894484264103935,0.8522704044967027,0.011132143488399086,-0.8164150789289069,0.8492984999814733,0.005257772646889529,-0.8136494123442305,0.8684335582398458,0.008840824038222958,0.6379712458503607,1.0055144997252974,-0.00951868757733941,0.6455809367253073,0.9876711007914077,0.0,0.0,0.0,0.0
-0.0025638387156930896,0.10189183693329175,0.7398725649806878,0.0005111583631819524,-0.5233192006681519,0.00045654221931976026,0.8521364588482154,0.02467274403657607,-0.8358598850224433,0.8432449832048636,0.003842699769093531,-0.812232592481446,0.8676132785711645,0.007173463369625084,0.63901042633032,1.006698326779468,-0.011216973738479975,0.6469881688215953,0.9866480723943243,0.0,0.0,0.0,0.0
-0.0022840383910804466,0.10233566011143033,0.7399123711608848,0.0004894939274617754,-0.5236094437671147,0.0007288004452469293,0.8519579682375761,0.03873475106540168,-0.8569924653128991,0.8345646813999347,0.0019820579051506755,-0.8103761830311869,0.866799884229646,0.0060636607989032875,0.6402706464379541,1.0079593883433364,-0.012384632189108437,0.6492551106805385,0.9853876771467088,0.0,0.0,0.0,0.0
-0.00193058617257361,0.10287728178517666,0.7399512565603422,0.00041704912377832446,-0.5239030696708479,0.0010574092829367264,0.8517771313818535,0.05193085164906733,-0.8782023280019289,0.8245485753103801,-0.00024487401377644826,-0.8084981743767528,0.8662161130598919,0.004960823183463604,0.6415933261402645,1.0094324759440434,-0.013553382771005366,0.6519162507865186,0.9837936970885767,0.0,0.0,0.0,0.0
-0.0015020415431825974,0.10353748857238627,0.7399760079657228,0.000295736193950469,-0.5241616098935977,0.0014245112734637185,0.8516175726354448,0.06391174439042366,-0.8988314292386276,0.8137475484493258,-0.0028425713733656226,-0.8068537192819969,0.866053489856763,0.0035968497913548446,0.6428797514837007,1.0112410073273015,-0.014978461767069393,0.6547622230500943,0.9818069715188601,0.0,0.0,0.0,0.0
-0.0009847147234688324,0.10434223613687346,0.7399753501023985,0.00011658194435612459,-0.5243623961761914,0.0018312675546413052,0.8514932238979689,0.07471740176045524,-0.9185616614763492,0.8024235689425675,-0.00587530906985156,-0.8056020206445451,0.8664767212027389,0.0018512700847827554,0.644060179513647,1.0135076139548291,-0.016771158718825833,0.6577277040268843,0.9793763796443674,0.0,0.0,0.0,0.0
-0.0003636344614899473,0.10531924927765628,0.7399359190781902,-0.0001398920942275998,-0.5245036686041521,0.002294582288423837,0.8514050839307394,0.08437454082485524,-0.9368726005743959,0.7910260074172349,-0.009449423433921498,-0.8047380936691102,0.8674959623624402,-0.0002448639479040271,0.6450632624388246,1.0163994530421998,-0.01889520131746909,0.6608485602352273,0.9765220569769745,0.0,0.0,0.0,0.0
0.0004867138946781244,0.10642472945360054,0.7398298642563501,-0.0005233637278409185,-0.524600930944891,0.002844701152338343,0.8513433484896186,0.09311775553779876,-0.9521325898113704,0.780006209199155,-0.0135089698947037,-0.8048892690021145,0.8703800120702953,-0.001889106906845612,0.6460075492133768,1.019882198599984,-0.020576048247164896,0.6645616994532889,0.9736095771629529,0.0,0.0,0.0,0.0
0.0014715656524726512,0.1077084632916815,0.7396431830780704,-0.001005787227445392,-0.5246109376816275,0.0034688333406180383,0.8513344346683691,0.1008913390020757,-0.9626068897732826,0.7709009544485851,-0.01817171831625363,-0.8057558250097496,0.8742410625759199,-0.0036852258162204613,0.6465489588324155,1.0242432369548977,-0.022385979286784468,0.6683318298221346,0.9705451013772096,0.0,0.0,0.0,0.0
0.0024838750210075355,0.10917694442603001,0.7393916669676001,-0.001542440353976236,-0.5244967574476972,0.004140955965230026,0.8514009776763825,0.10783628770477546,-0.9660433240231004,0.7659527937498842,-0.02342012993824007,-0.8069959898162219,0.8781989620091774,-0.006146179667711492,0.646501006815305,1.0294020190551236,-0.024796765275552232,0.6717047467424482,0.9671285482054065,0.0,0.0,0.0,0.0
0.003483079813448177,0.11079046156662638,0.7391451610674945,-0.0021252934984969086,-0.524313553576761,0.004859584879162337,0.8515087580865252,0.11394654674496654,-0.9609828131186116,0.7677248419302537,-0.029154785763822254,-0.8079295650756813,0.8815569422752543,-0.00906831983847782,0.6462224104829841,1.0347419101579867,-0.027599140534364186,0.675052791843541,0.9629957786050244,0.0,0.0,0.0,0.0
0.004521521350788519,0.11260726440621485,0.7388696547942386,-0.00276545315915917,-0.5239910886771574,0.005635651317347308,0.8517006109484607,0.11927343234133649,-0.9487923184580951,0.7734189429651765,-0.0355563041178597,-0.809154619813819,0.8850148426510671,-0.012725833549205406,0.6455216225878615,1.0405476258434911,-0.031034430519595976,0.6782179276924291,0.9580513580084826,0.0,0.0,0.0,0.0
0.005700211851258655,0.11467406169408023,0.738525519984241,-0.0035136374218845924,-0.5235285414401856,0.006518890755145998,0.8519759531306631,0.12388161811860231,-0.9316453379419251,0.780430480520324,-0.04286421282852715,-0.8109911156856587,0.8892555905922779,-0.016805357852450943,0.6443613677296723,1.0471394494648376,-0.03478793520031355,0.6815042315869695,0.9524253977969028,0.0,0.0,0.0,0.0
0.007140621140603638,0.11691751140137722,0.7381436479201524,-0.004415935729163082,-0.5230055294235018,0.007546656001483612,0.8522844382524379,0.1282541191393208,-0.9111039104230176,0.787104443165893,-0.0509793911228561,-0.8134641821836625,0.8950598921973325,-0.020243739401474913,0.643276280993898,1.0539608670948797,-0.037863219582600624,0.6858366910682228,0.9461560380255127,0.0,0.0,0.0,0.0
0.008875625337344553,0.11919073974997062,0.7377241474753615,-0.005465220468270203,-0.5224728471614946,0.008705333910533146,0.8525939669653433,0.1334007898707536,-0.8878273423116704,0.7919333699476799,-0.05951039100728426,-0.8167667315251854,0.9029652982590353,-0.022114973183974564,0.6424594953260147,1.060596256293242,-0.0394260602228294,0.6914569717775803,0.9398178153206275,0.0,0.0,0.0,0.0
0.010676035148688612,0.12130923262281607,0.7371606671061408,-0.006568272511285801,-0.5219605632533174,0.009899802038979987,0.8528868753381578,0.14049901228481745,-0.8625028635949117,0.7935192517293009,-0.06778965521626107,-0.82063779546602,0.9116325700847512,-0.022311954631991517,0.6410533807910052,1.0677861579263066,-0.03941240297264168,0.696894738564323,0.9353060648253255,0.0,0.0,0.0,0.0
0.012407230950263425,0.12307623524653112,0.7364649521480662,-0.007644322145575238,-0.5214730974832261,0.011028335784959643,0.8531622054158274,0.15055562956456894,-0.835139961957193,0.7891751456058754,-0.07507762161024437,-0.8252339701224637,0.9208503546661074,-0.020568951714807465,0.6389075799181756,1.0750911280410052,-0.03760293739676292,0.7014705612522313,0.933363281994348,0.0,0.0,0.0,0.0
0.0138500964085969,0.12433367153328827,0.735730096704313,-0.008554768480723842,-0.5209110139788705,0.011914202115840414,0.8534849636869352,0.16342325620365974,-0.8060168869884226,0.7741662786924701,-0.08055248511892903,-0.8308612010094267,0.9302044305244882,-0.01778157477915642,0.6359693904085245,1.0815118319703132,-0.0348215631465535,0.7041060513476393,0.9336216674873943,0.0,0.0,0.0,0.0
0.014664164936437218,0.12488786813855554,0.7351167462246379,-0.009101482900047666,-0.5201762469470094,0.012301117512227212,0.85392184515276,0.17663804273278286,-0.7766756480143219,0.7424705128679856,-0.08308093166375159,-0.8374429974505054,0.9384867625806917,-0.01559125007617217,0.6323717348365526,1.085647314888759,-0.03259092551735531,0.7033716422509442,0.9352846439736197,0.0,0.0,0.0,0.0
0.014705882938542197,0.12492891737961295,0.7350994937736974,-0.00915439949515342,-0.520156580688208,0.01229542311047882,0.8539333411380359,0.1766339286390998,-0.776606242488893,0.7424863627555597,-0.08318026034502071,-0.8374751284572368,0.9385351187778257,-0.015594907753633347,0.6323644137623027,1.085795135781653,-0.03256387223814669,0.703427565110392,0.9351852891247943,0.0,0.0,0.0,0.0
0.014705882938542197,0.12492891737961295,0.7350994937736974,-0.00915439949515342,-0.520156580688208,0.01229542311047882,0.8539333411380359,0.1766339286390998,-0.776606242488893,0.7424863627555597,-0.08318026034502071,-0.8374751284572368,0.9385351187778257,-0.015594907753633347,0.6323644137623027,1.085795135781653,-0.03256387223814669,0.703427565110392,0.9351852891247943,0.0,0.0,0.0,0.0
0.014946199576493771,0.12507438229832488,0.7350496686461505,-0.008843933522233819,-0.5200873878802059,0.011905514345093295,0.8539842811995882,0.17728724468097948,-0.7775871144956026,0.745155937219521,-0.0827746179377582,-0.8399608095443657,0.9415257082979759,-0.021548827593985624,0.6344697477247435,1.0866629350441068,-0.038201905204032834,0.7022135890069218,0.9341134634381337,0.0,0.0,0.0,0.0
0.015276696665313286,0.1252977480872715,0.7349662024848365,-0.008704673428887996,-0.5201969087226866,0.011683658857500173,0.8539220672470988,0.17736945919562463,-0.7791451277968212,0.7489190624211395,-0.08288161157149267,-0.8411678350270196,0.9436375960929254,-0.02586830356648371,0.6365777249543799,1.0880801084662495,-0.04222392399488953,0.7022244246183541,0.9335249125271488,0.0,0.0,0.0,0.0
0.015671374594837927,0.12564091002114167,0.7348505226866963,-0.008695723493094793,-0.5204253042948179,0.011609484386899283,0.8537839931240502,0.1768176145738995,-0.781508341849565,0.7539752841203599,-0.08359672751266294,-0.8412860794587657,0.9448505329144905,-0.02926761536915682,0.6386223133918678,1.0901010471582164,-0.045355576250159194,0.7031036494077295,0.9331123580446777,0.0,0.0,0.0,0.0
0.016115404258843894,0.12616121289660395,0.7347127033678857,-0.008788138303768499,-0.5207189460964007,0.011662046641563733,0.8536032711216245,0.17554080125554605,-0.7849796435375976,0.7607061052856745,-0.0850394691244703,-0.8404363036744495,0.945118940340954,-0.03250694054242316,0.6406213661826793,1.0927447331886675,-0.04830487993359486,0.7046154142031661,0.9324199973427981,0.0,0.0,0.0,0.0
0.016615873218881038,0.12692434740929123,0.7345609189397809,-0.008976921905142677,-0.5210488023720892,0.011845643020453954,0.8533974696242967,0.17337110862564287,-0.7899672321939245,0.7697049261024093,-0.08739912516721218,-0.8385958749533374,0.944358430000511,-0.0360955353220412,0.6426297708837714,1.0960601614226164,-0.051521381573878096,0.7067433116329688,0.9310298216034932,0.0,0.0,0.0,0.0
0.01721738801604796,0.1280075370097576,0.7343999394469763,-0.0092920251824023,-0.5214207069188611,0.01220140215393479,0.8531619016632908,0.1700314475485857,-0.7970614713828412,0.7819213918311103,-0.09096765805923303,-0.8355628658211786,0.9424810829833171,-0.04015967119018339,0.6447716245136569,1.1001313281633927,-0.05509459779700433,0.7098025673580195,0.9285735650504898,0.0,0.0,0.0,0.0
0.01797547413551043,0.12948305714371955,0.7342423906193356,-0.009766493684749456,-0.5218401234188941,0.012773664113877653,0.8528917485216778,0.16524571208391686,-0.8068288630062957,0.7982933466349681,-0.09602779235345679,-0.8311470354401398,0.9394745382964158,-0.04475637599857329,0.6472340527155768,1.1049308456974913,-0.05904402885345299,0.714203323004999,0.9245992212412866,0.0,0.0,0.0,0.0
0.018918494459146843,0.13137926312846165,0.7341228002800163,-0.010413506477337313,-0.5223027195013306,0.013583224000349543,0.8525883673321594,0.15887805700440594,-0.8193487295095375,0.8190258261266391,-0.10268783423175683,-0.825192179604411,0.9353136656104283,-0.049906067365679124,0.6502433691008427,1.1101444275164505,-0.06335003378890684,0.7202926027648013,0.9185828855326807,0.0,0.0,0.0,0.0
0.020045499527866377,0.13361974753949613,0.7340685547665663,-0.011199464217773287,-0.5227748199093595,0.014603638302771761,0.8522721357748905,0.15114695919976456,-0.834114375983304,0.843335208645897,-0.1106918307907013,-0.8180412158503848,0.9304371369833436,-0.05545485337411457,0.6538967237312425,1.1152508362885916,-0.06784895063811211,0.7280627021059227,0.9103909733093487,0.0,0.0,0.0,0.0
0.021027414841208215,0.13556365145720317,0.7339367296053194,-0.011869354405816398,-0.5231584208389781,0.01544663612203371,0.8520127854461864,0.1444907595847936,-0.8467154278934024,0.863693785829794,-0.11752276587358582,-0.8121607678073535,0.9262595282874058,-0.0609550650298242,0.656976007574923,1.1202558096289066,-0.0722112745697522,0.7342501206884079,0.9037914385660282,0.0,0.0,0.0,0.0
0.02185044132135406,0.13709979389613083,0.7337601465114653,-0.012396521507690971,-0.5234815255423729,0.016090961845193565,0.8517948694475894,0.13925728280192248,-0.8566677679189516,0.8796415197325465,-0.12286618949102776,-0.8077671138091661,0.9232253995240969,-0.06576139006847441,0.6595451356766019,1.1247196253605576,-0.07594645548228596,0.7389274634363985,0.8990990572715455,0.0,0.0,0.0,0.0
0.022544392564205897,0.13825781370094864,0.7335707781102344,-0.012802283261288419,-0.5237755659784994,0.016572137403581252,0.8515988623108166,0.13531759889687917,-0.8642771347394271,0.891895866233323,-0.1268825481995166,-0.8046199342806313,0.9213158127930959,-0.06959882189137181,0.6617608071043447,1.1284860559136098,-0.07887662154378151,0.742521462548149,0.8960260459485635,0.0,0.0,0.0,0.0
0.023147824624916925,0.1390999451225689,0.7333854521357809,-0.01311726093401339,-0.5240637408640523,0.01693387185019545,0.851409641101935,0.1324337604117796,-0.8700107866793563,0.9013180140474144,-0.1298285157694315,-0.80243517301559,0.9204066260746102,-0.07236109661575885,0.6637493218206914,1.131561386453513,-0.08094926887743945,0.7454367258781185,0.8942300260154983,0.0,0.0,0.0,0.0
0.023700184895399583,0.1396843798242498,0.7332110969491751,-0.013369731958735384,-0.5243632379890301,0.017215005136079015,0.8512156533518261,0.13038188179475274,-0.8743086101610644,0.9086678470797517,-0.13193874424055857,-0.8009932941114046,0.9204115595622886,-0.07398940356422398,0.6656135358937768,1.1340007310610272,-0.08213686430186695,0.7480103777781493,0.8934351385277277,0.0,0.0,0.0,0.0
0.024230179346467578,0.1400627194746426,0.7330515254350968,-0.013585621382659405,-0.5246875032006011,0.017447844866568887,0.8510076542465869,0.1289633282382397,-0.8775162700249108,0.9145210164469391,-0.1334126095813314,-0.8000764076377379,0.9211895088324858,-0.07444944034572464,0.667422018864111,1.1358704012506107,-0.08241954902889113,0.7505082162440984,0.8934101438656985,0.0,0.0,0.0,0.0
0.02473762349857769,0.14029379104488707,0.7329137302126326,-0.013785992244101417,-0.5250378660779517,0.017655831656718596,0.8507840250090889,0.1279732608491934,-0.8798778783529342,0.9192327054156159,-0.13444231213604416,-0.7993853771791705,0.9223681163366505,-0.07387128082197811,0.6691746110969947,1.1372508558568717,-0.08189755454995575,0.7530645156276626,0.8938633642766027,0.0,0.0,0.0,0.0
0.025213128520200277,0.14043489884127128,0.732812012017377,-0.01398801322210549,-0.5254058700380934,0.017855036750841782,0.8505493547574052,0.12722708862918417,-0.8815947386902725,0.9230836271950101,-0.13519802596276756,-0.7986348805616397,0.9235553920337862,-0.07245966879183527,0.6708695558653914,1.1381603828565026,-0.08072178611199786,0.7557729091400105,0.8944240076459097,0.0,0.0,0.0,0.0
0.025613729639515928,0.14057340009144537,0.7327806331169628,-0.014202232103391391,-0.5257544941604303,0.018051245961765647,0.850326208576814,0.12648254351489485,-0.8828651526887338,0.9262932840523592,-0.13589871260042516,-0.7974205727726328,0.9240618238393737,-0.07080454778730962,0.6724792494334899,1.1385458654948122,-0.07934161784321757,0.7586040785383396,0.8943846074198124,0.0,0.0,0.0,0.0
0.025860537221116003,0.14086484462940904,0.7329065529993052,-0.01443072076045179,-0.5259935127350747,0.018238663355840845,0.8501705299632203,0.12534815542250682,-0.884027785267214,0.9292812097452541,-0.13690506063507937,-0.7951337732162649,0.9227941391266113,-0.07024341624552037,0.6740725811732953,1.138088575580821,-0.07879595775161055,0.7614795145010527,0.8921777892923458,0.0,0.0,0.0,0.0
0.02588708252659723,0.14161736705735276,0.733467674317637,-0.01467119997748699,-0.5259400668077759,0.018410406768042467,0.8501957768303062,0.12305865523683296,-0.8858957608601528,0.9336200900842023,-0.1389446385759283,-0.7906868197032322,0.9183005012795742,-0.07342887916096522,0.6765044023962067,1.1351554358140525,-0.08115833061358162,0.7650731562838391,0.8835030993060018,0.0,0.0,0.0,0.0
0.025951536559453963,0.1435316925071609,0.7356909594691273,-0.015023264574118983,-0.5253373608576636,0.018791747663981666,0.8505538366431453,0.11732457769810622,-0.8902777248464373,0.9457189086163609,-0.14411659027882057,-0.7800840204030284,0.908825250527266,-0.08306145122188167,0.68488265056231,1.1205020167166377,-0.08840979631416514,0.7768622222274456,0.8524073629515271,0.0,0.0,0.0,0.0
0.0252220306384749,0.14569360822063007,0.7393112639987941,-0.014115196019447596,-0.5233631872470373,0.017806339888956114,0.8518067091398811,0.11409613728254533,-0.8900247632457103,0.9531798312077666,-0.1471153737266732,-0.7733640623333553,0.9004202004174326,-0.11449807279176186,0.6990486575617411,1.0948433736340395,-0.05160565495191531,0.7342976239242079,0.9297761388514596,0.0,0.0,0.0,0.0
0.024743882549183974,0.14793468726703818,0.7430405174834526,-0.01344128757268478,-0.5217445277847801,0.01707225420219923,0.8528250217081349,0.1100421322852039,-0.8895699327552723,0.9616794269325639,-0.1507119920295252,-0.7641130216237572,0.890677804836304,-0.1404767726511315,0.7139959945949739,1.0669004167722653,-0.021691414848620902,0.7036013808452839,0.9871618938957271,0.0,0.0,0.0,0.0
0.024532071480783384,0.1500824606014578,0.7463804378006657,-0.013081203778072587,-0.5204936191580636,0.01659412351002724,0.8536040707426313,0.10568535374084403,-0.8899968519336979,0.971075120675788,-0.15454261633162772,-0.7542322486915602,0.8809817393244885,-0.16049169772378152,0.7279105250729143,1.0408257196186201,-0.0030246939988239144,0.6818388717657025,1.030668804829095,0.0,0.0,0.0,0.0
0.024505915562548615,0.15203928809460804,0.7492601715029824,-0.012935463960997888,-0.5195083314770335,0.01630273258918622,0.8542119105984111,0.1014303712134319,-0.8911588569699753,0.9806273123429728,-0.1582829478951262,-0.7448245245963204,0.8721276434609824,-0.17590231912667015,0.740347378020946,1.017565688836592,0.008720513064708342,0.6661164007463961,1.0666259058185066,0.0,0.0,0.0,0.0
0.024544545483225797,0.15373078382767674,0.7517161542925677,-0.012882540437347097,-0.5186996172015285,0.016095696090156413,0.8547079476840269,0.09767341780933782,-0.8923370887878518,0.9891345032426782,-0.16156680181955968,-0.736462294668136,0.8643403826872339,-0.18806809095646673,0.7511784897422404,0.9971221290596453,0.01708245214403746,0.6540482594032663,1.0985046433255978,0.0,0.0,0.0,0.0
0.024584686076268014,0.1551813208276453,0.753802409109722,-0.012856444902689558,-0.5179944161608402,0.015918217129622048,0.855139232531211,0.09446270876056474,-0.8934134982088139,0.99640706930175,-0.16436592647513656,-0.7293121835225683,0.8575711778785156,-0.1981208388916383,0.760431672238866,0.9793295190389201,0.023918305692651597,0.6440448995922488,1.1279744895856079,0.0,0.0,0.0,0.0
0.024576142863118006,0.1564140578119687,0.755555538815827,-0.012812355056414508,-0.5173429008163508,0.0157299097114582,0.8555376885171695,0.0918191283571601,-0.8942983828686433,1.0022888127765894,-0.16667006967414102,-0.7234450988963866,0.8516987554142115,-0.20681700339845083,0.7680831604583852,0.9640857605452777,0.030272361345736895,0.6352221995478311,1.1553946771166115,0.0,0.0,0.0,0.0
0.024458532399493502,0.1574561938784224,0.7569853698890328,-0.012713058244404885,-0.5166995141963608,0.015493429393309471,0.8559322074936505,0.08974512887290512,-0.89493366891996,1.0065566467708387,-0.16848227801653376,-0.7188983770735488,0.8464540238474678,-0.2148129564460361,0.7739449792952519,0.9515159941080867,0.03685177331217556,0.6272003903288831,1.1798402694985501,0.0,0.0,0.0,0.0
0.02415499660818348,0.15834302591938096,0.758073274596412,-0.012518437200260997,-0.5160105396119126,0.015165856788114756,0.8563564728122094,0.08823289878933342,-0.8953205951928742,1.008928533155343,-0.16981776031418147,-0.715749590566923,0.8414538661091125,-0.22283653119779986,0.7776316781915149,0.9420221395079418,0.04446379913737847,0.620162025345109,1.1987929994737434,0.0,0.0,0.0,0.0
0.023582882476010977,0.15912277437879646,0.7587800525948598,-0.012183370460962384,-0.5152106480089899,0.01469827312794855,0.8568509289423826,0.08725557078090576,-0.8955695000896783,1.0091800131718778,-0.17071798447087616,-0.7141495771776651,0.8362909512197538,-0.23173342896306803,0.7786246886331046,0.936203750873297,0.054266998014581146,0.615312238832193,1.2075688460549068,0.0,0.0,0.0,0.0
0.022702244691573382,0.15984546710212688,0.7590884426061599,-0.011678040621047001,-0.5142478880128091,0.014060126671629992,0.857446818105704,0.08675049808864287,-0.8958840202446143,1.0073898114053998,-0.17126135489911884,-0.7142129080429567,0.8307541150468095,-0.24208306012385436,0.7766235415452047,0.9343564981433509,0.06749280665449507,0.6156641916526193,1.1992797775110233,0.0,0.0,0.0,0.0
0.02151903237833994,0.16048697200307901,0.7590502860103076,-0.011022062039786399,-0.5131522367999267,0.013259513379778893,0.8581243973460692,0.0867750356412944,-0.8959368803097336,1.0033203914715279,-0.17136187790748753,-0.7156365774349746,0.8246838537534832,-0.2533111046800742,0.7718579995605717,0.9359145609898739,0.08299289824926238,0.618235323649113,1.1808538856279014,0.0,0.0,0.0,0.0
0.020073283948491408,0.1610312159067442,0.7587474211064306,-0.010236013161660592,-0.5119446509990655,0.012309985274629712,0.8588692348725374,0.08736110974835541,-0.8955173927920063,0.9970474511934596,-0.1709702441840435,-0.7181788624688777,0.8181715811769569,-0.26489202786530985,0.764824130876821,0.9399233780292663,0.09992849273053662,0.6217714052371678,1.1570794403517997,0.0,0.0,0.0,0.0
0.01839756232922931,0.16148040517714232,0.7582526021305149,-0.00932241978935665,-0.5106186680502499,0.011207039142239009,0.8596837038129338,0.08853316963852809,-0.8945356198008774,0.9887407571517199,-0.17006015727499976,-0.7217587832902045,0.811376505976284,-0.2766822864240201,0.7559631714951514,0.9455186796796557,0.11818185298523419,0.6259203576796523,1.1307657112175415,0.0,0.0,0.0,0.0
0.016520967898820762,0.16184658854172607,0.7576240601464362,-0.008267522531281523,-0.5091508149071003,0.009930314367726768,0.8605803185102413,0.09032516940929028,-0.8929915690187864,0.978633792431041,-0.16860969924812616,-0.7264609589802861,0.8045632656617444,-0.2888118788822355,0.7456433305951485,0.9519844533639489,0.1385190417384299,0.6307873914199976,1.1035018310834437,0.0,0.0,0.0,0.0
0.01450078813722711,0.16214195447595275,0.7569093158851916,-0.007050445927806425,-0.5075178208995665,0.008457390098422557,0.8615709055175306,0.09277858790674318,-0.8910296942256863,0.9672095750917111,-0.16660683776382396,-0.7325724267847391,0.798330894403906,-0.3015085332778635,0.7342843679815173,0.9586851033846167,0.16288251697790954,0.6369178309690045,1.0763385552005764,0.0,0.0,0.0,0.0
0.012525987889780323,0.16241258159171307,0.7561397034036508,-0.005669556362112405,-0.5056982280960871,0.006805695321914329,0.8626649643646831,0.09577805029149913,-0.8896495261365187,0.9563892615402847,-0.16425436056370965,-0.7408679657321223,0.7943726357447214,-0.31508440429504986,0.7226021840689282,0.9650833320042361,0.19455117801266447,0.6456599976188995,1.0502899033440318,0.0,0.0,0.0,0.0
0.010886752309934085,0.162586213273761,0.7553493536694306,-0.00415807917909217,-0.5037207873925573,0.0050486565244093826,0.8638417620105322,0.09939768556160437,-0.8899182488765612,0.9484568775133826,-0.16160004945404288,-0.752627045231061,0.7957026209037802,-0.3287495951988048,0.7116034696970626,0.9703993662769219,0.23712988698818485,0.6587419251918956,1.0262156835752096,0.0,0.0,0.0,0.0
0.009880476314738831,0.16261102985662823,0.754727795011945,-0.002851150316387602,-0.5018917734537452,0.0035448702050728674,0.8649184658547631,0.1029771299032972,-0.8920877093380317,0.9451990154735749,-0.15912870395533724,-0.765753630671066,0.8022179300170429,-0.3390344710547591,0.7031346722449683,0.9731010452393645,0.28249893814801386,0.6735359784201612,1.0059396663024764,0.0,0.0,0.0,0.0
0.009894432517162426,0.16263282672182558,0.7547047338336617,-0.0028097775757138345,-0.501896189047263,0.003521703060883034,0.8649161336091263,0.10299113513452306,-0.8920510243938031,0.9452168071806237,-0.15910945888539987,-0.7658182675976483,0.8021610084839094,-0.33903991348352286,0.7030821789030263,0.9730644905829573,0.28252227971032523,0.6735315737790817,1.0059397671588122,0.0,0.0,0.0,0.0
0.009894432517162426,0.16263282672182558,0.7547047338336617,-0.0028097775757138345,-0.501896189047263,0.003521703060883034,0.8649161336091263,0.10299113513452306,-0.8920510243938031,0.9452168071806237,-0.15910945888539987,-0.7658182675976483,0.8021610084839094,-0.33903991348352286,0.7030821789030263,0.9730644905829573,0.28252227971032523,0.6735315737790817,1.0059397671588122,0.0,0.0,0.0,0.0
0.010164743177368766,0.16272049089866183,0.7545690509428916,-0.0025708877044579564,-0.5025406801213217,0.003327308815325605,0.8645433386335574,0.1030895674178544,-0.8896007617727291,0.9442871112003032,-0.1588461943009786,-0.7644825126699674,0.8016715669368075,-0.3453171546649638,0.7063461600595845,0.9758427362585594,0.2816782467948164,0.6753334256082942,1.0082261605790726,0.0,0.0,0.0,0.0
0.010413885204914531,0.16262255349412455,0.754429054695323,-0.002355305740458544,-0.5030704411069424,0.0031273087565939035,0.8642365438693715,0.10371888920712394,-0.8872057200753215,0.9429653126122413,-0.15814342511596138,-0.7643608108961454,0.8026989162354938,-0.35005465266659475,0.7091032385385131,0.9780403209741183,0.2818470471495877,0.6767654749984587,1.01072516432014,0.0,0.0,0.0,0.0
0.010593547783484135,0.16227407924400752,0.7543268308268765,-0.0021383530504234293,-0.5034928922080344,0.0028952623558514937,0.8639918705625136,0.10508973958857758,-0.8841722920890539,0.9403369033459055,-0.15675448137587847,-0.765342024497019,0.8050614191309488,-0.3527763208161818,0.7113784162305196,0.9791563640756759,0.2830869095096542,0.6778223311399352,1.0132708754654987,0.0,0.0,0.0,0.0
0.010707680351376323,0.1616148905591575,0.7542579919750765,-0.0018868117050388016,-0.5038285527949656,0.002599050979288927,0.8637977044795426,0.10742141099780561,-0.8801067229447556,0.9359448451325136,-0.15446084555462714,-0.7676704474031323,0.8091178547254791,-0.3534397410708603,0.7132647883468729,0.9791497798229286,0.28549482979369056,0.6784925253293453,1.0160942176807355,0.0,0.0,0.0,0.0
0.010796224420830383,0.16055603317484995,0.7542052601714629,-0.0015614242285420545,-0.5040852245790142,0.0022015086533818434,0.8636496984745333,0.11102711838012494,-0.8747760803105782,0.9295721455548468,-0.15098221587400643,-0.7720011389404505,0.8158520945799724,-0.35199007453264963,0.7149104608034315,0.9779712960434442,0.2893345464100137,0.6787925437645833,1.019538450863793,0.0,0.0,0.0,0.0
0.010874361232995821,0.15902606218877172,0.7541604574358572,-0.0011394297671703621,-0.5042623651659106,0.0016776168168945976,0.8635481193187228,0.11614121814766751,-0.8679280278393483,0.9208894721016855,-0.14608789839755865,-0.77872222090758,0.8258083270474008,-0.3482481643734367,0.7163720463611327,0.9755066149118629,0.29485589366311066,0.6787112948988142,1.02380638623359,0.0,0.0,0.0,0.0
0.01094471219403845,0.1569741073948761,0.7541244495739017,-0.0006144383561515624,-0.5043491072756313,0.0010266892249851682,0.863499013528687,0.12287992969193495,-0.859382667783202,0.9095924338114532,-0.1396397039726373,-0.7879857784912524,0.8391773706577336,-0.34185108622463145,0.7176234790484223,0.9715582732897196,0.30237275728185803,0.6782676011316795,1.028945705763097,0.0,0.0,0.0,0.0
0.011014711660979462,0.15438514543551282,0.7540983916012014,7.321708879297177e-06,-0.5043330099688915,0.0002547890198360697,0.8635092067167934,0.1312535240415854,-0.8490970298058215,0.8955670387697252,-0.13158917672333026,-0.7997744994636136,0.8559013432741008,-0.33261087135596873,0.7186647488058212,0.9659727703843674,0.3120656804257552,0.6775073869917176,1.0348883504181072,0.0,0.0,0.0,0.0
