zhuoxili-jackie/tripod-support-walk/examples/trajectory_tripod_lowstep_left_v0.05.csv
root_pos_x,root_pos_y,root_pos_z,root_rot_x,root_rot_y,root_rot_z,root_rot_w,FL_hip_joint,FL_thigh_joint,FL_calf_joint,FR_hip_joint,FR_thigh_joint,FR_calf_joint,RL_hip_joint,RL_thigh_joint,RL_calf_joint,RR_hip_joint,RR_thigh_joint,RR_calf_joint,FL_foot_joint,FR_foot_joint,RL_foot_joint,RR_foot_joint
0.0,0.0,0.72963,0.0,-0.5231245161092812,0.0,0.852256264656019,0.0,-0.81,0.872,0.0,-0.81,0.872,0.0,0.65,1.0,0.0,0.65,1.0,0.0,0.0,0.0,0.0
4.4288667622479015e-06,6.616114505639426e-06,0.7296324984659709,7.584586923221151e-07,-0.5231203801957731,-1.346276060893793e-06,0.852258803311202,-1.3585778131633664e-05,-0.8100537705588196,0.8720891040292138,-1.3585778131633487e-05,-0.8100282510327423,0.8720437648446285,-5.8182926825696946e-05,0.6500217952392467,0.999989147445745,-5.81829268257017e-05,0.650006779123352,0.9999404607772048,0.0,0.0,0.0,0.0
1.250645486534815e-05,1.6656198826379275e-05,0.7296338980416057,3.371536568599454e-07,-0.5231189670171509,-1.4532796541962588e-06,0.8522596707252333,-3.847646793158213e-05,-0.8101258573009368,0.8722172250807386,-3.847611475039199e-05,-0.8100511139306417,0.8720945195039314,-0.00012435123246110625,0.6500529933263465,1.0000010201867982,-0.00012433958668952916,0.6500293892247112,0.9998830199611417,0.0,0.0,0.0,0.0
2.4643266897368492e-05,2.9463403859463218e-05,0.729633395447023,-9.790713167318883e-07,-0.5231198983270288,-6.167829556855454e-07,0.8522590990848852,-7.23843687335898e-05,-0.8102208342498154,0.8723887109326521,-7.238262646767129e-05,-0.8100780682730615,0.8721630652555378,-0.00019772423199388047,0.6500907899050312,1.0000398793856138,-0.00019768663351488192,0.6500633212733056,0.9998357545089839,0.0,0.0,0.0,0.0
4.1574128856284345e-05,4.5586914176349916e-05,0.7296309874469,-3.1960819488873563e-06,-0.523122763316764,1.1148306627889358e-06,0.8522573405306493,-0.00011656763901632725,-0.8103463909344745,0.8726155682411341,-0.00011656252078528726,-0.8101142954218806,0.8722573258584738,-0.0002823175033157019,0.6501366399275219,1.000106191150268,-0.00028223461709229677,0.6501092833548211,0.9997952497974344,0.0,0.0,0.0,0.0
6.383672051786544e-05,6.62750148641204e-05,0.7296268399873173,-6.5244752127459805e-06,-0.523127172046719,3.909186512463594e-06,0.8522546343720003,-0.00017451636899730336,-0.8105107980335858,0.8729105701182501,-0.00017450420302189538,-0.8101609439159722,0.8723796487037255,-0.00038424513230945556,0.6501917837181259,1.000201240666461,-0.0003840868041434597,0.6501687868777711,0.9997546096908839,0.0,0.0,0.0,0.0
9.10877342639805e-05,9.308979349297448e-05,0.7296213013682757,-1.1182324316443925e-05,-0.523132467880286,7.928045032138943e-06,0.852251383607902,-0.00025049780067867963,-0.8107193924791466,0.8732799154466567,-0.0002504718806179382,-0.8102147239552483,0.8725234306802809,-0.0005117522786018887,0.6502551976138724,1.000325957035081,-0.0005114678462681513,0.6502407754139532,0.999704408672116,0.0,0.0,0.0,0.0
0.00012089739741294671,0.00012726701849327378,0.7296151714681233,-1.7029379357011288e-05,-0.5231372481138291,1.2922075854641459e-05,0.852248449208862,-0.00034706236369149877,-0.8109674983055185,0.8737099137755033,-0.00034701137086397315,-0.8102662111383875,0.8726665658792062,-0.0006757306414124723,0.6503213117675503,1.0004768189254079,-0.0006752326753994282,0.650316862931799,0.9996320399215405,0.0,0.0,0.0,0.0
0.0001466349536945675,0.00016823473268677905,0.7296102617452319,-2.281256363944598e-05,-0.5231386173651165,1.7434910624542466e-05,0.8522476085017342,-0.0004595959540838781,-0.8112260298677696,0.8741413869641499,-0.0004595044690622793,-0.8102971945988483,0.872760911409924,-0.0008894138801651393,0.6503768687239436,1.0006369568209377,-0.0008885529607572808,0.6503734442279148,0.9995211050615417,0.0,0.0,0.0,0.0
0.00015397995302279992,0.00021006738513106523,0.7296109628305872,-2.5188465402767147e-05,-0.5231324181123167,1.8474621271610427e-05,0.8522514136944508,-0.0005670522940267391,-0.8114060502459399,0.8744151170016037,-0.0005669100339350469,-0.8102662205550373,0.8727082832581637,-0.0011523975803104437,0.6503993072910886,1.0007538082807728,-0.001150957657006596,0.6503689770255281,0.999352423555075,0.0,0.0,0.0,0.0
0.00011720617123131929,0.00023056814020009405,0.729639531905888,-2.9726212440553145e-05,-0.523163787304367,4.399791981525218e-05,0.8522321566532716,-0.0006860438136641697,-0.8110210057199266,0.8739195210480939,-0.0006858460617528739,-0.8096958500041634,0.8719979008538141,-0.0011007976620889183,0.6504505604594091,1.0006350956589483,-0.0010994277865151664,0.650541043667339,0.9991451613298672,0.0,0.0,0.0,0.0
0.00015841623931050455,0.00029412979752659366,0.7296369374470749,-3.068703781752309e-05,-0.5231420206716916,4.580199128079799e-05,0.8522455181272722,0.0016409604294200125,-0.8112220370421355,0.8723403743041453,-0.0008514150770504581,-0.8099001532798094,0.8723088313551504,-0.0015155469276056277,0.6505266865030289,1.0007942703572488,-0.0015131636715988131,0.6505697210824147,0.9988696521872538,0.0,0.0,0.0,0.0
0.00024346872964801065,0.00039553230989080896,0.729626549072608,-4.3565876044404086e-05,-0.5231340479883393,7.310791598962978e-05,0.8522504095584706,0.004592704147198391,-0.8120519442177768,0.8709205227639673,-0.0011751624415053039,-0.8101336513558047,0.8728142451564711,-0.0019513900998543827,0.6506684635410185,1.0011160742982863,-0.001947436317614871,0.6507896306868493,0.9985519639046843,0.0,0.0,0.0,0.0
0.0003451708929548357,0.0005207811777744905,0.7296139237594502,-6.279437156029564e-05,-0.5231343943197511,0.0001119660295327243,0.8522501915518602,0.007515097578390662,-0.8132049052417701,0.869676571289781,-0.0015870438613758313,-0.8103281635607762,0.873332608674229,-0.002437232286214147,0.650844557346472,1.0015292304896442,-0.0024310246195281843,0.651096719643332,0.9981870144706803,0.0,0.0,0.0,0.0
0.0004495708109599478,0.0006576975496010125,0.7296010262137035,-8.42084300614967e-05,-0.5231381041607691,0.00015347477293063864,0.8522479060282346,0.010203787169782846,-0.8144772068186309,0.868562448392587,-0.002034491732559882,-0.8104812706383149,0.873807601324618,-0.002973167894401354,0.6510328314717384,1.0019856245938847,-0.0029638605989930457,0.6514238098437809,0.9977910767485926,0.0,0.0,0.0,0.0
0.0005506792670344365,0.0007981164835513305,0.7295884825894081,-0.00010556939393413438,-0.5231428881205824,0.00019367773133023022,0.8522449588896934,0.012658724668768615,-0.8157664726642868,0.8675370692827044,-0.002487391197983627,-0.8106017515709547,0.8742285905106665,-0.0035428983591864753,0.6512218263756773,1.0024564673050058,-0.003529576311109653,0.6517409222604745,0.9973828014853828,0.0,0.0,0.0,0.0
0.0006465861798942666,0.0009375704252294728,0.7295764489569289,-0.0001258986450700638,-0.5231478804877487,0.00023139933591145514,0.8522418821819628,0.014948395713458731,-0.817034596975225,0.8665672438920331,-0.0029318019731798084,-0.8106982921003568,0.8746007001329074,-0.004129559715295962,0.6514065110530601,1.002926351054624,-0.004111330854963961,0.6520385933884694,0.9969748282376032,0.0,0.0,0.0,0.0
0.00073725824347951,0.001074216958047863,0.7295649503860087,-0.00014493629236572375,-0.5231528387512006,0.00026674756303680296,0.8522388251809284,0.017144610205491437,-0.8182764135322572,0.8656278949731293,-0.003363496672761479,-0.810776949350275,0.8749325382792112,-0.004721425082723539,0.6515853932954582,1.0033882943380974,-0.004697468249577418,0.6523169270193889,0.9965729900259279,0.0,0.0,0.0,0.0
0.0008234544673635794,0.0012077898469581238,0.729553974188587,-0.00016278519584872489,-0.5231577560988138,0.00030027464549693526,0.8522357922369673,0.01929964049012555,-0.8194999885622187,0.8647013784105233,-0.003783233766154903,-0.8108416554386052,0.8752324639185386,-0.00531240457216779,0.6517588982981882,1.0038403191914447,-0.005281971974506764,0.6525797158328585,0.9961782923126626,0.0,0.0,0.0,0.0
0.0009062734997416135,0.0013388546568429383,0.729543471093571,-0.0001797087514277061,-0.5231627004097965,0.0003325882369866327,0.8522327416790314,0.021444141838144824,-0.8207167165346853,0.8637758320031674,-0.004193935405859163,-0.8108954333103046,0.875508383246387,-0.0059007582498176656,0.6519285384764344,1.0042833677132708,-0.005863149414982595,0.652831771322349,0.9957891008198273,0.0,0.0,0.0,0.0
0.000987007578074434,0.001468390939640085,0.7295333331864118,-0.00019603713984632593,-0.5231677514429202,0.00036422137161166984,0.8522296244336917,0.023592482675576728,-0.8219373090247,0.8628431018210356,-0.004599332270125206,-0.810941412541419,0.8757685161101761,-0.006487683375146136,0.6520964766238802,1.004720213485562,-0.006442206349197483,0.6530779522329906,0.9954026372037498,0.0,0.0,0.0,0.0
0.0010671091580709894,0.0015976179512368987,0.7295233685821785,-0.00021213970057938047,-0.5231729603365994,0.000395624976387424,0.8522264089138898,0.025748697881375904,-0.8231697089117309,0.8618970470129523,-0.00500351956404187,-0.8109834550610168,0.8760220483246471,-0.00707635424695243,0.6522651761625896,1.0051550517271202,-0.007022281742630259,0.6533228575111876,0.995015747395356,0.0,0.0,0.0,0.0
0.001148157837812001,0.0017279529367015833,0.7295132716993273,-0.0002284276308445704,-0.5231782915761037,0.00042719861284017406,0.8522231166459121,0.02791047503103012,-0.8244154812147679,0.860933183334306,-0.0054109349658381925,-0.81102647680706,0.8762793034997811,-0.007671425860932125,0.6524369079733967,1.0055935032898922,-0.007607947588582052,0.653570532691438,0.9946252591692802,0.0,0.0,0.0,0.0
0.0012317596923815954,0.0018609881511518578,0.7295025853940457,-0.000245355635204865,-0.5231835359239932,0.000459311288407663,0.8522198757197701,0.030070889158230855,-0.8256618762305307,0.8599508475908718,-0.005826357969920057,-0.8110765788800359,0.8765513407067798,-0.008278728272030515,0.6526129743179061,1.0060427678220754,-0.008204899621539497,0.653823827962802,0.9942283404448654,0.0,0.0,0.0,0.0
0.0013193452895430085,0.001998374557016978,0.729490662577511,-0.00026339397651202397,-0.5231882160616312,0.0004922875048343212,0.8522169787389087,0.032218790653297844,-0.826867936746062,0.8589591621380557,-0.0062545962341885915,-0.8111410080416451,0.8768489960238867,-0.00890471925821231,0.6527926891480516,1.006511581831105,-0.008819412166234086,0.6540833488218377,0.9938232257280909,0.0,0.0,0.0,0.0
0.001411889316361163,0.0021415203960133806,0.7294766606888116,-0.00028295139100342417,-0.5231915560242459,0.000526355375103712,0.8522149016494945,0.034339347421966114,-0.8279459187849069,0.8579874074670006,-0.006699628612565383,-0.8112277967964628,0.8771815328025253,-0.009555205628782263,0.6529725175106865,1.0070095025102388,-0.009457079698531805,0.6543464171875253,0.9934104491545,0.0,0.0,0.0,0.0
0.0015096857061092477,0.002291106384011236,0.7294596421695335,-0.00030426173107764396,-0.5231926521878522,0.0005615904221104236,0.8522141988594405,0.036416236331556044,-0.8287457315257206,0.857097690029287,-0.007163290332813884,-0.8113446650159827,0.8775553108251092,-0.010233053573550638,0.6531463837807379,1.007544990330722,-0.01012057966738207,0.6546072499993704,0.992994112899094,0.0,0.0,0.0,0.0
0.00161248633365222,0.0024466887117105813,0.7294388822485746,-0.00032732995148503563,-0.5231910385637407,0.0005979598975402253,0.8522151562050855,0.0384356875063005,-0.8290619558138247,0.8563908493795678,-0.007644409728744379,-0.8114963765072071,0.8779730629673144,-0.01093550662308796,0.6533088067860495,1.0081222866787714,-0.010807073015546778,0.6548605328840801,0.9925815562386038,0.0,0.0,0.0,0.0
0.001720447761980013,0.0026072343368099393,0.7294143307885288,-0.0003521716994528077,-0.5231876842194946,0.0006356491284907404,0.8522171783098026,0.04038920679995209,-0.828700374857203,0.8559807559868491,-0.008140885431003527,-0.811680147031551,0.8784343594526937,-0.011654354814781855,0.6534617035313622,1.008739865890536,-0.011508411748568991,0.6551099569114726,0.9921788367191703,0.0,0.0,0.0,0.0
0.0018356816560151246,0.002774273794497235,0.7293855002623078,-0.0003790879911567423,-0.5231827869366215,0.0006749110265639859,0.852220143062009,0.04227289149441318,-0.8276648520002541,0.8558714087467637,-0.008657166843236962,-0.8119027985518484,0.8789534295162661,-0.012396987226243921,0.6536094974748747,1.0094053486142593,-0.012231718632317357,0.6553602935509751,0.9917837436073212,0.0,0.0,0.0,0.0
0.00196248655959464,0.0029520999962331968,0.7293514295595835,-0.00040874100239371046,-0.5231757603432946,0.0007161408207475769,0.8522244093326202,0.044087327985603275,-0.8261570834539307,0.8559574897596537,-0.009204942962228757,-0.8121813576146482,0.8795605275985138,-0.013186990609181716,0.6537595201051895,1.0101360787061489,-0.01299981606039622,0.655618100907096,0.9913851968165229,0.0,0.0,0.0,0.0
0.0021061694901302846,0.003144945767255053,0.7293117314715553,-0.00044200483594895634,-0.5231674156989925,0.0007601594474202017,0.8522294772772043,0.045837452834916824,-0.8243887944404388,0.8561464958618993,-0.00979679564176662,-0.8125269470496669,0.8802864143320165,-0.014043916258244249,0.6539274099780716,1.0109452889717985,-0.013831389354680982,0.6559007351586217,0.990969345577265,0.0,0.0,0.0,0.0
0.00227238395851529,0.003356753324210013,0.7292660929087342,-0.00047985239957317317,-0.5231589275696352,0.0008080216247577153,0.8522346234147716,0.0475283827901341,-0.8225144280093533,0.8563832846062452,-0.010445180639203605,-0.8129500876115728,0.8811635513036394,-0.014983559447458054,0.6541305320671182,1.0118445306341464,-0.014741285529385629,0.6562287448672116,0.9905231849738841,0.0,0.0,0.0,0.0
0.002467189855387941,0.0035919060694849176,0.729213965974212,-0.000523559934572996,-0.5231512019262636,0.0008611386545193757,0.8522392881393807,0.049160063767004665,-0.8206231406935423,0.8566426960111564,-0.011164516473319133,-0.8134634406023715,0.8822274588925366,-0.016020938672246084,0.6543848235270078,1.0128473876505835,-0.01574340237900176,0.6566232039547782,0.9900335821911441,0.0,0.0,0.0,0.0
0.002697329602557325,0.003856062765359503,0.729154519321362,-0.0005749915818460868,-0.523144589794006,0.0009215476678317394,0.8522432506648778,0.05072505035549421,-0.8187526973930037,0.8569143022761789,-0.011973888100119692,-0.8140821297751542,0.883517136150779,-0.017172608237270827,0.654704069128039,1.0139714777526898,-0.0168528799316258,0.6571062998494913,0.9894841945657395,0.0,0.0,0.0,0.0
0.0029703251727408106,0.004156744175740502,0.7290867803020388,-0.0006368539840227157,-0.5231387499148952,0.0009922231560500552,0.8522467120779595,0.05221088974197816,-0.8169054044230956,0.8571875695358818,-0.012899262526381964,-0.8148221266215467,0.8850733785856174,-0.018457194298048957,0.6550997914883103,1.0152382778736873,-0.01808653023061761,0.6577029018316863,0.9888519712825281,0.0,0.0,0.0,0.0
0.003294153403553649,0.004503497974942773,0.7290099390450083,-0.0007128720834603538,-0.5231325192992407,0.0010773760394289927,0.8522503730277223,0.05360805097344324,-0.8150581331114678,0.8574384777618126,-0.013974653164666735,-0.8156969479977704,0.8869342132307394,-0.0198935182347201,0.6555805895587091,1.016670472390994,-0.019460920571031146,0.6584417651236365,0.9881039960715658,0.0,0.0,0.0,0.0
0.0036763396319206155,0.004907406596477223,0.7289238378267517,-0.0008078399001634352,-0.5231237444481113,0.0011826742893449257,0.8522555348431644,0.05492475517131088,-0.813164691367387,0.8576152191821576,-0.015241474425130254,-0.8167128129816367,0.8891271835764063,-0.021495239287929555,0.656150446155721,1.0182860098850623,-0.020987141290045513,0.6593557724274546,0.9871953001436029,0.0,0.0,0.0,0.0
0.004122306940237559,0.005379479089174551,0.7288296956284611,-0.0009274527791131564,-0.5231090828086197,0.0013152442651074877,0.8522642180961197,0.056209572377971403,-0.8111512638752505,0.8576187722039028,-0.016744568989215693,-0.8178627671018458,0.8916589364365063,-0.02326004950414439,0.6568058333168872,1.0200873420512124,-0.02266049514706927,0.6604807202844815,0.9860689129731167,0.0,0.0,0.0,0.0
0.004632721320982588,0.0059271111565859765,0.7287310769320667,-0.0010777580812934792,-0.5230838566151328,0.0014831708666572477,0.8522792485977455,0.057579221486555726,-0.8089057996573211,0.8572723863510067,-0.01852210718150641,-0.819120805416932,0.8945030448417167,-0.025150112942112817,0.6575312481909621,1.0220440188466038,-0.024442191987937303,0.6618515344093301,0.9846612573536611,0.0,0.0,0.0,0.0
0.005199298553202239,0.006547296605110477,0.7286347773883964,-0.0012639723391187838,-0.5230421186274359,0.0016940089713114266,0.8523042149662609,0.05924056189930938,-0.8062612794501952,0.8562711605402451,-0.020584722569059286,-0.820438156602426,0.8975869092582026,-0.027058578637973375,0.6582907451583128,1.0240690059064121,-0.02622855487798045,0.6634920290113118,0.982921281308152,0.0,0.0,0.0,0.0
0.005797773067502257,0.007214564646574153,0.7285496247540882,-0.0014883359484552975,-0.5229773082843698,0.0019515717249180655,0.8523430713295804,0.061480955671783334,-0.8029717414911903,0.8540967705046856,-0.022876765490512787,-0.8217466378649407,0.900775715725247,-0.0287540939644655,0.6590036288080564,1.0260033729846652,-0.027800657213914483,0.6653837693690541,0.9808709718351363,0.0,0.0,0.0,0.0
0.006374069572060175,0.007860467850905389,0.7284733043358348,-0.0017465827782843614,-0.5228842347956612,0.0022498034187553337,0.8523989469933263,0.06458356428025235,-0.7986830047282947,0.8498596516518327,-0.025208584606053824,-0.822987420495712,0.9038397265897926,-0.029792111013136426,0.6594496410428506,1.0276943951398647,-0.028744034069074397,0.6673525753385556,0.9788152779794757,0.0,0.0,0.0,0.0
0.006808333847635653,0.008339235005553941,0.7283201725622973,-0.0020200162131088994,-0.5227532277684116,0.0025550963074940625,0.8524778318965633,0.06865134889766286,-0.7929492934074982,0.8419085070994724,-0.02712643069351311,-0.8243222928808953,0.9064060376332018,-0.02943805790921761,0.6588385116029551,1.0295745217818697,-0.02837862586371764,0.6685467822067002,0.9781444132919511,0.0,0.0,0.0,0.0
0.007009973578998892,0.008561786828330344,0.7281740267908239,-0.002307501782921474,-0.5225828102572407,0.0028376711459883975,0.8525806879595818,0.07274278662307877,-0.7853110796216878,0.8285268657291122,-0.028311719982958092,-0.8253244114915909,0.90788359267299,-0.027215717434381982,0.6572761581815159,1.030733725846868,-0.026260812618504926,0.6690606514719546,0.97848759111886,0.0,0.0,0.0,0.0
0.007019720684008677,0.008576973298661483,0.728170877268246,-0.0023246080268826,-0.5225782145407243,0.0028381113582189818,0.8525834569171915,0.07274565308534046,-0.785294798476518,0.8285275615925886,-0.028344120443995317,-0.8253306764964345,0.9079012350960447,-0.027217470285100097,0.6572657813528331,1.0307842484433658,-0.02625301687846666,0.6690839607886173,0.978443345159398,0.0,0.0,0.0,0.0
0.007019720684008677,0.008576973298661483,0.728170877268246,-0.0023246080268826,-0.5225782145407243,0.0028381113582189818,0.8525834569171915,0.07274565308534046,-0.785294798476518,0.8285275615925886,-0.028344120443995317,-0.8253306764964345,0.9079012350960447,-0.027217470285100097,0.6572657813528331,1.0307842484433658,-0.02625301687846666,0.6690839607886173,0.978443345159398,0.0,0.0,0.0,0.0
0.0070582980408788925,0.008774411998297694,0.7286505209128964,-0.0019620204316114134,-0.5225509971880257,0.0024280851145074556,0.8526023165675207,0.07310233935409727,-0.7833864436578624,0.8281660792043647,-0.02794657414076968,-0.8249178315634941,0.9080187640469175,-0.033817310439114664,0.661323552767928,1.0275195003552087,-0.0198554946158353,0.6646828269033509,0.9896640224845122,0.0,0.0,0.0,0.0
0.007150558158653301,0.00908776840395691,0.7292195446196118,-0.0017293753917589647,-0.5225326648581563,0.0021592417027868844,0.852614778837581,0.07286979988954174,-0.7822514021257639,0.8291400976155877,-0.028145447487374277,-0.8237182990804408,0.907675304283878,-0.03946672680028018,0.665497237520713,1.0236066214161816,-0.01403175446727761,0.6619102095672104,0.9980330459669724,0.0,0.0,0.0,0.0
0.0072706921168341244,0.009476970233909157,0.7297611622194863,-0.0016024265436432891,-0.5225220050214436,0.0020071936296180855,0.8526219312633683,0.0722056089389381,-0.7819146641420895,0.8310838175760816,-0.028790696898571316,-0.8221516479971597,0.9070000619041853,-0.0441916296520318,0.6692408354190622,1.0200111787749178,-0.01004083898949042,0.6600217028562199,1.00429945158992,0.0,0.0,0.0,0.0
0.007400480935093454,0.00990221587173145,0.7302556479521128,-0.0015401096676324057,-0.5225145562424635,0.0019241355413337133,0.8526268024636404,0.07131206502142405,-0.7820894970441467,0.833534986364128,-0.029675695511784537,-0.8204542573810343,0.9061365175159688,-0.04829220967742022,0.6725544210836002,1.0168542533125002,-0.007345849859682718,0.6586640372843114,1.0093036283352863,0.0,0.0,0.0,0.0
0.0075308892351323075,0.010337930571504292,0.7307054812756161,-0.0015142543397432618,-0.5225069851748009,0.0018808893066301756,0.8526315849959766,0.0703123316410376,-0.7825621662705268,0.8362055551180816,-0.030672996156378245,-0.8187476339286035,0.905188067618093,-0.05196284333103359,0.6755125673517216,1.0140739796013574,-0.005333365063912153,0.6576386021691448,1.0135995799252346,0.0,0.0,0.0,0.0
0.007655438756844052,0.010766365991134813,0.7311167310459393,-0.0015077303169266183,-0.5224963891833904,0.0018598115966116397,0.8526381361048986,0.06928591973514212,-0.7831836861053436,0.838900882104291,-0.031699937225185416,-0.8170975352810247,0.9042166126136794,-0.05530346509378768,0.6781737545598795,1.011583681292163,-0.0036284659172680584,0.6568054885817098,1.0175039590807584,0.0,0.0,0.0,0.0
0.007753024756187073,0.01116392950565008,0.7314958390191331,-0.00150644439713463,-0.5224832636362257,0.0018455486951342308,0.8526462125614178,0.06831994216614748,-0.7836993578946992,0.8412379189085573,-0.03266234875873633,-0.8154813519847223,0.9031376781934267,-0.05833118841758898,0.6805468198021787,1.0092918108776467,-0.001994348064004162,0.6560214857116413,1.0211756250028998,0.0,0.0,0.0,0.0
0.007827053928863107,0.01152878959421972,0.7318479801548963,-0.0015060012928636798,-0.5224669072686119,0.0018333196686777388,0.8526562623403817,0.06742941188115296,-0.7840977037099575,0.8432322183137259,-0.03354567500569358,-0.8139248316638175,0.9020031858564449,-0.061092100445361744,0.6826813562604921,1.0071482544380082,-0.0003548048601328198,0.6552454334659265,1.024721834216567,0.0,0.0,0.0,0.0
0.00788456835836288,0.011864911788018741,0.7321782825854721,-0.0015050771894315677,-0.5224480872449662,0.0018215864727209182,0.8526678208420043,0.06660841528984277,-0.7844045304284015,0.8449626510874424,-0.034357052758696084,-0.8124384671528785,0.9008605065032947,-0.06363549112964041,0.6846340111022179,1.0051166315957476,0.0013186178196816457,0.6544663397542864,1.0282166585817432,0.0,0.0,0.0,0.0
0.007931478926126013,0.012177158244754006,0.7324908583269202,-0.0015032790686173901,-0.5224276346414686,0.0018097996151719205,0.8526803805297241,0.0658465605994023,-0.7846471639389391,0.8465026040233603,-0.03510790906541464,-0.8110241256193936,0.8997402521025193,-0.06600516796695526,0.6864503810826802,1.0031722426679779,0.003034715902037517,0.653683056894208,1.031701518865445,0.0,0.0,0.0,0.0
0.007971932882301094,0.012469583518233292,0.7327881817495342,-0.0015004823317974218,-0.5224062438173085,0.0017976963945543528,0.8526935166055478,0.06513469948397406,-0.7848474699831288,0.8479064676163989,-0.03580815470911473,-0.80968165569817,0.8986609074610671,-0.0682353951631982,0.6881609176328267,1.0013035988143362,0.004793509110552634,0.6528995984980901,1.0351934677704913,0.0,0.0,0.0,0.0
0.008008603948447697,0.0127448738629604,0.7330707319610581,-0.0014966091991983755,-0.5223845550995035,0.001785076235133177,0.8527068372290874,0.06446686587450931,-0.7850220469499347,0.8492100572817534,-0.03646433915806259,-0.8084132847282057,0.8976347892154105,-0.07034969108645923,0.6897807765036275,0.9995142826340944,0.006592272655289097,0.6521245048373264,1.0386902791438883,0.0,0.0,0.0,0.0
0.008042937684393847,0.013004293684408922,0.7333366631476996,-0.0014915315901457588,-0.5223632328918727,0.001771714148149002,0.8527199360195843,0.0638406356818737,-0.785183893530839,0.8504330558961748,-0.0370793877553095,-0.8072259872322384,0.896671144381927,-0.07236176784273941,0.6913095163919094,0.9978260427270866,0.00843035955421625,0.6513716455362676,1.042168148908012,0.0,0.0,0.0,0.0
0.00807503201695284,0.01324794984608227,0.7335813564622443,-0.0014849818529671965,-0.5223429406034353,0.001757290939620038,0.852732407710183,0.06325661068747142,-0.7853439972343002,0.851579835012871,-0.037653172399719076,-0.8061321110364019,0.8957750678558237,-0.07427859083435562,0.6927289790261548,0.9962841376368733,0.010315328479457032,0.6506629745449858,1.0455692011380355,0.0,0.0,0.0,0.0
0.00810303646724106,0.013475330679402792,0.7337968573826922,-0.0014763986857161636,-0.522324141241722,0.0017412699072317285,0.8527439707802856,0.06271727171398517,-0.7855123100865575,0.8526375237607475,-0.038183657025753846,-0.8051484158836646,0.894941840410173,-0.07610603638751068,0.6939990243823205,0.9949648088823172,0.012273142538590503,0.650036145469012,1.0487744427521755,0.0,0.0,0.0,0.0
0.00812220104810097,0.013686076678458642,0.7339715321240361,-0.00146465795737024,-0.5223066660018977,0.0017226721636034784,0.8527547325155497,0.06222541334598165,-0.7856978127972073,0.853572188347736,-0.03866840815548033,-0.8042937259301696,0.8941480991544974,-0.07785736083315854,0.695053101448811,0.9939814188728067,0.014364620846969392,0.649563623056239,1.0515554998384018,0.0,0.0,0.0,0.0
0.008124500637169772,0.013880804271872531,0.7340911312295241,-0.0014477878193382807,-0.5222891469977846,0.0016998516833572985,0.8527655371454755,0.06178245406160211,-0.7859080128582568,0.8543297000469285,-0.03910622377683161,-0.8035856462922516,0.8933470800252805,-0.0795618693521459,0.6958019747951166,0.9934766787679931,0.016703871898605883,0.6493955400490963,1.0534986226543497,0.0,0.0,0.0,0.0
0.008101869711291083,0.014061467637253406,0.7341443161727523,-0.001423555095648677,-0.5222693018112639,0.0016712856542930466,0.8527777885713994,0.06138589797259775,-0.7861499690849446,0.8548622615277155,-0.03949970612883764,-0.8030343560880916,0.8924871951255332,-0.08125797893395037,0.6961682969936029,0.9935685931655632,0.01944667149687525,0.649829651232742,1.053931788844955,0.0,0.0,0.0,0.0
0.00805374691290767,0.01422908978651556,0.7341316819571423,-0.001392117633551639,-0.522247031550262,0.0016370780157316626,0.8527915454675922,0.061032932682634135,-0.7864233211898921,0.8551696916239421,-0.039851572656476784,-0.8026326756978217,0.8915582807560775,-0.08295100992620155,0.696153031260059,0.9942555239257492,0.022586632445228502,0.6508617894866828,1.0528479231865588,0.0,0.0,0.0,0.0
0.007986969968285544,0.014384099896476536,0.7340660299770583,-0.00135598040341565,-0.5222243066138186,0.0015989195010704365,0.8528055923569515,0.060719635452355834,-0.7867200974483657,0.8552996346891328,-0.040165424324685665,-0.8023545970036515,0.8905895260845225,-0.08461630444047881,0.6958366545868061,0.9954144824787818,0.02595760314481537,0.6521872290404456,1.0509050672802644,0.0,0.0,0.0,0.0
0.007908275300617416,0.014529351757357365,0.7339638211675384,-0.0013174104926403356,-0.5222019885628936,0.0015586359187201937,0.8528193936729079,0.06043537641612283,-0.7870330127055134,0.8553097645063497,-0.04045141058462812,-0.802162257625678,0.8896001417912532,-0.08624604245696695,0.6953151350438234,0.9968937355367813,0.029436373777094467,0.6536505232627415,1.0485038851436035,0.0,0.0,0.0,0.0
0.00782160488220947,0.014670822317845028,0.7338400523315411,-0.0012780786464957157,-0.5221796320215244,0.001517618106068617,0.852833216550647,0.060162300213726545,-0.7873594008551685,0.8552513283094588,-0.04072678443715984,-0.8020095896718816,0.8885800065482047,-0.08786099837928088,0.6946688151861615,0.9985660626708709,0.032952095495400964,0.6551768565760602,1.045862852223015,0.0,0.0,0.0,0.0
0.007730740850211851,0.01481898985513753,0.7337071405439866,-0.001239953039348225,-0.5221553606560136,0.0014780076361963338,0.8528482029928163,0.05986971746712995,-0.7877268952581835,0.8552077764511983,-0.04102229001506661,-0.8018530423631581,0.8875096711487375,-0.08950792488229753,0.6939616851149806,1.0003393631222801,0.03646484580413702,0.6567377256376309,1.0430963602655867,0.0,0.0,0.0,0.0
0.007633479086349391,0.014982305467885105,0.7335759174626905,-0.0012037331972165376,-0.5221268765255196,0.0014399440910506348,0.8528657587200399,0.05953586405289006,-0.7881279991137016,0.8551926533126122,-0.04135859993882627,-0.801636635690653,0.8863276008917428,-0.09123809003396172,0.6932351542125117,1.0021375129540189,0.03995222520007916,0.6583121052852668,1.0402536533486626,0.0,0.0,0.0,0.0
0.007524866875955611,0.015170025503134774,0.7334561308869634,-0.0011697718482092793,-0.5220907795250762,0.0014035004636509492,0.852887964362946,0.05913671840967988,-0.7885522965256994,0.8552023801170465,-0.04175838582080896,-0.8012987194106804,0.8849498955196052,-0.09310894503088628,0.6925142387974329,1.0038979223717108,0.043412534709426555,0.659887633880786,1.037355768970346,0.0,0.0,0.0,0.0
0.007398871529902443,0.015393063490929214,0.7333573572408696,-0.00113810947924317,-0.5220424572953327,0.0013683918718649074,0.8529176425608448,0.058644875423622095,-0.7889948602235275,0.8552359760311222,-0.04224774096916948,-0.8007762632399742,0.8832825680026698,-0.09519278667072696,0.6918182066218819,1.0055638560531266,0.04686821889860627,0.6614617705570089,1.034419142777842,0.0,0.0,0.0,0.0
0.0072486443231507165,0.015663707842627092,0.7332894333240702,-0.0011079356138273453,-0.5219757391953322,0.001333309071335272,0.8529585701879561,0.05803175290083939,-0.7894554025575297,0.8552959679649238,-0.04285403080398441,-0.8000094018299178,0.881227938192302,-0.0975824195506376,0.6911646950389707,1.0070789675350327,0.05039216852207514,0.6630418313531062,1.0314729237926887,0.0,0.0,0.0,0.0
0.007066573079011056,0.01599489903862605,0.7332621934586437,-0.0010765298680091289,-0.5218821898994538,0.0012948872095375958,0.8530159108810973,0.05727159720511709,-0.7899379245303122,0.8553869353550576,-0.04360205013913693,-0.7989518417403512,0.8786950747147744,-0.10039907173750584,0.6905701402599307,1.0083865879024956,0.054169877685203545,0.6646470486023487,1.0285769452427442,0.0,0.0,0.0,0.0
0.006844814070369382,0.01639890677103357,0.7332843584453752,-0.0010372524586513626,-0.5217501081171853,0.0012456421677703073,0.8530968275422388,0.05634929135908067,-0.7904523431662801,0.8555163967102319,-0.04450666113309395,-0.7975931080567926,0.8756233511272307,-0.10380956570710748,0.6900505074110225,1.0094346069169648,0.05862205232552174,0.6663185749283583,1.0258463552147583,0.0,0.0,0.0,0.0
0.006576893238640407,0.016884731407681357,0.7333612892944947,-0.0009760822519967902,-0.521562941229971,0.0011704335879389107,0.8532114484019746,0.05527462558883145,-0.7910205255289099,0.8557019871026187,-0.04555952400102358,-0.7960019833160952,0.8720319225376749,-0.10805416453117907,0.6896232654660533,1.0101856376280158,0.06463010018208873,0.6681480763714442,1.0234896640139883,0.0,0.0,0.0,0.0
0.006261724090758613,0.017452946290665246,0.7334909589712908,-0.0008664345551782664,-0.5212972000021275,0.0010408526318038639,0.8533741238090725,0.05410786938916563,-0.7916906781923579,0.8559927762570502,-0.04670550995317766,-0.7944052591856274,0.8681170813846434,-0.11348245948680911,0.6893128866119985,1.0106337575960085,0.07388156211411144,0.6703386827320006,1.0218651967495769,0.0,0.0,0.0,0.0
0.005912441402260431,0.01808556600537956,0.733655472752368,-0.0006652917353137803,-0.5209212555215379,0.0008096560218827177,0.8536040928849262,0.05299930475581745,-0.7925754564604465,0.8565230909280007,-0.04780669687864573,-0.7933136285633908,0.8644226185169004,-0.12054718044244525,0.6891470652814312,1.0108433558883396,0.08913306503790859,0.6732734503448269,1.0215380966470369,0.0,0.0,0.0,0.0
0.005571029383771292,0.018728177288899268,0.7337938521163577,-0.0003304590084708681,-0.5203989371438922,0.00042768455131270584,0.8539230961288466,0.0522029688018766,-0.7940044232219641,0.857656321580928,-0.048634278969900226,-0.7936594793745885,0.8620449885537151,-0.12944997686298768,0.6890030612586975,1.011120209684731,0.11316099374449352,0.6773192445321146,1.023206389568881,0.0,0.0,0.0,0.0
0.005248645835465214,0.01921568805983254,0.733704603847398,5.341250563709331e-05,-0.5197592527847993,-3.0498100992423796e-05,0.8543127737319378,0.052000400653237806,-0.7963227411430494,0.85915592909983,-0.04892514165271421,-0.7961585204042192,0.8617234274361153,-0.13789797820231503,0.6876164906375021,1.0127726349245927,0.1408649427444127,0.6806301119473043,1.027392497785057,0.0,0.0,0.0,0.0
0.005249439765323579,0.019219440882172745,0.7337030072055705,5.761316940637318e-05,-0.5197597999824182,-3.470043066539391e-05,0.8543124403863258,0.05200045466429041,-0.7963226323109437,0.8591620496296054,-0.04892418295791792,-0.7961620252723224,0.8617153844224416,-0.13790612471809222,0.6876047573042263,1.0127633550282291,0.1408708629703093,0.6806273312241542,1.027390093294033,0.0,0.0,0.0,0.0
0.005249439765323579,0.019219440882172745,0.7337030072055705,5.761316940637318e-05,-0.5197597999824182,-3.470043066539391e-05,0.8543124403863258,0.05200045466429041,-0.7963226323109437,0.8591620496296054,-0.04892418295791792,-0.7961620252723224,0.8617153844224416,-0.13790612471809222,0.6876047573042263,1.0127633550282291,0.1408708629703093,0.6806273312241542,1.027390093294033,0.0,0.0,0.0,0.0
0.005321603093126018,0.019321232941532866,0.7337707701380746,5.091758526796062e-05,-0.5201726452060763,-3.3813626624491644e-05,0.8540611309756179,0.05170094069368619,-0.7943121031756545,0.8578371723927625,-0.04913523794397072,-0.7935670263971795,0.8594782710774426,-0.1392884053350219,0.6895285407184442,1.0132181193815033,0.14085451239548322,0.6824450870008727,1.0272576544930394,0.0,0.0,0.0,0.0
0.0053909731567309644,0.019436718927008868,0.7338023970659087,3.3105124435032295e-05,-0.5204436387809847,-1.9672891356914864e-05,0.8538960225750183,0.051358160178229154,-0.7933254834523107,0.8574575703817068,-0.04942670735882905,-0.7918399103933377,0.8579968920766156,-0.14042882018191014,0.6907990386458905,1.013744039703119,0.1406891088274713,0.6836740738520941,1.0271287551009216,0.0,0.0,0.0,0.0
0.005451214838086447,0.01954361542640788,0.7338130257755727,1.2563232011352116e-05,-0.5206150995613898,-1.017947119145146e-06,0.8537914955946875,0.05103896048463717,-0.7929410491351249,0.8575720808587528,-0.049718163957772205,-0.790738296286345,0.8570643231740126,-0.14130779655226894,0.6916070632317008,1.0142379180683283,0.14047832985153635,0.6844773976785954,1.027022383874697,0.0,0.0,0.0,0.0
0.005502219559606691,0.01963981836581265,0.7338095255272653,-7.427644677982779e-06,-0.5207240693161088,1.8098887772136283e-05,0.8537250396070931,0.05075222230060226,-0.7928972437803271,0.8579333175825524,-0.04999117379520972,-0.7900368332736083,0.8564733818602364,-0.14200633638633714,0.6921115688708627,1.0147105787318522,0.14024379751736796,0.6849913515507532,1.0269568773084516,0.0,0.0,0.0,0.0
0.005547318713407549,0.019732785143396204,0.73379332784146,-2.6892325849462555e-05,-0.5207946684219912,3.716953542148826e-05,0.8536819731249201,0.050477892071883496,-0.79308236643097,0.858463354048664,-0.0502607453846999,-0.7895846443063704,0.8560827275739996,-0.14262317091062487,0.6924133982266227,1.0152175144303417,0.13996688367317175,0.6853046774830629,1.0269433129554064,0.0,0.0,0.0,0.0
0.005591381445352604,0.01983467395946882,0.7337625086601184,-4.748735052006793e-05,-0.520842711583493,5.739788635691772e-05,0.8536526601849188,0.05018200191937757,-0.7934714492526588,0.8591787158830172,-0.05055844521554042,-0.7892807265252215,0.8557947722849807,-0.14326273056820768,0.6925748637775341,1.01583861174074,0.13960555850047554,0.685472469513926,1.026991635356319,0.0,0.0,0.0,0.0
0.005639200274374367,0.01995999698062146,0.7337128458115224,-7.161564085005892e-05,-0.5208790407277778,8.064594620616213e-05,0.8536304899064592,0.04982408915493058,-0.7940847370070542,0.8601396849639867,-0.05092368218567345,-0.7890518634649856,0.8555313042416229,-0.14403238346001387,0.6926313903945346,1.0166708306544456,0.13910206448637583,0.6855239894968682,1.0271158123371997,0.0,0.0,0.0,0.0
0.0056990409911791854,0.020126825415294893,0.7336398439975198,-0.00010237428572675392,-0.5209117557991579,0.00010905130941287765,0.853610520259419,0.04935511715209731,-0.7949890213178407,0.8614748164542699,-0.05140579505428406,-0.7888489413094704,0.8552489570377191,-0.1450607727658449,0.6926216853723852,1.0178145404189824,0.1383763984572264,0.6854887013830303,1.0273128336527588,0.0,0.0,0.0,0.0
0.005788040053522487,0.020356911558018536,0.73354968054812,-0.000143537676553545,-0.5209455100961476,0.00014435818720506417,0.8535899097741922,0.048718938261965467,-0.7962942311678411,0.8634227130072026,-0.05206263472832349,-0.788645422880854,0.8549821266032192,-0.14650313804711876,0.6926551738443963,1.0192675992493587,0.13731859314783967,0.6854590177571717,1.0274562522430282,0.0,0.0,0.0,0.0
0.005925211074546303,0.020661605624523256,0.7335095306838917,-0.00017823684043558565,-0.5209732171021649,0.00018109577011430616,0.8535729860405443,0.04788880640121409,-0.797919387402455,0.8661262602406041,-0.05291874153783613,-0.7883762108480264,0.8548516024025369,-0.14858281105585563,0.6931274374173408,1.0204230143905473,0.13565573127520225,0.6857260382242275,1.0268665106713564,0.0,0.0,0.0,0.0
0.006201150393377549,0.02125591148964749,0.7336053813624995,0.00026217756883935577,-0.5212660813381497,-0.00032495921346679675,0.8533941048019967,0.047455364208301314,-0.7973302039756963,0.8682783023644649,-0.053337647616153366,-0.7877461191699642,0.8545804798435181,-0.11578387636426189,0.6852909336121966,1.0176369643741778,0.12485755819801063,0.6855013239098667,1.024111896131521,0.0,0.0,0.0,0.0
0.006513451841167704,0.021933996932666178,0.7335865598877045,0.0006216240650438926,-0.521539317014862,-0.0007346701623888278,0.8532267076521606,0.04661340542551061,-0.7979269621366823,0.8716762214472693,-0.05418643521998126,-0.7872612234468214,0.854344727123323,-0.088931454787716,0.6786479194037028,1.0165148252150695,0.11473107543223822,0.6851073875130088,1.0220988078649322,0.0,0.0,0.0,0.0
0.0068204871076602185,0.022567358729383296,0.7335513672182995,0.0008284344886721841,-0.5217389226078833,-0.000976890690514901,0.8531042468636773,0.04554087378113813,-0.7993901982852532,0.8757155808984171,-0.055280254261504375,-0.7868200377228604,0.8542359191315533,-0.07222932378413541,0.6742448305601134,1.0170359695850282,0.10712572211248587,0.6850892941189619,1.0203398088551405,0.0,0.0,0.0,0.0
0.007086682432489624,0.02311314810068762,0.7335304922805325,0.0009387315015807701,-0.5218802174339617,-0.001111646013484304,0.8530175389037375,0.04446383651615554,-0.8010352266657688,0.8795525412523908,-0.0563798133852527,-0.7863575895129211,0.8541095342275499,-0.06221824578689815,0.6712613336265868,1.0186666436942677,0.1015288928198999,0.6853209217814548,1.018723982390782,0.0,0.0,0.0,0.0
0.007305347583154015,0.023564714058049042,0.7335377586845342,0.00100066001582528,-0.5219810637259742,-0.0011904668805976335,0.8529556556935649,0.0435030239655611,-0.8024978466958953,0.8828352834400326,-0.05735825256832747,-0.7858755479058336,0.8539486976184755,-0.05580206255635739,0.6690166409471704,1.0209391177363556,0.09730329349050727,0.685700007894112,1.0171550401525127,0.0,0.0,0.0,0.0
0.007481967710719643,0.023931043888422793,0.7335787258554263,0.0010420009268302095,-0.5220541308717466,-0.0012432742061355808,0.8529108118338412,0.04269739978974776,-0.803646992614996,0.8855044546523516,-0.058175026500585696,-0.7853842563213671,0.8537749726566416,-0.051123880187620034,0.6671256727710282,1.023547380445051,0.09399231378667648,0.6861818104441431,1.0155525534599958,0.0,0.0,0.0,0.0
0.007625325722949988,0.024226326762655497,0.7336529433224941,0.0010766030738341842,-0.5221078663770579,-0.0012854979005618192,0.8528778132230697,0.042043992657064926,-0.8044722279926376,0.8876258748908019,-0.058833604164216007,-0.7848930156371097,0.8536119664288185,-0.04721522027380691,0.6653957619972055,1.0263105023310064,0.09129754169535303,0.686745913273698,1.0138721027509292,0.0,0.0,0.0,0.0
0.00774397800756797,0.024465453405583468,0.7337561254207651,0.0011106092340267323,-0.5221480877057705,-0.0013244918853841177,0.8528530862778078,0.041521655393386474,-0.8050158757614959,0.8893053893373348,-0.05935633317848983,-0.7844084785751717,0.8534747043869813,-0.04361096850436827,0.6637344828108204,1.0291280128626674,0.08902343155847486,0.6873777616775449,1.0121026124739543,0.0,0.0,0.0,0.0
0.007845179082597704,0.02466222123628678,0.7338821149744583,0.00114629222953252,-0.5221789825748583,-0.0013634310031583393,0.8528340619529159,0.04110327062635977,-0.8053382797501185,0.890652112287194,-0.059771629641042365,-0.7839349403097415,0.8533694238501012,-0.040103416342234965,0.6620982177353865,1.0319480079441763,0.08703691364069417,0.6880627504387338,1.01025471896589,0.0,0.0,0.0,0.0
0.007934773628987616,0.02482868653124017,0.7340241945050847,0.0011841257380984693,-0.5222036684383174,-0.0014034368540005858,0.8528188300458645,0.040761677697052315,-0.8055016897004835,0.8917647358837042,-0.06010784318741963,-0.783475392772082,0.8532966476687713,-0.03660819032444631,0.6604678756022532,1.034746402038898,0.08524327636868471,0.6887853436864766,1.0083506677936012,0.0,0.0,0.0,0.0
0.008017441444116575,0.02497499837379044,0.7341756713901441,0.0012238216328234741,-0.5222245496102719,-0.0014446732778673047,0.852805918696675,0.04047237332998807,-0.8055639781331919,0.892728159595656,-0.060390531427321356,-0.7830330845915848,0.8532548760619663,-0.03309674048446557,0.6588385694318253,1.0375130588023154,0.08357294903485168,0.6895292637721776,1.0064192010614834,0.0,0.0,0.0,0.0
0.008097053701857702,0.025109424902575134,0.734329819088504,0.0012648430252892257,-0.5222435518903136,-0.0014869285109701464,0.8527941496778189,0.04021472440643912,-0.8055777544487897,0.8936148040432186,-0.060641322227943606,-0.7826140909244037,0.853244612595997,-0.029564409264340417,0.6572160503145209,1.0402409557136978,0.08197411976244234,0.690276696929244,1.0044956913748826,0.0,0.0,0.0,0.0
0.00817698135530033,0.025238405490150766,0.7344791582897028,0.001306658924628733,-0.5222619156602212,-0.0015300706176690348,0.8527827642355793,0.03997300304836805,-0.8055945462671426,0.8944894186892661,-0.06087710310349554,-0.782233600838951,0.8532747071027207,-0.026016572344461253,0.6556169212964194,1.0429118582666705,0.08040747972846149,0.691003633035284,1.0026274827204744,0.0,0.0,0.0,0.0
0.008254928144205786,0.025370550536165038,0.7346148728456352,0.001348023189069409,-0.5222807506947721,-0.001572932152137056,0.8527710866179926,0.03972326140565456,-0.8056505507790006,0.8953746270331732,-0.061121797023192155,-0.7818730000894238,0.8532866773934177,-0.022478496661077478,0.6540546097972402,1.045472280551132,0.07882684230575118,0.6916631891042481,1.0008743151110908,0.0,0.0,0.0,0.0
0.008327872075372032,0.025512383346381125,0.7347256744724983,0.0013876629335960121,-0.5223005784529421,-0.0016142926727045522,0.8527588018885948,0.03944686131653373,-0.8057844223254693,0.8962845432388463,-0.061394315339949726,-0.7815270418688374,0.85323119516539,-0.018987405156036807,0.6525635460407815,1.0478098900019739,0.0772024753151561,0.6921944778191215,0.9993252128817864,0.0,0.0,0.0,0.0
0.008391350657255683,0.025667387164997207,0.7347972074574616,0.0014241713546925554,-0.5223214056626294,-0.001652969093594693,0.8527459109346364,0.039133164713560875,-0.8060326979141949,0.8972143982317614,-0.06170578499867474,-0.7812041531787925,0.853065423371432,-0.01561169034563173,0.6512173760049355,1.0497070784102596,0.07552810683541303,0.6925182843320461,0.9981079371382614,0.0,0.0,0.0,0.0
0.008437964879247846,0.02583657910596784,0.7348129258322402,0.0014555904799254194,-0.5223423375226492,-0.0016872573778157684,0.85273296925255,0.03877670837904667,-0.8064247945379014,0.8981303649462247,-0.062061998025166196,-0.7809147198387577,0.8527345691308275,-0.012471176250793966,0.6501675185472525,1.0507606075734877,0.07382200084388815,0.6925368814039474,0.9973804412083296,0.0,0.0,0.0,0.0
0.008460323292017274,0.02601911284952216,0.7347596475858649,0.001479794962227117,-0.5223616957117685,-0.001715584603943655,0.8527210128931163,0.038377103868442085,-0.806979323620119,0.8989907084816222,-0.06246350597373589,-0.7806679938727087,0.8521912161695288,-0.009727023722883456,0.6497130031771393,1.0503047014406477,0.07211502194647565,0.6921672688576957,0.9972738989746062,0.0,0.0,0.0,0.0
0.008458591532666473,0.02621544275892294,0.734636862711102,0.0014967064878410974,-0.5223796083233534,-0.0017378789896113438,0.8527099650257681,0.03793305563491504,-0.8076993951764718,0.8997989267125968,-0.0629115951926685,-0.7804636697996215,0.8514340567735282,-0.007383757450948337,0.6498567079001709,1.0483455918691182,0.07040497982883322,0.6914076694081827,0.9977916911287732,0.0,0.0,0.0,0.0
0.008440551090147021,0.026427594646503693,0.7344565776218834,0.0015082868404348326,-0.5223979773535711,-0.0017555860207691587,0.8526986550038813,0.037441724589876,-0.8085741013438341,0.9006055620871284,-0.0634089531103308,-0.7802922023239681,0.8505077755023414,-0.0052877808475334225,0.6503043103361074,1.0455597517011044,0.0686544275350184,0.6903367864966837,0.9988094341277348,0.0,0.0,0.0,0.0
0.00841395036826694,0.026656559786351827,0.7342337858635541,0.0015162812915289908,-0.5224178584895873,-0.0017702646979871608,0.8526864301635728,0.0369032369277896,-0.8095851260784664,0.9014569395821393,-0.06395516518405907,-0.7801420356346903,0.8494613896443703,-0.0033262903804170693,0.6509073155109318,1.0423595966186552,0.06683271532069528,0.689045708852627,1.000176279578444,0.0,0.0,0.0,0.0
0.00838320596342632,0.026902422251693946,0.733980608462229,0.0015217673358896508,-0.522439312080318,-0.0017828669959582635,0.8526732497284609,0.03631880384501986,-0.8107121032913898,0.9023746496390016,-0.06454854724701442,-0.7799997393234882,0.8483225205991001,-0.0014390278589039248,0.6515935523767343,1.0389699472990324,0.06492347807313491,0.687601684076494,1.0017731862035761,0.0,0.0,0.0,0.0
0.008349657336397198,0.027165130536211758,0.7337051548845284,0.0015253698778877932,-0.5224618528831162,-0.0017939451946573856,0.8526594087262013,0.03568923277075455,-0.8119362546644164,0.903359851734245,-0.06518770246007022,-0.7798508340089526,0.8470962229873646,0.000399882404225313,0.6523254025569567,1.0355054719484327,0.06291679042244024,0.686043423951175,1.0035215343098602,0.0,0.0,0.0,0.0
0.00831232995411703,0.027445304935880214,0.7334119347982436,0.0015274774834942617,-0.522484717306933,-0.0018038719891465928,0.8526453735516768,0.035013345432530964,-0.8132426935961214,0.9044012802766344,-0.06587314202476513,-0.7796792369598561,0.8457673844576576,0.0021983556258766083,0.6530815163537597,1.0320187078896683,0.0608005781577545,0.6843848315965385,1.0053760666681248,0.0,0.0,0.0,0.0
0.008268299078622678,0.02774481390552109,0.7331025451402851,0.001528419834921404,-0.5225069137207538,-0.001813021119588448,0.8526317505237774,0.03428686833550667,-0.8146206074168012,0.9054792535539442,-0.06660836150380706,-0.7794654945026089,0.8443007468969955,0.0039568510640427355,0.6538495510069646,1.0285256647612402,0.058553926358362006,0.682618466930667,1.0073159711041133,0.0,0.0,0.0,0.0
0.00821258744716534,0.028066977722427167,0.7327762838152769,0.0015286746137952627,-0.5225271376105013,-0.001821985962867111,0.8526193370910916,0.03350233254146088,-0.816061041704551,0.9065643724668213,-0.06739985233914318,-0.7791847327436359,0.8426387862381239,0.005675030079743724,0.6546233384259519,1.0250159581328462,0.05614253890145754,0.6807169166197938,1.00933802363762,0.0,0.0,0.0,0.0
0.008137946386529588,0.028416148570525355,0.7324307253884577,0.0015292042223936729,-0.5225436901365882,-0.0018319457777951232,0.852609170375003,0.03265087420218356,-0.8175521633024052,0.9076122595530683,-0.06825522039924285,-0.7788063051112487,0.8407016167602093,0.007357235882042236,0.6554021697307253,1.021452580218676,0.053517075525502625,0.6786335102560817,1.0114520845873205,0.0,0.0,0.0,0.0
0.008035611966203596,0.028795927138234548,0.732062453437082,0.0015320992490107,-0.522554743196871,-0.001845357683890449,0.852602362000811,0.03172824012068747,-0.8190724501276778,0.9085594354110124,-0.06917730611656486,-0.7783010347477294,0.8384018408538395,0.009020603209165833,0.6561942419642565,1.0177671885322457,0.05061803653490013,0.6763075732932058,1.0136788982852287,0.0,0.0,0.0,0.0
0.007900417429751571,0.029203831402447596,0.7316680405424555,0.0015420093304063676,-0.5225599047000978,-0.0018674336685156688,0.8525991325931216,0.03075166237432704,-0.8205860058391358,0.9093380704717343,-0.07014833348677832,-0.7776762694761952,0.8357154816233,0.010721186217033836,0.6570353423081083,1.0138629713496892,0.04739837541560672,0.6736876796079193,1.0160543134857873,0.0,0.0,0.0,0.0
0.007752011442015824,0.029615136235309127,0.7312429037661784,0.0015706101695179809,-0.5225577643929329,-0.0019119328417580243,0.8526002935544674,0.029815605080958422,-0.822110823414886,0.910021993245054,-0.0710808310844879,-0.7771735763441487,0.8330106673451522,0.01266928834890244,0.6580556626550105,1.0096029277729872,0.04387750218753965,0.6707754176448912,1.0186588660383533,0.0,0.0,0.0,0.0
0.007597081562955137,0.0300124456757272,0.7307837824606027,0.0016335779997277173,-0.5225479830834597,-0.0019960758418931333,0.8526059772717762,0.02900186497176571,-0.8235965251635644,0.9105706514629794,-0.07189689724055422,-0.7769497181305843,0.8304956034567635,0.015175789421642473,0.6593676301225806,1.00470569928898,0.03996455887072135,0.6675193846372006,1.0215489544715946,0.0,0.0,0.0,0.0
0.007445017673175577,0.030372008806557348,0.730291050467806,0.0017569021479651571,-0.5225280690649118,-0.0021510126888266653,0.852617559916842,0.028440259938064722,-0.8249536322083089,0.9109220164469458,-0.07247249265149341,-0.777240727360416,0.8284835523096479,0.01871458754517116,0.661111153883704,0.9986853197414244,0.03545007509247492,0.663838735054661,1.024746442038415,0.0,0.0,0.0,0.0
0.007317427339183007,0.030659078765432373,0.7297834723587079,0.001979918492512376,-0.5224906694490871,-0.0024326768507263196,0.8526392334069244,0.02834859802726113,-0.8260376433908238,0.9110469981523549,-0.0725989411665484,-0.7784216100887246,0.8275283733724162,0.02361703909405799,0.6635477431542276,0.9908144461271182,0.029947198039049987,0.6596833433374474,1.0280959674621877,0.0,0.0,0.0,0.0
0.007249409393513729,0.03084269396433921,0.7293600640293223,0.0023272708274338994,-0.5224305615469621,-0.002868922177100233,0.8526738306396904,0.028865217755596334,-0.8265850250603055,0.910995962380924,-0.07213811808837921,-0.7805898938314708,0.8281163865125087,0.028720071116265244,0.6673238203871665,0.9804411372168714,0.023338062614329344,0.6555166224507497,1.0307343196796657,0.0,0.0,0.0,0.0
0.00724964002913935,0.030845996227270807,0.7293565241637906,0.002328681414379896,-0.5224314261734981,-0.002870207447490717,0.8526732927085282,0.02886010535082208,-0.8265933204951188,0.911002821473342,-0.07214226633615128,-0.7805854638693885,0.8280957534132642,0.028721508002551747,0.6673219211329934,0.9804369952419556,0.02332971441912955,0.6555034222731217,1.030734664712566,0.0,0.0,0.0,0.0
0.00724964002913935,0.030845996227270807,0.7293565241637906,0.002328681414379896,-0.5224314261734981,-0.002870207447490717,0.8526732927085282,0.02886010535082208,-0.8265933204951188,0.911002821473342,-0.07214226633615128,-0.7805854638693885,0.8280957534132642,0.028721508002551747,0.6673219211329934,0.9804369952419556,0.02332971441912955,0.6555034222731217,1.030734664712566,0.0,0.0,0.0,0.0
0.007048855150506621,0.03103804589608122,0.7294870751352814,0.0020002265751417397,-0.5227085570543115,-0.002499442112312622,0.8525054347421926,0.02753238252520572,-0.8251350796543578,0.9089774983975557,-0.06704501404472192,-0.7888181535348403,0.8429533766006281,0.03191305054827197,0.6667040337279597,0.9802306398369451,0.026680164502281913,0.6576250163890578,1.0300934746080899,0.0,0.0,0.0,0.0
0.0066002005386428374,0.03152960870878641,0.7296410471834317,0.0017154627278905613,-0.5228978793168199,-0.0021550162881077113,0.8523908850394868,0.02547815757803752,-0.823488482134194,0.9060437066824365,-0.0620125692635352,-0.7950053466320213,0.8515994989502242,0.03252802561542577,0.665505855258029,0.9810239131911734,0.0273337660755638,0.6584872688968493,1.028317582604342,0.0,0.0,0.0,0.0
0.00599489231989334,0.03223071220632764,0.7297291299668036,0.001459247874211253,-0.5230100688636343,-0.0018513638912487336,0.8523232432091947,0.02298778959747244,-0.8220922225951626,0.9027878066366274,-0.058320213565440704,-0.799533792851642,0.8560646860052139,0.03121923282866976,0.6635707210157004,0.9832389109111225,0.02594103079805056,0.6580418269978232,1.0264024059371613,0.0,0.0,0.0,0.0
0.005352771463829306,0.03298139528013609,0.7298233072194155,0.0012369942976208162,-0.5230752666744365,-0.0015997366646851776,0.8522840935281958,0.02049804660042358,-0.8207187980498521,0.8994618148460523,-0.05585171388752902,-0.8029146587185747,0.8582729378592302,0.029007467375352366,0.6616526749857822,0.985562860464085,0.02360038600104646,0.657170905110652,1.0241421715460504,0.0,0.0,0.0,0.0
0.004737521536769114,0.03368982518625625,0.7299315581846475,0.001050652454918756,-0.5231103334191546,-0.0013974507999116158,0.8522631766835769,0.018235318531146804,-0.8193473436664277,0.8962356108339458,-0.05417973142383342,-0.8055666092450788,0.8592452982587262,0.026547206225414868,0.6599744883972956,0.987553028606105,0.021018693551812708,0.6562331413134849,1.0217329472537922,0.0,0.0,0.0,0.0
0.004179238803586176,0.034316970797703406,0.730042574212017,0.0008978818473190359,-0.5231273005639475,-0.0012364322101224856,0.85225318564864,0.01627783204684973,-0.818027156124193,0.8932293713500664,-0.052895609265657464,-0.8077867822747321,0.8595438735391852,0.024181781162517714,0.6585550705973254,0.9891630980846671,0.018557726831884582,0.6553514863954466,1.019409422163825,0.0,0.0,0.0,0.0
0.003690163588903523,0.03485363413410352,0.7301474036927127,0.0007742158572200764,-0.523134532067846,-0.001107819129047196,0.8522490449890452,0.014626195986038837,-0.816808431727167,0.890524823554519,-0.05171720832351968,-0.8097683109699609,0.859490332132373,0.02206082660731935,0.6573722712015421,0.9904441542967057,0.016367500875807815,0.654573297537216,1.017302893540728,0.0,0.0,0.0,0.0
0.0032718953219854313,0.0353058244414695,0.7302415923038285,0.0006744547167191751,-0.5231375051848551,-0.001003679966250251,0.852247433792749,0.01324524545937337,-0.8157242441314667,0.8881643228192234,-0.050491952644389396,-0.8116318161751719,0.8592697487968722,0.020224763151934395,0.6563964897981583,0.9914651935144637,0.014482702731882265,0.653914161992308,1.0154582668970196,0.0,0.0,0.0,0.0
0.0029197616852491663,0.035685908630824534,0.7303238940259459,0.0005935631394137574,-0.5231396038690107,-0.0009175969475603289,0.8522463027566713,0.01208793916203537,-0.8147878360921297,0.8861542071247749,-0.049160211524141975,-0.8134511730475638,0.8589863805995156,0.01865868144514227,0.6555976389931883,0.9922901838136744,0.012882207316136356,0.6533732944120039,1.0138693878329144,0.0,0.0,0.0,0.0
0.0026258367115484208,0.03600763460881603,0.7303948750981135,0.0005271442032454591,-0.523142751422895,-0.000844670147871083,0.8522444897357878,0.01110780157442047,-0.8139963137562113,0.8844735927618812,-0.04771537217326464,-0.8152711690116685,0.8586952549386754,0.017324670116662055,0.6549469457685615,0.9929715316202374,0.011523245676188024,0.6529410506660099,1.012505923934482,0.0,0.0,0.0,0.0
0.0023810512128915693,0.03628360508820955,0.7304559258294238,0.00047162275603358555,-0.5231478730500784,-0.0007812896078623533,0.8522414388433032,0.010264561446189712,-0.8133364757618197,0.8830852241695762,-0.046173946990701896,-0.8171177884824553,0.858420978029824,0.016179816396051663,0.6544178850039237,0.9935492442525247,0.01035959460154039,0.6526035085346275,1.0113300591461156,0.0,0.0,0.0,0.0
0.0021765596184925855,0.03652421947579937,0.7305086330992904,0.0004242584421069924,-0.5231552037578246,-0.000724860181345527,0.8522370136080695,0.009526006123482846,-0.8127904755853296,0.8819453030986486,-0.0445572013906191,-0.819001560090786,0.8581700933729696,0.015185129876054948,0.6539866818070939,0.9940524019223835,0.00935017075533311,0.6523452337481356,1.0103057478793895,0.0,0.0,0.0,0.0
0.0020044594284494813,0.03673747647924598,0.7305544028042449,0.00038306837735330304,-0.5231644592701068,-0.0006735553109935772,0.8522313935419641,0.008867791388874906,-0.8123402127888577,0.8810105451169064,-0.042881502577636135,-0.8209134850722128,0.8579411401082041,0.014308823428302603,0.6536321545119805,0.9945016690186848,0.008461922478063266,0.6521504824404836,1.0094031260998628,0.0,0.0,0.0,0.0
0.0018579589978245494,0.036929311047718086,0.7305942574661649,0.00034669930510235436,-0.523174904032622,-0.0006261184001594747,0.8522250334071381,0.008272071967433339,-0.8119700702917368,0.8802419230271697,-0.04115434220308886,-0.8228129493455337,0.8577356115965249,0.013525939470596647,0.6533348318096144,0.9949123318085582,0.007669141789460582,0.6520030799726982,1.0085997036563494,0.0,0.0,0.0,0.0
0.001731134036485835,0.037104303077695994,0.7306287889849293,0.00031426004415097304,-0.5231853941675018,-0.0005817071194872986,0.8522186375498059,0.007725345125423184,-0.8116679345368478,0.879605452939498,-0.03937433253103711,-0.8246092205283548,0.8575719623253841,0.012815446208680829,0.6530757780311671,0.9952974980933117,0.006950332957625133,0.6518856192168364,1.0078790805966735,0.0,0.0,0.0,0.0
0.0016185217699692894,0.03726660034396865,0.7306583054515707,0.00028511718927192386,-0.5231945485302963,-0.0005397708804297251,0.852213055370407,0.007215875343521918,-0.8114244140201086,0.8790710271331359,-0.03753473793203662,-0.8261447082487932,0.8575019471770526,0.012155948464562017,0.6528363486375347,0.9956706395827378,0.006283764655277832,0.6517794064348641,1.0072274738911955,0.0,0.0,0.0,0.0
0.0015149847483568253,0.0374206642807941,0.7306832388240047,0.0002586880758504266,-0.5232012926888377,-0.0004999592673371117,0.852208947647195,0.006731662862268088,-0.8112298733379282,0.8786106418599692,-0.03562971327974065,-0.8272013360650873,0.8576212574388506,0.01152250481693671,0.6526009730047158,0.9960456240254703,0.0056441892828876915,0.6516675497689721,1.0066289012790064,0.0,0.0,0.0,0.0
0.0014164186420819913,0.03757088968765649,0.7307046717202897,0.00023437383644012697,-0.5232059308250954,-0.00046209269694987595,0.852206128520964,0.006261359177275933,-0.8110692846667461,0.878197301571942,-0.03365894197623397,-0.8275712901946655,0.8580485177558936,0.010889925317614898,0.6523642290931804,0.9964320887835862,0.005006127507788094,0.6515428003635861,1.0060633024074923,0.0,0.0,0.0,0.0
0.0013210019079236206,0.03771858237844473,0.7307230118841352,0.00021189701267420975,-0.5232082705433101,-0.00042594929960274627,0.8522047167799112,0.005801190174029756,-0.8109368216529005,0.8778186729773249,-0.03162620828768198,-0.8272509024763139,0.8587792365094595,0.010252374499844459,0.6521218439016144,0.9968318519069738,0.004363811629881942,0.6514014863944352,1.0055240693166576,0.0,0.0,0.0,0.0
0.0012290004413324914,0.03786216386777547,0.7307380442985815,0.0001912570023378247,-0.5232076212163773,-0.0003912227537771831,0.8522051369632877,0.005354324494623934,-0.8108353946972632,0.8774760744989264,-0.029538833636571046,-0.8264412363792962,0.8596864072033296,0.009622495037780896,0.6518702716262221,0.9972393569744795,0.0037301439554580525,0.6512431283108641,1.0050172021308776,0.0,0.0,0.0,0.0
0.0011410984849156392,0.03800058043417059,0.7307503436577789,0.0001722956974517169,-0.5232046615836009,-0.0003576500396753249,0.8522069728052167,0.00492279142818218,-0.8107608692380912,0.8771682655690878,-0.027409803004119906,-0.8253543497050627,0.860665857729312,0.009010207362907178,0.6516146831924278,0.9976461635552947,0.003115068270170911,0.6510757086376813,1.0045422094125676,0.0,0.0,0.0,0.0
0.0010573046102229904,0.03813404988780028,0.7307608163362358,0.00015466946129807268,-0.5232003635047525,-0.00032496409485827717,0.852209628028333,0.004505494853452971,-0.8107060956847028,0.8768901202739656,-0.02525487245935817,-0.8241427103991592,0.8616570949722108,0.008417935317128823,0.6513609236874353,0.9980464626678361,0.0025208943218984845,0.6509071670416113,1.0040925207750357,0.0,0.0,0.0,0.0
0.0009768001277497902,0.03826368568751595,0.7307703441440552,0.00013795699345985212,-0.5231954627013206,-0.0002928977678663132,0.8522126512716861,0.0040991205938643305,-0.8106633064895244,0.876633009104607,-0.023087875131770245,-0.8228932262367344,0.8626336186106427,0.007842429247502867,0.6511119678839231,0.99843805372363,0.001944244750338213,0.6507419090428253,1.0036589897083623,0.0,0.0,0.0,0.0
0.0008982025400356412,0.03839093422530602,0.730779656025426,0.00012175475373056884,-0.5231903378067643,-0.00026119149911167996,0.8522158103323504,0.003699527743702023,-0.8106251121351892,0.8763860384906459,-0.020917917575182545,-0.8216446080702813,0.863588491706576,0.007277972096958606,0.6508676631619051,0.9988210629542948,0.001379325741602095,0.6505808078157966,1.0032324484492228,0.0,0.0,0.0,0.0
0.0008198815783684618,0.03851715303784952,0.7307893334749445,0.00010573022091482083,-0.5231850661129938,-0.00022959606236724143,0.8522190579323551,0.0033027918452927605,-0.810584716941529,0.8761372402855907,-0.018748341340664762,-0.8204069242667161,0.8645235572471338,0.006718928540692915,0.6506257216232715,0.9991962546334273,0.0008204901653933064,0.6504224515652379,1.0028049147638782,0.0,0.0,0.0,0.0
0.0007401796138815314,0.0386433512272517,0.7307998711389181,8.964653162143984e-05,-0.5231795183795042,-0.00019787351393977227,0.8522224735113254,0.0029058485119432607,-0.810535663926994,0.8758741575920591,-0.01657613973943151,-0.8191755822085908,0.8654437491175021,0.006161370672757817,0.6503828259112157,0.9995635774851682,0.00026385281771178475,0.6502644264691941,1.0023699265813824,0.0,0.0,0.0,0.0
0.000657526314317539,0.03877000213648666,0.7308117552493064,7.338119573021191e-05,-0.5231734374323049,-0.00016580709630290174,0.8522262149737433,0.002506981781047527,-0.8104712327070392,0.875583701138291,-0.014390947837046234,-0.8179389974639607,0.8663554262770268,0.005604181298513617,0.6501355136672579,0.9999208781393546,-0.00029162447068195845,0.6501042724695635,1.0019225253897568,0.0,0.0,0.0,0.0
0.0005705146879697021,0.03889682044345028,0.7308255513236371,5.6957626464274225e-05,-0.523166499731441,-0.0001332406331158958,0.8522304808920615,0.002106475388617554,-0.8103835587622882,0.875251516770026,-0.012173944512734909,-0.8166823124858212,0.8672671256878435,0.005050124981470061,0.6498810239382375,1.000262444105853,-0.0008430839776797898,0.6499402448853656,1.0014592477869249,0.0,0.0,0.0,0.0
0.00047806126946279485,0.039022418236354633,0.7308420044175445,4.059935820951031e-05,-0.5231583928522395,-0.00010017994529946147,0.8522354629466744,0.0017077265123958563,-0.8102626518486575,0.8748615543114937,-0.00989882712851321,-0.8153908261086934,0.8681911673254032,0.00450720343716934,0.6496186253476728,1.000577042817279,-0.0013824489535619162,0.6497722917548981,1.0009783142128172,0.0,0.0,0.0,0.0
0.0003798384378383509,0.03914380843913223,0.7308621468279829,2.4802919681893613e-05,-0.5231489634127791,-6.699783151989041e-05,0.8522412551480012,0.001319018392276329,-0.8100958778208326,0.8743973072761808,-0.007539528859483122,-0.8140575083036016,0.8691444118499225,0.003990272454929315,0.6493521819838196,1.0008453822284715,-0.0018948606465009061,0.6496038326161335,1.0004800794466433,0.0,0.0,0.0,0.0
0.0002772498147454748,0.03925583426317847,0.730887360517497,1.0401376202019299e-05,-0.5231385010784662,-3.477652142682445e-05,0.8522476795930749,0.0009558623801738581,-0.8098693133398738,0.8738475193257013,-0.005092361572108501,-0.8126992641884633,0.8701459030323464,0.003522341664660923,0.6490947554884995,1.0010376722381997,-0.002357465665232302,0.6494449660284419,0.9999678284094962,0.0,0.0,0.0,0.0
0.00017528000335006625,0.03935081773544331,0.7309191749425135,-1.4498428775600072e-06,-0.5231282160866673,-5.770415440608374e-06,0.8522539935363057,0.0006431614296001369,-0.8095739394926047,0.8732209953475488,-0.0026225723912125885,-0.8113855387804113,0.8712081688716686,0.003134099372364473,0.6488753081746199,1.0011140915286207,-0.002740014466671083,0.6493171701624032,0.9994497698968648,0.0,0.0,0.0,0.0
8.541405983400829e-05,0.03941909393593139,0.7309579523700059,-9.488270641511155e-06,-0.5231208822049044,1.616267562229306e-05,0.8522584949708059,0.0004151666845330459,-0.8092225999226674,0.8725768006433811,-0.0003437606428694515,-0.81027819190563,0.8723165251276929,0.0028588867541908644,0.6487436658615973,1.0010377618420798,-0.0030100323228047917,0.6492561498060945,0.998947604683743,0.0,0.0,0.0,0.0
2.8688945147278937e-05,0.0394517993139301,0.7309969307840722,-1.291837405034061e-05,-0.5231205924455312,2.5675616286504374e-05,0.8522586725480209,0.00030845645432030455,-0.8088945217054425,0.8720773701996714,0.0012699714939782847,-0.8096632908299213,0.8733616527861143,0.002718134984170821,0.6487502859726944,1.0008351537565066,-0.003147474758126105,0.6492911509465202,0.9985382954400058,0.0,0.0,0.0,0.0
2.9041492111581765e-05,0.03945130135199304,0.7309967297990339,-1.1987402406599772e-05,-0.5231203852270417,2.5972721864930933e-05,0.8522587997443214,0.00030835029970243517,-0.8088956888369113,0.8720787017367818,0.0012727473718977633,-0.8096593411112593,0.873363258209326,0.002717835950460214,0.6487502543454032,1.00083416420148,-0.003147631283371184,0.6492906630081934,0.9985408285582754,0.0,0.0,0.0,0.0
2.9041492111581765e-05,0.03945130135199304,0.7309967297990339,-1.1987402406599772e-05,-0.5231203852270417,2.5972721864930933e-05,0.8522587997443214,0.00030835029970243517,-0.8088956888369113,0.8720787017367818,0.0012727473718977633,-0.8096593411112593,0.873363258209326,0.002717835950460214,0.6487502543454032,1.00083416420148,-0.003147631283371184,0.6492906630081934,0.9985408285582754,0.0,0.0,0.0,0.0
2.9041492111581765e-05,0.03945130135199304,0.7309967297990339,-1.1987402406599772e-05,-0.5231203852270417,2.5972721864930933e-05,0.8522587997443214,0.00030835029970243517,-0.8088956888369113,0.8720787017367818,0.0012727473718977633,-0.8096593411112593,0.873363258209326,0.002717835950460214,0.6487502543454032,1.00083416420148,-0.003147631283371184,0.6492906630081934,0.9985408285582754,0.0,0.0,0.0,0.0
3.624061391693717e-05,0.03946341951697486,0.7309987014541629,-9.24444093569678e-06,-0.523122322314772,2.1911099380568622e-05,0.8522576108961678,0.00028695240364967606,-0.8089350961853262,0.872176263475439,0.0012513497590495707,-0.8096610132983947,0.8733852750364852,0.002593105087617238,0.6488058059323554,1.0008603105096614,-0.0032723932420572906,0.6493071564405872,0.9984735502118083,0.0,0.0,0.0,0.0
4.846249433599881e-05,0.03948126862903922,0.7309987765106354,-8.665040565525544e-06,-0.5231258638502175,1.9923872704240574e-05,0.852255437119013,0.0002467742848826491,-0.8090178306245633,0.8723458969653951,0.001211176821556623,-0.8096657454560697,0.8734251113653569,0.0024562799000814473,0.6488655218827224,1.000919895514736,-0.0034094667265493956,0.6493390530863775,0.9984053257986328,0.0,0.0,0.0,0.0
6.585809820634615e-05,0.039503098198377086,0.7309963175190661,-9.526515774178302e-06,-0.5231313925053515,1.933092122109957e-05,0.8522520435358151,0.00019363653667284949,-0.8091380218650424,0.872579287841854,0.001158052489330949,-0.8096803165913565,0.8734913467659289,0.0023103913360678087,0.6489297502111254,1.0010141135248187,-0.003555865202225842,0.6493828044678365,0.9983477563606971,0.0,0.0,0.0,0.0
8.922529133496599e-05,0.039529533200580766,0.7309913258214731,-1.1723519470724592e-05,-0.5231390706407157,1.993354951377591e-05,0.8522473304354675,0.0001264263434967757,-0.8092999593631618,0.8728856290680098,0.0010908667277012033,-0.8097069486118295,0.8735891841303238,0.002149269173196586,0.6490022510237058,1.001144924419642,-0.0037177697006914572,0.6494402818577372,0.9982980232283046,0.0,0.0,0.0,0.0
0.00011940016357149484,0.03956285390717057,0.7309839607238261,-1.559570032304247e-05,-0.5231488873531512,2.198542067876811e-05,0.8522413044053752,3.888650513573841e-05,-0.8095140012710789,0.8732826889966789,0.0010033655088225288,-0.8097433129501058,0.8737176259263479,0.001961141940068814,0.6490862107210037,1.0013176217102424,-0.003906915004640088,0.64951479463003,0.9982463011190407,0.0,0.0,0.0,0.0
0.0001566268998458547,0.03960686958273374,0.7309746037961856,-2.1606178125231053e-05,-0.5231602576198762,2.5880712154968314e-05,0.8522343244146334,-7.942584847763783e-05,-0.809794155631176,0.8737912880006686,0.0008851116174286867,-0.8097826393005549,0.8738665442860329,0.001725467047388176,0.6491828444286395,1.0015399126644509,-0.0041436850709589785,0.6496073238576802,0.9981749308379699,0.0,0.0,0.0,0.0
0.00019964570856912962,0.03966695211769232,0.7309641120666772,-2.9799089523425627e-05,-0.5231712223687173,3.16445205495491e-05,0.8522275929561661,-0.00024219169022782707,-0.8101557331334801,0.8744290325500431,0.0007224356483588683,-0.809814393338061,0.8740128746318684,0.0014060137901845688,0.649289919243408,1.0018195126117313,-0.004463881482024047,0.6497109136130295,0.9980544946862535,0.0,0.0,0.0,0.0
0.0002443303913463016,0.03974964813314213,0.7309540909979875,-3.881312007696409e-05,-0.523177228802058,3.808409967428093e-05,0.852223905030915,-0.0004636786842151727,-0.8106108903952266,0.8751992584263468,0.0005010918870839204,-0.8098272280769538,0.8741172543723618,0.000941852107285176,0.6493992264504697,1.0021600866729616,-0.00492747813826663,0.6498014502518749,0.997840261262225,0.0,0.0,0.0,0.0
0.0002817399706817579,0.03986051339319071,0.7309473637538317,-4.564749073778687e-05,-0.5231725198245586,4.404911234816849e-05,0.8522267952114649,-0.0007568588594594342,-0.8111445504675381,0.8760547331367718,0.00020813618833640435,-0.8097924098921172,0.8741026661416392,0.0002686340960650911,0.6494928836698328,1.0025528937329073,-0.00559727021108336,0.6498416333987143,0.9974812066339271,0.0,0.0,0.0,0.0
0.00029673104029216636,0.03999178772395302,0.7309633592261702,-7.473154474765752e-05,-0.5232235580169612,0.00011687113269669756,0.8521954524006838,-0.0012704272861298182,-0.8113263484013606,0.8764903431222856,-0.00030520057915295654,-0.809048130817296,0.8733255032996119,2.1410990655462475e-05,0.6495874963818649,1.0028718152893312,-0.005845337662717926,0.6502597736389825,0.9970511681626074,0.0,0.0,0.0,0.0
0.00040128049614509165,0.04015065136304389,0.7309481738131294,-7.777674455012615e-05,-0.5231715379968067,0.00011763534352993881,0.8522273886368354,0.0032079047411161937,-0.8106658873993472,0.8733852470077379,-0.0007080535188309208,-0.8095838880186096,0.8741186160422266,-0.0010369344288451462,0.6497569392206252,1.0033550650340122,-0.006895525822781127,0.6502939716370908,0.9964380029307051,0.0,0.0,0.0,0.0
0.0005723748478303529,0.04036158320660568,0.7309203653508016,-0.00010999919503445294,-0.5231511936210755,0.00017543996896663655,0.8522398639666172,0.008950424340333621,-0.8107571022046131,0.8708688447513282,-0.0013804083979567635,-0.8100689972704798,0.87512862927488,-0.001905466831484645,0.6499874167858798,1.0040732326892923,-0.007758957521412703,0.6507061969203941,0.9958281222658413,0.0,0.0,0.0,0.0
0.0007694670933824626,0.0406115776585379,0.7308878513829887,-0.00015594306801920897,-0.5231464941831346,0.00025747978773523286,0.8522427207138902,0.014636425379842711,-0.8113117256536405,0.8688236391274639,-0.0022097929271518903,-0.8104596280461258,0.8761233463802841,-0.0028029904207988177,0.6502544964675415,1.0049477904152977,-0.008651195607930021,0.6512757421724736,0.9951597487000964,0.0,0.0,0.0,0.0
0.0009719599857544354,0.04088528214236104,0.7308542575398623,-0.00020555589083228888,-0.5231449649286949,0.0003447798172753867,0.8522436180713868,0.01984810646086914,-0.8120791968204899,0.8670562295933517,-0.0031119260427827926,-0.8107892263242815,0.8770503212743803,-0.0038097912616196503,0.6505371613251133,1.0059061457678915,-0.009649687051196782,0.651872623843726,0.9944235982140892,0.0,0.0,0.0,0.0
0.0011718843475487552,0.04117065748353628,0.7308207152253853,-0.00025466993570669166,-0.5231428429353122,0.0004296307217644083,0.8522448688295085,0.024581044080346608,-0.8129159685105429,0.8654515545127986,-0.0040378546136818445,-0.811081116562997,0.8779078200087086,-0.0049197598504563895,0.650827058037046,1.0069044783445873,-0.010747088425783452,0.6524493535432208,0.9936416932928935,0.0,0.0,0.0,0.0
0.001367408126297333,0.04146013558641507,0.7307872563406601,-0.0003020484055818595,-0.5231399675324006,0.0005101416557507961,0.8522465739986583,0.0289717289620223,-0.8137565397603098,0.8639418152602906,-0.004963961569479336,-0.8113495803669654,0.8787108585931028,-0.0061013958570161906,0.6511212963145812,1.0079200583392192,-0.01191164516606791,0.6529971279335359,0.9928393189263173,0.0,0.0,0.0,0.0
0.0015591172183669513,0.041749941618330386,0.7307536563701222,-0.00034766533832005365,-0.5231370185894163,0.000586800739755241,0.8522483174375184,0.03316463364590681,-0.8145802692931833,0.8624848501106012,-0.005881980634813206,-0.8116030632924154,0.8794761464229385,-0.00732603091953302,0.6514191927858551,1.0089424914986405,-0.013114864821384475,0.6535211476415672,0.99203320706515,0.0,0.0,0.0,0.0
0.0017482854014633019,0.042038858533618786,0.7307197419815276,-0.000391898968631091,-0.5231345429099344,0.000660744257321013,0.8522497637703625,0.03726488787971656,-0.8153876437608294,0.8610535196555836,-0.006791661174502112,-0.8118464906123224,0.8802170385502186,-0.008575691695080856,0.651721067077018,1.0099680384284349,-0.01433903244184355,0.654029603210972,0.9912305268852185,0.0,0.0,0.0,0.0
0.001936272639831003,0.04232712374021945,0.7306854147452042,-0.00043521373787016975,-0.5231327931251135,0.0007330546353614832,0.8522507576863873,0.04133378841150459,-0.8161868082821431,0.8596301010972259,-0.007696256699817378,-0.8120831076508225,0.8809435960407174,-0.009842177934761803,0.6520278705662773,1.010996556106652,-0.01557611615379364,0.6545299023126864,0.9904318964368559,0.0,0.0,0.0,0.0
0.002124440414736044,0.0426157032367718,0.7306505806455875,-0.00047807151100904123,-0.5231318265236081,0.000804578654501567,0.8522512635243744,0.04539990580010192,-0.8169872167453852,0.858202741911185,-0.008600243055344022,-0.812315813236793,0.8816643185975268,-0.0111238960861929,0.6523411024085148,1.0120301152955073,-0.016824546955597642,0.6550280812793962,0.9896346235478454,0.0,0.0,0.0,0.0
0.0023142271398650933,0.042905933734096305,0.730615072232976,-0.0005209370780926885,-0.523131604208105,0.0008759603975168226,0.852251304485125,0.04947181888028548,-0.817796368638434,0.8567631465624316,-0.009508497702472592,-0.8125480222651525,0.8823877779364878,-0.012423207047380987,0.652662666876076,1.0130725731395875,-0.018086564586597315,0.655529153290338,0.988834835988071,0.0,0.0,0.0,0.0
0.0025072041958018433,0.04319941854689451,0.7305785851693166,-0.0005643024408271072,-0.5231320015309913,0.0009477190284422303,0.8522509562127679,0.053547147205048926,-0.8186158170241326,0.855305830691821,-0.010426235937733478,-0.8127841999941385,0.8831235021286968,-0.013745089146013313,0.6529944958743815,1.0141296680887069,-0.01936687711192515,0.6560372655762405,0.9880284772382928,0.0,0.0,0.0,0.0
0.0027050351726477157,0.04349802769375191,0.7305406250562435,-0.000608688684276433,-0.5231327312552818,0.0010202930652766218,0.8522503939509419,0.0576171567015266,-0.8194332893593461,0.8538299448312829,-0.011359136788627757,-0.8130302019837425,0.8838820278001989,-0.015096861680126625,0.6533378707398974,1.0152093225057388,-0.020672356149940542,0.6565552369855168,0.9872117114658605,0.0,0.0,0.0,0.0
0.0029093212557666204,0.04380384631943276,0.7305004604301861,-0.0006545944052461639,-0.52313321984025,0.0010940188623088014,0.8522499685705281,0.061668331844364835,-0.8202091076874631,0.852344961953918,-0.012313193606625262,-0.8132935809981015,0.8846744042916297,-0.016488298825595358,0.6536925189341156,1.0163218021116671,-0.022012104053842487,0.6570834523151092,0.9863813882003231,0.0,0.0,0.0,0.0
0.003121384466411667,0.04411893219256677,0.7304571024909401,-0.0007023842373777899,-0.5231325593422734,0.0011690543989138894,0.852250236329799,0.06568307015260756,-0.8208579881032928,0.8508809493193549,-0.013293966583802863,-0.813583677206256,0.8855114854706293,-0.017931140205993228,0.6540559637746665,1.017479276715686,-0.02339694315344373,0.6576187540143881,0.9855360947464578,0.0,0.0,0.0,0.0
0.003342147026111101,0.0444448379957734,0.7304093757422483,-0.0007521691221699904,-0.5231297284854319,0.0012453261032213151,0.8522518234531778,0.06964153696385596,-0.8212337358248418,0.849501487806025,-0.014305296513985516,-0.8139108841717647,0.8864034313409898,-0.019436869477717503,0.6544241242626686,1.0186942225938074,-0.024837277215627233,0.658154885469543,0.984677715668675,0.0,0.0,0.0,0.0
0.0035724161614438523,0.04478215250766413,0.7303561895558909,-0.0008038496798414459,-0.5231243116542433,0.001322684786149906,0.8522549846653422,0.07352526029984198,-0.8211361576029765,0.8483102813233881,-0.015348512900532137,-0.8142838269337697,0.887359636224051,-0.02101227345008056,0.654794664687253,1.0199764840522172,-0.02633891349455199,0.6586871169104602,0.9838119873911451,0.0,0.0,0.0,0.0
0.0038139702485014983,0.04513098665821884,0.7302970096341843,-0.0008576306731303793,-0.5231176738908582,0.001401519238043519,0.8522588805500777,0.07731975217849892,-0.8203768071229781,0.8474260246619015,-0.01642497114832081,-0.8147036105323938,0.8883889551457698,-0.022655772024827346,0.655173680047146,1.0213313006313267,-0.027899722937309558,0.6592227927253781,0.9829445622590682,0.0,0.0,0.0,0.0
0.004071108522185099,0.04549440960087354,0.7302308071872925,-0.0009141066041888797,-0.5231100052762514,0.0014824526534952028,0.8522633918708034,0.08101777366599953,-0.8189647140844385,0.8468571969463694,-0.017544079826787646,-0.815184734143494,0.8895205755708679,-0.02438309392621924,0.655570249734595,1.022772972712241,-0.02953393892150117,0.6597711820765259,0.9820703757749507,0.0,0.0,0.0,0.0
0.0043510821582291295,0.04587878773768615,0.730155989639421,-0.0009744521152096771,-0.5231002872720116,0.0015665459353783747,0.8522691393174144,0.08461928081645825,-0.8171055248644824,0.846502318932278,-0.018724683262655622,-0.8157560052008082,0.8908063505658724,-0.026227602638292016,0.6559970141421599,1.0243256521837758,-0.0312720674777046,0.6603450411389561,0.9811726006576479,0.0,0.0,0.0,0.0
0.004663277133697483,0.04629093362457618,0.7300713352760768,-0.0010406550713102332,-0.5230891648865453,0.0016559569270708523,0.8522757185453396,0.08812646758614877,-0.815013957696565,0.846273848470883,-0.019989353646287778,-0.8164415114503777,0.8923043232663819,-0.028214920273571607,0.6564764102088841,1.026011127644352,-0.03313675085230386,0.660973262422101,0.9802315271140106,0.0,0.0,0.0,0.0
0.005018717031013993,0.04673819390031038,0.729975468375717,-0.0011153313595620305,-0.5230776731391963,0.0017536875896639042,0.8522824816216044,0.0915381574501596,-0.8128462906435588,0.8461211724632041,-0.02136412357991425,-0.8172675429027786,0.894081676273096,-0.03036637748057983,0.65703438793246,1.0278518736618367,-0.03514601548083862,0.661692680765272,0.9792264734582,0.0,0.0,0.0,0.0
0.005430195940661004,0.047229579073098375,0.7298666196729414,-0.0012020707435938171,-0.5230663531078169,0.0018638632991557654,0.8522890773006644,0.09484368221288507,-0.81069105045691,0.8460206344521637,-0.022882010606731392,-0.8182651690569732,0.8962156829000373,-0.032703060862651866,0.6576970070951901,1.0298744493393694,-0.03731695077885454,0.6625458765458448,0.978132105702247,0.0,0.0,0.0,0.0
0.005912535107338956,0.04777699425965476,0.7297427176759924,-0.0013059925440247822,-0.5230547636335497,0.0019923080461144685,0.8522957464004943,0.09802121022997755,-0.8085805743878862,0.8459566482456929,-0.024587495502116967,-0.8194687506476622,0.8987917669063649,-0.035247385476180136,0.6584891529933861,1.0321104614741108,-0.039666944192256186,0.6635830750359956,0.976912235524985,0.0,0.0,0.0,0.0
0.006482500779541641,0.04839616621304056,0.7296017746950275,-0.001434292892163757,-0.5230411451439083,0.0021472034653675373,0.8523035215272354,0.10104338437345126,-0.8065037718435423,0.8459012178753288,-0.02654048728159824,-0.8209111697875794,0.901897580705231,-0.038021931564334,0.6594336998603337,1.0345942993999913,-0.04221228999658104,0.664865332593323,0.9755125401430572,0.0,0.0,0.0,0.0
0.007158037208537299,0.049106940231985315,0.7294426004356177,-0.0015966359273601933,-0.5230220984294601,0.0023396622611742634,0.8523144145728518,0.1038932741283362,-0.8044122226228714,0.8457914559038313,-0.028818565596750754,-0.8226159964809536,0.9056121114851632,-0.041044973718285416,0.660550143939183,1.0373566125927074,-0.044963746168144095,0.6664673411509973,0.9738529485087368,0.0,0.0,0.0,0.0
0.00795651003511881,0.04993233459585309,0.729265922212523,-0.0018052040283273831,-0.522992306417122,0.002583972247696084,0.8523315738339972,0.10659435740359782,-0.8022176853002317,0.845500939326613,-0.03151534663224082,-0.8245869034534606,0.9099896885144194,-0.044320606370158104,0.6618523967142779,1.040411665341612,-0.04791732225574792,0.6684788167077597,0.971821359712133,0.0,0.0,0.0,0.0
0.008891557544302424,0.05089511377765839,0.7290759300885586,-0.0020740963021236816,-0.5229445319596498,0.002897071106382238,0.8523592679129129,0.10925648290725042,-0.7997806531089051,0.8447989300929389,-0.034730678858217914,-0.8267954979403653,0.915040025382674,-0.04781858207043357,0.6633453410354058,1.0437362009960656,-0.051036304243266564,0.6710028763411319,0.9692737157879016,0.0,0.0,0.0,0.0
0.009967789310711685,0.052009625733027684,0.7288817744761589,-0.002417518668774365,-0.5228705816621871,0.0032963759601457956,0.852402278470243,0.11213196634776156,-0.7968877235241806,0.843290959114473,-0.03854456273455002,-0.829170133803743,0.9207058081134709,-0.05143562637172839,0.6650179221074999,1.0472407172980447,-0.05421803645263414,0.6741461784960143,0.9660550253889454,0.0,0.0,0.0,0.0
0.011171404145346994,0.05326493774807845,0.7286961421229823,-0.0028461734869251764,-0.5227648348468631,0.0037948222509483556,0.8524637388581979,0.11565693642860289,-0.793212272626049,0.8403322613883192,-0.04296130619593806,-0.831591051317013,0.9268352554048543,-0.05491900440101892,0.6668173527195195,1.0507536909756356,-0.05723000396318879,0.6779817644815084,0.9620885833605691,0.0,0.0,0.0,0.0
0.01245042389961572,0.054592540052432796,0.728516580295577,-0.0033608540267394825,-0.5226327772807624,0.004391038401257403,0.8525399718217126,0.12042393841759291,-0.788255264166268,0.8348811781771691,-0.0478011383724604,-0.8339189407640599,0.9331321806668428,-0.05772285089572145,0.6685268591289165,1.05413901564664,-0.05959179077833692,0.6823938248345853,0.9577061781771379,0.0,0.0,0.0,0.0
0.013658800212766135,0.055805558933401445,0.7282178892803873,-0.0039363572033712145,-0.5224918918996075,0.005040032719431019,0.8526202707309528,0.12706253884229254,-0.7813202763719905,0.8250553795744777,-0.05247517491752911,-0.8363074252451519,0.9390938983129595,-0.05885664679286094,0.6691491338562594,1.0581541242451058,-0.06045573040820294,0.6862882053039541,0.9549371203941536,0.0,0.0,0.0,0.0
0.014638373862055793,0.056725101996782136,0.7278049902595635,-0.0045505992847674325,-0.5223382870535789,0.005681472822849973,0.8527072925633072,0.13539125176559583,-0.7711725103068646,0.8078378925894192,-0.056356214289894374,-0.8386253745066875,0.944105410483054,-0.05739275519246027,0.6681773676270862,1.062449960959437,-0.059041637107361114,0.6890775899743775,0.9545773108561362,0.0,0.0,0.0,0.0
0.015175319018659445,0.057131447530846036,0.7274045208576188,-0.005149914638653685,-0.5221314553185052,0.006165979499381215,0.8528271820498029,0.14355284161331863,-0.7561738197939691,0.7794397232739555,-0.05846872316002518,-0.8406613268712952,0.9474479287426673,-0.052904983526440866,0.6655866330515097,1.0655986056025635,-0.054979788829579976,0.6902565797601079,0.9563466493499407,0.0,0.0,0.0,0.0
0.015201075785412741,0.0571653741064763,0.727393642177559,-0.005188800562774436,-0.5221199229537952,0.006165731048617052,0.8528340085644327,0.14355971294650033,-0.7561408478075751,0.7794379573569487,-0.05854565080844566,-0.8406781571292231,0.9474858387963615,-0.05291601325114306,0.66557254431241,1.0657150465359708,-0.054953019470475956,0.6903105319805799,0.9562561336940913,0.0,0.0,0.0,0.0
0.015201075785412741,0.0571653741064763,0.727393642177559,-0.005188800562774436,-0.5221199229537952,0.006165731048617052,0.8528340085644327,0.14355971294650033,-0.7561408478075751,0.7794379573569487,-0.05854565080844566,-0.8406781571292231,0.9474858387963615,-0.05291601325114306,0.66557254431241,1.0657150465359708,-0.054953019470475956,0.6903105319805799,0.9562561336940913,0.0,0.0,0.0,0.0
0.01515896635281469,0.057574863817405966,0.7282971881011906,-0.004358142017552444,-0.5218559319198243,0.005359665472944988,0.8530056663963403,0.14409594350284124,-0.752789140978872,0.7785760162177924,-0.05789804578021733,-0.8408449097209846,0.9479502544426347,-0.06773185399035137,0.6727742051161792,1.0595629278207488,-0.040632810673639136,0.6819737980902076,0.9757487418341427,0.0,0.0,0.0,0.0
0.015185480608928244,0.05816304326397822,0.7293295662285441,-0.003815940123037248,-0.5216809151149985,0.004804295805695578,0.8531186202091516,0.1436851578620115,-0.750593272351254,0.7797266701760407,-0.05818520437808814,-0.8390460509618861,0.9469166548935551,-0.08013704445294706,0.679986700820888,1.0525179174525556,-0.027866858482551084,0.6771332183195603,0.9892342083974692,0.0,0.0,0.0,0.0
0.015276625656046962,0.058864322347978344,0.730263266161388,-0.0035181466610048695,-0.521590186055043,0.004492485035533148,0.8531770730823367,0.14251803135675362,-0.7499265944953682,0.78271878167448,-0.059271551517175766,-0.83625349176395,0.9450010173705966,-0.0900046983834637,0.6862488913368121,1.0464030173361638,-0.01873636444301276,0.6743876429419944,0.9986157738229239,0.0,0.0,0.0,0.0
0.015407795581933396,0.05960490038533801,0.7310696794452868,-0.003368553334657012,-0.5215463783975096,0.004321227778573985,0.8532053416495697,0.14099800781769162,-0.7502940167373716,0.7867601803048869,-0.06075120207302193,-0.8331795762094469,0.9427794030106058,-0.09818498650709012,0.6916322745393724,1.0413647491003348,-0.012242020680991696,0.672916029970436,1.0055695896432062,0.0,0.0,0.0,0.0
0.015564604962844963,0.060346697709923285,0.7317610157716924,-0.0033036220370749616,-0.5215189767243054,0.00423421908435794,0.8532227812163804,0.13932828870424488,-0.7513803556486731,0.7914183513106201,-0.062414959028518,-0.8301932772494238,0.9405908629433406,-0.10521631665324752,0.6962757199527393,1.0372319467750593,-0.007142782871051093,0.6722334416447657,1.0111635775141699,0.0,0.0,0.0,0.0
0.015682405225325827,0.061028203637582636,0.7323568540156989,-0.0032660983247274383,-0.5214952790928895,0.004175371903373845,0.8532377000314924,0.13774937156445857,-0.7524062532054675,0.7954986206799717,-0.06398295722851487,-0.8273528591390236,0.9382914606467737,-0.11137573064095407,0.700196749075233,1.0337728537984563,-0.0025922735820537862,0.6718482558975402,1.0159260541000474,0.0,0.0,0.0,0.0
0.015755736732548944,0.06164251484557852,0.7328758218223387,-0.0032357351517190713,-0.5214676030029198,0.004125135985107578,0.8532549749573813,0.13631451599412886,-0.7532389504432316,0.7988717373191684,-0.06539752374000629,-0.8247076179496381,0.9359395616873786,-0.11687055821640975,0.7035111314312475,1.0308229522595391,0.0017777333312257127,0.6715560815645654,1.0202014352975517,0.0,0.0,0.0,0.0
0.015794873634991432,0.062199335248811084,0.733336460995544,-0.0032069121018313508,-0.5214343605694229,0.004078262064932682,0.8532756243505716,0.13501146080663035,-0.7539066455770491,0.8016782054137771,-0.06667358356417688,-0.8222532827447483,0.9335962851663597,-0.1218494613513108,0.7063609761667409,1.0282413465772902,0.006126553453029865,0.6712728019952244,1.0242253934894716,0.0,0.0,0.0,0.0
0.01580985031002419,0.06271067880669945,0.7337545549893572,-0.0031778671055193034,-0.5213956001957554,0.004032985500716592,0.853299633355786,0.1338153308239462,-0.7544527042031677,0.8040682725429042,-0.06783855764007105,-0.8199636561962135,0.9312926087790637,-0.12643302717767324,0.7088689034431028,1.025915200718422,0.010515775172197343,0.6709614676530292,1.0281360031961453,0.0,0.0,0.0,0.0
0.01580790408009962,0.06318707650522148,0.7341418208726292,-0.003147981776291551,-0.5213515632211424,0.003988507714783544,0.8533268597341915,0.13270262934114233,-0.7549131912816094,0.8061584498594526,-0.0689177068025518,-0.8178102887649712,0.9290391305988698,-0.1307167223417216,0.711125705370368,1.0237645645014044,0.014963002521096024,0.6706093454023415,1.03200358848468,0.0,0.0,0.0,0.0
0.015793954868514672,0.06363667089981934,0.7345058129872302,-0.0031169998052196783,-0.5213027487378472,0.0039442525444188395,0.8533570011094097,0.13165509472095213,-0.7553148546220788,0.8080311623212411,-0.06993047220748486,-0.8157702009454731,0.9268371649539859,-0.13477407014162557,0.7131935798189196,1.021741899136341,0.01946668017577952,0.6702183364568195,1.0358571723731034,0.0,0.0,0.0,0.0
0.015771306111420733,0.06406505857863012,0.7348502422093026,-0.003084853726188294,-0.5212499597695511,0.0038998116881604206,0.8533895678917843,0.13066030163725043,-0.7556775479827773,0.8097415379290975,-0.0708901656015645,-0.8138290881858405,0.9246862540061959,-0.13865681545698527,0.7151100025062499,1.0198287664242471,0.024019692613105385,0.6697994563039317,1.0396988044020765,0.0,0.0,0.0,0.0
0.015742002416651153,0.06447549331820308,0.7351752661515727,-0.003051597600561127,-0.5211942697413102,0.003854963535436919,0.8534239041631345,0.12971116021267312,-0.7560165317256212,0.8113227481435025,-0.07180465659156697,-0.8119820424587368,0.9225869594225672,-0.14239673784655366,0.716890214449319,1.018033808923238,0.02861749429402288,0.6693701553828069,1.0435055395013384,0.0,0.0,0.0,0.0
0.015706711980145588,0.06486938236149785,0.7354775606067142,-0.0030172933096300697,-0.5211368764446449,0.0038095977983556594,0.8534592778306516,0.12880482076958102,-0.7563440769484163,0.8127883918392786,-0.07267754030966225,-0.8102327028156617,0.9205389061453187,-0.14601070673868333,0.7185274784757754,1.0163938742578937,0.03326533763802729,0.6689548008352892,1.0472185695490832,0.0,0.0,0.0,0.0
0.015664077522361465,0.06524704870452995,0.7357501852601757,-0.0029817564287450923,-0.5210787391300314,0.0037634966650562647,0.8534951041734852,0.1279411301690365,-0.7566703887744743,0.8141317000094942,-0.07350965751418599,-0.8085914429653938,0.9185344278331713,-0.14950940698318815,0.719990800390687,1.0149780318933161,0.037988535062849285,0.668590491021818,1.0507161886645313,0.0,0.0,0.0,0.0
0.01560969643183299,0.06560869377200824,0.7359825666528831,-0.0029440826918943545,-0.5210199503056098,0.0037158812926865233,0.85353133275051,0.127121011205284,-0.7570034597657298,0.8153224378035129,-0.07430060965322352,-0.8070730808650023,0.916549626741999,-0.15291021501167135,0.7212222046912065,1.0138910999297195,0.04284785461874946,0.6683445557178194,1.0537644845931133,0.0,0.0,0.0,0.0
0.015535656402985033,0.06595531507903475,0.7361617039289267,-0.002902107295257445,-0.5209590280855113,0.0036648701223562456,0.8535688827250162,0.12634517405390627,-0.7573479199340694,0.816307484323313,-0.07504992786794108,-0.8056941242617993,0.9145395670306263,-0.1562503336131858,0.7221413650728952,1.0132648584093038,0.04795530675624459,0.6683565698998142,1.0559401969701954,0.0,0.0,0.0,0.0
0.015433593736687108,0.06628897812652179,0.7362774479280906,-0.002853294108599249,-0.5208931120766733,0.0036087074789750216,0.85360951361506,0.1256110042647949,-0.757708233262873,0.8170380427556853,-0.07576029847697578,-0.8044649413227686,0.9124539002375874,-0.15957196178014746,0.7226754675085442,1.0132057313212315,0.05346404239900913,0.6689102855913697,1.0565598946855872,0.0,0.0,0.0,0.0
0.01530241764534035,0.06661158316307285,0.736331223916831,-0.00279822331682964,-0.5208222850141292,0.0035479219163599613,0.8536531670584991,0.12491238904958167,-0.7580828907836757,0.8175135359402965,-0.07643723315669415,-0.8033678514612611,0.9102698361900555,-0.16287956074664983,0.7228265351463913,1.0137077520305282,0.05936559377205764,0.6700000405536222,1.0556110260110623,0.0,0.0,0.0,0.0
0.015147917560744644,0.06692560107172382,0.7363366089224321,-0.0027403157207077328,-0.5207492108292437,0.0034849871960400164,0.853698193130754,0.12423850207857418,-0.7584634379500083,0.8177810572458768,-0.0770901477862522,-0.8023545447737948,0.907987217347913,-0.16615025205529124,0.7226740315574026,1.0146493541355492,0.06549274136002745,0.6713326721732985,1.0537516696392168,0.0,0.0,0.0,0.0
0.01497451969625028,0.06723649782367093,0.7363116043013431,-0.0026824558480218605,-0.5206742627270228,0.0034223258042657685,0.8537443436125267,0.12357054117045221,-0.7588417549897096,0.8178941410751626,-0.0777359527933905,-0.8013616227155416,0.9055863604584047,-0.16938161580168773,0.7223087046940668,1.0158739571338904,0.07171980121899281,0.6727608094640285,1.0513785025699554,0.0,0.0,0.0,0.0
0.014782149590376775,0.06755387987413243,0.7362743550590146,-0.0026263221925384465,-0.5205952089987305,0.0033612270711157006,0.8537929684366612,0.12288101576187245,-0.7592094867069139,0.8178922488734166,-0.07839951340966139,-0.8003106599436449,0.9030035327396457,-0.17261291693873176,0.7218063871818604,1.017236804115139,0.07796800979877408,0.6742111989707376,1.04869749127662,0.0,0.0,0.0,0.0
0.014567392570029931,0.06789269904374794,0.7362430014498901,-0.002573290390728551,-0.5205076903531147,0.0033027357021222607,0.8538467159840301,0.12212928709986876,-0.7595693043539322,0.8178197296716506,-0.07911850834285061,-0.7991047329437526,0.9001310352915042,-0.17592275899844523,0.7212298403372515,1.0186084710801875,0.0841902109940974,0.6756453370248446,1.0458066508898,0.0,0.0,0.0,0.0
0.014328749563302504,0.06827712802224517,0.7362359532903179,-0.0025262150308229575,-0.5204039856458991,0.0032498397758139045,0.8539102695851083,0.1212491920151816,-0.7599893429423132,0.8178141769958651,-0.07995883551502021,-0.7976420605990544,0.8968503561632275,-0.17943339090742114,0.7206388378379573,1.0198726341159676,0.09036350191858288,0.6770592000106262,1.0427520453785601,0.0,0.0,0.0,0.0
0.014053719642473667,0.06872771203433492,0.7362733291485654,-0.0024844647711758107,-0.5202745541852497,0.003201028423386674,0.8539894432129551,0.12019022376609954,-0.7604569258027949,0.8178734456656612,-0.08096566689864866,-0.7957946910437498,0.8929693611800815,-0.1832764008706213,0.7200687432985274,1.0208989847522383,0.09648301007041238,0.6784373972650807,1.0395418956991502,0.0,0.0,0.0,0.0
0.013727314106600413,0.06926865506893913,0.7363771016479468,-0.002445990335651888,-0.5201055450041365,0.003153049669370506,0.8540926749861577,0.11889677272713692,-0.7609706413736135,0.8180044807002406,-0.0821895177758027,-0.7934342309692823,0.8882766992186141,-0.18761807972677053,0.719548120459208,1.021544446975978,0.10259166768080882,0.6797765703805001,1.0361829482709175,0.0,0.0,0.0,0.0
0.013332850212917123,0.06992762324420419,0.7365714014682174,-0.0024060522532352623,-0.5198775689813976,0.0030995136460052666,0.8542317701875206,0.11731194211715967,-0.7615445736733912,0.8182317241088574,-0.08368307829738487,-0.7904460352422656,0.8825584719022393,-0.19267222201406017,0.7191033874265605,1.0216456848255469,0.10884275085083715,0.6810808066339957,1.0327084400313415,0.0,0.0,0.0,0.0
0.012851654325788364,0.07073256054223294,0.7368809747811362,-0.0023541549489246995,-0.5195636929693197,0.003027604424084432,0.8544231156248115,0.11539260019931702,-0.7622005108025678,0.8185795610549059,-0.0854869531502309,-0.7867634182294717,0.8756303692963763,-0.1987115120024195,0.7187531000186314,1.0210200568310595,0.11562871036534711,0.6823568206127271,1.0292026905264078,0.0,0.0,0.0,0.0
0.012264019322856907,0.07170578028203328,0.7373263205016571,-0.002269251909188728,-0.5191267550102673,0.002913147186948075,0.854689286408663,0.11313514212902585,-0.7629667609076236,0.8190575550733982,-0.0876064191879424,-0.7824373933522423,0.8674102557475781,-0.20607982826583782,0.7184928905633702,1.0194861351003905,0.12383507643490485,0.6836260971322744,1.0258386452381147,0.0,0.0,0.0,0.0
0.011553462693250784,0.07285350136524647,0.7379121418339903,-0.002112922659044725,-0.5185165948537127,0.002713613500677144,0.8550606485629639,0.1106180292369865,-0.7638956377037417,0.8196626126972395,-0.08997484233538193,-0.7777686919559704,0.8580678663928903,-0.21520124780490774,0.7182644580042348,1.0169289774356502,0.13529358170817915,0.6849882146376174,1.022943513042785,0.0,0.0,0.0,0.0
0.01071944492771756,0.07414849848723405,0.7386001788250626,-0.0018228200597310066,-0.5176675023119869,0.0023613152671019383,0.8555766818744585,0.10806457943814464,-0.765156992331943,0.8204633955346354,-0.09240487091647068,-0.7735590986904337,0.8483299148480871,-0.22654832532764002,0.7178752489453027,1.0134819131486934,0.15343464212347607,0.6867973223218529,1.0210859587181913,0.0,0.0,0.0,0.0
0.009770470029742477,0.07547230444461123,0.7392503838283705,-0.0013090786357937223,-0.5165103153901374,0.001757636622930336,0.8562781622359686,0.10600065826312416,-0.766926508030625,0.821254925578592,-0.0944370698635172,-0.7714058911119459,0.8397682414088249,-0.24028891629293467,0.7167117939163221,1.009951772327654,0.18355392456874264,0.6898195741069516,1.0210975611097495,0.0,0.0,0.0,0.0
0.008772816395626052,0.0765784245256317,0.7394801966352562,-0.0005257448597646777,-0.5149876204762389,0.0007976962062470957,0.8571970823733165,0.10536079945042698,-0.7700812178333377,0.8222183256720658,-0.09528286888256128,-0.7742842771673715,0.8355032215492555,-0.2555740401625619,0.7131445679301855,1.0090226818767778,0.22911310244189054,0.694903463576428,1.02354801956442,0.0,0.0,0.0,0.0
0.007831404004317557,0.07734759415550993,0.7387592401973844,0.00016670629892920385,-0.5133132671104391,-0.00010401465951125554,0.8582012882758726,0.10564214210810512,-0.77671609078645,0.8247602701253666,-0.09551901688296481,-0.7821672336594586,0.8356323536268447,-0.26681086781595237,0.7042429017675225,1.0153847884778868,0.27656806531926265,0.6975350394875607,1.0299303556728825,0.0,0.0,0.0,0.0
0.007835653337085045,0.07736772797877123,0.7387475305106352,0.00019254335689458852,-0.5133148870448728,-0.00012703600226262162,0.858200310840668,0.10564701109433237,-0.7767154997045752,0.8247885796513117,-0.0955162919890273,-0.7821978557459004,0.8355803112149852,-0.2668330259519412,0.7042021578705205,1.01533582508912,0.2765854770909751,0.6975321119473247,1.029928621012927,0.0,0.0,0.0,0.0
0.007835653337085045,0.07736772797877123,0.7387475305106352,0.00019254335689458852,-0.5133148870448728,-0.00012703600226262162,0.858200310840668,0.10564701109433237,-0.7767154997045752,0.8247885796513117,-0.0955162919890273,-0.7821978557459004,0.8355803112149852,-0.2668330259519412,0.7042021578705205,1.01533582508912,0.2765854770909751,0.6975321119473247,1.029928621012927,0.0,0.0,0.0,0.0
0.007918048068171011,0.07759746187554048,0.739000417228028,0.0002116964286811568,-0.5143150507747399,-0.00015691934420998738,0.8576012821279585,0.10489015665266614,-0.7710506487063692,0.82040241059233,-0.09578933326573578,-0.7752803010236888,0.8290792716247717,-0.271895662598151,0.7095013483425854,1.0156133977256752,0.277676177013847,0.7023640844523893,1.029120345832287,0.0,0.0,0.0,0.0
0.007989518972636394,0.07784520901449243,0.739163286903632,0.00017975823815496165,-0.5149702578580606,-0.00013035369478757447,0.8572080168876705,0.10406924492022523,-0.7678962267527625,0.8183126128706307,-0.09630679014328679,-0.7703548956854015,0.8243133664957372,-0.2755634097676863,0.7130042962460548,1.0160200283670457,0.27836056497145434,0.7057056899375298,1.0283542352122448,0.0,0.0,0.0,0.0
