zhuoxili-jackie/tripod-support-walk/examples/pcbB样侧向移动数据608/trajectory_trotting_acc_005.csv
root_pos_x,root_pos_y,root_pos_z,root_rot_x,root_rot_y,root_rot_z,root_rot_w,FL_hip_joint,FL_thigh_joint,FL_calf_joint,FR_hip_joint,FR_thigh_joint,FR_calf_joint,RL_hip_joint,RL_thigh_joint,RL_calf_joint,RR_hip_joint,RR_thigh_joint,RR_calf_joint,FL_foot_joint,FR_foot_joint,RL_foot_joint,RR_foot_joint
0.0,0.0,0.72963,0.0,-0.5231245161092812,0.0,0.852256264656019,0.0,-0.81,0.872,0.0,-0.81,0.872,0.0,0.65,1.0,0.0,0.65,1.0,0.0,0.0,0.0,0.0
0.0007101961834342778,-3.882693377946077e-05,0.7295956366192807,4.323803176159913e-05,-0.5234061236753045,3.899874967159975e-05,0.852083344696258,-3.709366387876343e-05,-0.8120966693797687,0.8775053602031974,-3.709366387876383e-05,-0.8123109283280695,0.877878408557249,0.0002414157389596671,0.6526180068208289,1.0001077401598957,0.0002414157389596646,0.6527202165854229,1.0004347297826557,0.0,0.0,0.0,0.0
0.0020526847892280726,-0.00011919917645915364,0.7295117206105907,6.96378596683124e-05,-0.5237318639111674,5.034861695486498e-05,0.8518831653106661,0.00011869926723490407,-0.817311360720293,0.8890838361181096,0.00011872087266516741,-0.8179588329669515,0.8901264733321145,0.0007037524430880922,0.6570231926908661,1.0000420167519182,0.0007043432601817951,0.6571875259569356,1.0009333504974403,0.0,0.0,0.0,0.0
0.004009048435016005,-0.00030622490022609117,0.7294287860560731,9.802210215985599e-05,-0.5241131398625763,2.324401733419341e-05,0.8516486402706075,0.0006517819915135938,-0.8249927592681197,0.905896460030059,0.0006519759525417465,-0.8266822004932075,0.9084533445253749,0.0016603346850901713,0.6634920795682479,0.9990995379507247,0.0016632525274307372,0.6636452051124223,1.0012125246136716,0.0,0.0,0.0,0.0
0.0065905764590763714,-0.0007316336262284681,0.7294852131375944,0.00015467431636243017,-0.5245611184917699,-7.586617471553508e-05,0.8513727757491678,0.0019783238974837537,-0.8341303089916038,0.9269425176667733,0.001979616285624507,-0.8382388749490146,0.93291408464076,0.0036794123503832276,0.6728470487881834,0.9955100360395199,0.0036919845197034566,0.6728383272193951,1.000336870020074,0.0,0.0,0.0,0.0
0.009919001432377627,-0.00159960995618563,0.7302162620717413,0.00030095430645139056,-0.5251340087508349,-0.0003659142206057968,0.8510194171618921,0.0049190982857230114,-0.8423753473975142,0.951093286312772,0.004926471886731556,-0.8516807268208834,0.9641050813144973,0.007097053946349163,0.6885053153354173,0.9836421569169221,0.007144778205281258,0.6876705292171321,0.9938555998443425,0.0,0.0,0.0,0.0
0.012807900029798532,-0.0021557312360375265,0.7309670970996927,0.0005902054332860373,-0.5250268347412715,-0.0005609819931113811,0.8510852834812216,0.006736357234447892,-0.8524565081966451,0.9748642051469362,0.004630718916936479,-0.8445684326921804,0.9385597282058561,0.009764341732386097,0.6780842737194408,1.0063319449618249,0.008156742117094239,0.6994614220958038,0.9848917667580569,0.0,0.0,0.0,0.0
0.015636263218466735,-0.0028383599512167507,0.7317610715400054,0.0008872702390274456,-0.525024391111034,-0.0008079915464114866,0.8510863344218798,0.009032881043014258,-0.860729691601323,0.9962894418609385,0.006122762149533535,-0.8454188334438928,0.9222016718758936,0.014090467715432181,0.669804983333484,1.0252252393067276,0.009675645895174449,0.7115798814189053,0.975944346070583,0.0,0.0,0.0,0.0
0.0181927817937713,-0.003587558854623167,0.732544992685592,0.0011599528684559574,-0.5251138582605499,-0.0010463185067704952,0.8510305491518178,0.011506853950644297,-0.8668270368447217,1.0140994266490608,0.007946972106501554,-0.8509766014300977,0.912929433459464,0.019080920198160628,0.6635825994393587,1.041573781478481,0.011961718158636092,0.7232743558976767,0.9676021289708102,0.0,0.0,0.0,0.0
0.02036302113525782,-0.004341233498151189,0.733305147241142,0.00140765573852961,-0.5252439528749839,-0.0012674299717774548,0.8509495884568311,0.013966506741396878,-0.8708594266549152,1.0280323031256415,0.00963033571002973,-0.8588654057723839,0.9077316283284077,0.02429506172965929,0.6585919392279534,1.0564528321289217,0.014643028957305407,0.7339378909368767,0.9599074879045755,0.0,0.0,0.0,0.0
0.022118210843522036,-0.0050543476457917446,0.7340459517474048,0.0016319312381603201,-0.5253828706567732,-0.0014685512487975616,0.8508631026070598,0.01627724366026296,-0.8730886304950114,1.038347544791601,0.01114403536427605,-0.8678251696294699,0.9046513429104976,0.029566170787178443,0.6541939136929502,1.0704544428367413,0.01736827967241132,0.7433403716425492,0.9527321509541653,0.0,0.0,0.0,0.0
0.02348213263848737,-0.005696997154929542,0.7347750059181728,0.0018332799615415798,-0.5255143870916402,-0.001647860306962271,0.8507811425981943,0.018348903188108074,-0.8738397502203304,1.0455572967552194,0.012565272322185166,-0.8772372287626676,0.9025046966456642,0.03480305458986437,0.6499681173661732,1.0839284699194014,0.019876873207822644,0.7514869189656915,0.9459102991956991,0.0,0.0,0.0,0.0
0.024505980510150762,-0.006251929554368182,0.7354970615128541,0.0020118155066617643,-0.5256318649493354,-0.0018047260759783725,0.8507078453335442,0.020130922370266084,-0.8734487734088485,1.0502617028430792,0.013951097691170684,-0.8868178001414064,0.9006093978177377,0.03994093574935988,0.6456693653048724,1.0970985230788404,0.02199913783557802,0.7585027083203728,0.9392979878880204,0.0,0.0,0.0,0.0
0.025251360310614847,-0.006712190827166735,0.7362129186494295,0.0021680750674629755,-0.5257340857922602,-0.0019399580571353566,0.8506439954819024,0.02160631258995974,-0.8722282600891674,1.0530504445598985,0.015315466465262845,-0.8964501532649477,0.898596315554836,0.04493325605926662,0.6411777236641725,1.1101164529321161,0.023644237149547803,0.7645607491229272,0.9327946435810817,0.0,0.0,0.0,0.0
0.025779872467383575,-0.007078657151806023,0.736920263468893,0.002303359954795599,-0.5258226073372246,-0.0020555705828809922,0.8505886519202924,0.02278354041293695,-0.8704490890172951,1.0544510136592442,0.01664349659384292,-0.906100881098967,0.896281818782367,0.049750858063555545,0.6364584155112479,1.123087988671566,0.024783686886541718,0.7698404761390837,0.9263447074709035,0.0,0.0,0.0,0.0
0.0261475046082777,-0.007357435209214566,0.7376147358476383,0.0024196585065142124,-0.5259001356190472,-0.0021542463454396078,0.8505401529800122,0.02368733855665964,-0.8683357326498687,1.0549090888527983,0.017911392991283356,-0.915779603143298,0.8935832425338052,0.05438135734145572,0.6315346972117599,1.1360835780464453,0.025432969350366513,0.7745052750765062,0.9199315549754994,0.0,0.0,0.0,0.0
0.02640214523340521,-0.007557257673959348,0.7382903962902173,0.002519326895578017,-0.5259695045818851,-0.002238709451078651,0.8504967498008873,0.024349604400303062,-0.866071567828498,1.0547889955976426,0.019101321195664114,-0.9255134019678685,0.8904668807345305,0.05882765340001697,0.62647178567935,1.1491387781451141,0.02563325878895501,0.7786897394980686,0.9135718626344081,0.0,0.0,0.0,0.0
0.02658270217696974,-0.0076870204107944195,0.7389392489607994,0.002604671080908429,-0.5260329749642335,-0.002311139782988384,0.8504570439309335,0.024801167049333984,-0.8638102539791095,1.0543838330544575,0.020210067823161322,-0.9353140392472219,0.8869241425862887,0.06310468603688718,0.6213675788972005,1.162241761490387,0.02543480387404969,0.7824895437949817,0.9073159661072636,0.0,0.0,0.0,0.0
0.026718453979415118,-0.007753607574575962,0.7395497141282945,0.0026774975849630693,-0.5260916817916909,-0.0023726825912283394,0.8504203335607599,0.02506487445952422,-0.8616887711145658,1.0539253663738655,0.021252181460881685,-0.9451195333344917,0.882977560862882,0.06723129158660472,0.6163450669495499,1.1752990421578042,0.02488329663408906,0.7859482496107892,0.9012583118824838,0.0,0.0,0.0,0.0
0.026827424266504193,-0.007760233341352375,0.7401041064189905,0.0027386210383861286,-0.526145194757277,-0.0024231018201931512,0.850386889930815,0.025150617014232855,-0.8598369227552268,1.053583661332981,0.022256142281943402,-0.9546979388179556,0.8787229165193785,0.07120994571925217,0.6115438857257385,1.1880634637838887,0.02401096326345526,0.7890369153892686,0.8955609759148833,0.0,0.0,0.0,0.0
0.026913076703223297,-0.007705769109702787,0.7405755594095212,0.0027872319840373336,-0.5261913250589263,-0.0024605559513348587,0.8503580813016414,0.025053371812543704,-0.8583775843473158,1.0534482262485398,0.023249248876578518,-0.9635199591167842,0.8744119893855438,0.07498282940618099,0.6071195492984167,1.2000017727823016,0.02283693747248901,0.7916270371340449,0.8904896237800214,0.0,0.0,0.0,0.0
0.026960240697551735,-0.007585861924661472,0.7409259347735735,0.0028199913649928025,-0.5262264990961965,-0.0024813670700195335,0.8503361465415462,0.024755996448324113,-0.8574134866096023,1.0534921446235392,0.02422904522337975,-0.9706521347670211,0.8705618259258279,0.07835422796070823,0.6032871843513133,1.2100765368084145,0.021385441505568807,0.7934698941234372,0.8864485151535357,0.0,0.0,0.0,0.0
0.02693520753353308,-0.00739651803694771,0.7411093149190177,0.0028300230987694307,-0.5262471206551896,-0.002479630126921171,0.8503233563802751,0.02423797397290235,-0.8570024220151525,1.0535494064256545,0.025134034957775397,-0.9748056931974528,0.8680222990535416,0.0808977499955716,0.6004961266977143,1.2164315879051024,0.01972708402884134,0.7942250947031377,0.8839613472658444,0.0,0.0,0.0,0.0
0.026802124169340226,-0.007138092303157165,0.7410918473184792,0.0028081997608861735,-0.5262531434274837,-0.0024489239229895775,0.8503197903250368,0.023489165278361354,-0.8571271989912979,1.05338685366481,0.025864116266903464,-0.9747947919892639,0.8678197028053032,0.08198673523131843,0.5998005705991895,1.2161611193575825,0.01798886741729413,0.7936266551989637,0.8834562580504794,0.0,0.0,0.0,0.0
0.026549461550927297,-0.006804283400484938,0.7408714586010136,0.002753205047988822,-0.5262449334774588,-0.0023879608260628216,0.850325224543152,0.02248978230171659,-0.8577597436900507,1.052930399738193,0.02639979935806876,-0.9706151179568403,0.8699228945634734,0.08160542241866536,0.6011908151815344,1.2092733291257793,0.016139870215487562,0.7916253071196568,0.8849556624065567,0.0,0.0,0.0,0.0
0.026191089251180504,-0.0063821372289888665,0.7404787336959242,0.0026718284334646537,-0.5262228986619192,-0.002300670133430334,0.8503393611809387,0.02121042785240896,-0.8588634138686536,1.0522730885982887,0.026814959192602853,-0.9634513216811987,0.8732713503699479,0.08035238743179796,0.6035982126845015,1.1986789505452402,0.013990275484855666,0.7883980538751363,0.8880594007956886,0.0,0.0,0.0,0.0
0.025739688379742057,-0.005863471930842218,0.739958463864928,0.002569017083025777,-0.5261905570898096,-0.002190588846851248,0.850359982067152,0.01963334101926816,-0.8603228052193731,1.0514439237441084,0.027157651881039024,-0.9545859267971862,0.8769916579234507,0.07863292662271688,0.6065568120213473,1.1862322986146903,0.011409004040907923,0.7842134970950969,0.8922411429032175,0.0,0.0,0.0,0.0
0.025189822070729114,-0.005241829470465907,0.7393495375099963,0.002446649514965533,-0.5261510919871852,-0.0020595464618195615,0.8503850895771955,0.01774245397583609,-0.8619687345822667,1.0503273973599248,0.02742195984257585,-0.9449415502649485,0.8805420075128897,0.07662708474493009,0.6098324341805696,1.1729629652653755,0.00831928848417978,0.7792606092571122,0.8970749861040918,0.0,0.0,0.0,0.0
0.024518351910621138,-0.004510244201244615,0.738680637401734,0.00230480401536969,-0.5261060711642034,-0.0019085808088081914,0.8504136917300387,0.015519867614807541,-0.863602034665072,1.0486841487379437,0.02757662777141123,-0.9350415176725922,0.8836508190841547,0.07438387630377129,0.6132521057785514,1.1593904887314306,0.004665775710857752,0.7736172225983515,0.9022681088425993,0.0,0.0,0.0,0.0
0.02369002520985056,-0.003661811754597561,0.7379717388829351,0.0021430302839803147,-0.5260552676037723,-0.0017386422125652509,0.8504459065518407,0.01294901034983719,-0.8650071889902656,1.0461899167572801,0.02759666719592958,-0.9251243530474217,0.8862163816153158,0.07190387645266404,0.6166633525664176,1.1457436745972451,0.0004074807752123275,0.7672744790250335,0.907633652753354,0.0,0.0,0.0,0.0
0.02266323512242843,-0.002692320987987378,0.7372369454052977,0.0019613696464248326,-0.5259972035591645,-0.0015512129665557007,0.8504826209955035,0.01002306921341081,-0.865953830144886,1.0424626665003027,0.027482136597049886,-0.9152767372627866,0.8882326202122391,0.06919003098086134,0.6199348865654832,1.1320946016582123,-0.004470029276352784,0.7601736865581167,0.9130580292618145,0.0,0.0,0.0,0.0
0.0213952278961718,-0.0016040410937257783,0.7364870659682933,0.0017612055320917826,-0.5259301328446588,-0.0013489553839969247,0.8505248813764622,0.006756599022505543,-0.8661919039606188,1.0370789020519422,0.02726578242295649,-0.9055343916134893,0.8897568636373983,0.06627721792823271,0.6229608032349081,1.1184328897723521,-0.009933935521703768,0.752241611958173,0.9184776403360645,0.0,0.0,0.0,0.0
0.019847822887433197,-0.00040992242588180493,0.7357314024575541,0.0015460695567599072,-0.525853387891939,-0.001136444287879381,0.8505730612980146,0.0031983588220628485,-0.8654490391705411,1.029592232541004,0.027014170635543008,-0.8959430921526843,0.8909173741210069,0.06325553955169311,0.6256590691119215,1.1047046502202251,-0.015884586949801334,0.7434226778815519,0.9238664127100032,0.0,0.0,0.0,0.0
0.017995391042056795,0.0008625832189526512,0.7349784630766361,0.0013225255346848875,-0.5257692607808517,-0.0009210695190202799,0.8506257032179946,-0.0005568203471486692,-0.8634400353155807,1.019572353760575,0.026822751720621197,-0.8865879251600771,0.8919567180506112,0.06030323880198282,0.6279673515171832,1.0908361059218517,-0.022147395667033505,0.733710263072047,0.9292324819958663,0.0,0.0,0.0,0.0
0.015837248175415743,0.002169191947388603,0.7342349777159167,0.0011013232843452704,-0.5256857708587652,-0.0007143908553467952,0.8506778162438203,-0.004359858364306569,-0.859901703545194,1.006688400212132,0.026799195063316548,-0.8776035258604824,0.8933112886673898,0.05774956478080083,0.6298452134339627,1.0767590092355284,-0.028489811604727668,0.7231781796727006,0.9346249851229039,0.0,0.0,0.0,0.0
0.01341693044120968,0.0034494618473912323,0.7335013600332957,0.0008993481000165935,-0.5256204731825908,-0.000535062277772082,0.8507185333896654,-0.008004748807420328,-0.8546742347536759,0.9908704458337964,0.027025721807530552,-0.8691824279975244,0.895723164652389,0.056187895941410784,0.6312988377547682,1.0624566854368895,-0.03468477113823831,0.7120047418916863,0.9401617473435008,0.0,0.0,0.0,0.0
0.010849202081739676,0.004633811817812271,0.7327573597173297,0.0007466617293072552,-0.5255968312023365,-0.0004320619963001036,0.8507333465009796,-0.011192122057180199,-0.8478844212252192,0.9726144242428935,0.02754869638794621,-0.861649518469995,0.9003282690443828,0.05648357908809667,0.6324848752001907,1.0480487078432286,-0.0407915388997426,0.7003795405199228,0.9460905994843372,0.0,0.0,0.0,0.0
0.008324902621658891,0.005669866332563199,0.731950802653814,0.0006757801808078813,-0.5256636571444904,-0.0004149235862687693,0.8506921245180564,-0.01378602353770955,-0.8401030879911191,0.9531668236547762,0.029038187395401628,-0.8557104276579053,0.908670071210968,0.060795622650358726,0.6337406338094638,1.0336207895555511,-0.04679282417411231,0.6886895565235063,0.9529285188733294,0.0,0.0,0.0,0.0
0.006398392810010455,0.006547433125171165,0.7310221445646126,0.0007329693056945894,-0.5258563488880366,-0.0005650366371999318,0.850572891540601,-0.01559180621874415,-0.8338358149494381,0.9374961770410876,0.031014701827520322,-0.8525874727409211,0.9223035851281719,0.07080266693129149,0.635954162633555,1.0198545372353538,-0.053674947376680854,0.6780515967844767,0.9606357149827275,0.0,0.0,0.0,0.0
0.005397128173397522,0.007063310843572991,0.7301462641795616,0.0009364504721023995,-0.5263024577463501,-0.0009063738497515668,0.8502964333202327,-0.01605595255571111,-0.8291031791627784,0.9273927670631908,0.034060128822605236,-0.8560238989713673,0.9437294923669437,0.08629200795730306,0.6388843247630993,1.0080598796643432,-0.06054091374186446,0.6705266186812919,0.9682956979538887,0.0,0.0,0.0,0.0
0.005364434326673063,0.007166786632947825,0.7301065808924069,0.0008323918180915638,-0.5263251108699566,-0.0009174234716886173,0.8502825078324042,-0.016209769800030114,-0.8291563465486604,0.9272761184946605,0.034060463845688685,-0.8560342601861746,0.9437399089471644,0.08630460096542221,0.6389024905914351,1.0080636541250958,-0.06055210490879309,0.6704510526518866,0.9682446742812654,0.0,0.0,0.0,0.0
0.005364434326673063,0.007166786632947825,0.7301065808924069,0.0008323918180915638,-0.5263251108699566,-0.0009174234716886173,0.8502825078324042,-0.016209769800030114,-0.8291563465486604,0.9272761184946605,0.034060463845688685,-0.8560342601861746,0.9437399089471644,0.08630460096542221,0.6389024905914351,1.0080636541250958,-0.06055210490879309,0.6704510526518866,0.9682446742812654,0.0,0.0,0.0,0.0
0.005088129103698814,0.007737104698455975,0.7298631090591204,0.0008018038249346853,-0.5258888548197455,-0.0009405237394046014,0.8505523998567628,-0.017586184082335424,-0.8323259568478609,0.9292553530299751,0.0326964976592784,-0.8567717161126992,0.9418902870341684,0.08210195874449969,0.6361696502543882,1.0118304886648597,-0.06399205764895101,0.6671426785923603,0.9677324699905911,0.0,0.0,0.0,0.0
0.005345621953793788,0.008496297395755983,0.7296283317467116,0.0007098532317597421,-0.5256558821766482,-0.0008873672702099791,0.8506965394433005,-0.0196377234839195,-0.8376080094348131,0.9361326650336674,0.03069118291813856,-0.8583829517547708,0.9432853249894916,0.07795022450526498,0.635285125705896,1.0159266759667478,-0.06811463456567013,0.6661399640069116,0.9663945457614905,0.0,0.0,0.0,0.0
0.006250573008723218,0.009414190666314657,0.7295039072294248,0.0005420550274383561,-0.5256752539485054,-0.0007446657437320687,0.8506848294377017,-0.022323755325502643,-0.8448701761169872,0.9484025956893264,0.028087881475307996,-0.8608531765126918,0.9486798287011646,0.07419447425664583,0.6371500105228779,1.019308799554141,-0.0726735020511865,0.6684378090774479,0.9633853397353858,0.0,0.0,0.0,0.0
0.00788032317756988,0.010665035107176566,0.7296534021367124,0.0002559295266701342,-0.5259021077396093,-0.0004417295382801398,0.8505449502819523,-0.02627369838132463,-0.8546603890374025,0.9673255848165053,0.024260175250804986,-0.8637489585543805,0.9580849847859442,0.0702548072276008,0.6425577477984838,1.020875870397651,-0.07818717401859226,0.6751462150390415,0.9563751449362119,0.0,0.0,0.0,0.0
0.010463590941015824,0.0126095861206447,0.7308658979369403,-0.00029112905508044357,-0.5264604324317079,0.00029846541298794867,0.8501995290789625,-0.0330969674274458,-0.8659668198081242,0.9945225939734121,0.01756501458512479,-0.8635431059399905,0.9702319468149925,0.06627786410122184,0.6555704760677297,1.0145008544604193,-0.08455764348551262,0.6920512444595598,0.9367491678819121,0.0,0.0,0.0,0.0
0.012670118586316472,0.014192516511103304,0.7323823604004608,-0.00034859982078795047,-0.5259191976592954,0.00019863619522096266,0.8505344417219268,-0.029729501475572878,-0.8515059484885967,0.957941719456153,0.013839270401805503,-0.8691897187561575,0.9863470186213472,0.05496914546242769,0.6692531080638316,1.0031814698911576,-0.06802563824402282,0.677280439518579,0.972443865589783,0.0,0.0,0.0,0.0
0.015097116204701895,0.015856178767963743,0.7338354001557992,-0.000528137546620616,-0.5256409428950166,0.00032962568446152094,0.8507063015930221,-0.027325042801622144,-0.8474242021469999,0.9349164008914058,0.009302694908874112,-0.8735980696866664,1.00209163545053,0.0453763655562944,0.6833378877412348,0.9923246996557156,-0.05594801716463294,0.6679753933015337,0.9997212590786823,0.0,0.0,0.0,0.0
0.01747634738578061,0.017515947492779547,0.73514826331248,-0.0007898347719045543,-0.5255660446303657,0.0005794022381713538,0.8507522396007382,-0.025515808427254073,-0.8498417819839064,0.9217833212084402,0.004462373586712924,-0.8764630152656531,1.015853420752932,0.03699424177925406,0.6968515781674618,0.9826812857675048,-0.04986254007576031,0.6619036039719003,1.0209611008080617,0.0,0.0,0.0,0.0
0.019628924076590365,0.019113084082763146,0.7363292112166915,-0.0010709429300690958,-0.5255823352235017,0.0008614900384672991,0.8507416292959717,-0.024073724187378187,-0.855684674045921,0.9143179075519362,-0.0003173390596175234,-0.8779893613451716,1.0270825108480202,0.029175323384511474,0.7092819492736099,0.9741691004986534,-0.04763676975047827,0.6575245455884653,1.0386082177739173,0.0,0.0,0.0,0.0
0.02147493069442658,0.020614369509060832,0.7374036216487543,-0.0013362294290014216,-0.5256291641866687,0.0011303197095478546,0.8507120068652442,-0.022898134672917948,-0.8632572691270441,0.9099170149226073,-0.004834202671029849,-0.8783660066293298,1.0356998610691481,0.021613810778415576,0.7204616772591049,0.9665791167725442,-0.04749684042564845,0.6539714442290661,1.0541787767783275,0.0,0.0,0.0,0.0
0.02300008620333264,0.022001630118239707,0.7383969895726823,-0.0015716995070667187,-0.5256792982686999,0.001368040236744749,0.8506802769538608,-0.02189725916246858,-0.8716805098784205,0.9070336265764662,-0.008990255988752652,-0.8777741615529198,1.0419069029994779,0.01426492607371408,0.7304069620500205,0.9596839814449091,-0.04836882932236371,0.6507380886753591,1.0685848297373988,0.0,0.0,0.0,0.0
0.024228472078747017,0.02326711438160333,0.7393298002530967,-0.0017743856456727976,-0.5257229810566368,0.001570981601006817,0.8506525323310997,-0.02097107833890533,-0.8805168389190982,0.90476761983162,-0.012749651007387862,-0.876399648383632,1.0460558378256368,0.007200333652634227,0.7392314536054547,0.9532789044206413,-0.04966266520306442,0.6475421409098868,1.082375902221548,0.0,0.0,0.0,0.0
0.025203132712033262,0.024410873131872145,0.7402163577397022,-0.0019462763593342707,-0.525758899022921,0.0017417479072162456,0.8506296247020596,-0.020026607927418314,-0.889558810771196,0.9026130724805149,-0.01611403995265878,-0.8744272644335092,1.0485546362773246,0.0005145113222904297,0.7470921655342013,0.9472027309102768,-0.0510632566153917,0.6442480946118512,1.095886297304123,0.0,0.0,0.0,0.0
0.02597341637396879,0.02543843414738869,0.741065403010469,-0.002091205577846036,-0.5257887530135527,0.0018853413953837505,0.8506105216557737,-0.018991369213848846,-0.8987190340702945,0.9002968977371858,-0.01910743376998912,-0.8720343374120646,1.0498093213991404,-0.005718806149647097,0.7541534523873265,0.9413419810718323,-0.05240250137670025,0.6408134698173208,1.1093199688431368,0.0,0.0,0.0,0.0
0.026587641446410494,0.026358362841887695,0.7418812328454439,-0.0022139975400188236,-0.5258148392122619,0.002007977484034806,0.8505938050006593,-0.017819819858031563,-0.9079727725625101,0.8976757633014116,-0.021766393699827028,-0.8693829181405489,1.0501915609118302,-0.011446765604325448,0.7605635353826934,0.9356255255504192,-0.05358912114874896,0.6372576304573565,1.1227976605438836,0.0,0.0,0.0,0.0
0.027089226490913935,0.027180365395204426,0.7426642394615117,-0.002319509628231851,-0.5258390498794625,0.002115679744205109,0.850578295864742,-0.01649196858828332,-0.9173224286232571,0.8946758845296613,-0.024131137040781438,-0.8666192428075965,1.0500259997208783,-0.01663980074224989,0.7664433652216567,0.930023518324503,-0.05457791227579573,0.633642336824173,1.136378828735534,0.0,0.0,0.0,0.0
0.027514786329844623,0.0279138419246734,0.7434106290391918,-0.0024115877398353637,-0.5258631167655012,0.0022125243276027123,0.8505629144315814,-0.015008489313040895,-0.9267568055888317,0.8912671525517217,-0.026237122320537848,-0.8638758615669739,1.0495859851905054,-0.021299914844352737,0.7718829893082533,0.924554204846843,-0.05535985823806425,0.6300610038379016,1.1500613271522284,0.0,0.0,0.0,0.0
0.027892422772688025,0.028565907580245225,0.7441112674005755,-0.0024936724081964026,-0.5258872525043692,0.002301889540557489,0.8505475181057608,-0.013391411660696087,-0.9361924177970796,0.8874621167079255,-0.028112571843291047,-0.8612793535816066,1.0490951988630108,-0.025426806376748178,0.7769171219633193,0.9192900392273892,-0.0559353211225041,0.6266279304244681,1.1637525985665647,0.0,0.0,0.0,0.0
0.02823947100555989,0.02914080537035835,0.7447494307174397,-0.0025677214732291167,-0.5259109029390484,0.0023847985168373815,0.8505324460079726,-0.01167675799826574,-0.9453756742480903,0.8833582191837569,-0.02977293657262816,-0.8589507604977072,1.048714911064613,-0.029031476756523417,0.7815128124816368,0.9143872248288477,-0.05629994664570233,0.62346983227401,1.1772004369644524,0.0,0.0,0.0,0.0
0.02855854362212118,0.029639964791474994,0.7452981901708512,-0.002632993847388104,-0.5259322405544885,0.002458920493516962,0.8505188412955599,-0.009901612015838059,-0.9537616762945835,0.8792117565067562,-0.031219030718222598,-0.8570043782840335,1.0485204401189918,-0.03215173601712208,0.7855450903177235,0.910121218204082,-0.056403329370355616,0.6207214347743583,1.1898618218410193,0.0,0.0,0.0,0.0
0.028832848321574473,0.03006262589234906,0.7457190505168908,-0.002686162208146626,-0.5259457008337667,0.0025206388333303006,0.8505101708309791,-0.008088993739644468,-0.9604239128644257,0.8755194427128759,-0.03244401647697197,-0.8555418368978419,1.0484721611630001,-0.03483554821354841,0.7887594244836195,0.9069060886346867,-0.05605583321543051,0.6185641030708986,1.2006879791362823,0.0,0.0,0.0,0.0
0.02902663621560464,0.03040966903689515,0.7459661419317367,-0.0027189717358829637,-0.5259436493358269,0.0025625672919042386,0.850511209899603,-0.006221698637237799,-0.9641057611281773,0.8730583582344298,-0.03343786356416645,-0.8546301710390685,1.0483971108421364,-0.03721041191894725,0.7908142727940212,0.9052719618003284,-0.054853889986728036,0.6174010037836213,1.2078223042860252,0.0,0.0,0.0,0.0
0.029101932054004,0.030685673889864453,0.7460066689814077,-0.0027220558061313515,-0.5259196221552452,0.002578925507126174,0.850526008178175,-0.0042622479978843,-0.9636555978313609,0.8727016714811385,-0.03420400095064431,-0.8542681598272948,1.0480644431168564,-0.03942741672635977,0.7914305911436563,0.9056353275826319,-0.052181393802617944,0.6182334942306229,1.2083885796778056,0.0,0.0,0.0,0.0
0.02904598662999914,0.030888971424070932,0.745840845919689,-0.002694902554596682,-0.5258738513105936,0.002568607345761106,0.8505544263974458,-0.00222265213524508,-0.9590631535344432,0.8744117492408454,-0.03473472977950483,-0.8544076970328891,1.0473752175552153,-0.04147852357310555,0.7905683949409911,0.9080133814807311,-0.04805119831338618,0.6210178521528625,1.2023722768907263,0.0,0.0,0.0,0.0
0.028871932376217522,0.03101307297562612,0.745502704339145,-0.002645520044850367,-0.5258130634906536,0.0025344818021479994,0.8505922641831752,-0.00016818385818159927,-0.9514684888191439,0.8772714985817689,-0.03501335839328292,-0.8549518315570466,1.0463618906848626,-0.043216880809841506,0.788438152965631,0.9120168400155962,-0.043098259933412035,0.6246864090236421,1.192614761067741,0.0,0.0,0.0,0.0
0.02859040850358453,0.031057422774115974,0.7450416552195592,-0.0025809550844025047,-0.5257435758583918,0.002481400593707318,0.8506355704798485,0.0018535364905971487,-0.9421164961433406,0.8804704493247522,-0.03504333621255848,-0.8557265252585963,1.0449889794978937,-0.044532605901020456,0.7853213791467811,0.9171200353985712,-0.03773618063456613,0.6287852172221137,1.1809386580700212,0.0,0.0,0.0,0.0
0.028191453989001834,0.03102592842521711,0.744502363823655,-0.0025035512594450545,-0.5256680162558128,0.00241118889148546,0.8506826994155338,0.0038353147548769347,-0.9319197103881063,0.8834734864004423,-0.03483393711221582,-0.8565062461031843,1.0430639902787509,-0.04541010743466773,0.7814149440252455,0.9228954115036382,-0.03216398566507438,0.6330872015336987,1.168358587229258,0.0,0.0,0.0,0.0
0.027643921702601153,0.030924993822293457,0.7439201470216861,-0.0024118431452907884,-0.5255859718714063,0.002322407456476847,0.8507339041135236,0.005788112896329521,-0.9214084115525408,0.8859913124926949,-0.03439421581604163,-0.8570258424259717,1.0402412989071508,-0.045907451774281,0.7768045290737677,0.9290555645014026,-0.02646550097199439,0.6374170922089908,1.1553826012373956,0.0,0.0,0.0,0.0
0.026900353176172637,0.030762961242229082,0.7433220771066249,-0.002302666262717688,-0.5254931055702358,0.0022126903664251582,0.8507918651042532,0.007715800984267965,-0.9108364621587974,0.8878913186077863,-0.0337369670985614,-0.8569944088301386,1.0360591422821495,-0.04611563612894154,0.7714742252669226,0.9354240176626616,-0.020670768588351974,0.6416045226342743,1.1422268602418961,0.0,0.0,0.0,0.0
0.025903070691297266,0.03055196609481812,0.7427290089943553,-0.0021712398001737165,-0.5253827969503132,0.002077896954708833,0.8508606729251516,0.00961130654192267,-0.900303314642895,0.8891298575917412,-0.03288166306137962,-0.8560985862580308,1.0299676005683378,-0.04618302517214034,0.7653494818003185,0.9419096664264944,-0.014802488979950209,0.6454856925555531,1.1289520104738844,0.0,0.0,0.0,0.0
0.024590288921292204,0.03030956329511808,0.7421567912111227,-0.0020118403768703535,-0.5252460097703721,0.001913202861499756,0.850945898029605,0.011461500950823458,-0.8898501356516164,0.8897115900384293,-0.03186171148263052,-0.854013523462582,1.0213618277032621,-0.046313280779872866,0.7583228665816351,0.9484828195857274,-0.008880097167766235,0.6489078123085433,1.1155420601837327,0.0,0.0,0.0,0.0
0.022904001977896007,0.030059629200169306,0.7416158199195135,-0.0018180716167839248,-0.5250717970068135,0.0017136639642824256,0.8510542673410723,0.013261605493872184,-0.879508719593428,0.8896815264315988,-0.030728604910859988,-0.8504253834166629,1.0096306899632026,-0.046762279270321123,0.7502800533487916,0.9551637169171256,-0.0029101655083769795,0.6517343755519943,1.1019515446933361,0.0,0.0,0.0,0.0
0.02080190768969948,0.029830968121187688,0.7411081647560105,-0.001583715907663014,-0.524848528026539,0.0014754238867776964,0.851192890945791,0.015031634011319527,-0.8693062330818025,0.889140530737713,-0.029551335848724696,-0.8450790009242912,0.9942465556007586,-0.04780422829370213,0.7411224473734951,0.962021926404073,0.003137920322466253,0.6538630759529991,1.0881439372299346,0.0,0.0,0.0,0.0
0.01827608860743582,0.02965184587522614,0.7406211350866299,-0.0013057058761526217,-0.5245662900758082,0.001199293665410112,0.8513677608078497,0.01682506986932172,-0.8592385138691123,0.8882771737891965,-0.028410219606465024,-0.8378673495330706,0.9749298835168315,-0.049633486384465124,0.7307817809021268,0.9691894503182996,0.009384089934106495,0.6552840222633012,1.074144307640678,0.0,0.0,0.0,0.0
0.015383042140708627,0.029541919397315465,0.740116956950369,-0.0009835033776324086,-0.5242321941308821,0.0008843106890220042,0.8515743404732394,0.018750207561940103,-0.8491838169897249,0.8874206930410136,-0.027358927289943547,-0.8289531521817767,0.9519030414171639,-0.05237768445779864,0.7193248181034143,0.9769301867921079,0.01603269609162716,0.6562372523532081,1.0601370822564617,0.0,0.0,0.0,0.0
0.01228210527004573,0.029487322920851506,0.7395185902735159,-0.0006360984028856945,-0.52385916341823,0.0005575196019691648,0.8518044737223839,0.020900041709856834,-0.8388762895554809,0.8869045453822086,-0.02643257906400744,-0.8190811787229283,0.9264258910705876,-0.055575819706864066,0.7068336392143713,0.9856158812940101,0.023776565734907624,0.6574977878183911,1.046567748708012,0.0,0.0,0.0,0.0
0.009272809127738408,0.029402673904437272,0.7386968419740746,-0.0002811245021439681,-0.5234121960077339,0.00021946028030825465,0.8520795419892213,0.023289519673713885,-0.8276410676151329,0.8859727722873719,-0.025423864309566543,-0.8104223654100757,0.9018743507085745,-0.05852001239239133,0.6934726226015547,0.995674874361024,0.034006788553353734,0.6608681858728764,1.0336313503115688,0.0,0.0,0.0,0.0
0.006760508572137138,0.029276065978561413,0.7377213841581829,1.3820981706634709e-05,-0.5229424457077183,-4.66814133289253e-05,0.8523679933614684,0.025888455172067375,-0.816242335343718,0.8841813265408714,-0.02449780156909606,-0.8043637454442365,0.881825796927106,-0.06027312846606103,0.6806796773772952,1.0059975149733844,0.04831206340798179,0.6670917467682025,1.0219868326937345,0.0,0.0,0.0,0.0
0.005120222641796019,0.029161693120014515,0.7369010435856035,0.00014557819667675322,-0.5225196423176381,-0.00015739305598176155,0.8526272206695386,0.02773925666793073,-0.8072694258391748,0.8804952730693713,-0.02395497773082117,-0.8012759811931075,0.8691601071026049,-0.060219100084008055,0.6709289754684925,1.013744858673673,0.06529597685449787,0.6748752394291218,1.0122284041296494,0.0,0.0,0.0,0.0
0.005109809506492177,0.02911411054612141,0.7368680231892164,0.00020230693132106418,-0.5225134425825758,-0.00016124697441068477,0.8526310077588218,0.02775699325207544,-0.8072805375158871,0.8805049439615644,-0.02386525757035293,-0.8013316376421494,0.8690203987721515,-0.06022206591821566,0.6708608941310595,1.0136845731446158,0.06529343964254557,0.6749076312409835,1.0122389387964486,0.0,0.0,0.0,0.0
0.005109809506492177,0.02911411054612141,0.7368680231892164,0.00020230693132106418,-0.5225134425825758,-0.00016124697441068477,0.8526310077588218,0.02775699325207544,-0.8072805375158871,0.8805049439615644,-0.02386525757035293,-0.8013316376421494,0.8690203987721515,-0.06022206591821566,0.6708608941310595,1.0136845731446158,0.06529343964254557,0.6749076312409835,1.0122389387964486,0.0,0.0,0.0,0.0
0.005109809506492177,0.02911411054612141,0.7368680231892164,0.00020230693132106418,-0.5225134425825758,-0.00016124697441068477,0.8526310077588218,0.02775699325207544,-0.8072805375158871,0.8805049439615644,-0.02386525757035293,-0.8013316376421494,0.8690203987721515,-0.06022206591821566,0.6708608941310595,1.0136845731446158,0.06529343964254557,0.6749076312409835,1.0122389387964486,0.0,0.0,0.0,0.0
0.005730893234495263,0.029073762818233293,0.7368213102696427,0.00023404482836212925,-0.5227643054302435,-0.00013163608402127656,0.8524772189700993,0.027780873365458425,-0.8090616068295133,0.8851925766182013,-0.023888651952424553,-0.8032389925518857,0.8739400319887011,-0.060328592027281865,0.6732997962320207,1.0137632607551856,0.0660523916109706,0.6774451039517212,1.01271319247845,0.0,0.0,0.0,0.0
0.006928952803886499,0.0290664808859114,0.7367329730533811,0.0002445704237137115,-0.5230487016394487,-0.00011924083712418741,0.8523027523598744,0.02781816524451414,-0.8138443253512945,0.8956518410169115,-0.023963454257916926,-0.8080678285311929,0.884505157186437,-0.0609319075689443,0.6774885590840571,1.013872639895174,0.06689042942966765,0.6816986685955143,1.0129196185112141,0.0,0.0,0.0,0.0
0.008703402154731685,0.029066539715228473,0.7366454660088173,0.00024428421053425983,-0.5233777129160491,-0.0001296111144037806,0.8521007529329787,0.0279402352066676,-0.821229665257665,0.9114337870311571,-0.024015987479248956,-0.8155654112426715,0.9004607633037555,-0.06197178578652265,0.6837192803556394,1.0134901151622124,0.0679031556931048,0.6879209811809458,1.01251383263595,0.0,0.0,0.0,0.0
0.01107520138404817,0.029001449294944432,0.7366796088683383,0.000248361577952071,-0.5237614075585185,-0.00018329114451934303,0.851864949785588,0.02837506500048167,-0.8304923674876371,0.9319100098713805,-0.02381452808587116,-0.8254599574924483,0.9218021737768874,-0.06318149610831977,0.6927362587733045,1.011207681038986,0.06940129078873171,0.6967965977125726,1.0105250481955916,0.0,0.0,0.0,0.0
0.014154130410871739,0.028746999576738173,0.7372913054436665,0.0002963286443275062,-0.5242447850790316,-0.00033668604151941437,0.8515674982931676,0.029560856953115753,-0.839828222988109,0.9563353026372922,-0.02290371404602538,-0.8368291532379817,0.9489171777844142,-0.06431090339012543,0.7073189666539614,1.00238512388316,0.07168281098423547,0.710872097174463,1.003002846742844,0.0,0.0,0.0,0.0
0.01678836084257041,0.028776015883185187,0.7379027251421234,0.0007840099825088423,-0.5243143337977504,-0.00081543273894706,0.8515240453281496,0.03061969347844811,-0.8484020749985616,0.9780864327115566,-0.02116540098980664,-0.8333406123844749,0.9288482253150641,-0.045669283760438564,0.6939633039253106,1.0201696842030537,0.06551478062446724,0.7204669284564584,0.9935517825490376,0.0,0.0,0.0,0.0
0.01936389635071794,0.02870374974073522,0.7385872573190242,0.001206347168576947,-0.5244366105131216,-0.0012259199133507852,0.8514477572936482,0.03178703289014691,-0.8558168659506251,0.9981986261487685,-0.017880019846477704,-0.8366067753945174,0.9156193958766169,-0.029308003306665383,0.6831589255144107,1.0355523158464282,0.06084317083241271,0.7307474580460465,0.9837674219690464,0.0,0.0,0.0,0.0
0.021677158283512132,0.028544797043456145,0.7392699084284803,0.0015257781865339781,-0.5246032343301232,-0.0015290243565096848,0.8513441023556906,0.03293607545292481,-0.8616532392599284,1.0152728646070366,-0.014807942409579297,-0.8436539632268573,0.9079789069541531,-0.01718554092693418,0.6753474125995381,1.049797977756956,0.05821819356406795,0.7408912279376286,0.9745979950601835,0.0,0.0,0.0,0.0
0.023620677234027544,0.028335836414602862,0.7399320827053321,0.0017732687893136589,-0.5247834156829578,-0.0017601054679974952,0.85123212120471,0.03404319718910899,-0.8657643319437442,1.028799593113805,-0.012335750954015437,-0.8524394684297056,0.903615471168229,-0.00791640920274166,0.6694167112136141,1.0635070659354793,0.05691502774435253,0.7501876447364971,0.9662254194690238,0.0,0.0,0.0,0.0
0.025170342226320884,0.028110688659736496,0.7405819812327417,0.001974480144839949,-0.5249583676038244,-0.0019450315295802601,0.8511233932651802,0.03507126890189908,-0.8682262190529361,1.038883882071552,-0.010313225904401865,-0.8619341971225116,0.9009568242100953,-0.00024288494033451215,0.6644346251139347,1.0768943801558954,0.05630260062287446,0.7583706196007707,0.9585171093456046,0.0,0.0,0.0,0.0
0.0263525398593305,0.027896976833242448,0.7412310818207999,0.0021441509984127475,-0.525118775149997,-0.0020975251914183268,0.8510236630021131,0.03597544234691035,-0.8692597446446086,1.045959921595432,-0.008499537531518088,-0.8716727157585534,0.899025665079624,0.006578229932262654,0.6597998324982233,1.0900649770629383,0.05594882638407247,0.7654390693188118,0.9512652563192388,0.0,0.0,0.0,0.0
0.027219210019051452,0.027715244162009815,0.7418855935012055,0.002289977968655874,-0.5252614473755973,-0.002224785388110654,0.8509349083400989,0.03671838541542387,-0.8691519071427146,1.0505938561973973,-0.00672626373418158,-0.8814674354234923,0.8972509672998817,0.01292726773987092,0.6551738342271418,1.103094649119972,0.05557685774283488,0.7715151735885748,0.9442880528065549,0.0,0.0,0.0,0.0
0.027831131674421552,0.027578858780703926,0.7425456455849241,0.002416159884789792,-0.5253868186172128,-0.0023313332114988728,0.8508568727348637,0.0372782459277891,-0.8681979198961864,1.0533628300683564,-0.004920019756051808,-0.891258033464565,0.8953234713209985,0.018983498875861864,0.6503936210209511,1.1160494940492875,0.055020578203446156,0.7767631377394476,0.9374600157832524,0.0,0.0,0.0,0.0
0.02824787650417991,0.02749467663898244,0.7432070884584185,0.0025254673497510254,-0.52549721607413,-0.002420761896827964,0.8507881274587953,0.03764958265185637,-0.8666667805786819,1.0547899872754078,-0.0030736737703689564,-0.9010420026537906,0.8930909498047035,0.024827109630738368,0.6454057339456347,1.1289870588887494,0.05419238141552468,0.7813475806003757,0.9307114534655992,0.0,0.0,0.0,0.0
0.028522608059142213,0.02746442211168468,0.7438633755354109,0.002620182554325523,-0.5255956978341563,-0.0024962397745084634,0.8507267868408731,0.03783977677479821,-0.8647869258363213,1.0553179831102284,-0.0012107477122242445,-0.9108449434554171,0.8904857737857441,0.030494906779090534,0.6402248395285473,1.1419516469469848,0.053058740146603084,0.7854136816017204,0.9240182811007174,0.0,0.0,0.0,0.0
0.02869997516270056,0.02748657298950632,0.7445065197220843,0.0027023620372422395,-0.5256852592398047,-0.002560421844722008,0.8506709996804734,0.03786317843700896,-0.8627465688057782,1.0553065911388404,0.0006411726751794752,-0.9207019596161573,0.8874795703379541,0.03600853056879191,0.634910814295499,1.1549652885024002,0.0516199891485424,0.7890771307291516,0.9173931743178173,0.0,0.0,0.0,0.0
0.028815529078006944,0.02755848139101768,0.7451268363816964,0.002773741437989754,-0.5257682381546331,-0.0026151364750884917,0.8506193197708506,0.037734537017376286,-0.8607029748595943,1.0550421742504141,0.0024662710021361818,-0.9306289568783804,0.8840632663864312,0.041386577290421146,0.6295565346591907,1.1680096110630462,0.04989297786348275,0.7924158542461658,0.91088403014631,0.0,0.0,0.0,0.0
0.0288952622121226,0.02767847145261943,0.7457114714215044,0.002835457623752257,-0.5258458091436041,-0.002661032805549352,0.8505710223670802,0.037462720111569446,-0.8587949423691171,1.0547478944733366,0.004267534487275325,-0.9405663331010566,0.8802554388177211,0.04664435197943467,0.6242789581758905,1.1809880561725679,0.04789655800676396,0.7954576868964041,0.9045834609927336,0.0,0.0,0.0,0.0
0.02895406079289081,0.027847600945137524,0.746241868752793,0.002887642705227292,-0.5259175554209736,-0.002697291172350986,0.8505263729244177,0.03704564977373583,-0.8571525020902275,1.0545840121366876,0.0060649447583521485,-0.9502835145227737,0.8761457681222751,0.051778064411348974,0.6192095873316676,1.1936513533802413,0.045641289829017884,0.7981601336117349,0.8986516899459995,0.0,0.0,0.0,0.0
0.02899240715026793,0.028070557127539014,0.7466906627978279,0.002928847990828916,-0.5259812573630723,-0.0027214402889718923,0.8504867621044795,0.036467841860648324,-0.8558977480599277,1.0546298784596022,0.007881520563148472,-0.9592514360060486,0.8719783931830295,0.05672461156379409,0.6144922721430951,1.205462880469479,0.043127701233832104,0.8003829317804125,0.893351841895925,0.0,0.0,0.0,0.0
0.028992323824548947,0.028354815154531678,0.747019534722311,0.0029552128294313214,-0.5260332104809516,-0.00272920039136349,0.8504545135711018,0.035702576648045554,-0.8551325687784528,1.0548493302754316,0.00971512923606598,-0.9665351910468571,0.8682612511393651,0.06128864941581687,0.6103254337086575,1.2153784283467552,0.04036197613724035,0.8018667483689955,0.889084149906962,0.0,0.0,0.0,0.0
0.028917628467237697,0.02870725427790324,0.7471825738835974,0.0029595455324620524,-0.5260695134581521,-0.0027142201495629356,0.8504320908274359,0.03472038396159697,-0.8549152227019676,1.0550699524010307,0.011507849687321646,-0.9708428424062144,0.8658336759552401,0.06505451036290398,0.6071370566926632,1.2215302880055094,0.03739602562817211,0.8022612669206931,0.8863665501832197,0.0,0.0,0.0,0.0
0.02873076066991653,0.029130000849375122,0.7471458298671353,0.002932574107104834,-0.5260897333883251,-0.002669868135559564,0.8504198164651656,0.03350357821214436,-0.855231127247197,1.0550566338574532,0.013161584070428736,-0.9709857037875018,0.8657125141114715,0.06741233366916699,0.6059630957262795,1.2210001558871004,0.034341002612171184,0.8012921053722211,0.8856220650716436,0.0,0.0,0.0,0.0
0.02841960956475633,0.029630353634426416,0.7469070309565251,0.0028726526917551066,-0.5260943989531348,-0.002594625508905868,0.8504173676349284,0.032028977252205534,-0.856052413595763,1.0547335857648472,0.014648303782182065,-0.9669586015220021,0.8678673998321128,0.0683406063345572,0.6068028976147894,1.2138013004149861,0.03116191101888849,0.7989069201015775,0.8868737357746487,0.0,0.0,0.0,0.0
0.027998455224947767,0.030221118214129473,0.7464964284717014,0.0027861222737044036,-0.5260845015775929,-0.0024922373815681547,0.8504240844868902,0.030267170624456444,-0.8573411375997975,1.0541930740712269,0.01602552898175805,-0.9599475507471505,0.8712472848964486,0.06841397168563047,0.6086180199588539,1.202865390341722,0.02767297212052404,0.7952836089352481,0.88972642305573,0.0,0.0,0.0,0.0
0.027480820273120463,0.03091046831551698,0.7459583399423282,0.0026776841170496873,-0.5260639306090139,-0.0023662828094824675,0.8504375177669605,0.028200302616563932,-0.8589835598405513,1.0534678487962392,0.017327689588946527,-0.95123670291599,0.8749868928340052,0.06802266213309689,0.6109677903369888,1.1900639408774225,0.023745073595604682,0.7906914118853108,0.8936575558454763,0.0,0.0,0.0,0.0
0.026862087560237537,0.03170512724867219,0.7453312527561524,0.002549164667536666,-0.5260360197427468,-0.0022187398925230203,0.8504555749044129,0.02581147180473182,-0.8608138466655092,1.0524483823426967,0.01854086199955138,-0.9417488443282844,0.8785495207026539,0.06734097849643979,0.6136341415963946,1.1764365880944438,0.01929959229692654,0.7853191730174348,0.898242555805725,0.0,0.0,0.0,0.0
0.02611984723541066,0.03261241333695009,0.744643537080121,0.002400726830842902,-0.5260023665645703,-0.002050848603938494,0.8504772430225036,0.02308172888468147,-0.8626365839943138,1.0509018110905763,0.019630618779608953,-0.9320064863558707,0.8816664867110822,0.06641620817008179,0.6164533089358452,1.1625077569819853,0.0142778565752429,0.779244430709455,0.9031885407536817,0.0,0.0,0.0,0.0
0.025219591645746397,0.03363943759977134,0.7439149006444442,0.0022321354835300685,-0.5259627062600487,-0.0018638227787944651,0.8505026604070314,0.019994013883420182,-0.8642398145017022,1.0485102908956567,0.02057236624913677,-0.9222470470989561,0.8842374580562149,0.06524869104239345,0.6192781430913797,1.1485080546733957,0.008637044123544825,0.7724586973955094,0.9083082487333944,0.0,0.0,0.0,0.0
0.024120613142808837,0.034790239620860496,0.7431591992138861,0.002043803198470362,-0.5259154763959747,-0.0016594866469659473,0.8505327628373579,0.016542317514165183,-0.8653961978083197,1.0448979417165378,0.021369730185758776,-0.9125559832794277,0.8862565493419569,0.06384277613487471,0.6219810511154611,1.1345094851076238,0.0023648915281226307,0.7649051362571895,0.9134880200782527,0.0,0.0,0.0,0.0
0.02278130542364282,0.036061761260925355,0.7423870251809299,0.0018376874824795042,-0.525858794326349,-0.0014409436057721743,0.8505686774246276,0.012743996840238423,-0.8658578015892907,1.0396468838390944,0.022062712886975328,-0.9029673263915109,0.8877801009237671,0.06223785203785244,0.6244594633598034,1.1205000736794921,-0.004497913843304567,0.7565143630819096,0.9186649882481376,0.0,0.0,0.0,0.0
0.02116490584833864,0.037439385220728275,0.7416075392418434,0.0016181509989131656,-0.5257917847404828,-0.0012133251174954896,0.850610903133108,0.00865333881645478,-0.8653529186451828,1.0323151694808206,0.022729315185125328,-0.8935239013961505,0.8889339274902818,0.06053393507717748,0.6266345855362184,1.1064224569814258,-0.011837291728589286,0.7472367115983103,0.9238151155543454,0.0,0.0,0.0,0.0
0.01924741591670591,0.038892847657479405,0.7408292328941601,0.0013929196018737321,-0.5257164155033874,-0.00098474747503728,0.8506581807739597,0.00437424799816942,-0.8635948778089311,1.022474762727521,0.023479278768144797,-0.8843054011404821,0.8899560289016277,0.058927968455985684,0.6284463059364558,1.0921964389271033,-0.019458284393018895,0.7370727472473221,0.9289505941564158,0.0,0.0,0.0,0.0
0.017029859169614588,0.04037368164156831,0.7400589331811763,0.001174356633569861,-0.5256401726444078,-0.0007678238287243985,0.8507058482433411,6.935866549827308e-05,-0.8603163253573588,1.0097936734925343,0.024431316885914354,-0.8754369425362561,0.8912745964957074,0.05778214332966232,0.6298528659621955,1.0777424671992588,-0.027105018641164658,0.7261025098411384,0.9341278201785163,0.0,0.0,0.0,0.0
0.01455731252778994,0.04181581620052528,0.7392970446544623,0.0009816924775984922,-0.5255795826803987,-0.000583120680171426,0.8507436738052477,-0.0040358773341267916,-0.8553507963176441,0.9941963160517943,0.025660995273370443,-0.8670946989977573,0.8936140406150546,0.0577433462472642,0.630850975700375,1.0630249432321386,-0.03453246147256312,0.7145038484514165,0.9394769877468024,0.0,0.0,0.0,0.0
0.01194502115559749,0.04314335722297393,0.7385220169140981,0.00084968991342957,-0.5255536589034301,-0.0004886412474378718,0.8507598902569393,-0.00760278100394504,-0.8488222987144413,0.9761716066645612,0.02718143730895074,-0.8595885483474789,0.8980605575452852,0.05970600600984383,0.6315807434034654,1.048134735046773,-0.04184932265680641,0.7024215336872851,0.9452605437792039,0.0,0.0,0.0,0.0
0.009373637828999089,0.04430168440270378,0.7376829269848373,0.0008129274502405396,-0.5256130775043136,-0.00048437540400946433,0.8507232201402952,-0.010515801365958557,-0.841244479934642,0.9568577502521755,0.02978022767008512,-0.853644817097154,0.9060920391811302,0.06612711099281494,0.6322988034666067,1.0330635009030114,-0.04897062807625913,0.6902467626990497,0.9520141904195161,0.0,0.0,0.0,0.0
0.007408479355021884,0.04527283962925579,0.7367176001168959,0.0009241452177788818,-0.5257892981120968,-0.0006662600676402922,0.8506140817338537,-0.012521570847806375,-0.8351448938692667,0.9412772356661158,0.0327615500026948,-0.8504935493397243,0.9191821495128755,0.07868932645372866,0.6338311896706692,1.0184732500018439,-0.05699245450405522,0.6790569463316972,0.9597038165388645,0.0,0.0,0.0,0.0
0.006379812735335154,0.045846180255013975,0.7357997362347174,0.001198278700264205,-0.5262117951241267,-0.0010520163265157244,0.8503520471322741,-0.01306379267689661,-0.8305411681402953,0.9312104825350445,0.03646585235648925,-0.8538667184147666,0.9398106589148533,0.09675106524135207,0.6360632461806993,1.0057199308760811,-0.06492991825399096,0.6709363404635812,0.9674559839622835,0.0,0.0,0.0,0.0
0.006345911785894085,0.045954661218804316,0.7357574230121938,0.0010927141951235125,-0.5262366757678203,-0.0010642293590425944,0.8503367770879917,-0.013225065104448055,-0.8305957273637485,0.9310930531905989,0.036468016019192,-0.8538770032324321,0.9398208691449973,0.0967644786326743,0.6360814109056444,1.0057235303213121,-0.06494135656031182,0.6708574265442945,0.9674032678490655,0.0,0.0,0.0,0.0
0.006345911785894085,0.045954661218804316,0.7357574230121938,0.0010927141951235125,-0.5262366757678203,-0.0010642293590425944,0.8503367770879917,-0.013225065104448055,-0.8305957273637485,0.9310930531905989,0.036468016019192,-0.8538770032324321,0.9398208691449973,0.0967644786326743,0.6360814109056444,1.0057235303213121,-0.06494135656031182,0.6708574265442945,0.9674032678490655,0.0,0.0,0.0,0.0
0.006090474757627721,0.04654041788210528,0.7355117660236513,0.0010060928965602315,-0.5258265776056278,-0.0010465574394581414,0.8505905611856753,-0.014713339751467939,-0.8339039823641953,0.9333140523722666,0.034989463502650454,-0.854413625186502,0.9378796089252869,0.09308719982450872,0.6332732009950237,1.0095580063235834,-0.06785963050201815,0.6678554181214683,0.9669386656886242,0.0,0.0,0.0,0.0
0.006369806011733298,0.047340505596175954,0.7352744154423618,0.0008777672440335756,-0.5256117791825671,-0.000966331313140185,0.8507235469369558,-0.016917326721915968,-0.8393774272666898,0.9405167288821752,0.03283230495100903,-0.8558819345186405,0.9392125272592804,0.08913166159826252,0.6323495897437054,1.0138341444714252,-0.07187928077439286,0.6670544078353647,0.9655139775365037,0.0,0.0,0.0,0.0
0.007297308208839592,0.04832531001013903,0.735150516317134,0.0006899990854065157,-0.5256375104591023,-0.0008112441865089286,0.8507079836127607,-0.019793429907818953,-0.8468921237538849,0.9532038528492828,0.03004315297718592,-0.85827255006722,0.9445824274841595,0.08525957307025128,0.6342152085957753,1.017464009757216,-0.07672199028023077,0.6694688411109178,0.9622310087385347,0.0,0.0,0.0,0.0
0.00895190958119622,0.04967013161684986,0.7353042734005372,0.00039532741266898026,-0.5258630204875538,-0.0005092037846393332,0.8505690260710468,-0.023975695657548243,-0.8569832767167209,0.9726277627758619,0.02599203080514534,-0.8611234766624144,0.9539803773981689,0.08092002688462993,0.6396741744569803,1.0193490219029777,-0.08287351306503611,0.6762410699052624,0.9547479192712898,0.0,0.0,0.0,0.0
0.011567211003528035,0.05173571122885373,0.7365326765070392,-0.00014787566766963543,-0.5264115443805901,0.00021462739098748504,0.8502298618671965,-0.03107402109675424,-0.8686307916516424,1.0004318017013427,0.019040368512544294,-0.8609161150764756,0.9661738920877948,0.07621432064030695,0.6528548470556483,1.0132935368104115,-0.09026977540501818,0.6932096916959544,0.9343364574575387,0.0,0.0,0.0,0.0
0.013778898318762,0.05342625786537537,0.7380921172752701,-0.0002158511950704149,-0.5258793752058012,0.00010408169649516674,0.8505591251103113,-0.02783569117829076,-0.8533091739767471,0.9623526483732058,0.015079900520724585,-0.8662117643056275,0.9819404259722104,0.06427512853906511,0.666830914166432,1.002057510800936,-0.07287930262060072,0.6782861003280864,0.9707555992878133,0.0,0.0,0.0,0.0
0.016223942567613357,0.05519485035860202,0.7395776455934502,-0.00039719563635899207,-0.5256025942532182,0.00022189393045421083,0.8507301016850155,-0.02557738051411946,-0.8487226928682307,0.9384091724971887,0.010317641053404145,-0.8704324179486509,0.9975369476042595,0.05399412999913784,0.6811905826059265,0.9913263829606161,-0.06020266372210563,0.6689069964219481,0.9984914808363903,0.0,0.0,0.0,0.0
0.018629028898030087,0.05695083257712965,0.7409139172426416,-0.0006581251857993633,-0.5255265801261471,0.00045928204517537514,0.8507768035813853,-0.02389973058398886,-0.8508688549500145,0.9247832261300343,0.005269379334632406,-0.8732017469240341,1.0112624565846313,0.04495376437644319,0.6949522576528165,0.9818295892520283,-0.053848834798401676,0.6627850352674647,1.0199736214908302,0.0,0.0,0.0,0.0
0.020811900654619624,0.05863047033544977,0.7421118109272299,-0.0009401955194520896,-0.5255421626812952,0.0007336405576123264,0.8507667206985617,-0.022566596344859104,-0.856568231462997,0.9170772724250925,0.00030398688776610804,-0.8746784141404331,1.0225184448948392,0.03658819815535037,0.7075997774470353,0.9734518293142078,-0.05155250874284289,0.6583847465736076,1.037736353593521,0.0,0.0,0.0,0.0
0.022690684991413176,0.060198554792985665,0.743198056200192,-0.0012089037952162781,-0.5255898585467909,0.0009997051305983074,0.8507366453456853,-0.021475776773871174,-0.8640697736022113,0.9125815176406562,-0.004371249510373701,-0.8750347157130552,1.0312070221930805,0.028618178992866904,0.7189660413954566,0.9659722259947884,-0.05143743769737807,0.654843439603781,1.0533566808733772,0.0,0.0,0.0,0.0
0.024249551345690915,0.061637450120952,0.7441987287118033,-0.001449077685289319,-0.5256428096615168,0.0012376664292145908,0.8507032414460513,-0.020535565352883586,-0.8724652300247013,0.9096855826460009,-0.008654751260808523,-0.8744466652886769,1.0375187979600666,0.02098121993294249,0.7290716944443463,0.9591680695860777,-0.05237337784359535,0.6516510122349053,1.0677819567985973,0.0,0.0,0.0,0.0
0.025511137603690656,0.06294108180265685,0.7451349417350616,-0.001656660065743742,-0.525690985605621,0.00144220382892779,0.850672770916369,-0.019648259869584635,-0.8813005390902923,0.907450250331257,-0.012510911328826481,-0.873096463178024,1.0417960778348692,0.013723399707934899,0.7380333823544152,0.952840673858097,-0.053739208247861596,0.6485170370398047,1.081580293937964,0.0,0.0,0.0,0.0
0.026517135022333715,0.06411141450399636,0.7460219625408675,-0.001833223279137637,-0.5257319658362615,0.0016154834907129733,0.8506467713472144,-0.01872493947224719,-0.8903586338434082,0.90534367341587,-0.015945239322214526,-0.8711657638584903,1.0444383789864167,0.006923628726227517,0.7460066011153852,0.9468291147919209,-0.055200370332657074,0.6452955614048871,1.0950946282427263,0.0,0.0,0.0,0.0
0.027315818550539064,0.0651559898116651,0.7468695816117168,-0.001982677333098994,-0.5257664920056255,0.0017626630604838617,0.8506248044194494,-0.017697794173870345,-0.8995455605915803,0.9030767173899507,-0.018987222384377674,-0.8688264220364968,1.0458423522121116,0.0006468016725161415,0.7531536376872662,0.9410182388659006,-0.05657826471282229,0.6419360546964966,1.108532309339524,0.0,0.0,0.0,0.0
0.02795479101329808,0.06608578263256844,0.74768287629789,-0.0021094120897084574,-0.5257966520899772,0.0018891240570657187,0.8506055855929376,-0.01652379833725531,-0.9088314345552787,0.900499496232009,-0.021677599054817608,-0.8662340381213997,1.0463692468537567,-0.005078591655862963,0.7596272813541484,0.9353405208920805,-0.05778415818187125,0.6384523961548013,1.122015061483788,0.0,0.0,0.0,0.0
0.028477079671079215,0.06691286616418024,0.7484628434320889,-0.0022177593963452857,-0.5258245248416354,0.0019998008617829847,0.850587826984869,-0.015184517863308784,-0.9182143107630437,0.8975363347074756,-0.024060044027389076,-0.8635283690018954,1.0463340422281955,-0.01025155008662678,0.7655559229708165,0.9297711788236559,-0.058780673763557764,0.6349031296818773,1.1356021208152698,0.0,0.0,0.0,0.0
0.028919041503374036,0.06764822608782901,0.7492062407484965,-0.002312035382181947,-0.5258510745554501,0.002099442150436589,0.8505709225125951,-0.01368532787810883,-0.9276821926539707,0.8941533262341461,-0.026175593869280207,-0.86083871993587,1.0460054119717073,-0.014875565915561186,0.7710270219915372,0.924326977361715,-0.059555984574586183,0.6313787473151062,1.1492902114270596,0.0,0.0,0.0,0.0
0.029308931085152524,0.06830071073593953,0.7499042927884328,-0.0023953118121556555,-0.5258770928503891,0.0021904897827508003,0.8505543765398291,-0.012049113487828365,-0.9371478898036842,0.8903650761557528,-0.028054603016250183,-0.8582864913288885,1.04560111638554,-0.018973021757861665,0.7760837535347258,0.9190846185847648,-0.060120470814433336,0.6279932229914815,1.1629861679968918,0.0,0.0,0.0,0.0
0.02966429217843753,0.0688756025973359,0.7505405288702853,-0.002469741065734801,-0.5259016908657446,0.0022742158770917564,0.8505387350766358,-0.010314766124280122,-0.9463568553727261,0.8862687330586194,-0.029715735411456102,-0.8559919238255798,1.0452819259706827,-0.022558648423101096,0.7806936320092029,0.9141999586783746,-0.06047123509968287,0.6248715373545162,1.1764370166611522,0.0,0.0,0.0,0.0
0.02998814488239188,0.06937496485486579,0.7510881028525289,-0.002534913396322716,-0.5259228802225674,0.002348727000386121,0.8505252387518843,-0.008522330395182177,-0.954763276700973,0.8821209848572136,-0.031162390789715787,-0.8540692347382581,1.0451245650520553,-0.02566839170028344,0.7847313965421961,0.9099481501133785,-0.06055909643547671,0.6221478865169259,1.1890997407798638,0.0,0.0,0.0,0.0
0.030264365459669106,0.06979862739960349,0.7515083479849057,-0.002587389999149864,-0.5259358947929975,0.0024099536616032165,0.8505168617403362,-0.006695830591670589,-0.9614384413315656,0.8784230349430936,-0.03238808010931323,-0.8526186849863617,1.0450900847238744,-0.02836020929022102,0.7879484390326988,0.9067477533187535,-0.06020209507354813,0.6200060035864531,1.1999271124613444,0.0,0.0,0.0,0.0
0.030457868156770127,0.07014759085375986,0.7517551507478814,-0.002619197845428919,-0.5259338707148193,0.00245065193270395,0.8505178997191528,-0.0048203595776348225,-0.9651242603482024,0.8759562383397173,-0.03338323988290331,-0.8517057252971647,1.0450066756589973,-0.030760693164792866,0.7900059488584555,0.9051320482878425,-0.058999857408000636,0.6188530527126198,1.2070651235263872,0.0,0.0,0.0,0.0
0.03053108542746647,0.07042625865351733,0.7517956092437894,-0.002621218409661033,-0.5259109479075594,0.0024651930602006527,0.8505320257980866,-0.0028602137200603476,-0.9646669677101672,0.8755962213422633,-0.034151025063449456,-0.8513275273679414,1.044643923820215,-0.03301790878355749,0.7906268044768702,0.9055185716720051,-0.05633530899760521,0.6196939409151552,1.2076402828378732,0.0,0.0,0.0,0.0
0.03047127195578151,0.07063242811979582,0.7516299312852879,-0.0025929151232155644,-0.5258671338384152,0.0024525851540471467,0.850559239069094,-0.0008264199764477409,-0.960056376582036,0.8773043095763389,-0.03468268251746101,-0.851438205786364,1.0439055945837032,-0.035119075769785235,0.7897697448214486,0.9079221700288971,-0.05221980035581736,0.6224835529674903,1.2016382700075765,0.0,0.0,0.0,0.0
0.03029117363328212,0.07075858638734861,0.7512921163956431,-0.00254236097354769,-0.5258077482585061,0.0024164030794380995,0.8505962081200206,0.0012175875878790853,-0.9524368582601687,0.8801579698919899,-0.03496081787249104,-0.8519480423353986,1.042830525927363,-0.03690113324406911,0.7876362176426164,0.9119473661038404,-0.04728111446142093,0.6261482619201496,1.191898131831947,0.0,0.0,0.0,0.0
0.030001169139557117,0.07080341993744522,0.7508313869737611,-0.002475759074595783,-0.5257390375456402,0.0023604488549929855,0.8506390323155829,0.0032299378151313257,-0.9430544510911971,0.8833452235434813,-0.034984710199457786,-0.8526873580362485,1.0413859933231135,-0.038263272840035646,0.7845097371543812,0.9170692587543956,-0.04193255992593649,0.6302315672432011,1.1802414845755669,0.0,0.0,0.0,0.0
0.02959130273306604,0.07076949534871486,0.7502920581017556,-0.002395101246088164,-0.5256636763171437,0.0022861992484924224,0.8506860385499238,0.005207638094827806,-0.9328235173512541,0.8863296170366384,-0.03475948474658381,-0.853435272908895,1.0393844024444867,-0.03918533111838274,0.780586180842474,0.9228599868981578,-0.03636844195993353,0.6345067082332044,1.167683265967537,0.0,0.0,0.0,0.0
0.0290307478964828,0.07066108365892046,0.7497089426735183,-0.0022992297176470133,-0.525580772220757,0.002193064477273293,0.8507377715152518,0.007163731400828875,-0.9222781620993603,0.8888191654310522,-0.03429082150633875,-0.85393473787246,1.0364908123705312,-0.03969935281963008,0.7759434239593536,0.9290281127340969,-0.030661278814501508,0.6387994450488685,1.1547326586234872,0.0,0.0,0.0,0.0
0.02827296432075848,0.07048441474668445,0.7491083839799231,-0.002184715198622858,-0.5254868925686321,0.002078277049161196,0.8507963525559866,0.009107212884948016,-0.9116730500880011,0.890684006057145,-0.03358518595734762,-0.853901219667126,1.0322542224802629,-0.03988777293376603,0.7705681926115056,0.9353983377600397,-0.024840451278270205,0.6429447555021179,1.141608478176664,0.0,0.0,0.0,0.0
0.02726144848711072,0.07024900934183215,0.7485104292070184,-0.0020471313013076505,-0.5253757805796567,0.001938378059730963,0.850865642228107,0.011034055330497047,-0.9011104765430844,0.89188249427649,-0.032657007700671856,-0.8530303834968598,1.026140008392824,-0.03987289778536264,0.764382769291093,0.9418772708456294,-0.01892320090899834,0.646784870782503,1.1283740243159188,0.0,0.0,0.0,0.0
0.02593577270283938,0.06996980101480296,0.7479301570560235,-0.0018814072384950211,-0.525238781832163,0.0017696056526802545,0.8509509685417265,0.012933740452951877,-0.8906348509892249,0.8924226891322999,-0.031535562271454494,-0.8510058831214005,1.017559267517309,-0.039828545083742624,0.7572762609010861,0.9484319886554465,-0.01292541650547905,0.6501746680024508,1.115015743274781,0.0,0.0,0.0,0.0
0.024239202889030503,0.06966866451595197,0.7473772167125707,-0.0016820469463181874,-0.525065499811952,0.001568257630823973,0.8510587125417955,0.014803437812871146,-0.8802826781006481,0.8923564634768538,-0.03027027420226816,-0.8475191114235776,1.0059129839839966,-0.03998516327687372,0.7491316782290316,0.9550818590181607,-0.006853893208784044,0.6529873655527199,1.1014897046389298,0.0,0.0,0.0,0.0
0.022130212056746985,0.06937398274625631,0.7468529955541579,-0.001443657290307724,-0.5248453370998543,0.0013312467313493232,0.8511953452412135,0.016664883204581992,-0.8700878180722905,0.8917988283691604,-0.028931069855590078,-0.8423127729020438,0.9906749459680044,-0.04061202357538221,0.7398519605544585,0.9619027133178292,-0.0006863987311377714,0.6551314836024886,1.087758576591942,0.0,0.0,0.0,0.0
0.019600670414427892,0.06911634719929453,0.7463446112339446,-0.0011630266504429893,-0.5245703920628628,0.0010582425073340236,0.8513656272500202,0.018575901141335668,-0.8600504750358927,0.8909621488573082,-0.027601789569219923,-0.8352650509329501,0.9715477602503876,-0.04194466290347105,0.7293827501209822,0.969042754820763,0.005667801767737094,0.6566038532497247,1.0738415035703708,0.0,0.0,0.0,0.0
0.016704254016749232,0.06891914479166557,0.7458146819040937,-0.000842482028200289,-0.5242429961339782,0.0007536191951048937,0.8515679675085311,0.020632949792495445,-0.8500749365144761,0.890190843021095,-0.02635901895736835,-0.826531233784853,0.9487330166935676,-0.04407939153127555,0.7177538082515964,0.9767652516854867,0.012428380060421688,0.6576266224035631,1.059903063779337,0.0,0.0,0.0,0.0
0.013596998562357864,0.06877964699569128,0.745185824366286,-0.0004974199755211898,-0.5238787341147543,0.0004384938329092898,0.8517925993097434,0.022934903483704094,-0.8399057096577449,0.8898739386678128,-0.02525257129902631,-0.8168172817073467,0.923422159646239,-0.04671548819289806,0.7050763490969819,0.9854947924006012,0.020211235879397948,0.6589534100030969,1.0463646273403582,0.0,0.0,0.0,0.0
0.01057241099569811,0.06862425653289388,0.7443287380700653,-0.00014553850760071663,-0.5234425012277234,0.00011278298713569135,0.852060980216208,0.025440544246494324,-0.82891447057042,0.8893355796873319,-0.02410199625250995,-0.8082401007898836,0.8988959846189002,-0.04921865841214359,0.6915009253767551,0.9956988302531301,0.030297063815267727,0.6623295983694609,1.0333914270728257,0.0,0.0,0.0,0.0
0.008045521493714309,0.0684488658561284,0.7433094918067961,0.0001512469644600184,-0.5229842902200156,-0.00014930283687206077,0.8523422945132344,0.028118486569167572,-0.8178690943621572,0.8882104072404188,-0.023070110567307463,-0.8022577089911443,0.8788258272267009,-0.05078138744369164,0.6785043938751031,1.0063115557219908,0.04417606076001818,0.6685360708543417,1.0216082172639511,0.0,0.0,0.0,0.0
0.00640004698952475,0.0683189663491519,0.7424462852556993,0.00029784991211206376,-0.5225809974991865,-0.0002765414845440418,0.8525895471227596,0.030004847935095953,-0.8094115800696613,0.8856357966786733,-0.022455928411982115,-0.7992232084351844,0.8661138237439666,-0.05097804006580762,0.6686922236969532,1.0144601222934473,0.06037837472052532,0.6763311597710778,1.0116003304238275,0.0,0.0,0.0,0.0
0.006389005492162867,0.06826894709509529,0.7424121626220399,0.0003566690112136495,-0.5225754629031706,-0.0002802717669259821,0.8525929156440898,0.030022441629073974,-0.8094232776980264,0.8856458419128201,-0.022362335581040695,-0.7992799720555226,0.865972681608226,-0.05098029243708552,0.6686232685553994,1.0143994016736004,0.06037557860765426,0.6763637831655529,1.0116107687540323,0.0,0.0,0.0,0.0
0.006389005492162867,0.06826894709509529,0.7424121626220399,0.0003566690112136495,-0.5225754629031706,-0.0002802717669259821,0.8525929156440898,0.030022441629073974,-0.8094232776980264,0.8856458419128201,-0.022362335581040695,-0.7992799720555226,0.865972681608226,-0.05098029243708552,0.6686232685553994,1.0143994016736004,0.06037557860765426,0.6763637831655529,1.0116107687540323,0.0,0.0,0.0,0.0
0.006389005492162867,0.06826894709509529,0.7424121626220399,0.0003566690112136495,-0.5225754629031706,-0.0002802717669259821,0.8525929156440898,0.030022441629073974,-0.8094232776980264,0.8856458419128201,-0.022362335581040695,-0.7992799720555226,0.865972681608226,-0.05098029243708552,0.6686232685553994,1.0143994016736004,0.06037557860765426,0.6763637831655529,1.0116107687540323,0.0,0.0,0.0,0.0
0.007006798385101055,0.06823620873951079,0.7423636977776111,0.0003886426350154289,-0.522825874120745,-0.00025444319372572223,0.8524393758886566,0.03003900565817617,-0.8111916061242758,0.8903013598682095,-0.02239388595355293,-0.8011720414472656,0.8708521093951456,-0.05110571684118786,0.6710407734368332,1.0145127252395871,0.06101609438562521,0.678864800872529,1.0120575522033362,0.0,0.0,0.0,0.0
0.008198931545207983,0.06824108005723963,0.7422737465278376,0.0003974769024677193,-0.5231102568282233,-0.00024337282248797275,0.8522648895636212,0.03005459390561065,-0.8159441182909064,0.900689116721488,-0.022491537309256418,-0.8059633973991052,0.8813475547660885,-0.05168841578412739,0.6751844668835746,1.014667691295042,0.061706549711368304,0.6830804236963453,1.0122124277387887,0.0,0.0,0.0,0.0
0.009964490621404063,0.06825450112320668,0.7421849648871108,0.0003940032392822057,-0.5234396732590088,-0.00025312692097601843,0.8520626087012101,0.03014981022306255,-0.823272063733476,0.9163469508776496,-0.022572500072022595,-0.8134083663788007,0.8972144496763252,-0.052648693489823636,0.6813455075987084,1.0143298654226376,0.06255789597039939,0.6892621276648592,1.0117403090250507,0.0,0.0,0.0,0.0
0.012323841598136006,0.06820136335213157,0.7422176888659792,0.00039350348966871504,-0.5238241366085468,-0.0003041295094167762,0.8518262889618726,0.03055854410549815,-0.8324452870653014,0.9366375700858105,-0.02239945354416706,-0.823239928116915,0.9184531624172868,-0.053697956586990746,0.6902606255586021,1.0120883536561394,0.06389917267572252,0.6980913876623527,1.0096848669562761,0.0,0.0,0.0,0.0
0.01538453578291005,0.06795489976596662,0.742822576689054,0.0004348695680015046,-0.5243031296687923,-0.00045229490880805865,0.8515314642086245,0.03172403881807656,-0.8416942410788556,0.9608298352375028,-0.02151320702775269,-0.8345772021747299,0.9454748254559991,-0.0545513737398258,0.7046544928761689,1.0033395927361348,0.0660516452922054,0.712070947911237,1.0021434250573564,0.0,0.0,0.0,0.0
0.017998816676231037,0.06797100616781074,0.7434312314360707,0.0008855173021792775,-0.5243629813141656,-0.0008928730756561831,0.8514939121708964,0.0327464218274053,-0.8502541701969679,0.9823860807957681,-0.019720012033710918,-0.831651915998707,0.9264195841455587,-0.037841372380258836,0.6919493002997322,1.020986897958573,0.060413117599659866,0.7217230373358446,0.9927411407988253,0.0,0.0,0.0,0.0
0.020542598987215232,0.06788417619366971,0.7441125895714926,0.001280651554661383,-0.5244773978113365,-0.0012755987482233305,0.8514224521143885,0.033902538571626666,-0.8575656114913245,1.002171854896848,-0.016401628956670085,-0.8352807470614307,0.9138062388153075,-0.022874484856897956,0.6815427449576563,1.0363321487773591,0.05616041046384028,0.7319909506271745,0.9830312138929979,0.0,0.0,0.0,0.0
0.022821760521160465,0.06771337638902909,0.7447937313908531,0.0015837300348528073,-0.524638596618756,-0.001562170999853756,0.8513221448775111,0.03505537682940773,-0.863258174572298,1.0188946851868625,-0.01330517465920519,-0.8425423816753657,0.9065100791258556,-0.011531595564378869,0.6739189602061622,1.0505573287057233,0.05379404852323258,0.742081805267656,0.9739216851471463,0.0,0.0,0.0,0.0
0.024733832722444254,0.06749634489400325,0.7454563466434357,0.0018218990731634639,-0.5248147913622604,-0.0017839234096639009,0.8512126250640452,0.03616980318533868,-0.8672252952687962,1.032105385409923,-0.010811819044850639,-0.8514477156300713,0.9023330651343195,-0.0026608965179373695,0.668055159755474,1.064246777287819,0.052631580398445364,0.7513124736656707,0.9655830276193866,0.0,0.0,0.0,0.0
0.026256584040437275,0.0672665895905933,0.7461080209788624,0.0020178909543071668,-0.5249865008081118,-0.001963703106508157,0.8511058958528371,0.037203102848639216,-0.8695616890001445,1.0419292496426218,-0.008769314037564334,-0.8610034611077892,0.8997706280436634,0.004817635896696173,0.6630776134824573,1.0776134616453397,0.05208310013392744,0.7594303366787247,0.9578859124782507,0.0,0.0,0.0,0.0
0.027416686521137098,0.06705099806338902,0.7467595314499961,0.002184674918503057,-0.525144080574763,-0.0021134226514317794,0.8510079055317193,0.03810868825643783,-0.870493812953946,1.0488011913140203,-0.006936789832498598,-0.8707674705460638,0.8978850023680047,0.011545111867485094,0.6584168083539815,1.0907627893314242,0.051746202774379954,0.7664397708040918,0.9506295450347821,0.0,0.0,0.0,0.0
0.028265624227772755,0.06686934157700894,0.7474165903465682,0.0023289386916374895,-0.5252841967353432,-0.0022392479636428857,0.8509207216146714,0.03884933510832018,-0.870307913066157,1.053280197228465,-0.005146557849694922,-0.8805670295585023,0.8961281757759988,0.01784905473505108,0.6537502448149326,1.103771005813132,0.051363995778215966,0.7724645560939386,0.9436384044152146,0.0,0.0,0.0,0.0
0.028863428033323566,0.06673430781533124,0.748079057108454,0.002454310162123128,-0.5254072156580369,-0.0023451104224927986,0.8508441305863275,0.0394040317279546,-0.8692957228644315,1.0559337905661428,-0.003325816505521853,-0.8903510760639015,0.8942042067035592,0.023883039583131933,0.6489226551772617,1.1167044695131654,0.05078342611638251,0.777668735879438,0.9367915092750295,0.0,0.0,0.0,0.0
0.029268866544656286,0.06665219605127143,0.7487426779119135,0.002563233805180414,-0.5255154221896577,-0.002434260637304614,0.8507767305518149,0.039768359245363004,-0.8677219161263552,1.0572754817486214,-0.001467491944518279,-0.9001226704362313,0.8919684831428326,0.029715330378477837,0.6438842371063505,1.1296207809951595,0.04992526000835043,0.78221602401245,0.9300220515742997,0.0,0.0,0.0,0.0
0.029534368307745234,0.06662429820925882,0.749400899169945,0.0026578023242323006,-0.5256118400811299,-0.0025096637845840168,0.8507166574371412,0.0399506505839168,-0.8658107300905145,1.0577393847681478,0.00040532429174307814,-0.9099106112699538,0.8893576419366122,0.035377475034114016,0.6386513211371536,1.1425641172800656,0.0487611755828986,0.7862504647325119,0.9233076518973138,0.0,0.0,0.0,0.0
0.029703973265229524,0.06664877465217238,0.7500457715006705,0.0027399593286292125,-0.52569943331378,-0.0025738524154654283,0.850662079629856,0.03996603349951928,-0.8637467903494953,1.0576782967309557,0.0022657454444702406,-0.9197517439025056,0.8863456119774691,0.04088899878674297,0.6332844719421884,1.1555562414446225,0.04729457372416927,0.7898866437343804,0.9166619099385765,0.0,0.0,0.0,0.0
0.029812770933953004,0.06672276394709611,0.7506676590531092,0.002811371542488995,-0.5257805099675367,-0.002628580307039103,0.85061156945688,0.03982982682193266,-0.8616846142029865,1.05737333228905,0.004098671224945726,-0.9296628899636419,0.8829244529999827,0.04626790932079643,0.627876801449763,1.1685784191189426,0.045543909668184404,0.7932015384693959,0.9101331486414445,0.0,0.0,0.0,0.0
0.029886440587194966,0.06684446988411843,0.7512537493662285,0.0028731336474595408,-0.5258562165238138,-0.0026744532690258865,0.8505644196332313,0.03955126088910861,-0.8597611747162297,1.0570441484597668,0.005907600788385453,-0.9395849759616535,0.8791131241198669,0.05152978123436272,0.6225453965206096,1.1815336988538365,0.04352861696666603,0.7962222391506001,0.9038140912028263,0.0,0.0,0.0,0.0
0.029939695677389792,0.06701491156467247,0.7517855132139879,0.0029253560602635503,-0.5259261125270271,-0.002710633276374784,0.850520910337524,0.03912843323253985,-0.8581055913177119,1.0568491782090539,0.007712634294542045,-0.9492878795894981,0.875001114330483,0.05667164522800542,0.6174221377566895,1.1941724926599981,0.041259104339756075,0.7989057197941709,0.8978648931274785,0.0,0.0,0.0,0.0
0.029972969663389266,0.06723879999143256,0.7522355965217584,0.0029665875341116023,-0.5259879695930124,-0.0027346533887619012,0.850482437721477,0.0385458849015416,-0.8568398441966893,1.0568674424924864,0.009536370890363707,-0.9582431076196739,0.8708318455085869,0.061631345871829356,0.6126520067129788,1.2059581194978553,0.03873533323197904,0.8011114151011772,0.8925486060090592,0.0,0.0,0.0,0.0
0.029968326806428598,0.06752365671367218,0.7525656820540785,0.0029929773081984524,-0.5260381139612302,-0.0027422503446359256,0.8504513065484652,0.03777683209497559,-0.8560661953077889,1.0570634883960226,0.01137569924898655,-0.9655164847025703,0.8671120737546824,0.06621359609222702,0.6084360445948229,1.2158468239779086,0.0359631189547539,0.8025799978418139,0.8882656744687254,0.0,0.0,0.0,0.0
0.029889651583489888,0.06787636074491027,0.7527298700549906,0.0029973287481907984,-0.5260727480735703,-0.0027270639199190863,0.8504299164993396,0.03679173171231483,-0.855843162007974,1.0572657065762812,0.013171419885465848,-0.9698166920046957,0.8646796868063058,0.07000017054769797,0.6052071065388942,1.2219719998030483,0.032995318785874125,0.8029616867527507,0.8855348385979638,0.0,0.0,0.0,0.0
0.02969938360089022,0.06829893246700926,0.7526942748257959,0.0029703188869016203,-0.5260915743253718,-0.002682370022970289,0.8504185072778119,0.03557284906285274,-0.856155767247217,1.05723881091988,0.014824440104853624,-0.9699548338880815,0.8645498863740623,0.07237546765975304,0.6040076216259764,1.2214164411947166,0.029946009693238577,0.8019832401715404,0.8847800897176381,0.0,0.0,0.0,0.0
0.029385442856699584,0.0687986485534954,0.7524566320544885,0.0029103188425503084,-0.5260951227245623,-0.0026066734683547325,0.8504167549755189,0.034097044362857175,-0.8569763745849921,1.0569075101476935,0.016306851908133396,-0.9659258486738804,0.8666922670305219,0.07331703492632173,0.6048376140227322,1.2141939210571742,0.026780167546177614,0.7995922630505611,0.8860246055883485,0.0,0.0,0.0,0.0
0.02896216759363339,0.06938837488758051,0.7520471581210523,0.00282376575409712,-0.526084252025262,-0.0025038633542528834,0.850424080554102,0.032335047772130115,-0.8582678146458654,1.0563651720244374,0.017677365536654065,-0.9589160929250666,0.870057308184345,0.07340367899147408,0.606653226161673,1.203235662795499,0.023309098502946365,0.7959655285409637,0.888872346304047,0.0,0.0,0.0,0.0
0.028443055535170236,0.07007622318507052,0.7515102211249471,0.0027154324540053947,-0.5260627406837942,-0.0023776005023108133,0.8504381025722532,0.03026924951984442,-0.8599162733909111,1.0556444622008987,0.018971884312890805,-0.9502090835193517,0.8737810181298985,0.07302725442191531,0.6090094717269042,1.1904122773037353,0.0194027418826253,0.791371854948008,0.8927996681253536,0.0,0.0,0.0,0.0
0.027823458332621356,0.07086876188431926,0.7508844007394483,0.002587223643703649,-0.5260338685666351,-0.002229929994156361,0.8504567612799951,0.027883115967072273,-0.8617554391194769,1.054635456016114,0.020177731456963367,-0.9407267315055404,0.8773276721511478,0.07236167984927053,0.6116858681666388,1.1767627745667562,0.014983002643215212,0.7860002055459557,0.8973813625207385,0.0,0.0,0.0,0.0
0.027080973907831877,0.07177309880556404,0.7501981786861877,0.002439402108466697,-0.5259992064523904,-0.0020621627398030033,0.8504790600677028,0.025158154271576243,-0.8635894765590418,1.0531052372054002,0.02126131740335893,-0.930990664230499,0.8804290176181538,0.07145347451584266,0.6145175731493507,1.162811168582505,0.00999249930420824,0.7799285409946723,0.9023242902904403,0.0,0.0,0.0,0.0
0.02618114600599861,0.07279609383649148,0.749471382249238,0.002271854832530136,-0.5259584656580636,-0.0018755834185230605,0.8505051518157168,0.02207782604136453,-0.8652062232864657,1.0507363848690339,0.022198565107787786,-0.9212372798230444,0.8829844711173389,0.07030277636841462,0.617357128971374,1.1487876512088906,0.00439011474223276,0.773148944899439,0.9074412245187469,0.0,0.0,0.0,0.0
0.02508334243299345,0.07394150243970037,0.7487179847371466,0.002085138843470967,-0.5259100453170837,-0.0016720765181537254,0.8505359960581937,0.01863667965372733,-0.8663783572536083,1.0471537875568626,0.022993481297049576,-0.9115505384299791,0.8849870812403249,0.06891472822332721,0.6200770322545587,1.1347636184681378,-0.0018345351730319707,0.7656051233262093,0.9126188434684824,0.0,0.0,0.0,0.0
0.023746025075597633,0.07520596873066025,0.747948682638917,0.0018813841961834114,-0.5258519896403588,-0.0014547891389863831,0.8505727652431292,0.014852609744349723,-0.866858180855016,1.0419405032301545,0.023686515009119374,-0.9019620146026486,0.8864910028320802,0.06733088415436167,0.6225749312189537,1.1207261255929708,-0.008639116184792925,0.7572279413922063,0.9177949342882502,0.0,0.0,0.0,0.0
0.022132454335551423,0.07657461060455759,0.7471727159835179,0.001665174079742343,-0.5257832834049672,-0.0012288853397113548,0.8506160449509509,0.010780317335990792,-0.8663744786144641,1.034655562907759,0.02435637469394198,-0.8925105514894431,0.8876180803565229,0.06565561134204342,0.6247719677670239,1.106616229641055,-0.015908929942032322,0.7479672989621589,0.922946297394555,0.0,0.0,0.0,0.0
0.02021856502247972,0.07801701794008553,0.7463986254690097,0.0014445489523324344,-0.5257056344761668,-0.0010025306778531874,0.8506647365975477,0.00652384713077373,-0.8646414093769584,1.0248718688624021,0.02511394225566125,-0.8832698073521508,0.8885992187390822,0.06409431704590997,0.6266066996549424,1.0923510510017858,-0.023450817641833037,0.7378221076306043,0.9280856756353413,0.0,0.0,0.0,0.0
0.018005167200837405,0.07948483036005462,0.7456332652882669,0.0012323764010310097,-0.5256260626209501,-0.0007884741533459518,0.8507144655232521,0.002245529435703807,-0.8613928376646093,1.0122581948527403,0.026079552797689424,-0.8743565426497478,0.8898498049874941,0.06302601254745825,0.6280324318263167,1.0778462312291834,-0.03101536240839846,0.7268687974729556,0.9332686811988884,0.0,0.0,0.0,0.0
0.015536891186267984,0.08091252386174232,0.744877061667393,0.0010487647342043525,-0.5255602928503211,-0.0006076461879819854,0.8507554933338528,-0.0018300541348659927,-0.8564637500155333,0.9967390671687437,0.027330517969210617,-0.865936605452296,0.8920710540034906,0.06313143242011107,0.6290323568443327,1.063057336123812,-0.03837206525159635,0.7152785441317699,0.938621660803058,0.0,0.0,0.0,0.0
0.012928161404309278,0.08222537464476767,0.7441084595083872,0.000930034496601833,-0.525526178262656,-0.000518723633090268,0.8507767638589306,-0.005365869714191987,-0.8499782178927716,0.9788004234085046,0.028880232272560282,-0.8583089499728423,0.8963092502189529,0.06537340768305755,0.6297152544154478,1.0480601475115479,-0.045655306521622134,0.7031852668543122,0.9443987348223754,0.0,0.0,0.0,0.0
0.01035886619283025,0.08337062580144376,0.7432756465427152,0.0009133675053027267,-0.5255730288553476,-0.0005235326823408721,0.8507478375013049,-0.008247029573057008,-0.8424520855190246,0.9595786650436465,0.03150059694243518,-0.8521882716854938,0.9039781235730514,0.07231686331665615,0.6302808209722576,1.032829626677585,-0.05282476426080478,0.6909607089919232,0.9511292146648266,0.0,0.0,0.0,0.0
0.008393225355390856,0.08433486554006149,0.7423120804202641,0.0010544932305307524,-0.5257289136599649,-0.0007193825520998689,0.8506512092947871,-0.010227017241446966,-0.8364334482161155,0.944101885206485,0.0344725765249081,-0.8487832507107386,0.9164362763243551,0.08576325433847062,0.631494947969965,1.0180074782911903,-0.061042460777671205,0.6796393583659569,0.9587843601630109,0.0,0.0,0.0,0.0
0.007359274004833945,0.08490933682304823,0.7413882936663813,0.001368085064575655,-0.5261259628515513,-0.0011209887045792748,0.8504048112170511,-0.01076119288799838,-0.8319223096491072,0.9341131878170231,0.038105269821238665,-0.8518185556262869,0.9361151193741817,0.10489906806394061,0.6332643851978175,1.0050019487537456,-0.06931792974063007,0.6712986595907817,0.9665180217551717,0.0,0.0,0.0,0.0
0.007325523473107725,0.08501654330968325,0.7413460819449282,0.0012649653046048917,-0.5261506172764708,-0.0011332732902502752,0.8503897009571649,-0.010921053787093623,-0.8319765614052332,0.933996764382639,0.03810765016607075,-0.8518284202675097,0.9361251752170362,0.10491292016719198,0.6332825926078104,1.0050056819728541,-0.0693287280586273,0.671219030406958,0.9664648341157632,0.0,0.0,0.0,0.0
0.007325523473107725,0.08501654330968325,0.7413460819449282,0.0012649653046048917,-0.5261506172764708,-0.0011332732902502752,0.8503897009571649,-0.010921053787093623,-0.8319765614052332,0.933996764382639,0.03810765016607075,-0.8518284202675097,0.9361251752170362,0.10491292016719198,0.6332825926078104,1.0050056819728541,-0.0693287280586273,0.671219030406958,0.9664648341157632,0.0,0.0,0.0,0.0
0.007089470509822523,0.0855958085422721,0.7410980171251278,0.0011398720468354267,-0.5257591207622403,-0.0010910796447675191,0.8506320339443146,-0.012433767110566348,-0.8353654977942051,0.9363723146592078,0.036605009854777805,-0.8522925104939918,0.9342258536129566,0.10168748708939741,0.6304368694174627,1.0088278747957713,-0.07179834700383464,0.6684380595021697,0.9660996109528787,0.0,0.0,0.0,0.0
0.007390673768655055,0.08640282606658897,0.7408592883846731,0.0009887972867654658,-0.5255593137063009,-0.0009976018343080134,0.8507558021236574,-0.01467540261885188,-0.8409338456260176,0.9437715777004209,0.03441273094410176,-0.8537391681467039,0.935649635793188,0.09797101002894443,0.629520236679653,1.0131493008039028,-0.07566137192221778,0.6677953238490233,0.9646784835957716,0.0,0.0,0.0,0.0
0.008340381613142229,0.08741700293001912,0.7407317614517374,0.0007902397425305534,-0.5255920935892651,-0.0008396144654445246,0.8507359294899633,-0.017625758684612712,-0.8486063785041708,0.9567363751571483,0.03155426826244977,-0.8561581332971415,0.9411302564655394,0.0940993690994521,0.6313991467785816,1.0169313985341082,-0.08065705907982794,0.6702829289813559,0.9612893138782278,0.0,0.0,0.0,0.0
0.010018679390469182,0.0888183037325702,0.7408803248102751,0.0004926895085187796,-0.5258193325687119,-0.0005434437455002026,0.850595962500962,-0.021933816195411092,-0.8589214627655116,0.9765301455666364,0.02738569780584757,-0.8590579106000269,0.9506306074737968,0.0895232400572773,0.636885414844077,1.0190881695257177,-0.0872665878852325,0.6770679576374126,0.9535642722264457,0.0,0.0,0.0,0.0
0.012664362001549655,0.09096795345453201,0.7421129839690517,-4.420597184953787e-05,-0.5263631999285271,0.00016259360710877465,0.8502598152154155,-0.029208093611128888,-0.8708471131311027,1.004824699323854,0.020274091584109716,-0.8589229981580646,0.9629565730051821,0.08429154105551813,0.6501883302179589,1.0133333556384423,-0.09546693046573528,0.6940520906971835,0.9326359885261248,0.0,0.0,0.0,0.0
0.014884295945409664,0.09273421146072955,0.7436987592007731,-0.00011680271233522815,-0.5258419246595003,3.9337739111583466e-05,0.8505823035309757,-0.02605771315775581,-0.8548191155664947,0.9656371316757919,0.01616240741581895,-0.8639982778665999,0.9785198730824388,0.07188307531251328,0.6643882584706144,1.0022204617211377,-0.07728281076845393,0.6790875410245463,0.969635668194497,0.0,0.0,0.0,0.0
0.017347496494503168,0.09457761011355585,0.745203204205251,-0.00029724162739010315,-0.5255688360251075,0.00014425360522631636,0.8507510149494538,-0.023905052106744845,-0.8497967173312976,0.941020448520139,0.011249145304915931,-0.8681238044360743,0.994067066924613,0.0610956863857364,0.678952046807471,0.9916385228102813,-0.06403819424432325,0.6697164581738899,0.9977523229070031,0.0,0.0,0.0,0.0
0.019776327716440934,0.09640352812533756,0.746552649028242,-0.000555936463404168,-0.5254938850124454,0.0003699609815687138,0.8507971149916104,-0.022323282126754943,-0.8516993347787816,0.9270360215211011,0.006057327562606397,-0.87086053832664,1.0078190608347413,0.05156522073273248,0.6928994195785714,0.9822993670539532,-0.057413947674406926,0.6636016148722779,1.0194450476930743,0.0,0.0,0.0,0.0
0.021985615088234784,0.09814466894019479,0.7477598550156359,-0.0008371563030019457,-0.5255107764756987,0.0006359408937901468,0.8507862942927631,-0.021068872035214577,-0.8572683582131954,0.9191580739676315,0.0009604963052491792,-0.8723285779049337,1.0191346796303444,0.04277538000552279,0.7057149658450477,0.9740666358190162,-0.055033042711392734,0.6592154902192139,1.0373150577755446,0.0,0.0,0.0,0.0
0.023891862688304545,0.0997638336860355,0.7488525635680455,-0.0011068520921441677,-0.5255610110858506,0.0008971361434330495,0.8507547200289897,-0.02003796488007779,-0.8647058022581449,0.9145981618762837,-0.0038289761759495618,-0.8726878196905887,1.027902099835389,0.03446823443707378,0.7172316918671793,0.9667095179617551,-0.05492766071552457,0.6557030844110602,1.0529865328381856,0.0,0.0,0.0,0.0
0.025478016445787854,0.10124266896856224,0.7498575403974628,-0.0013496707523441916,-0.525617226264365,0.0011336474596095388,0.8507193571833503,-0.01914051321910303,-0.8730765661210286,0.911696006986728,-0.008207115671594854,-0.8721132919951413,1.034308887069812,0.026591134309518226,0.7274663350520538,0.959999838207705,-0.05590680028408313,0.652554134216547,1.0674346532028627,0.0,0.0,0.0,0.0
0.02676569413012945,0.1025756043265055,0.7507964002257737,-0.0015610185746529164,-0.5256686955778183,0.001339567255411204,0.8506868937923593,-0.018281293560764016,-0.8819106321119244,0.9094819882346703,-0.0121380266628347,-0.8707876758247834,1.0386945668954255,0.019185880217761873,0.7365329907246173,0.9537392278842106,-0.05731646084456907,0.649473859042013,1.0812427281100654,0.0,0.0,0.0,0.0
0.027795796800608782,0.10376610352863752,0.7516847183045179,-0.0017416520712995444,-0.5257128278101165,0.0015158112472548847,0.8506589749366169,-0.017373311405637,-0.8909809206853221,0.9074079467726812,-0.01562800596097241,-0.8688908502310875,1.0414527855719702,0.012311271637288531,0.7445894040997035,0.9477733049043664,-0.05881021005633778,0.6463117623185416,1.094761667504554,0.0,0.0,0.0,0.0
0.028616048068046945,0.10482363521621331,0.7525325703037333,-0.0018947169504342587,-0.5257505244027582,0.0016661891872055009,0.8506350686113846,-0.01635020299982409,-0.9001867726231189,0.9051766075926168,-0.01870823533420884,-0.8665909919154793,1.0429727424762327,0.006005811182540706,0.7518031159242954,0.9419949024961166,-0.06020887591289127,0.6430136855150174,1.10820273267117,0.0,0.0,0.0,0.0
0.029273645658960578,0.10576083178886161,0.7533454630963755,-0.0020245110229702586,-0.5257834797170575,0.0017958696226837983,0.8506141361769383,-0.015171815490963247,-0.9094948453888207,0.9026317329331998,-0.021423152016283278,-0.8640407717114241,1.0436103379557118,0.00028549212422018366,0.758327690214572,0.9363390692064552,-0.06142170079586103,0.6395898816425604,1.1216889794491414,0.0,0.0,0.0,0.0
0.029811400721237783,0.10659126301531018,0.7541247919428885,-0.002135498620168977,-0.5258133257755946,0.001909915124383696,0.8505951671075197,-0.013822824921945987,-0.9189014751436001,0.8996936711972735,-0.023820512468806385,-0.8613773089805008,1.043676362695851,-0.004856089326644142,0.7642913451747287,0.9307821360365675,-0.062410344291471874,0.6360961093584925,1.1352797654389346,0.0,0.0,0.0,0.0
0.03026574583360723,0.10732762749602148,0.7548675355122959,-0.002231522219779944,-0.5258415934729577,0.0020120028976952555,0.85057721032646,-0.01230896948623441,-0.9283915222756016,0.8963296768919998,-0.025943143125158642,-0.8587254435909893,1.0434336744388586,-0.009446534260963002,0.7697895922938292,0.9253468368341569,-0.06317237115544921,0.6326221799219826,1.1489718556891588,0.0,0.0,0.0,0.0
0.03066499028517926,0.10797985216695212,0.7555650726141283,-0.002315951157311431,-0.5258686466871444,0.0021049789856860384,0.8505600342510445,-0.010656408728145841,-0.9378780566386199,0.8925529565170321,-0.0278250636728017,-0.8562055602460402,1.0430985074322952,-0.01351021870148265,0.7748642414617574,0.9201105919200356,-0.06371701045646952,0.6292805266243984,1.1626714667412579,0.0,0.0,0.0,0.0
0.031026961432450564,0.10855436503568867,0.7562009785155012,-0.0023905841874192644,-0.5258941452843731,0.0021892989642119122,0.8505438495650337,-0.008904235986244213,-0.9471040673402282,0.8884630214439533,-0.029485896799260416,-0.853935387428914,1.0428289416671825,-0.01707985690658996,0.7794896326614664,0.9152338775764863,-0.06405004156235415,0.626195842792163,1.1761255356821365,0.0,0.0,0.0,0.0
0.03135491005580255,0.10905365364434684,0.7567483993403785,-0.002455426829285298,-0.5259156937152466,0.0022637315209908223,0.8505301461457423,-0.007095583483433917,-0.9555240766980819,0.8843160785941152,-0.030931646280793586,-0.8520299474039618,1.0427032963814118,-0.020185825499873876,0.7835377232784901,0.9109910589280954,-0.06412093739223744,0.623500968191605,1.1887908754260492,0.0,0.0,0.0,0.0
0.03163312925074502,0.10947793001324278,0.7571685746479595,-0.0025070125126075856,-0.525929041674781,0.002323963427884671,0.8505215795059488,-0.005255199624133079,-0.9622071262594714,0.8806161164957301,-0.03215614425284899,-0.8505883571461463,1.0426828053345292,-0.022891793114615415,0.7867637934836001,0.90780295201305,-0.06375449245047458,0.6213799837133834,1.1996212019529315,0.0,0.0,0.0,0.0
0.03182684895558821,0.10982800291720389,0.7574152834260436,-0.00253803153146006,-0.5259272369333451,0.0023637242626371783,0.850522493914895,-0.0033717428577527443,-0.9658949702592419,0.8781451472790905,-0.033151480617754435,-0.8496761126680452,1.0425976896348725,-0.0253102523757925,0.7888254217455398,0.9062010299624046,-0.0625486398409111,0.6202404754651528,1.206763863175962,0.0,0.0,0.0,0.0
0.03189872457558883,0.11010817054819037,0.7574555480164866,-0.0025395774497255384,-0.5259048185807931,0.0023775335822580007,0.8505363129660868,-0.0014113248169889863,-0.9654321244508767,0.8777803214221778,-0.033920747674908436,-0.849288925263281,1.0422172250881427,-0.027586540212476588,0.7894465994229313,0.9066032629064555,-0.05988629863325997,0.6210888547401618,1.2073470906226953,0.0,0.0,0.0,0.0
0.03183603161816028,0.11031606892865244,0.757289396690929,-0.0025109155940631653,-0.5258619192709707,0.0023641106569973927,0.8505629595416979,0.0006158380849153014,-0.9608089109374777,0.8794835181260373,-0.03445414214493664,-0.8493819126107591,1.04144592043614,-0.029711034614925406,0.7885868682293495,0.9090262396002656,-0.05577930079360015,0.6238799485945237,1.2013568590807127,0.0,0.0,0.0,0.0
0.03165140850617663,0.11044389662686419,0.7569506755107112,-0.002459459890266129,-0.5258038695901037,0.00232618986645004,0.8505991009998933,0.002650624548114156,-0.9531709722746139,0.8823319507702166,-0.034731758939764025,-0.8498682606480312,1.0403244867319776,-0.031530521170698274,0.7864499036340213,0.9130763104049774,-0.050858210233188456,0.6275386741346969,1.1916312487796612,0.0,0.0,0.0,0.0
0.03135498126556776,0.1104894247927779,0.7564886623802162,-0.0023913149207104613,-0.5257361036647191,0.002267834693174948,0.8506413391331238,0.0046535663061704246,-0.9437668462890219,0.8855096970114765,-0.03475134147519055,-0.8505831640086889,1.038824726955547,-0.032934696357766934,0.7833143846182961,0.9182240767439611,-0.04552826991251547,0.6316064930059028,1.1799906824801305,0.0,0.0,0.0,0.0
0.03093676395456688,0.11045405164807189,0.75594766623463,-0.0023083495413463925,-0.5256610426228389,0.0021905868152076124,0.8506881573881642,0.006624607741591801,-0.9335123002693542,0.8884784593771909,-0.03451528862267534,-0.8513094654025463,1.036763572291967,-0.033894561447284054,0.7793740133120641,0.9240380359847534,-0.039977455644630545,0.6358570098624441,1.1674499889687415,0.0,0.0,0.0,0.0
0.030366231040514835,0.11034068915245707,0.7553623238877841,-0.0022091422259196062,-0.5255781854334931,0.002093538220907291,0.850739859054917,0.008580647709158867,-0.9229417372098833,0.8909470695870825,-0.03402511118541193,-0.8517933535369643,1.0338113895724346,-0.03443730922552378,0.7747082204115847,0.9302252495526468,-0.03427592512119648,0.6401187103657959,1.1545192958825647,0.0,0.0,0.0,0.0
0.029597337064892593,0.11015363246811215,0.7547587213366569,-0.0020905826381665336,-0.525483933159011,0.0019746708391490775,0.8507986636866833,0.010532447973981125,-0.9123119510713721,0.8927850883711272,-0.03328415021471746,-0.8517562871711211,1.0295269116557684,-0.03462250654571303,0.7692991171138032,0.9366052868275058,-0.028445137319345885,0.6442293230164303,1.1414183544991872,0.0,0.0,0.0,0.0
0.028574377644725115,0.10990042536131388,0.7541565920639192,-0.0019484712132882649,-0.5253723016915903,0.0018309977681023107,0.8508682597925397,0.012478570316372239,-0.9017265193648057,0.8939525113674792,-0.03230295145826861,-0.8508995451748975,1.0233860672176835,-0.03455369852481698,0.7630678036844459,0.9430806354645709,-0.02249860782401432,0.6480355960293108,1.1282116842858212,0.0,0.0,0.0,0.0
0.0272379081814529,0.109594120725338,0.7535707095100825,-0.0017780978656161803,-0.5252350715486622,0.001659327077200411,0.8509537029808982,0.01441089566910744,-0.8912316696099722,0.8944609932890302,-0.031107397961115765,-0.8489116338653496,1.0148105823222062,-0.034386443302527506,0.7559034131113087,0.9496144305328184,-0.016450772268145127,0.6513985695459721,1.1148867543707317,0.0,0.0,0.0,0.0
0.025532176476693057,0.10925508668745046,0.753010573605005,-0.0015745984716565072,-0.5250622747506952,0.001456833591510362,0.8510611058608925,0.016328400440019444,-0.880866938454715,0.894367976299892,-0.029745239176876867,-0.8454866841538149,1.0032101581008575,-0.03433321736833122,0.7476893079941903,0.9562216661940014,-0.010309370412327264,0.6541986392591317,1.1013997465265057,0.0,0.0,0.0,0.0
0.023416323072668284,0.10891109470429797,0.7524776596755517,-0.0013335406382304214,-0.5248435483017357,0.0012217026536651546,0.8511967921215609,0.01825331426236338,-0.870672091977398,0.8937973228462472,-0.028288018026211628,-0.8403662884316226,0.9880620178832374,-0.03464883639067801,0.7383281339540342,0.962974488785349,-0.004055036160861395,0.6563512091957242,1.0877112464257264,0.0,0.0,0.0,0.0
0.020882321120515142,0.10859418375469683,0.7519594938946274,-0.0010520191104605248,-0.5245720181714337,0.0009534737007041173,0.8513648935064461,0.020245641622510812,-0.8606532337703514,0.8929785759462209,-0.026823176541404762,-0.83341862318029,0.9690590088160247,-0.035588681042083826,0.7277751476805897,0.9700251209947508,0.0023851845647270024,0.6578579976617479,1.0738348601585386,0.0,0.0,0.0,0.0
0.017982694389424802,0.10833124272621243,0.7514195086709732,-0.0007330004867787275,-0.5242492918710959,0.0006573523229104261,0.8515642727186624,0.022399908059415163,-0.850727931015866,0.8922774034237763,-0.02543854659371809,-0.8247858058863574,0.9463828922038711,-0.037270402759129996,0.7160597618266654,0.9776410245701783,0.009215880988815754,0.6589347402002905,1.0599218462461464,0.0,0.0,0.0,0.0
0.014871336099251918,0.10812641446470045,0.750780980753776,-0.0003909792050540605,-0.5238902042208995,0.00035349534108647824,0.8517856397578496,0.024813890591205333,-0.8406566061536439,0.8921174593533736,-0.024199535153278905,-0.8151546786779692,0.9211896678666441,-0.03945745537735803,0.7032971420838653,0.9862644680738143,0.017014713049152495,0.6603150108025526,1.046373418936324,0.0,0.0,0.0,0.0
0.011838307061273253,0.10791494081427531,0.7499148393410222,-4.233809249755312e-05,-0.5234614464416283,3.853010182617661e-05,0.8520493593754738,0.027410495759939573,-0.8298387260848724,0.8918895616174408,-0.022938987271532468,-0.806602796466228,0.8966948832281563,-0.04160340967400456,0.6896485902226026,0.9963953543972925,0.026949539493220855,0.6637069194096986,1.0333311601038342,0.0,0.0,0.0,0.0
0.00930592022061012,0.10769900437821948,0.7488840012173961,0.00025567762633349077,-0.5230127014662068,-0.0002205441130456393,0.8523248207662768,0.030162819022662567,-0.8190443857517026,0.8912940618471293,-0.021818073849783407,-0.8006418167791153,0.8766407654798071,-0.04300357529160994,0.6766199015523773,1.0070108670624438,0.04042352669344186,0.6699160007234761,1.0213923991476013,0.0,0.0,0.0,0.0
0.00766261722384065,0.10755332103241802,0.7480087425607084,0.0004140393677475992,-0.5226252740765159,-0.0003613198590300021,0.8525623267045102,0.03209923227137377,-0.8109540967958897,0.8895877335273784,-0.0211375917691994,-0.7976220907605878,0.8639391353599485,-0.04337236468307282,0.6668803373538265,1.0152630955513944,0.055928198724785105,0.6777423079494457,1.011125190926955,0.0,0.0,0.0,0.0
0.007650925110030921,0.10750146562094089,0.7479741400440278,0.00047438410461998244,-0.5226201767021256,-0.00036494256911298893,0.8525654184169573,0.032116789993878875,-0.8109663152548441,0.8895980333587598,-0.021041166266611296,-0.7976794480247725,0.8637970274431962,-0.04337417257549824,0.6668107020254247,1.0152019071868053,0.055925138173159285,0.6777751152965131,1.0111355702028557,0.0,0.0,0.0,0.0
0.007650925110030921,0.10750146562094089,0.7479741400440278,0.00047438410461998244,-0.5226201767021256,-0.00036494256911298893,0.8525654184169573,0.032116789993878875,-0.8109663152548441,0.8895980333587598,-0.021041166266611296,-0.7976794480247725,0.8637970274431962,-0.04337417257549824,0.6668107020254247,1.0152019071868053,0.055925138173159285,0.6777751152965131,1.0111355702028557,0.0,0.0,0.0,0.0
0.007650925110030921,0.10750146562094089,0.7479741400440278,0.00047438410461998244,-0.5226201767021256,-0.00036494256911298893,0.8525654184169573,0.032116789993878875,-0.8109663152548441,0.8895980333587598,-0.021041166266611296,-0.7976794480247725,0.8637970274431962,-0.04337417257549824,0.6668107020254247,1.0152019071868053,0.055925138173159285,0.6777751152965131,1.0111355702028557,0.0,0.0,0.0,0.0
0.008266013123683769,0.107474474966663,0.747925087121336,0.0005067177809865425,-0.5228701248955219,-0.0003425554156869704,0.8524121411527519,0.032129580170850505,-0.8127205798336972,0.8942251238616736,-0.02107725304159734,-0.7995587457557237,0.8686449235075543,-0.0435150753496422,0.6692155143219155,1.015335377222988,0.056465522099993844,0.6802494589750052,1.011550402063248,0.0,0.0,0.0,0.0
0.009453178758262086,0.1074882408645472,0.7478343310177323,0.0005143093483337858,-0.5231543376368862,-0.00033282598400945413,0.852237738969866,0.03213115787115662,-0.8174451311005668,0.904551492744742,-0.021190103607703983,-0.804319814264408,0.8790842538276966,-0.04407617825070592,0.6733252853335016,1.0155186935058087,0.057035179809740835,0.6844362768773578,1.0116563600772317,0.0,0.0,0.0,0.0
