zhuoxili-jackie/tripod-support-walk/examples/pcbB样侧向移动数据608/trajectory_trotting_acc_f005.csv
root_pos_x,root_pos_y,root_pos_z,root_rot_x,root_rot_y,root_rot_z,root_rot_w,FL_hip_joint,FL_thigh_joint,FL_calf_joint,FR_hip_joint,FR_thigh_joint,FR_calf_joint,RL_hip_joint,RL_thigh_joint,RL_calf_joint,RR_hip_joint,RR_thigh_joint,RR_calf_joint,FL_foot_joint,FR_foot_joint,RL_foot_joint,RR_foot_joint
0.0,0.0,0.72963,0.0,-0.5231245161092812,0.0,0.852256264656019,0.0,-0.81,0.872,0.0,-0.81,0.872,0.0,0.65,1.0,0.0,0.65,1.0,0.0,0.0,0.0,0.0
0.0007174437422176256,-9.530040650271213e-05,0.7295840553619077,-1.6370862955179338e-05,-0.5234008767751913,0.00011755539888974678,0.8520865613913201,-6.997175551415383e-05,-0.8122747209468222,0.8775797810539324,-6.997175551415379e-05,-0.8123473454228646,0.8780474543973031,0.0014965007807418473,0.6522616546954403,0.9999092682599432,0.0014965007807418481,0.652979913536924,1.000809796496579,0.0,0.0,0.0,0.0
0.002076105881023578,-0.00023443505197218715,0.7294859221093366,-6.680582911520908e-06,-0.5237351188384757,0.00016054832889290704,0.8518811533746076,0.00015956499663372607,-0.8174996091328902,0.8891253267537466,0.00015961506442872613,-0.8181417357199603,0.8905944982961845,0.0026904784426450713,0.6565276877805241,0.9997369932232381,0.0026976435050577586,0.6575920904973596,1.0016773440428834,0.0,0.0,0.0,0.0
0.004055824911777234,-0.00047978814822520846,0.729389326199505,4.321164522883434e-05,-0.5241333994862739,0.00011948986086390755,0.8516361684415997,0.0008662991913910489,-0.8250521984491145,0.9058270321660347,0.0008665856494973339,-0.8271135648964139,0.9093297432569049,0.0038680957252778467,0.6630670926271266,0.998745786747687,0.003886099656610618,0.6640836877370988,1.0022714271583735,0.0,0.0,0.0,0.0
0.006668448402175143,-0.0009914850500580157,0.7294421460056534,0.0001670663898122396,-0.5245981014746353,-5.6134873938172056e-05,0.851349987294829,0.0025814918101521923,-0.8338440014235805,0.9265970645882108,0.0025835386638658553,-0.8391415903773413,0.9344678449444459,0.005609966356309911,0.6727784774407027,0.9949761188295521,0.005647516640369301,0.6731767755944811,1.00162796137073,0.0,0.0,0.0,0.0
0.010051145571154494,-0.0020283957442981965,0.7302264539700051,0.000451492718324262,-0.5252050473951317,-0.0005422955818074532,0.8509754169542764,0.006406639016740538,-0.8410997104308753,0.9500078116881682,0.006419169139703792,-0.8533281034922457,0.9668404259442392,0.008048891617622855,0.689575528022717,0.98225153827717,0.008125711594420111,0.6879204399606955,0.9950143243100976,0.0,0.0,0.0,0.0
0.013028693492233649,-0.0027701433554770277,0.7310262010352427,0.0006920822595976862,-0.5250488526688337,-0.0006736354828362734,0.8510715419684314,0.008569376851723282,-0.8514693934425874,0.9742734408446644,0.0038213462912458094,-0.8449869517809018,0.9396938147836442,0.0072549011441292565,0.6798335495780604,1.006081747222819,0.011285260150119995,0.7004764564610032,0.9861023104709725,0.0,0.0,0.0,0.0
0.01594677079932031,-0.0036830899908954435,0.7318622308280464,0.0009711151706671479,-0.5250108597593487,-0.0009162307909369464,0.851094480414021,0.011475198625380365,-0.8597110324061542,0.995825557111035,0.0025551439471337986,-0.8449531191474181,0.922355955070411,0.007711310369278568,0.6724455713153712,1.0259794424315172,0.014790629792906077,0.7132352572533983,0.9773637844183816,0.0,0.0,0.0,0.0
0.01859306796647049,-0.004696133966480077,0.7326907141258098,0.001249441621648353,-0.5250646418725712,-0.0011879789349065592,0.851060602693435,0.014739275985981959,-0.8655780881225476,1.0135389697664456,0.0017364962691990545,-0.8498859065443509,0.912432565458923,0.009153846063305668,0.6670690959699479,1.0431486829276042,0.018980198142637197,0.7255000184532365,0.9692639267667348,0.0,0.0,0.0,0.0
0.02085351207095527,-0.005742645549138493,0.7335003353599889,0.0015097968303519455,-0.5251551427594858,-0.001452570775882102,0.8510039286542314,0.018091086953677945,-0.8692782580521767,1.02724656875755,0.0010428317442002016,-0.8573028602348267,0.9067609515339438,0.011180075878337872,0.6628725134406693,1.0587116824114684,0.023740730542674508,0.7367584733435905,0.9618332331583563,0.0,0.0,0.0,0.0
0.022700321308087777,-0.00677357307475184,0.7342937722028641,0.0017453169993181638,-0.5252513886521673,-0.0016935240841710396,0.8509436318368674,0.021351382012269413,-0.8711251351100365,1.0372584970132879,0.0004273603061462495,-0.8658755440416952,0.9033182818633562,0.013533533489769843,0.6592590169028018,1.0733113448823124,0.02884182471432272,0.7468222007565565,0.9549634195943102,0.0,0.0,0.0,0.0
0.02415861066364651,-0.0077545154865540375,0.7350761148700462,0.0019538991131214565,-0.5253395905767873,-0.0019046335154255336,0.8508882824566579,0.024406091474683315,-0.8714690404780812,1.0441172252656719,-0.00010696189101781707,-0.8749438914219818,0.9008897325503022,0.016042828908967497,0.6558425043732152,1.0873372249134916,0.03403160445091248,0.7557036170745514,0.9485063607119663,0.0,0.0,0.0,0.0
0.025280902877730094,-0.008663302187598386,0.7358502952481245,0.002135992458406444,-0.5254152379672364,-0.0020857032844531775,0.8508407107619258,0.02719139709634191,-0.8706594567317343,1.0484462581314695,-0.0005779933305114717,-0.8842014421979787,0.8987753172227022,0.018582325268972365,0.6523972885476906,1.1010405885532604,0.039082608798656306,0.76351685292262,0.9423223161451314,0.0,0.0,0.0,0.0
0.026129892479477893,-0.009488142183606085,0.7366161396552323,0.002293426106091018,-0.5254785867736885,-0.0022396415405583413,0.8508007869324009,0.029681722957674482,-0.8690173604768037,1.0508550520197062,-0.0010276405814351366,-0.8935202224475097,0.8965941043500748,0.021060106486504606,0.6488130069533521,1.1145916421695732,0.0438226300143774,0.7704180125572442,0.9363048789068356,0.0,0.0,0.0,0.0
0.02676789426703523,-0.010225538301829755,0.7373709838993249,0.0024288198381866998,-0.5255319520544897,-0.002370733817218731,0.8507670937601896,0.03187911200398958,-0.8668202431617836,1.0518880755525384,-0.0015058935310463541,-0.9028619833842751,0.894153641965729,0.023413049955602235,0.6450590931184591,1.1281078598022316,0.048143841669987905,0.7765698678317322,0.9303874775212783,0.0,0.0,0.0,0.0
0.02725123234541727,-0.010877902253168903,0.738110560192365,0.0025452389645108466,-0.5255781588998738,-0.0024836448901812036,0.8507378868688593,0.03380342764224376,-0.8642982342975685,1.052005043854016,-0.0020559300337261665,-0.9122344247590667,0.8913639552996714,0.025603543004606634,0.6411604438247317,1.1416668330323543,0.05199523424196041,0.7821218907200538,0.9245400234032936,0.0,0.0,0.0,0.0
0.027627809302667516,-0.011451037583506858,0.7388293199388947,0.0026460209718207972,-0.525619463740105,-0.0025830061427882384,0.8507117643419817,0.0354838745941496,-0.8616397925019117,1.0515816192337817,-0.002704522198383889,-0.9216645097937007,0.8881840869877428,0.02761398403334382,0.6371822897180495,1.155308017356719,0.055363367277737954,0.7871963571710712,0.9187642184558571,0.0,0.0,0.0,0.0
0.027936408367730405,-0.011952092636566214,0.7395196703136122,0.002734098687568442,-0.5256577243658874,-0.0026721955719105584,0.8506875694928596,0.03695019483030859,-0.859000603172973,1.0509167874061138,-0.003458736221918546,-0.9311642164069205,0.8846005353777382,0.02944748276272595,0.6332224928192672,1.1690216238053022,0.05826721919035298,0.7918828667976106,0.9130999124305949,0.0,0.0,0.0,0.0
0.02820601577618669,-0.012387344802161249,0.7401704371303619,0.002811895327145274,-0.5256934791449179,-0.002753440256369834,0.850664962130177,0.038226986128824234,-0.8565174162237011,1.0502436546989828,-0.004303383715541513,-0.9406733160370089,0.8806309359480511,0.031113075216737576,0.6294014935932024,1.1827139067787302,0.06073501495139833,0.7962208592301344,0.9076343429287,0.0,0.0,0.0,0.0
0.02845417704936542,-0.012760793398287711,0.7407643021102652,0.002880565466028358,-0.5257260224007836,-0.002826912458720072,0.8506443794437235,0.03932797032017466,-0.8543158020206723,1.0497268533272588,-0.005204879429201486,-0.9499621735560189,0.876367502229715,0.03260788649599159,0.6258514142437264,1.1961338415249467,0.06280271319676506,0.8001823223090792,0.9025286790922786,0.0,0.0,0.0,0.0
0.028683508914180953,-0.01307336691801033,0.741274939146794,0.002939320411490105,-0.5257529625722619,-0.0028904642389112243,0.8506273143736286,0.04025355646850141,-0.8525111344731561,1.049444124224949,-0.0061230927857464515,-0.9585035194305739,0.8720585430141164,0.033873664165585855,0.622708758569821,1.2087368632728703,0.06451140547693682,0.8036436957078211,0.8980515859582711,0.0,0.0,0.0,0.0
0.0288774933111492,-0.013323556272707008,0.7416652525336177,0.002984635792064927,-0.5257698289831212,-0.002939694920972441,0.8506165628965967,0.04099297289569879,-0.8511988923607641,1.0493544901359577,-0.007035286691003714,-0.9653645242197902,0.8682147119414828,0.034725147959229534,0.6201481381373465,1.2194608610671078,0.06591509055009286,0.8063618298807242,0.8946077341227255,0.0,0.0,0.0,0.0
0.0290010057860676,-0.013510450361075498,0.741890890338072,0.003009375277357343,-0.5257710552769563,-0.002967756879468156,0.8506156203083154,0.04153187681316238,-0.8504347278937823,1.0492828537054177,-0.007964487892858824,-0.9692548294973798,0.8656750582383086,0.034776947655052716,0.6185493962720587,1.226407406792216,0.06711502891988326,0.8080017030439464,0.8927144353371121,0.0,0.0,0.0,0.0
0.029018103991750525,-0.01363726350159383,0.741919576260414,0.0030052751792655546,-0.5257534555343665,-0.0029690017782416107,0.8506265087235471,0.04186925096203076,-0.8502080011864789,1.049001838266792,-0.008964392054957722,-0.9689906139148559,0.8654523657480567,0.033472137628399415,0.6188802466310649,1.2266209586040147,0.06824424848732266,0.8082962690479442,0.8927855867835449,0.0,0.0,0.0,0.0
0.02892002655382177,-0.013703666368440106,0.7417508393884187,0.002972036265589359,-0.5257171497323333,-0.0029428601236451916,0.8506491550880658,0.042002238403343876,-0.8504854817462577,1.048441023908605,-0.010028797526157554,-0.9645676068417812,0.867519352576831,0.03081710241529775,0.6211136382395344,1.2200952855574887,0.06930191592601459,0.8072138244907223,0.8948430927228788,0.0,0.0,0.0,0.0
0.028726189193932678,-0.013706626689028898,0.7414168730282907,0.002917341954504958,-0.5256651404733103,-0.002893645214153241,0.85068165374861,0.04192792669620352,-0.8512122011239176,1.0476918381156364,-0.011084250368183186,-0.9571696393797527,0.8708382317437151,0.027375936302824352,0.6242440442543198,1.2097665141904073,0.07016211356963332,0.8049677919347358,0.8985049234260313,0.0,0.0,0.0,0.0
0.028455981983523664,-0.01364888780976641,0.7409641085172922,0.0028476510913560604,-0.5256023490931856,-0.0028264015865207175,0.8507209136756064,0.04165988053875734,-0.8522608055295129,1.0467913849290968,-0.012084189791514564,-0.9480831642325708,0.8745575040690048,0.02354170480897436,0.6278654192005745,1.1975131577334177,0.07075023860915655,0.801857783032679,0.9032623270448291,0.0,0.0,0.0,0.0
0.028110092481139607,-0.01353577956197047,0.7404339068676367,0.002765922439114819,-0.5255322047999659,-0.0027438246470826936,0.850764787010754,0.04121340260068887,-0.8534526089429819,1.0456317701686955,-0.013028542121220026,-0.9382314743865526,0.878152312304381,0.01951117694885755,0.6317813057319895,1.1843771399728265,0.0710543040126365,0.7981027717811852,0.9087024386032713,0.0,0.0,0.0,0.0
0.02766995122941225,-0.013372906808414306,0.7398584348290558,0.0026726153700306152,-0.525455850958394,-0.002646747186508633,0.8508125531220168,0.040600581924171306,-0.8545760536364664,1.043972172271203,-0.013934206625424172,-0.9281337420746303,0.8813630699375937,0.015359787055018313,0.6358374956797455,1.1708830133521348,0.07109235720341758,0.7938091041498057,0.9145424480934831,0.0,0.0,0.0,0.0
0.027102764356476763,-0.013166264875766004,0.7392619827045763,0.002566866387428648,-0.5253722172200237,-0.0025348246447239892,0.8508648654365074,0.03983211570653599,-0.8553986793360557,1.0414743547401628,-0.014809155469587517,-0.9180194766354935,0.8840941614784263,0.01110764393964021,0.6398882345835253,1.1572649328426177,0.07090047563951526,0.7889919335564801,0.9206046921590867,0.0,0.0,0.0,0.0
0.02636677701668874,-0.012923855099567474,0.7386633826670385,0.002447360531124044,-0.5252784569456753,-0.0024072196476121826,0.8509234738733967,0.03892316956702665,-0.8556707420001607,1.037730228065374,-0.015643573984537747,-0.9079606949038939,0.8863372804815952,0.006755692362041169,0.6438026052455644,1.1436086997209145,0.07053683279543405,0.7836069522904373,0.9267852115366839,0.0,0.0,0.0,0.0
0.02541587307632078,-0.012657780142342123,0.738077849795626,0.0023129308928481634,-0.5251704461448089,-0.00226335084542073,0.8509909106974632,0.03790080688067762,-0.8551261597932748,1.0322814790849142,-0.01641523871694836,-0.8979708177725819,0.8881347502732743,0.002294697102602279,0.647473372451107,1.1299349640823204,0.07009086195977088,0.7775777845408259,0.9330311324861222,0.0,0.0,0.0,0.0
0.02420460250241571,-0.012386159049733926,0.7375174783779516,0.0021627399323220337,-0.5250436741827206,-0.0021032562852267437,0.8510699378251432,0.036810177618375406,-0.8534886142621754,1.0246429494301796,-0.01710407682152948,-0.8880624535810284,0.8895808174149731,-0.0023050535356459474,0.6508221645262631,1.116250004010986,0.06969693772635276,0.7708207157733098,0.9393314554683171,0.0,0.0,0.0,0.0
0.022695389136788157,-0.012133994226533072,0.7369900997710775,0.001996130292877941,-0.5248945126661109,-0.0019276233255933006,0.8511627636975049,0.03571728455808199,-0.8504935326314796,1.0143486954472196,-0.017710334849981278,-0.8782742892703561,0.8908537505449594,-0.00712528534690825,0.6538074007731244,1.1025862509695197,0.06954351281725607,0.7632695238666879,0.9457183813142463,0.0,0.0,0.0,0.0
0.02087008865731799,-0.011931956719552515,0.7364963208581492,0.0018120131355889688,-0.5247222083825055,-0.0017371931298352072,0.8512698178595389,0.034704917860850705,-0.8459386286538476,1.001044797795488,-0.018270076999918755,-0.8686826328275176,0.8922750139148751,-0.012360011441309162,0.656449561502047,1.0890527561257926,0.06987318171331092,0.7549072027465211,0.9522761362518528,0.0,0.0,0.0,0.0
0.01874848825037205,-0.011811696376329318,0.7360245706356305,0.0016076102659678783,-0.5245320028162929,-0.0015311785117380048,0.851387837065533,0.03385743197650184,-0.8397809286392499,0.9846629743127173,-0.01885610166127649,-0.859419585044217,0.8943939308589123,-0.018421699349168902,0.6588970245478587,1.0759176717158683,0.07096944080016666,0.7458126356761161,0.9591545571578534,0.0,0.0,0.0,0.0
0.01641678583694637,-0.01179593304173979,0.7355438924863713,0.0013763969488921385,-0.5243395691626579,-0.0013043549212398084,0.8515071464174547,0.03322963359035949,-0.8323076268521871,0.9657252750951171,-0.019543733246905465,-0.8507305192263179,0.8980864845720061,-0.026119139544731457,0.6615668698688161,1.0637461444108858,0.07312706539468218,0.7362305125624838,0.9665860759863144,0.0,0.0,0.0,0.0
0.014068256367040932,-0.01187975050481755,0.7349935749722912,0.0011067205990987982,-0.5241683545924393,-0.0010467054865809396,0.8516133016933182,0.03280195557407428,-0.8244585501196481,0.9458839654011083,-0.020319501085237498,-0.8431023637276114,0.9045331950145481,-0.03696710653764597,0.6654110839621374,1.053540110425478,0.07654133928057967,0.7266257012288969,0.9748875389432087,0.0,0.0,0.0,0.0
0.012184540111252227,-0.011936272791667318,0.734313595490145,0.0007729771015073871,-0.5239929752064711,-0.0007231811063148408,0.8517219273035997,0.032208166379369366,-0.819284190808134,0.9304299155411048,-0.0214154870815207,-0.837213661831389,0.9142284838241999,-0.05348359587261004,0.6723285923126627,1.046546282530905,0.08085170854257334,0.718238706365967,0.9835913192271196,0.0,0.0,0.0,0.0
0.01106939727546263,-0.012020256134454513,0.7337236077212463,0.0004288794993261703,-0.5239288533685786,-0.00036510674377914496,0.8517618442776872,0.031637682041727996,-0.8167995985980124,0.9212813998934835,-0.021834941924243182,-0.8364674377565428,0.92860698819794,-0.07358894836918418,0.6806309224340611,1.044196739609938,0.08612101894950973,0.7132950874981929,0.9907451561579521,0.0,0.0,0.0,0.0
0.011050785495659505,-0.011973201034096877,0.7337029623522219,0.00036525366973532715,-0.5239325597641314,-0.00036487005868026144,0.8517595941805421,0.03156008388291217,-0.816839811339205,0.9211867871310645,-0.02184648868013568,-0.8364704593045701,0.9286173638921154,-0.07358573292853837,0.6806488632636262,1.0442021379156328,0.08612644162336552,0.713236892777353,0.9907049539967072,0.0,0.0,0.0,0.0
0.011050785495659505,-0.011973201034096877,0.7337029623522219,0.00036525366973532715,-0.5239325597641314,-0.00036487005868026144,0.8517595941805421,0.03156008388291217,-0.816839811339205,0.9211867871310645,-0.02184648868013568,-0.8364704593045701,0.9286173638921154,-0.07358573292853837,0.6806488632636262,1.0442021379156328,0.08612644162336552,0.713236892777353,0.9907049539967072,0.0,0.0,0.0,0.0
0.010750588728254294,-0.011931581528343825,0.7335397881319936,0.00022829907896163712,-0.5238220451900373,-0.00022799303385941688,0.8518276591374769,0.031170840316712488,-0.8169900262409863,0.9195595376687601,-0.02223337288892762,-0.8356019729390031,0.926045160541526,-0.07168184212863736,0.678010029500396,1.045753050471387,0.08754616130217946,0.7117318512684496,0.9922956691365998,0.0,0.0,0.0,0.0
0.010963982426816062,-0.011837602513892098,0.7333878718219883,0.0001435539700800756,-0.5237847195434777,-0.00014137316731039045,0.8518506482821068,0.03077817141795199,-0.8192260651141124,0.9225873966867135,-0.022673220346175242,-0.8368641921766332,0.9279277686261029,-0.07129226596733257,0.6776176467930182,1.0469901687375305,0.08819085795974738,0.7119173780825705,0.9931409607932997,0.0,0.0,0.0,0.0
0.011780759198401419,-0.01164191518104263,0.7333091386266397,0.00010575518158253073,-0.5238947444730433,-0.00010952882722875553,0.8517829967384899,0.03027048787570719,-0.8234621973095622,0.9307842681486006,-0.02327709906213867,-0.8399542250354882,0.9344411024628596,-0.07287245379723632,0.6803139278958313,1.0475734522249183,0.0877969193346427,0.7145687760313743,0.9925435988306394,0.0,0.0,0.0,0.0
0.013264086619477663,-0.011275263999823962,0.7334321506008009,0.00010689683192641511,-0.5241632995746414,-0.00013099304184490605,0.8516177586176296,0.029469391929587554,-0.829644213327692,0.9446546402233483,-0.02422374860670456,-0.8444812922349836,0.9455867880491916,-0.07699159757286643,0.6870062148132604,1.0465040798373983,0.08586303109315556,0.7204958806213506,0.9889992902561514,0.0,0.0,0.0,0.0
0.015576848180732877,-0.010645817562403688,0.7343306060114884,0.00012427339331686087,-0.5246975704781285,-0.00017905229400305272,0.8512886772598054,0.028060027208772906,-0.8362634088061923,0.964493760037375,-0.02580206879229388,-0.848415251299955,0.9609826875716635,-0.08428692432189258,0.7011976335272404,1.0389211531288867,0.08195900991547798,0.733287885635775,0.9768237960085419,0.0,0.0,0.0,0.0
0.017726533485264838,-0.010636969883676005,0.7352945633044933,-0.0005282624005146674,-0.5244834335558453,0.0005634658277995967,0.851420302418593,0.02566514764164655,-0.8303479139487492,0.9400220727931484,-0.027548972917273616,-0.8546212387777247,0.9789009103401408,-0.07448975167548523,0.7087014190581672,1.0265536244745654,0.06032418777964516,0.7127282181224623,1.001420229413586,0.0,0.0,0.0,0.0
0.019961979230171595,-0.01051194454766985,0.7363492792715931,-0.0010282640362163375,-0.524454837698473,0.0011025396591839189,0.8514369326579861,0.02198932130922766,-0.8320383304652709,0.9242862904216677,-0.029125908570005788,-0.859861632185506,0.9960413930259334,-0.06836348037354055,0.7184943821866637,1.0139300753150042,0.04178336564491373,0.6974456938199011,1.0204652665649245,0.0,0.0,0.0,0.0
0.022045585292454685,-0.010274991902924432,0.7373307428696683,-0.0013529327263342424,-0.5245681369830076,0.0014097480594708603,0.8513662266296587,0.018726094575075552,-0.8381319545792327,0.9153250561884227,-0.030456776668633837,-0.8639512589510853,1.0108765593382165,-0.06624273873903463,0.7290747849586485,1.0027549276818257,0.02818185927182429,0.6871377515337631,1.036391986225258,0.0,0.0,0.0,0.0
0.023842417229595902,-0.009990917165822275,0.7382084368642946,-0.0015814227788726876,-0.5247379330723998,0.0016040043949955894,0.851260845961331,0.01615484035876434,-0.846384170211505,0.9102895418102506,-0.03164803966558923,-0.8668107618155289,1.0228642597435333,-0.06605519719834707,0.7390308116136804,0.9930873736527137,0.01799173371767959,0.6798962644647847,1.0507660802923242,0.0,0.0,0.0,0.0
0.025307937920014546,-0.009713968320760965,0.7390073065588574,-0.0017646507593423707,-0.5249142488868228,0.0017556221390008266,0.8511514760101079,0.014098684048369293,-0.8555825620558722,0.9073084079941822,-0.03271596176799109,-0.86847453345174,1.0320361437482521,-0.06638537771277872,0.7477881489157792,0.9845161009517838,0.009781877057499673,0.674278573029504,1.0643300861069531,0.0,0.0,0.0,0.0
0.026451383633300588,-0.009478577588352676,0.7397595601423962,-0.0019251557566354132,-0.5250750930652912,0.0018922386676813218,0.8510516199682678,0.01231019892269869,-0.8651437934059332,0.9052540737466962,-0.03362983385208588,-0.869068849942466,1.0387023918132312,-0.06651030692841255,0.755262282144904,0.9766194023078889,0.0026838336829764697,0.6693873370269596,1.0774591330216945,0.0,0.0,0.0,0.0
0.027310170942060348,-0.009302488748375259,0.7404882503900589,-0.0020702098916703395,-0.525214266990254,0.0020202934141768524,0.8509651029245648,0.010610856821104398,-0.8748206326249164,0.9034765104314662,-0.03435606998901689,-0.8687752599859404,1.0432875906701973,-0.06614951442864636,0.7615906212721523,0.9690931471559989,-0.0037653668246296138,0.6647177264135549,1.0903593945216974,0.0,0.0,0.0,0.0
0.027933561559255023,-0.00919174697870825,0.7412052220459765,-0.002201228204637796,-0.5253329059206892,0.0021390655460451773,0.8508912486034307,0.008912228620062263,-0.8845293469560462,0.901619458565993,-0.03487782574748145,-0.8677959712454839,1.0462391529289903,-0.0652540417497673,0.766982469680935,0.9617552425202684,-0.009803632761848435,0.6600130123189993,1.1031555993959314,0.0,0.0,0.0,0.0
0.028372728645944992,-0.00914497348762685,0.7419136616904495,-0.0023186837489628056,-0.5254343464335202,0.0022476252285017688,0.850828019916178,0.007189784404009019,-0.8942630049206653,0.8994982976106456,-0.03519911671124716,-0.8663298701311093,1.0479784612925356,-0.06386757896931139,0.7716419356281492,0.9545160147603002,-0.01555264078870881,0.6551650605030767,1.115929349029904,0.0,0.0,0.0,0.0
0.028675515297168476,-0.009155953206749336,0.7426112870606996,-0.002422694638466756,-0.5255233293650661,0.0023446252351096296,0.850772509885135,0.005453879959889587,-0.9040459887900195,0.897027330605429,-0.0353363019414916,-0.8645549318249219,1.0488735466564254,-0.06209226213035479,0.775753523969183,0.9473541949066969,-0.02108736598956562,0.6501587229159154,1.1287340238022374,0.0,0.0,0.0,0.0
0.028883803258805744,-0.009216007592602903,0.7432925267451282,-0.002512436492619513,-0.5256058130934286,0.0024268309887205655,0.850721063214388,0.0037282749488771897,-0.9139039412026226,0.8941735252118463,-0.03530767189830915,-0.8626231953056493,1.0492311684648092,-0.0600773603728391,0.7794811709173592,0.9402989911305749,-0.026475912043910303,0.6450384451019326,1.1415947814493912,0.0,0.0,0.0,0.0
0.029031157348075553,-0.009318585913634606,0.7439481885446642,-0.0025902860865021802,-0.5256826164233834,0.002497125042797441,0.8506731696572878,0.0020160043264582767,-0.9238518849400098,0.890917244961922,-0.03514036652106295,-0.8606803315048595,1.0493145579199226,-0.05786342232487668,0.7828960073735248,0.9334058534389301,-0.031741385060239186,0.639878075098479,1.1544929023198085,0.0,0.0,0.0,0.0
0.029142809982301805,-0.009458383567241517,0.7445653293647738,-0.002655512920952909,-0.5257568330402616,0.0025524794941000073,0.8506269368007536,0.00031623079433714405,-0.9338106304457932,0.8872855382531157,-0.034843698918264485,-0.8588531489797372,1.049326122092928,-0.05555308527972862,0.7860503265382894,0.9267879251283273,-0.03692693102555292,0.6347827808690074,1.1673308817876122,0.0,0.0,0.0,0.0
0.02923263300188631,-0.009634934160026839,0.7451243511515298,-0.0027075192965653546,-0.5258284905105592,0.0025908104945120023,0.8505823626243533,-0.0013896056651420236,-0.9435303744410198,0.8833768623126306,-0.03441649207749449,-0.8572685443081344,1.0494145426328334,-0.053187248107904705,0.788902773284362,0.920622653581526,-0.042038843475633754,0.6298676617962039,1.179857716040533,0.0,0.0,0.0,0.0
0.0292992884552364,-0.009853854627717526,0.7455959156728289,-0.002746244468501182,-0.5258933032532173,0.0026125020430794784,0.8505421015845211,-0.0031297397649232175,-0.9524744398122513,0.8794323664984569,-0.03384760499831753,-0.8560542086712788,1.0496554514783347,-0.050718212387606945,0.7912793763378111,0.9151820461343636,-0.04699838030015905,0.6252563389848975,1.1915373372493452,0.0,0.0,0.0,0.0
0.029323025685683,-0.01012348578878519,0.7459394671396158,-0.002766947408481878,-0.5259490677534225,0.002611612153165502,0.8505075552946639,-0.004899708605038479,-0.9597056922953804,0.8759477208696846,-0.03310399759741294,-0.8553089838417413,1.04999872292405,-0.048164614290954144,0.7929171337283669,0.91088630492148,-0.05162153963354714,0.6211419144892506,1.2013384791224866,0.0,0.0,0.0,0.0
0.029264825232736526,-0.010453981472608006,0.7461062147576247,-0.0027647386711918604,-0.5259901718360707,0.00258568836050367,0.8504822217822329,-0.006662169388682717,-0.9639674689674779,0.8736898189892445,-0.03215659426277918,-0.8550945819051811,1.050263598896395,-0.0454926969251859,0.7934201077529404,0.9082590331277824,-0.05546579073452988,0.6179598493005972,1.2074317722297698,0.0,0.0,0.0,0.0
0.029083358946518686,-0.010850667996516811,0.7460606055065485,-0.002729558570563146,-0.5260181622919027,0.002526120003048914,0.8504652027959695,-0.008332020716469723,-0.9640907015717516,0.8735411716812843,-0.030974266494913034,-0.8553852261180266,1.0501884503567676,-0.042807984345304105,0.7925073881607245,0.907731795981684,-0.05790606126037588,0.616771474441375,1.206974120765192,0.0,0.0,0.0,0.0
0.028759262248386548,-0.011326344445436873,0.7458006700825817,-0.0026582210738866543,-0.5260335400641836,0.0024295239126009747,0.8504561987555992,-0.009872116068707835,-0.9600630835222185,0.875456761601528,-0.029515095124127047,-0.8561385491834488,1.0496585190866714,-0.04005032115411595,0.7901061386343047,0.9093182212479658,-0.0589109872033894,0.6175643528197207,1.1999749668475883,0.0,0.0,0.0,0.0
0.028295874646062157,-0.011901840971338114,0.7453589531552528,-0.0025550201945493574,-0.5260349338176946,0.002298446281528491,0.850456017334177,-0.011308353164449371,-0.9530379957606483,0.8784904472463693,-0.02772640158355427,-0.8572982104542292,1.0487136569707796,-0.03698152085071475,0.7863562920020851,0.9125935896427929,-0.05904702961156739,0.6192516683928493,1.189283436347878,0.0,0.0,0.0,0.0
0.02769439671791199,-0.012593806360844863,0.7447838012025462,-0.0024199440796940095,-0.5260269861320851,0.0021303802079148918,0.8504617658728792,-0.012634216167364834,-0.9442488295971974,0.8818171777208629,-0.0255544020349215,-0.8587144084339658,1.0473124924701902,-0.033482601564410894,0.7815220206308188,0.9170016199940659,-0.05871000057042518,0.621361223074911,1.1767257440085321,0.0,0.0,0.0,0.0
0.02693543059827501,-0.01342233153041855,0.7441175604969447,-0.002258528186605642,-0.5260038247672582,0.001936513722854253,0.8504769986867646,-0.013838893734151024,-0.9346226706150524,0.8848581903147221,-0.02296967793726936,-0.8602017568324453,1.0452869093696933,-0.029244426616066722,0.7756815134573659,0.9220356690714707,-0.05798343705225638,0.6236499713605085,1.1633181835871118,0.0,0.0,0.0,0.0
0.025982734560290183,-0.014403768282461222,0.7433932335869587,-0.002066489671918981,-0.5259698526505934,0.0017113522320603516,0.8504989800091983,-0.014855496817366278,-0.9246645407204248,0.8873231558273318,-0.019914620374866666,-0.8615040789439917,1.0422987713431404,-0.024230488074506822,0.7689187860136064,0.9273606571577864,-0.05693412281491221,0.6259608017369652,1.1495758751986154,0.0,0.0,0.0,0.0
0.024786054752076944,-0.015557845808401968,0.7426352848716075,-0.0018479173426729034,-0.5259166931347321,0.0014655415955283251,0.8505328149292974,-0.015658848474198475,-0.9146299053620698,0.8890502054059574,-0.016363199449793902,-0.8623647244230087,1.0379395937979976,-0.018190564868565136,0.7611290834105991,0.9326944101243442,-0.05548958899082641,0.6281395471572293,1.1357168785275864,0.0,0.0,0.0,0.0
0.02328984138227648,-0.016898831318381574,0.7418631341636246,-0.0016077896117720663,-0.5258354945469266,0.001210049512216148,0.8505839073644242,-0.01624205802392967,-0.9046119642210475,0.889974177932825,-0.01230715250439789,-0.8624966755954793,1.031726243022692,-0.010954506432752167,0.7521837208069653,0.9378211847091029,-0.05360336227941725,0.6300496459931118,1.121798601132103,0.0,0.0,0.0,0.0
0.021440015559329426,-0.018429120729246594,0.7410924829131885,-0.0013537364560021478,-0.5257172142813121,0.0009578159915866733,0.8506577811284811,-0.016632640238843376,-0.8946501325259453,0.8900931396803673,-0.007777080171409178,-0.8615818405776948,1.0231207597202385,-0.0024668123128869755,0.7419642033799806,0.9425824408603543,-0.05127197166730762,0.6315780561428977,1.1077936581355856,0.0,0.0,0.0,0.0
0.01919174890471023,-0.02013191089066875,0.7403356698438444,-0.0010966235123848387,-0.5255543042165978,0.0007234530040422139,0.8507590418867323,-0.016899046089251427,-0.8847877019214047,0.8894661266450524,-0.0028609093963522176,-0.8592741037235735,1.0115542731964908,0.007158074306339907,0.7304032869079542,0.9468856397204075,-0.04856008397698804,0.6326338512003843,1.093631204231175,0.0,0.0,0.0,0.0
0.016519793593674705,-0.021963944409670356,0.7395998150415648,-0.0008499478434826607,-0.5253432834416251,0.0005211743807495878,0.850889793397888,-0.017152551781340078,-0.8750875938718206,0.8882426186137989,0.002283076636041925,-0.8552229352666483,0.996477991201659,0.017583620842095485,0.7175226826482967,0.9507392879862798,-0.045629304742759086,0.6331466736253952,1.079222187882994,0.0,0.0,0.0,0.0
0.013433753969203065,-0.02384996044700901,0.7388813238528835,-0.0006270118154405953,-0.525088582401003,0.00035977694508858516,0.8510472713362274,-0.017534492768909483,-0.8656081538341425,0.8867195491241956,0.0074264725077462755,-0.849139999100856,0.9774751670358156,0.028211668437696874,0.7034658191336731,0.9543253969407043,-0.04278966945013862,0.633079800856485,1.0644844395260842,0.0,0.0,0.0,0.0
0.010001422966388444,-0.02568236635580189,0.7381539360453796,-0.00043642331010967683,-0.5248062752256906,0.00023697932987451,0.8512215498089956,-0.018172107166358337,-0.8563472621128153,0.8854054081416435,0.012288458332350254,-0.8409492115717324,0.9544941238546262,0.03820708117122798,0.6885018654128222,0.95812036622832,-0.04058666955599974,0.6324816505986676,1.0493887815972467,0.0,0.0,0.0,0.0
0.00638259736497238,-0.027333508481750084,0.7373412232130749,-0.0002875887829410648,-0.5245208345338912,0.00016678522641085274,0.8513975473392266,-0.01917810569972274,-0.847253375706227,0.8850592308954528,0.016505831761927228,-0.8310674328851957,0.9282836435061884,0.04691100051796908,0.6728381722461302,0.9630724618182323,-0.03969980876628595,0.6316599312653324,1.034107380108386,0.0,0.0,0.0,0.0
0.0030962231992309078,-0.028835596502282967,0.7362634520862487,-0.00015313150923983854,-0.5241477367349331,9.541893000301642e-05,0.8516273348839949,-0.020234129261741556,-0.8372468193253751,0.884467642243698,0.020324072423397007,-0.8232695599396562,0.9046175146159809,0.05431186275865142,0.657008861002797,0.9700584003763834,-0.04107974884998901,0.6323287935881574,1.0184526469110797,0.0,0.0,0.0,0.0
0.00040381359008929583,-0.029963888736976627,0.7350285167908791,-2.552825962673204e-05,-0.523806039284073,-2.8723843262648315e-06,0.8518375623025728,-0.02156308815845503,-0.8279877981749606,0.8846040192204446,0.023268498727272963,-0.8175960924589858,0.8848650922028213,0.05907386652760499,0.6426182444224946,0.9790081440608589,-0.046671547032851236,0.6338251771603542,1.002574554070246,0.0,0.0,0.0,0.0
-0.0012848580122920643,-0.03055503996434065,0.7339383393267086,7.858876203124705e-05,-0.5235455910141517,-0.0001015128126706986,0.8519976511989913,-0.02268554038172103,-0.8219287220081263,0.8848871037360283,0.024901102102088485,-0.8148091263565275,0.8723122758609942,0.06083910146221182,0.6322275025097548,0.9876162977280634,-0.05595551609773673,0.6357523007125466,0.9874259268788553,0.0,0.0,0.0,0.0
-0.0013021566568235325,-0.030645705193174624,0.7338856123017677,0.00015482829454557787,-0.5235495283417607,-9.417612509283106e-05,0.8519952221298993,-0.022683056020092154,-0.8219471396802003,0.884896644996855,0.025045520120939913,-0.8148767612496898,0.8721524211770777,0.060849586484422916,0.6321475420641953,0.9875452762926127,-0.05596736660793581,0.6357841569404783,0.9874343862184118,0.0,0.0,0.0,0.0
-0.0013021566568235325,-0.030645705193174624,0.7338856123017677,0.00015482829454557787,-0.5235495283417607,-9.417612509283106e-05,0.8519952221298993,-0.022683056020092154,-0.8219471396802003,0.884896644996855,0.025045520120939913,-0.8148767612496898,0.8721524211770777,0.060849586484422916,0.6321475420641953,0.9875452762926127,-0.05596736660793581,0.6357841569404783,0.9874343862184118,0.0,0.0,0.0,0.0
-0.0013021566568235325,-0.030645705193174624,0.7338856123017677,0.00015482829454557787,-0.5235495283417607,-9.417612509283106e-05,0.8519952221298993,-0.022683056020092154,-0.8219471396802003,0.884896644996855,0.025045520120939913,-0.8148767612496898,0.8721524211770777,0.060849586484422916,0.6321475420641953,0.9875452762926127,-0.05596736660793581,0.6357841569404783,0.9874343862184118,0.0,0.0,0.0,0.0
-0.0006259012163669866,-0.030833091201857152,0.7337979979293491,0.0001493282589885528,-0.523810885278935,2.376949936032033e-05,0.8518345693850304,-0.02255030714108744,-0.8239905174283573,0.8898345311666588,0.02521685187778317,-0.8173255908236268,0.878056826542732,0.06309943700863996,0.6339593326345171,0.98735740881887,-0.05440855217476666,0.6382337175437106,0.9890141584899552,0.0,0.0,0.0,0.0
0.0006897139166825509,-0.031091087571633785,0.7336799345324576,0.00016980922716090983,-0.524140856610992,7.225416606362585e-05,0.851631568446859,-0.022091358210610364,-0.8288041816863949,0.9005357666647131,0.02578174781595942,-0.8232347347661795,0.8905988959692259,0.0655824327388989,0.6377244844613421,0.9869027451690024,-0.05316730949087312,0.642363366053169,0.9905944391863682,0.0,0.0,0.0,0.0
0.002635666962587519,-0.03151849884379254,0.7335829069833819,0.00023649272686660782,-0.5245463682346005,3.369849811798945e-05,0.8513818476497442,-0.021012692827213946,-0.8357495940699281,0.916203411536704,0.02702753369844555,-0.8324442387130883,0.9096392231902164,0.06872618121823126,0.6437739621633695,0.9852825072600121,-0.051817558207818845,0.6484274146122498,0.9919890764135474,0.0,0.0,0.0,0.0
0.005231844850661561,-0.03233163247681728,0.7336606853176273,0.0003946137341469818,-0.5250339595411326,-0.00016165095544031776,0.8510811709099959,-0.018585065624872804,-0.8436097666924036,0.935643244607649,0.02967757932418283,-0.8449326369517847,0.9355669135409577,0.07328126242839184,0.6531479088129668,0.9802389720341524,-0.04959694869670505,0.6571726607580342,0.9923803097532854,0.0,0.0,0.0,0.0
0.008636840325142371,-0.03386375932777324,0.7345585957703281,0.0007532918630802062,-0.5257222933495523,-0.000751334237475476,0.8506555932476549,-0.013337972724314032,-0.849045253264098,0.9570880877108511,0.03518119388974725,-0.8596216661864132,0.9692747200819984,0.07943650166949492,0.6704685159762938,0.9647777019699605,-0.04637251030983382,0.6720020084511166,0.9867308227717863,0.0,0.0,0.0,0.0
0.011654222674090782,-0.03508779049395309,0.7355638070131191,0.0008038923409134582,-0.5254344501864634,-0.0006493017597599735,0.8508334565128347,-0.010561390909515756,-0.8594630577509408,0.9812168974614909,0.03112913839255701,-0.8493128369649532,0.9399708034335162,0.0642422955011878,0.6632360727811389,0.9932102499091535,-0.0379376649989276,0.6862017380237462,0.9778284308000583,0.0,0.0,0.0,0.0
0.014640328200258595,-0.036486114474469054,0.7365510830943924,0.0009473165773165728,-0.5253274520055191,-0.0007521251119796047,0.850899291966157,-0.006784033558614303,-0.8674816177064171,1.0024695674733581,0.02817837961379513,-0.8480776000784276,0.921713962485452,0.05309214060675298,0.6581967690850417,1.0165976568820523,-0.029914418303557653,0.7003048228102838,0.969551571532586,0.0,0.0,0.0,0.0
0.017382628238340535,-0.037958961642683024,0.7374969396072557,0.0011586769418431256,-0.5253512464809411,-0.0009589682808595779,0.8508841317526741,-0.002523740707921724,-0.8729661447169405,1.0198819194038005,0.02596480137664871,-0.8523230051471806,0.911428535538284,0.04740508483349374,0.6543136365932858,1.035955439665554,-0.02216599537686894,0.7136757189937809,0.9620479343687706,0.0,0.0,0.0,0.0
0.019757497562202065,-0.039429513853103636,0.7384057730310154,0.0013965588280659622,-0.5254299118800075,-0.0012018823913846715,0.8508348916234715,0.0018464156666351287,-0.8762342536424893,1.0333604100326534,0.0242614631276955,-0.8593356454518248,0.9056326892799262,0.04528617160404092,0.651012589517431,1.0528283727004275,-0.014521371244094316,0.7259198957804409,0.9551720394522994,0.0,0.0,0.0,0.0
0.02172769247187339,-0.040846052291166536,0.7392843008472004,0.0016332365373621146,-0.5255213243933687,-0.001442714989451799,0.8507776376467072,0.0060883426254425424,-0.8776695502787402,1.0432311996947168,0.022928220567829834,-0.867650474357914,0.9021745047637189,0.04512751218470077,0.6479844454493383,1.0682150627202311,-0.0069637283474149134,0.7368962149360393,0.9487868310216334,0.0,0.0,0.0,0.0
0.023310678973499577,-0.042174837790689174,0.7401384496680466,0.001854161258795924,-0.5256059776392126,-0.0016640933193931096,0.8507244848653284,0.010061714488248368,-0.8776543544706522,1.0500250249385772,0.021833984957016127,-0.8765315685752155,0.8997774776567553,0.0459321522038273,0.6450150227754311,1.082734184741369,0.0003985234912268817,0.7466228693238988,0.9427577129585935,0.0,0.0,0.0,0.0
0.02455359649971692,-0.04339662386296744,0.7409721621794918,0.002052886147918548,-0.525677233758417,-0.0018600670890347533,0.850679594040545,0.013694521640019375,-0.8765424253079331,1.0543407425042575,0.020851893532079942,-0.8856329868345841,0.8977106544808449,0.04713628911965744,0.6419626467782118,1.096773828976608,0.007422014630312835,0.7552125731416627,0.9369642515491026,0.0,0.0,0.0,0.0
0.02551579502727423,-0.044503793808694604,0.7417870143788897,0.0022276553018876293,-0.5257348163695111,-0.0020306449170765187,0.8506431783597592,0.016962880749116036,-0.8746455110431455,1.0567618857442924,0.019873534079873544,-0.8948087483041205,0.8955765054158452,0.048428822972739184,0.6387526063739213,1.1105830386621418,0.013985201298746978,0.7628219049753956,0.9313132817113692,0.0,0.0,0.0,0.0
0.02625790687634277,-0.04549744995600629,0.7425824836865377,0.0023794070829118072,-0.5257810392202921,-0.0021787563406608975,0.8506138314412549,0.019875498286484893,-0.8722279035585356,1.0578117113790915,0.01881866049449005,-0.90401351755043,0.8931731028077597,0.04964044571102764,0.6353674409031395,1.124323390894223,0.020011649985416005,0.7696170182679337,0.9257446378614557,0.0,0.0,0.0,0.0
0.02683584038967933,-0.046384550746367166,0.7433562957110145,0.0025105158974401084,-0.5258189280010702,-0.0023084058969853865,0.8505896916421859,0.022460775390469347,-0.8695075287165741,1.0579351423681218,0.01763705203244978,-0.9132526899524511,0.8904058248434075,0.05068472893521538,0.6318364880696502,1.1380964019787376,0.02547287647468784,0.7757531619457215,0.9202318929998131,0.0,0.0,0.0,0.0
0.027298030325203185,-0.04717523922924272,0.744104436372793,0.00262386211437415,-0.5258514483548257,-0.0024233700104586576,0.8505689254190569,0.02475583690499994,-0.8666624354537142,1.057497997009097,0.01630560778498734,-0.9225515197786692,0.8872342778472709,0.05152862407888482,0.6282277389517411,1.1519541277365626,0.030381794308727242,0.7813632653024637,0.914782274181142,0.0,0.0,0.0,0.0
0.02768429208550955,-0.04788017089805262,0.7448206426847972,0.0027225644544348355,-0.5258804782562274,-0.002527111930605172,0.8505503653147668,0.02679877719136656,-0.8638427809889859,1.0567969133439254,0.01482634421291057,-0.931921285249317,0.8836451494311577,0.05216847952799295,0.6246404666074502,1.1658921147651644,0.034768795667250815,0.7865435293310796,0.9094360023623876,0.0,0.0,0.0,0.0
0.02802505088579147,-0.04850866565725222,0.7454947589638626,0.0028091443045241155,-0.5259069055090688,-0.0026216610074878003,0.8505334575075302,0.028620945821756047,-0.8611813949722065,1.0560656707607883,0.013222252869081085,-0.9412998387079912,0.8796591472502094,0.05261836685068373,0.6211979251687464,1.179818381060187,0.038677418906742776,0.7913432790768328,0.9042814376531598,0.0,0.0,0.0,0.0
0.02833944488267633,-0.04906707202316188,0.7461103704833497,0.002885238971150649,-0.5259298168761889,-0.0027077020365706066,0.8505187660871093,0.030242942277605604,-0.8588031556644731,1.0554740437157901,0.011533153771641632,-0.950456513380764,0.8753701906327617,0.052880288043423006,0.6180356006527201,1.1934814327269458,0.04214776233404838,0.7957406514971066,0.8994768775014713,0.0,0.0,0.0,0.0
0.028631816207139556,-0.04955844205235833,0.7466417769960958,0.0029505120955142673,-0.5259466857856295,-0.0027835669505549385,0.8505078658922081,0.03167162961304955,-0.8568238612720808,1.0551062761731242,0.009801265645981007,-0.9588636326895611,0.8710287915508291,0.052903805168150415,0.6152958352053457,1.2063361255594134,0.04522716975570538,0.7996187824360005,0.895289582516063,0.0,0.0,0.0,0.0
0.028887398627451585,-0.0499834273154044,0.7470521905773674,0.0030018404818080648,-0.5259530260293077,-0.0028452758951761498,0.8505035612914367,0.03290290820522978,-0.855339684103431,1.0549276973207735,0.00804717981433514,-0.9655893059722604,0.8671479640759738,0.052509878229435564,0.6131629148442239,1.217321139809982,0.04798052905557323,0.8027415756165527,0.89212618427713,0.0,0.0,0.0,0.0
0.029072624402501607,-0.05034341256770578,0.7472973822374003,0.0030324411000986666,-0.5259432260908635,-0.0028864257659608527,0.8505093743024863,0.03392979654606365,-0.8544066211058051,1.0547680416650724,0.006243386681623211,-0.9693453575942284,0.8645683320829635,0.05131099032087114,0.6120297493758043,1.2245408593385376,0.050523168987923,0.8047802932610847,0.8905086430183208,0.0,0.0,0.0,0.0
0.02915261769299722,-0.05064393776198225,0.7473452675726995,0.0030342378727295444,-0.5259141459626671,-0.002901521889430513,0.8505272985904776,0.03475815644444009,-0.8540125603015876,1.0544011591678184,0.0043339264800172665,-0.9689488780722403,0.8643031745962043,0.048741008786365905,0.6128763076339422,1.2250420272756468,0.053006051541995045,0.8054746732418582,0.8908560740267714,0.0,0.0,0.0,0.0
0.02911922093959073,-0.05088593688740172,0.747195582696564,0.0030072287136287314,-0.5258658256205057,-0.0028901132680538805,0.8505573098064737,0.03538888206461623,-0.8541239784505167,1.053758309771095,0.0023337191622832733,-0.96439588549963,0.8663249860681225,0.044814751757783544,0.6156654826451662,1.2188122582003156,0.05543593297667105,0.8047970261209767,0.893191162296199,0.0,0.0,0.0,0.0
0.028992086529239323,-0.05106686489159557,0.7468808101074319,0.0029594673479237084,-0.5258011346870115,-0.0028565981128672903,0.8505975829745165,0.03582048422867258,-0.8546858288552251,1.0529322812939328,0.0003333440796027937,-0.9568697445821387,0.8695959893471829,0.040117112573807484,0.6193658874191087,1.208775137120534,0.05768620006807281,0.8029628260192896,0.8971290214754604,0.0,0.0,0.0,0.0
0.02879059537533052,-0.05119036883770587,0.7464479062842037,0.002897638810797552,-0.5257249501390072,-0.0028059535855961197,0.8506450535418024,0.03606882981928885,-0.8555679222139814,1.0519578164037005,-0.0016054756450353017,-0.9476551376763912,0.8732649884851231,0.03505002925382187,0.6235531851990044,1.1967992466747797,0.059686688804891135,0.8002750799348284,0.9021585645847192,0.0,0.0,0.0,0.0
0.028515440085687224,-0.051263065919254204,0.7459388962292968,0.0028249986866243112,-0.5256404426503577,-0.0027411072522061744,0.8506977317260159,0.03615339582955951,-0.8565880015463017,1.050723931148674,-0.003471945568961723,-0.9376742815088489,0.8768068952812266,0.029808822547046712,0.6280204339388968,1.1839211275382295,0.061430531583780985,0.7969553239106649,0.9078646720194608,0.0,0.0,0.0,0.0
0.02814815884010438,-0.05129219314542207,0.745386658132021,0.00274223055362039,-0.5255485583057057,-0.00266306282455729,0.8507550182812779,0.0360912201176006,-0.8575303908331464,1.0489862947766766,-0.005276719991624754,-0.9274452472514767,0.8799619192039215,0.024466283264156997,0.6326085556477192,1.17066330675965,0.06294543250040925,0.7931135047505659,0.9139636797141629,0.0,0.0,0.0,0.0
0.02765606037594719,-0.05128551491233149,0.7448162331261069,0.0026486243102271287,-0.5254480238514899,-0.002571566805089675,0.8508176926134026,0.0358980067355926,-0.8581585887413807,1.0464031176379318,-0.007024465945744133,-0.9171960358266745,0.8826335204746208,0.019040441133689953,0.6371699131416578,1.1572599662309797,0.06427867117045317,0.7887682947682468,0.9202777641197096,0.0,0.0,0.0,0.0
0.026997320915339282,-0.051252682097015174,0.7442472268029466,0.002542956029614419,-0.5253356827104518,-0.002465829501458599,0.8508876973670759,0.03559331151477957,-0.8582194597087441,1.042562860192828,-0.008704210826246731,-0.9069963165680884,0.8848107070238443,0.013529104590078802,0.6415728249686063,1.1437984065794389,0.0654971755179155,0.7838771125696311,0.9267027534272829,0.0,0.0,0.0,0.0
0.026125446287396777,-0.05120710659770656,0.7436955256200672,0.002423928052658805,-0.5252071382351577,-0.0023450222828143544,0.8509677358103094,0.0352067289863069,-0.8574444207465808,1.0370034581630176,-0.010295673887444519,-0.8968553756533675,0.886531020419247,0.007918123452681482,0.6457097821947703,1.1303025519394143,0.0666975023210167,0.7783635280135117,0.9331865927422072,0.0,0.0,0.0,0.0
0.024994147584214543,-0.051167436830526894,0.7431736559203127,0.0022903325716828304,-0.5250575196854907,-0.0022086779468789113,0.85106079520805,0.03478297380206692,-0.8555569183731542,1.029236596121901,-0.01178507211722166,-0.8867791885345553,0.8878798582258061,0.002167310009274833,0.6495020588981092,1.1167843749494168,0.06801496258867887,0.7721398458698165,0.9397196611573164,0.0,0.0,0.0,0.0
0.023564430365015442,-0.051157841172439836,0.7426894557381899,0.002140846396556234,-0.5248826589813528,-0.002056679795218175,0.8511694197664711,0.03438301497608353,-0.8522962204488979,1.018795203706766,-0.013184781882650137,-0.8767961100095248,0.8890194912113308,-0.0038253487312796975,0.6529075849552527,1.1032855603374816,0.06962885822769725,0.7651303219813548,0.946335447011895,0.0,0.0,0.0,0.0
0.021816055900668825,-0.05120603080688672,0.7422429137291425,0.0019733684719389446,-0.5246809454708525,-0.0018885906436089423,0.8512945697595322,0.03407792035383425,-0.8474703712663965,1.0053284920616155,-0.014548851087868209,-0.8669670852877903,0.8902426886776965,-0.010290225634506333,0.6559463848129319,1.0899295694049458,0.071758768199845,0.7573017057466672,0.9531178491144489,0.0,0.0,0.0,0.0
0.019765948127345973,-0.05133761599576473,0.7418211421725058,0.0017837383078915226,-0.5244562083163159,-0.0017019456296065208,0.8514338536945756,0.033931109197694084,-0.8410560438002336,0.9887786494331535,-0.015969890096186982,-0.8574025866853588,0.8920474385213915,-0.01770195394219548,0.6587660712808026,1.0770062689400317,0.07464815296909284,0.7487099155529301,0.9602109657780282,0.0,0.0,0.0,0.0
0.017496593375805246,-0.05156508509511765,0.7413915200707322,0.001563634603426113,-0.5242219827422399,-0.001488961064616806,0.8515789163968128,0.03396395347535901,-0.8333712477251245,0.9696887372336033,-0.017533840650519314,-0.8483189910830841,0.8952213315544918,-0.026968348780091793,0.6617797521924017,1.0651135968800796,0.07853523640311653,0.7395740577237695,0.9678280201618419,0.0,0.0,0.0,0.0
0.0151970242075549,-0.05186812010083938,0.7408929424279973,0.0012990512472818528,-0.5240012952162223,-0.0012334386686342143,0.8517155826369676,0.03410188130674866,-0.8253860020720267,0.9497358192883549,-0.019212813717286493,-0.8401614742105481,0.9008181238823297,-0.0397180252272239,0.6659180552690517,1.0553159373693437,0.08356711454973685,0.7303579233697506,0.9762408594582578,0.0,0.0,0.0,0.0
0.013341528193173606,-0.05209967112265783,0.7402578654401968,0.0009623414748978639,-0.5237564266763981,-0.0008993208076023019,0.8518670498593905,0.033929419512322145,-0.820251833231747,0.93428152138906,-0.02128257833871555,-0.8334947546897591,0.9090553632518102,-0.05878524975968816,0.6731119121371474,1.0489084784462233,0.0892588160011512,0.7222085072997073,0.9849623537109091,0.0,0.0,0.0,0.0
0.012224121918492878,-0.052287896420090255,0.7397004128368091,0.0006127223784465714,-0.5236041807974144,-0.0005213384411907315,0.8519612753106711,0.033576370148019515,-0.8179872118739028,0.9252308762653102,-0.02262530528132224,-0.8316691517355909,0.9211594354709537,-0.0819270834665739,0.6815066650653766,1.0474021970208238,0.09543876908895042,0.717275184728171,0.9920067198968144,0.0,0.0,0.0,0.0
0.012209242170968852,-0.052250750852201995,0.7396816348122178,0.0005574770189016461,-0.5236051119603704,-0.0005193891544662629,0.851960742160839,0.03351177319509276,-0.8180251744786996,0.9251401392121422,-0.022637800509194193,-0.831670749477608,0.9211695280069926,-0.08192439074125465,0.6815244799691389,1.0474079151948967,0.09544624489257443,0.7172183251852986,0.9919670833532905,0.0,0.0,0.0,0.0
0.012209242170968852,-0.052250750852201995,0.7396816348122178,0.0005574770189016461,-0.5236051119603704,-0.0005193891544662629,0.851960742160839,0.03351177319509276,-0.8180251744786996,0.9251401392121422,-0.022637800509194193,-0.831670749477608,0.9211695280069926,-0.08192439074125465,0.6815244799691389,1.0474079151948967,0.09544624489257443,0.7172183251852986,0.9919670833532905,0.0,0.0,0.0,0.0
0.011943225286132984,-0.052237695380497495,0.7395317274006875,0.0004169269170591232,-0.5235374721784182,-0.0003911618123961246,0.8520024579714628,0.033218863490155556,-0.8179849589116797,0.9234863565337222,-0.022922987267483777,-0.8307495845277918,0.918768428580989,-0.07985180439199836,0.6791740877359572,1.048800884820951,0.09710430297006627,0.716018986686461,0.9935663354183966,0.0,0.0,0.0,0.0
0.012189280300805768,-0.05217667246918518,0.7393843707089732,0.00033206822581440556,-0.5235327582783402,-0.0003119514397274833,0.8520054245287795,0.03293140136921183,-0.8200804689206527,0.9264969248399345,-0.02325713720593735,-0.8320697341775852,0.9209300701842319,-0.07931292069563581,0.6790088346792233,1.0499224604020905,0.09803734957898995,0.7164545098593795,0.9944893383262616,0.0,0.0,0.0,0.0
0.013034492571067658,-0.0520180841410497,0.7392987349039067,0.0002938467657988772,-0.5236644403844322,-0.0002837089093157782,0.8519245195674277,0.032532366639755686,-0.8242348298192798,0.9346753407505218,-0.02375610059727901,-0.835314374710022,0.9277974480947608,-0.08073398001644541,0.6818416172927424,1.0504518935295124,0.09803251688918554,0.7192947720339455,0.9940633678782747,0.0,0.0,0.0,0.0
0.014541853732778743,-0.05169715343072878,0.739402783291315,0.0002916735665587695,-0.5239453331637881,-0.0003021479112459006,0.8517517898361336,0.03184862514809809,-0.8303814888305783,0.9485035800275126,-0.02459264175557012,-0.8400824936959543,0.9393637309842913,-0.084615230173945,0.6885661873454881,1.0493802062948172,0.09666519092256569,0.7253666406987948,0.9908098662658893,0.0,0.0,0.0,0.0
0.01687550136087877,-0.05112846477953772,0.7402673900896816,0.00030148369120793113,-0.5244841627717112,-0.00034168788915184473,0.8514200816040385,0.030584202628018024,-0.8370001356509588,0.9682565899616271,-0.0260348810275605,-0.8443578054827694,0.9552587754667181,-0.09154592896472791,0.7026695630450042,1.041860645416007,0.09356996109676649,0.7382538182675944,0.9790964245342654,0.0,0.0,0.0,0.0
0.019039766984962778,-0.05118988332187557,0.7411935861775896,-0.0003988824237960632,-0.5243029153566058,0.0004581448024067905,0.8515316106550102,0.028280780711277577,-0.8306255900872543,0.9428154206919597,-0.02772294074655356,-0.8506069118252492,0.9733950151308203,-0.08034893516657915,0.709814751914185,1.0296064954035353,0.06918256794021671,0.7170962647940292,1.0032921780116473,0.0,0.0,0.0,0.0
0.021294870476270343,-0.05113003789931655,0.7422152484506694,-0.0009326613466289894,-0.5243011390322504,0.0010371484246568506,0.8515317786644503,0.024670072289462434,-0.8320586606562621,0.9264700384384967,-0.029215207542543385,-0.8559658269494709,0.9908350879688902,-0.0731446683939638,0.719355667543452,1.0170615854171217,0.04874223394818737,0.7014007889423898,1.022044579710366,0.0,0.0,0.0,0.0
0.023398047276760328,-0.050950299040549644,0.7431689280690106,-0.001277117136158006,-0.5244318685811254,0.0013698251620718955,0.8514503554332191,0.021475383116238,-0.8380229541472161,0.9171492152421792,-0.03045172648676059,-0.8602264528723459,1.0059993321863696,-0.07024200249904906,0.7297601119786661,1.0059343348746597,0.03413584754634568,0.6908816877253559,1.0378256691544763,0.0,0.0,0.0,0.0
0.025212608742405638,-0.050713620345755626,0.7440237736470664,-0.0015154936907434192,-0.524613365258527,0.0015787020565846438,0.851337787233019,0.018983940131778707,-0.846213871395709,0.9119126309587418,-0.03155100948544125,-0.8632655628652178,1.0182947275156473,-0.06950581621392919,0.7395990885616465,0.9963033346703739,0.023463291384419403,0.6835654568140225,1.0521524238480717,0.0,0.0,0.0,0.0
0.026693951749413365,-0.05047390189966909,0.7448042645347117,-0.0017022032019708441,-0.5247983189437843,0.0017372973078548478,0.8512231251182626,0.017013886485399737,-0.8553881130586289,0.9088306096126834,-0.03253691558909965,-0.8650944607263795,1.0277331071599805,-0.06947028479315905,0.7482863845308159,0.9877674555303807,0.015039480760785857,0.6779567315328039,1.0657257536616624,0.0,0.0,0.0,0.0
0.027851750499124646,-0.050266338699252885,0.745542099777391,-0.0018624069640425795,-0.5249659760670541,0.00187606448889572,0.8511191078775632,0.015309591167199087,-0.8649467973113281,0.9067369161342719,-0.03338300016741563,-0.8658312244056493,1.034622559513067,-0.06936683546200252,0.7557257416050679,0.9799074225051695,0.00785776310647525,0.6731227354335745,1.0788938747513372,0.0,0.0,0.0,0.0
0.028723929037348436,-0.05010998866021892,0.7462597883173085,-0.0020051121899601677,-0.5251108326951491,0.0020034171254059052,0.8510291294844933,0.013686700167419493,-0.8746338544617135,0.9049570318870089,-0.034056675898294454,-0.8656561121969569,1.0393923484324608,-0.06887768587122439,0.762045342497016,0.9724187543109886,0.0013848374461477532,0.6685371645292147,1.091847244757379,0.0,0.0,0.0,0.0
0.029360114642552695,-0.05001243568513214,0.7469686217925374,-0.0021327729035471345,-0.52523447774903,0.0021198516423818056,0.8509522318511539,0.012054591300828272,-0.8843597398611381,0.9031194264236354,-0.03453976153209802,-0.8647731917265379,1.0424964506040295,-0.06792466089321575,0.7674475296005459,0.9651182696319626,-0.004651630053819134,0.6639309056561138,1.1047021341768544,0.0,0.0,0.0,0.0
0.029811563843924523,-0.04997404338776737,0.7476711709711626,-0.002246860357113432,-0.5253400987750874,0.002225898230593765,0.8508864657606113,0.01038770432685397,-0.894115240037397,0.9010285236084304,-0.034834994458252874,-0.863385452740658,1.0443635885191083,-0.06651643992684732,0.7721252288906846,0.9579139476523029,-0.010384931555573192,0.6591882664860671,1.1175360101045722,0.0,0.0,0.0,0.0
0.030126124838182965,-0.049989925147620067,0.7483647300518989,-0.0023475786207553147,-0.5254327982552022,0.002320227453949749,0.850828701876523,0.008699172956173475,-0.9039211364381886,0.8985930457776422,-0.034955132386220764,-0.861673790067184,1.0453665807347223,-0.06474414331744119,0.7762611970938542,0.9507839827235163,-0.015898552069597432,0.6542906424641796,1.1304006164095461,0.0,0.0,0.0,0.0
0.030345429224426273,-0.05005283396837356,0.7490431840365954,-0.002434771960059631,-0.5255179735615337,0.002400819144412014,0.8507756269526751,0.007012824125047571,-0.9138041535332837,0.8957741659272908,-0.03491749454052557,-0.8597948817681713,1.045817664885482,-0.06272923070407667,0.7800083368244243,0.9437553178032502,-0.021256083668172762,0.6492797143675176,1.1433208230953762,0.0,0.0,0.0,0.0
0.030503004548073802,-0.050156785821075474,0.749697035367499,-0.00251027031351488,-0.5255975512010874,0.002469347617624349,0.8507260516974408,0.0053365571384061256,-0.923775219858446,0.8925526985327707,-0.03474464433380019,-0.8578936542738735,1.0459796323897594,-0.06052437058881923,0.7834449829251365,0.9368867805029872,-0.026488301979841804,0.6442306671084093,1.156278755846953,0.0,0.0,0.0,0.0
0.030623750650335117,-0.0502973145190059,0.7503129538245285,-0.002573818163799401,-0.5256740680406168,0.0025237103545016435,0.8506784236923699,0.003668948343341867,-0.933756722850784,0.8889518655899856,-0.03444584784855214,-0.8560998984734652,1.0460575271887032,-0.05821356660110931,0.7866148817450802,0.9302901392461503,-0.03163221135489505,0.6392462122855721,1.1691773069559923,0.0,0.0,0.0,0.0
0.030721296505427934,-0.0504742897569989,0.750871093401054,-0.0026248833399570436,-0.5257475650486552,0.0025619172367089046,0.8506327318020004,0.001991342409023005,-0.9434985768092873,0.8850687631474968,-0.03401919645074823,-0.8545410028553414,1.0461998825829224,-0.05583433990031668,0.789474913561533,0.9241434544612124,-0.03669272674518363,0.6344390752918185,1.1817654588247553,0.0,0.0,0.0,0.0
0.030794207939720257,-0.05069308894387547,0.7513420401801933,-0.0026628368045532127,-0.5258145996715009,0.002583206506555216,0.8505911139417082,0.000276675427717714,-0.952460843541771,0.8811466575235929,-0.033451387114033615,-0.8533421831500592,1.0464789893368882,-0.05335632251395197,0.7918587996803528,0.9187221018370958,-0.04159827180312732,0.6299298610046844,1.1935060879454589,0.0,0.0,0.0,0.0
0.030822443540994907,-0.05096224426682387,0.7516851858505302,-0.002683509866174035,-0.5258721826625984,0.002582706907461317,0.8505554513972049,-0.0014759667316492184,-0.9597078010322819,0.8776790147315153,-0.03271143744932646,-0.8526034504686475,1.0468452580488232,-0.05078166378837694,0.7934959524175368,0.9144429089885479,-0.04616219243670591,0.6259025973264429,1.2033641903377725,0.0,0.0,0.0,0.0
0.03076698699111407,-0.05129156831927098,0.7518520541854659,-0.0026816051592817255,-0.5259150980217414,0.002557110060425053,0.8505290000080483,-0.0032309380218973355,-0.9639787202041086,0.8754348021968278,-0.031769140618633056,-0.8523844645928208,1.0471157255388126,-0.048089951923501774,0.7939978429379762,0.9118278328707623,-0.04995750539618723,0.622781635525447,1.2095040273663793,0.0,0.0,0.0,0.0
0.03058656760778558,-0.05168643531369702,0.7518074286225889,-0.0026474245905611254,-0.5259441395499717,0.002498399354905057,0.850511323391253,-0.0049075917022137145,-0.9641040269686798,0.8752949960286491,-0.030594724013795607,-0.8526611522822551,1.0470312273619549,-0.04537818260564857,0.7930813637861984,0.9113018707921139,-0.052368931937492307,0.6216144035001706,1.209074962787501,0.0,0.0,0.0,0.0
0.030262208494944938,-0.05215933048614476,0.7515494290455474,-0.0025778360043808277,-0.5259597787360464,0.0024032570514117557,0.8505021400731502,-0.006469316886423784,-0.9600714573416462,0.8772151597069405,-0.029147349619886194,-0.8533915984347106,1.0464787314190624,-0.0425874948870255,0.7906750231592611,0.912878337699014,-0.05336751342917056,0.6223878665871264,1.2020853848900888,0.0,0.0,0.0,0.0
0.02979793909542178,-0.05273038744496269,0.7511103774305097,-0.0024768438248220386,-0.5259613876495389,0.002273713826740326,0.8505018013924914,-0.007938698069466867,-0.9530351198108008,0.8802518452519315,-0.027375084783406108,-0.8545185770575283,1.0454987292131384,-0.03949115269375503,0.7869233085988452,0.9161395867175247,-0.05351444453375982,0.624028317488641,1.1913905679200698,0.0,0.0,0.0,0.0
0.029195617241031938,-0.0534159884443697,0.7505382495610062,-0.0023449831535869224,-0.5259531322986393,0.002108336176072336,0.8505077063718047,-0.009309860786917212,-0.9442343752133664,0.8835794329840878,-0.025227586174479354,-0.8558955848770028,1.0440549852822254,-0.03595765848662603,0.7820832384983869,0.92053312303227,-0.053190400111895776,0.6260752032292758,1.1788224315039662,0.0,0.0,0.0,0.0
0.028436967660981756,-0.05423486983212424,0.7498754015526423,-0.0021858519665514066,-0.5259318475471817,0.0019146656379517913,0.850521750364024,-0.010562052731780427,-0.9345903696459104,0.8866288820622624,-0.022670495888313904,-0.8573323414649575,1.0419761181512797,-0.03173401789664287,0.7762586195004046,0.9255662957815318,-0.05249970946846196,0.6282977473438865,1.1654016133805953,0.0,0.0,0.0,0.0
0.027485999981229987,-0.05520421992714053,0.7491548878487131,-0.0019967755790706357,-0.5258991099990177,0.0016906990249235898,0.8505429327943035,-0.011635750905219951,-0.9246178426854602,0.8891026895277672,-0.019652642733333628,-0.8585828235814077,1.038936397436141,-0.02672991715541767,0.7695089873161858,0.9308937355702562,-0.05148568904055859,0.6305386524088442,1.15164340251298,0.0,0.0,0.0,0.0
0.026293160087885747,-0.056343434865883855,0.7484014611083711,-0.0017807633096946958,-0.5258475446360253,0.0014453963489643746,0.8505757458990307,-0.012501564368496578,-0.914569602778315,0.890844506885204,-0.01614506539194054,-0.859390185207631,1.0345288907390284,-0.020717120611287623,0.7617411029258094,0.9362365275372786,-0.05008704529486822,0.6326480379762978,1.137766494945951,0.0,0.0,0.0,0.0
0.02480332227714985,-0.05766697422745336,0.7476347564836514,-0.0015422187913898414,-0.5257683998753454,0.0011891524458250648,0.8506255328698868,-0.01315153562319511,-0.904540600448779,0.8917938193419377,-0.012137786918419394,-0.8594699492422073,1.028274296201338,-0.013528136260613215,0.7528286021744904,0.9413789677493234,-0.04825796324606283,0.6344926769005905,1.12382852983396,0.0,0.0,0.0,0.0
0.02296260421835565,-0.059177933155131764,0.7468709054360717,-0.0012882199999142835,-0.5256523956655201,0.000934578683938944,0.8506979640172032,-0.013610897779278772,-0.8945727724726051,0.8919531788486939,-0.007658866203287358,-0.8585075587097376,1.0196394868043384,-0.005103720866696164,0.7426534797431602,0.9461583283485451,-0.04599312362880711,0.6359624414613788,1.1098025113856598,0.0,0.0,0.0,0.0
0.02072608036779085,-0.06086071744492321,0.7461230010184734,-0.001029079535008836,-0.5254914459627907,0.0006961311857793085,0.850797976382536,-0.013943316303133564,-0.8847134508075986,0.8913873725427323,-0.0027926542167812166,-0.8561607433037349,1.008060671966179,0.004449395658090473,0.731148531869429,0.9504725871715445,-0.043352386783752396,0.6369695758582804,1.095618581774863,0.0,0.0,0.0,0.0
0.018067961779634927,-0.06267370791289721,0.7453993366400368,-0.0007779193651718417,-0.525281145523717,0.0004882675309464247,0.8509282429168579,-0.014252847531280064,-0.875032645138152,0.8902536106925686,0.002306437428848779,-0.852081878754209,0.9929927422862738,0.014806462364525987,0.7183350117018107,0.954314054005702,-0.040485776090047054,0.6374469990351442,1.0811897652571236,0.0,0.0,0.0,0.0
0.01499661092901236,-0.06454333343428267,0.7446979110421995,-0.000548109248569453,-0.5250246991403359,0.0003206571360574184,0.851086753538,-0.014673601651333712,-0.8656010633362253,0.8888604720773486,0.007412627094811868,-0.8459814673851184,0.9740168647309797,0.02538273357357891,0.7043556907505989,0.9578422303643107,-0.03767586462010695,0.6373612847351076,1.0664380197449272,0.0,0.0,0.0,0.0
0.01157760269284057,-0.0663626821576501,0.7439942471904292,-0.00034848703343558495,-0.5247376881246529,0.00019160747348955504,0.8512638841774964,-0.015330310604349641,-0.8564363554601131,0.8877417695417584,0.012245838635967673,-0.8377711565021665,0.9510636739561201,0.03534009519609065,0.6894849749842469,0.9615123175241744,-0.035413813521508006,0.6367651844881118,1.0513437500013365,0.0,0.0,0.0,0.0
0.007968077780169239,-0.06800163272143232,0.7432137943172539,-0.00018615716694209134,-0.5244506824455211,0.00010999369796581759,0.8514407994272549,-0.01633827056362487,-0.8475063072259088,0.887735759072385,0.01644913970903985,-0.8278193992265525,0.9248225573530291,0.043940564568856276,0.6739758773932384,0.9662773635174274,-0.03432871685493555,0.6359700677966131,1.0361181332598495,0.0,0.0,0.0,0.0
0.0046897831439989355,-0.06949605684923135,0.7421718301268656,-3.6472512735701694e-05,-0.5240792217576121,2.4413095241115025e-05,0.8516695177095938,-0.017382824326178856,-0.837677288772992,0.887616660790519,0.020272070166083175,-0.8199366078531654,0.90112276028187,0.05123186636717109,0.6583423335648544,0.9730310702112962,-0.03515182762202285,0.6367872200778846,1.0206110277056555,0.0,0.0,0.0,0.0
0.0020045153878550806,-0.07062054763718922,0.740976202362314,0.0001073334352672147,-0.5237451570738707,-9.184632616006066e-05,0.8518749852445795,-0.018709627561122658,-0.8286413295412294,0.888473767022098,0.023241439942697763,-0.8141483236462606,0.8813210557042163,0.05585467105924432,0.6442064931235583,0.9817072119418185,-0.03968453865485637,0.6385838682595697,1.0050343444568999,0.0,0.0,0.0,0.0
0.00032355278066795536,-0.07121085968893247,0.7399231759439667,0.0002230780379166204,-0.5234968914245839,-0.00020783576737540271,0.8520275299010474,-0.019868219169789345,-0.8229073509514897,0.8897764499944576,0.024909127449152413,-0.8112380873284402,0.8687264043654018,0.05749574267209036,0.6340859617652683,0.9900433892534364,-0.04756196971363066,0.6409108829095529,0.9903198630901104,0.0,0.0,0.0,0.0
0.00030594097333783984,-0.0713016148610664,0.7398713357226275,0.00029992822064211133,-0.523500517609469,-0.00020094202470369893,0.8520252799817523,-0.019865386534049418,-0.8229261027013565,0.8897862744986936,0.025054073997139464,-0.8113054959306477,0.8685664254793162,0.05750572515232225,0.634006353019057,0.989972541401922,-0.04757314047218831,0.6409431199729393,0.990328518795577,0.0,0.0,0.0,0.0
0.00030594097333783984,-0.0713016148610664,0.7398713357226275,0.00029992822064211133,-0.523500517609469,-0.00020094202470369893,0.8520252799817523,-0.019865386534049418,-0.8229261027013565,0.8897862744986936,0.025054073997139464,-0.8113054959306477,0.8685664254793162,0.05750572515232225,0.634006353019057,0.989972541401922,-0.04757314047218831,0.6409431199729393,0.990328518795577,0.0,0.0,0.0,0.0
0.00030594097333783984,-0.0713016148610664,0.7398713357226275,0.00029992822064211133,-0.523500517609469,-0.00020094202470369893,0.8520252799817523,-0.019865386534049418,-0.8229261027013565,0.8897862744986936,0.025054073997139464,-0.8113054959306477,0.8685664254793162,0.05750572515232225,0.634006353019057,0.989972541401922,-0.04757314047218831,0.6409431199729393,0.990328518795577,0.0,0.0,0.0,0.0
0.0009737025346008002,-0.0714764653761538,0.7397848126671186,0.00028728486821838977,-0.5237580780977864,-7.863482900077697e-05,0.8518670007174133,-0.019768436372049662,-0.8249684303957219,0.8946827000959882,0.02518572257773433,-0.8136924764130489,0.8743658243877874,0.05973957119206432,0.635783277613498,0.9898042738621475,-0.04593405213520501,0.6434340734385822,0.9918192213249032,0.0,0.0,0.0,0.0
0.0022735981071591556,-0.07170632263276863,0.7396662183911089,0.0003028285723780744,-0.5240851235755887,-2.779331866985072e-05,0.8516658328060056,-0.019377266590076145,-0.829747625334032,0.905278649011357,0.025674067953764416,-0.8194824434845497,0.8867013486783484,0.06206413478599372,0.6395136961590135,0.9894389043703957,-0.04470677546186734,0.6475913112680477,0.9932507584021588,0.0,0.0,0.0,0.0
0.004197107076665655,-0.07208636253639081,0.7395670406394855,0.00036559887305412256,-0.5244879185661073,-6.539524109392281e-05,0.8514178089158805,-0.018409343931780946,-0.8366451626412125,0.920806513493347,0.02679509249283367,-0.8285145732588644,0.905433616790077,0.06489281094631559,0.6455245128242214,0.9879939645733515,-0.043475858230387375,0.6536700956541085,0.9944226616680389,0.0,0.0,0.0,0.0
0.006764159814551021,-0.07282691892620687,0.7396401712225917,0.000519533099500859,-0.5249721761329365,-0.0002591978253377358,0.8511191909410191,-0.0161568124483286,-0.8444703960507235,0.9401055075661617,0.029249508328494333,-0.840762859046115,0.9309444253155291,0.0689537130719619,0.6548406806169125,0.9832479580710057,-0.04149617999421673,0.6624136992039356,0.9945021256357996,0.0,0.0,0.0,0.0
0.010130646060698401,-0.07425548110920857,0.7405185519692555,0.0008738720996139702,-0.525652478634938,-0.0008477900913385653,0.8506985302117669,-0.011165256519996737,-0.849938482079072,0.9614344002210597,0.03446930033744229,-0.8551939766754492,0.9641312331742702,0.07437266949660164,0.6719995920397412,0.9683614746908038,-0.03869675676820503,0.677129184812707,0.9885341829537571,0.0,0.0,0.0,0.0
0.01311565559866711,-0.07539342016567978,0.7414940185489491,0.000924880844036568,-0.5253751463214722,-0.0007565495005521816,0.8508698654059674,-0.008567302937558013,-0.8603060950238369,0.985375877148313,0.03048784648040001,-0.8458527365014086,0.9364257093422378,0.059954351156362024,0.6648752556206495,0.9960374869829314,-0.030720648990003065,0.6911442903029614,0.9795267199922678,0.0,0.0,0.0,0.0
0.016054493557620023,-0.07670866276925183,0.7424596243258933,0.001069207195769615,-0.5252767125603693,-0.0008668552578470468,0.85093036178039,-0.004974185548496881,-0.8682007814447548,1.0063203139261807,0.02752666044646558,-0.8452498226055155,0.9191184701170652,0.0493814665907078,0.6597944570362319,1.018939243516809,-0.023134183423933048,0.7050599779086949,0.9711051098332282,0.0,0.0,0.0,0.0
0.01874310931652228,-0.07810401627870817,0.7433887525475986,0.0012793317548824368,-0.5253038297675817,-0.0010778924735016107,0.8509130906794112,-0.0008957050734525792,-0.8735650129437306,1.0234124734597063,0.02525022816427154,-0.8498712298573309,0.9093312568889723,0.043960645160564,0.6558479668497916,1.0380184339701726,-0.01577321301927725,0.718237088118235,0.9634488825541923,0.0,0.0,0.0,0.0
0.02106423630090876,-0.07950480335390281,0.744284486030535,0.0015140183966008492,-0.5253820573799756,-0.0013225136355026381,0.8508640622856054,0.0033035383438452066,-0.8767346531980008,1.036598859569485,0.02346132233812326,-0.8570947694163026,0.9037787307669037,0.04190416493205344,0.6524926125187129,1.0547437952114462,-0.008461552105541476,0.7302907348335161,0.956431294848131,0.0,0.0,0.0,0.0
0.022984250454778005,-0.08086056424112772,0.7451530413988935,0.0017464272119271478,-0.5254706780666272,-0.0015635458535875164,0.8508084812744618,0.007391944558139791,-0.8780933623635074,1.0462167338408521,0.022039232988734316,-0.8655172650548316,0.9004239078979724,0.04170343944221694,0.6494208106158574,1.0700605954757179,-0.0011836979111856999,0.7410888683616134,0.9499205346936088,0.0,0.0,0.0,0.0
0.024522543321943504,-0.08213825106037131,0.7459997047906658,0.0019625296673223204,-0.5255517454900502,-0.0017838440654041057,0.8507575031641018,0.011232270056699783,-0.8780176536611832,1.0527951513854992,0.020863047616441543,-0.8744436561845549,0.8980578548567004,0.04242745661974873,0.6464164949231198,1.0845541590674233,0.0059566723396918065,0.7506585576246229,0.9437870549722783,0.0,0.0,0.0,0.0
0.0257270489018948,-0.08331844097424397,0.7468278405175449,0.002156390541977815,-0.5256194858444059,-0.0019779012146707883,0.8507147547722902,0.014753668919294612,-0.8768564398901357,1.0569290578233006,0.0198107496805849,-0.8835548872978003,0.8959875233045905,0.04354505686277678,0.6433366780598867,1.0985924451553006,0.01281390028139861,0.7591160774588639,0.9379109958037376,0.0,0.0,0.0,0.0
0.026657201048537065,-0.08439266659927853,0.7476386024567544,0.0023266579653599857,-0.5256739656684268,-0.002146239697141274,0.8506802349510091,0.01793167021071922,-0.8749184019350947,1.0591983698396479,0.018775212712287583,-0.8927216915089601,0.8938362330239534,0.044758703881268215,0.6401059718176286,1.1124126379194146,0.019258639866350978,0.7666179069093415,0.932196200938489,0.0,0.0,0.0,0.0
0.027373283765390846,-0.08536082832496132,0.7484311582435544,0.0024744775530112285,-0.5257176377119684,-0.0022921290482801515,0.8506524487144048,0.020772926163667587,-0.8724658996658006,1.0601229869514173,0.017675255047513688,-0.9019084112962245,0.891413699080416,0.04590408475880844,0.6367067159519347,1.1261695606418898,0.025205588190898503,0.7733286484874798,0.9265783966480087,0.0,0.0,0.0,0.0
0.027930601588711395,-0.08622851944096795,0.7492030545875527,0.0026023106232791133,-0.5257535100172387,-0.002419813605035251,0.8506295428599281,0.02330302215009811,-0.8697157266193745,1.0601448934530686,0.0164587417016889,-0.9111255629111953,0.8886313126044156,0.046895468942684516,0.633168019105684,1.1399609415043115,0.030616660677355842,0.7794010915574482,0.9210261869812505,0.0,0.0,0.0,0.0
0.028376827188373754,-0.08700442446519771,0.7499502124391396,0.0027132378778627606,-0.5257841587694553,-0.0025335819225919863,0.8506099209919644,0.025556606720926182,-0.8668459970499448,1.0596280841917636,0.015101146934441464,-0.9204015073998393,0.8854500995328889,0.04769559715169313,0.629557039347195,1.153836598088788,0.03549006697826225,0.7849629431622492,0.9155403062096582,0.0,0.0,0.0,0.0
0.02875104397524072,-0.08769810642691234,0.7506661526072009,0.002810237079568147,-0.5258115318767261,-0.002636765812767094,0.8505923718086448,0.027568685272636777,-0.864006112438124,1.0588659896802786,0.013602160189696552,-0.9297487917041537,0.8818580440736322,0.04830067840691822,0.6259727359879113,1.1677912832426594,0.03985176351337679,0.7901083703312547,0.9101592323423275,0.0,0.0,0.0,0.0
0.02908294367843751,-0.08831792839834995,0.7513404767911889,0.002895860259344457,-0.5258363266336581,-0.0027315566007142674,0.8505764575770459,0.02936854763634238,-0.8613289659693821,1.0580899588404902,0.011983630962024667,-0.9391069186062354,0.8778746649172987,0.048721432996447274,0.6225374415844873,1.1817325807617933,0.04373761778084135,0.7948823374094617,0.9049699553485974,0.0,0.0,0.0,0.0
0.029391041116967668,-0.08886970601071817,0.7519564276338812,0.002971507012980092,-0.5258578789202217,-0.0028182545452095776,0.8505625895634699,0.030974532731856522,-0.8589384352385161,1.0574660155856417,0.01028375384995115,-0.9482461393363191,0.8735933580227798,0.048960657320731904,0.6193858036154315,1.1954089021313385,0.04719008901094999,0.7992620867752199,0.9001335128661376,0.0,0.0,0.0,0.0
0.02967907105147862,-0.08935606812686883,0.7524880950302012,0.0030367779884857148,-0.5258736062404814,-0.002895115802147373,0.8505523773075777,0.032392259818181605,-0.856949908868595,1.0570755418373217,0.008544478940987123,-0.9566401470853331,0.8692620116454481,0.048966155976349006,0.6166577739629088,1.2082741502405574,0.05025528092342481,0.8031281799067388,0.8959185214804631,0.0,0.0,0.0,0.0
0.029931716925269386,-0.08977747723705184,0.7528986202210628,0.003088364831093503,-0.5258790692764863,-0.002957841206668117,0.8505485980677193,0.03361642080694385,-0.8554587023547978,1.0568807559091917,0.006786337029474573,-0.963357523133753,0.8653906412305993,0.04856004479786835,0.6145337061654041,1.219264779716452,0.05300153604700828,0.806244052924138,0.8927332382664934,0.0,0.0,0.0,0.0
0.030114895540705604,-0.09013515790817747,0.7531439133350072,0.0031194176154969895,-0.5258683905210523,-0.002999931359815134,0.8505549397283955,0.03463943375474736,-0.8545208040300795,1.0567096841940038,0.004982739737362969,-0.9671100349032954,0.8628149839458951,0.04735687918812552,0.6134002223777987,1.2264808362267527,0.05554473490952421,0.8082796366833916,0.8910987575950721,0.0,0.0,0.0,0.0
0.03019340597503058,-0.09043454746178639,0.753192094192133,0.003121882808555336,-0.5258380630964211,-0.003015930690035473,0.8505736237438866,0.035467010329749284,-0.8541247311263619,1.056335972222265,0.0030787663625136464,-0.9667140903439355,0.8625429924079802,0.04479479825695526,0.614230781756257,1.226963830447069,0.05803512174413967,0.8089734221117082,0.8914321884570919,0.0,0.0,0.0,0.0
0.03015919166075519,-0.09067672933388259,0.7530430318704661,0.0030958034550897483,-0.5257881067542334,-0.00300547000560848,0.8506046378587478,0.036100620537335586,-0.8542365943864868,1.0556910637040864,0.0010896446479805597,-0.9621656326259654,0.8645474184876302,0.04088770152855759,0.6169888608969568,1.2207016742416987,0.06047946316207247,0.8082982963922569,0.8937552992263115,0.0,0.0,0.0,0.0
0.030032394829915286,-0.09085957249846884,0.752729254468453,0.0030493036722211483,-0.5257216566197013,-0.002973083365181639,0.8506459911640418,0.036540142566716255,-0.8548001557605449,1.0548682575231152,-0.000894385386547231,-0.9546486470598915,0.8677959415447082,0.03621451357932629,0.620650327599281,1.2106235304597748,0.06275213898382886,0.8064718166896796,0.897683484543111,0.0,0.0,0.0,0.0
0.0298329895633031,-0.09098724415504329,0.7522977597645991,0.0029892331585228997,-0.5256436695433333,-0.0029240279298090484,0.8506945675239784,0.03680341463034812,-0.855684862676398,1.0539039150029448,-0.0028115450955565197,-0.9454480958628124,0.8714418494022963,0.03117368415658331,0.6247971768416251,1.198602299670101,0.06478340103690752,0.8037984043110105,0.9027056111823702,0.0,0.0,0.0,0.0
0.029562224775798347,-0.09106709430642553,0.7517906811985745,0.0029189368213220395,-0.5255573686125459,-0.002861335645522205,0.8507483440261364,0.03691201748579191,-0.8567080511563495,1.0526883023653901,-0.004650548488668854,-0.9354855175313443,0.8749635277179896,0.025961271106915648,0.6292265938488865,1.185676752228595,0.06657090410070213,0.8005019239941029,0.9084071165351034,0.0,0.0,0.0,0.0
0.029202088976114194,-0.09110726536159898,0.7512411261368073,0.002839194421611494,-0.525463618426322,-0.0027861009125752356,0.8508067714393543,0.03688549296461822,-0.8576534542535348,1.050977752920888,-0.00642065050860482,-0.9252778129044205,0.8781031170038606,0.020651729289849336,0.6337816426869647,1.1723701781318412,0.06814795322070673,0.796694419353376,0.914504640233875,0.0,0.0,0.0,0.0
0.028720222888764076,-0.09111658785126422,0.7506744659746293,0.0027493860047849844,-0.5253609849806363,-0.0026981219473201866,0.8508707284157386,0.03674234397800976,-0.8582835617969709,1.0484302548195688,-0.008124521753051998,-0.9150513031508487,0.8807645835006407,0.015264650049147552,0.6383156960694516,1.158916930019007,0.06956864508442245,0.7923965313795013,0.9208206474599532,0.0,0.0,0.0,0.0
0.028074995507585618,-0.09110590027275449,0.7501106899808957,0.0026483360370486058,-0.5252461140771925,-0.00259656352892843,0.8509422799584493,0.03650496402231591,-0.8583438600781148,1.0446330649664255,-0.009749053811128835,-0.9048731388157774,0.882936018722893,0.009798964899121916,0.6426976662575055,1.1454046328473466,0.07090842527301211,0.7875675648081748,0.927251670072814,0.0,0.0,0.0,0.0
0.027219898823078067,-0.09108978105233831,0.7495660852345598,0.002534801694101123,-0.5251142512190525,-0.0024805566314916004,0.8510243502895926,0.0362056750355929,-0.8575646087019153,1.0391223504611908,-0.011271894096403043,-0.8947488608004921,0.8846517259906876,0.004239500763579185,0.6468204534269152,1.1318582358495581,0.07227143074914409,0.7821315625079848,0.9337463168535975,0.0,0.0,0.0,0.0
0.026108339166415258,-0.09108788591560738,0.7490535071363682,0.002407593252037613,-0.5249599946222487,-0.002349536516007932,0.8511202542644025,0.03589128282690478,-0.8556687744384122,1.0314075085864882,-0.012677956645108866,-0.884678641785643,0.8859906195739521,-0.0014582115478514422,0.6506058466259992,1.1182920984455098,0.07379934957807446,0.7759993394840891,0.9402959963119448,0.0,0.0,0.0,0.0
0.0247006011146695,-0.09112502800491346,0.7485809269847188,0.0022653400601545465,-0.524778402143436,-0.0022031986789529073,0.8512330132189277,0.035623597283133045,-0.8523965444707905,1.0210187712720715,-0.013980012540494061,-0.8746822477507898,0.8871032774552111,-0.00740644543844843,0.6540123926901933,1.1047523817947211,0.07567554887550182,0.7690906095899851,0.9469359006457347,0.0,0.0,0.0,0.0
0.0229751390697728,-0.09122892950170106,0.7481481402375496,0.002105797298397066,-0.5245667279342113,-0.0020407946499495385,0.8513642867300283,0.03547252571562054,-0.8475591184418051,1.007602269409116,-0.015235507511197949,-0.8648087411549171,0.8882618613233778,-0.013856920131583178,0.6570603099370507,1.0913699217513295,0.0781199843207784,0.7613633027139303,0.9537521875424606,0.0,0.0,0.0,0.0
0.020946756853388614,-0.09142423405866694,0.747741677574801,0.0019245247344651262,-0.5243271206744443,-0.0018593696020448877,0.85151271832808,0.03549741411593323,-0.8411392796412505,0.9910964792498782,-0.01654504614094951,-0.8551533024974659,0.8899280855160097,-0.02132576334907633,0.659895442588206,1.0784457391025415,0.08137163446716193,0.7528593789415717,0.9608904229617644,0.0,0.0,0.0,0.0
0.018694693759380987,-0.09172100412298774,0.7473281170971399,0.0017128484919020977,-0.5240705157283976,-0.0016505662169068458,0.8516715542539733,0.035711862730388975,-0.8334643593898536,0.9720395061810468,-0.01800809572322617,-0.8459147468077683,0.8928267229188166,-0.030798637398583066,0.6629232065425859,1.06659451968595,0.08565577075887293,0.7437780082302584,0.9685598307633015,0.0,0.0,0.0,0.0
0.01640348682448484,-0.09209468120973194,0.746846041712332,0.0014563384696875676,-0.5238180680629699,-0.001397258417818135,0.8518277750331655,0.03602846052180304,-0.8255047051555521,0.9520911355068435,-0.019613510350021835,-0.8375213377260342,0.8979245574156908,-0.044029586274076216,0.6670527934102842,1.0569197715615641,0.09110153788083637,0.734567409074483,0.9770173749497854,0.0,0.0,0.0,0.0
0.014545268234289413,-0.09238565919756829,0.7462236368885712,0.0011256223310686236,-0.5235234089204531,-0.0010603895770112232,0.8520098877716272,0.0359959937398801,-0.820493679233185,0.936685593851256,-0.021679130949786886,-0.8304741440707386,0.9052448260890369,-0.06409817242258727,0.674243950841315,1.0507426706637732,0.0971623776618431,0.7263310363535563,0.9857535155648672,0.0,0.0,0.0,0.0
0.013410715556883196,-0.09260869202852377,0.7456734616224151,0.0007826656197833407,-0.5233050681093262,-0.0006745636288501338,0.8521447870459172,0.035708246630190774,-0.8184501804815759,0.9277269545144182,-0.023121540985376048,-0.8280905579654868,0.9158859369889311,-0.08874367329544997,0.6825459573264737,1.0496472097351457,0.10355892601896385,0.7211988516888462,0.992751804861324,0.0,0.0,0.0,0.0
0.01339748991203177,-0.09257593635249771,0.7456552916318379,0.0007312503735566266,-0.5233048082975671,-0.0006716175227976769,0.8521449945962487,0.03564903532126047,-0.8184875940047812,0.9276382899660026,-0.023133901410931877,-0.8280912206799219,0.9158958334703482,-0.08874122718236183,0.6825636232372071,1.0496530142653808,0.10356700481964928,0.7211425948359074,0.9927126015267942,0.0,0.0,0.0,0.0
0.01339748991203177,-0.09257593635249771,0.7456552916318379,0.0007312503735566266,-0.5233048082975671,-0.0006716175227976769,0.8521449945962487,0.03564903532126047,-0.8184875940047812,0.9276382899660026,-0.023133901410931877,-0.8280912206799219,0.9158958334703482,-0.08874122718236183,0.6825636232372071,1.0496530142653808,0.10356700481964928,0.7211425948359074,0.9927126015267942,0.0,0.0,0.0,0.0
0.013152171664076128,-0.09256607877312979,0.7455112928620516,0.0005844587909673531,-0.5232763410237469,-0.0005458090705002938,0.8521626789675664,0.035372962918849137,-0.8183091164742262,0.9259645740629571,-0.023397829148808738,-0.8270218140939891,0.9134634406367855,-0.08664207054393251,0.6804196552747708,1.0510357702335709,0.10533903493505525,0.7201674172076573,0.9943198754331447,0.0,0.0,0.0,0.0
0.013417996450435505,-0.09251025931022971,0.745366046669574,0.0004957900039581705,-0.5232998992471907,-0.00046789890042233816,0.8521483149726761,0.035105873253273676,-0.8203188564298283,0.9289847089785214,-0.02371152328460791,-0.8282832232652947,0.9156845797312196,-0.08609625622421611,0.6804190397573197,1.0521509754108818,0.10641313185359974,0.7207903166776211,0.9952645690099611,0.0,0.0,0.0,0.0
0.014280458856605522,-0.09236426115529227,0.7452783374429125,0.0004533822589768993,-0.5234482441363953,-0.00043741267878757783,0.8520572391718765,0.03473940563765375,-0.8244314813860657,0.9371758857734154,-0.02418176654749516,-0.8315603444251246,0.9227039244398659,-0.08746320385102054,0.6833554656444074,1.05265909503116,0.10666412122350845,0.7237927561408785,0.9948930483138719,0.0,0.0,0.0,0.0
0.01580273877323484,-0.09206880809535374,0.7453760108365108,0.00044476909289586117,-0.5237358687513672,-0.0004477209965307767,0.8518804737224664,0.03410916891778797,-0.8305638246607642,0.9509947148052355,-0.024972083847338702,-0.8364475704595354,0.9345170243958367,-0.0911740327759015,0.6901135191860591,1.0515346830802785,0.10574693247010344,0.7300217169395746,0.9917493276547232,0.0,0.0,0.0,0.0
0.018150536356469786,-0.09154358557554286,0.7462274793880913,0.00044434288899747765,-0.5242745925754158,-0.00047303041914298143,0.8515490181906743,0.032931381255827334,-0.8371809397785451,0.9706962517379014,-0.026336663432402856,-0.8409283229198584,0.9507547435932222,-0.0977666293255399,0.7041686712663278,1.0439450839747342,0.10336929279206929,0.743070794813822,0.9802436531934047,0.0,0.0,0.0,0.0
0.020327531698033096,-0.09165546427957955,0.7471437939003698,-0.00029442672989134607,-0.5241307349672544,0.000370473954415973,0.851637686298954,0.030660496352013906,-0.8304793626399037,0.9447184507204474,-0.027984911748128023,-0.8470734962986832,0.968964106114586,-0.08550658828188534,0.7111684449418559,1.031637508281948,0.07660761755503183,0.7212921536992701,1.004366305468663,0.0,0.0,0.0,0.0
0.022599510997795016,-0.09164469799539501,0.7481561903037699,-0.00085631932071889,-0.524157294547844,0.000982157098369945,0.8516204745407074,0.027074036556072073,-0.8317372492880073,0.9280464055013079,-0.029417333519577035,-0.8524245986314389,0.9865783501304535,-0.07744331787578426,0.7206111262602916,1.0190139067350046,0.0545587695406165,0.7051759526139163,1.0230263508249997,0.0,0.0,0.0,0.0
0.024718779356923855,-0.09150969510000861,0.7490999958572344,-0.0012182896168005625,-0.5243044585133575,0.0013379401239712759,0.8515289545691616,0.02391791506943802,-0.8376187660497006,0.9185274198110893,-0.030586578091754434,-0.8567573851399757,1.0019688210879296,-0.07388233872378701,0.7309329893198694,1.0078071836131133,0.039108106655555384,0.694432047746492,1.0387595406964596,0.0,0.0,0.0,0.0
0.02654739529749785,-0.09131093722424724,0.7499448511974098,-0.0014659973257542288,-0.5244957723268763,0.0015612700137311714,0.8514103582286386,0.021482491306262192,-0.8457729293519454,0.9131793706063015,-0.031618343857599825,-0.8599003036692665,1.0144883197178878,-0.07266896810965075,0.7407097804841036,0.998116996442669,0.028029806541001734,0.687023695863414,1.0530779938807866,0.0,0.0,0.0,0.0
0.02804091049549152,-0.09110140134356472,0.7507158845734955,-0.0016563489949593113,-0.5246873794988745,0.001727423527509925,0.8512916223660183,0.019578656235099846,-0.8549345958057809,0.9100455399219824,-0.03254206040104886,-0.8618368263198056,1.0241252614285588,-0.0723108552020198,0.7493581845950107,0.9895478007521242,0.01942417908759839,0.6814054209126857,1.066669194485498,0.0,0.0,0.0,0.0
0.029209549046183923,-0.09091651208079131,0.7514452665596774,-0.0018165935798210738,-0.5248602415621514,0.0018688751923902614,0.851184430144608,0.017942177963092033,-0.8644944277699241,0.9079391881163257,-0.033334963160241295,-0.8626721434787231,1.031181918877163,-0.07200855142447006,0.7567806176302994,0.98167730280986,0.01216784349456907,0.676610576484976,1.0798703672685714,0.0,0.0,0.0,0.0
0.03009172990101804,-0.09077631952592816,0.7521557065701125,-0.0019574737184466077,-0.5250093786349727,0.001996175727615059,0.8510918492879753,0.016381989167652686,-0.8741915784504316,0.9061701022653144,-0.033966694847974224,-0.8625825128152438,1.0360902266483858,-0.07140731094449881,0.7630986815732353,0.9741944469702999,0.0056702387743508345,0.6720908516342674,1.0928645905354888,0.0,0.0,0.0,0.0
0.030737418710681086,-0.09068964451071945,0.7528584945385475,-0.002082613443210696,-0.5251365303077237,0.002111395601455756,0.8510128255591837,0.014803959651018609,-0.8839340290269889,0.9043563524859349,-0.03441941042383889,-0.8617719581642632,1.0393092732506553,-0.07039713152787418,0.7685080286945447,0.9669100029237021,-0.0003670601094899093,0.6675641772978445,1.1057637699260423,0.0,0.0,0.0,0.0
0.031198155332448164,-0.09065781296859046,0.7535561986581044,-0.002193573393695256,-0.5252456950723832,0.0022148958274637726,0.8509449114250399,0.013184152432627556,-0.8937082734079258,0.902298346495905,-0.0346927489568514,-0.8604431177688943,1.041271012754277,-0.06898099635353921,0.7732049234877695,0.9597294454443025,-0.006094650265732513,0.6629093274529647,1.1186432547047649,0.0,0.0,0.0,0.0
0.031521748786983946,-0.0906772653521309,0.7542459279225261,-0.002291178137524053,-0.5253417615707735,0.0023063615490072653,0.8508851066676769,0.011536136589998228,-0.903534206162716,0.8998995312034508,-0.034798289876872904,-0.8587794454361738,1.042353226757201,-0.06722490272874257,0.7773649259399644,0.9526263937073487,-0.011598376749801863,0.6581035259203526,1.131553858985466,0.0,0.0,0.0,0.0
0.031749601080201896,-0.09074210018151917,0.7549213239150557,-0.0023760640954616197,-0.5254294143519064,0.0023852241535431934,0.8508305328083637,0.00988332471972387,-0.9134395861419576,0.8971156740794392,-0.03475318686786752,-0.8569413046727844,1.0428732438026123,-0.06521912556858456,0.7811295293225644,0.9456226405335553,-0.016936816407761054,0.6531852304568886,1.144520187140037,0.0,0.0,0.0,0.0
0.03191520158568419,-0.09084679498817465,0.755572848792827,-0.002449476609429953,-0.5255114293977569,0.002452040366347692,0.8507794809083656,0.008237977189255815,-0.9234316458646479,0.8939284880006771,-0.03457601842179896,-0.8550729681354451,1.0430937377596325,-0.06302870213577631,0.7845845230089624,0.9387778246356456,-0.02214736646419163,0.6482302261233722,1.157524803976959,0.0,0.0,0.0,0.0
0.03204319634498821,-0.09098759043676827,0.7561869642496664,-0.002511562932840721,-0.5255899503310574,0.002505456290957133,0.8507306382465634,0.006598243382848678,-0.9334338600097489,0.8903584704218515,-0.03427591767127668,-0.853306077573401,1.043221712373158,-0.06072200865634574,0.7877672931601135,0.9322016304907591,-0.027261921222763736,0.643339589737542,1.1704708933183305,0.0,0.0,0.0,0.0
0.03214703732239415,-0.09116465094867196,0.756743692904738,-0.0025618527876538864,-0.5256650363391414,0.0025435719632540283,0.8506839817009201,0.004945329518583812,-0.943195957878514,0.8865017161636987,-0.03385036177873573,-0.851768269230539,1.0434057455184602,-0.0583334618531684,0.7906335733660497,0.9260719496416836,-0.032283874419335355,0.6386243036976101,1.183107476958461,0.0,0.0,0.0,0.0
0.0322252554577855,-0.09138313129464071,0.7572136261352168,-0.0025991648909998886,-0.5257340182890149,0.0025645462204516452,0.8506411755013028,0.0032533264249838267,-0.9521751159187968,0.8826035273420891,-0.03328403771856689,-0.8505825799653637,1.0437155318804479,-0.05584949089233594,0.7930248004970043,0.920666779781001,-0.037147866582227004,0.6342027553268537,1.1948967082002837,0.0,0.0,0.0,0.0
0.032257583607853385,-0.09165176802836478,0.7575561180500601,-0.002619906887298008,-0.5257931852383431,0.002564545713054641,0.8506045412235377,0.0015163339195747247,-0.9594370353592815,0.8791548502023115,-0.03254789244213944,-0.8498502465702089,1.044102454946112,-0.05325564821630824,0.7946628988221991,0.9164000855467146,-0.041663832540259724,0.6302512796818598,1.2048008036462923,0.0,0.0,0.0,0.0
0.0322050466185441,-0.09198000693154437,0.757722945175154,-0.002618290557326872,-0.5258377899795857,0.002539286749408167,0.8505770483658414,-0.00023123143440915072,-0.963717141943373,0.8769264723647837,-0.03161040140668774,-0.8496292443102326,1.0443817548784717,-0.05054724711620839,0.7951670669170151,0.9137938482551863,-0.04541851343812775,0.627184991297797,1.2109792108864812,0.0,0.0,0.0,0.0
0.032026414299706735,-0.09237324908908326,0.7576790875346044,-0.0025849222895935496,-0.5258679636976359,0.0024812525920591432,0.8505586671822426,-0.0019128109637485081,-0.9638453301897909,0.8767971489053219,-0.030442977218086423,-0.8498974595856041,1.044296692487769,-0.047813981297568,0.7942514659290992,0.9132689494037526,-0.047804295783015996,0.6260390722595357,1.2105756230343783,0.0,0.0,0.0,0.0
0.03170304610843572,-0.09284373634835058,0.7574227121718485,-0.0025167357999174547,-0.5258841424133988,0.002387208997383012,0.8505491379292793,-0.0034921981022780066,-0.9598093457067229,0.8787228894175373,-0.029005699617804297,-0.8506135849874498,1.0437359554852261,-0.044997431364533776,0.7918454195231747,0.9148386441229895,-0.048794369492921895,0.6267998550685098,1.2035976968762485,0.0,0.0,0.0,0.0
0.03123957540627165,-0.09341108922258941,0.756985996492215,-0.002417572175247587,-0.5258862600634227,0.00225889296539804,0.8505484667106599,-0.004988972551145647,-0.9527641421888591,0.8817630444329412,-0.02724738823555098,-0.8517197569683942,1.0427409747339864,-0.041878073542923895,0.7880969902375127,0.9180897901506069,-0.048945726930634655,0.6284047916858603,1.192905454292134,0.0,0.0,0.0,0.0
0.03063838708889435,-0.0940915902770272,0.7564165750056897,-0.0022886756236213425,-0.5258777566547934,0.002096221858939537,0.8505544972978097,-0.006398456468691383,-0.9439551001133913,0.8850907515654837,-0.025121296066250708,-0.8530732226126215,1.041280865733496,-0.038306501316473854,0.7832541626818982,0.9224713477989266,-0.04862421665513917,0.6304024527074505,1.1803351865249079,0.0,0.0,0.0,0.0
0.029882231994232976,-0.09490259212167763,0.7557567469272436,-0.002131567859938594,-0.5258580372348856,0.0019029766382204602,0.850567551564158,-0.007690059210585721,-0.9342979103608394,0.888147190835421,-0.02258798499354976,-0.8544797349616502,1.039181213090454,-0.03408988890866322,0.7774471665348417,0.927504435117441,-0.047955456493790835,0.6325726340660741,1.1669111515392763,0.0,0.0,0.0,0.0
0.028935400001310497,-0.09586200705316492,0.7550394156820406,-0.001945196068415201,-0.5258264422110365,0.0016803335285445946,0.8505879997761382,-0.00881109623457909,-0.9243156393154561,0.8906285173975296,-0.019602055380426517,-0.85570133609976,1.0361264199278475,-0.029087207903863495,0.7707130617502174,0.9328365486856365,-0.04696286966356261,0.6347585892533726,1.1531491600761132,0.0,0.0,0.0,0.0
0.027748964933832214,-0.09698886222798449,0.754289388461794,-0.0017315937174885781,-0.5257764614462562,0.0014357274788824811,0.8506198051179253,-0.009728665253750317,-0.9142590162182653,0.8923829915309275,-0.016132047463948845,-0.8564818765968225,1.0317113761136243,-0.02309107600383083,0.7629683422061249,0.938193500534131,-0.04559550688798848,0.6368136448266652,1.1392688365736068,0.0,0.0,0.0,0.0
0.026268154646043835,-0.09829768519952849,0.7535262386295556,-0.001494646276247852,-0.525699428959782,0.0011789948907073228,0.8506682587207046,-0.01043421642377201,-0.9042244430874332,0.8933534753082032,-0.012166557933955236,-0.8565399415482535,1.0254603531358646,-0.015937575041906515,0.7540877667056767,0.9433622671309201,-0.04380870819061239,0.6386067767089364,1.1253284798920855,0.0,0.0,0.0,0.0
0.024439190979660463,-0.09979207485525345,0.7527661164034637,-0.001240988031467152,-0.5255858229548168,0.000922485854241744,0.850739179582945,-0.010951773337510866,-0.8942558492369621,0.8935451931787609,-0.007731692116169552,-0.8555650289329031,1.0168444691220178,-0.007564083145706063,0.7439515259314641,0.948180172335415,-0.04159555196443482,0.6400296963640261,1.1113019660327201,0.0,0.0,0.0,0.0
0.02221692962412173,-0.1014573055144139,0.7520222258367816,-0.000980444676057336,-0.5254271211424456,0.0006804656797378548,0.8508377730582122,-0.011341801028895863,-0.8844035768975074,0.8930265495498843,-0.002908951678687581,-0.8532191641399707,1.0053036872595589,0.0019281021731933252,0.7324894642155129,0.9525430993818204,-0.03901162340240388,0.640997186791119,1.0971208042486185,0.0,0.0,0.0,0.0
0.019574896511567606,-0.10325281842005042,0.7513030716837034,-0.0007255592766710991,-0.5252183952113737,0.0004671343165064884,0.8509670338390645,-0.01170230834790765,-0.8747424193257681,0.8919606855194949,0.002150861598734282,-0.8491578003232718,0.9902939321581039,0.012217279824658724,0.7197200731443346,0.956439683308377,-0.036198682464323235,0.641445700846542,1.082700059758717,0.0,0.0,0.0,0.0
0.01652002711004221,-0.10510608700354888,0.7506070164091105,-0.0004893251535160303,-0.5249621109978929,0.00029221860959277086,0.8511254062626813,-0.01215991833268775,-0.8653513872655562,0.8906649991781397,0.0072248512991894675,-0.8430910066828493,0.9713913020768636,0.02272123164934456,0.7057821513388967,0.9600232104856118,-0.03341956833813682,0.641345459971326,1.067964531516093,0.0,0.0,0.0,0.0
0.013115385184832,-0.10691070627300071,0.7499101455816285,-0.00028078881712399425,-0.5246730971260324,0.0001547256967400298,0.8513037286243823,-0.01283525199754625,-0.8562630178327437,0.8896895395621461,0.012032929694111943,-0.8349211998362879,0.9485082515655503,0.03260310946451396,0.6909449141271553,0.9637404309080639,-0.03112022621848757,0.6407521333384484,1.0529001855285056,0.0,0.0,0.0,0.0
0.009514806199914835,-0.10853494220499535,0.7491388614091682,-0.00010678345119275286,-0.5243855432800894,6.21984621996505e-05,0.8514809373835045,-0.013848880082071567,-0.847467389432571,0.8899318052459307,0.016217605949089848,-0.8249751953983977,0.9222789548226399,0.04109177033872834,0.6754785437672295,0.9685468895968493,-0.029869583941096175,0.6399786331231098,1.037747500340662,0.0,0.0,0.0,0.0
0.006242054163882167,-0.1100175835908983,0.7481030697089802,5.575412898037572e-05,-0.5240156025866849,-3.608756573151646e-05,0.8517086613595509,-0.014883231088904707,-0.8377813020159844,0.8901495231824036,0.020034227411256534,-0.8170924891761677,0.898573723244724,0.04826636758236702,0.6598817570971074,0.9753618426759602,-0.030224967974426677,0.640926829466873,1.022379081841668,0.0,0.0,0.0,0.0
0.0035590438849694137,-0.11113296371179245,0.7469120232789584,0.00021207249612799754,-0.5236872196332641,-0.0001664357707607968,0.8519105723708164,-0.01620663374861713,-0.8289247054916041,0.89151888140549,0.023008791592383223,-0.8112773000750262,0.8787309394601304,0.0527591547087347,0.6457965659663258,0.9841010641970889,-0.03385528935537789,0.6429953991122489,1.0070488971856997,0.0,0.0,0.0,0.0
0.001879697558796965,-0.11171713239717034,0.7458645126877355,0.00033578250185515256,-0.5234481210664899,-0.0002951129332640387,0.8520574304062076,-0.017393873514371376,-0.823447576215087,0.8935532728296915,0.024689150064481257,-0.808313391119258,0.8660793752195227,0.05428961882256298,0.6357511626866247,0.9924642759031063,-0.04052481853048393,0.6456916763351815,0.9926623813871774,0.0,0.0,0.0,0.0
0.0018620396199601089,-0.11180777097616049,0.7458130651230878,0.0004130791378783822,-0.5234515994763456,-0.0002886784627101319,0.8520552617266245,-0.017390841958587613,-0.8234663988173797,0.8935633648655146,0.02483453040131253,-0.8083807862378645,0.8659195470395674,0.05429923232558829,0.6356717695272249,0.9923938047503459,-0.04053536672985407,0.645724232449431,0.99267116589366,0.0,0.0,0.0,0.0
0.0018620396199601089,-0.11180777097616049,0.7458130651230878,0.0004130791378783822,-0.5234515994763456,-0.0002886784627101319,0.8520552617266245,-0.017390841958587613,-0.8234663988173797,0.8935633648655146,0.02483453040131253,-0.8083807862378645,0.8659195470395674,0.05429923232558829,0.6356717695272249,0.9923938047503459,-0.04053536672985407,0.645724232449431,0.99267116589366,0.0,0.0,0.0,0.0
0.0018620396199601089,-0.11180777097616049,0.7458130651230878,0.0004130791378783822,-0.5234515994763456,-0.0002886784627101319,0.8520552617266245,-0.017390841958587613,-0.8234663988173797,0.8935633648655146,0.02483453040131253,-0.8083807862378645,0.8659195470395674,0.05429923232558829,0.6356717695272249,0.9923938047503459,-0.04053536672985407,0.645724232449431,0.99267116589366,0.0,0.0,0.0,0.0
0.0025237284793519247,-0.11197235328536274,0.7457263702309428,0.000394458582736119,-0.5237058052821982,-0.00016279233184380464,0.8518990828817739,-0.017323072648349234,-0.8255186127640256,0.8984397613332132,0.02493388172191498,-0.8107245272955983,0.8716417279269474,0.05652127381165134,0.637418238892422,0.9922468964062771,-0.03882556474481987,0.6482488836024118,0.994094707674076,0.0,0.0,0.0,0.0
