zhuoxili-jackie/tripod-support-walk/examples/pcbB样侧向移动数据608/trajectory_trotting_acc_02.csv
root_pos_x,root_pos_y,root_pos_z,root_rot_x,root_rot_y,root_rot_z,root_rot_w,FL_hip_joint,FL_thigh_joint,FL_calf_joint,FR_hip_joint,FR_thigh_joint,FR_calf_joint,RL_hip_joint,RL_thigh_joint,RL_calf_joint,RR_hip_joint,RR_thigh_joint,RR_calf_joint,FL_foot_joint,FR_foot_joint,RL_foot_joint,RR_foot_joint
0.0,0.0,0.72963,0.0,-0.5231245161092812,0.0,0.852256264656019,0.0,-0.81,0.872,0.0,-0.81,0.872,0.0,0.65,1.0,0.0,0.65,1.0,0.0,0.0,0.0,0.0
0.0007044299371799524,2.0610979396163556e-05,0.7296059628362718,0.00011093463342179905,-0.5233910084312974,-6.390245398096198e-05,0.8520926216692954,4.9698826240760676e-05,-0.812014047112019,0.8775449836717617,4.969882624076085e-05,-0.8124503987424694,0.8778694971531755,-0.0012391461742131571,0.6529927612163329,1.0003106527383465,-0.0012391461742131613,0.6523319293290463,0.9999912590132779,0.0,0.0,0.0,0.0
0.0020379956988560537,-1.090939414158667e-06,0.7295379004064738,0.00015491285243204547,-0.5237073908118872,-9.09685682130648e-05,0.851898196110153,0.0001499545642087131,-0.8172447775617495,0.8892234185555793,0.00015004118893388122,-0.8180002704270054,0.889900062354475,-0.001564493784185769,0.6575840582009768,1.0003346554468548,-0.0015625801682454933,0.656662297191528,1.0000908977683662,0.0,0.0,0.0,0.0
0.00398216297817411,-0.00012543209787205985,0.7294730559033141,0.00015271013353934936,-0.5240906667448421,-8.975795853634498e-05,0.8516624575816824,0.0004650212833251511,-0.825027546980282,0.9061818099931388,0.0004652326070951823,-0.8263573881833806,0.9077653796851769,-0.0007152825436226693,0.664041734009992,0.9994270465272511,-0.0007149768674561522,0.6632373761845827,1.0000440374649504,0.0,0.0,0.0,0.0
0.006544105998927161,-0.00043661007023749923,0.7295366680469271,0.00011493287969755755,-0.524563680188981,-6.455095909147139e-05,0.8513712046165287,0.0012183402465009597,-0.8344818885191597,0.9275557702777198,0.0012189653667959736,-0.8370622173366936,0.9312269543462475,0.001877557190335603,0.6730556298513216,0.9960976697317856,0.0018762313080492074,0.6728446365004784,0.9989307381660215,0.0,0.0,0.0,0.0
0.009817287642414888,-0.0010426596500864944,0.7301894911539526,6.46337316462182e-05,-0.5251624362212765,-3.787231502780169e-05,0.8510020035054572,0.0027425385793462776,-0.8439089657145323,0.9526585777375358,0.002744988182592121,-0.8490036501094221,0.9604021162154329,0.006831129554495259,0.6872581567814979,0.9856137979568089,0.006859267446864251,0.6881691895561355,0.9927315381246802,0.0,0.0,0.0,0.0
0.012554042253976726,-0.0012761271986956378,0.7308640453679488,0.0004360656157470926,-0.5250803269002954,-0.0003536297080447622,0.8510524866863896,0.003990780594299064,-0.8537984024438263,0.9758868646387947,0.006022150224895235,-0.8438469029342074,0.9370300124443128,0.014308150677489091,0.6756306029164656,1.0065913560898154,0.0041251146930008364,0.6985197220249455,0.983440287896071,0.0,0.0,0.0,0.0
0.01521543070637307,-0.0015682367286909845,0.7315965625750188,0.0007752750562534408,-0.525097934714591,-0.0006380701849699771,0.8510412156726003,0.005331594157638838,-0.8621694791692529,0.9970827539617971,0.011637540011935987,-0.8460092986442398,0.9219055455385222,0.024075022509360007,0.665879277421348,1.0239241379145003,0.0020548561204246233,0.7093749529357493,0.9739246072964891,0.0,0.0,0.0,0.0
0.017595828463502966,-0.0018819331810905283,0.7323201987296635,0.0010472581142143898,-0.5252211968434652,-0.0008405221201926335,0.8509646826745078,0.006550819063137838,-0.8685467940338375,1.0148411677982931,0.017344571784398743,-0.8524233576332535,0.9134235548869603,0.03420092328565391,0.658246148972793,1.0389273161752688,0.0010819534186420961,0.7200016077677387,0.964991713683961,0.0,0.0,0.0,0.0
0.01957962520634689,-0.0021609555861416127,0.7330160311394652,0.0012787214790997204,-0.5253891161695057,-0.001003464515178139,0.850860525903612,0.007596617289708904,-0.8729731467610561,1.0288307445270992,0.022515548543561945,-0.8609304053253315,0.908747913608315,0.04410333405318563,0.651866669876123,1.052600259787416,0.000370382413495453,0.7295744563234491,0.9566723511149944,0.0,0.0,0.0,0.0
0.021137053517618753,-0.002365134232998665,0.7336899345491726,0.0014868138720305682,-0.5255626765830697,-0.0011509297069737334,0.8507528064768046,0.00841407491645437,-0.8756599486635701,1.0392629951684345,0.02717473704579671,-0.8703873137091928,0.9059918476984313,0.053712472257013755,0.6460210001648057,1.0654598513412454,-0.0006682409512894605,0.7377633151680306,0.9487930420201938,0.0,0.0,0.0,0.0
0.022291630525299755,-0.0024710648081774696,0.7343521306631845,0.0016772246197057216,-0.525722809218829,-0.0012888675504576373,0.8506533098772232,0.008951186305157486,-0.8768964505608454,1.0466113735128213,0.03151041131007132,-0.8802337624485859,0.9040169101507232,0.0630571931697009,0.6402426715115518,1.0778009624093838,-0.0023080743604989725,0.7445656430274582,0.9411649778757964,0.0,0.0,0.0,0.0
0.023094710448778578,-0.0024688604481130517,0.7350089787045265,0.001850122208321837,-0.5258625031008941,-0.0014154451896228285,0.8505664003446125,0.009175744523500522,-0.8769942871471225,1.0514435820805639,0.03568359372676628,-0.8902136158708666,0.9021749482901024,0.07217165591374669,0.6342700520307475,1.0898102632926763,-0.0046150694738103055,0.7501399132271779,0.9336468556271618,0.0,0.0,0.0,0.0
0.023608250210358013,-0.0023586703234393653,0.7356616525369702,0.0020043626311545357,-0.525981158569657,-0.0015274515568068168,0.850492486887395,0.00908096457338902,-0.8762499776902681,1.0543227518491491,0.039783327833423435,-0.9002223673391043,0.9001222556576106,0.08108568939789884,0.6279803822056498,1.1016149956707864,-0.007542896016447791,0.7547008074604155,0.9261564384813769,0.0,0.0,0.0,0.0
0.023894223646058414,-0.0021473950910990886,0.7363074010286216,0.0021394011370599953,-0.5260811833032867,-0.0016228612774693441,0.8504301134474617,0.008681957927667688,-0.8749241124767211,1.0557556506443648,0.043840621656963265,-0.9102315344683467,0.8976934803659626,0.08982767977793618,0.6213389352613005,1.113303961718689,-0.010996863502207369,0.7584623187075982,0.9186622855226931,0.0,0.0,0.0,0.0
0.024008869835739254,-0.0018455937330194572,0.7369410629411507,0.002255729080556339,-0.5261660614713028,-0.0017012031051965469,0.8503771477115828,0.008007534446117008,-0.8732350114772601,1.0561728141690279,0.047855802267399945,-0.9202523224329326,0.8948186389143906,0.09842672016011511,0.6143671901260143,1.1249354263391964,-0.014871790867149981,0.7616103304999807,0.9111710069462848,0.0,0.0,0.0,0.0
0.024000099828485198,-0.0014645836303329447,0.7375558126887042,0.002354594324895535,-0.5262392402900102,-0.001763001714360498,0.8503314704804905,0.007090637812270142,-0.8713633781468568,1.0559288415609116,0.05182129158965109,-0.9303115987697242,0.8914725154256067,0.10691323346374931,0.6071261479943133,1.1365361291657876,-0.01907368211382387,0.7642900925142537,0.9037178896077259,0.0,0.0,0.0,0.0
0.023906598325815837,-0.001013774839819797,0.7381427890853639,0.0024374878213930915,-0.5263033919032304,-0.001809036598936905,0.8502914357506248,0.00595934336431705,-0.8694638931794473,1.055312944319421,0.055735638742579405,-0.9404194659984703,0.887651948612399,0.11531748489209186,0.5997091982704168,1.1480889963399894,-0.02353314673189336,0.766598093091199,0.8963652189326153,0.0,0.0,0.0,0.0
0.023757318961057785,-0.0004983411577251558,0.7386895490291719,0.002505636146370976,-0.5263598191513222,-0.0018397951807877623,0.8502562423905996,0.004629517206510889,-0.8676791497691121,1.054560264266773,0.05960871636665627,-0.9505111297212051,0.8833826394689572,0.12366210000775202,0.5922393576442928,1.1595011563291615,-0.02821498899908578,0.7685709721385667,0.8892113822774638,0.0,0.0,0.0,0.0
0.02357021277533947,8.24892162319342e-05,0.739177447299365,0.002559523923497481,-0.5264080158881468,-0.0018552298071229229,0.8502262097632326,0.003100060489761706,-0.8661502424785372,1.053853753303561,0.06345653002730593,-0.9603518846059624,0.8787619163738037,0.13193921229843497,0.584869390651084,1.1705372948497157,-0.03312354158621367,0.7701672131256169,0.8824136038878241,0.0,0.0,0.0,0.0
0.023349432289376693,0.0007358696323015372,0.7395783901890202,0.0025982207225430276,-0.5264457155092878,-0.0018545936899277465,0.8502027513206696,0.0013518962153676712,-0.8650169639630542,1.0533066263344029,0.06728165208351095,-0.9694124380959476,0.8740429165594694,0.14005681976535153,0.5777949824068723,1.1806967180011876,-0.038296135423137076,0.7712431177450572,0.8762252536135697,0.0,0.0,0.0,0.0
0.02308162507376755,0.0014734325586422893,0.739852550625152,0.0026180566494072672,-0.526470080482707,-0.0018356562498775242,0.850187644289215,-0.0006481589106460709,-0.864400900112117,1.052922811733692,0.07103823144613261,-0.9767651731713443,0.8697480057480758,0.14774119534427535,0.5713173114167607,1.189008373021504,-0.043769488602117664,0.7715380243437805,0.8710370604549756,0.0,0.0,0.0,0.0
0.022735555615272518,0.0023064281718734396,0.7399518641439926,0.0026105749535252146,-0.5264804930539013,-0.001792636279007607,0.8501813111256353,-0.0029388005628567626,-0.8643709576948237,1.0525607122630587,0.07459837913767492,-0.9811317918110366,0.8667432568805135,0.15442290574334538,0.566030340788798,1.1937267780218315,-0.04951213627951544,0.7707114513853366,0.867368939382335,0.0,0.0,0.0,0.0
0.022276117579198458,0.0032414984585660174,0.7398403544338571,0.002563345226993821,-0.5264818598974581,-0.00171672514149549,0.850180765081726,-0.005552500416639431,-0.8649055886092952,1.0519876712476817,0.07778247452512688,-0.9813304855178561,0.8660759387320266,0.1592926878334391,0.5631583121650003,1.1920828430764472,-0.05540839410893291,0.7685061009049708,0.8656561119698175,0.0,0.0,0.0,0.0
0.021688263401190584,0.0042972738545337015,0.7395128191548309,0.0024740031234337144,-0.5264746844066015,-0.00160715341116474,0.8501856873915412,-0.008538932875793291,-0.8659876619269875,1.0511303802538643,0.08052801416090238,-0.9773638240269638,0.8677073194445085,0.1622515040020944,0.5627417246444497,1.1841400682786594,-0.061562600579981044,0.7648420005621678,0.865905841946231,0.0,0.0,0.0,0.0
0.020978080597037492,0.005505106086930182,0.7389954957979616,0.0023507627393986132,-0.5264546925339677,-0.0014711782167229441,0.8501986628183811,-0.011967467252527803,-0.8676096988813389,1.0500860582407978,0.08290962312794908,-0.9704228754308485,0.8705388494888844,0.16393826541953865,0.5636179659157078,1.1727635160976335,-0.06829400227446521,0.7598304750236182,0.8676754942864822,0.0,0.0,0.0,0.0
0.020148607112812217,0.006891842768865182,0.7383284450118325,0.00219917215647922,-0.5264222607232804,-0.0013138834162187876,0.85021940742798,-0.01589976445183602,-0.8696722065073437,1.048865281114938,0.08497816393885237,-0.9617862285198028,0.8736616151093229,0.16479454135894303,0.5652154744917252,1.1597602174458357,-0.07583441148952941,0.7536851284976192,0.8704000671157773,0.0,0.0,0.0,0.0
0.019185720201238543,0.00848143527712263,0.7375448553556596,0.0020213424600322746,-0.5263792203509532,-0.0011380842779430335,0.8502467496683291,-0.020392413440565048,-0.8720125149243868,1.0473241248295044,0.08672094165712667,-0.9523768050439796,0.8765105166552901,0.16499919973810453,0.5672298383563704,1.1461329073539295,-0.08433018906513201,0.7465540364382102,0.8736248586795491,0.0,0.0,0.0,0.0
0.01805984625200075,0.01029648579269755,0.7366667221122413,0.0018179344866820174,-0.5263266416020433,-0.0009463199277212072,0.8502799926687153,-0.025496014720385422,-0.8744338536387057,1.0451940976206544,0.08809186566003965,-0.9427264945523177,0.8788006717972832,0.16458069797551172,0.5694543877828098,1.132387640783971,-0.09387819121114722,0.7384873619898729,0.8770342415612291,0.0,0.0,0.0,0.0
0.016731975611511542,0.01235651127669028,0.7357067458030704,0.0015896732131251974,-0.5262642951856763,-0.0007415720285973184,0.8503192427686941,-0.031248940297638153,-0.8767183820438039,1.0421212578119659,0.08905109087557848,-0.9330898595858622,0.880427294316271,0.1635253216976093,0.5717290442064711,1.1187394509126078,-0.10452627043097418,0.7294647710686567,0.8804225466525621,0.0,0.0,0.0,0.0
0.015159537418082649,0.014673500808597039,0.7346720184168273,0.0013383906787412729,-0.5261912258154093,-0.0005274267398328827,0.8503650536130363,-0.03766518888082019,-0.8786237892439123,1.03768852127112,0.08959611086167985,-0.9235765750483174,0.8813943144503794,0.16185068866396202,0.5739305008509206,1.1052315183612633,-0.11625120245287114,0.719437516156717,0.8836607523631569,0.0,0.0,0.0,0.0
0.013301705932426319,0.01724580575985242,0.7335681764159973,0.0010679874426286007,-0.5261068189434784,-0.000308328174895686,0.8504177675694063,-0.0447175760729073,-0.8798709936540667,1.0314261474291706,0.08978583034647444,-0.9142535355554339,0.8817864252332155,0.15966001853567402,0.5759659759942901,1.0917932034770228,-0.1289325311452387,0.7083698068074945,0.8866700685956012,0.0,0.0,0.0,0.0
0.011125328318861278,0.020051305305217634,0.7324038134216129,0.0007857242621062278,-0.5260120616456924,-9.039204327042758e-05,0.8504767401110455,-0.052318006732628604,-0.8801325701939322,1.022826270419565,0.0897622777849612,-0.9052080218277712,0.881782224949502,0.1572046305235097,0.5777557938228925,1.0782586133834775,-0.14233821816777445,0.6962769438437053,0.8893999932156582,0.0,0.0,0.0,0.0
0.008613290907381877,0.023040866197421364,0.7311949041290048,0.0005043869045314248,-0.5259109979725054,0.00011654508092178981,0.8505394489514628,-0.06029667121711596,-0.8790333836941686,1.011382206409191,0.08976786206373452,-0.8965782742558553,0.8817054795981685,0.15499155504452378,0.5791980741313227,1.0643614388116847,-0.15613829296385467,0.6832596992275901,0.891807952510306,0.0,0.0,0.0,0.0
0.005777569165085469,0.026133244611813912,0.7299675651060021,0.0002461018147562826,-0.5258126699009018,0.00029449629803361395,0.8506003108849141,-0.06838173104932119,-0.8761807198377057,0.9966793676018848,0.09014328001591829,-0.8885631613419257,0.8821169202479757,0.15398985079170546,0.5801115134963925,1.0497179031351,-0.1699637662760101,0.6695277729720843,0.8938506091581895,0.0,0.0,0.0,0.0
0.0026793963773595626,0.029212000766538043,0.7287529828163767,4.90883115060935e-05,-0.525734244897518,0.00040787752593571025,0.8506487729776009,-0.07617649449263374,-0.8712530677278614,0.9785711610612112,0.0912805253820877,-0.8814358289670081,0.8839522601607733,0.15599197508592094,0.5801614912424622,1.0338186887528422,-0.18353173857855085,0.6553787758093146,0.8955413362177296,0.0,0.0,0.0,0.0
-0.0005421899656475196,0.03212326744469955,0.7275545331341093,-1.236853344714225e-05,-0.5257102154159798,0.0003536568318689545,0.8506636492651773,-0.08304189060682303,-0.8641418993826274,0.9574306884144249,0.09363964024813462,-0.8757000462934017,0.8887860092490916,0.16390804842480405,0.578887024992182,1.0161619212044906,-0.1970723358399578,0.6409416291462109,0.8972303099027862,0.0,0.0,0.0,0.0
-0.0033650640650786665,0.03483100745526571,0.7262428525613422,0.00013986037272664025,-0.5257057102769865,6.587057105611646e-05,0.8506664929820106,-0.08886615912902031,-0.8578614729986657,0.9383518444958633,0.09767891015616564,-0.8714665131339292,0.8970972530100666,0.18281633500976655,0.576744541021471,0.9959378039438778,-0.21165074240495102,0.6265155490511336,0.899636917394396,0.0,0.0,0.0,0.0
-0.005441604277854067,0.03703530975103355,0.724817720351281,0.0005710684926089304,-0.5258839664802593,-0.0005534177178888265,0.8505559484293763,-0.09271287670321961,-0.8527288943733545,0.9232154573996646,0.10397250611168403,-0.871916219330434,0.9124383768750406,0.2168834657493547,0.5731447118855221,0.972611258746258,-0.22710911515977525,0.6127775556594697,0.9041092225133655,0.0,0.0,0.0,0.0
-0.0064208279215402335,0.038280089097482484,0.7232945963783464,0.0011836656994464838,-0.5264364461760498,-0.0014514542451076523,0.850212420724149,-0.09356622004501194,-0.8490483416324743,0.9137825835577782,0.11223302038910128,-0.8817622615995321,0.9390506702110571,0.2600794170514564,0.571076118355751,0.946960763001015,-0.24121706637543466,0.6008768500184632,0.9130322670098001,0.0,0.0,0.0,0.0
-0.006456909087401135,0.03847105570760045,0.7231955530266234,0.0010216149784478064,-0.5264923548591438,-0.0014820186197615928,0.8501779579585205,-0.09383533198336856,-0.8491395655012717,0.9136252541161823,0.11225261028876116,-0.8817771569571221,0.9390613526257652,0.26010511277596793,0.5710895860079493,0.9469594871220146,-0.2412540173543911,0.6007451836226854,0.9129431430548751,0.0,0.0,0.0,0.0
-0.006456909087401135,0.03847105570760045,0.7231955530266234,0.0010216149784478064,-0.5264923548591438,-0.0014820186197615928,0.8501779579585205,-0.09383533198336856,-0.8491395655012717,0.9136252541161823,0.11225261028876116,-0.8817771569571221,0.9390613526257652,0.26010511277596793,0.5710895860079493,0.9469594871220146,-0.2412540173543911,0.6007451836226854,0.9129431430548751,0.0,0.0,0.0,0.0
-0.006415641790399984,0.039684106177616425,0.723037198371861,0.001604982267061596,-0.5254444894701455,-0.001972404702080836,0.8508240841308335,-0.09618007018388282,-0.857092446614175,0.9224867105523387,0.11048421646473303,-0.8880736402213693,0.9433661824243018,0.2468627823954212,0.5700105657299137,0.9528607953667093,-0.2507837309289034,0.596936531394359,0.9052944323516607,0.0,0.0,0.0,0.0
-0.005771770199581323,0.04147793837900709,0.7227358716798723,0.0018462692628802527,-0.5248242492798002,-0.0021557964447278975,0.8512058806184271,-0.10074239363757051,-0.8678668034934867,0.9372577288304174,0.10657983586955322,-0.893651795589452,0.9492590092987407,0.2353328781792592,0.5690650834072276,0.9623568888213794,-0.2614598358510559,0.5959696819185861,0.8973038208746422,0.0,0.0,0.0,0.0
-0.004227963481426632,0.04354003104370544,0.7223833119428149,0.001321586734852436,-0.5255548255087835,-0.0018628671510358262,0.8507566682188932,-0.10681965405653132,-0.8770842392035862,0.954974693880096,0.10088171539422089,-0.8939060770471553,0.9544982860291462,0.23182630772491922,0.5704203151814322,0.9744044504490703,-0.27116899194227595,0.6011706998217592,0.8918447158306758,0.0,0.0,0.0,0.0
-0.0016065937982677522,0.046006912123035155,0.7224586628199662,-0.0002416554585422941,-0.5280122378011065,-0.0009188281003479216,0.8492362298499924,-0.1149819294011944,-0.8824421285407802,0.9752244029386339,0.09260467885090681,-0.8851704114416407,0.9573387559665467,0.23862675395122587,0.5771225680001268,0.9853249076834498,-0.27976270112682855,0.6168606909052955,0.8846102345943289,0.0,0.0,0.0,0.0
0.002240173553874343,0.04980116116812293,0.7245221638441214,-0.0026886388349589272,-0.5315469132492283,0.000699518192781562,0.8470242977097708,-0.12770136503654433,-0.8846835203617623,1.0028569645139724,0.07939994198017447,-0.8657197706867757,0.9585092298383213,0.24926792863202932,0.5965064297762385,0.9831767199385076,-0.2909446263997233,0.6517673438749667,0.8535226712233825,0.0,0.0,0.0,0.0
0.0027292859517907622,0.05397560628529976,0.7277035149294693,0.0005792545493188529,-0.5251507189125464,-0.0009127833598004899,0.8510085509067113,-0.1180337277826002,-0.8720400012418927,0.9497245296482115,0.07222288957473272,-0.8948243673529008,0.9876156927033731,0.18497672292952233,0.6117791259004782,0.963934863010409,-0.23061863696848828,0.6102046834020645,0.9043090784190971,0.0,0.0,0.0,0.0
0.0049822432934579445,0.05785565640662689,0.7302361523637949,0.0013910410806491332,-0.5236237897255522,-0.0014629108931350338,0.8519472118211793,-0.10777817768068905,-0.8637813741210962,0.9230711407094978,0.06355460462649093,-0.9012748104677276,1.0035419150902456,0.15525656709478775,0.6299215123599325,0.9511355948725775,-0.1902733437176296,0.59859104551589,0.9446418006924978,0.0,0.0,0.0,0.0
0.008338892062759742,0.06117150695143328,0.7323718046108645,0.000995879159875574,-0.5242448647825039,-0.001290244132245224,0.851566007567207,-0.09911833469947803,-0.8621868763504713,0.9131028540167443,0.054754385697967804,-0.8998909278706217,1.0178328927257958,0.1420806644307947,0.6503495737966711,0.9413411847246368,-0.16305895448440336,0.6022213643257823,0.9775463288081038,0.0,0.0,0.0,0.0
0.01181736494367022,0.0641649510127845,0.7338562481276448,0.0007416363486422554,-0.5246022317952614,-0.0010989033378517592,0.8513464281844443,-0.09029165389069471,-0.8663827344438122,0.9073333107839101,0.04673177983775305,-0.9029139239610828,1.0357669036835189,0.1288542900984574,0.6680578364592686,0.9353814131798264,-0.14754669138829193,0.6043075240509221,1.0034568075461754,0.0,0.0,0.0,0.0
0.015287612861548897,0.06679468040231724,0.7346577718219005,0.0006997322656695599,-0.5246225540535215,-0.0009594946287334432,0.8513341092210353,-0.07987215391927763,-0.8742107789253334,0.902955841495818,0.03968960520671487,-0.9105786890599941,1.056895360310909,0.11514650042327129,0.6824313310652076,0.9335482495426807,-0.14189389328589694,0.6038161600578188,1.0255611596121021,0.0,0.0,0.0,0.0
0.01937353394766113,0.06870975991142379,0.7351107424808125,-0.0004629952131625816,-0.5267540240264085,-0.00015753814022722516,0.8500176227521126,-0.06825880375665005,-0.8810034734432887,0.9057933835762715,0.033161908755986125,-0.9086935862679063,1.0727399063259138,0.11921604670387863,0.6982476455386174,0.9341090606768497,-0.14249964247823624,0.6165447585851858,1.0501676046553545,0.0,0.0,0.0,0.0
0.023914464506572634,0.07015513124365036,0.7350498731112023,-0.0035454853420869652,-0.5322667921614425,0.0017748475393530026,0.846567387401658,-0.05924189012997469,-0.884655039198292,0.9181880115533594,0.02577327285750609,-0.8877215746305315,1.073798471479836,0.1516904597161829,0.7142292896031459,0.940555678149477,-0.1419294664089099,0.6534164906725408,1.0772265624524078,0.0,0.0,0.0,0.0
0.027972957757868674,0.07183399225640663,0.735006220323203,-0.00930844927875873,-0.5414752443792084,0.005348808008269368,0.8406481444393914,-0.06062652731978231,-0.881424961101047,0.9356966805913575,0.015155150986343591,-0.8367013884603803,1.045733244229426,0.22463005642536102,0.7264642736198411,0.9488189755250391,-0.1484387989800863,0.7063170100975715,1.09687587403385,0.0,0.0,0.0,0.0
0.02481362166866455,0.07573458670952156,0.7384777898246874,-0.003132052739576591,-0.5273044699798078,0.0028150212528654994,0.849665970743972,-0.05368180303049527,-0.9055206200686617,0.9008344781656599,0.008062020731130427,-0.8954632298144243,1.083494439227267,0.09816136167037601,0.7286637651001682,0.9219394509324137,-0.10774597077088408,0.6276552484946618,1.099900161045785,0.0,0.0,0.0,0.0
0.02295734423984698,0.079963701601493,0.7409632836331929,0.00039924967720768393,-0.5215736102740608,0.0002065943223948413,0.853206169096405,-0.04922351139233277,-0.9141585422826802,0.8839648962850489,0.0020139342756345918,-0.910785673373907,1.0846326622593465,0.034074552860972676,0.7333423407867039,0.9035673619703044,-0.1146147112012568,0.58462721726016,1.1012737709198133,0.0,0.0,0.0,0.0
0.02321280204128817,0.0832371672257433,0.7431048751434134,-6.548671560689276e-05,-0.5228697240853597,6.530795917486611e-05,0.8524126014326984,-0.050807051560505044,-0.9207338958768015,0.88805423806598,-0.0058274917614611985,-0.8900657213020546,1.0657376968741317,0.02492949328263399,0.7464627007551655,0.8913660838019759,-0.1063819594746018,0.591026143107638,1.1148956059233324,0.0,0.0,0.0,0.0
0.02397870699286863,0.08589215628402783,0.7446073589858718,-0.0008513687119673817,-0.5243180168704349,0.0004635910638680485,0.8515219770738135,-0.04948398498847838,-0.9299698095532394,0.8910039270984236,-0.013226181572169413,-0.8726279710372444,1.0519366036752766,0.020104727938473264,0.7578123643807562,0.8845892034080513,-0.0972112801295115,0.6000777470778703,1.1323490957622675,0.0,0.0,0.0,0.0
0.024578158169871186,0.08828498334254892,0.7451867524450109,-0.0006291979819129576,-0.5238735098178753,0.0003599968810883641,0.8517957620364436,-0.04290585152559395,-0.9407119972177326,0.8860007480571067,-0.019269373151774027,-0.8707478415924381,1.0500463872257038,0.002989086376946122,0.7627671738346327,0.8846579568103836,-0.09169209190687347,0.5971530668075599,1.147268689236314,0.0,0.0,0.0,0.0
0.025452437409412693,0.09018437492636985,0.7451228623544781,-0.00028285402703420785,-0.5231653882031095,0.0002462122290375723,0.8522310930489613,-0.0327545094934328,-0.9509245839118502,0.878612605844878,-0.02418991840076297,-0.874948384180741,1.0547866454356871,-0.01312987360932574,0.7649223195858494,0.8890788587357608,-0.08849647366285095,0.5920891698111028,1.1620571631171648,0.0,0.0,0.0,0.0
0.027310748963014768,0.0912084306803842,0.7448360138776895,-0.0012376289548707503,-0.5246394075653081,0.0010780749949631165,0.8513229693003694,-0.02166866593312971,-0.9587583036976776,0.8770835565455541,-0.028498068796884064,-0.8705365382865766,1.057654205671955,-0.007802356034102162,0.769969132505399,0.8944755150958373,-0.0856683176565845,0.6008670870201934,1.1819121575098726,0.0,0.0,0.0,0.0
0.030203138434721187,0.0913921811138793,0.7443946172089774,-0.004239034087619972,-0.5292543221482003,0.003378524238005621,0.8484459196975528,-0.013192092734860984,-0.9610855607601723,0.8830300501203457,-0.03301008343622372,-0.8500961818758903,1.0523538129904024,0.029847922467898372,0.7779739456653365,0.9008789807069124,-0.0776078863138044,0.6339527541855348,1.204702252002021,0.0,0.0,0.0,0.0
0.03238701444539896,0.0920501705797339,0.7436982942401178,-0.006894011076505284,-0.5334615806980706,0.005254925042931709,0.8457798769734275,-0.007510360674508648,-0.9602431137382994,0.8886323668313818,-0.037616272328674503,-0.8296259618199193,1.0422267200193238,0.06383253014906273,0.7820193427891051,0.910453242021098,-0.07289525960744929,0.6639353568168103,1.219218434528817,0.0,0.0,0.0,0.0
0.03172155631765567,0.0941902727194409,0.7446550935965187,-0.004959042228724113,-0.5301229389150336,0.004046892248717868,0.8478966329685409,0.0005310611174042567,-0.9617683743762454,0.8818542155736834,-0.04144515436260229,-0.8419457685070448,1.0481551401259066,0.020894035285522257,0.7853809303558821,0.9054951588519731,-0.06005707783581682,0.6466036160898038,1.2175423921094695,0.0,0.0,0.0,0.0
0.02980443206006079,0.0970170930027018,0.7458807990545424,-0.0021347999893036942,-0.5250037877816762,0.0022478141823359535,0.8510942443556413,0.006125084733344628,-0.95980924108582,0.8730302743189318,-0.04624244835252829,-0.8585409830163429,1.0512876061917473,-0.03857405869980149,0.784429728370438,0.8998217565619157,-0.04670875124278409,0.617585811304919,1.2037604670954225,0.0,0.0,0.0,0.0
0.028661842984859423,0.09946884402162749,0.7464626397763123,-0.0008639597843596437,-0.5228622277842706,0.0011874253594029,0.8524159397565113,0.0092775992339004,-0.9515184932819315,0.8720834032292469,-0.05072072588486027,-0.8613379991552675,1.0451495759529472,-0.07142866050005871,0.7835839497160135,0.9000865946156599,-0.0326644049883431,0.610819929487979,1.1881036151988367,0.0,0.0,0.0,0.0
0.028317779452102607,0.10123209687446119,0.7466377443508181,-0.0007432385962713859,-0.5226137424939921,0.0009692395520970925,0.8525686977173763,0.012683393122608556,-0.9410610238726537,0.8761930406747775,-0.05476573096817008,-0.8568646723052281,1.0368425588738155,-0.08536061170536717,0.7839792242492849,0.9035272319636198,-0.018104585386800938,0.6169001114467612,1.1753967359936783,0.0,0.0,0.0,0.0
0.028331396952012904,0.10250013557755742,0.746130119568708,-0.0006687257443015984,-0.5224163925365274,0.0009054827031341427,0.8526897710868087,0.019474193545092326,-0.9304488732133069,0.8787580213645295,-0.05798860608682553,-0.8567267184047933,1.0339317618074952,-0.0954978581731114,0.7818204934368654,0.9119827149761417,-0.0064848326411224705,0.622798050178253,1.1635052386489348,0.0,0.0,0.0,0.0
0.02878157803111786,0.10322918383975137,0.7450621962794346,-0.000707188262673123,-0.5224351931779968,0.0010166351040300984,0.8526780959230134,0.029361266049084962,-0.9198840484310541,0.8803036143827689,-0.060284307235225564,-0.8599598502569392,1.0362109956997567,-0.10044650580297697,0.7782023797538294,0.9239712394250902,0.0030716654975600395,0.6297216572970641,1.1531451629146647,0.0,0.0,0.0,0.0
0.03009949543746009,0.10312683264252301,0.7437418085868467,-0.0020532223057712793,-0.5244310762458834,0.002174682380142104,0.8514476503592532,0.03939299270445444,-0.9074940296742158,0.8854644789888931,-0.06220400423751237,-0.855040456380906,1.0363828553160133,-0.08344297091324407,0.776711189881866,0.9371222899019142,0.01407735002087399,0.650145086660592,1.1473659844960578,0.0,0.0,0.0,0.0
0.031854217965081824,0.10252479413270776,0.7421349751461473,-0.005034244502127669,-0.5286492564841168,0.004609841957482339,0.8488129177611581,0.04653875885266764,-0.8919087983690533,0.8933572578096237,-0.06484980466163096,-0.8370792661192842,1.0274421705438244,-0.03978793738327621,0.774629383628562,0.9529125446846134,0.028043267530913078,0.6870327829303493,1.143662518671308,0.0,0.0,0.0,0.0
0.032296891582549905,0.10295531707195225,0.7409744843369629,-0.00664543531671804,-0.5310313097066666,0.005808872139342319,0.8473062275854831,0.052793084461917696,-0.8779995137660529,0.8977862617917065,-0.06774512655447504,-0.823796405648562,1.015146353959908,-0.01915989141384071,0.7706696889245573,0.9662591023195395,0.037964707027123,0.7095147557616638,1.1350920780896205,0.0,0.0,0.0,0.0
0.030307814415819166,0.10501919216289868,0.7414773055837578,-0.0050734791243606395,-0.5281672122473817,0.004740609270435694,0.8491119963468593,0.058758783574203936,-0.8690276972941483,0.8928331863995016,-0.07143210661440627,-0.828483926672217,1.007306442453117,-0.057281265442386625,0.7668320757866537,0.9677736248703837,0.05261639188724081,0.6976887971510388,1.1187525749603318,0.0,0.0,0.0,0.0
0.02700055098630287,0.10805312605853941,0.74253591661354,-0.00292331826021932,-0.5242327335345561,0.00320913348707953,0.8515639710341781,0.06223869765295543,-0.8607214982903457,0.8856657058670624,-0.0767137150788496,-0.8306552308567735,0.9900018789931851,-0.1082547289965608,0.7604233094750791,0.9672989230782643,0.06869401095580806,0.6785879419447749,1.0977069194684321,0.0,0.0,0.0,0.0
0.023582033050195513,0.11120528082041323,0.7433701228829943,-0.0015891441944104012,-0.5218519362749001,0.0020738070240130303,0.8530320806108608,0.06519944138163591,-0.8505801553648272,0.8819155900852341,-0.08243544145920055,-0.821717836555512,0.9611429501265439,-0.14545370808321229,0.7528593038021698,0.9696429581453145,0.08194448342881028,0.6691722775798776,1.0780576712123227,0.0,0.0,0.0,0.0
0.020334836279942908,0.11406114557127223,0.7438002154370683,-0.0008350120383260061,-0.5204823341120925,0.001324100239976928,0.8538710027812623,0.06946393378207738,-0.8390308659111366,0.8798728622879112,-0.0878162884856346,-0.8076955247581101,0.9277667291092041,-0.17189225293118524,0.744241713058418,0.9752076416390724,0.09544063727655766,0.6679004833451831,1.0617106206676896,0.0,0.0,0.0,0.0
0.01732795637032411,0.11648937048142465,0.7437577401920275,-0.0002663656296790082,-0.5194636041158411,0.0007036075623355706,0.8544922457136344,0.07559673146344281,-0.8258384888651235,0.8770295393830135,-0.09227103695592336,-0.7942293272302872,0.8954545569531367,-0.19283212219972148,0.734275194271541,0.98382973965832,0.11366004129898122,0.6720820254282306,1.0480435341528647,0.0,0.0,0.0,0.0
0.014640440553590716,0.11846887267095355,0.7432376672421594,0.0002061912815637638,-0.5186468116607538,0.00015406235217552185,0.8549885487561114,0.08347513861158525,-0.8110448640856449,0.8722173746943916,-0.09573621551082599,-0.7830320253305378,0.8664226481452119,-0.2096803089409838,0.7231817598245611,0.995340076174213,0.1419713956713503,0.6811503777729553,1.0370415723841708,0.0,0.0,0.0,0.0
0.012388440518463282,0.11994302554638371,0.7423076795387951,0.0005256417619624519,-0.5180853456241148,-0.0003186636924614085,0.8553287068745739,0.09191061317248903,-0.7952707688356214,0.8637037697910858,-0.0980817212902096,-0.7744314417927313,0.8420046621588902,-0.2221842971431385,0.7118384955845296,1.009006945407172,0.18559388676967997,0.6958033961433512,1.02897762311077,0.0,0.0,0.0,0.0
0.010890871858893125,0.1207828252371595,0.7413384557569697,0.0005941465967857514,-0.5179339036585147,-0.0007260877796195238,0.8554201255683725,0.09888192017430858,-0.7800408546454596,0.849393006387725,-0.0989036170456385,-0.7684685717632893,0.8248812012680397,-0.22974596420446608,0.7034694019351729,1.0211626972591812,0.24071238447728704,0.7142125220086717,1.024278542137725,0.0,0.0,0.0,0.0
0.010923959015240445,0.120804853950213,0.7413053174197608,0.0006129690305070572,-0.5179107507253,-0.0007490879684793969,0.8554341105072554,0.09892441966293929,-0.7800407329408517,0.8494000961150167,-0.09890441432861818,-0.7685275067048541,0.8247422025948601,-0.22976847131268008,0.7034129882666971,1.0211016853531434,0.24072489089153246,0.7142422015862598,1.0242887522953334,0.0,0.0,0.0,0.0
0.010923959015240445,0.120804853950213,0.7413053174197608,0.0006129690305070572,-0.5179107507253,-0.0007490879684793969,0.8554341105072554,0.09892441966293929,-0.7800407329408517,0.8494000961150167,-0.09890441432861818,-0.7685275067048541,0.8247422025948601,-0.22976847131268008,0.7034129882666971,1.0211016853531434,0.24072489089153246,0.7142422015862598,1.0242887522953334,0.0,0.0,0.0,0.0
0.010923959015240445,0.120804853950213,0.7413053174197608,0.0006129690305070573,-0.5179107507253,-0.0007490879684793968,0.8554341105072554,0.09892441966293929,-0.7800407329408517,0.8494000961150167,-0.09890441432861818,-0.7685275067048541,0.8247422025948601,-0.22976847131268008,0.7034129882666971,1.0211016853531434,0.24072489089153246,0.7142422015862598,1.0242887522953334,0.0,0.0,0.0,0.0
0.011515808224334652,0.12085505280215093,0.7413130222893433,0.0006595601562476605,-0.5181622078714537,-0.0007745609680132425,0.8552817613918161,0.09890486389767413,-0.7816165254764678,0.8540339883774175,-0.09905591657269706,-0.7699607211248194,0.8289638626325673,-0.23215981926935558,0.7065906461345691,1.020995799986641,0.24160120632959176,0.7171584189479584,1.0239907570478284,0.0,0.0,0.0,0.0
0.012617359275937049,0.12106848750003482,0.7412771614853064,0.000631289999402526,-0.5184141977804846,-0.0007349942664350397,0.8551291018296486,0.09847317212207678,-0.786677982670017,0.8648429519634818,-0.09985756900524788,-0.7735336296099276,0.8375975280988868,-0.2359025830221512,0.7112781920060892,1.0212769157306791,0.24318779684289143,0.7218844595565039,1.023157355204876,0.0,0.0,0.0,0.0
0.014230511575535006,0.12158460163939137,0.7411744635126151,0.0005036340807622283,-0.5187036090733897,-0.0005890566512672569,0.8549537796274219,0.09717819555009759,-0.7955177269697065,0.8822219198285465,-0.10174651931485254,-0.7784349419532263,0.8494691234250481,-0.2418205501696781,0.7175557721265277,1.0224932326285276,0.2450280984317176,0.7285198335964153,1.0216813376793412,0.0,0.0,0.0,0.0
0.016357081039405127,0.12251068573987826,0.7410312101302533,0.0002508962506957654,-0.519077157999861,-0.00028763498149573,0.8547273005818734,0.09460925118230913,-0.8080476071935093,0.9061278405105793,-0.10510099483778551,-0.783719871110276,0.8634250730947508,-0.25056004321855607,0.7257765933220417,1.0246564845759054,0.24698908371011938,0.7374849808262116,1.019079812665493,0.0,0.0,0.0,0.0
0.01888971578605487,0.12397235539931846,0.740897042865856,-9.783800150640539e-05,-0.5196718445546132,0.000252062263053381,0.8543659057274856,0.09011673929704238,-0.8230042121223009,0.9348384858784117,-0.11043148904259285,-0.787275869133249,0.8766685073305213,-0.2633209547081469,0.7364452711192099,1.0278623433675116,0.24874116896844609,0.7492557565422654,1.0148871878442047,0.0,0.0,0.0,0.0
0.021199278548166986,0.12578772156225254,0.7416732619517684,0.0009657242272916453,-0.5205208427533717,-0.0011987804924022839,0.8538475757190902,0.08885012522989093,-0.8269329246530497,0.9544025992270181,-0.09775083668820336,-0.7986028740661283,0.8834468868931287,-0.19912508215693953,0.7158177825215634,1.03555451674266,0.21745527089271577,0.7562807726361658,1.0005290122335646,0.0,0.0,0.0,0.0
0.023439785348065338,0.12774281808143156,0.7421607010930669,0.0018145802029736027,-0.5213836108870216,-0.0022383293856973645,0.8533175419963304,0.08623795517045241,-0.8326418949305902,0.9747889769168964,-0.08444433257925411,-0.8116420396216564,0.8862454011966994,-0.14236155007463364,0.6982828711861346,1.0440018000119258,0.18905132816727105,0.7628241787966962,0.9881412086026808,0.0,0.0,0.0,0.0
0.025466026031333418,0.12964958314983102,0.7424719822133584,0.0022715238690290246,-0.5221591390560139,-0.002724787712685128,0.8528406939232647,0.08249781812721646,-0.8397320350948196,0.9946990595904606,-0.0738084560091991,-0.8250095435251025,0.8882200856025121,-0.10337275178406644,0.6865117369452336,1.054074726104855,0.16773711300135363,0.7696259619815252,0.9775708738378577,0.0,0.0,0.0,0.0
0.027135775528181295,0.13141771641480843,0.7426984462242665,0.0024928432276496793,-0.5228300045580533,-0.0029081297952266876,0.8524283634696598,0.07839969495345511,-0.8464620208982582,1.0119549061998125,-0.06566782707182758,-0.8379633891058832,0.8897734943377372,-0.07660191888058687,0.6783096069135299,1.0654622172384283,0.15103380865168603,0.7757748986786716,0.9684685735005137,0.0,0.0,0.0,0.0
0.02840555791710243,0.1330241720102419,0.7429129424137532,0.0025997685958118917,-0.523403177782304,-0.002956156217561897,0.8520760622333263,0.07436264589170968,-0.8519007238461266,1.0257138782158892,-0.05910220779375201,-0.8503194775997653,0.8909040227521879,-0.05673719670976905,0.6717465316556837,1.077594982839045,0.1369659356948153,0.7808589485126382,0.9603320207428651,0.0,0.0,0.0,0.0
0.02929741169919426,0.13448245764421907,0.7431610245804829,0.002658309741699942,-0.5238902201510781,-0.002951742467476235,0.8517765304560685,0.07053798867434952,-0.8557955560747762,1.0360467645618443,-0.053244149898779576,-0.8621466804907163,0.8915281330841784,-0.04049113042882509,0.6656720922033547,1.0900396195734927,0.12439694325331792,0.7848615160559993,0.9527067193293484,0.0,0.0,0.0,0.0
0.02986500896378906,0.1358218861968542,0.7434626399265171,0.002699375942629216,-0.5243034772169716,-0.002930094041309535,0.8515221616004025,0.06693832919559281,-0.8582580745017647,1.043442799398154,-0.04751007257623291,-0.8735833640640921,0.8915797010512092,-0.02606120098948165,0.6595084528454291,1.1025379674887634,0.1127174734038383,0.7879419937936898,0.945270158507274,0.0,0.0,0.0,0.0
0.030171456890207317,0.13707537337094766,0.7438193035949756,0.0027355117345117435,-0.5246548465726952,-0.002904028309354827,0.8513056886705918,0.06351919871451658,-0.8595519217670247,1.0485149847739614,-0.041598896250311344,-0.8847592775239449,0.891033789005166,-0.012510698080676093,0.6530063799993585,1.1149585879186164,0.10159687082947923,0.7903009622150369,0.9378333566846317,0.0,0.0,0.0,0.0
0.030276957401031184,0.13827307355837828,0.7442218036621822,0.002770727202554522,-0.5249551591536534,-0.0028771040581646646,0.851120512160863,0.06022173019806781,-0.8599744482164423,1.0518521809072379,-0.03540879043782903,-0.8957777639849135,0.8898969336641723,0.0006325171266797838,0.6460841769561602,1.1272443873737665,0.090843774629921,0.792118278972156,0.9303106930807452,0.0,0.0,0.0,0.0
0.030233120035383802,0.13943996732344827,0.7446559663980664,0.0028054899176120345,-0.525213872615221,-0.0028494553064190124,0.8509608673983201,0.056990792586114364,-0.8598003028958324,1.0539579193791502,-0.02894804242334439,-0.9067209563485888,0.888187922899471,0.013602195544445455,0.6387421177032518,1.13937345749309,0.08033775010706093,0.7935324241800488,0.9226868321697339,0.0,0.0,0.0,0.0
0.030081176207480968,0.14059602245139063,0.7451058387083493,0.002838933949874097,-0.5254388847392458,-0.002819932925028363,0.8508219360338002,0.053779173622086944,-0.8592630823051017,1.0552369708164586,-0.022268563868018627,-0.9176528028034049,0.8859226378178375,0.026514371452090103,0.6310244562205306,1.1513296476220802,0.06999598764663491,0.7946368995642057,0.9149928718597484,0.0,0.0,0.0,0.0
0.029851978907580536,0.14175790813959283,0.7455544972895933,0.002869643268361445,-0.5256363102011005,-0.0027866539738077454,0.8506999877191225,0.050544621373948904,-0.8585585222360487,1.056004977642845,-0.015425366305048243,-0.9286025289532194,0.8831116239438224,0.03942844691321007,0.6230057225390394,1.1630731228577014,0.05975295741065298,0.795478651579748,0.9072956909364579,0.0,0.0,0.0,0.0
0.0295661701754814,0.14294150952951118,0.7459829235999043,0.002895799264500926,-0.5258101387485702,-0.0027470853393721864,0.8505925968746538,0.04724395380868758,-0.8578574305495457,1.056504087324011,-0.008457015534940892,-0.9395147002560172,0.8797786898946828,0.05237179166841646,0.6147860482671051,1.1744974338765843,0.0495424262040436,0.7960498591797031,0.8997016642489253,0.0,0.0,0.0,0.0
0.029233288241538015,0.14416454796365843,0.7463673880607411,0.0029150688064183633,-0.5259618496107223,-0.0026981980149652237,0.8504988858636993,0.04382710083349802,-0.8573188925218229,1.056911023551666,-0.0013833861051583997,-0.9501575088019596,0.8760102173726273,0.06533422674978176,0.6064892193484634,1.185355011410698,0.039280415512797415,0.7962691098395884,0.8923756198610939,0.0,0.0,0.0,0.0
0.028849184358526368,0.14544833927044454,0.7466759626816982,0.0029242239542236637,-0.5260903708587874,-0.0026366903807169503,0.8504195543775821,0.040233524302440815,-0.8570950109591658,1.0573266523889011,0.005778722770405848,-0.9599987482325234,0.8720423804594148,0.07822664248023643,0.5982723802558325,1.1951278811100774,0.02885824434227611,0.795954796599413,0.8855748504802669,0.0,0.0,0.0,0.0
0.028392655575133822,0.1468172206430585,0.7468657793555363,0.002918081158324223,-0.5261931909057382,-0.002558570195688467,0.8503561985223278,0.03639323218255821,-0.8573196407016289,1.0577443956811743,0.012981620754346626,-0.9681023891634862,0.8683757447137618,0.09079522455220951,0.5903861701182368,1.2028179332046747,0.018167048892182576,0.7948084007490723,0.8796880895603598,0.0,0.0,0.0,0.0
0.02782591769915704,0.1482943413022619,0.7468858557688391,0.0028874660247893277,-0.5262694065060919,-0.002457115318449762,0.8503094359702198,0.032233533166583186,-0.8580791587019798,1.0580218153222278,0.020107988681188998,-0.9731790327703687,0.8658522332716603,0.10251396624240976,0.5833687074727135,1.2066424346325355,0.0071710903850477625,0.7924543645176033,0.8752288941752137,0.0,0.0,0.0,0.0
0.027110157189293653,0.14989636908302223,0.7466968641922671,0.0028192578597245285,-0.5263240949265706,-0.0023226610410345275,0.8502761928517905,0.027692291617634965,-0.8593739666377121,1.0579372055129326,0.02698305241354112,-0.9740407533018863,0.8655036690453403,0.11261760686673698,0.5784135649539853,1.203799333046221,-0.004051064290045108,0.788613363399104,0.8726305909020653,0.0,0.0,0.0,0.0
0.026229874704603324,0.15164624814647618,0.746291059370398,0.0027096362552944306,-0.5263593486734778,-0.0021533293547914226,0.850255171762034,0.02270573666289736,-0.8611945278879946,1.0574215630781354,0.03350689977437216,-0.9706887967160508,0.8672987005349373,0.12096995482418543,0.5756142187560858,1.1943823416894497,-0.015604260428067078,0.7832014557788628,0.8719116839979792,0.0,0.0,0.0,0.0
0.02519344360367771,0.1535754311536656,0.7456928676907071,0.002565312844943836,-0.5263730578573556,-0.0019559408501330297,0.8502476094804944,0.017203939253997925,-0.8635309439815838,1.056573855350271,0.039686537337748795,-0.9643189862916097,0.8701620506649156,0.1281113443246416,0.5739171732564958,1.1813405973925373,-0.027791418404464856,0.7763368474108697,0.8726457367746299,0.0,0.0,0.0,0.0
0.024007756166916756,0.15571127045124605,0.744940049794825,0.0023912128408137,-0.5263671340543378,-0.0017362790285634262,0.8502522611694177,0.011125303006968436,-0.8662896920797565,1.0554199999943503,0.045518677267624305,-0.9562200041288159,0.8732054549628258,0.13440280143215885,0.5728462079061082,1.1665553595155904,-0.040829964384854624,0.7682418499470133,0.8742766369258574,0.0,0.0,0.0,0.0
0.022662711415603738,0.15807899578365936,0.7440631552269481,0.0021898050969330445,-0.5263441445269973,-0.0014987157661726638,0.8502674873984263,0.004412472943725232,-0.8693196847471993,1.0538378229888945,0.05095955391128787,-0.9473241144501765,0.8758768184799528,0.1399710655144877,0.5721632558231078,1.1510817154708533,-0.054859579910949294,0.7590712159712862,0.8763508846956994,0.0,0.0,0.0,0.0
0.021132658881558276,0.1607020787474183,0.7430813082719174,0.0019627185067228026,-0.5263055653990091,-0.0012476026700944018,0.8502923279988301,-0.0029843379097040535,-0.8724349493416381,1.051577941582904,0.055951216344243236,-0.9381719147981092,0.8779006432756316,0.1448122009857565,0.571705294837795,1.135459790688257,-0.06996374089154757,0.748883691284494,0.8785518124383069,0.0,0.0,0.0,0.0
0.019382692313354242,0.16359901299293275,0.7420041836615016,0.0017119822466156965,-0.5262515854300676,-0.0009875310717979112,0.8503266212059397,-0.011097730723080462,-0.8754231236948288,1.0482972531012078,0.06045655652936803,-0.9290279860167566,0.879181519643756,0.14889534045824315,0.5713427352389105,1.1199245932270074,-0.08615475129178742,0.7376740900339215,0.8806757402619307,0.0,0.0,0.0,0.0
0.01737489308822388,0.1667775040690198,0.7408358792304599,0.0014409397293653795,-0.5261817606558844,-0.0007232030817523128,0.8503705988703233,-0.019927801895154112,-0.8780395589408941,1.0435786552883157,0.0644890357261398,-0.9200142407893455,0.8797346834585273,0.15223733867605088,0.5709766315314818,1.1045264795895957,-0.10334349112106454,0.7254178826307387,0.8826024709178232,0.0,0.0,0.0,0.0
0.01507391127666343,0.1702272369586838,0.7395794180348048,0.0011551761782976344,-0.5260959233233623,-0.00045950812745803617,0.8504243257826158,-0.02942276198573717,-0.8799943054282439,1.0369414781449966,0.06813767060106854,-0.9112104827383299,0.8796589646882295,0.15496166670415176,0.5705363018429191,1.0891870987290668,-0.12131375328259004,0.712112247043329,0.884271546380126,0.0,0.0,0.0,0.0
0.012453096045734493,0.17391227096142312,0.7382415758280177,0.0008638644620857822,-0.52599507892996,-0.00020229054275575802,0.8504871484967851,-0.039457455423764665,-0.8809422546603862,1.0278592656315055,0.07158790457956478,-0.9027126251669046,0.879150398347935,0.1573695841123161,0.5699629128065687,1.0737124540849572,-0.1397163389607879,0.6978108131780232,0.885662923696553,0.0,0.0,0.0,0.0
0.009503149732172768,0.17776423769883082,0.7368374059232696,0.0005821474050098602,-0.5258822968432829,3.9378528219795196e-05,0.8505571523540106,-0.049811811805000876,-0.88049002385056,1.015807888646743,0.07512922282592639,-0.8946541518237482,0.8785528234068358,0.16006544115839044,0.5691720989190685,1.057778125278052,-0.1580980577086208,0.682650310472342,0.8867818988736024,0.0,0.0,0.0,0.0
0.00624564945957457,0.18167766935277566,0.7353917292353584,0.00033576012298488,-0.5257635642061343,0.0002474207864403943,0.8506306487550024,-0.06014944200514202,-0.8782414767972578,1.0003742198469876,0.07912629218728436,-0.887202097860649,0.8784377769435163,0.16419192781211187,0.5679910447705278,1.0408978224472514,-0.17598619965606138,0.6668543364887018,0.8876652527733119,0.0,0.0,0.0,0.0
0.0027524555913830797,0.1855090849525139,0.7339279963518556,0.00017364973661386773,-0.5256430583646784,0.000367729961711054,0.8507051250659488,-0.0699582118136113,-0.8739303959353282,0.9814718920713921,0.08397058404566946,-0.8805833180183527,0.8796715689606216,0.17170013044323693,0.5661027245913519,1.0223966447260018,-0.19314337410248017,0.65060692377134,0.8884567516630513,0.0,0.0,0.0,0.0
-0.000849562410628368,0.18908347733716105,0.7324473529406599,0.00016806158346684328,-0.5255555609945549,0.0003330611953758445,0.8507591980891203,-0.07863864721755001,-0.867406831454922,0.959335262483469,0.09053396675726944,-0.8753564913445521,0.8837332081578657,0.1862277072259655,0.5629745342783345,1.0013477786372535,-0.20952886833243195,0.634042529292261,0.88970980666869,0.0,0.0,0.0,0.0
-0.0039541247275889126,0.19233056724159028,0.7308027897795597,0.0004066404322710142,-0.5254519976873637,4.980896793271428e-05,0.8508231486560437,-0.0859336776863646,-0.8621560406970037,0.939853153659439,0.09878888865902741,-0.8716697785417804,0.8908830577242262,0.2129446232152154,0.5590503021836375,0.9766084341942468,-0.22637147720351125,0.6173996094872504,0.8923823412577802,0.0,0.0,0.0,0.0
-0.006264648122681143,0.19487703648120172,0.7289830149221331,0.0009427346246863556,-0.5255083463085998,-0.0005535243274201255,0.850787742519982,-0.09078525493887189,-0.8581754383445409,0.9242841121463622,0.10904292639579798,-0.8730357551605005,0.9047065884439306,0.2556065571105675,0.5539099097249107,0.946782695697057,-0.24304507675687084,0.6011165763639937,0.8984985884403278,0.0,0.0,0.0,0.0
-0.007416034546467551,0.19621055658104197,0.7269897430708153,0.0016453257749544973,-0.5259284796752831,-0.0013938202822893575,0.8505260633481847,-0.09210371289099221,-0.8558287567004397,0.9144427564091396,0.12008663956700973,-0.8842030043444283,0.9296113956192772,0.3054920273222517,0.5520353421435527,0.9118931932904876,-0.25702350971460286,0.5862511161549628,0.9110582103951114,0.0,0.0,0.0,0.0
-0.007450435353815365,0.19642289694610418,0.7268662925008732,0.0014726793485239406,-0.5259922950694533,-0.0014292934628632734,0.8504868569609424,-0.09240309932962702,-0.8559408552072072,0.9142633416235828,0.12011274327600083,-0.8842187695134773,0.9296216244724573,0.3055232199074185,0.5520482916897294,0.9118894734265248,-0.2570652278288067,0.5861044994049536,0.9109561672992711,0.0,0.0,0.0,0.0
-0.007450435353815365,0.19642289694610418,0.7268662925008732,0.0014726793485239406,-0.5259922950694533,-0.0014292934628632734,0.8504868569609424,-0.09240309932962702,-0.8559408552072072,0.9142633416235828,0.12011274327600083,-0.8842187695134773,0.9296216244724573,0.3055232199074185,0.5520482916897294,0.9118894734265248,-0.2570652278288067,0.5861044994049536,0.9109561672992711,0.0,0.0,0.0,0.0
-0.007508061024174212,0.19751810909598005,0.7265452461655533,0.0016869181082378904,-0.5253942502986052,-0.0017142627343207212,0.8508555090987778,-0.0946824184491919,-0.861554016839919,0.9199234050830758,0.11817494686564187,-0.8872982639781436,0.9303872606592055,0.2971820269762088,0.5493532613588422,0.919703837160996,-0.2636141817757312,0.5829951779300228,0.9067235565612068,0.0,0.0,0.0,0.0
-0.00702857546686825,0.19924118779203914,0.7260833441059542,0.001700705753038055,-0.5250242855961899,-0.001763705436099314,0.8510837188416229,-0.09922121856019483,-0.8707476648944782,0.9319957842957759,0.11414369094683477,-0.8907756135202197,0.9334375361280883,0.2890023116941031,0.5463813434801125,0.93146292720685,-0.2723601012230706,0.5817818165788387,0.9014941736385607,0.0,0.0,0.0,0.0
-0.005777434447644475,0.20141962677451222,0.7256456137333128,0.001340920839708994,-0.5253326622428572,-0.0015606294243965713,0.8508944472423906,-0.10548765423857283,-0.8812530917164452,0.9494891482873472,0.1083920323394812,-0.8926108241224423,0.9384882058175626,0.28368229304172476,0.5452665975342262,0.9453768387849675,-0.2826409930561339,0.5848066219678152,0.8953533375440356,0.0,0.0,0.0,0.0
-0.003581334030859454,0.20422772099515632,0.7257219854834067,0.0005165085237195834,-0.5263888015304914,-0.0010173102930581027,0.850243216922079,-0.1141216887401034,-0.8923156690639602,0.9733956965751736,0.10021885332818165,-0.8912292715135752,0.9456289529433156,0.2811772401568429,0.5489885551685955,0.9574763013263216,-0.29482033176960604,0.5956825459610925,0.8827816702808422,0.0,0.0,0.0,0.0
6.583262921917854e-06,0.20843751209841568,0.7281488425228512,-0.0010383063742131747,-0.5284920071395911,0.0002539477581999852,0.8489376041971375,-0.12787612390979813,-0.9002958841974026,1.0061138904687348,0.08651342105790222,-0.879362886072347,0.9529031187958791,0.2807910923449098,0.567574754151083,0.9541313496806141,-0.310112003737171,0.6280588489611251,0.842625382932993,0.0,0.0,0.0,0.0
0.0020534597147990317,0.2124761516337813,0.7313377394148894,0.0001015476509070743,-0.5260282181076718,-0.0005244413366167175,0.8504669472729829,-0.11784047113342104,-0.8778992200717679,0.9574915627048587,0.07819003804551916,-0.8896823474741534,0.9729894164800398,0.24632747943342725,0.5878258339776384,0.9385936352405411,-0.25548842219003454,0.607842733955489,0.8995873802009954,0.0,0.0,0.0,0.0
0.00470560357674955,0.21654843134839574,0.7340525147551719,0.0004532598349622291,-0.5251320639277283,-0.0007506870871505464,0.8510202973251717,-0.10782365500464128,-0.8679351040722846,0.9299960264038625,0.06833680037823874,-0.8928649226875617,0.9885021820619793,0.2217113452420979,0.6074920887270159,0.9276100439895988,-0.21041594165846556,0.6015767412031572,0.9428202206589453,0.0,0.0,0.0,0.0
0.007739982344917074,0.22043711600391433,0.7363203934022768,0.0002337673642087396,-0.5251872290361475,-0.0005673541114283913,0.8509864851567649,-0.09872872685962619,-0.8664404670081665,0.9165489417718831,0.0579805128883759,-0.8922213924670204,1.001698448881266,0.2044632408598221,0.6261931451601115,0.919977673525986,-0.18194765189455392,0.6015138309696166,0.9753195410535361,0.0,0.0,0.0,0.0
0.010795383628786783,0.2240968771038616,0.7382228447772052,-0.0002081358817579239,-0.5255542671458858,-0.0002217179062403491,0.8507600248045131,-0.09106893718457809,-0.8696806061818375,0.9100522547052794,0.04784562888046673,-0.8903660004916069,1.013329789495716,0.1904342416525029,0.6434343446880847,0.9144874880672088,-0.1660123431750995,0.6030415888906594,1.0006555543457274,0.0,0.0,0.0,0.0
0.013623738785228375,0.2275501522013648,0.7398770244579846,-0.0006468477541373327,-0.5258968432623602,0.00013053696624830546,0.8505481025754911,-0.08480233434444111,-0.8755074442128974,0.9068506237568377,0.03820138104905399,-0.8882734131922821,1.0232582382871325,0.17682218911239578,0.659171624680205,0.9101189913719887,-0.1568326205601107,0.604385622621884,1.0213495702740403,0.0,0.0,0.0,0.0
0.016107736078615844,0.23081940089535702,0.7413530542674586,-0.001002152820213141,-0.5261098123335581,0.00043070121317405536,0.850415942673077,-0.07954262436785797,-0.8827454020334184,0.9050944189193415,0.02910121742378748,-0.886061552838375,1.0311691182629317,0.1625079388637936,0.6734093174991557,0.9064590347829748,-0.15073691097146313,0.6049918556629755,1.0391782220267565,0.0,0.0,0.0,0.0
0.018229275357843824,0.23391143728274078,0.7426951130792554,-0.001273506307651753,-0.5262080186104131,0.0006742365032976193,0.8503546582085177,-0.0748090966376171,-0.890742772022223,0.9038799385813289,0.020538483326388572,-0.8835430997466943,1.0369336218976755,0.14746401805076215,0.6862678343231546,0.9032974667276154,-0.14589291885914002,0.6049137951912351,1.0553765230335903,0.0,0.0,0.0,0.0
0.0200207493920605,0.23682758828286132,0.7439328958691467,-0.0014829100754746194,-0.526235454169328,0.000873534891857528,0.8503371594195457,-0.07020232692480112,-0.899142429846668,0.9027319369922928,0.012496202065604046,-0.8805694484424832,1.0406695761277371,0.1320395342775484,0.6979289638721041,0.9004778114524691,-0.14145433504410787,0.6043678216652686,1.0707472885232623,0.0,0.0,0.0,0.0
0.021524027447240277,0.23957449496340347,0.7450872624794138,-0.0016263991967711727,-0.5261834381256546,0.0010260083774694814,0.8503689149861531,-0.06541957372504005,-0.9078142562201378,0.9012421783817548,0.004972125231580433,-0.877379157736167,1.0428449905538093,0.1162586183580453,0.7085423128801329,0.897834258644855,-0.1369163935856019,0.603333742459126,1.0857234607925466,0.0,0.0,0.0,0.0
0.02281086551802402,0.24214847823489993,0.7461665960016102,-0.001737425837904391,-0.5261100373032734,0.0011547622562859622,0.8504139442203058,-0.06031986321054371,-0.9166444855945795,0.8993588007233009,-0.002059694342409492,-0.8739149313188593,1.043794829361675,0.10070987525788141,0.7183090993300163,0.8953059904996417,-0.13213623182394174,0.6021567247131729,1.1006752308365921,0.0,0.0,0.0,0.0
0.023947694288391927,0.2445481059286885,0.7471731406889657,-0.0018366989060091016,-0.526048883558342,0.0012752189795659052,0.8504513933557313,-0.054830150591091295,-0.9255837028942787,0.8970475466914629,-0.008618362132814264,-0.8702602166420145,1.043932551348538,0.08579884011659612,0.7273937055701807,0.8928622098190836,-0.12703271340370784,0.6010948847678811,1.1158184446278792,0.0,0.0,0.0,0.0
0.024985475254242377,0.24677793195379757,0.74810609795815,-0.0019321094105190038,-0.5260090284675795,0.0013944539722992285,0.8504756459899002,-0.04893890384305216,-0.9345957775516108,0.8942630703092239,-0.014727114575176694,-0.8665845588727027,1.0436571534377983,0.07170114392801952,0.7359048668475247,0.8905053752139468,-0.12152766338280245,0.6002995101582964,1.1312118813645289,0.0,0.0,0.0,0.0
0.02596075178071445,0.24884593302807542,0.748960449304732,-0.0020274585283247487,-0.5259909492359358,0.0015160370016409194,0.8504863975194458,-0.04267854338791019,-0.9435787153139514,0.8910014899256053,-0.020414318814930513,-0.8630523495369428,1.0432816164091152,0.05848616864816783,0.7438933480306217,0.8882954280474318,-0.11557929873928026,0.5998900377646619,1.1467727679049533,0.0,0.0,0.0,0.0
0.02689695482160283,0.2507603465416805,0.7497242380651145,-0.0021277122206412994,-0.5259966636780582,0.0016428807447678685,0.8504823828763981,-0.036103122716887474,-0.9522586897241214,0.8873649800071075,-0.025708131291665527,-0.8597786527788334,1.043001161131478,0.0462067898018202,0.7513434807317562,0.8863799974186518,-0.10919502973622042,0.6000071330917309,1.1622417925688648,0.0,0.0,0.0,0.0
0.027801810919806876,0.25252910039129134,0.7503764115646536,-0.0022414320400340935,-0.5260352982523248,0.0017790617552798857,0.8504579213072616,-0.029281914629640454,-0.9600606320115386,0.8836464971144171,-0.030636539504372597,-0.8567909762102583,1.042844916629708,0.03493948652905697,0.7581560144197556,0.8850290916764535,-0.1023904576734722,0.6008414950204011,1.1770634372628115,0.0,0.0,0.0,0.0
0.02865512175801935,0.25416605828093425,0.7508878688236542,-0.00236506895083688,-0.5260983170963301,0.0019203845160164809,0.8504182966755699,-0.022284553679559838,-0.9660439054844744,0.880355544776362,-0.035228769489807105,-0.8541372458285698,1.0427064677466211,0.024552637115772692,0.7641073614476576,0.8846350854896998,-0.09503471286919653,0.6025341818092704,1.1901280050237855,0.0,0.0,0.0,0.0
0.02940370896215947,0.25569659917067483,0.7512264306110681,-0.0024661836551618083,-0.5261336954471344,0.0020447319024317883,0.850395832259759,-0.015152884134897484,-0.9689975456918927,0.878192902256027,-0.0395175963659319,-0.8520215814401104,1.042440756339757,0.014471084394849485,0.7688474853621766,0.885654497884682,-0.08667741246969665,0.6051990560008496,1.1994429101441468,0.0,0.0,0.0,0.0
0.029991775902862543,0.25714960475761284,0.751371568050689,-0.0025021720929995815,-0.5260764124797527,0.0021258356390697632,0.8504309661519187,-0.00790436969654914,-0.9678424369360927,0.8779266466652923,-0.04354264969464601,-0.8506859929148478,1.0419364828121993,0.0039836762215716675,0.7720733649983971,0.8884173981749651,-0.07661669368107035,0.6094488048300766,1.2019933479894345,0.0,0.0,0.0,0.0
0.030413491299743592,0.2585297785753418,0.7513250087564819,-0.002475530186766559,-0.5259287499087157,0.0021640585175341136,0.8505222740296005,-0.000605722399499172,-0.9625575715990833,0.8795183472758323,-0.04731723175963691,-0.8500829920482048,1.041126422726175,-0.006894797726458872,0.7737667966175323,0.8929375319456264,-0.0649297542765952,0.615172748215615,1.1977221269521972,0.0,0.0,0.0,0.0
0.030712821850580642,0.2598207363116529,0.7511103452571838,-0.0024326670772308228,-0.5257563722280416,0.0021871230929512023,0.8506289059778515,0.0066353565560802385,-0.95420360284883,0.8821443188438081,-0.05083683334470351,-0.8498880627219167,1.0399913790992634,-0.017449165446621447,0.774192977775308,0.8989231345737178,-0.0524137002995132,0.6215969490883355,1.1895368364392478,0.0,0.0,0.0,0.0
0.03093355611435945,0.2610133499186208,0.7507633188984777,-0.002415127205221371,-0.5256172181745781,0.0022242228841398964,0.8507148523163106,0.013752324262318007,-0.9440021767642587,0.8851267273040441,-0.05412115815099574,-0.8497624581176046,1.0385042017649488,-0.027052751439715143,0.7736792789318405,0.9059727421750107,-0.03958445076736122,0.6285889183903589,1.179359430791432,0.0,0.0,0.0,0.0
0.031087458030083885,0.2621145920239856,0.7503220773471818,-0.0024454230608633135,-0.5255432420431966,0.0022907526847552,0.850760291210701,0.020736334585726292,-0.9328402819509775,0.8879886947109508,-0.057206582047071776,-0.8493776260087749,1.0364720281009985,-0.03545778781489109,0.7724780767467478,0.9137443086686035,-0.026724928350702747,0.6361202473423269,1.1682812067971673,0.0,0.0,0.0,0.0
0.031145479913551634,0.2631515630521947,0.7498273218240827,-0.0025273635396812115,-0.5255356709701783,0.0023889809494632873,0.8507644584381072,0.027575348729486252,-0.9212343025331995,0.8904352287439927,-0.06015760429487481,-0.8483918710661359,1.033468252591459,-0.042806626218565166,0.7707164239844654,0.921968534856387,-0.013982268972631906,0.6440549463522472,1.1568201685025037,0.0,0.0,0.0,0.0
0.031040158963925302,0.264172069432957,0.7493243923835196,-0.0026508879445879554,-0.5255678513199575,0.0025143642672876007,0.850743841837459,0.0342045163185707,-0.909434657706104,0.8922728739170347,-0.06308098035199933,-0.8464155164949457,1.0288141691302817,-0.049539870974837766,0.7683891493654612,0.9304212321869118,-0.0014084951721603997,0.6521255182437505,1.145132177495408,0.0,0.0,0.0,0.0
0.03067213093637673,0.26524494990918784,0.7488657289897269,-0.002787995159615751,-0.5255806915130625,0.0026503954813711624,0.8507350581676021,0.040512230994647756,-0.8976004170522706,0.8934140605248952,-0.06611609340160322,-0.8430643791118942,1.0216536321428709,-0.05646337209431577,0.7653988612370014,0.9388850236638008,0.011015317759704645,0.6598922654965708,1.1331413191366413,0.0,0.0,0.0,0.0
0.029921198089277293,0.26645624861247963,0.7485117176975051,-0.0028829570429530476,-0.5254802778199114,0.0027524281240838837,0.8507964447036782,0.04642078930109928,-0.8858465132846631,0.8937832424342461,-0.06938953666796113,-0.8380616284167648,1.0110884801538216,-0.06491207871352972,0.7616491216751606,0.9471164339333921,0.023324862425021915,0.6666811551154581,1.120624844191626,0.0,0.0,0.0,0.0
0.028667149282878206,0.2678948566122418,0.7483192577660086,-0.0028473959901073333,-0.5251367520341789,0.002744982722579244,0.8510086656837998,0.05196216272406455,-0.8742962069477376,0.8932704474660338,-0.07297820573799081,-0.8314091790104374,0.9964247729366976,-0.0766453100319908,0.757044641010152,0.9548562002911914,0.03563199253908013,0.6716083248241627,1.1072971553014237,0.0,0.0,0.0,0.0
0.026834252447861827,0.2696179387056039,0.7483115243913838,-0.002596973265455595,-0.524442881751876,0.0025588254197707757,0.8514378262222776,0.05729886823358368,-0.8630695804874262,0.8918574846054267,-0.07689465056788054,-0.8233117132235006,0.9773260655708027,-0.09291541432482103,0.7514280548114287,0.9619627360620426,0.048202673399999736,0.6740250254121694,1.0930059814347644,0.0,0.0,0.0,0.0
0.024439290749057277,0.2716129354578459,0.7484440939176727,-0.002096982662838748,-0.5233918073105537,0.0021636610955576875,0.8520868132265441,0.06275776548015619,-0.8521381074956632,0.8897152459438398,-0.08104408568390341,-0.8140355072084234,0.9539351211553414,-0.11355557773535144,0.7445884221867185,0.9686156526722138,0.06144906864155367,0.6740582701893294,1.0779612945901975,0.0,0.0,0.0,0.0
0.021620404399619663,0.27377138009780316,0.7485825499979584,-0.0014010995619416276,-0.5221319984316963,0.0015898067858812431,0.8528620554627366,0.06875322849486694,-0.8411121196998331,0.8871666587655859,-0.08518851056978166,-0.8037943193049714,0.9269485761733923,-0.13661189497758355,0.7363481376156306,0.975542323567807,0.07613932783277383,0.673065564860061,1.062904712301385,0.0,0.0,0.0,0.0
0.018633482149713387,0.2758835771452247,0.7485002914377762,-0.0006502402349638626,-0.5209160132859949,0.0009251153922935628,0.8536071862697577,0.07551257903092991,-0.829227058218948,0.8843999165225934,-0.08894215856883245,-0.793105459337321,0.8979982184935573,-0.158893590910598,0.7265670251462573,0.9841233489331259,0.0943150291368886,0.6737945865106754,1.049009168873232,0.0,0.0,0.0,0.0
0.015906641713942873,0.2776485728743776,0.7479355953737544,-6.773537642393465e-06,-0.5199222232817023,0.00028450134379266593,0.8542135568760989,0.08363097925352858,-0.8151397359376175,0.8799492479754648,-0.0918150169137144,-0.7841413796881463,0.8713842567484028,-0.1770550380181229,0.7153551654431328,0.9956919327663194,0.12158764080668757,0.6804117898308149,1.0372885987550582,0.0,0.0,0.0,0.0
0.01361615007500611,0.27898652046723377,0.7469541689201107,0.0004445806234514995,-0.5192626071186005,-0.00026476834669490295,0.8546145780959893,0.09217022007820508,-0.8001386726809876,0.8730433106372674,-0.09375444311205954,-0.7770306216974294,0.8485340457055826,-0.19055744209106024,0.7038740504644426,1.0096021969742748,0.16180390383100374,0.6932826776506625,1.028669049674569,0.0,0.0,0.0,0.0
0.012102934788870565,0.2797770845622099,0.7459500336824121,0.0006482261413600374,-0.5190495376116303,-0.0007549765500495323,0.8547435798638275,0.09925253423950332,-0.7861587583801587,0.8617891693418804,-0.09435989207706304,-0.7721338602756693,0.8325141127492479,-0.19946413721165202,0.6955702706958694,1.0219964610685939,0.21122481920010214,0.7102308132101047,1.0233650950259043,0.0,0.0,0.0,0.0
0.012123922031210628,0.279786209503857,0.7459179021490612,0.0006757379945343021,-0.5190314328903475,-0.0007754069412677957,0.8547545342342624,0.09929001581494638,-0.7861600619443126,0.8617984318943763,-0.09434119205531276,-0.7721899456126067,0.8323791233364167,-0.19948337276926997,0.6955058727061176,1.021935162310458,0.21123330352856928,0.7102623499498056,1.0233759904964632,0.0,0.0,0.0,0.0
0.012123922031210628,0.279786209503857,0.7459179021490612,0.0006757379945343021,-0.5190314328903475,-0.0007754069412677957,0.8547545342342624,0.09929001581494638,-0.7861600619443126,0.8617984318943763,-0.09434119205531276,-0.7721899456126067,0.8323791233364167,-0.19948337276926997,0.6955058727061176,1.021935162310458,0.21123330352856928,0.7102623499498056,1.0233759904964632,0.0,0.0,0.0,0.0
0.012123922031210628,0.279786209503857,0.7459179021490612,0.0006757379945343021,-0.5190314328903475,-0.0007754069412677957,0.8547545342342624,0.09929001581494638,-0.7861600619443126,0.8617984318943763,-0.09434119205531276,-0.7721899456126067,0.8323791233364167,-0.19948337276926997,0.6955058727061176,1.021935162310458,0.21123330352856928,0.7102623499498056,1.0233759904964632,0.0,0.0,0.0,0.0
0.01272253866452861,0.27982570869151435,0.7459065584872664,0.0007348895280770045,-0.5192860896438196,-0.0008204487857224864,0.8545997565548462,0.09934460462573678,-0.7876881694797627,0.866345905883325,-0.09442489419725447,-0.773797328002859,0.8367923466004554,-0.2018339078329461,0.6986209162444809,1.0220148736013777,0.21174648374559898,0.7129985136307657,1.023248733142153,0.0,0.0,0.0,0.0
0.01384885136364879,0.2799959697252287,0.7458577745653501,0.000716019324240041,-0.5195596186245417,-0.0007988753333883248,0.8544335268522939,0.09906495745607677,-0.7925394513699493,0.8769078057917378,-0.09507386158007437,-0.7775853097223158,0.8457955325309848,-0.20515131903451228,0.7033103401023675,1.0223641865328756,0.213210926009835,0.717708446530855,1.0226233814609986,0.0,0.0,0.0,0.0
0.015504692443337725,0.2804101602701215,0.7457812425738746,0.0006012722751428209,-0.5198828044096847,-0.0006738040796913498,0.8542371182165025,0.09807052426210099,-0.8008424192661402,0.8937278896700195,-0.09665168497802054,-0.7827824991569328,0.8583608123269582,-0.21004885249665345,0.7097634786851096,1.0231564756597153,0.21525674719381704,0.7246186196903431,1.0211345311484579,0.0,0.0,0.0,0.0
0.01768045631335093,0.2811981681124019,0.7456760958375829,0.0003574557823966322,-0.5203013998129776,-0.0003874661122634496,0.853982538139997,0.09587937434390738,-0.8126563413152832,0.916861033614776,-0.0996118978491356,-0.7883844866880959,0.8731397511431117,-0.2171573897327309,0.7181276730728472,1.0247246005404522,0.21769866985275482,0.7340071216513955,1.0184909011024796,0.0,0.0,0.0,0.0
0.020261753491144157,0.28249954144823974,0.7456287517735939,5.865166747512253e-07,-0.5208991302309945,0.00017090585951561052,0.8536182208197272,0.09174901511283985,-0.8270143165475012,0.9449354206725709,-0.10457504804456902,-0.7923347562485198,0.8874179538131682,-0.22713860595101185,0.7287156138282435,1.026756293780131,0.22023420125520168,0.7463768280336351,1.0137637157460426,0.0,0.0,0.0,0.0
0.022561545872875743,0.2841884251107417,0.746306544008475,0.000974964026824716,-0.5215120608136797,-0.0011644372293942295,0.8532425586882982,0.09061781703820043,-0.8324576396395545,0.9653920488585299,-0.09246726106540708,-0.8025657703104081,0.8908157917657218,-0.16987637651686824,0.7092148420268671,1.0348813694717198,0.19061458468468462,0.7524294948167702,1.000020698045883,0.0,0.0,0.0,0.0
0.02475402168115156,0.28596927010437245,0.7467946708468189,0.001750316940809054,-0.5221708759989174,-0.002107028855507857,0.8528364867186041,0.08827931852853282,-0.8388092053333738,0.9857258436354315,-0.0792641623395624,-0.8148919572535234,0.8915489561910132,-0.118829786944247,0.6924577271240469,1.043516195494804,0.1642691378194922,0.7585060400184794,0.9876704534236175,0.0,0.0,0.0,0.0
0.02670414096063975,0.2876833953968489,0.74715563740575,0.002169674624511343,-0.5228073233764603,-0.0025368683960150782,0.8524443438927296,0.08491784609495423,-0.8457395097154007,1.0047722820593923,-0.06841745815549954,-0.8277470465203737,0.892318556418489,-0.08311106013419989,0.6809674968318334,1.053555640906821,0.14484472055911296,0.7651379446007072,0.9769625290695211,0.0,0.0,0.0,0.0
0.028288641070886765,0.28927220034458706,0.7474488234375921,0.0023781342488396733,-0.5233812550998134,-0.0026942016648046725,0.8520910441760481,0.08121751343975928,-0.8519663416334537,1.0209022490036421,-0.05995146801599855,-0.8403533828071166,0.8931602794748988,-0.05798638416976796,0.6727103293989466,1.0647473630810704,0.1296579509369136,0.771218367360186,0.9676505834074633,0.0,0.0,0.0,0.0
0.029474003113129137,0.29072919470031056,0.7477316079180161,0.0024864298748981358,-0.5238814371659605,-0.002735887878891701,0.8517831721611546,0.07754062588759265,-0.8568285801834761,1.033570058294318,-0.05304985562006611,-0.8524824354729621,0.8938336481050911,-0.038873136332852554,0.6659006066726352,1.0765797063276255,0.11670467883433439,0.7762446391726081,0.9592586150353072,0.0,0.0,0.0,0.0
0.030285823531404653,0.2920727659829235,0.7480424550455649,0.0025532739538011748,-0.5243098088007696,-0.0027359440477680327,0.851519359614087,0.07400935558529274,-0.8601917704185429,1.0429540631980692,-0.04688839425643896,-0.8641604928152574,0.8941264123449849,-0.022920269201919873,0.6594764916516181,1.0886638359530794,0.104905319124334,0.7801713158971146,0.9513492941387963,0.0,0.0,0.0,0.0
0.030778058008555292,0.293330550218747,0.74839840175365,0.0026050576339602,-0.5246739096421056,-0.0027233874764205994,0.8512949461709758,0.07062714636081042,-0.8622067423541567,1.0495596559499325,-0.04089737064547079,-0.8754936336042571,0.893907308997019,-0.008556602267521538,0.6529066063250737,1.1007695606134702,0.09373361308615688,0.7831538728035196,0.943616964910134,0.0,0.0,0.0,0.0
0.031012774161019722,0.2945307675132145,0.7488002671986406,0.0026518455119968766,-0.5249830379028669,-0.002707257480261311,0.8511042523607746,0.06735298705270358,-0.8631400773641222,1.053979415739153,-0.03477645537396875,-0.8865903802534457,0.8931187912422582,0.005040433787043009,0.64596394849125,1.112780482192206,0.08293836401370965,0.7853966385727202,0.9358869461606989,0.0,0.0,0.0,0.0
0.031048840699187126,0.2956979506256214,0.7492393254990228,0.002696514454709226,-0.5252463834727722,-0.002689145413786547,0.8509416748259029,0.06413809503690565,-0.8632771879562914,1.05677109560168,-0.02841904125418636,-0.8975414801924196,0.8917509691765574,0.018290324377314475,0.6385768726609278,1.1246461648198733,0.07239257173211719,0.7870843094949226,0.9280835691911857,0.0,0.0,0.0,0.0
0.030936708037740058,0.29685166062597007,0.7497024549317276,0.002739190652910957,-0.5254722238644364,-0.0026683809981122466,0.8508021618004855,0.060939741654627996,-0.8628763903943504,1.0584077469539097,-0.021826641035731044,-0.9084220957518162,0.8898144973713448,0.031404644077016826,0.6307501657434923,1.1363463585221107,0.062023550587084,0.7883595274222623,0.9201970838687035,0.0,0.0,0.0,0.0
0.03071678704852188,0.2980072048319669,0.7501749297534638,0.0027790753029335413,-0.5256675529987391,-0.002643667525956088,0.8506814394864805,0.057722743286232135,-0.86215560852192,1.0592688421425374,-0.015044112929831835,-0.9192923700177882,0.8873216146534919,0.04449144282466773,0.6225304275849356,1.147863853515841,0.05178175621422014,0.789319056267976,0.9122607120149356,0.0,0.0,0.0,0.0
0.030419478492360062,0.2991775906112096,0.7506409847088861,0.0028150033461876254,-0.5258377727399216,-0.002613323525617042,0.8505762064954733,0.05445509833069336,-0.8612979612937863,1.0596515349427735,-0.008120098797952561,-0.9301792657087571,0.8842817332570984,0.05760794154591236,0.6139942775485638,1.159156748370286,0.041622970064376194,0.7900121948794971,0.9043409984193498,0.0,0.0,0.0,0.0
0.030065340805603743,0.300376099266445,0.7510825420026278,0.0028454766790935,-0.5259863009457355,-0.0025752154774012254,0.8504843812470255,0.05110156352826903,-0.8604657819169504,1.0597867777837537,-0.0010882137104104399,-0.9410258239923369,0.8807189334646879,0.07078056060293529,0.6052454341913138,1.1701172121666497,0.03149259544496598,0.7904326065565289,0.8965423282726193,0.0,0.0,0.0,0.0
0.029664220958234424,0.3016188489729986,0.7514765026784258,0.0028685012433284918,-0.5261141646430829,-0.002526856636986481,0.8504053577312788,0.047617710446013865,-0.8598142361585378,1.0598474715747328,0.00603446915530154,-0.9515994276013633,0.8767206221519575,0.08399585942154815,0.5964152770079659,1.180499179457036,0.021310851515967563,0.790499689839122,0.8890265815106562,0.0,0.0,0.0,0.0
0.029212722468927935,0.3029263755496386,0.7517912006918303,0.0028811365455871005,-0.5262200164717518,-0.002465554147593006,0.850339999270539,0.04394662640553882,-0.859495871629086,1.0599376266769198,0.013231037466052694,-0.9613683873796781,0.8725246188171792,0.09715456019003837,0.5876764305385249,1.1897921830987546,0.010969207416970037,0.7900327459126169,0.8820481802257352,0.0,0.0,0.0,0.0
0.02869084932693604,0.3043227394352774,0.7519836642329728,0.0028782790327170162,-0.5263014233598711,-0.0023877847418171086,0.8502898480889974,0.04002026010154565,-0.8596481314613746,1.060059087874792,0.02045025209096712,-0.969399253197903,0.8686343921590848,0.10997896217772256,0.5793077214373473,1.197015582336951,0.0003598548377769101,0.788735755564457,0.8759946922665695,0.0,0.0,0.0,0.0
0.02806228412049875,0.3058309082977036,0.7520026042745838,0.002850438888278504,-0.5263581206035555,-0.0022868826920154142,0.8502551229133466,0.035766558350171035,-0.8603612381526899,1.0600790105234434,0.027568461380091586,-0.9744069029370588,0.8658970258480395,0.12189943174036731,0.5718901592057072,1.2004171723034034,-0.010547316136390426,0.7862384711031747,0.8713814324883168,0.0,0.0,0.0,0.0
0.027289313785337475,0.3074672656048288,0.7518085720392258,0.002783993018884743,-0.526396114289906,-0.0021530138457649304,0.8502321711007758,0.0311235987820909,-0.8616359044945211,1.059780355626093,0.034405369040422254,-0.9752065487463848,0.8653496374819943,0.13209699579512252,0.5666632208696284,1.197233391626161,-0.02166908607486208,0.7822671502095732,0.8686437760341041,0.0,0.0,0.0,0.0
0.02635668013483442,0.309255058813066,0.7513938350548316,0.002675368171798402,-0.5264173829757576,-0.0019848883083095617,0.8502197607233694,0.026027937947335926,-0.8634631707352284,1.0590963240116307,0.040861738090568485,-0.9718018019731269,0.8669601756151091,0.14041744720945584,0.5637287215939739,1.187572193897867,-0.03311804802871121,0.7767364684504823,0.8677957586824148,0.0,0.0,0.0,0.0
0.02527214593347787,0.31122640753412717,0.7507829039694673,0.0025321417778111873,-0.5264188292571019,-0.0017903258593512702,0.8502197358300481,0.02040983931888643,-0.8658338715368245,1.0581250636811192,0.04695074223164621,-0.9653890532029279,0.8696476005962355,0.1474238833673728,0.5620017998733144,1.1743658060659008,-0.04520796159356004,0.769759487662933,0.8684012100733924,0.0,0.0,0.0,0.0
0.024041559813362118,0.313408693216634,0.7500137452581681,0.0023599376532042397,-0.52640173635607,-0.0015756718870695572,0.8502312390836342,0.014208366810649145,-0.8686507426941047,1.056884726674678,0.05267621313302891,-0.9572552828670036,0.8725191187383474,0.15350208388616596,0.5609720737941297,1.1594771291476322,-0.05815719348209659,0.7615565635160512,0.8698964112980004,0.0,0.0,0.0,0.0
0.022653896340454026,0.3158264258141596,0.7491170013495468,0.0021616410612094114,-0.5263684880523253,-0.0013454131400496517,0.8502527459273002,0.007367697241013027,-0.8717569009596169,1.055242664964853,0.05800013790524746,-0.9483320493424111,0.87502080921135,0.15879602081530003,0.5603766587740663,1.1439481734745087,-0.072095351147286,0.7522840720222427,0.8718249418352966,0.0,0.0,0.0,0.0
0.021082841990966706,0.3185016872421393,0.7481117574675755,0.001939119770274328,-0.5263206005342661,-0.0011037418184402118,0.8502832745748702,-0.00015927063257311237,-0.8749599959690182,1.0529384595034468,0.06286887752587957,-0.9391606666735071,0.8768766996427411,0.1633144238872529,0.5600371128839124,1.128309904231997,-0.0870888873711637,0.7420043595202801,0.873871223126013,0.0,0.0,0.0,0.0
0.01929301163647111,0.3214509832517265,0.7470075922474473,0.0016945273432532736,-0.5262583514656898,-0.0008548967233917514,0.8503226124485281,-0.008401244739343564,-0.8780409825400262,1.0496175748216887,0.06724886842861688,-0.930006957497598,0.8779912533553944,0.16703788099533406,0.5598148174838842,1.112789417679451,-0.10313014008199264,0.730716243549653,0.8758358672450838,0.0,0.0,0.0,0.0
0.01724605796500339,0.3246795158878816,0.7458085262259019,0.001431227080432871,-0.5261813116434687,-0.0006030433310308487,0.8503709868080778,-0.017353380256243472,-0.8807482452530542,1.0448507686723203,0.07115694284030544,-0.9209933357074136,0.8783793175226534,0.1699948245965322,0.5596056066023272,1.0974280754239165,-0.12011036669853282,0.7183981891148822,0.8776058888482321,0.0,0.0,0.0,0.0
0.014906162154872738,0.3281741109450109,0.7445175543093633,0.001154710062892592,-0.5260891459046041,-0.0003523365429808403,0.8504285702309132,-0.02695833082685499,-0.8827850962692348,1.038144887633504,0.07468548417228953,-0.9121979049374125,0.8781384606994321,0.17232065221922274,0.5593359766493748,1.0821355913241555,-0.13779701648998902,0.7050480333935463,0.8791310445153024,0.0,0.0,0.0,0.0
0.012246184260504169,0.33189590991695384,0.7431414208297519,0.0008739436873145484,-0.5259823909375182,-0.00010768105841822127,0.8504950023667822,-0.03708558307803541,-0.8838014647638084,1.0289624642199953,0.0780229448027116,-0.9037109722407574,0.8774615164937345,0.17432993661723953,0.5589461448567026,1.0667012492582537,-0.15583062953974025,0.690716436695261,0.8804047408122055,0.0,0.0,0.0,0.0
0.009256507492859752,0.33577404205180794,0.7416949529864402,0.000603800204815704,-0.5258631981073675,0.00012297913256138448,0.8505689373459021,-0.04751120362586589,-0.8834038941153701,1.0167737572323639,0.08146060072708246,-0.8956548315032067,0.8766848397870198,0.17664606644996553,0.5583523495901248,1.0507765233284978,-0.17375650223213396,0.6755321330898932,0.8814493473766931,0.0,0.0,0.0,0.0
0.005958959726255736,0.339701610994567,0.7402021100070749,0.0003698402804741821,-0.5257359613745499,0.00032273666402706343,0.8506476697063188,-0.05789800766367195,-0.881206369967182,1.0011720767150534,0.08536276353718915,-0.8881790257538869,0.8763621722777987,0.18044583712694878,0.5573831519142457,1.0338395303459234,-0.19111206195281796,0.6597033350924717,0.8823233573328559,0.0,0.0,0.0,0.0
0.0024266549843461917,0.3435356577627523,0.7386838786181116,0.0002218776718026458,-0.5256015495248183,0.00043641814088628516,0.8507307279313561,-0.06773278407370602,-0.876971542240428,0.9820995957297916,0.09012577602939377,-0.8814921160617172,0.8773149682332669,0.1877279205201618,0.5557265263145641,1.0151626936560183,-0.2076935353723749,0.643380273905598,0.8831955967602089,0.0,0.0,0.0,0.0
-0.0012133532127563459,0.3471059706789395,0.7371403656330994,0.00023023709761618073,-0.5254917694273077,0.00040610569656252346,0.8507985556717873,-0.07645310545404686,-0.870590851467689,0.959828112563183,0.09669072456327761,-0.8761464278736492,0.880933899621055,0.20227070360144853,0.5528492515776525,0.9937066171497823,-0.22344719990276612,0.6266925588225398,0.8846331653289036,0.0,0.0,0.0,0.0
-0.004352985102843813,0.35033928340740417,0.735427557922125,0.0004832494614051675,-0.5253563431496083,0.00013622604497491198,0.8508821661222509,-0.08378500879550593,-0.8655431363613375,0.9402445134859402,0.10499165737302621,-0.8723366113010621,0.8874189178686627,0.22928015951533176,0.5491428163334513,0.9682205104995927,-0.23961365319910208,0.6098624190185656,0.8875987974462252,0.0,0.0,0.0,0.0
-0.006690830826122929,0.3528690801058534,0.7335452138855724,0.0010305525363585226,-0.5253679852390997,-0.00043666355779394846,0.8508743898909029,-0.08870627560047925,-0.8618595887497448,0.9246835759835688,0.1152786576393239,-0.8735463130899359,0.9002211433122211,0.2723817482243257,0.5442777230541535,0.9370941213273857,-0.25558745427704666,0.5933765401552706,0.8940290700342971,0.0,0.0,0.0,0.0
-0.007857080819648482,0.35419231807047735,0.7315225524066433,0.001738194892114723,-0.5257345711579477,-0.0012242338694791774,0.8506460136974243,-0.09015898686337889,-0.859845915146859,0.9149809972295806,0.12622987300461205,-0.8844037243504297,0.9237235930394188,0.3224470024186225,0.5429750992411926,0.9001497456791023,-0.268933061767994,0.5784203992843168,0.9067056013244755,0.0,0.0,0.0,0.0
-0.007891366468825795,0.35440178824100815,0.7313978596404515,0.0015673781826656306,-0.525796684427997,-0.0012591476936038958,0.8506079029242812,-0.09045598382549631,-0.8599622520836907,0.9147975913629415,0.12625620506224042,-0.8844190360155489,0.9237336308252184,0.3224796479284068,0.5429885523903687,0.9001459973758733,-0.2689759765517485,0.5782722050218074,0.9066018629563913,0.0,0.0,0.0,0.0
-0.007891366468825795,0.35440178824100815,0.7313978596404515,0.0015673781826656306,-0.525796684427997,-0.0012591476936038958,0.8506079029242812,-0.09045598382549631,-0.8599622520836907,0.9147975913629415,0.12625620506224042,-0.8844190360155489,0.9237336308252184,0.3224796479284068,0.5429885523903687,0.9001459973758733,-0.2689759765517485,0.5782722050218074,0.9066018629563913,0.0,0.0,0.0,0.0
-0.007920885495339484,0.3554603270174346,0.7310503429121591,0.0016613681631491549,-0.5253429399203255,-0.0014949006171821799,0.8508876545137086,-0.09268356245395429,-0.8650675365310123,0.9200228694592305,0.12432276131550853,-0.8867363345644715,0.923962653484269,0.31565241677887845,0.5400570867139723,0.9083474149874289,-0.27467935428820034,0.5756579844788284,0.9031180577932317,0.0,0.0,0.0,0.0
-0.007421933001853366,0.35717927805300953,0.7305746238971467,0.001603300663922181,-0.5250749085396442,-0.0015226526002565135,0.851053142511162,-0.09721499662764498,-0.8739124842641488,0.9318356366554339,0.12027730993637589,-0.8897108981174568,0.9266835951388416,0.30846308743039486,0.5368241784083613,0.9206592991198502,-0.28303662099099336,0.5747931694690358,0.8982143670459429,0.0,0.0,0.0,0.0
-0.006179000608270592,0.3594296440278205,0.7301481480313976,0.0012780885360771034,-0.5253209271378381,-0.0013554040525972505,0.8509021406017206,-0.10360343369843156,-0.8848085455912494,0.9497651083603265,0.11445971827840107,-0.8919420740846469,0.9320716495006107,0.3027326834795851,0.5353654844646334,0.935178187718033,-0.29373867655563746,0.5777458841159201,0.8913075599300827,0.0,0.0,0.0,0.0
-0.004019053240028041,0.36238728418522165,0.7302522254561331,0.0006111790746637921,-0.5261186664299045,-0.0009144447246782281,0.8504104533018177,-0.11249621700742744,-0.8971869130538079,0.9749394284132205,0.10618175732091921,-0.8921112090158975,0.9404281612621628,0.29820209499834927,0.5386146000906701,0.9479669220864906,-0.3071300933243631,0.5880513501468497,0.8768111998342824,0.0,0.0,0.0,0.0
-0.00047049129127949485,0.3668074010170553,0.7327317541099192,-0.0006467991754463117,-0.5278028346853875,0.00020769193369562928,0.8493666500475262,-0.12669658621584978,-0.9072847432788953,1.0097322317658908,0.09226558391354397,-0.8829222359672273,0.9499614218474932,0.29422256194921637,0.5567839350558023,0.9453498099126446,-0.3243532808562016,0.6196520631323917,0.8335258357681725,0.0,0.0,0.0,0.0
0.0017213785666682683,0.3709874441233203,0.7359853942220909,0.00013240709063603944,-0.5259966508274081,-0.0004599193772638035,0.8504865044554667,-0.11704042014048859,-0.8827984058384247,0.9609520939196042,0.08337164004641545,-0.8892118485297731,0.9671839581140269,0.26376896240620445,0.5776777254398374,0.9312061025829813,-0.27068662375536057,0.601714770027421,0.8926885636820849,0.0,0.0,0.0,0.0
0.004568575344586229,0.3751918130191348,0.7387663215842086,0.0003771965618313617,-0.5253212102843199,-0.0006646773366554426,0.8509036619689736,-0.10699740881269267,-0.8714853977656083,0.9327781335940438,0.07319522222548301,-0.8917019441629248,0.9831551893609913,0.2404112078466792,0.5979891226395856,0.9210481838003535,-0.22490055481018423,0.5966771445725756,0.9374182134377935,0.0,0.0,0.0,0.0
0.007702957466032461,0.37926997735151335,0.7410748164538528,0.0001962639903077779,-0.5253409379255564,-0.0005241029488288007,0.8508916415948872,-0.09809459789265501,-0.8694430844089966,0.9185642675568141,0.062489458591013174,-0.891584836983148,0.9972708169216741,0.22240996892922776,0.6168441896569448,0.914357165466144,-0.1959607180739346,0.5962623313677072,0.9704363991550372,0.0,0.0,0.0,0.0
0.01080100283550149,0.3831478453955482,0.7430502279018167,-0.00015615456619866788,-0.5255802534958576,-0.0002481057720981409,0.850743975115021,-0.0907901566548966,-0.8725082874780831,0.9115039602131734,0.051961638842586484,-0.8904085917433556,1.0096495562473105,0.20674418555079077,0.6342448508657047,0.9094432194913651,-0.17967877525249062,0.5968659612779469,0.9957077698917164,0.0,0.0,0.0,0.0
0.013660369634008393,0.3868135496761342,0.7447840666724551,-0.0005302146258352376,-0.5258221631740093,5.0140758192998515e-05,0.8505943622393465,-0.08492995475679407,-0.878282639689885,0.9080330524290933,0.04189029079828289,-0.8886712020687508,1.019967710336133,0.19166728820124262,0.6501669958772714,0.9055058332086338,-0.17057060746710473,0.5973646522370744,1.0161673952091157,0.0,0.0,0.0,0.0
0.01618935197041577,0.3902670746756544,0.7463318024289263,-0.0008608041376732407,-0.5259933761611383,0.00032071862750133925,0.8504881682836074,-0.08003196511181142,-0.8854843688915243,0.9062631500116107,0.032382053969419206,-0.886493157502066,1.0280505026532454,0.17643652009413344,0.6646289012050958,0.9022083772076354,-0.16487540816208365,0.5974756449290872,1.033786757098581,0.0,0.0,0.0,0.0
0.01837337945667283,0.3935086604249186,0.7477308556902185,-0.0011324941925329288,-0.5260896512502217,0.0005505726739897357,0.8504281822553006,-0.07557408261562071,-0.8934444946768082,0.9051649970238529,0.02347075140335691,-0.88388734462632,1.0339667439591216,0.16094446791959613,0.6777277112217455,0.8993632322838139,-0.16054784889798027,0.5972035524031448,1.0498463870320685,0.0,0.0,0.0,0.0
0.02024175452921669,0.39653999843902066,0.7490089747696232,-0.0013517890184457113,-0.5261324119087173,0.0007435084333574328,0.850401261170734,-0.0711481232220322,-0.9018182740204652,0.9041740276957493,0.015155535078459813,-0.8808668298248333,1.0379641358340899,0.14538116720205155,0.6896203623007605,0.8968242922552659,-0.15659579608269353,0.5966476286184667,1.0651565018678866,0.0,0.0,0.0,0.0
0.021841074590056145,0.39936727658877136,0.750187455506983,-0.0015267456022878129,-0.5261374337473707,0.0009054013001965192,0.8503977011411088,-0.06648882189679323,-0.9104400534266007,0.9029493995670027,0.007419386238527006,-0.87753068311596,1.040417119259549,0.12994356974473353,0.7004788973940206,0.8944620604121186,-0.15253159771677796,0.5958852632400826,1.0801975775093322,0.0,0.0,0.0,0.0
0.02322663477115753,0.4019986749858355,0.7512810425000418,-0.0016708019959018438,-0.5261269248164812,0.0010467547993134026,0.8504037698106902,-0.061466716152365916,-0.919228755821278,0.9013354299332514,0.00022830017196357865,-0.8739578662381728,1.0416992764858994,0.11488803605965141,0.7104781730994802,0.8921894481586473,-0.14813688792957316,0.5950472498016757,1.095267653005832,0.0,0.0,0.0,0.0
0.024449910123721996,0.4044452621950512,0.752299044709678,-0.0017921466766924142,-0.5261109718235519,0.0011744043944708828,0.8504132256212183,-0.05603254761842367,-0.9281508785106514,0.8992330749344396,-0.0064550915104135695,-0.8702841095299731,1.0421951920460322,0.10036816274939003,0.7197635735265496,0.8899541269239879,-0.14329492225269064,0.5942372530284667,1.1105148814353414,0.0,0.0,0.0,0.0
0.025557273610305464,0.40671830495811023,0.7532446559929906,-0.0018995423263037747,-0.5260996106939734,0.0012953815745192882,0.8504198453429791,-0.050194451204462906,-0.9371647971655345,0.896609362808928,-0.012671659476351313,-0.8666281415478017,1.0422356424485748,0.08652180446424441,0.7284458707429879,0.8877584752348658,-0.13796522214190834,0.5935906549599973,1.1259859021000327,0.0,0.0,0.0,0.0
0.026585789546362933,0.40882865004023516,0.7541144215226586,-0.001999678122612493,-0.5260983503170114,0.0014145234380219635,0.8504202056657452,-0.04398979418809898,-0.9461597674518277,0.8934790061279819,-0.018458659682813187,-0.8631132333972542,1.0420986584909595,0.07343657040042938,0.7365831433997175,0.8856677265441918,-0.13214796696628306,0.5932496637330282,1.141605766508573,0.0,0.0,0.0,0.0
0.02756063390005825,0.4107859168854556,0.7548966036996885,-0.002098262533155076,-0.5261109832141708,0.0015351133412119659,0.8504119437442009,-0.03747442373164812,-0.9548573879420229,0.8899494481688716,-0.023848047906857035,-0.8598481856186835,1.0419807520437991,0.06117103308250062,0.7441632255711099,0.8838350532022643,-0.125862292408149,0.5933690271510621,1.1571219495594405,0.0,0.0,0.0,0.0
0.028490364941946025,0.41259913600780235,0.755569344911844,-0.00219858952732755,-0.526138428344673,0.0016580699685000712,0.8503944797722215,-0.03071202447054571,-0.9626937233543933,0.886292853715533,-0.02886621199986699,-0.8569239521735439,1.0419688248956227,0.04973667416614665,0.7510782705261768,0.8825319816877504,-0.11909293415337818,0.5941074328070575,1.1719765456461837,0.0,0.0,0.0,0.0
0.029360433470872034,0.41427948531564174,0.7561002488367881,-0.002296407249015795,-0.5261718719046978,0.0017790212301830117,0.8503732843954561,-0.02375799928705285,-0.9687339702147452,0.8830187709876388,-0.03353634826683404,-0.8544337468289211,1.0420233945135535,0.03902114550434283,0.7571003295844356,0.8821665360251315,-0.11168338895563104,0.5956319642265888,1.185083789206065,0.0,0.0,0.0,0.0
0.030132196852510684,0.4158434283826586,0.7564509497368248,-0.002374620867394713,-0.5261855607899172,0.00188573121211337,0.8503643694380264,-0.01663973787714726,-0.9717393333092769,0.8808887472368824,-0.037883524454832646,-0.8525010190464246,1.0420014789541134,0.02870984230685019,0.7618993341275252,0.8832405091908917,-0.10320986158585432,0.5982474755091949,1.1945244334731902,0.0,0.0,0.0,0.0
0.030764078121870413,0.41731085921945815,0.7565955432182221,-0.002412437404592458,-0.5261507645828691,0.001965802623964751,0.850385611763672,-0.009372703421133378,-0.9705841635607961,0.8807498119155767,-0.041943566274135965,-0.8512109600664433,1.0417252560983632,0.018429355991107364,0.7652043521717916,0.8861352492325817,-0.09302561077811519,0.6028131700186438,1.197357515324914,0.0,0.0,0.0,0.0
0.031247336727434516,0.41868812258084903,0.756536834416161,-0.00241202454397553,-0.5260683899457926,0.0020193967909588073,0.8504364486979855,-0.0020256422520317906,-0.965250132479406,0.8825672125430326,-0.045732484329469254,-0.8505050890403246,1.041103188440315,0.008173200160119904,0.766998751624339,0.8908636252721847,-0.08123460741603257,0.6092090571072913,1.1935107186169969,0.0,0.0,0.0,0.0
0.03160682800886829,0.419971182025047,0.7563068497535353,-0.002399082795332525,-0.5259688945155049,0.0020601725683109854,0.8504979259779929,0.005284728836592168,-0.9568404126937309,0.8854569816241175,-0.049255815376564496,-0.8501705730009086,1.0401189243720033,-0.0017064888517291012,0.7675252486608694,0.8970766004736882,-0.06864015600388974,0.6164061899148656,1.1857942771116385,0.0,0.0,0.0,0.0
0.03186453189859952,0.42116516562614964,0.7559522859081388,-0.002395926070120874,-0.5258788607823096,0.002102610755197927,0.8505535035190783,0.012472711834322154,-0.9465761085281892,0.8886348653034379,-0.05254526209191494,-0.8499332393467094,1.0386929886767475,-0.01094559868341042,0.7670960175959787,0.9043064569572172,-0.05576557408080877,0.6240175806597109,1.1760283444660387,0.0,0.0,0.0,0.0
0.032016099165010255,0.42228676465974696,0.7555186253586554,-0.0024115919871681765,-0.5258062100200213,0.0021535785925274865,0.8505982458409578,0.01949740445961836,-0.9353688922261391,0.8915690018254377,-0.05564989758076962,-0.8495161077860395,1.0365982134652798,-0.019524954888699562,0.7659308007626285,0.9121616245180968,-0.042853545029909734,0.6318394087955128,1.1652238103870032,0.0,0.0,0.0,0.0
0.03202926718036702,0.4233625143666165,0.7550475022927206,-0.0024458942451770944,-0.5257453680864976,0.0022139311550213522,0.8506356000343362,0.026328186992749077,-0.9237603138134226,0.8939694305329678,-0.05863239598538339,-0.8486079587228325,1.0334227373615146,-0.027611239425414883,0.7641346655400223,0.9203561480684328,-0.03001197361161885,0.6396833879757771,1.153874349714181,0.0,0.0,0.0,0.0
0.03184808728283217,0.4244286422294715,0.754578228955653,-0.002491526331179418,-0.5256797846387539,0.0022787726034825986,0.850675827512523,0.03292217614862695,-0.9120177845604086,0.8957062108365874,-0.061567414151409906,-0.8468569979535572,1.0285842074476361,-0.0355342784887332,0.7617206728301511,0.9286876593096133,-0.0173014452799827,0.6473312808506584,1.1421690469123853,0.0,0.0,0.0,0.0
0.03139775132756553,0.4255317797539715,0.7541502143744465,-0.0025320860817264305,-0.5255791755813993,0.0023352800774746256,0.8507377182200229,0.039225892020981826,-0.9002622832764577,0.8967293965181162,-0.0645392022639418,-0.8438992787684411,1.0213751204697457,-0.04381774579626095,0.7586401437468501,0.9370000093830511,-0.00475610996764597,0.6545040921494443,1.1301187579489342,0.0,0.0,0.0,0.0
0.03059059713018127,0.4267282454580387,0.7538029308135138,-0.002536353104870821,-0.525392318720115,0.002358450350699548,0.8508530519747647,0.045203131327189075,-0.8885725939336157,0.897006474435428,-0.06763368541532007,-0.8394351064011393,1.0110523164431044,-0.05323242970932101,0.7548009381886849,0.9451544439115159,0.007655668821875126,0.660821182345556,1.117623905593421,0.0,0.0,0.0,0.0
0.02934001825714585,0.4280762387808716,0.7535701422906304,-0.0024571416734846664,-0.5250493941501579,0.0023104980859785444,0.8510650725743263,0.050889384561102535,-0.8770339289491731,0.8965118653073698,-0.07091935836960248,-0.833307958825258,0.9969674333691033,-0.06471526388110395,0.7500806299788993,0.9530274504514137,0.02005911951053878,0.6658190834603207,1.1045418584904814,0.0,0.0,0.0,0.0
0.02758629830326892,0.4296188853192869,0.7534641289232138,-0.0022447409847876462,-0.5244903738188672,0.002151883219839913,0.8514106989625302,0.05643920749824504,-0.8657135078416291,0.8952784489406814,-0.0744247636340676,-0.8255047482785701,0.9786864807750375,-0.07901373119113261,0.7443355553768736,0.9605850785627472,0.03270293725633693,0.6691412640432357,1.0908065158685891,0.0,0.0,0.0,0.0
0.02532512045564594,0.43136307583109673,0.7534573173801763,-0.0018585368030568795,-0.5236857514524111,0.0018485987630607152,0.8519074845599658,0.062175713711512016,-0.8545997994679604,0.893439903659336,-0.07809956416170213,-0.8162473949658838,0.9562175282435513,-0.09636616472285375,0.7374040359958187,0.9679623239999923,0.04600778434816876,0.6707251937187665,1.076531896279425,0.0,0.0,0.0,0.0
0.02264433325561803,0.43325201365843347,0.7534562417858709,-0.001304506584895471,-0.5226916852891558,0.0013991716846850344,0.8525196435923039,0.06852108295019459,-0.8434667075021183,0.8912798783612641,-0.08179234675704498,-0.805914353387529,0.9301478270651482,-0.11593911098953431,0.7291317721819065,0.975665107181106,0.060748559098770485,0.6712654565528485,1.062207920013204,0.0,0.0,0.0,0.0
0.01975325690110987,0.4351409681798217,0.7532835620379026,-0.0006687896653571348,-0.5216795364593803,0.0008606960621783708,0.8531408284463933,0.07575334475695485,-0.8317591558009791,0.8891031713495869,-0.08524157096787244,-0.7950762668213318,0.9018894318815551,-0.13556067917616102,0.7194184276544044,0.9847544343473689,0.07871815184193375,0.6727414757968319,1.0488541672012024,0.0,0.0,0.0,0.0
0.017034637521627614,0.4367481123107835,0.7526812045639177,-5.607875642543062e-05,-0.5207636854696414,0.0002788103655435081,0.8537008275830764,0.0841281198687129,-0.8181694331299861,0.885467161012353,-0.08785953919737288,-0.7861920943601689,0.8757163884947967,-0.15256996264604267,0.7082291481414141,0.9964867893427174,0.10447943242627035,0.6789943694121053,1.0371900987997802,0.0,0.0,0.0,0.0
0.014748087096333387,0.43797490359346813,0.7517046209307134,0.0004199026415895923,-0.520111455189867,-0.0002557621133569262,0.8540982569047849,0.09286874639283557,-0.8038082390669359,0.8798890583674425,-0.08959092145315539,-0.7794524023333996,0.8535336194864961,-0.16572580222243316,0.6969044796304499,1.0101543559469535,0.14169863238372674,0.6909652807772523,1.028283613701237,0.0,0.0,0.0,0.0
0.013245732419427962,0.43870938450983593,0.7507367308056627,0.0006826594853454181,-0.5198631661144929,-0.000752203070844858,0.8542489430394296,0.10002798188469583,-0.7907784996783871,0.8708100804627473,-0.09009830606351259,-0.7750436438545178,0.8382682020468889,-0.17475005621376982,0.6888276019417289,1.0220490501458002,0.18664928121099805,0.7067472478768311,1.022397107297067,0.0,0.0,0.0,0.0
0.013260338483710044,0.4387099083872415,0.7507056952790568,0.0007159240402831088,-0.5198475748462336,-0.0007706088680441923,0.8542583874573493,0.10006291093349153,-0.7907810114449453,0.8708199019384252,-0.09006678206645409,-0.7750992683624908,0.8381338671642983,-0.1747675318654893,0.6887614871158984,1.0219882242304317,0.18665587168229883,0.7067795520461386,1.0224082013331786,0.0,0.0,0.0,0.0
0.013260338483710044,0.4387099083872415,0.7507056952790568,0.0007159240402831088,-0.5198475748462336,-0.0007706088680441923,0.8542583874573493,0.10006291093349153,-0.7907810114449453,0.8708199019384252,-0.09006678206645409,-0.7750992683624908,0.8381338671642983,-0.1747675318654893,0.6887614871158984,1.0219882242304317,0.18665587168229883,0.7067795520461386,1.0224082013331786,0.0,0.0,0.0,0.0
0.013260338483710044,0.4387099083872415,0.7507056952790568,0.0007159240402831088,-0.5198475748462336,-0.0007706088680441923,0.8542583874573493,0.10006291093349153,-0.7907810114449453,0.8708199019384252,-0.09006678206645409,-0.7750992683624908,0.8381338671642983,-0.1747675318654893,0.6887614871158984,1.0219882242304317,0.18665587168229883,0.7067795520461386,1.0224082013331786,0.0,0.0,0.0,0.0
0.013866730190194958,0.43874440168816564,0.7506834609416526,0.0007847068480765144,-0.5201029488474941,-0.0008322245565963131,0.8541028124515168,0.10017179851678576,-0.7922918489544988,0.8753463486052164,-0.0901006572080993,-0.7768380866454906,0.8426961488069494,-0.17709154375585442,0.6918443931367014,1.0221849585048386,0.1868316797606309,0.7093817071639701,1.0223584626935223,0.0,0.0,0.0,0.0
0.015012970258356673,0.43888832252590004,0.7506248827252208,0.0007710802844932917,-0.5203908744999493,-0.0008223467781203218,0.8539274365648111,0.09998975411099441,-0.7970299610993434,0.8857848974760535,-0.09065164998797046,-0.780776311798981,0.8519570942136053,-0.1800625102320894,0.696512598544023,1.022598533782011,0.18812858618672146,0.7140627119262145,1.0218671872242586,0.0,0.0,0.0,0.0
0.01669729601669088,0.4392367577078162,0.7505507020620936,0.0006609879490462168,-0.520739992655553,-0.0007069840226857366,0.8537147786688581,0.09918508198158274,-0.8050208455746022,0.9022497280211343,-0.09203261385982314,-0.7861728366221881,0.8649539328995138,-0.1841532645501148,0.7029735566296168,1.0232582733933333,0.19025707734899475,0.7210842473520793,1.0205071555219423,0.0,0.0,0.0,0.0
