zhuoxili-jackie/tripod-support-walk/examples/pcbB样侧向移动数据608/trajectory_trotting_acc_015.csv
root_pos_x,root_pos_y,root_pos_z,root_rot_x,root_rot_y,root_rot_z,root_rot_w,FL_hip_joint,FL_thigh_joint,FL_calf_joint,FR_hip_joint,FR_thigh_joint,FR_calf_joint,RL_hip_joint,RL_thigh_joint,RL_calf_joint,RR_hip_joint,RR_thigh_joint,RR_calf_joint,FL_foot_joint,FR_foot_joint,RL_foot_joint,RR_foot_joint
0.0,0.0,0.72963,0.0,-0.5231245161092812,0.0,0.852256264656019,0.0,-0.81,0.872,0.0,-0.81,0.872,0.0,0.65,1.0,0.0,0.65,1.0,0.0,0.0,0.0,0.0
0.0007052950297341608,3.954485230925167e-06,0.729602588750342,8.992338815719282e-05,-0.5233969603868217,-3.128761563511923e-05,0.8520889699982656,1.6360740248405036e-05,-0.8120328641238473,0.8775233549798338,1.6360740248405036e-05,-0.8123897724788458,0.8778481934389588,-0.0007874654248523374,0.6528753647247623,1.0002581277573732,-0.0007874654248523381,0.6524530537961583,1.0001283503785963,0.0,0.0,0.0,0.0
0.002039554897535949,-3.331205427326629e-05,0.729529010278648,0.0001288209848883077,-0.5237153619936499,-4.699330590839033e-05,0.8518933036528948,0.00012842450246556663,-0.8172598543351054,0.8891646768763163,0.0001284777674709531,-0.8179615594667344,0.8899226375651955,-0.0008921711428614038,0.6574008256314502,1.0002696301850633,-0.0008916650344312317,0.6568111087860509,1.0003476478135247,0.0,0.0,0.0,0.0
0.003984587017661869,-0.0001749976113890877,0.72945759573296,0.00013738945892110605,-0.5240949527923715,-5.7110909146319616e-05,0.8516598254702652,0.0005118495894801231,-0.8250169674013405,0.9060716028217057,0.0005120410959622696,-0.8264397340424838,0.9079184046355351,-4.95409664808405e-05,0.6638502031200648,0.9993667936062239,-4.996838278762132e-05,0.6633183051292446,1.000397388899046,0.0,0.0,0.0,0.0
0.00654937630258212,-0.0005223054302397024,0.7295181994459556,0.00013195362945010679,-0.5245547477576233,-7.600060221463065e-05,0.8513767047653372,0.001457828889179408,-0.8343777268628081,0.9273328138520476,0.001458635878244438,-0.8374426010687703,0.931704251963268,0.002311333176975467,0.6729609065461674,0.9959608114012692,0.0023126977894518423,0.6727490512372546,0.9993542550160616,0.0,0.0,0.0,0.0
0.009837598893906242,-0.0012182053317121282,0.730197643606263,0.00014920568712645826,-0.5251377524463648,-0.0001617829546873161,0.8510172104719851,0.003478137614176396,-0.8434168015439252,0.9521084919003022,0.0034819261284787196,-0.8499291236537462,0.9615802802850544,0.006704501781748514,0.6876425330204394,0.9850014999742516,0.006736158990013595,0.687858911915553,0.9930492895531459,0.0,0.0,0.0,0.0
0.012630307338318266,-0.001563677272512709,0.7308984986587561,0.0004899782940586885,-0.525054091368642,-0.00042980851914385676,0.8510686084699388,0.004909116730205288,-0.8533606615209106,0.9755270942588247,0.005557600385955508,-0.8440984211126094,0.9375124607929018,0.012664585633466268,0.6764451673231879,1.0065420480312666,0.0053527731194159475,0.6987537056736578,0.9838929583752458,0.0,0.0,0.0,0.0
0.015353016871381766,-0.0019914072108392603,0.73165178119865,0.0008122631972188914,-0.5250704856296615,-0.0006958174083523396,0.8510580715716548,0.006568076147936641,-0.8616963032375838,0.9968154018118554,0.009796918369709307,-0.8458200523235384,0.9220117534285448,0.020681196608466314,0.667204884812338,1.0243980823294287,0.004573905397041607,0.7100857204408082,0.9745962848250108,0.0,0.0,0.0,0.0
0.017798109024811083,-0.0024553084421179787,0.7323952705606962,0.001083360078661882,-0.5251856928204806,-0.0009078470450397092,0.8509864806219629,0.008212782752421838,-0.8679871251532291,1.0146186620883524,0.01421401088912826,-0.8519563759290689,0.9132938254601116,0.029125335904691872,0.6600606924568838,1.03986158282182,0.004740870908921952,0.7211034354555718,0.9658847091735328,0.0,0.0,0.0,0.0
0.01985068944919798,-0.002897246858076835,0.7331119835851709,0.00131987610199045,-0.5253438725854604,-0.0010891744470503853,0.850888292999152,0.009739553174829402,-0.8722930877665812,1.0286244676996117,0.01822686566047507,-0.8602677397089545,0.9084704777621405,0.037479671069735335,0.6541675610948041,1.053957387017218,0.005193577240234344,0.7310684067069294,0.9577974243374002,0.0,0.0,0.0,0.0
0.021481394482824632,-0.0032755809097823915,0.7338074188823178,0.001533080152310007,-0.5255093236544116,-0.0012535845138329786,0.8507855363976259,0.011064089130837364,-0.8748400295969432,1.0390581685144002,0.021840080341412365,-0.8695694656784344,0.9056356861311669,0.04564969385829509,0.6488353160752293,1.0672270534997192,0.005435106168299125,0.7396909052813401,0.950179216476763,0.0,0.0,0.0,0.0
0.02271370008565345,-0.0035647103723487955,0.7344910336018744,0.0017267568922365397,-0.5256639646053622,-0.0014041915406533118,0.8506893927116552,0.01212096749149863,-0.8759289156232588,1.0464056751473207,0.02520518149676931,-0.8792818020228349,0.9036362566304088,0.05362509141504115,0.6436126031250888,1.0799832240285818,0.005195725486484278,0.7469710522336943,0.9428489818759547,0.0,0.0,0.0,0.0
0.023598705932637534,-0.003752170236351807,0.735168804031815,0.0019011029355570687,-0.5258006084858625,-0.0015397633598123201,0.8506043351948782,0.012872000700952395,-0.8758798827223251,1.0512456134475328,0.028449282836447022,-0.8891399130352328,0.9018116193742386,0.061405756904524045,0.6382418614412347,1.0924244095719062,0.004369721671036316,0.7530537475669653,0.9356627623959127,0.0,0.0,0.0,0.0
0.024198066051389053,-0.0038356459035074715,0.7358419562217625,0.002055609745125287,-0.5259181433613598,-0.0016586652889665915,0.8505310868988711,0.013307297664039987,-0.8749949921096178,1.054149913748155,0.03163694760746734,-0.8990355426055838,0.899808591218906,0.06899466340488408,0.6325999893123392,1.1046858229171432,0.002953320777102174,0.7581376705359979,0.928530045093647,0.0,0.0,0.0,0.0
0.024573503742783363,-0.0038200309143568132,0.7365080494978467,0.0021903834510714143,-0.5260185093904914,-0.0017603424781841154,0.8504684774836174,0.01344003020815086,-0.8735380465487896,1.0556318386254326,0.03478419772515065,-0.9089386615691246,0.8974552332187259,0.07640017895407669,0.6266515920827932,1.1168619615778865,0.0009989674241912038,0.7624246066270851,0.9214096501194661,0.0,0.0,0.0,0.0
0.024781122006619697,-0.0037145175832406264,0.7371623215793914,0.0023064088405690885,-0.5261048735356784,-0.001845381953322987,0.8504145677760432,0.013297944766014206,-0.8717288700039393,1.0561262875792343,0.03788354781521165,-0.9188599402994675,0.8946773095545137,0.0836373901129991,0.6204187014826656,1.1290154229828149,-0.0014161604387334247,0.7660935826243992,0.9142994989860712,0.0,0.0,0.0,0.0
0.024868838946524415,-0.003529787146861565,0.7377983414428134,0.0024052732636715654,-0.5261805057505603,-0.0019149716453266514,0.8503673458642501,0.012914028942158172,-0.8697483316224339,1.055990299302502,0.04092429723949746,-0.9288263047557862,0.8914470345482335,0.09072796813039477,0.6139640433981194,1.1411762235904415,-0.004211772797628624,0.7692877708677969,0.9072284448361534,0.0,0.0,0.0,0.0
0.024875473887933045,-0.0032753953778753286,0.7384076142184649,0.0024886971895576567,-0.5262480108089581,-0.0019702429762274414,0.8503252058174732,0.012317800726674263,-0.8677499693098173,1.0555135314626471,0.043904850510469225,-0.9388483998795333,0.8877598316128973,0.09769813119878248,0.6073828655079919,1.1533292182731358,-0.007319979413990406,0.7721052201992025,0.9002551414890738,0.0,0.0,0.0,0.0
0.024830164102857127,-0.002957478400819436,0.7389780518324214,0.0025580512874697784,-0.5263087203734176,-0.0020117579714889365,0.8502873279441312,0.011528103947244865,-0.8658736460534171,1.0549290527260244,0.046837246684515325,-0.9488622972202476,0.883640797550963,0.1045712073028471,0.6007982067491434,1.1653810406474212,-0.010696930894324492,0.7745867068955018,0.8934775263541039,0.0,0.0,0.0,0.0
0.024750938881048186,-0.0025770409566375076,0.7394913882034967,0.0026138819524135727,-0.5263622353512881,-0.0020392417843065835,0.8502539657714507,0.010548251405984551,-0.8642557536665503,1.0544143470898537,0.04974238554574518,-0.9586339573414153,0.8791871997275718,0.11134622705205768,0.5943576991583776,1.1770912279158263,-0.01432988253942535,0.7766964111497383,0.8870558360890117,0.0,0.0,0.0,0.0
0.024641715645917366,-0.00212941337624595,0.7399199736967202,0.0026552794283982253,-0.5264063749073217,-0.002051436521546579,0.850226481330879,0.009364710863857232,-0.8630294146576053,1.054073198696332,0.05263191781110749,-0.9676335402362447,0.8746520572008111,0.11794838054154741,0.5882414948284015,1.1879455431283399,-0.018233431405701606,0.7782964257378548,0.8812495824239249,0.0,0.0,0.0,0.0
0.02448843770562918,-0.0016058569387465598,0.7402245152989666,0.0026787534746842683,-0.5264380639864,-0.002045578016585185,0.8502068011234978,0.007950690207748133,-0.8623088912013095,1.0538973373433569,0.055475460974817065,-0.9749307130465089,0.8705559514046187,0.12413873080672588,0.5827180160999191,1.1969459923140624,-0.022421882541650933,0.7791294182678324,0.8764568749887087,0.0,0.0,0.0,0.0
0.024258843958709243,-0.0009979835120267322,0.7403575436466461,0.002676551779564279,-0.5264556540422709,-0.0020159153497643733,0.8501959871010911,0.00627478660516809,-0.8621584272900484,1.0537347646530542,0.058168578172751326,-0.9792429207169391,0.8677591109856706,0.12940655363184891,0.5783274167049205,1.2023028126773603,-0.02684983903217901,0.7788529710629543,0.8732026972804228,0.0,0.0,0.0,0.0
0.023917306507675897,-0.00030193853827702427,0.7402836808654786,0.0026374547813413167,-0.5264624033476338,-0.0019543832073721894,0.8501920736398266,0.004312913782877493,-0.8625570078986847,1.0533501779865284,0.06055942290975734,-0.9793862132766489,0.8673014374396458,0.13301329210437593,0.5762326186818919,1.2011916578628674,-0.03139444495257702,0.77720558843425,0.8719240809102738,0.0,0.0,0.0,0.0
0.023449600752614475,0.0004963611017381875,0.7399988989113541,0.002559325683327056,-0.5264588058950953,-0.0018597483489968458,0.8501947523265687,0.0020257630647422605,-0.8634825465622303,1.0526673528126504,0.06260045046793475,-0.9753597123815351,0.8691463945817692,0.13489362362028098,0.5764546237484599,1.1936519300845252,-0.036131973837168666,0.7741172094211716,0.8726362302797527,0.0,0.0,0.0,0.0
0.02286396609657036,0.0014218088036184705,0.73953132304335,0.0024496376282202655,-0.5264421434574424,-0.0017377987761535445,0.8502056509591297,-0.0006426879060765392,-0.8649160864052431,1.0517795198708781,0.0643662725026168,-0.9683511080007214,0.8722075636750292,0.1356738977981292,0.5778615057623693,1.1825641934206355,-0.04133850741620302,0.7697206581488956,0.874911270784956,0.0,0.0,0.0,0.0
0.022166125811804636,0.002494874325125362,0.7389231491493962,0.0023134532813383463,-0.5264138204856772,-0.0015927659446069978,0.8502238532482101,-0.003739860142674356,-0.8667511286410912,1.05070114366702,0.06590694185022022,-0.959639303328755,0.8755870635168652,0.13578032096052972,0.5799185658240795,1.1697519335189328,-0.04721435099680366,0.7642471735551075,0.8781966115076304,0.0,0.0,0.0,0.0
0.021344214620484456,0.0037337739111459405,0.7382099696796781,0.0021526331758319047,-0.5263760515207544,-0.0014269878455894034,0.8502479534003707,-0.007309485996500413,-0.8688216117158748,1.049296070530174,0.06721196615621804,-0.9501464901378721,0.8787261279015417,0.13538794107922772,0.5823463799904006,1.1562272607802577,-0.0538886358741519,0.757855990690902,0.8820467924655884,0.0,0.0,0.0,0.0
0.020370084958535144,0.005156286995652437,0.7374163993662107,0.0019675933520762238,-0.5263299443094797,-0.001242563016105307,0.8502772338106742,-0.011392208086336338,-0.8709295748677442,1.0473047501051755,0.06823965328640617,-0.9404014546932978,0.8813422918056396,0.1345283145077481,0.5849501044667906,1.1425008399663161,-0.06145432909012539,0.7506020393016638,0.8861538914959336,0.0,0.0,0.0,0.0
0.0192052544203831,0.006778411676842082,0.7365577978631994,0.0017587289146342915,-0.5262751017150936,-0.0010420519816816596,0.8503119064878724,-0.016020384667192675,-0.8728586472999332,1.0443837084956522,0.0689539348664842,-0.930653692902071,0.8833294003539787,0.13318944407746885,0.5875718164731308,1.1287923126585822,-0.06996986322071495,0.742462804705324,0.8903192458061191,0.0,0.0,0.0,0.0
0.0178068566671731,0.00861048406331721,0.7356435884007027,0.001527443274777919,-0.5262102358594503,-0.0008287724621828121,0.8503527313591637,-0.021207120534454907,-0.874372517946018,1.040129835549324,0.06935139254261743,-0.9210062492012565,0.8846855342354117,0.13138188598136763,0.5900843940306393,1.1151545583203444,-0.0794385073047527,0.7333793100283665,0.8944208762084164,0.0,0.0,0.0,0.0
0.01613305932978262,0.010651747251537837,0.7346807338301514,0.0012770644966456056,-0.5261342835083346,-0.0006071506974411739,0.8504003270175015,-0.02693104508777929,-0.8752053606039555,1.0340930602436496,0.06948009895958623,-0.9115175556875164,0.8854839616023353,0.12918531557579774,0.5923889230297846,1.1015369341517192,-0.08978162888751702,0.7232960420990617,0.8983892922196228,0.0,0.0,0.0,0.0
0.014149091525735107,0.0128842390360995,0.7336770477967325,0.0010139445979959122,-0.5260477955600569,-0.00038343719354276697,0.8504543148686327,-0.03311869690636131,-0.875053479684207,1.0257922904733963,0.06945495513089006,-0.9022636632124971,0.8858848951735915,0.12679906633558324,0.5944029367962989,1.0878098014156097,-0.10082006758994268,0.7121974166994806,0.9021906799228654,0.0,0.0,0.0,0.0
0.011835679666287562,0.015266964404977629,0.7326440922546706,0.0007491378577959166,-0.5259546362875797,-0.0001672727003411565,0.8505122758549188,-0.039626523560833016,-0.873579191460199,1.014754644840648,0.06946818838056301,-0.8933674737870267,0.8861847567013165,0.12462725289684466,0.5960365124041165,1.0737670973124411,-0.11227906975035129,0.7001408388864974,0.9058148726740402,0.0,0.0,0.0,0.0
0.009202150442906128,0.017731580867652055,0.7315983903404677,0.0005012813146468174,-0.5258642617779846,2.4973366205646888e-05,0.8505683548534296,-0.04622453849772252,-0.870443072510212,1.0006045253695692,0.06978260652310997,-0.8850066420172247,0.8869042839010938,0.12344443568791226,0.5971568715688811,1.0591198658605958,-0.12383497940614552,0.6872817608037474,0.9092742465762872,0.0,0.0,0.0,0.0
0.006306768339490338,0.0201807691521295,0.730556394555879,0.00030190510268327236,-0.5257949704336465,0.000162709868456952,0.8506112692913775,-0.05258036994859803,-0.8653916870997043,0.9832380430223796,0.07068578238122984,-0.8774217493588055,0.8889152786769484,0.12469696054910522,0.5975489529475164,1.0434997849726362,-0.135228963993232,0.6738662956163942,0.9126498952171594,0.0,0.0,0.0,0.0
0.0032853813869474125,0.022490625651618624,0.7295083986125924,0.000212122388196033,-0.5257766270130375,0.00015824681450766093,0.8506226357491501,-0.058168826376021845,-0.8584232517295292,0.963108192830873,0.07249069888942108,-0.8710392708833903,0.8936202367306083,0.13074912010988823,0.5969615901964022,1.0265624399902804,-0.14667572563562686,0.6600250239616223,0.9162775074503252,0.0,0.0,0.0,0.0
0.000530636493467314,0.02462320206317034,0.7283563449618258,0.00029672002042251274,-0.5258054776498038,-3.417443987067873e-05,0.850604790994501,-0.06286412381551562,-0.8515794481382047,0.9437928664734292,0.07577781637828453,-0.8662098301367629,0.901912211655755,0.14601368537603238,0.5957489493386046,1.0076437390947792,-0.15890400390088888,0.6460863733409672,0.9207530345383055,0.0,0.0,0.0,0.0
-0.0015154598444138048,0.026381209618422403,0.7270921201177496,0.0006258301537601562,-0.5260023714921404,-0.0005217381258102992,0.8504827107652401,-0.06597169966565515,-0.8459467009651381,0.9283734912751694,0.08066502180986963,-0.8654251406173391,0.9166554082090317,0.17457186295161686,0.5936211215144686,0.9865792241415967,-0.17227908746821458,0.6329988268235038,0.9267153774713566,0.0,0.0,0.0,0.0
-0.00248089470526736,0.02743170630632634,0.7258586729728521,0.0011416609728545852,-0.526541118791845,-0.0012773936163617628,0.8501479371834081,-0.06672500721260552,-0.8416877071050878,0.9188712711632829,0.08700801391923602,-0.8729514979538164,0.9416152456043924,0.2125884908836995,0.5923895613684369,0.9645777865809992,-0.1851142258439981,0.6227857708375648,0.9344549091067136,0.0,0.0,0.0,0.0
-0.002517996788587715,0.027591194694625867,0.7257839791074755,0.0010018425500218035,-0.5265844271660656,-0.001301055217247151,0.8501212529004396,-0.06695278323920656,-0.8417617273702571,0.918727632793772,0.08702043929496733,-0.872965651395015,0.9416257062569108,0.21261044973018034,0.5924050134377585,0.9645779804544738,-0.1851390559209416,0.6226711811843975,0.9343788938781075,0.0,0.0,0.0,0.0
-0.002517996788587715,0.027591194694625867,0.7257839791074755,0.0010018425500218035,-0.5265844271660656,-0.001301055217247151,0.8501212529004396,-0.06695278323920656,-0.8417617273702571,0.918727632793772,0.08702043929496733,-0.872965651395015,0.9416257062569108,0.21261044973018034,0.5924050134377585,0.9645779804544738,-0.1851390559209416,0.6226711811843975,0.9343788938781075,0.0,0.0,0.0,0.0
-0.002714373249122651,0.028561253914185958,0.725537493696062,0.0013664264872749294,-0.525687994066612,-0.0016272677060789453,0.8506748014210185,-0.06887887806375445,-0.8478647118838646,0.9242951800686094,0.08538887257843791,-0.8772110415922345,0.9429361584471563,0.2020732856501759,0.5901164176721492,0.9700077246349674,-0.19267391117513874,0.6180491591592278,0.9300894176120246,0.0,0.0,0.0,0.0
-0.0023465008006971185,0.029926607637857344,0.7251747053229542,0.0014573190677100165,-0.5251994014334284,-0.0017094871421657238,0.8509762291678976,-0.07237525145814774,-0.8562530520592976,0.935016279371983,0.08223777878216747,-0.8809271217733157,0.9460056710053764,0.19339106684421573,0.5884445583560349,0.9779690661019915,-0.20074128443108663,0.6160801575014453,0.9259743374433301,0.0,0.0,0.0,0.0
-0.0012125081915807844,0.031536429854810796,0.7248148201170023,0.001129078625213779,-0.5254763699374411,-0.0014895464342480852,0.8508061418855931,-0.07711613605323378,-0.8652882501865821,0.9502682534192134,0.07780926834828496,-0.8826069275891166,0.9508212397191799,0.1889862165342997,0.5890104752557588,0.9871568439620698,-0.20837265206508976,0.6187750589876755,0.9222983742642042,0.0,0.0,0.0,0.0
0.000826494201488641,0.033564310201786345,0.7248575802984533,0.0003051956056749987,-0.5265476102605996,-0.0008740713851476387,0.850145138775555,-0.08376528585209875,-0.8746266779050735,0.9711405410823946,0.07141297120137056,-0.8809780497253981,0.9573965127274812,0.18871536883946566,0.5940839651801234,0.9944066555721586,-0.2159552682286601,0.6289701012607872,0.914508576681705,0.0,0.0,0.0,0.0
0.0041213582349081904,0.036648375552641846,0.7267659299233239,-0.0012847200289503042,-0.5286477168626675,0.000495578896935626,0.8488402060175361,-0.09469466559348,-0.8816221585455767,0.9997522991385586,0.0604755585621546,-0.8698213376923848,0.9635902848823158,0.19254275014428152,0.6113372334464847,0.9886619379448115,-0.22404615371387057,0.6573410271509348,0.8861787460315003,0.0,0.0,0.0,0.0
0.00603443764910243,0.039699889200959196,0.7291075399702741,-0.00012238552492493834,-0.526113757686594,-0.00027115673179753966,0.8504141493817597,-0.08653849155748392,-0.8645101006645668,0.9550705095737269,0.05449281312457822,-0.8835657396945837,0.9854443795861724,0.1600830578346566,0.6275846157807213,0.9746821095709347,-0.17855831360730967,0.6370742365097849,0.9331279210797373,0.0,0.0,0.0,0.0
0.008471837175198196,0.04274682804926096,0.7312091170888726,0.00016876229695703243,-0.525192028974571,-0.0004204210039718903,0.850983623501087,-0.07881065597055108,-0.8576590291140828,0.9292981292938136,0.04703921194374686,-0.8887242304119318,1.0014705488371949,0.13884245272934395,0.6444318903738411,0.9633274109218616,-0.1430737070972876,0.6292629174054101,0.9693036617200679,0.0,0.0,0.0,0.0
0.011244595202433386,0.045585311017340646,0.7329798311457458,-0.00016233210455520594,-0.5253079281059385,-0.00011855331508759401,0.8509121812869089,-0.07176789640227643,-0.8576908440417191,0.9164147898453033,0.03909998551332913,-0.8890441826066527,1.014386485556261,0.12616938719037565,0.6609420025351016,0.954558619249262,-0.12205167350613431,0.6281165200677192,0.9974901790480768,0.0,0.0,0.0,0.0
0.013985238462273222,0.048225533995309246,0.7344969225060444,-0.0006640297956923241,-0.525708390219304,0.0003157009355543986,0.8506645330859738,-0.0656467561621394,-0.8617518818017392,0.9099350607063442,0.03137327988235941,-0.8879568291426261,1.0255744505096964,0.11641655909083422,0.6764189939666158,0.947339665887487,-0.1104543960848277,0.6289901717955628,1.0202849646351004,0.0,0.0,0.0,0.0
0.01644651635543673,0.050727127020263434,0.7358355044099375,-0.001110073280757721,-0.5260383901131926,0.0007159687245055739,0.8504597975526047,-0.06053410310081757,-0.8681185691894845,0.9063673216782835,0.024050812682073593,-0.8866219366024711,1.034933075547945,0.10638953882289374,0.690476504508799,0.9411640907322467,-0.10369798274991779,0.6296461782745291,1.039428624804129,0.0,0.0,0.0,0.0
0.018521777919888276,0.05312557063592287,0.7370536107528295,-0.0014376895811371462,-0.526200071059423,0.001031701895455507,0.8503589558868215,-0.056252753623648476,-0.8757723641052495,0.9039868557654579,0.017136876168339015,-0.8851221023722615,1.0421144190608747,0.09497614436267306,0.7030391417599423,0.9357666221097102,-0.09912080988015524,0.629313169206599,1.0561818883482228,0.0,0.0,0.0,0.0
0.0202093495275444,0.05542553707401315,0.7381895848514829,-0.0016610601613261187,-0.5262187039110142,0.001267999417042459,0.8503466991238521,-0.05247389288491008,-0.8841068628744881,0.9019769988403036,0.010613089966390946,-0.8832452668489185,1.0470225346128226,0.08229951691773779,0.7142392591211078,0.9309421453977069,-0.0954827653492407,0.6280054847619904,1.071490978167079,0.0,0.0,0.0,0.0
0.021564953534708792,0.05761520917994648,0.7392643279032064,-0.0018158897649525312,-0.5261560608834398,0.001447221431680971,0.8503848585729353,-0.04886400397799915,-0.8927734837183281,0.8999604631035774,0.004477699747139095,-0.8808381056444544,1.0498693943867956,0.06897184179730348,0.7242976595888982,0.9265143950296885,-0.09225668767106412,0.6260460964345841,1.086048921463464,0.0,0.0,0.0,0.0
0.022663218796132444,0.059680165217111204,0.7402871111826638,-0.0019334930199081618,-0.5260643595393206,0.001592075029123639,0.8504410717529628,-0.045173064983146355,-0.9015946755342523,0.8977479336781758,-0.0012649623960198355,-0.8779076319663808,1.051071453692339,0.055626908808805976,0.7334344562011097,0.9223378622780813,-0.08917450986556466,0.6237740709264523,1.1003260482078911,0.0,0.0,0.0,0.0
0.023575329669223554,0.06161080645856295,0.7412606409427347,-0.0020340659199419866,-0.5259711482344951,0.0017211771559893943,0.8504982371233452,-0.04125917555424321,-0.910507015524813,0.895216243026095,-0.006620546899459991,-0.8745980637083455,1.0511258394907375,0.0427376656863553,0.741818278958837,0.9183022771679697,-0.08603188988193113,0.6214256662660158,1.1146056700044484,0.0,0.0,0.0,0.0
0.02436081070387217,0.06340493912452762,0.7421824752097393,-0.0021277753685997815,-0.5258850927559438,0.0018467866624432834,0.8505509574199988,-0.03706992164444783,-0.9195119932638063,0.892274538396059,-0.011606628667110987,-0.871120695816399,1.05051157810419,0.030578245090924137,0.7495623972712148,0.9143609411455291,-0.08265598026671943,0.61914623304606,1.129028982363457,0.0,0.0,0.0,0.0
0.025068076093584576,0.06506849877241813,0.7430440115393762,-0.0022150356418764814,-0.5258145828268549,0.0019666909374994254,0.8505940572508617,-0.032592447822324726,-0.9286055439813938,0.8889000193868355,-0.01623230532907527,-0.8676711141304544,1.049614366890406,0.019164167738830118,0.7567869550453793,0.9105883375838719,-0.07897825106282919,0.617069806497434,1.1436343004341674,0.0,0.0,0.0,0.0
0.025737096706265616,0.06661174145957562,0.7438322173413697,-0.002289124170621718,-0.5257840823354231,0.002060932230225932,0.8506124918149104,-0.027800904642638992,-0.9376670806448759,0.8851902225110004,-0.02047629993881582,-0.8643582526551286,1.04868218574638,0.008260815616834177,0.7636831533488703,0.9071785237593808,-0.07510983639593241,0.6153897615790187,1.1583632001692594,0.0,0.0,0.0,0.0
0.026395207368656227,0.06803431677953269,0.7445364992134408,-0.0023551177062798977,-0.5258151744875723,0.002126093298185677,0.8505929316814717,-0.02268448731147914,-0.9463620619076182,0.8813087402029279,-0.024326922351353596,-0.8612250659971517,1.0478702751114644,-0.0021241631155950232,0.770345176084954,0.9042524819691953,-0.0711662990856498,0.6143187295851,1.1729896431278488,0.0,0.0,0.0,0.0
0.02704239933849317,0.06931203142865881,0.7451499627616455,-0.0024521222299707414,-0.5258677523743055,0.0022298090241100773,0.8505598874042212,-0.017370860276915093,-0.9541489369101439,0.8773509001158547,-0.02788047037596594,-0.858417676040158,1.047370653217021,-0.010997530532431462,0.7763463459956141,0.9016525684120313,-0.06681786027385195,0.6139160660927572,1.1869428533082413,0.0,0.0,0.0,0.0
0.0276436994496894,0.07042637021201009,0.7456484110662551,-0.002623910485769605,-0.5258538763659438,0.002465212029155778,0.8505673039415075,-0.012125316031513931,-0.9602504171986503,0.8734980616102359,-0.031314961962447804,-0.8561868799525214,1.0472864982001158,-0.017056481654862538,0.7808135192740703,0.8993626174201738,-0.06131240015289741,0.6141210435904594,1.199077544087313,0.0,0.0,0.0,0.0
0.02814388882283497,0.07143844276925192,0.7459700431135193,-0.002803689301902124,-0.5257565308404867,0.002747437863150596,0.8506260407429712,-0.006980181552924233,-0.9635296839969594,0.8705750875548469,-0.034610786958116854,-0.854689226704283,1.0472963186882593,-0.021842808870054978,0.7835826134839059,0.8984092185849213,-0.054425733146144524,0.6151065262768749,1.207403205368227,0.0,0.0,0.0,0.0
0.028508322702854482,0.07247310001806911,0.7460515319218907,-0.0028051084964016313,-0.5256871116156364,0.002777187112195426,0.8506688423113173,-0.0014620430823709969,-0.9627298751990278,0.8701586472974042,-0.037416015062474224,-0.8538527060102923,1.046779153157374,-0.03023593245697037,0.7858615744257137,0.9004978912851044,-0.04691949741353678,0.6178290343001561,1.2090321529468342,0.0,0.0,0.0,0.0
0.028750286253186694,0.07352481033120031,0.7458981449644986,-0.0026609225861449247,-0.5257643074565616,0.002551396370950935,0.8506223033005137,0.0044353817104723125,-0.9574852077707074,0.8723681489370768,-0.0396760171490586,-0.8530471255036756,1.0452378705283354,-0.042194928678943436,0.7880644693418041,0.9057235530977465,-0.03921093483838638,0.6227196707105618,1.204048193778039,0.0,0.0,0.0,0.0
0.028861201329612406,0.07444625298144271,0.7456105058888934,-0.0025566780415805022,-0.5257059447562882,0.002433870648209963,0.8506590382279835,0.010047187226139238,-0.9493954772525577,0.8753846674126826,-0.0418692470638585,-0.8529394743923642,1.043762232540581,-0.0520691072306998,0.7883416118276991,0.9116051748453631,-0.0298070870376798,0.6280877930911466,1.1950262287756148,0.0,0.0,0.0,0.0
0.028865625294913034,0.07517448653462011,0.7452652942491826,-0.002517731292892764,-0.5254347225215015,0.0024908922636220666,0.8508265445163429,0.015544582619766453,-0.9395086025643987,0.8779250924668949,-0.043998510620003185,-0.8538057827595739,1.0429583009677748,-0.05820962849085959,0.7865225684868203,0.9169352201149266,-0.01919852220989886,0.6330152529091533,1.1839550667942325,0.0,0.0,0.0,0.0
0.02879726399599746,0.07567048883406695,0.744839083410929,-0.002772693061325913,-0.5250452028744492,0.002995518986528204,0.8510645533552185,0.020169693015556468,-0.9290653497804244,0.8793913172845589,-0.04653329866925853,-0.8546255358678615,1.0421861424382495,-0.056031320079061364,0.7815032269631927,0.9216663898356764,-0.006412446530529102,0.6384886897505936,1.1720009385412156,0.0,0.0,0.0,0.0
0.02868302579750877,0.07625434169650139,0.7442978857974958,-0.002872444951258648,-0.5249485850088104,0.003156554543554648,0.8511232392084377,0.02523555726707862,-0.9181930678051426,0.8817835330818001,-0.048459879402026715,-0.8545898669497023,1.039969468638738,-0.05899754657046187,0.7781140172416274,0.9287669884604578,0.004629438887269336,0.6450664079533345,1.159778252998125,0.0,0.0,0.0,0.0
0.02848727150839324,0.07700838882413218,0.7436447210750569,-0.002768494841081214,-0.5253771810650404,0.0028219796645459895,0.8508602643696788,0.031002057740805854,-0.9063203514568094,0.8850485635611377,-0.04957599570881628,-0.8523934918354941,1.0347603291056167,-0.06967733952643373,0.7776495523966788,0.9390604061736525,0.012428818683661915,0.6531565276782446,1.1480911699913288,0.0,0.0,0.0,0.0
0.028004443783791123,0.07772148305100836,0.7430785974080167,-0.002844511213386033,-0.5255453983465074,0.0028150025634915304,0.850756145316233,0.03572259260245146,-0.8950019223562256,0.8868808250508436,-0.05132723810677549,-0.8493545878661759,1.0277631845588149,-0.07568919853463352,0.7745859559185895,0.9478752019287322,0.022243554310679425,0.6605715372116295,1.1356524367289074,0.0,0.0,0.0,0.0
0.027099725836947572,0.0784571202270685,0.7426877579606461,-0.00292756783044302,-0.5253090362312027,0.0029675541110434876,0.8509013100372105,0.03995719981865914,-0.8837987969348133,0.8867752460048757,-0.05354376381190115,-0.8457742889947317,1.0185856198950285,-0.07969070701307139,0.769140960117988,0.9547926591702883,0.032892402363457994,0.6657131669256008,1.1226523282532326,0.0,0.0,0.0,0.0
0.025708547079710844,0.07935018018105953,0.7424561560447943,-0.0030043674428544462,-0.5248436758972742,0.0031759194204746322,0.851187407791457,0.04348703799015362,-0.8727925498727515,0.8856488091427525,-0.05627453444648867,-0.8402698942931018,1.0053471556189784,-0.08390209320880984,0.7620268178402247,0.9609167677302299,0.04419920743754069,0.6694622026226934,1.1088854566328818,0.0,0.0,0.0,0.0
0.02379827213744158,0.08063963631963939,0.7423547748740068,-0.0027199062683051106,-0.5243367663132805,0.002877160501492432,0.8515017789467457,0.04723136904056343,-0.8617144611739859,0.8848676755867547,-0.05883413229658918,-0.8325889589152776,0.9869299966584673,-0.09816499195279696,0.7562964575039758,0.9681546256053151,0.05382970703180499,0.6717928461808965,1.0944696019302447,0.0,0.0,0.0,0.0
0.02134070790267124,0.08223536099495622,0.742363935689192,-0.0021829711193698843,-0.5235494578852393,0.002330204340829235,0.8519893015366413,0.050945370996755154,-0.8508221203464952,0.8833217016100119,-0.06162293330748495,-0.8234724757743509,0.9639737948687226,-0.11777495397019291,0.7496986334484755,0.9755749935418419,0.0637910822313669,0.672097206913469,1.079430184701115,0.0,0.0,0.0,0.0
0.01844081975340361,0.08397665362085263,0.7424152661621385,-0.0015405285593391453,-0.5224301628663297,0.001769984880425235,0.852678848601712,0.05476584477184604,-0.8401194457600288,0.8808935746239382,-0.06476865326785776,-0.813513266122278,0.9376366174025558,-0.13756981750588904,0.7407582750554152,0.9826123679848227,0.07583061420142327,0.6710049350192833,1.0641843967590936,0.0,0.0,0.0,0.0
0.015362691177097942,0.08572566729668672,0.7423243630134609,-0.0008654819309487559,-0.5213206208811566,0.0011701519175846655,0.8533596498133729,0.05932513289636187,-0.8286505720050108,0.878247323850268,-0.06779025646891582,-0.8027382717595896,0.9090172615789817,-0.15652011704874422,0.7304379955775182,0.990699995432813,0.09096021159468086,0.6711304435547725,1.0500475213021245,0.0,0.0,0.0,0.0
0.01258006509225226,0.08718706265765921,0.7418236948244161,-0.00028155310638290447,-0.5204119690822407,0.0005759240808932421,0.8539150844640503,0.06531457807656689,-0.8149050734095308,0.8739658902160902,-0.07003617671083916,-0.793623752706512,0.8828259012652971,-0.17211840337028506,0.719271411951576,1.0012039226653093,0.11421421166273146,0.6769179303598066,1.0379440573593897,0.0,0.0,0.0,0.0
0.010265750102981672,0.08828877785346002,0.740986861377727,0.00010817072661009852,-0.519795352227628,0.00010108649254836322,0.854290799367037,0.07194607626242484,-0.8001884993146786,0.8672323975355855,-0.07158468176705958,-0.7862483466002785,0.860438863598238,-0.1831941861770626,0.7081540656656194,1.0133346449074563,0.1493201442430878,0.6885343690619817,1.0288347586414643,0.0,0.0,0.0,0.0
0.00873477318561268,0.08890580121679174,0.7401615371797051,0.00022038314829172346,-0.5194998992128574,-0.00021475957755135765,0.8544704559125627,0.07757747173982416,-0.786488344846848,0.8557262216041924,-0.07220651341377472,-0.7813001777464881,0.8450674471498261,-0.18872411536523273,0.6996555479307565,1.0234495910671626,0.19362078782232098,0.703742399043747,1.0228483236010977,0.0,0.0,0.0,0.0
0.00878364646594406,0.08898353330629277,0.7401596697612565,0.0002711422956130458,-0.5194988224001776,-0.00025331673152557645,0.8544710854308165,0.07746157725206035,-0.786586309721486,0.8561357797534929,-0.07231518087120752,-0.7812426846854291,0.8448992727185483,-0.18739447991745242,0.6992328380833178,1.0237294657229854,0.19292756204901682,0.7038927004404584,1.0225159058554034,0.0,0.0,0.0,0.0
0.00878364646594406,0.08898353330629277,0.7401596697612565,0.0002711422956130458,-0.5194988224001776,-0.00025331673152557645,0.8544710854308165,0.07746157725206035,-0.786586309721486,0.8561357797534929,-0.07231518087120752,-0.7812426846854291,0.8448992727185483,-0.18739447991745242,0.6992328380833178,1.0237294657229854,0.19292756204901682,0.7038927004404584,1.0225159058554034,0.0,0.0,0.0,0.0
0.00878364646594406,0.08898353330629277,0.7401596697612565,0.0002711422956130458,-0.5194988224001776,-0.00025331673152557645,0.8544710854308165,0.07746157725206035,-0.786586309721486,0.8561357797534929,-0.07231518087120752,-0.7812426846854291,0.8448992727185483,-0.18739447991745242,0.6992328380833178,1.0237294657229854,0.19292756204901682,0.7038927004404584,1.0225159058554034,0.0,0.0,0.0,0.0
0.009370186553805894,0.0889969218677083,0.7401496801717125,0.0003149727036682005,-0.5197486855642924,-0.00026388913023426137,0.8543191060774148,0.0774829511447213,-0.7881323955527448,0.860609091243893,-0.07239857067421532,-0.7827967879028433,0.8492621478847163,-0.1891026981871022,0.7021767835486833,1.0236806328785457,0.19385507110940609,0.7066568734595665,1.022488715960258,0.0,0.0,0.0,0.0
0.01048140852182383,0.08911941387084926,0.740100115274686,0.0003027521455205782,-0.5200053198909322,-0.00024012234964214323,0.8541629340866559,0.0772709182595535,-0.7929344909442848,0.8710096173746769,-0.07289892101445138,-0.7867752820314524,0.8584574341223901,-0.19191092921056382,0.7067345142109381,1.0238170774572268,0.19538091893984885,0.711200799591747,1.0220065280566564,0.0,0.0,0.0,0.0
0.012125549657163334,0.08943536707861266,0.7400303906820737,0.0002233253109185383,-0.5202942368925181,-0.00015813270928878277,0.8539870210818686,0.07655012983815353,-0.8010184695701681,0.8874777434121637,-0.07408175659327348,-0.7925807702423205,0.8717356493765778,-0.19634541783613815,0.7131612895825097,1.0241457979344277,0.1971901520138461,0.7177728814503365,1.0206669347619075,0.0,0.0,0.0,0.0
0.014311632258524328,0.0900324419725292,0.7399801918066168,5.8523109362065216e-05,-0.5206535906018336,6.959613503271149e-06,0.8537680218420152,0.07502863534349595,-0.8122289424597579,0.9099562084883739,-0.0762216045883032,-0.7994447992238286,0.888204965661226,-0.2030376481127903,0.721888155626891,1.0245111106828348,0.19901035178470988,0.7267801445220687,1.0178683919709308,0.0,0.0,0.0,0.0
0.017045802756273667,0.09101113534428523,0.7400411136179577,-0.00018728608057984336,-0.521175974613077,0.0003498619170614135,0.853449146702176,0.07215228013771618,-0.8259768545627186,0.9379751811634363,-0.07982189208418554,-0.8059808530363932,0.9064698468511483,-0.2125708897029449,0.7336813289025103,1.0243579815271109,0.20097821978939504,0.7392094230125111,1.012615210311278,0.0,0.0,0.0,0.0
0.019505312944773968,0.09235423228038406,0.740676766384269,0.0007579869062453841,-0.5217814694834062,-0.000859378113325974,0.8530784166938262,0.07157590592104322,-0.8318360406929365,0.9588981789897415,-0.07110125995204686,-0.8115023812051119,0.9024411132313115,-0.15955354223764276,0.7147344754146634,1.0343827894547934,0.1762635168491974,0.7464628765108025,1.0000583035629047,0.0,0.0,0.0,0.0
0.021898811504491182,0.09372942429095639,0.7411795272078122,0.0015126604906014038,-0.522402841865818,-0.0017417596504273193,0.8526956953931909,0.0701275972427094,-0.838415017014922,0.9797160447327561,-0.06137297984404542,-0.82079749150647,0.8988011279872998,-0.11357695489014108,0.698798422986819,1.044399370253387,0.15450352039424275,0.7538853112194652,0.9884661409933153,0.0,0.0,0.0,0.0
0.02404522361749862,0.09501862069519021,0.7415857865363703,0.0019521719446235076,-0.5229655842918957,-0.002202717240401927,0.8523487166105745,0.06793215507192601,-0.8452947916125733,0.9990069822989661,-0.053402563121555995,-0.8317782937743526,0.8968693544814393,-0.08215527766006324,0.6879093994161504,1.0554138862197542,0.13849526341486731,0.7615290136591155,0.978202387755669,0.0,0.0,0.0,0.0
0.025817388801046223,0.09617986228649655,0.7419397914077798,0.002198522680450241,-0.5234592643749517,-0.0024257774282835493,0.8520444123647114,0.06549695829671867,-0.8512814309499943,1.0151945740023438,-0.04723421321896507,-0.8431710005145928,0.8959994819406037,-0.06056442438356885,0.6802024429776325,1.0673284068242486,0.12628967974191618,0.7685225556462632,0.9691864008234147,0.0,0.0,0.0,0.0
0.027183502958800773,0.09721431054727789,0.7422880121744106,0.0023459351818023735,-0.5238874748952419,-0.002534852956977232,0.8517804792060549,0.06308833441958427,-0.8558049309247636,1.0278118414842894,-0.04223187508942628,-0.8544620046068546,0.8955762503118999,-0.04448524658135647,0.6740321319940116,1.0797592076571065,0.11628886607102874,0.7744905396883599,0.961064885921102,0.0,0.0,0.0,0.0
0.028171090737045844,0.09814396993760761,0.7426623923006719,0.002446367283974488,-0.524256287936049,-0.002592608936395858,0.8515530742270438,0.06079138007376408,-0.8587892434401083,1.0370919925283348,-0.03775210969606377,-0.8655171886896863,0.8951581813269762,-0.03128998567896753,0.6683915488151034,1.0924040132849726,0.10752135479842634,0.7794102684955644,0.9534654993873484,0.0,0.0,0.0,0.0
0.028836103367739653,0.09899790209092077,0.7430769717670871,0.0025248743183703764,-0.5245728686320066,-0.002627127249280473,0.8513577560034794,0.05860115637148669,-0.8604178701364068,1.043576884666173,-0.03335713707952935,-0.8763526756523243,0.8944733780529242,-0.019557477596498306,0.6627544693631112,1.1050879298564915,0.09943118988519326,0.7834177878401934,0.9461065643587799,0.0,0.0,0.0,0.0
0.02924288848412864,0.0998043920873941,0.7435318432881143,0.00259233909502699,-0.5248449033666487,-0.002649992665289007,0.8511898053471643,0.05647970077041091,-0.8609752006573769,1.0478861045286427,-0.028825656555163812,-0.8870271695317072,0.8933802455936826,-0.008559799028072435,0.6568826524353557,1.11773042188032,0.09170157798883846,0.7866928120107493,0.9388147958269835,0.0,0.0,0.0,0.0
0.029452867543322686,0.1005871263850719,0.7440187476369587,0.00265297832028188,-0.5250800247915289,-0.0026657135474529694,0.8510445483300167,0.054384880896306984,-0.8607568989751422,1.05059974071208,-0.02408985293797477,-0.8976043742841449,0.8918203632209594,0.002064160623371841,0.6506942876318549,1.1303058119346203,0.08415025538162164,0.7894044409651295,0.9315064125069352,0.0,0.0,0.0,0.0
0.029519162951253154,0.10136416797711893,0.7445255192109016,0.0027081768292312536,-0.5252853125496719,-0.0026759453689506486,0.8509176490790619,0.05228149194342984,-0.860027793375933,1.0522101622705806,-0.019164829561614898,-0.9081452599175321,0.8897774079369194,0.012490641639516077,0.6441905238208209,1.1428123054318327,0.0766719536618069,0.7916903209976034,0.9241613934155907,0.0,0.0,0.0,0.0
0.029484796615661536,0.10214877932170814,0.7450385232656485,0.0027581837876855878,-0.5254668749209676,-0.0026810566875672772,0.8508053641803298,0.05014228414709879,-0.8590099428955822,1.053112989661697,-0.01409554049685993,-0.9187031350425362,0.8872492681897931,0.02280697382466032,0.6374200607338508,1.1552471512826676,0.06920523025788561,0.7936499291162947,0.9168039390437266,0.0,0.0,0.0,0.0
0.02938255161161401,0.10295133373610797,0.7455431051527085,0.002802684320498233,-0.5256294562935983,-0.0026805034256736286,0.8507047869493158,0.047943895164959886,-0.8578880192285204,1.053617085087339,-0.008924466636039774,-0.9293025499793229,0.8842382221869896,0.0330593409552845,0.6304639079685936,1.1675794309988488,0.061710043227494606,0.7953399789832662,0.9094942843541445,0.0,0.0,0.0,0.0
0.029234959076294708,0.10378172891306572,0.7460223435686297,0.002840840045763322,-0.5257760201098924,-0.0026728078360851665,0.8506141089845075,0.04566081106634735,-0.8568221702491584,1.0539585440772201,-0.0036762080801194495,-0.9398868051680878,0.8807653531471574,0.04327092507931114,0.6234275290589137,1.1797075793401035,0.0541493415537011,0.796764464091852,0.9023340302142006,0.0,0.0,0.0,0.0
0.029053188653918892,0.10465174630697978,0.7464544630779819,0.002871088931777379,-0.5259073494800872,-0.002655556847183008,0.8505328709867752,0.04325960488897535,-0.8559600287162512,1.0543061280512525,0.0016434320004506866,-0.9502244951998008,0.8769176064419268,0.05343485341007389,0.6164344762413864,1.1913834652920692,0.04647355062971798,0.7978552440974499,0.8954862617238311,0.0,0.0,0.0,0.0
0.028834204511967675,0.1055765661202816,0.7468094848629236,0.002890728987145204,-0.5260219287675089,-0.002625501174413438,0.8504620396497516,0.04069561891335066,-0.8554401303520657,1.0547482458972635,0.0070324063868344375,-0.9597837010597927,0.8729335043304413,0.06347607649655836,0.6096296737073839,1.202079393570859,0.03861414286518598,0.798444842573618,0.8892096994020792,0.0,0.0,0.0,0.0
0.02855714622971313,0.10657421182916323,0.747046684095062,0.0028950373354916857,-0.5261166871661386,-0.002578347794286167,0.8504035526541532,0.037914346806247126,-0.8553806845816104,1.0552608068778926,0.012460368537745202,-0.9676267157176791,0.8693153724066122,0.07317405645117304,0.6032306040957355,1.2107723114848865,0.030502256453676508,0.7982471464346885,0.8838954361409288,0.0,0.0,0.0,0.0
0.028183776687121832,0.10766179185984397,0.7471175128668769,0.002875756095969568,-0.5261892896571448,-0.0025075181696354626,0.850358908831803,0.03485877312428383,-0.8558536094938407,1.0556830304031946,0.017832307665736565,-0.9724600794192632,0.866902052311199,0.08206534742508999,0.5977134528982291,1.2156331531337132,0.02212767247808615,0.7968919098277665,0.8800555817049208,0.0,0.0,0.0,0.0
0.02767468668605081,0.10885070661449534,0.7469850770433626,0.0028214035748016057,-0.5262423274884661,-0.0024044660708167475,0.8503265672577239,0.03148249578858738,-0.8568513806904523,1.0557826036068816,0.02300049895927988,-0.9730925665496254,0.8667167522481755,0.08946938483891549,0.5941905708243329,1.2137968196351057,0.013574503158265663,0.7940969081079827,0.8781173572658827,0.0,0.0,0.0,0.0
0.027014593359572805,0.1101582515276623,0.746643935222038,0.002728751989301843,-0.5262772058559951,-0.0022670329317332856,0.8503056609659103,0.027735224524139367,-0.8583558855358392,1.055482954183033,0.027889700171224604,-0.9695213126637808,0.8687269636191336,0.09530410794940461,0.5927139633044926,1.2053176661691307,0.004763222694856942,0.7897869056614975,0.8781022526279071,0.0,0.0,0.0,0.0
0.026213018156705813,0.11160934344929527,0.7461208127672221,0.00260380191760536,-0.5262931087717236,-0.002100259490008391,0.8502966381122785,0.023559592836960033,-0.8603457984460792,1.0548765757403222,0.03252409543474117,-0.9629384098008775,0.8718659045678632,0.10011623020567452,0.5922455615727983,1.193143034545153,-0.004566623150529185,0.7840989961937372,0.8795993960511903,0.0,0.0,0.0,0.0
0.02527825746407675,0.11322511687387879,0.745455951146444,0.002450813479782741,-0.5262927144237325,-0.0019085274125702214,0.8502977888839311,0.018906545911720817,-0.8627212383692345,1.0539906969292585,0.03691193765454286,-0.9546309627044837,0.8752519822390207,0.10426937166064103,0.592333347736535,1.1791552787803599,-0.014606714126558378,0.7772675231305656,0.8820687519739809,0.0,0.0,0.0,0.0
0.024201038154152255,0.11502541723129411,0.7446829097579699,0.00227162183916712,-0.526278726026786,-0.0016950346146640772,0.8503073968415763,0.01372914160467288,-0.8653279147733266,1.0527081823436617,0.041017602646595645,-0.9455268328054461,0.878335528634725,0.10790110684227161,0.5927540423600127,1.1644056806484055,-0.025489773226992002,0.7694517503137246,0.8850690876022211,0.0,0.0,0.0,0.0
0.0229555563626737,0.11702980075508146,0.743824325604123,0.0020671387008677905,-0.526252339783571,-0.001463070470359327,0.8503246798927496,0.00798372992955005,-0.8679794723759997,1.0507874447634675,0.044788311014233466,-0.9361579027402933,0.8808395503678195,0.1110199687653094,0.5933482263804618,1.1494286286707716,-0.037313076389945576,0.7607070095014444,0.8882916600132961,0.0,0.0,0.0,0.0
0.021505647992929276,0.11925514770487634,0.742893636577511,0.0018386164749584122,-0.5262131289979675,-0.00121646756759898,0.8503498589205994,0.0016377503420417208,-0.8704675295535238,1.0478976932501007,0.04818728103484788,-0.9267760164254705,0.8826627219850132,0.1135999000806471,0.5939819003254424,1.134457140038039,-0.050127000193401355,0.7510154767746305,0.8915358036907831,0.0,0.0,0.0,0.0
0.019811039655620033,0.12171074580732302,0.7418984881884229,0.0015886319103105143,-0.5261597754686783,-0.0009597421390277953,0.8503837050546242,-0.005316697903276211,-0.8725577531724671,1.0436406381007457,0.051219713078496196,-0.9174872981061986,0.8838089403396138,0.11564718012322837,0.5945473688128156,1.119549822734134,-0.06390530738490012,0.7403300163277612,0.8946790529789719,0.0,0.0,0.0,0.0
0.017832933295263264,0.12439184261023528,0.7408444942433342,0.0013220184802412672,-0.5260911670839643,-0.0006983287797432628,0.8504268625345073,-0.012845141356638605,-0.8739780297799777,1.0375608583580926,0.053953408371284074,-0.9083547453329162,0.8843590027678017,0.11725118892764491,0.5949643351236967,1.104654072581644,-0.07851429714536241,0.728615497466491,0.8976544849707454,0.0,0.0,0.0,0.0
0.01553998201962817,0.12727252847431458,0.7397390502044526,0.0010470322145631557,-0.5260076536086992,-0.0004392327046014047,0.8504790762524634,-0.020850615213301695,-0.8744075749799299,1.0291590533110808,0.05653702616857102,-0.8994607369989935,0.8844825382205909,0.11864096583636113,0.5951680584556719,1.0896279084777165,-0.09369500567537506,0.7158848765753876,0.9004347602711551,0.0,0.0,0.0,0.0
0.012916418390968479,0.13029893684112306,0.7385948467136606,0.0007771875632543597,-0.5259124985873429,-0.0001926771870940333,0.8505383017152203,-0.02915298922389248,-0.8734780611459282,1.0179279392861482,0.05921123970266767,-0.8909361876152913,0.8844870685811504,0.12027866218176737,0.5950803957704445,1.0742367864285516,-0.10907356576382203,0.702229364207913,0.9030214050061987,0.0,0.0,0.0,0.0
0.009974534210024623,0.13338400223473226,0.7374314161643409,0.0005344902930582939,-0.525813774513695,2.4120471246814367e-05,0.8505995463612654,-0.03746938604794995,-0.8708035092584264,1.0034368146688646,0.062294893704701065,-0.8829678583465043,0.8849050529034526,0.12303674914168501,0.5945622886900056,1.0581372537561606,-0.12421724580173066,0.6878357120350675,0.9054488858429095,0.0,0.0,0.0,0.0
0.006773812920036076,0.13640491643675492,0.7362689045138445,0.0003558390652626045,-0.5257266609014497,0.00017667726102113662,0.8506534665662141,-0.045389430437193914,-0.8660674429331837,0.9854985340761577,0.06612373681094713,-0.8758117193589847,0.8866203986703677,0.12849675673696387,0.5933560535163548,1.0408689642268132,-0.13877193366861196,0.6729531057545605,0.9078481741435293,0.0,0.0,0.0,0.0
0.003445957784059267,0.13920415625137264,0.7350989774914868,0.000309617504360693,-0.5256877860489839,0.0001731731345550044,0.8506775098396478,-0.052288446790040105,-0.859114435817589,0.9643607410427448,0.07110568677201362,-0.8699639239472676,0.8911629685449769,0.13927679787241343,0.5911054179562801,1.0219859709409267,-0.15285487906156786,0.6576887328425569,0.910703729019001,0.0,0.0,0.0,0.0
0.0005288815311808659,0.1417756655851719,0.733778659621347,0.00046574589208908294,-0.5256517994879536,-4.109217616147563e-05,0.8506996926573286,-0.058121291221718004,-0.8531425181752448,0.9453480386102399,0.07740969163168311,-0.8654047739872359,0.8988259319186229,0.15992880507476565,0.588537879528486,1.000698501941754,-0.16759919835993664,0.642369901334624,0.914693387532357,0.0,0.0,0.0,0.0
-0.0016489519276591579,0.14384132859032048,0.7323330200195721,0.0008928657959492766,-0.525776434307198,-0.0005592496483022848,0.8506221435853348,-0.0620106960158914,-0.848270114384629,0.9300767569725039,0.08526954848451297,-0.8651796534161802,0.9129522531812604,0.19451494360924487,0.5849937150816599,0.9765038611142465,-0.18282387652126433,0.6278559114101808,0.9207532111449819,0.0,0.0,0.0,0.0
-0.002704074498566398,0.14503619473564544,0.7308952289979591,0.001514012392081084,-0.5262309993265971,-0.0013391197167202625,0.8503392557518392,-0.06314401786314544,-0.8447713894933361,0.9206711031231011,0.09376640705152267,-0.8736153022985796,0.9373662496230503,0.2374870167192603,0.5830127590300271,0.9504230683149081,-0.19664626089951967,0.6161069586277618,0.9294840604127379,0.0,0.0,0.0,0.0
-0.002743152166118332,0.14521618009673526,0.7308053529050956,0.001364959781358131,-0.5262824517593805,-0.0013677098758675217,0.8503076191735707,-0.06339973337076824,-0.8448565869053496,0.9205174118476707,0.09378420615007414,-0.8736298413377629,0.937376599508273,0.23751172735694237,0.5830282549750291,0.9504222589484675,-0.19667345031488637,0.6159799273450027,0.9293995867127478,0.0,0.0,0.0,0.0
-0.002743152166118332,0.14521618009673526,0.7308053529050956,0.001364959781358131,-0.5262824517593805,-0.0013677098758675217,0.8503076191735707,-0.06339973337076824,-0.8448565869053496,0.9205174118476707,0.09378420615007414,-0.8736298413377629,0.937376599508273,0.23751172735694237,0.5830282549750291,0.9504222589484675,-0.19667345031488637,0.6159799273450027,0.9293995867127478,0.0,0.0,0.0,0.0
-0.002877281252317649,0.14617827963558397,0.7305170311467067,0.001507224218456621,-0.5256879232632854,-0.0015873159607491388,0.8506746828478735,-0.06542044146971014,-0.8499875370977609,0.9253700310126077,0.09197094417754659,-0.8761341668106373,0.9373738488653116,0.2296019686352894,0.5805697991186589,0.956669672261446,-0.202699415820388,0.6125467400247734,0.9262253053330936,0.0,0.0,0.0,0.0
-0.0024719870726892077,0.14762591331553646,0.7301408192547817,0.001475095951074453,-0.5253480945941701,-0.0016021734991040137,0.8508846200503855,-0.06921671188820169,-0.8581303961601857,0.9361072132261463,0.08848480735211725,-0.878876103113143,0.9396827617674577,0.22208434905647645,0.5786602084242775,0.9655080350143848,-0.2103719585118622,0.6112657208441242,0.9222340770373689,0.0,0.0,0.0,0.0
-0.0013372847733041247,0.14943757243193456,0.7298127733790232,0.0011666908169780724,-0.5255421442550025,-0.0014016457837178014,0.8507656133351235,-0.07444556857009609,-0.8679327893873048,0.9523754660380556,0.08361114285963708,-0.8807548733865354,0.9445710267499343,0.2166772063748478,0.5789623326944344,0.9754670935926091,-0.21910633493737666,0.6139662494185788,0.9171027517599442,0.0,0.0,0.0,0.0
0.000666613364711859,0.15176776477780596,0.729907971780876,0.0005209200251188579,-0.5262744009865763,-0.0009069459220973721,0.8503141542733733,-0.08170707291261145,-0.8791806341978718,0.975294050819871,0.07674070697652068,-0.8807950808836732,0.9522942026858233,0.21311283598428649,0.5836461890366572,0.9834899836572142,-0.22921703269483387,0.6233087919340133,0.9064570743790736,0.0,0.0,0.0,0.0
0.003912572478042049,0.15520080667193858,0.7318456653656706,-0.0007170734184729884,-0.5278286962695801,0.0002691330382360737,0.849350505249438,-0.0933546233456311,-0.8890749702996509,1.006756021177639,0.06531107535707174,-0.8728374989395415,0.9608791340351988,0.21160981003464782,0.6003423978738469,0.9787986195115241,-0.2410543032283145,0.6499737441997044,0.8745272717719369,0.0,0.0,0.0,0.0
0.006038607916447976,0.15842966295177227,0.7343583141205653,-3.846426859787807e-05,-0.5261393590245268,-0.00029732554523602753,0.8503983096192514,-0.08564014365782255,-0.8689802438493623,0.961401731400172,0.05850674709865905,-0.8809963007630754,0.978848945844671,0.18432137924422337,0.6182586692262642,0.9653159685141607,-0.19570520262098587,0.6329499897781539,0.92487697338703,0.0,0.0,0.0,0.0
0.008614740004867606,0.1616811842283927,0.7365963860726776,0.0001255701462023359,-0.5254613894160369,-0.0004062500101799631,0.8508173408117842,-0.07818146705961915,-0.8607840072237856,0.9346485020657067,0.05048192399321111,-0.8845205777996816,0.9941753812530787,0.163815231774334,0.6362265879396545,0.9542430101303132,-0.15896053103823174,0.6262968428420341,0.963100302290242,0.0,0.0,0.0,0.0
0.011414495371960353,0.16479971175698896,0.7384839207272097,-0.00011044762960565306,-0.5254417284964539,-0.00018437667985002785,0.850829562110544,-0.07148296344265141,-0.8604265366965808,0.9206052749176861,0.04201384012918722,-0.8852054943270401,1.0074561258323216,0.14879571199629865,0.6532658008196959,0.9457320053349165,-0.13672266873075894,0.6242910096316174,0.9919148822087022,0.0,0.0,0.0,0.0
0.014138199195259743,0.1677438140146217,0.7401064036972861,-0.0004858147675289289,-0.525636213506006,0.00015233026806206728,0.8507092992500843,-0.06584672602762393,-0.8644218890438402,0.9132680472051493,0.0337142767290819,-0.8846909196407768,1.0188893243161583,0.1360418819217024,0.6690319881699871,0.9388217491030659,-0.1245138570841003,0.6237359518387678,1.014624245198304,0.0,0.0,0.0,0.0
0.01660334635115647,0.17051685787936613,0.741533707234421,-0.0008571538263602513,-0.5258326266130071,0.000489225978657052,0.8505874879955181,-0.06122486892716007,-0.8707644726518652,0.9093022666224665,0.025824371205123448,-0.8835722653323214,1.0282680488003235,0.12371824733944528,0.6833656861801006,0.9329813340967762,-0.11773225146194759,0.6233245838667855,1.0335291670250746,0.0,0.0,0.0,0.0
0.018733808505779978,0.17312546485498675,0.7428155706759277,-0.0011715212137410414,-0.5259621280079061,0.0007819758440342282,0.8505068229903979,-0.057324444456124564,-0.8783584329118821,0.9069141035956242,0.01842325402575286,-0.8819746470942823,1.035460733969341,0.11111932166900489,0.6962676918639846,0.9279198568288184,-0.1135161317530173,0.6225804516753543,1.0501538130841188,0.0,0.0,0.0,0.0
0.020526070658755138,0.17557188185802647,0.7439875732944022,-0.0014228036167853995,-0.5260236708489198,0.001023489683235366,0.8504681215691531,-0.05378675842121208,-0.8866127573758285,0.9051374019921752,0.011527346287299046,-0.8798916236252878,1.0405470641021264,0.09820279529305159,0.7078551744939137,0.9234243515290594,-0.11038987638009651,0.6214121454318234,1.0654978042836765,0.0,0.0,0.0,0.0
0.022016344975707623,0.1778573296611279,0.7450748232408356,-0.0016229724389073804,-0.5260402738139077,0.0012222057487284955,0.8504572314345732,-0.050313870177583785,-0.8952134326224285,0.9034576415900978,0.0051259589827639855,-0.877320910475421,1.0437727319446983,0.08521110957575072,0.7183044845515679,0.9193185855848399,-0.10764247234435281,0.6198967700806025,1.0802055036254778,0.0,0.0,0.0,0.0
0.02325312063098138,0.17998696392879168,0.7460944491658806,-0.0017782439056069905,-0.5260194111008668,0.0013835141155429465,0.850469577870015,-0.04669113603283862,-0.9040194239788375,0.9015459662754564,-0.0007975622441797068,-0.874407090461667,1.0455407010849012,0.07230018990895457,0.7277869811379747,0.9154521577477968,-0.10488843380322581,0.6180807448316855,1.0946496394085656,0.0,0.0,0.0,0.0
0.024296190341022216,0.18196409609861572,0.7470556350435686,-0.0019063607636370362,-0.5259890143532965,0.0015223566542586795,0.8504878629342713,-0.04281143050449134,-0.912955469281099,0.8992934324772472,-0.006276164577151759,-0.8712090914392813,1.0462144464168264,0.059798447665283,0.7364847009596884,0.9117339127852137,-0.10196814087055131,0.616145752222781,1.1090971839159922,0.0,0.0,0.0,0.0
0.025198903758564848,0.18379509090132765,0.7479624020918937,-0.002017189194070115,-0.5259613525511375,0.0016476955767734788,0.850504480687562,-0.038625130942534905,-0.9219956936423666,0.8966249218516529,-0.011341466975006594,-0.8678619783180719,1.0461757850009183,0.04788929577518598,0.7445427814409795,0.9081119234514256,-0.09878680821794429,0.6142249706530223,1.1236829965946713,0.0,0.0,0.0,0.0
0.026004839224082917,0.18548845365885758,0.7488140830508266,-0.002115858110739354,-0.5259391538903613,0.0017646781046337127,0.8505177337720438,-0.03412962715720336,-0.9311133723065923,0.8934894949720268,-0.016025840371739253,-0.8645259400125009,1.0457694206445616,0.03665395653702879,0.7520596816684769,0.904582717893371,-0.09528331861282406,0.612427602290835,1.138431695341667,0.0,0.0,0.0,0.0
0.026749058363225782,0.18705160786572567,0.7496037765727663,-0.002208625818447403,-0.5259267808084638,0.0018788307782012584,0.8505249045121177,-0.029356973178753173,-0.9402102237080542,0.8899019788917426,-0.020360779542360034,-0.8613300312357651,1.0452635336328153,0.026175450962857977,0.7590832587754827,0.9012105446415861,-0.09144011298229723,0.6108945174173432,1.1532658141338408,0.0,0.0,0.0,0.0
0.027455068396726297,0.1884902460922529,0.7503168446675195,-0.0023015526105354144,-0.5259287772519683,0.001994538945199352,0.8505231601362931,-0.024356899791454122,-0.9490177618323429,0.8859705679221846,-0.024371141680126433,-0.8583800804801975,1.044841569799891,0.016525506147445024,0.7655933423161615,0.8981473039885791,-0.0872602702717015,0.6097839662048035,1.1679407303434044,0.0,0.0,0.0,0.0
0.02812901964141652,0.1898097915512179,0.7509293701138026,-0.0023971567467820586,-0.5259454704743011,0.00211241005550403,0.8505122888300055,-0.01918566772964423,-0.9569818913516188,0.8819632048311946,-0.028073674436672684,-0.8557708866591676,1.0445813964734945,0.007711556961482874,0.7714752799074588,0.8956607147908532,-0.08271069628795497,0.6092440645988764,1.1819042048929673,0.0,0.0,0.0,0.0
0.02875349057426835,0.19101810297270747,0.7514074963147911,-0.0024897199745173623,-0.5259668995828128,0.002226444327331938,0.8504984801769777,-0.013889429561303474,-0.9631755616106485,0.8783835377749806,-0.03147956856888053,-0.8536026071902749,1.0444358510029232,-0.0003976176241527341,0.7764956190830344,0.8941553675563939,-0.0776258223350313,0.6094184627900342,1.1940728511442564,0.0,0.0,0.0,0.0
0.02928752348531927,0.19212806728268786,0.7517113883817399,-0.0025611896239274164,-0.525967316335946,0.002322514642143566,0.8504977533067387,-0.0084813103428244,-0.966361200994479,0.8759840261318215,-0.03460017952283267,-0.8520027451638919,1.044254889017375,-0.008131473132484513,0.780319206754022,0.8941343820518229,-0.07159286105120985,0.6105880280359859,1.202530782757092,0.0,0.0,0.0,0.0
0.029688711647995605,0.1931555324060009,0.7518131301959846,-0.0025908282778448733,-0.525919223983023,0.0023876214552217764,0.8505272227963759,-0.002957168610277632,-0.9654113924836577,0.8755984559598698,-0.03745907773502203,-0.8510594657017694,1.0438599917136167,-0.01585470671672245,0.7826666883673777,0.8959859875804672,-0.06397596857301081,0.6136081059590694,1.2043470178735358,0.0,0.0,0.0,0.0
0.02994944613383113,0.19410327403918334,0.7517133026505516,-0.0025817604651928116,-0.525826072694303,0.002423847371541328,0.850584740488392,0.0026309007572934287,-0.9603120220386209,0.8771930769861181,-0.040067247764021055,-0.8507122718336325,1.0431633252565102,-0.023530532914598203,0.7835117651597461,0.8997320320191607,-0.05482412150030689,0.6184170454234078,1.1994865972338713,0.0,0.0,0.0,0.0
0.030096488813192088,0.19496444139622904,0.7514422973641517,-0.002559583122863361,-0.5257198333054458,0.0024465075503375933,0.8506504099830537,0.008181788920018489,-0.9521764295605384,0.8799000333848825,-0.042427449892644506,-0.8507538123065408,1.0421623595257177,-0.030772063987867422,0.7830933980120419,0.9050258010818072,-0.044849396205084886,0.624066288031185,1.1908090137083942,0.0,0.0,0.0,0.0
0.030152938430856896,0.19574145508660998,0.7510464055210951,-0.0025448677713003306,-0.5256270576045202,0.0024687589236075296,0.8507077201903236,0.013632661731865833,-0.9422222855076818,0.8829395404391922,-0.04456261158970586,-0.8509246844013395,1.0407973180363654,-0.037322040060707606,0.7817313051506668,0.9113907659871325,-0.03453626651001843,0.6302072946106019,1.1801648086871142,0.0,0.0,0.0,0.0
0.03011426593466174,0.19644854820184535,0.7505708882227126,-0.00254462229490053,-0.5255547192437324,0.0024954673974625662,0.8507523344784227,0.018958998014367436,-0.931354228440606,0.8857782139006967,-0.04651270559580409,-0.8509638096248545,1.0388562409496673,-0.04318231415402404,0.7796487073913133,0.9184275101074592,-0.02411760748208512,0.6366442699018766,1.1685744245162406,0.0,0.0,0.0,0.0
0.02994738346536343,0.1971101022335597,0.7500558021358567,-0.0025567912664084345,-0.5254948861884667,0.0025263398739505047,0.850789166018839,0.0241318268336772,-0.9201334341558758,0.8881519228104393,-0.04833526515034244,-0.8505839191826153,1.0359456036312409,-0.048536483205837554,0.7769380391968547,0.9258557498989719,-0.01368251468742329,0.6431849009126833,1.1565275655066207,0.0,0.0,0.0,0.0
0.029596732870914046,0.19775864693400722,0.7495382714248506,-0.0025743172905393677,-0.5254336724478794,0.002555612230281629,0.8508268317316695,0.029115419545550768,-0.9088141663761163,0.8899248745139641,-0.05009560331049273,-0.8494373273999378,1.0314914550526755,-0.0537065602957766,0.7736104647937082,0.9334873380769325,-0.0033036957709177885,0.6496150415913786,1.1442159191031804,0.0,0.0,0.0,0.0
0.028989032402223842,0.19843617699444605,0.7490543210103106,-0.002581912109763975,-0.525344678636394,0.0025694775414655934,0.8508817192438942,0.033863002506307895,-0.8975031720117019,0.8910414107683754,-0.05186624683271879,-0.8471683913097419,1.0248049955297058,-0.059203753892064274,0.7696176448793248,0.9411907161080251,0.006960123663357737,0.655664882943812,1.1316534314068534,0.0,0.0,0.0,0.0
0.028040178424254415,0.19919267393253023,0.7486382312553913,-0.002554505961267679,-0.5251865516072218,0.0025471782182545674,0.8509794782445304,0.038328012079592765,-0.8862508340309011,0.8914526085261533,-0.05372771433211931,-0.8434561137898762,1.0151484342165211,-0.0657056764285395,0.7648611707429879,0.9488676703244513,0.017106761842953663,0.6610023319062666,1.1187570801343807,0.0,0.0,0.0,0.0
0.026667496407659322,0.20008104597209986,0.7483174069946641,-0.0024559042940410195,-0.5249029745930038,0.0024611884471911274,0.8511549672938191,0.04249573175181884,-0.8751318011349001,0.8911448488415658,-0.05575807622383456,-0.8380888494717622,1.0018510766440314,-0.07399753493657643,0.7592003570955587,0.9564534842414002,0.02724355552533537,0.6652487967926423,1.1054048260754845,0.0,0.0,0.0,0.0
0.024810880156561924,0.20114502677314267,0.7481027491770137,-0.00224227576952494,-0.5244365066047333,0.0022764175035059203,0.8514435628172585,0.046454847488407794,-0.8642151083496491,0.8901555247040579,-0.057998205895170366,-0.8310277742924005,0.984461139127327,-0.08482509274020915,0.7524940288119849,0.9639431667026249,0.03758079959911152,0.6680655805277835,1.0915136311667328,0.0,0.0,0.0,0.0
0.022463405828950244,0.2023984810844408,0.7479717231299001,-0.0018785360855005358,-0.5237601865848384,0.0019609229293649456,0.851861428186566,0.0504550322537487,-0.8534457969284902,0.8885632050812068,-0.060417097258736965,-0.8224260957379363,0.962916689226042,-0.09851615639353106,0.7446303613365096,0.971469494217399,0.048451368313308894,0.6693853837579802,1.0771691644271364,0.0,0.0,0.0,0.0
0.01970731339124594,0.2038012117034783,0.7478442758552973,-0.001370004064259789,-0.5229164903598017,0.0015152659797843255,0.852381470450679,0.05484856106286681,-0.8426253416717071,0.8866470031485671,-0.06290976827067336,-0.8126252314822549,0.9377420145108211,-0.1144193003003767,0.7355049223977006,0.9794574095326605,0.06055149501350984,0.6698126797924064,1.0627991781662718,0.0,0.0,0.0,0.0
0.016744275012770725,0.2052371042854202,0.7475693112164806,-0.0007889905365530675,-0.5220391089533339,0.0009928618477866617,0.8529206061776756,0.05995772232411035,-0.8312497075554542,0.8846624729976909,-0.06528424290895446,-0.8022377834013993,0.9103379186429336,-0.13066564376638495,0.7250729018316873,0.9887389354915346,0.07553816803711137,0.6710778297931083,1.0492997540042317,0.0,0.0,0.0,0.0
0.013926765669625056,0.20648506234433311,0.7469296067997375,-0.0002260398496097492,-0.5212131407666647,0.00044761922688187506,0.8534263942691034,0.06617637330831123,-0.8182224275222681,0.8813852234892581,-0.0671148343837379,-0.7934350255192216,0.8844889616573364,-0.14490542338549575,0.7133263320660805,1.0002871561672482,0.09746077640902458,0.6764733711462163,1.037350802451413,0.0,0.0,0.0,0.0
0.01156547987699275,0.20743406436277279,0.7459774291007579,0.00019734800102582653,-0.5205913455291188,-2.040990734305099e-05,0.8538059566420135,0.07295219238102023,-0.80438624044558,0.8760909831797078,-0.06833607408736855,-0.7867308989204891,0.8626470467823848,-0.1555122761019215,0.7016158992174857,1.0132231972086687,0.12987918321075378,0.6871531957884902,1.0279479096915591,0.0,0.0,0.0,0.0
0.010005451729492819,0.20798527785505672,0.7450715015793897,0.00037880252571958323,-0.5202612142168779,-0.00035766953440785816,0.8540070243052633,0.07858134648402709,-0.7919591146162156,0.867078228923912,-0.0687998530884999,-0.782465381297326,0.8478126944698299,-0.1614336119351346,0.692767437416568,1.0239272427984418,0.1700174223771531,0.7012241257477507,1.0213977296822516,0.0,0.0,0.0,0.0
0.010013289741176223,0.20797542601272423,0.7450413720921694,0.0004184331225639291,-0.5202474353361565,-0.0003742972977297592,0.85401539262557,0.07860912924424651,-0.7919631981197243,0.8670877011379077,-0.06875153490538224,-0.7825226108249845,0.8476782014851534,-0.16144633612771644,0.6927020734112926,1.023868255102223,0.1700222798270577,0.7012573822384478,1.0214090622089969,0.0,0.0,0.0,0.0
0.010013289741176223,0.20797542601272423,0.7450413720921694,0.0004184331225639291,-0.5202474353361565,-0.0003742972977297592,0.85401539262557,0.07860912924424651,-0.7919631981197243,0.8670877011379077,-0.06875153490538224,-0.7825226108249845,0.8476782014851534,-0.16144633612771644,0.6927020734112926,1.023868255102223,0.1700222798270577,0.7012573822384478,1.0214090622089969,0.0,0.0,0.0,0.0
0.010013289741176223,0.20797542601272423,0.7450413720921694,0.0004184331225639291,-0.5202474353361565,-0.0003742972977297592,0.85401539262557,0.07860912924424651,-0.7919631981197243,0.8670877011379077,-0.06875153490538224,-0.7825226108249845,0.8476782014851534,-0.16144633612771644,0.6927020734112926,1.023868255102223,0.1700222798270577,0.7012573822384478,1.0214090622089969,0.0,0.0,0.0,0.0
0.01060546874420048,0.20799160712247836,0.7450198088906851,0.000469602754296892,-0.5204977951040668,-0.0003977542582338636,0.8538627914112479,0.07865614625943944,-0.7935152634735942,0.8715596555725534,-0.06881281140768417,-0.7841669798068569,0.8521287633035244,-0.16314887646999732,0.695604226582229,1.0239428629895797,0.17061115254513076,0.7038916606065289,1.0214479923356974,0.0,0.0,0.0,0.0
0.01173089550563505,0.20810748094423673,0.744959313185164,0.0004606707926157585,-0.5207663934434916,-0.0003824704400623694,0.8536990130945694,0.07848454741316162,-0.7982508335106903,0.8818785235954394,-0.06927165366682891,-0.7882231041969989,0.8614544761116775,-0.1657130726554867,0.7001194361434582,1.0241879914189587,0.17186503982535703,0.7083774017930667,1.0210569753071015,0.0,0.0,0.0,0.0
0.013393064575364606,0.20839153724379836,0.7448850278796438,0.0003843075692403205,-0.5210766074422789,-0.00030975955709102343,0.8535097688563115,0.07786895335019964,-0.8061080271120339,0.8980615361518657,-0.07034223870828231,-0.7941262435766961,0.8749503207767572,-0.16956983846822152,0.7065047653583071,1.0245210507621139,0.17350980788206108,0.7149595093988514,1.0198166048145318,0.0,0.0,0.0,0.0
0.01559933369642619,0.20891797551559596,0.7448519647667979,0.00022369391610449209,-0.5214617029594089,-0.0001519145157755485,0.8532746446658807,0.07654242361184059,-0.8168782283807365,0.92000119557744,-0.07227326107010727,-0.8011166063029496,0.8917751560416404,-0.17515699684681985,0.7152023826803761,1.0246029421826564,0.17537263749652937,0.7241101314544626,1.0170122360589648,0.0,0.0,0.0,0.0
0.018365986605561605,0.20976907865599953,0.7450125573956874,-2.3184104908595303e-05,-0.521980827969056,0.00019430529191047095,0.8529571952570009,0.07398220671984009,-0.8300147148426774,0.9473989606818449,-0.07554292571070793,-0.8078865380797415,0.9107941982912985,-0.18258006432364562,0.7270702540712405,1.023197024083391,0.17775271568621592,0.7370567309301873,1.0110710364634465,0.0,0.0,0.0,0.0
0.020803134725439234,0.21098988217894726,0.7455819887378587,0.0008387901813852767,-0.5224351868622672,-0.0009099594081771914,0.8526781010047666,0.07352485334795206,-0.8367295267191515,0.9685916915470565,-0.06710832775869739,-0.8130668815911459,0.9053486524410711,-0.13523879994686433,0.7091489477043689,1.0336961561446907,0.15490266724365578,0.7438107400671752,0.9990957169886027,0.0,0.0,0.0,0.0
0.02314640611128761,0.21221959945498572,0.7460912072097353,0.001522770443495515,-0.5229258351129888,-0.0017017073959692502,0.852375126533792,0.07227452834333101,-0.8435879724213253,0.9890806861163216,-0.057379965357344874,-0.8221378381634469,0.9008762291387463,-0.0940036828155752,0.693969435670469,1.0439862629381553,0.1351231087567329,0.7510617376490727,0.9876323723861915,0.0,0.0,0.0,0.0
0.02522590602095539,0.2133621867131917,0.7465361358811166,0.001925379004609641,-0.523398711164084,-0.002111607364329667,0.8520831081425116,0.07035195100669399,-0.8502401864771979,1.0075732054500088,-0.04922231911991477,-0.8329359405674452,0.8984533773071791,-0.06530205510894643,0.6833930839888676,1.0550731767035613,0.12068424056823718,0.7586502252040794,0.9773382236181923,0.0,0.0,0.0,0.0
0.02692900244215607,0.21439382961361492,0.7469390481212593,0.0021570546729740045,-0.5238300051568755,-0.0023107998274425265,0.8518169598080582,0.06819819536598543,-0.8558004974886547,1.022854363848597,-0.0428109252771804,-0.8441925303322233,0.8972868626980234,-0.04508622423997742,0.6757095201878192,1.066913281247953,0.10962948174802983,0.7656182088370994,0.968214940548292,0.0,0.0,0.0,0.0
0.028230617371928442,0.21532370772295872,0.7473359466980428,0.0023019558733988954,-0.5242119785038916,-0.0024118982390545825,0.8515812852212505,0.06603846928935928,-0.8598748316184399,1.0346400688849442,-0.03757265049000357,-0.8553854854680473,0.896662933305128,-0.029643317433786787,0.6694038113166705,1.0791788446217192,0.10042815916580851,0.771555315911985,0.9599406200433166,0.0,0.0,0.0,0.0
0.02916007468766175,0.21617495627933395,0.7477541027442761,0.0024057114656448855,-0.5245443230446207,-0.002469999689545555,0.8513761594122414,0.06393958498159626,-0.8624612333787712,1.0432224114089748,-0.032887007088266626,-0.8663681385083574,0.8960879163323342,-0.016709184882127984,0.6635451667783785,1.0916084194125513,0.09218874701508671,0.7764286812664676,0.9521632336484397,0.0,0.0,0.0,0.0
0.029772775049640897,0.21697416805331116,0.748205866690073,0.0024897612704894113,-0.5248307894179065,-0.002508525605298295,0.8511992427552321,0.061892857452981925,-0.8637647900689218,1.0491440710410587,-0.0283216665783222,-0.877146056566891,0.89526465934195,-0.005055276493449459,0.6576458454261558,1.1040519527585049,0.0844295489120274,0.7803739720743725,0.9446163530909095,0.0,0.0,0.0,0.0
0.030131650235123,0.21774565579253174,0.7486912148129006,0.0025630885420465147,-0.5250771329535249,-0.0025363948876125936,0.8510470032421277,0.05986472744547013,-0.8640674496651154,1.0530029677840178,-0.023653695202775025,-0.8877708190108281,0.8940397750670487,0.005951440795212055,0.6514855522395638,1.1164422184377696,0.07689568849463588,0.7835736521037162,0.9371373304421038,0.0,0.0,0.0,0.0
0.03029659289517941,0.2185088274237663,0.7492025580101619,0.002629032667279761,-0.5252897786472951,-0.0025567372250676116,0.8509155068105599,0.0578212394050115,-0.8636529039307947,1.055351722891743,-0.01881088019359125,-0.8983019228601232,0.8923494729397148,0.016628391236670512,0.6449904116641757,1.1287596114228962,0.06945296440485423,0.7862000538999966,0.9296488717056929,0.0,0.0,0.0,0.0
0.030319416803913903,0.21927779670959666,0.7497287206839148,0.002688672633424065,-0.5254749744761804,-0.0025706051142639847,0.8508009251452858,0.05573634192152396,-0.8627716645010355,1.0566568050764837,-0.013803000489691079,-0.9087980217931226,0.8901751590477878,0.027133505246339874,0.638164931796795,1.1410041387453589,0.06203140503102263,0.7883936623518712,0.9221341897189799,0.0,0.0,0.0,0.0
0.03024216821290811,0.22006251009628738,0.7502571011160778,0.0027422439254674302,-0.5256382184041811,-0.0025781968147837644,0.8506998861833214,0.05359129162578269,-0.861632603860252,1.057292496335107,-0.008669673916457826,-0.9193110886216814,0.8875140278031779,0.037547760748689915,0.6310592359236308,1.1531724825877845,0.054594154672350036,0.7902561949028504,0.9146184475911279,0.0,0.0,0.0,0.0
0.030097001259180176,0.22087077520861523,0.7507739637721275,0.0027895514454145385,-0.5257837893579282,-0.002579026742415586,0.8506097659163179,0.05136977979055293,-0.8604099338065405,1.0575519098318678,-0.0034486338842262543,-0.9298647285580852,0.8843685012655754,0.04791625277062634,0.6237552771663963,1.165232107132826,0.047117077203803245,0.7918459817424834,0.9071613676998184,0.0,0.0,0.0,0.0
0.02990615292763981,0.22171068904161587,0.7512631081414314,0.002829931791703964,-0.5259142837405273,-0.002571809277811093,0.8505289786014236,0.04905162892684497,-0.8592567450107754,1.0576612291090404,0.0018391550330749571,-0.9404014622754209,0.8807602030197587,0.05826294023150356,0.6163602480403767,1.1770799474381224,0.03957199171986903,0.7931680087364767,0.8998631055952965,0.0,0.0,0.0,0.0
0.02968083537180153,0.22259294600620289,0.7517032332282412,0.0028620214436392223,-0.5260301948632553,-0.00255442629667956,0.8504572404487345,0.046607095208521444,-0.8583172304729885,1.0577851188058376,0.007189860833349498,-0.9506894438776229,0.8767767164709653,0.06858124511121934,0.6090019693929487,1.1884679089081835,0.031912660982153625,0.7941545963185594,0.8928848179949922,0.0,0.0,0.0,0.0
0.029418411287388507,0.22353223061436087,0.7520645549983773,0.0028833073264460285,-0.5261298247321433,-0.002523995290648858,0.8503956276427802,0.04399379278514373,-0.857729927636852,1.0580133778194265,0.012601192907211994,-0.9601971995494851,0.8726572094095532,0.0787928343827515,0.6018348950062019,1.1988718668360183,0.024070468947179284,0.7946385903057226,0.886483520311625,0.0,0.0,0.0,0.0
0.029098765631742126,0.2245464389031515,0.7523062584766994,0.0028891503264187953,-0.5262101515939788,-0.0024765401610254713,0.8503460448068563,0.041158357664153565,-0.8576155820774763,1.0583275263965883,0.01804004114916439,-0.9679889503564777,0.8689050747518627,0.08866517794298999,0.5950949054635057,1.2072784698170222,0.015976594654515487,0.7943350258188393,0.8810500810741455,0.0,0.0,0.0,0.0
0.02868460043453958,0.22565260788090066,0.7523795197797162,0.0028711140667965233,-0.5262693089859528,-0.0024055109048363313,0.8503096992512492,0.0380440156902869,-0.8580489697368087,1.0585734229029986,0.02340665977523408,-0.972774381764117,0.866361584779461,0.09770837254709164,0.5892877261201471,1.2118765615372056,0.007625038890877142,0.7928769116014054,0.8770990812344697,0.0,0.0,0.0,0.0
0.028137187526998918,0.22686193693745202,0.7522472854068089,0.0028173067092532407,-0.5263106460883105,-0.0023020727624831557,0.8502845800424745,0.034604098113622424,-0.8590228333583477,1.0585217096164783,0.028549055923729375,-0.9733642185238541,0.8660526967316837,0.10520528108953173,0.585559551784658,1.2098235216036626,-0.0008932336479507575,0.7899865912257753,0.8750610858899626,0.0,0.0,0.0,0.0
0.027441355558559206,0.2281920011555127,0.7519040564066706,0.002724596340813016,-0.5263355400712095,-0.0021643492566900896,0.8502698344790451,0.030788080269450884,-0.8605198803514953,1.0580975934429313,0.03339217835580184,-0.9697570158761352,0.86794525509954,0.11106135249689439,0.5839688330295963,1.2011814944336532,-0.009661975255123608,0.7855878401348618,0.874955781514629,0.0,0.0,0.0,0.0
0.02660616067397068,0.2296683740859559,0.7513766109164352,0.002599574698692435,-0.5263424063937336,-0.0019981290010981354,0.8502663823317576,0.02653838998721396,-0.862519993316426,1.0573938471779207,0.037964517351745955,-0.963145083738324,0.8709688263055321,0.11583849929490904,0.583454414048125,1.1888870431450926,-0.018952495268160056,0.7798128788293434,0.8763652655684426,0.0,0.0,0.0,0.0
0.025639104605377983,0.23131242008869565,0.7507054053846035,0.0024469734107469,-0.5263334011700965,-0.0018082449080648732,0.8502728346737873,0.021806046116050276,-0.8649210625151572,1.056432906482859,0.04227931629084482,-0.954813699336755,0.8742389498876113,0.11991337833057825,0.5835409654689485,1.1748110480453833,-0.028959911043687236,0.772893875236242,0.8787431566550338,0.0,0.0,0.0,0.0
0.024530195566553465,0.23314371831106795,0.7499241495935922,0.0022689513084411797,-0.526311024409876,-0.001598094544415388,0.8502876004849265,0.016544817825206136,-0.8675650348758154,1.0550910012616732,0.04630494469050817,-0.9456894848157038,0.8772047463595896,0.12343001731287255,0.583989390737703,1.1599971512183467,-0.03981222530138428,0.7649906423777552,0.8816449111930932,0.0,0.0,0.0,0.0
0.023253101899371756,0.23518110295782946,0.7490555339924582,0.002066675431602297,-0.5262764297576027,-0.0013710283512497977,0.8503099250364607,0.01071262638819757,-0.8702613879720129,1.0531196436202515,0.04999147197167666,-0.9363040394263078,0.879588664619019,0.1264007315278006,0.5846313091361137,1.1449748009426672,-0.05159630552569142,0.7561607247471236,0.884761137474347,0.0,0.0,0.0,0.0
0.02177126901622666,0.23744028037172676,0.7481130034472467,0.0018416142424664283,-0.526229193513076,-0.001130817836551814,0.8503400294015213,0.004279418757063377,-0.8727972424718365,1.0501807399698475,0.053304296907065035,-0.9269092449479402,0.8812888564116619,0.12880387651654276,0.5853282359080798,1.1299727754000295,-0.0643484393606662,0.7463893182775949,0.8878926865795772,0.0,0.0,0.0,0.0
0.0200440623814911,0.23992891211251482,0.7471042253435553,0.0015965148817801249,-0.5261679611153012,-0.0008817660133165555,0.8503787099432211,-0.0027592945479925583,-0.8749332302676215,1.0458676693236304,0.056250646755720286,-0.9176107179871648,0.882308327054451,0.13065225584279672,0.5859704866078767,1.1150443930932024,-0.07802638789426046,0.7356322763745247,0.8909205931544113,0.0,0.0,0.0,0.0
0.018032260893418802,0.2426402216638872,0.7460348975176061,0.0013363223314428636,-0.5260914585310358,-0.0006289043187310494,0.8504267140575206,-0.010364931959010414,-0.8763917375575367,1.0397154163406355,0.0589005070847477,-0.9084694896204552,0.8827260815094707,0.13204455372776933,0.5864769888483462,1.1001292280878057,-0.09248057279013641,0.7238565180696424,0.8937833396952474,0.0,0.0,0.0,0.0
0.015704000943379075,0.24554604101987418,0.7449125850209376,0.0010693546542026619,-0.5259996338697284,-0.0003786294046684736,0.850484037645216,-0.018436188467370045,-0.8768467199618799,1.0312145267646107,0.0614050105410977,-0.8995635390101615,0.8827079799525969,0.13322323923950768,0.5867823870490745,1.0850733464986368,-0.10743892223381493,0.7110751075596523,0.8964605703677703,0.0,0.0,0.0,0.0
0.013042963784017873,0.2485903193698523,0.7437502128272286,0.0008092037152761833,-0.5258949498968115,-0.00014037773754292914,0.8505491327116077,-0.026789152139453855,-0.8759264349893093,1.0198489948421214,0.06400771606846503,-0.8910160604268323,0.8825535579724498,0.13467197403265477,0.5868063479305081,1.0696237577948182,-0.12252044729467589,0.6973763156275098,0.8989615980629986,0.0,0.0,0.0,0.0
0.010061016859656647,0.25168434232590564,0.742567481225213,0.0005781438590378626,-0.5257840422472368,6.947061125311535e-05,0.8506178941461721,-0.035138738328362194,-0.8732461385059854,1.0051843148455433,0.06703124944738957,-0.8830025156485376,0.882778210522429,0.13730126788440838,0.5864023651909879,1.0534081542607443,-0.1372951048560031,0.6829392234779958,0.9013285114085501,0.0,0.0,0.0,0.0
0.006817508572439339,0.25470480175222526,0.7413841502512187,0.00041409296757057246,-0.5256793552202798,0.00021614071373929016,0.8506826654548668,-0.04307270096607222,-0.8684999806267558,0.987039670725616,0.07082080004690214,-0.8757680516284075,0.8842302267849652,0.14275245554029414,0.5852952481137492,1.035921018852219,-0.1514312590326302,0.6679934599242575,0.9036988902307078,0.0,0.0,0.0,0.0
0.0034433558797603253,0.2574954645414517,0.74019158053839,0.000385656191310108,-0.5256173955453838,0.00021325143758324795,0.85072096441384,-0.0499837600413477,-0.8615347222252447,0.9656567511751747,0.07583569607512314,-0.8698110000289112,0.88840189988358,0.15380474223056062,0.583086573555414,1.0166409133413707,-0.16504012256794034,0.652642942410503,0.9065711835355469,0.0,0.0,0.0,0.0
0.0005030008196645155,0.26006072240502315,0.7388342561782169,0.000565817799520737,-0.525539955296808,1.0181636153901193e-06,0.8507687319335437,-0.05584319071958745,-0.8557983954935457,0.9467072339746008,0.08213347451515154,-0.865039413543085,0.8953757686868301,0.1751159577903598,0.5805185371147248,0.9946983624360363,-0.17938702925788616,0.6371591554534956,0.910649544255427,0.0,0.0,0.0,0.0
-0.001696655001879641,0.2621156814873474,0.7373448214295986,0.0010211708996446607,-0.5256097887625021,-0.0005039937408509256,0.8507250161816924,-0.05977747699249675,-0.8512542280842614,0.9315624182857076,0.08998236702536119,-0.8645846831879671,0.9084582658856544,0.21074578726466914,0.5768648298214409,0.969410878315403,-0.19420030696952614,0.6223933693060196,0.9168969967380951,0.0,0.0,0.0,0.0
-0.0027712264655697606,0.2632999764862939,0.7358654373132294,0.0016696298033488986,-0.5259994626654805,-0.0012512040421252806,0.8504823408515844,-0.061002402273111093,-0.848153659555136,0.9223417114317854,0.09836110013077516,-0.8727315800078889,0.9314383063274235,0.2546169903054885,0.574897169310718,0.9416762546205506,-0.2076138594295654,0.6103546895943313,0.9258660085881288,0.0,0.0,0.0,0.0
-0.0028104622565980108,0.26347833236217516,0.7357742341095773,0.0015228360917547733,-0.5260499932976992,-0.0012796597828718932,0.8504513201780384,-0.06125698121133409,-0.8482419936558148,0.9221857669273221,0.09837920425602106,-0.8727456722947872,0.9314484559923315,0.25464307759007965,0.5749130029192696,0.9416755110424451,-0.20764142476637318,0.6102258331057293,0.925779624317464,0.0,0.0,0.0,0.0
-0.0028104622565980108,0.26347833236217516,0.7357742341095773,0.0015228360917547733,-0.5260499932976992,-0.0012796597828718932,0.8504513201780384,-0.06125698121133409,-0.8482419936558148,0.9221857669273221,0.09837920425602106,-0.8727456722947872,0.9314484559923315,0.25464307759007965,0.5749130029192696,0.9416755110424451,-0.20764142476637318,0.6102258331057293,0.925779624317464,0.0,0.0,0.0,0.0
-0.0028995932778969995,0.26441436584387223,0.7354652169205422,0.0015604581962228381,-0.5255866019345425,-0.001458122149694879,0.850737422896698,-0.0632480615753692,-0.8530236675312051,0.9268594813072807,0.09656988035543297,-0.8746393785852865,0.9311236329454194,0.24808231356250682,0.5723714961405718,0.9482288451146412,-0.21287581347634282,0.6073459229356307,0.9231815230867279,0.0,0.0,0.0,0.0
-0.0024535185693355622,0.26587534559645765,0.735076780788846,0.0014696648701623966,-0.5253278788172525,-0.0014527646530841701,0.8508973788286095,-0.06709397272372788,-0.8610697854417346,0.9376990686786641,0.0930322640569714,-0.8770758548449217,0.9333602448159793,0.24133666621013863,0.5703505629782317,0.9575106681064101,-0.22028613942061664,0.6064283189920451,0.9193709323180612,0.0,0.0,0.0,0.0
-0.0012916296130825293,0.2677639694817294,0.7347484912874552,0.001171924623766417,-0.5255004681503247,-0.0012740848379142028,0.8507915498371452,-0.07247743155292115,-0.8712717625862196,0.9545676320401331,0.08804290586059196,-0.8792206437680009,0.938592973110127,0.2356937306074376,0.5704787916482827,0.9680360856068676,-0.22953126037287203,0.6091422986056233,0.913724941422641,0.0,0.0,0.0,0.0
0.0007280988693479397,0.27023338783416656,0.7348514312162129,0.000608190031595684,-0.5261016086708649,-0.0008465971845811769,0.8504210784852528,-0.07999568454309627,-0.883462683854715,0.9786129461899055,0.08100167284327896,-0.8801767523867418,0.9471499630645989,0.23084074229486212,0.5749214550481012,0.9767563241553737,-0.24088765242652607,0.6181445963775447,0.9018545360687569,0.0,0.0,0.0,0.0
0.003993587493016691,0.2738608910858835,0.7368174620615142,-0.00045510153633671025,-0.5274186507773587,0.00022015068504064526,0.8496053855928987,-0.09202783409636187,-0.8948210707730687,1.0117720999633895,0.0693233212960602,-0.8738624853385872,0.9572390507321826,0.22686209492154336,0.5914732318145048,0.972782643982876,-0.25476802755499695,0.6442664148292374,0.8678076930810155,0.0,0.0,0.0,0.0
0.006215397979343635,0.27723169796494246,0.7394058631374618,3.816496443819285e-05,-0.5260731671016365,-0.00029256799555680814,0.8504392605019225,-0.08449773724929353,-0.8728896272651577,0.9653299815439723,0.06208004078129954,-0.8797759128674083,0.9736692074838905,0.20137538484845038,0.6100704453427191,0.9599667806161606,-0.20894852578111395,0.6285702448477978,0.9197705239250795,0.0,0.0,0.0,0.0
0.008876464164146235,0.28063381566375406,0.7416920791679822,0.00015918617708345583,-0.5255119456314756,-0.00041166487271274756,0.8507861071917046,-0.07724371626079404,-0.8637242609756414,0.9377504899964842,0.053730265649663184,-0.8826930371556984,0.9888410804819017,0.18097900882129958,0.628489974608055,0.9495797999630091,-0.1712726869658006,0.622551617616048,0.9590308071715912,0.0,0.0,0.0,0.0
0.011734412389440663,0.28392540497546476,0.7436182159163782,-4.0625900011028234e-05,-0.5254679220530571,-0.0002352864506314767,0.850813378998629,-0.0707695232977356,-0.8629416449643037,0.9230708395394701,0.044943086658941395,-0.8835807172174519,1.002497322451964,0.1649818805900689,0.6457789326019895,0.9417053184714339,-0.14831883647105207,0.6204270247759033,0.9882839725417569,0.0,0.0,0.0,0.0
0.014504108997522917,0.2870468796571092,0.7452796962267114,-0.0003696202812883613,-0.5256065933331221,5.409824153967827e-05,0.8507276705849987,-0.06539903124717993,-0.8667566547825558,0.9153440230593387,0.036304840464068774,-0.8833652473559597,1.0143024946547088,0.15101370863962194,0.6617382097602695,0.9353418526573303,-0.13583910896846896,0.619470056346177,1.0110885515651438,0.0,0.0,0.0,0.0
0.01701843920818593,0.28998295555900383,0.7467453832559621,-0.0007121968321181188,-0.5257646387143862,0.00035780366099274504,0.8506297134651148,-0.06104263337451526,-0.873015829596183,0.911220798869248,0.02807606804762329,-0.8824139602188464,1.0239489186578148,0.1376905221864527,0.6762766808389078,0.9299501991826726,-0.12914283140136767,0.6187028443078649,1.0299594911981411,0.0,0.0,0.0,0.0
0.01920846339455909,0.29272984756247566,0.7480608528776508,-0.0010184569678748719,-0.5258839287160615,0.0006329609783247733,0.8505554982621444,-0.05737002889490196,-0.8805631798080948,0.9088447284110283,0.020365044207039225,-0.8808561613182609,1.0313551486131605,0.12444446558069647,0.6894078731234887,0.9252522362191585,-0.12520895251625166,0.6177747927934713,1.0465347924558654,0.0,0.0,0.0,0.0
0.02107006859057586,0.29528730861982433,0.7492587871616655,-0.0012756129938311872,-0.5259564261773937,0.000868067099377928,0.8505101157738835,-0.05400891944938199,-0.8887903023267231,0.9071770484209156,0.01320612920701043,-0.8787580985459128,1.0366651268886762,0.11119563209460963,0.7012348459455372,0.9210542506160222,-0.12242275666009926,0.6165864942916797,1.061853457402921,0.0,0.0,0.0,0.0
0.02263510491789244,0.2976586233237223,0.7503636122771703,-0.0014871535760124668,-0.5259929542342511,0.001065824961381524,0.8504869572705498,-0.05065949107217389,-0.8973828837249087,0.9056414618647392,0.006595091999657766,-0.8761911438917324,1.04016862639572,0.09808009665394878,0.7119147318824458,0.9171955592242641,-0.11998759958182958,0.6151497444033597,1.076563943518508,0.0,0.0,0.0,0.0
0.02395040289165245,0.2998514062569136,0.7513932864634835,-0.0016600983517965468,-0.5260046315442681,0.001232494875805506,0.8504791900004504,-0.047123943971670995,-0.9061865472013446,0.9039101387684152,0.0005072496448796553,-0.8732673164735419,1.0422337213777473,0.08525934973314939,0.7216189646046621,0.9135441813796646,-0.11750669997073815,0.6135106536388807,1.0910550872116573,0.0,0.0,0.0,0.0
0.02506821620702806,0.30187558455185054,0.7523596417143958,-0.0018041381771305666,-0.5260049230233427,0.0013770066561039134,0.8504784946683334,-0.04330050104333235,-0.915132498413955,0.9018227343718652,-0.0050962124255079675,-0.8700958645645568,1.0432297366990604,0.07291062960474085,0.7305145617856101,0.9100093200580651,-0.11479169523342143,0.611760631988617,1.1055644728987586,0.0,0.0,0.0,0.0
0.02603748936740191,0.3037430505359492,0.7532692161846652,-0.0019270151094241998,-0.5260020030280702,0.0015066498457447413,0.8504798113003438,-0.03915263613789379,-0.9241939500623846,0.8992921462064507,-0.010258406421493484,-0.8668044902755448,1.0435092762982334,0.0611524146175398,0.738741980379562,0.90654223373144,-0.11174774914335962,0.6099988751507408,1.1202123207995711,0.0,0.0,0.0,0.0
0.026900523807841033,0.30546596075994237,0.7541231328467145,-0.0020349544590415303,-0.5260003925168135,0.0016272073775434582,0.8504803338282774,-0.034687835537892224,-0.9333378373438591,0.896273770838778,-0.015022149388243944,-0.8635238689342807,1.0433838375812863,0.05005837280121933,0.7464028998423166,0.903143464924004,-0.10833316751298915,0.6083367531559143,1.1350237213525483,0.0,0.0,0.0,0.0
0.027691563540288153,0.3070549889807051,0.7549159283390587,-0.002133599892811554,-0.5260035593144571,0.001743211838651438,0.850477903623901,-0.029942112074037745,-0.9424660993777966,0.8927883466508151,-0.01942492595576536,-0.8603765899369095,1.043109875995652,0.03968148854366417,0.753549493087782,0.8998783067800219,-0.10454595852496408,0.6069077817870261,1.1499160918572666,0.0,0.0,0.0,0.0
0.028433809235558657,0.3085184344186613,0.7556339286093171,-0.0022275010848311896,-0.5260140082169692,0.0018572271035013543,0.8504709590020821,-0.024965412764538883,-0.9513087769303632,0.8889417700724404,-0.023494411709788252,-0.8574755918892996,1.042873191540573,0.03005426993008263,0.7601663179634355,0.8968988819480823,-0.10040036828689665,0.6058567633264355,1.164639492104938,0.0,0.0,0.0,0.0
0.029134497254072515,0.3098628846754427,0.7562531300918004,-0.0023183874562587616,-0.5260312571258844,0.00196885818502828,0.8504597963476062,-0.019811225183617186,-0.9593056256039333,0.8849929214366921,-0.027248292927002194,-0.8549259662316002,1.0427640027828746,0.02116602594163565,0.7661418983201215,0.8944764466076859,-0.09586982190563917,0.6053292056644456,1.1786447795815547,0.0,0.0,0.0,0.0
0.029779390276787446,0.31109539318869517,0.7567380244485191,-0.0024023320883180214,-0.5260479170734359,0.0020740037758874706,0.8504490086134351,-0.014524794167908932,-0.9655256615547241,0.8814460997294261,-0.030699608674903216,-0.8528293605350122,1.0427508683330382,0.012922209043001592,0.7712404882348366,0.8930267373328085,-0.09078318264788945,0.605499569141852,1.1908644958199723,0.0,0.0,0.0,0.0
0.030332562486621542,0.31222637798778013,0.7570461659786898,-0.0024669568927227392,-0.5260464676349829,0.0021638543837068994,0.8504494962939613,-0.009123964566107505,-0.9687287960012649,0.8790776912483714,-0.03386334051114503,-0.8512866581771162,1.0426847086447006,0.0050973427007513,0.7751243145542617,0.8930712985020344,-0.08471628829423099,0.6067241699216477,1.1994104338499014,0.0,0.0,0.0,0.0
0.030755493177919563,0.3132697961893857,0.7571482574241282,-0.0024972560940971365,-0.5260087829496924,0.0022294682233316124,0.8504725471426018,-0.003608847810428157,-0.9677824090896071,0.8787572744479817,-0.03676430028801631,-0.8503443858764193,1.0423692379372091,-0.002583444925771605,0.7775224484275808,0.8950123328780103,-0.07703578483138977,0.6099317686110162,1.201373710561527,0.0,0.0,0.0,0.0
0.031039020549732142,0.31422953669252546,0.7570464498983931,-0.002494419066581281,-0.5259368327815862,0.002269515059071434,0.85051694580331,0.0019775208602988243,-0.9626663408010439,0.8804516257651396,-0.039408237593770906,-0.8499443295218659,1.0417107352089552,-0.010134402080678069,0.778423292501757,0.8988641062909685,-0.06782469756171089,0.6150342691777231,1.1967090918320074,0.0,0.0,0.0,0.0
0.031203385080099923,0.3151022407165706,0.7567745311680155,-0.002476087125338067,-0.525850566136564,0.002292277967149321,0.8505702772541045,0.007542380213403236,-0.9544924259489022,0.8832510726214553,-0.041794108716966906,-0.8499223859472493,1.0407132225546183,-0.017312048404127537,0.7780667997365872,0.9042551255242127,-0.05782214566397999,0.6209770375234848,1.1882375782122603,0.0,0.0,0.0,0.0
0.03126537127295285,0.31589331441946467,0.7563809010474436,-0.0024573262178739833,-0.5257655037598772,0.002308689173373667,0.8506228697597322,0.013006724930270448,-0.9445061365061512,0.8863678404740761,-0.04395100323942393,-0.8500516532847519,1.0393154683158008,-0.02393884810718369,0.7767494110172907,0.9106914852656265,-0.04748716100533774,0.6273365704253325,1.1777717380388684,0.0,0.0,0.0,0.0
0.031218009247741835,0.3166170240939366,0.7559111938408453,-0.0024436763085698573,-0.5256853139641479,0.0023234285872750227,0.850672428616394,0.01833476061484343,-0.9336362638255393,0.8892852194545743,-0.04591965501533034,-0.8500801190845678,1.037302892049116,-0.03002577889992182,0.7746802486888124,0.9177691243950248,-0.03703481600631106,0.6338906257613662,1.1663161151406642,0.0,0.0,0.0,0.0
0.0310291892907953,0.31729367256032737,0.7554052975320527,-0.0024333129464850583,-0.5256055191081036,0.002334933532153997,0.8507217320349856,0.023517705221725603,-0.9223894635322469,0.891658133123145,-0.04774313919855253,-0.8497173810124953,1.034288708822992,-0.03573195002563143,0.7719631683302685,0.9252022634328159,-0.026572042773580495,0.6404389231148744,1.1543697324778337,0.0,0.0,0.0,0.0
0.030647766687347276,0.3179499087545161,0.7548968209555893,-0.002419873642320612,-0.5255141450190768,0.0023383139836736276,0.8507782083975457,0.028524229026993683,-0.9110547343021738,0.8933987628914541,-0.049473804743910554,-0.8486470296654607,1.0297516347705957,-0.04132027180853502,0.7686030664234452,0.9328135940440013,-0.016145671501662587,0.6467853310259022,1.1421295081786484,0.0,0.0,0.0,0.0
0.030007981907512554,0.3186180375449001,0.7544164171124861,-0.0023917464111842717,-0.5253918305614576,0.002324177342381221,0.8508538664941626,0.03332030893355156,-0.8997362595105151,0.8944487914093122,-0.05116880045001654,-0.8465346871568535,1.023065519948225,-0.047161728629660254,0.7645427839684005,0.9404873985651078,-0.005786416528092727,0.6527078616091186,1.1296342776678936,0.0,0.0,0.0,0.0
0.029036614417931456,0.3193364955912304,0.7539917104551072,-0.0023305740310456515,-0.5252105710186052,0.0022766612089592836,0.8509660635587861,0.03788115231541478,-0.8884931553591283,0.89481172751417,-0.052887657459469904,-0.8430641585537649,1.0135576771383235,-0.053757669484045534,0.7596920125451775,0.9481526019621475,0.004496724482793748,0.657957658271158,1.1168368660838022,0.0,0.0,0.0,0.0
0.027662243457652173,0.3201466252648569,0.7536440428894838,-0.00221040176117787,-0.524933825068435,0.002174060058151146,0.8511373960095627,0.0422235053534263,-0.8773737052438795,0.8945047648958432,-0.05468708290495595,-0.8379874012628052,1.0005897299302766,-0.061697213439207005,0.75393677159488,0.9557775968172899,0.014761157211965865,0.662265358486931,1.1036591997283753,0.0,0.0,0.0,0.0
0.025831057308149986,0.3210846731958882,0.7533801203087416,-0.0019999098608718745,-0.524522186460526,0.001991712456568925,0.8513921008282306,0.04644449141214795,-0.8664151980377662,0.8935683799621126,-0.05660796000938287,-0.8311919965674991,0.983685995555157,-0.07153017237228942,0.7471431820689738,0.963393098978024,0.025189425021147835,0.6653980259236504,1.0900515924410865,0.0,0.0,0.0,0.0
0.023532356848480318,0.3221675810598452,0.7531779096254676,-0.0016718257276058465,-0.5239507982934704,0.0017085114242401164,0.8517451772420463,0.05075159919818271,-0.8556245020130864,0.892169339111912,-0.05865181775037592,-0.8227683170723095,0.9627158116880052,-0.08352833329429185,0.7391743386439716,0.9711553346092044,0.03614446105351931,0.6673169620472744,1.0760857524581828,0.0,0.0,0.0,0.0
0.02083186971557383,0.3233711735425729,0.7529696481298841,-0.0012232547479856877,-0.5232414361562074,0.0013207435941415863,0.8521825853497416,0.05546077141453393,-0.8448187932156503,0.8905449829802088,-0.060750502025952016,-0.8130445831415749,0.9381105062588173,-0.09732348122080142,0.7299321740555863,0.9794406006346228,0.048281898089819086,0.6684694222600103,1.0621084370425578,0.0,0.0,0.0,0.0
0.017909810738051934,0.3246068204494497,0.7526248447336645,-0.0006999555135374369,-0.5224858209966117,0.0008600102459121652,0.8526472525623668,0.060866731154572,-0.833564036442843,0.8889660181619133,-0.06274451978785614,-0.8027166966874291,0.9112267392094955,-0.11160769064048517,0.7194032873319846,0.9889573826175315,0.06303906019038126,0.670256220732243,1.0488748772861392,0.0,0.0,0.0,0.0
0.015094327448345428,0.32568968718240654,0.7519478762024195,-0.00016843353074707374,-0.5217407243741276,0.00036169333857177083,0.853104013199818,0.06728490080707425,-0.8209122510790193,0.8864271617189363,-0.06426409313043045,-0.7939029273950834,0.8856404539042811,-0.12449458073466631,0.7075999688537313,1.0005561605668294,0.0838716890511366,0.6755574511739283,1.036978387716636,0.0,0.0,0.0,0.0
0.012730916930089436,0.32650997302493745,0.7509834264693134,0.0002620040220066148,-0.5211438241717835,-8.89844758094801e-05,0.8534688265913787,0.07420506948496035,-0.807600857008146,0.8822676446247538,-0.06521981807166519,-0.7874323421103682,0.8642454015098153,-0.134408389845095,0.6959078216193882,1.013332303560671,0.11403488829925063,0.6856994599713859,1.0273266691510305,0.0,0.0,0.0,0.0
0.011175536715299576,0.3269911935106414,0.750087175767878,0.0004808473940133081,-0.5208013727932452,-0.0004295294613113412,0.8536776407912396,0.07986431454575549,-0.79598335260173,0.8750884393939757,-0.065534391873593,-0.7835153957702741,0.849934153135205,-0.1402642755677436,0.6871719339256326,1.0237609927716373,0.15078185395805874,0.6989760716537725,1.0202759388446787,0.0,0.0,0.0,0.0
0.011179742746317025,0.3269760723422115,0.7500575177250395,0.0005236888842606149,-0.5207889035517269,-0.00044442049019346514,0.8536852149227901,0.07989209649973374,-0.7959885821919189,0.8750983549449544,-0.0654802734262481,-0.7835716712984342,0.8497995490611755,-0.14027596854397223,0.6871059692361048,1.0237020679502133,0.15078546488854064,0.6990091998705661,1.0202871419241688,0.0,0.0,0.0,0.0
0.011179742746317025,0.3269760723422115,0.7500575177250395,0.0005236888842606149,-0.5207889035517269,-0.00044442049019346514,0.8536852149227901,0.07989209649973374,-0.7959885821919189,0.8750983549449544,-0.0654802734262481,-0.7835716712984342,0.8497995490611755,-0.14027596854397223,0.6871059692361048,1.0237020679502133,0.15078546488854064,0.6990091998705661,1.0202871419241688,0.0,0.0,0.0,0.0
0.011179742746317025,0.3269760723422115,0.7500575177250395,0.0005236888842606149,-0.5207889035517269,-0.00044442049019346514,0.8536852149227901,0.07989209649973374,-0.7959885821919189,0.8750983549449544,-0.0654802734262481,-0.7835716712984342,0.8497995490611755,-0.14027596854397223,0.6871059692361048,1.0237020679502133,0.15078546488854064,0.6990091998705661,1.0202871419241688,0.0,0.0,0.0,0.0
0.011776755844229462,0.32699443415691115,0.7500296586545364,0.0005807857006398579,-0.5210406371755858,-0.00047922334630582015,0.8535315386349902,0.07996256661368445,-0.7975313213943331,0.8795635692044805,-0.06551998441840985,-0.7852792238393219,0.8543180920327426,-0.1419701773605012,0.6899882752209299,1.0238591978993663,0.15108965807629451,0.7015510776257176,1.0203498588765219,0.0,0.0,0.0,0.0
0.01291340612377427,0.32710426517676955,0.7499626940496016,0.0005741894601231955,-0.5213182828765686,-0.0004709957372865505,0.8533619961119111,0.07982696364433471,-0.8022110582023959,0.8898202656854375,-0.06594156718641114,-0.7893968311306383,0.8637529769785174,-0.14431551777398582,0.6944689133235911,1.024171707518632,0.15211147985357984,0.7059926438142313,1.0200082206973684,0.0,0.0,0.0,0.0
0.014589716034812353,0.3273619684108522,0.749885930753871,0.0004993156888103086,-0.5216436044637511,-0.0004038934879739681,0.8531632537070257,0.07929523704181213,-0.8099032886623407,0.9057966624551256,-0.06692303436191804,-0.7953835679873921,0.8774326946392017,-0.14766152764302576,0.7008024860115897,1.0244903443805047,0.15361997592162707,0.7125795229748645,1.018833503048503,0.0,0.0,0.0,0.0
